rsonawane2002/My_IMU/logs_2/traj_382/clean_382.csv
time,j1,j2,j3,j4,j5,j6,j7,gripper1,gripper2,imu_ax,imu_ay,imu_az,imu_gx,imu_gy,imu_gz,quat_x,quat_y,quat_z,quat_w
1448.5833333323446,0.00016700293,-0.785875,4.0107683e-05,-2.3551247,9.29385e-05,1.570997,0.786,0.04,0.04,0.0,-0.0,0.0,2.875329272945135e-08,-0.0011641195053377316,4.421952117202833e-08,0.9999995971961153,0.00020320632366974898,0.0008736418299892524,3.263050917662294e-05
1448.5999999990113,0.00016701537,-0.78576016,4.011468e-05,-2.3552213,9.2983835e-05,1.5709941,0.786,0.04,0.04,-0.2919984595575409,-5.3292311706897846e-05,0.020128404019348345,1.773174284916557e-08,-0.002239237556565406,6.498269726592537e-07,0.9999996850596005,0.00020320237086264025,0.0007665025166840749,3.260963510852349e-05
1448.616666665678,0.00016709411,-0.7856543,4.012169e-05,-2.35531,9.309403e-05,1.5709913,0.786,0.04,0.04,0.023328728453808623,-0.00012181680419811962,-0.0016704644893339449,-6.950822263597375e-07,-0.003233475157072789,4.581016867238904e-06,0.9999997558532382,0.00020316486501861707,0.0006677972353212107,3.262443933062714e-05
1448.6333333323446,0.00016734983,-0.78555703,4.0129962e-05,-2.355391,9.3382434e-05,1.5709884,0.786,0.04,0.04,0.022460755079234396,-0.0003300972764981277,-0.0015249732600697286,-1.9780339099561236e-06,-0.004158906634000975,1.4885299064928608e-05,0.9999998122732559,0.00020303802456201172,0.0005771981389279594,3.2731055363772034e-05
1448.6499999990112,0.00016794213,-0.7854678,4.0141487e-05,-2.3554652,9.401817e-05,1.5709856,0.786,0.04,0.039999995,0.020650724918480634,-0.000634820460486456,-0.0015268289524694723,-4.208716282750036e-06,-0.005021578260680962,3.507769137004397e-05,0.9999998568458246,0.00020274137554992142,0.0004940793447794663,3.3013117609616304e-05
1448.666666665678,0.00016907464,-0.78538626,4.0159037e-05,-2.3555324,9.519429e-05,1.5709858,0.7860019,0.04,0.039999995,0.021238127075395852,-0.0010074786867452434,0.0009960967586764014,-6.9275103721516825e-06,-0.005832883993458132,6.607144002540332e-05,0.999999890685635,0.00020312585493037727,0.0004198116870841906,3.356713363644134e-05
1448.6833333323445,0.00017099066,-0.785312,4.0186198e-05,-2.3555973,9.7143784e-05,1.5709864,0.7860038,0.04,0.04,0.012205936128828476,-0.0014533113557922781,-0.0028256519514213707,-1.8735426198107245e-05,-0.0065838056364808314,0.00011012914189696896,0.999999917333923,0.00020311501461367493,0.0003505506470011555,3.4506258826600084e-05
1448.6999999990112,0.00017396852,-0.7852448,4.0226732e-05,-2.3556554,0.00010015544,1.5709872,0.78600574,0.04,0.04,0.01926377064405127,-0.00198120163847027,-0.0008868814352913645,-2.9895101662105354e-05,-0.007312684738084203,0.00017081713482928313,0.9999999372795658,0.0002025682737052807,0.00028829291426765805,3.59743608619747e-05
1448.7166666656778,0.00017831827,-0.78518414,4.0284966e-05,-2.3557103,0.00010454757,1.5709882,0.78600955,0.04,0.039999995,0.012893705858796345,-0.002565792070732771,-0.002124309650386458,-3.976789028555788e-05,-0.008006565891813512,0.0002498601742448813,0.9999999521306854,0.00020228293871836736,0.0002310118189077314,3.812845546975121e-05
1448.7333333323445,0.0001843781,-0.78513026,4.0365925e-05,-2.3557608,0.000110630506,1.5709926,0.7860153,0.04,0.04,0.015901830222797564,-0.0031773618450052425,0.0006257814526566818,-5.601400146231872e-05,-0.008687157587933696,0.00034585593837016174,0.9999999623537614,0.00020208824364093334,0.00018100205013757106,4.112268684476698e-05
1448.7499999990112,0.00019251075,-0.7850828,4.047463e-05,-2.3558097,0.00011879776,1.5709974,0.7860229,0.04,0.039999995,0.010066143611853207,-0.003876696097374283,-0.0026507351793547684,-7.788120056837362e-05,-0.009336438702862387,0.0004653446183720157,0.9999999694761272,0.00020180121063272224,0.0001352236497444006,4.515064268490069e-05
1448.7666666656778,0.0002031014,-0.7850418,4.061704e-05,-2.3558533,0.00012939594,1.5710055,0.78603244,0.039999995,0.04,0.01708800123441101,-0.0045687070389413085,0.0011758027925301562,-0.00010389497414436445,-0.009988660861866974,0.0006030810126345972,0.9999999737843837,0.00020122719531037812,9.695474035497579e-05,5.038478137583179e-05
1448.7833333323445,0.00021655382,-0.7850072,4.0798757e-05,-2.3558962,0.00014284567,1.571014,0.7860439,0.03999999,0.04,0.008416827404444938,-0.005333977289395398,-0.0029487833397068286,-0.00013242451743284865,-0.010613899586811975,0.0007656018128561459,0.9999999763899162,0.00020016258576847603,6.246985668309096e-05,5.703177493985935e-05
1448.799999999011,0.00023328887,-0.78497905,4.1025873e-05,-2.3559382,0.00015956486,1.5710263,0.7860581,0.039999988,0.039999995,0.009973682145369978,-0.006118179888540455,-0.0005090905571103477,-0.00016251649513498816,-0.011253889610975615,0.0009523134093455329,0.9999999775358916,0.00019884207618189282,3.355689872698834e-05,6.529915268538572e-05
1448.8166666656778,0.00025374175,-0.78495747,4.130483e-05,-2.3559768,0.00017998545,1.5710415,0.7860754,0.039999984,0.03999999,0.013826347318457444,-0.00692888926277273,-9.363700614883896e-05,-0.00019665487753269721,-0.01189141886502353,0.0011637254194118132,0.9999999776595935,0.00019716504991073439,1.1020249432851379e-05,7.540099365689879e-05
1448.8333333323444,0.00027836012,-0.7849425,4.1642295e-05,-2.3560133,0.00020455185,1.5710579,0.7860964,0.039999973,0.03999998,0.011375500501564773,-0.00776219776662296,-0.0018151586040238143,-0.00023418016199589962,-0.012526189030704963,0.0014005483522138175,0.9999999770878949,0.0001952332967304966,-6.481561924494823e-06,8.755660304782473e-05
1448.849999999011,0.00030760193,-0.78493446,4.2044918e-05,-2.3560493,0.00023371831,1.5710782,0.7861215,0.039999966,0.039999977,0.00966217321931584,-0.00861459814408892,-0.0008662185201124828,-0.0002765141451098992,-0.013171645895443743,0.0016625360731965483,0.9999999760007117,0.00019302447953022404,-1.838274067567614e-05,0.00010199118301818891
1448.8666666656777,0.00034193392,-0.7849332,4.2519412e-05,-2.3560848,0.00026794945,1.571103,0.78615093,0.039999958,0.03999997,0.009757210871863542,-0.009484570720920802,-0.00026571873101843835,-0.00032388367081257006,-0.013826561861586987,0.001951916346508657,0.9999999744995508,0.00019042233405247894,-2.4385812097089833e-05,0.0001189351273092228
1448.8833333323444,0.0003818298,-0.7849392,4.3072803e-05,-2.3561203,0.00030771506,1.5711325,0.786185,0.03999995,0.03999996,0.009549949248599532,-0.01036613411891266,-0.00057252172542821,-0.0003755978665239772,-0.014491292020581994,0.0022682542268063774,0.9999999725475145,0.00018733679835263264,-2.437224275130464e-05,0.00013862138341037006
1448.899999999011,0.00042776903,-0.78495264,4.3712203e-05,-2.3561559,0.0003534907,1.5711671,0.78622425,0.039999947,0.03999996,0.00975789574861885,-0.011258504139109159,-0.00046364431673939777,-0.0004311561907217711,-0.01516970166980172,0.0026110396993777466,0.9999999699437855,0.0001837643209125608,-1.8164056675043044e-05,0.00016128598703203106
1448.9166666656777,0.00048023523,-0.7849735,4.444462e-05,-2.3561919,0.0004057574,1.5712062,0.7862692,0.039999943,0.039999958,0.008863348424004158,-0.012159038483802757,-0.0010688173987860594,-0.0004907970882144837,-0.015859318141047022,0.002982259239269517,0.9999999663082408,0.0001797589145049487,-6.209319011672527e-06,0.0001871675566958869
1448.9333333323443,0.00053971494,-0.7850023,4.527734e-05,-2.3562288,0.00046499723,1.5712506,0.78632015,0.039999947,0.039999966,0.008807849559899772,-0.013063909246180394,-0.0010225889910842056,-0.0005557842220494358,-0.016570344753055334,0.0033804117945047834,0.9999999611406655,0.00017522411097245242,1.184838364471554e-05,0.00021650587611121285
1448.949999999011,0.0006066969,-0.78503895,4.6217345e-05,-2.356268,0.0005316963,1.5713006,0.78637743,0.03999995,0.03999997,0.006868658764158653,-0.013973568474153465,-0.0011723761919268938,-0.0006251203704408133,-0.017301832140121723,0.0038073545620619605,0.9999999537691968,0.0001700626303602254,3.562017516535939e-05,0.0002495426002017986
1448.9666666656776,0.00068167003,-0.7850842,4.7271922e-05,-2.35631,0.00060633954,1.5713569,0.7864416,0.039999954,0.039999977,0.006596497677291424,-0.014882563055552793,-0.0015475590593005961,-0.0006985628732207052,-0.018060662145472278,0.004261463326073708,0.9999999433169758,0.0001643259306426779,6.534272511926265e-05,0.000286519391711542
1448.9833333323443,0.0007651237,-0.785138,4.8448263e-05,-2.3563523,0.00068941346,1.5714192,0.78651303,0.039999954,0.039999977,0.010612501322926349,-0.015794032110713965,-0.0005723562198189924,-0.0007769391801468973,-0.018845700413386242,0.004744521526601795,0.9999999286272436,0.00015791585601328546,0.00010214650259183114,0.0003276799991467086
1448.999999999011,0.0008575464,-0.7852008,4.9753653e-05,-2.3563952,0.0007814018,1.5714884,0.7865921,0.039999954,0.03999998,0.011237199866021008,-0.01670197461471017,-0.0002490445797587171,-0.0008593614397046281,-0.019651738980012226,0.005254811918980928,0.999999908221192,0.00015082437783490887,0.00014656556667506752,0.0003732668605484541
1449.0166666656776,0.00095942436,-0.78527284,5.119502e-05,-2.3564396,0.000882789,1.5715648,0.78667927,0.039999954,0.03999998,0.010166105991826768,-0.01760666252463403,-0.0005327293784107567,-0.0009462722022881469,-0.02047512995884168,0.0057940028223971395,0.9999998803832203,0.00014298535675906916,0.00019853756952534213,0.00042352280472593716
1449.0333333323442,0.0010712417,-0.78535455,5.277963e-05,-2.3564892,0.0009940543,1.5716486,0.78677493,0.039999958,0.039999988,0.004119147100212217,-0.018503356959794718,-0.0023674014430818957,-0.0010374835888334738,-0.021317774853886393,0.006360290301267828,0.9999998435307711,0.0001343939576856701,0.00025639039896093217,0.0004786863908606055
1449.0499999990109,0.0011934793,-0.785446,5.4514487e-05,-2.3565397,0.001115676,1.5717403,0.7868795,0.039999954,0.039999984,0.011634249949232789,-0.01939997241865452,-0.00013231650075606893,-0.0011331043696732653,-0.02220057696674482,0.00695534165610296,0.9999997949138701,0.00012498572517106565,0.00032253441998638787,0.0005390012374300065
1449.0666666656775,0.0013266143,-0.7855477,5.6406563e-05,-2.3565912,0.0012481266,1.5718402,0.7869934,0.039999954,0.03999999,0.012345777145195136,-0.02028516780824088,-0.00018328906292719438,-0.0012329110170587942,-0.02310151648919067,0.007576423405317357,0.999999731611822,0.0001147584666963911,0.0003974125127143548,0.000604706600726191
1449.0833333323442,0.0014711195,-0.78566,5.846277e-05,-2.3566487,0.0013918777,1.5719488,0.787117,0.039999954,0.03999999,0.004452837576662816,-0.021161058248375664,-0.0023240049442874167,-0.0013371662934037777,-0.024018579569710652,0.008226777341269585,0.999999651410899,0.00010365444749610988,0.0004789636448302729,0.0006760382111033911
1449.0999999990108,0.0016274625,-0.7857833,6.0690156e-05,-2.3567076,0.0015473928,1.5720663,0.78725076,0.039999943,0.03999998,0.012498497374857642,-0.022031614395602306,-0.00026792697840338775,-0.0014458824889341292,-0.024975034137918694,0.008904587418075427,0.9999995498477189,9.164523335405107e-05,0.0005696859238158746,0.0007532353278060693
1449.1166666656775,0.0017961062,-0.7859177,6.3095365e-05,-2.3567712,0.0017151308,1.5721931,0.7873952,0.03999994,0.03999998,0.0072080045416367255,-0.0228867941662725,-0.0016515872681477362,-0.00155843929676955,-0.02594936946802468,0.009608733738559224,0.9999994237595259,7.876730471487986e-05,0.0006682024658293982,0.0008365296124751473
1449.1333333323441,0.0019775082,-0.7860636,6.568516e-05,-2.3568377,0.0018955461,1.5723294,0.78755033,0.03999994,0.039999984,0.010891406789048652,-0.02373627617890388,-0.0009324111179154215,-0.001675874097322231,-0.026954607517368046,0.010339912195787681,0.999999268162382,6.481940812722512e-05,0.0007756988849524747,0.000926155702071531
1449.1499999990108,0.0021721185,-0.78622127,6.8466165e-05,-2.356908,0.0020890879,1.572476,0.78771675,0.03999994,0.039999988,0.009845245141337777,-0.024571471117578597,-0.0008085139324043311,-0.0017964613249582054,-0.027984998757862745,0.011097874113331541,0.9999990780748975,4.9844047351838534e-05,0.0008922869901637121,0.0010223447819330727
1449.1666666656774,0.0023803825,-0.78639084,7.144481e-05,-2.3569822,0.0022961956,1.5726327,0.78789485,0.03999994,0.03999999,0.00993862517204569,-0.02539323366563982,-0.0012028524826179776,-0.0019209172736958501,-0.029038563033551505,0.0118823691191671,0.9999988482215604,3.382575218502993e-05,0.0010178692273182977,0.0011253237788523352
1449.183333332344,0.002602738,-0.7865731,7.46276e-05,-2.3570616,0.0025173046,1.5727998,0.788085,0.039999936,0.03999999,0.008524142082588781,-0.026201356084321926,-0.001955887816507129,-0.002049350451536645,-0.030119964777559738,0.012692219302807055,0.9999985729015266,1.672392180301594e-05,0.0011523472297999176,0.0012353182111202491
1449.1999999990107,0.0028396167,-0.78676826,7.802085e-05,-2.3571436,0.0027528505,1.5729777,0.7882876,0.039999936,0.04,0.013269558771589196,-0.027007248861498235,-0.0007396966349437761,-0.0021814226938661647,-0.03123162383884186,0.01352913773088584,0.9999982438848131,-1.4711846398037767e-06,0.0012972310086045626,0.001352559364968882
1449.2166666656774,0.0030914417,-0.7869765,8.163066e-05,-2.3572326,0.00300325,1.5731668,0.78850293,0.039999936,0.04,0.00643566175571042,-0.027780444059204035,-0.002384288803791712,-0.0023174167481614383,-0.032361145175703245,0.014391697839909196,0.9999978562473233,-2.0819804956044222e-05,0.0014507812873111206,0.001477261300525011
1449.233333332344,0.0033586293,-0.7871981,8.546325e-05,-2.3573232,0.0032689176,1.5733678,0.7887314,0.03999993,0.04,0.0157878285225177,-0.028557019208548563,0.000139183512315455,-0.002456979872031355,-0.03352666482383267,0.015279828223617856,0.9999973979777664,-4.135568235364929e-05,0.001615966492252417,0.0016096520431724182
1449.2499999990107,0.0036415893,-0.7874335,8.9524736e-05,-2.3574202,0.0035502464,1.573581,0.78897333,0.039999917,0.039999995,0.008266045928140286,-0.02929473612215787,-0.0020026086866797854,-0.002600147044023041,-0.03470249060027576,0.01619230955538905,0.9999968634261406,-6.310174858880426e-05,0.001790777071143136,0.001749935293512159
1449.2666666656773,0.0039407224,-0.7876828,9.382077e-05,-2.3575242,0.0038476395,1.573806,0.78922904,0.039999913,0.039999988,0.007525283836873342,-0.030033517633682415,-0.002504502543954068,-0.0027463853893415855,-0.03590813981292206,0.017132377687064985,0.9999962443488093,-8.610907138765342e-05,0.0019749011256931454,0.0018983253271920495
1449.283333332344,0.0042564217,-0.78794664,9.835701e-05,-2.3576303,0.004161512,1.5740433,0.789499,0.039999913,0.039999995,0.01652417970094966,-0.03078160414541481,-0.0006573726027525595,-0.0028959597584216276,-0.03714843746727772,0.018094499394038167,0.9999955252527819,-0.00011034094452538918,0.00217118440021482,0.0020550565902586666
1449.2999999990107,0.0045890715,-0.7882251,0.00010313945,-2.3577425,0.0044922153,1.5742934,0.78978336,0.03999991,0.04,0.009874000707066344,-0.03145856061533125,-0.001985139995586138,-0.0030492783251207,-0.03839766966011502,0.01908100782415032,0.9999946985474442,-0.00013589571233412842,0.002377941927951271,0.002220315641718223
1449.3166666656773,0.004939048,-0.78851855,0.00010817329,-2.3578622,0.0048401393,1.5745564,0.7900826,0.039999902,0.039999995,0.008259107472730065,-0.032155362308944856,-0.0027746880868928514,-0.0032050616576907165,-0.0396748061357357,0.0200924892167424,0.9999937540320367,-0.00016275124588182406,0.0025947388476307244,0.0023943139432482247
1449.333333332344,0.005306721,-0.78882724,0.00011346404,-2.3579843,0.0052056327,1.5748332,0.7903969,0.039999895,0.03999999,0.017440542393076797,-0.032830968801871724,-7.067404181881898e-05,-0.003364547110638036,-0.040982572113594226,0.02112704897615373,0.9999926711800645,-0.0001909483130336289,0.002824685593012263,0.002577261376331133
1449.3499999990106,0.0056924513,-0.78915155,0.00011901701,-2.3581133,0.005589068,1.5751234,0.7907267,0.039999895,0.039999988,0.01003177420293433,-0.033487372639228255,-0.0026199096468282335,-0.003526890537028683,-0.042295629055401796,0.022188638421442575,0.9999914423492745,-0.00022051281846113962,0.003065497042534875,0.002769355556183215
1449.3666666656773,0.006096588,-0.78949165,0.00012483717,-2.358249,0.005990808,1.5754273,0.7910723,0.039999895,0.04,0.010697465900100234,-0.03413530876994735,-0.0025963782609883523,-0.0036921275514533516,-0.04363448948986221,0.02326821442612786,0.9999900528684585,-0.000251440058305796,0.0033174197332291903,0.0029708026437843564
1449.383333332344,0.006519475,-0.789848,0.00013092968,-2.358391,0.006411171,1.5757452,0.79143375,0.039999895,0.04,0.011809362884585006,-0.034742874900503366,-0.0024816553660045315,-0.003860542383792964,-0.04500048583347745,0.02437254523720581,0.9999884858708854,-0.00028387126232838947,0.0035810271058274337,0.003181790003688074
1449.3999999990106,0.0069614486,-0.79022044,0.00013729927,-2.358537,0.0068505197,1.5760777,0.7918115,0.039999895,0.04,0.016196849079541664,-0.03538397435948592,-0.0009114229417184205,-0.004030873031716859,-0.04638670941186394,0.025502184119739153,0.9999867197880264,-0.00031773801748163314,0.003857724748629185,0.00340253580424609
1449.4166666656772,0.007422833,-0.7906095,0.00014395088,-2.3586895,0.0073091467,1.5764247,0.792206,0.039999887,0.04,0.012010842724996529,-0.035937827581328935,-0.0026027680420925847,-0.004203878040531819,-0.04778054324258285,0.02665161492768125,0.999984741342963,-0.00035301851087228683,0.004146354103558179,0.0036332088883177416
1449.4333333323439,0.0079039475,-0.7910154,0.00015088925,-2.3588495,0.007787363,1.5767868,0.79261726,0.039999872,0.04,0.011239946002139511,-0.036507483778583025,-0.0027895097316044115,-0.004379826938006891,-0.049196957844056796,0.02782247919814827,0.9999825325471907,-0.00038980938725945147,0.004446887803886675,0.003873995096507612
1449.4499999990105,0.008405096,-0.7914387,0.00015811858,-2.359017,0.008285483,1.5771635,0.79304564,0.039999872,0.04,0.011749187833842711,-0.03705704002393735,-0.003454239990641206,-0.004557960799035237,-0.050634624958463645,0.029016124012554743,0.9999800741222153,-0.0004281124707299541,0.0047593859086763396,0.004125084728023847
1449.4666666656772,0.008926581,-0.7918792,0.00016564352,-2.3591914,0.008803804,1.5775558,0.7934914,0.039999865,0.04,0.012235204773336505,-0.03760167766728474,-0.002604620428336979,-0.004738002966975782,-0.052093890319384384,0.03023150774992847,0.9999773438296561,-0.00046792576814061985,0.005084294182957383,0.004386664509880927
1449.4833333323438,0.009468694,-0.7923373,0.00017346807,-2.359371,0.009342629,1.5779634,0.7939548,0.039999858,0.04,0.01634372431711384,-0.038137960711706956,-0.002303979367490605,-0.004920619931211807,-0.05357086243914763,0.03146919957189039,0.9999743142399009,-0.0005093100251990634,0.005422712433008439,0.004658932668222174
1449.4999999990105,0.010031716,-0.79281324,0.00018159655,-2.3595562,0.0099022165,1.5783867,0.79443616,0.039999858,0.04,0.015516275777027744,-0.03861856705814279,-0.0024805902749891473,-0.005105222049905305,-0.05505695293101072,0.03272754927949553,0.9999709622859368,-0.0005521919287895602,0.0057745760584178825,0.004942058311747698
1449.5166666656771,0.01061592,-0.79330724,0.00019003243,-2.3597484,0.010482886,1.5788261,0.79493546,0.039999854,0.04,0.013903930688186072,-0.03913327000894355,-0.002993642681148323,-0.00529239114993366,-0.05655301861178149,0.03400849712023838,0.9999672652714664,-0.0005967319045150578,0.006139551226936691,0.0052362398026374445
1449.5333333323438,0.011221569,-0.7938195,0.00019877983,-2.359948,0.011084879,1.5792814,0.7954532,0.03999985,0.04,0.013291308522989098,-0.03957782646756697,-0.003515671199960657,-0.005480695633485338,-0.05806290458378622,0.03530950582063203,0.9999631996403361,-0.0006428195379164499,0.006517390656801335,0.005541639390066254
1449.5499999990104,0.01184892,-0.7943503,0.00020784287,-2.3601549,0.011708421,1.5797532,0.7959894,0.03999985,0.04,0.013847171040803907,-0.040003871979543,-0.0035829664723152632,-0.005671306295839843,-0.05958758664970186,0.036628400709948855,0.9999587371076099,-0.0006905495333611281,0.006908412474046839,0.005858417925042998
1449.566666665677,0.01249822,-0.7948997,0.00021722473,-2.360369,0.012353793,1.5802417,0.79654425,0.039999843,0.04,0.014391738488739314,-0.04046439746062079,-0.0032263071024773993,-0.005863162700026757,-0.06112653240384676,0.037971192478518684,0.9999538478558874,-0.0007399513218507019,0.0073129024136421176,0.006186767211932523
1449.5833333323437,0.013169712,-0.79546803,0.00022692932,-2.3605907,0.013021184,1.5807465,0.7971181,0.03999984,0.04,0.013930202516299062,-0.040837065582307805,-0.004166361574142741,-0.0060559384949069525,-0.0626759642054881,0.03932898237230519,0.9999485054287153,-0.0007909643043075216,0.007730548144685465,0.006526828612011197
1449.5999999990104,0.013863619,-0.79605544,0.00023695966,-2.3608198,0.013710843,1.5812684,0.7977112,0.039999835,0.04,0.014754755439239098,-0.04124306796607982,-0.003747729834469027,-0.00625080289337035,-0.06423904422651938,0.04070878082469391,0.9999426758657266,-0.0008436050948443209,0.008161840016321273,0.0068787848114734524
1449.616666665677,0.014580168,-0.7966624,0.00024731885,-2.3610563,0.014423022,1.5818073,0.7983236,0.039999828,0.04,0.01529584034312137,-0.04164364518836616,-0.0042630824180767135,-0.006447004578057379,-0.06581116976259793,0.04210959720045153,0.9999363261927108,-0.0008979244217609465,0.00860690879420512,0.007242818026548623
1449.6333333323437,0.015319566,-0.7972888,0.0002580102,-2.3613002,0.01515789,1.582363,0.7989555,0.039999828,0.04,0.015218839535591222,-0.04196749079847899,-0.004353719473737527,-0.006644513708224539,-0.0673910420888843,0.04352800762210577,0.9999294244807155,-0.0009539022622565522,0.009065644872679489,0.0076190689182781355
1449.6499999990103,0.016082022,-0.79793465,0.00026903627,-2.3615518,0.015915686,1.5829363,0.79960716,0.039999817,0.04,0.015131442202420686,-0.04234097272391851,-0.004216651660238213,-0.0068433263809590805,-0.06898110200268545,0.04496624327120738,0.999921934885084,-0.0010115446724971485,0.009538204300686068,0.008007719510804012
1449.666666665677,0.016867723,-0.7986001,0.00028040036,-2.3618107,0.016696576,1.5835271,0.80027866,0.039999817,0.04,0.015664940604476207,-0.042633888295479094,-0.004319420901155446,-0.0070432560379004305,-0.07057709371059817,0.04642334055880494,0.9999138208439385,-0.0010708812596194345,0.010024682137481507,0.008408914712750383
1449.6833333323436,0.01767686,-0.7992855,0.0002921051,-2.3620775,0.017500756,1.5841354,0.8009702,0.039999824,0.04,0.015371430283428467,-0.04294390784007132,-0.004943754766761899,-0.007244360967212982,-0.0721811449621294,0.0478990202767218,0.9999050461099133,-0.0011319117984688216,0.010524991879840864,0.008822816191111154
1449.6999999990103,0.018509613,-0.79999095,0.00030415284,-2.362352,0.018328428,1.5847613,0.8016817,0.039999813,0.04,0.015975158720071825,-0.043250696266197014,-0.005094875287259271,-0.00744612387884367,-0.07378982391381689,0.049392974559589256,0.9998955707880895,-0.0011947516825101475,0.011039254328757919,0.009249591917628565
1449.716666665677,0.019366154,-0.8007166,0.00031654615,-2.3626342,0.019179728,1.5854052,0.8024133,0.039999805,0.04,0.015896814912830237,-0.04349863514741051,-0.0049827944916147615,-0.007647958641498746,-0.0754055723599803,0.05090517432524321,0.9998853534204059,-0.0012594170655202217,0.011567617617576229,0.009689381128774986
1449.7333333323436,0.020246638,-0.8014625,0.00032928743,-2.3629246,0.02005482,1.5860672,0.80316585,0.039999798,0.04,0.01564842500738628,-0.04374127757312482,-0.00543894355793384,-0.007849426565895865,-0.07702386074624902,0.052435381535799575,0.9998743552822948,-0.0013255311593150122,0.012109895683729506,0.01014233910348515
1449.7499999990102,0.021151222,-0.802229,0.00034237877,-2.363223,0.020953864,1.5867474,0.8039388,0.039999798,0.04,0.01619320604806518,-0.04398035241585385,-0.005673673687067726,-0.008053872269774068,-0.07864723723644285,0.05398368820905629,0.9998625304046503,-0.001393464291094164,0.012666324419151194,0.010608617996125292
1449.766666665677,0.022080049,-0.80301595,0.00035582256,-2.3635292,0.021877002,1.587446,0.8047327,0.0399998,0.04,0.016926613990242423,-0.04420075147295241,-0.005490333997038022,-0.008257793738628436,-0.08027349671614961,0.05554909018719455,0.9998498328768879,-0.0014630125733151784,0.013237042445039541,0.011088372178913824
1449.7833333323435,0.023033252,-0.80382353,0.00036962054,-2.3638434,0.022824375,1.5881628,0.8055473,0.039999798,0.04,0.016340965573879984,-0.04439007461597144,-0.006102021838017002,-0.008463412714849933,-0.08189824636603299,0.05713070351486324,0.9998362204322903,-0.0015343235332333015,0.013821772653900664,0.01158174268718222
1449.7999999990102,0.024010967,-0.8046519,0.0003837744,-2.3641658,0.023796115,1.588898,0.80638283,0.039999787,0.04,0.016655121621855784,-0.044579620329789765,-0.0063417020395029056,-0.008668969453748135,-0.08352555998618746,0.05873160303136997,0.9998216450623211,-0.0016073678492918137,0.014420591128601366,0.012088878565555964
1449.8166666656768,0.02501331,-0.8055012,0.00039828615,-2.364496,0.024792317,1.589652,0.8072394,0.039999783,0.04,0.01743636066131593,-0.044723949314322275,-0.006189305304671322,-0.008874634192430335,-0.08515361353214543,0.06034852335442904,0.9998060532025,-0.0016821346537843646,0.01503384036026628,0.012609918582929095
1449.8333333323435,0.026040394,-0.8063716,0.0004131573,-2.3648345,0.025813112,1.5904242,0.8081171,0.039999783,0.04,0.016693865515549078,-0.04486716890485312,-0.007169880170976306,-0.00908086493953826,-0.08677799940021488,0.06198204977829392,0.999789402476684,-0.0017586429732486613,0.01566099641176555,0.013145001392100245
1449.8499999990102,0.02709232,-0.807263,0.00042838953,-2.365181,0.026858598,1.5912151,0.809016,0.039999776,0.04,0.017626595578534854,-0.04500234703697231,-0.006792710035052885,-0.00928666181640856,-0.0884022483693189,0.06363109600183402,0.9997716362487493,-0.0018368757989862768,0.01630239669080915,0.013694272595984143
1449.8666666656768,0.028169181,-0.80817556,0.00044398426,-2.3655355,0.027928865,1.5920249,0.8099363,0.039999783,0.04,0.01754030463634315,-0.04509518088693584,-0.0071590921930653195,-0.009492919251879742,-0.09002240073044734,0.06529855187218093,0.9997527023292325,-0.00191677793203527,0.016957988533766503,0.014257867044019185
1449.8833333323435,0.029271072,-0.80910945,0.00045994212,-2.3658981,0.029024042,1.5928533,0.8108779,0.03999977,0.04,0.017744261983554388,-0.045220710688907706,-0.0076959457031122724,-0.009699448555548239,-0.09163889499333294,0.06698098511658573,0.9997325476829093,-0.001998420549993912,0.017627658151009157,0.014835939028451393
1449.89999999901,0.03039807,-0.8100647,0.00047626492,-2.366269,0.030144159,1.5937005,0.81184095,0.039999764,0.04,0.01750337907353572,-0.04525376957666624,-0.007881660910125099,-0.009905716528039274,-0.09325035899976393,0.06867929195290742,0.999711118345465,-0.0020818000327754967,0.018311319688386406,0.015428594762739332
1449.9166666656768,0.031550243,-0.81104153,0.0004929532,-2.366649,0.031289298,1.5945668,0.81282556,0.039999776,0.04,0.017183676338849985,-0.0453003998043891,-0.008346473477160998,-0.01011156964729288,-0.09485666386194155,0.07039328270087897,0.999688358234899,-0.0021668457101220178,0.019008912880681912,0.016035972698137082
1449.9333333323434,0.032727666,-0.8120397,0.0005100084,-2.3670368,0.032459542,1.5954522,0.8138319,0.039999764,0.04,0.018114755286391393,-0.04538118426563459,-0.008116470841823542,-0.010317751708255697,-0.09645916014762308,0.07212283134351723,0.9996642068718141,-0.002253498514802564,0.019720523487770675,0.016658217106248787
1449.94999999901,0.03393039,-0.813059,0.0005274306,-2.367433,0.03365494,1.5963565,0.8148597,0.039999757,0.04,0.017626098556311476,-0.04538746798058296,-0.008512510341218693,-0.010524283746165833,-0.09805315935235692,0.07386772539936529,0.9996386103754611,-0.0023419499407201123,0.0204458228829904,0.01729543996923511
1449.9666666656767,0.035158474,-0.81409997,0.0005452218,-2.367838,0.03487551,1.5972798,0.815909,0.039999764,0.04,0.017901834256783822,-0.04536312148550048,-0.009210281570415368,-0.01072969948592517,-0.09964029153742154,0.07562745578501066,0.9996115067167767,-0.0024321300471137276,0.021184863131125994,0.017947756321196846
1449.9833333323434,0.036411945,-0.8151625,0.00056338136,-2.3682513,0.036121335,1.5982221,0.8169802,0.039999757,0.04,0.017844795526045232,-0.04537179797986096,-0.009310055194977629,-0.010934254059448874,-0.10122143351746754,0.0774023612996167,0.9995828357195535,-0.0025239198037416534,0.021937513374409877,0.01861531279962608
1449.99999999901,0.037690837,-0.81624645,0.00058190996,-2.3686726,0.037392426,1.5991834,0.8180733,0.039999764,0.04,0.019071920897362205,-0.045331194106172645,-0.009367463138376664,-0.011139002935923861,-0.10279306832957201,0.07919198098558812,0.9995525295863229,-0.0026172716395155326,0.02270393997020952,0.019298227809240513
1450.0166666656767,0.03899518,-0.81735206,0.00060080824,-2.3691022,0.038688853,1.6001644,0.8191878,0.03999975,0.04,0.018800509320149317,-0.045318779966106726,-0.009451470868748757,-0.011344131543480407,-0.10435410835919874,0.08099564378835637,0.9995205184921235,-0.0027124172137389245,0.023484251775035762,0.019996645335201905
1450.0333333323433,0.040325016,-0.81847936,0.0006200765,-2.3695402,0.040010586,1.6011641,0.82032436,0.039999757,0.04,0.01863325303732566,-0.04522460379337151,-0.010491941473422806,-0.011547583758915028,-0.10590247666483307,0.08281359044562821,0.99948674923603,-0.00280910608247057,0.024277891975490674,0.020710649092606784
1450.04999999901,0.04168033,-0.8196283,0.0006397145,-2.3699865,0.041357648,1.602183,0.82148254,0.039999753,0.04,0.01884046752009816,-0.045127961620357315,-0.010422319519620693,-0.011751546955574996,-0.10743902745725077,0.08464618389910468,0.9994511503196881,-0.00290749155362738,0.02508496454242464,0.021440363136453363
1450.0666666656766,0.04306113,-0.82079893,0.0006597228,-2.370441,0.042730056,1.6032212,0.8226625,0.03999977,0.04,0.019468697661206846,-0.04505086428284316,-0.010596728860390314,-0.011954104756613113,-0.10896304316848869,0.0864901961987236,0.9994136488929519,-0.0030075085731891215,0.025905565787441936,0.02218591805381001
1450.0833333323433,0.044467427,-0.821991,0.0006801011,-2.3709037,0.044127807,1.6042784,0.8238642,0.039999776,0.04,0.01881695823378049,-0.044941603588700973,-0.011051254210547867,-0.012156117334349001,-0.11047213757486321,0.0883473292878114,0.9993741859432153,-0.0031091151192423555,0.02673922488827839,0.02294741218275651
1450.09999999901,0.0458992,-0.82320476,0.0007008491,-2.3713756,0.045550887,1.6053549,0.8250878,0.03999978,0.04,0.01792538112304065,-0.04477746272892186,-0.011683162321385332,-0.012357307887213662,-0.11196804213270589,0.09021960895902162,0.9993326983405464,-0.003212280499995323,0.02758561846824467,0.02372494331113121
1450.1166666656766,0.047356427,-0.82444006,0.0007219665,-2.3718553,0.046999324,1.6064506,0.82633305,0.039999772,0.04,0.020038465612426393,-0.044674459381707776,-0.011509368563999978,-0.012558205203359304,-0.11345144305910282,0.09210556640008677,0.9992890988888556,-0.0033170497050967066,0.028445194721222804,0.02451866473575423
1450.1333333323432,0.04883911,-0.825697,0.0007434532,-2.3723435,0.048473023,1.6075653,0.8275999,0.03999978,0.04,0.01893041829592601,-0.0444700866874273,-0.012254536820299755,-0.01275826092080641,-0.11491672038255762,0.09400335826418106,0.9992433275491593,-0.0034234658934115705,0.0293174496395962,0.025328627605731575
1450.1499999990099,0.050347198,-0.82697546,0.00076530874,-2.37284,0.04997201,1.608699,0.82888854,0.039999776,0.04,0.019698433222981038,-0.04430984336116911,-0.012425818938388566,-0.012956701578579422,-0.11636706734328753,0.09591454938194392,0.9991953078911254,-0.0035313730796505674,0.030202375988766635,0.026154972321998447
1450.1666666656765,0.05188066,-0.8282754,0.00078753254,-2.3733444,0.05149619,1.6098518,0.8301989,0.03999978,0.04,0.019831926408486744,-0.044087550870079706,-0.012565817149612357,-0.013154505296304922,-0.11780080935158221,0.09783543566737253,0.9991449636340095,-0.003640799691273761,0.031099940993896374,0.026997775696863124
1450.1833333323432,0.053439453,-0.8295968,0.0008101232,-2.3738575,0.05304557,1.6110238,0.8315309,0.039999776,0.04,0.019142763407620222,-0.043888058840059474,-0.01322735040878431,-0.013351784447534806,-0.11921404883941109,0.09977145598501244,0.9990922279145202,-0.0037517019795554707,0.032009748817744196,0.027857150494653114
1450.1999999990098,0.055023532,-0.83093965,0.0008330809,-2.3743794,0.05462006,1.6122149,0.83288455,0.03999978,0.04,0.01875379809246347,-0.04363574200037523,-0.013515825117704772,-0.013548568633226163,-0.12061040954450723,0.10171670735842628,0.9990370297283749,-0.003864097230967331,0.03293155395120403,0.028733164435104184
1450.2166666656765,0.056632835,-0.83230394,0.0008564045,-2.3749094,0.05621965,1.6134248,0.8342597,0.03999978,0.04,0.020007653860876218,-0.04341605253393166,-0.013979537195440983,-0.013744173498819443,-0.12198867967193523,0.10367489647782945,0.9989792869128751,-0.003977984314754399,0.03386537349138575,0.029625941978681358
1450.2333333323431,0.0582673,-0.8336897,0.00088009314,-2.3754473,0.05784425,1.6146533,0.8356564,0.039999776,0.04,0.020539825146315138,-0.04314260365691491,-0.014251948994559172,-0.013938882527743335,-0.12334636335266454,0.10564331480213811,0.9989189179057071,-0.00409329000524059,0.03481119230970241,0.03053557461390179
1450.2499999990098,0.05992684,-0.8350968,0.0009041456,-2.3759935,0.059493784,1.6159012,0.8370745,0.03999978,0.04,0.019916152082721794,-0.04284239958330244,-0.01429899984877192,-0.014132977924497428,-0.12468306354341203,0.10762260967720665,0.9988558437489014,-0.004210029609179818,0.035768877890331535,0.03146214286768874
1450.2666666656764,0.061611388,-0.836525,0.0009285611,-2.376548,0.061168168,1.6171676,0.8385138,0.039999776,0.04,0.019528829239723322,-0.04253309425973628,-0.015160824649496085,-0.014326079966897276,-0.12599635895646363,0.10961130322545307,0.9987900035610559,-0.004328278021409277,0.036737791026608554,0.032405701756955244
1450.283333332343,0.063320875,-0.83797437,0.0009533376,-2.3771112,0.06286737,1.6184525,0.8399748,0.039999772,0.04,0.019211167395294382,-0.04227654611007464,-0.015503734328348173,-0.014517219857566072,-0.12728924248622658,0.11161276323259638,0.9987213221503427,-0.004447682361154037,0.037717691195653893,0.033366368917745796
1450.2999999990097,0.06505521,-0.8394448,0.0009784745,-2.3776822,0.064591266,1.6197562,0.84145695,0.039999776,0.04,0.02062215891291963,-0.04192688146837098,-0.015520681028191596,-0.014709616327042763,-0.12856343911280876,0.11362240474393458,0.9986497019660525,-0.004568514474419145,0.038708864434718014,0.03434421716659023
1450.3166666656764,0.066814266,-0.8409361,0.00100397,-2.3782613,0.066339776,1.6210787,0.8429603,0.039999772,0.04,0.020110286836194646,-0.04158324250795875,-0.015756913706010955,-0.014900222391312667,-0.12981164388999428,0.11564223334794654,0.9985750683947163,-0.004690630262235629,0.039710986079418586,0.035339331527786025
1450.333333332343,0.06859797,-0.8424483,0.001029823,-2.3788488,0.068112805,1.6224197,0.8444844,0.039999776,0.04,0.0196791618229053,-0.041232033448923566,-0.016482634745873526,-0.015090744369378295,-0.1310355350994537,0.1176702152681796,0.9984973506460422,-0.004814211059360756,0.040723621190030625,0.03635176476983611
1450.3499999990097,0.07040623,-0.8439814,0.0010560318,-2.3794441,0.06991019,1.6237793,0.8460295,0.039999776,0.04,0.020742061179435112,-0.040839243539250725,-0.01663686872666048,-0.015278599797735895,-0.13223607914680194,0.11970644780160267,0.9984164536852389,-0.004939049318621295,0.041746945131014616,0.03738159138730565
1450.3666666656763,0.0722389,-0.84553504,0.0010825947,-2.3800473,0.07173189,1.6251571,0.84759533,0.039999776,0.04,0.020337547048843163,-0.04048040831386712,-0.01705935977260875,-0.015466184951721931,-0.13340942123361732,0.12175256589641302,0.9983323076202849,-0.005065238702658973,0.04278045666322243,0.03842888817189607
1450.383333332343,0.07409587,-0.8471093,0.0011095098,-2.3806584,0.073577754,1.6265532,0.849182,0.039999776,0.04,0.020522479740003874,-0.04005451111855629,-0.01747875926474407,-0.015651844321605865,-0.13455754108323165,0.12380613793690559,0.9982448282402284,-0.005192613637631759,0.043824031440502294,0.03949372005203958
1450.3999999990097,0.07597701,-0.8487042,0.0011367755,-2.3812773,0.075447686,1.6279675,0.8507895,0.039999772,0.04,0.02064410359858826,-0.03965368839701777,-0.0178664990752031,-0.01583702737967481,-0.1356795112171272,0.12586719590687312,0.9981539305313171,-0.005321126310306204,0.044877516321116584,0.04057616429038459
1450.4166666656763,0.07788223,-0.8503196,0.0011643895,-2.3819041,0.07734149,1.6294,0.8524176,0.039999772,0.04,0.020630201361626632,-0.039204950044990916,-0.018180313666715797,-0.016022230854244784,-0.13677276141481948,0.127936206181665,0.9980595328529162,-0.005450793620728649,0.045940702114503254,0.04167624766637923
1450.433333332343,0.079811335,-0.85195524,0.0011923496,-2.3825393,0.07925909,1.6308503,0.85406613,0.039999776,0.04,0.019402481465480292,-0.038728760690243114,-0.018887901787012495,-0.01620683384449899,-0.13783624113259613,0.13001113349133733,0.9979615793852193,-0.005581586862776471,0.04701281170588116,0.042794012368079205
1450.4499999990096,0.081764214,-0.85361093,0.0012206539,-2.3831823,0.081200324,1.6323179,0.8557349,0.039999772,0.04,0.020039603534982575,-0.03828507663667102,-0.0193697672077775,-0.016390728751284556,-0.13887666213232636,0.13209354546309654,0.9978599887045846,-0.005713567121306654,0.04809363322586352,0.043929495061665
1450.4666666656763,0.08374071,-0.8552867,0.0012493008,-2.3838334,0.08316507,1.6338046,0.8574238,0.039999772,0.04,0.02043756357550386,-0.03786036899276757,-0.018571676130751946,-0.01657292265859822,-0.1398908314663346,0.1341825372826429,0.9977546351912278,-0.00584662576932671,0.049183778618589274,0.04508282203158045
1450.483333332343,0.08574068,-0.8569824,0.0012782868,-2.3844922,0.08515315,1.6353079,0.8591327,0.03999978,0.04,0.020264222585542058,-0.03729627839913208,-0.02036681762520587,-0.016754872978730045,-0.14087121330959596,0.13627572850481343,0.997645487003311,-0.005980783147900518,0.050282053005652284,0.04625394729534967
1450.4999999990096,0.08776395,-0.8586979,0.0013076108,-2.3851588,0.0871644,1.6368291,0.86086154,0.03999978,0.04,0.020297011940373366,-0.03682262304834094,-0.019916261000596513,-0.016935542088076377,-0.14182591678069212,0.13837536885192572,0.9975324362994338,-0.006115965916530736,0.05138871169289922,0.04744295313287378
1450.5166666656762,0.08981038,-0.8604331,0.0013372698,-2.3858325,0.08919865,1.6383675,0.8626103,0.039999783,0.04,0.02132620248476158,-0.03630170325808757,-0.02052405750672115,-0.01711527830689019,-0.14275034201471387,0.14047574466252855,0.9974153983674464,-0.00625211001752527,0.05250356176610991,0.04864987380979637
1450.5333333323429,0.091879785,-0.86218786,0.0013672616,-2.3865142,0.09125575,1.6399237,0.8643785,0.039999783,0.04,0.020220959295391694,-0.035778118662407876,-0.020621669754006255,-0.017294507835347486,-0.1436422245445969,0.14257866032794234,0.9972942931373064,-0.0063892820113516935,0.05362629928024199,0.04987474287297667
1450.5499999990095,0.09397197,-0.8639619,0.0013975833,-2.3872035,0.0933355,1.6414968,0.86616635,0.039999787,0.04,0.02009509228497741,-0.03518028736723966,-0.021316575229568535,-0.01747321891579208,-0.1445013274420736,0.14469027930831665,0.997169060846106,-0.006527319403742135,0.05475631261300509,0.051117554927083544
1450.5666666656762,0.09608676,-0.865755,0.0014282325,-2.3878999,0.09543775,1.6430868,0.86797327,0.039999794,0.04,0.020920543074298692,-0.0346660096781054,-0.021464303239193683,-0.01765189324796143,-0.14533119911554937,0.14680634601299614,0.9970396029298962,-0.006666396776456686,0.05589362503992282,0.05237835453037976
1450.5833333323428,0.09822398,-0.8675672,0.0014592063,-2.388604,0.09756234,1.6446935,0.86979944,0.039999798,0.04,0.01996305877485227,-0.034084537286094285,-0.022093927287292203,-0.017829039084020837,-0.14612888036029958,0.14892539967229498,0.9969058582593034,-0.00680629992886015,0.05703764834498407,0.05365715908277329
1450.5999999990095,0.10038346,-0.86939824,0.001490502,-2.3893147,0.09970908,1.6463174,0.8716447,0.03999979,0.04,0.021824640472845047,-0.03358419403813595,-0.021752172445266282,-0.018005931714210346,-0.1468949459347803,0.15104703650245285,0.9967676995711517,-0.006947032704977792,0.05818886837115081,0.05495404831234122
1450.6166666656761,0.10256497,-0.87124777,0.0015221168,-2.390033,0.10187769,1.6479574,0.87350875,0.039999805,0.04,0.01939366891838823,-0.03283110451956506,-0.022828517779527324,-0.01818224138535683,-0.14762418766591828,0.1531683140389643,0.9966251146643104,-0.007088561644299098,0.05934597310674264,0.05626889540571291
1450.6333333323428,0.10476832,-0.873116,0.001554048,-2.3907588,0.10406807,1.649614,0.8753914,0.03999981,0.04,0.02028606651900411,-0.032303318789594915,-0.02311072158585059,-0.01835847953461349,-0.1483251056322979,0.15529420695036977,0.9964779928420079,-0.007230901471498655,0.06050914873728113,0.05760179480330622
1450.6499999990094,0.10699331,-0.87500256,0.0015862925,-2.3914912,0.106279954,1.6512868,0.8772927,0.039999817,0.04,0.02115110905260842,-0.0316701410796566,-0.023060583719392014,-0.018534069265533706,-0.14899109346113912,0.15741933451101314,0.9963262440395758,-0.007373939605455528,0.06167831597172257,0.05895274201917088
1450.666666665676,0.10923973,-0.87690735,0.0016188459,-2.3922307,0.108513184,1.6529754,0.8792123,0.039999817,0.04,0.02010002528338717,-0.031027318594489817,-0.023956865150465134,-0.018709803775421335,-0.14962216723049226,0.15954616863595236,0.9961698186988592,-0.00751767195125684,0.06285274582447137,0.0603217146990998
1450.6833333323427,0.111507386,-0.87883013,0.0016517062,-2.3929772,0.11076753,1.6546805,0.8811502,0.039999824,0.04,0.02065821867009987,-0.030440456838123908,-0.023594542830118748,-0.018885367856505852,-0.15022103065677195,0.16167228279841456,0.9960086078632985,-0.007662026270753835,0.06403262410447906,0.06170874707798511
1450.6999999990094,0.11379604,-0.8807708,0.0016848702,-2.3937304,0.11304277,1.6564013,0.8831058,0.039999828,0.04,0.020756438620672668,-0.02973480669015982,-0.02429072658336473,-0.019061058717073018,-0.15078221982053727,0.163797559380626,0.9958425452352818,-0.007807120070734796,0.06521749812370714,0.0631138012957627
1450.716666665676,0.11610545,-0.8827289,0.0017183345,-2.3944907,0.115338705,1.6581374,0.8850792,0.039999835,0.04,0.01933269398768367,-0.029050250444870307,-0.02472788149883165,-0.019235961815910016,-0.15130741882988952,0.16592207641052753,0.995671593954594,-0.007952797739692012,0.06640654585063958,0.06453681637806748
1450.7333333323427,0.11843542,-0.8847045,0.0017520965,-2.3952575,0.11765506,1.659889,0.88707006,0.039999835,0.04,0.020829030929236936,-0.028376752596903643,-0.02492842960355457,-0.019410494274156434,-0.15180072549813228,0.16804335646120805,0.9954956409495344,-0.008099111622405944,0.06760001867722182,0.06597780472433894
1450.7499999990093,0.120785676,-0.88669735,0.0017861516,-2.396031,0.11999167,1.661656,0.8890784,0.039999835,0.04,0.0202910347092633,-0.027688067612238743,-0.025103346085453282,-0.019584537538744715,-0.1522572083604363,0.17016407385019142,0.995314614787517,-0.008245890088735112,0.06879756431169447,0.06743677062107391
1450.766666665676,0.123155996,-0.8887073,0.0018204972,-2.396811,0.12234818,1.6634383,0.891104,0.03999985,0.04,0.020011073691694747,-0.026921976305521733,-0.025440488789207905,-0.01975922093066143,-0.1526772202770967,0.17228013514844015,0.9951284535812268,-0.008393091529775094,0.06999878551403704,0.06891361922123106
1450.7833333323426,0.12554616,-0.8907339,0.0018551288,-2.3975978,0.12472444,1.6652355,0.8931464,0.039999858,0.04,0.01956174288393342,-0.026281038981756932,-0.025792165341687046,-0.019934642531783467,-0.15306093149149708,0.1743941534776699,0.994937099603899,-0.008540820534837531,0.07120316730957006,0.07040831755878206
1450.7999999990093,0.1279559,-0.89277697,0.001890044,-2.398391,0.12712018,1.6670474,0.89520556,0.039999865,0.04,0.01970869965308708,-0.02553704179032723,-0.026045452511125333,-0.020108702243060425,-0.15340988455314403,0.17649747795229748,0.9947404827330143,-0.00868896449093436,0.07241042342170793,0.07192082096343257
1450.816666665676,0.13038495,-0.89483666,0.0019252381,-2.3991907,0.12953524,1.6688739,0.89728135,0.039999872,0.04,0.019993399446027738,-0.024812214519198683,-0.026477553927972686,-0.020283440668639866,-0.1537239496951316,0.1786017756016227,0.9945385131768006,-0.008837433471464923,0.0736204696546957,0.07345115401093603
1450.8333333323426,0.13283312,-0.8969126,0.0019607076,-2.399997,0.13196921,1.6707145,0.8993735,0.039999884,0.04,0.018916613581554387,-0.024009179074507836,-0.026986815555840593,-0.020458898902962958,-0.15399904294526076,0.18069980892201604,0.9943311670578457,-0.008986258905522758,0.07483253500067845,0.07499912715250548
1450.8499999990092,0.13530008,-0.8990043,0.00199645,-2.400809,0.13442194,1.6725692,0.9014814,0.039999887,0.04,0.020257187106942354,-0.023317507774822666,-0.026736738985988495,-0.020634800274270143,-0.15424198368179273,0.1827954834266969,0.9941183393796789,-0.009135541947143565,0.076046729431292,0.07656477078347222
1450.866666665676,0.13778567,-0.9011117,0.0020324597,-2.401627,0.13689318,1.6744378,0.9036053,0.03999989,0.04,0.019787215396993574,-0.022638810157266098,-0.02716456650779797,-0.020809401618599316,-0.15444616854748242,0.18488191208986318,0.9938999707780761,-0.009285086214369107,0.0772626659651992,0.07814803714285723
1450.8833333323425,0.14028953,-0.90323484,0.0020687345,-2.4024513,0.13938266,1.6763201,0.9057449,0.03999989,0.04,0.01925866733047954,-0.02173733216026541,-0.027615490756338623,-0.020984721934050238,-0.15461295618356258,0.18696197738696207,0.9936760080918144,-0.00943481124755078,0.07847992346451607,0.07974883630776737
1450.8999999990092,0.14281143,-0.9053735,0.0021052684,-2.4032815,0.14189002,1.6782162,0.9078998,0.039999895,0.04,0.01966798073964604,-0.0209507358372385,-0.02766840613481758,-0.021160861994290264,-0.15474282127942351,0.18903306459364924,0.993446366438757,-0.009584823295898309,0.07969847395696414,0.08136707823775369
1450.9166666656758,0.14535111,-0.9075268,0.0021420596,-2.4041176,0.14441504,1.6801255,0.9100699,0.039999902,0.04,0.01838071171027522,-0.020246551570390903,-0.02780074020631851,-0.021336440011238078,-0.15483532358944624,0.19109440017332585,0.9932110452757663,-0.00973499143455821,0.08091732744174623,0.08300262407703765
1450.9333333323425,0.14790824,-0.9096952,0.0021791025,-2.4049592,0.14695749,1.682048,0.9122549,0.039999906,0.04,0.019943226162100203,-0.019387593434072592,-0.028195918003404152,-0.02151252877525542,-0.1548920203128743,0.19314975405898985,0.992969918193493,-0.009885282306140417,0.08213688328285183,0.08465550874641695
1450.9499999990092,0.15048254,-0.91187817,0.0022163945,-2.4058065,0.14951707,1.6839833,0.9144549,0.03999991,0.04,0.018759846832372418,-0.0185839249491615,-0.0283559674489009,-0.021690149435802664,-0.1549100746508039,0.19519551947275748,0.9927229691855418,-0.010035549870333884,0.08335639367539929,0.08632558035526572
1450.9666666656758,0.15307374,-0.9140756,0.0022539299,-2.4066596,0.15209347,1.6859317,0.9166691,0.03999992,0.04,0.018796937333043218,-0.017765189327861863,-0.02847829490026932,-0.02186892033683588,-0.1548912554175581,0.19723035519027585,0.9924701239863069,-0.0101859675344718,0.0845757544694349,0.08801273098772283
1450.9833333323425,0.15568161,-0.916287,0.0022917055,-2.4075184,0.1546864,1.6878922,0.9188977,0.03999992,0.04,0.017888707405777637,-0.01699604044557712,-0.028924059129598056,-0.02204760786836657,-0.15483348968341956,0.19925384519335815,0.9922113803118172,-0.010336313433661808,0.08579411976479086,0.08971681234921437
1450.999999999009,0.1583058,-0.9185122,0.0023297172,-2.408382,0.15729561,1.6898654,0.9211404,0.039999932,0.04,0.01974860405566936,-0.016187017196334086,-0.028494195930162114,-0.022227645010440833,-0.15474402284413652,0.20126663185244226,0.9919466049048834,-0.010486589705372999,0.08701198920068401,0.09143783784280075
1451.0166666656758,0.16094612,-0.9207509,0.0023679598,-2.4092505,0.15992086,1.6918505,0.92339647,0.03999994,0.04,0.018709783311443573,-0.015495994103836841,-0.028969957289470827,-0.022408919624550994,-0.15461122275110808,0.2032650328286683,0.991675783611666,-0.01063701407280663,0.08822863906982958,0.09317564798641874
1451.0333333323424,0.1636021,-0.92300314,0.0024064307,-2.4101248,0.16256173,1.6938474,0.9256663,0.039999958,0.04,0.0173413510015763,-0.01432500364229039,-0.029559666183587296,-0.022588515352962885,-0.15444178194630548,0.20524785845152166,0.9913989106267969,-0.010787173577711938,0.08944341900751143,0.09493003576556495
1451.049999999009,0.16627355,-0.9252685,0.0024451239,-2.4110038,0.165218,1.695856,0.9279489,0.03999997,0.04,0.018658665815607378,-0.013700894419288456,-0.02927635404104123,-0.022770700988582526,-0.15423789329109228,0.20721928057934003,0.991115888236227,-0.010937417921635252,0.09065646974186288,0.09670094864511447
1451.0666666656757,0.16896012,-0.92754674,0.002484034,-2.4118881,0.16788936,1.6978759,0.9302446,0.03999998,0.04,0.01746626524492534,-0.012775296841005535,-0.029676444902082544,-0.022952931032619528,-0.15399464569891222,0.20917960736904703,0.9908267096144677,-0.0110873993039648,0.09186712998742239,0.09848823035833228
1451.0833333323424,0.17166154,-0.92983747,0.0025231582,-2.4127772,0.17057548,1.699907,0.9325528,0.039999988,0.04,0.017784179724067428,-0.011981957051643288,-0.029494851920031095,-0.02313612271765783,-0.1537165191762449,0.21112340813243327,0.990531319156483,-0.011237290413417941,0.09307522405682422,0.10029173316407569
1451.099999999009,0.17437746,-0.9321406,0.002562492,-2.4136715,0.17327607,1.701949,0.93487346,0.039999995,0.04,0.016763849071299575,-0.011040353228480848,-0.029866515881438183,-0.02331972105554747,-0.1534005949712638,0.2130521484559028,0.9902297016975796,-0.011386891058399616,0.09428022781796974,0.10211128845792944
1451.1166666656757,0.17710757,-0.9344556,0.0026020315,-2.4145703,0.17599088,1.7040017,0.93720657,0.04,0.04,0.01734654040528305,-0.010310291509901814,-0.029737416529229677,-0.023504396505830555,-0.15305056380111778,0.2149651698749893,0.9899218076080696,-0.01153605888324796,0.0954819000441092,0.10394681780305211
1451.1333333323423,0.17985158,-0.9367824,0.002641771,-2.415473,0.17871948,1.7060648,0.9395513,0.04,0.04,0.01859613858581355,-0.009359666663211197,-0.02977853096868266,-0.02369174586199113,-0.15266505706163747,0.21686080712565425,0.9896075492467303,-0.011685073143944185,0.09668044291583698,0.10579815450705461
1451.149999999009,0.18260922,-0.93912095,0.0026817056,-2.4163802,0.18146162,1.7081382,0.94190764,0.04,0.04,0.017008202912860426,-0.00856639375664825,-0.030127977524774252,-0.023878660585752054,-0.15223945781443424,0.21873672068857286,0.9892869330736516,-0.011833762939762247,0.09787515362550117,0.10766513087902863
1451.1666666656756,0.1853801,-0.9414707,0.002721832,-2.4172924,0.18421696,1.7102215,0.94427526,0.04,0.04,0.01545463335386188,-0.007608535433889507,-0.0302218556542444,-0.02406643497527311,-0.15177591214080932,0.22059455812886994,0.9889599837193085,-0.011982071150343259,0.09906528096376371,0.10954748139698958
1451.1833333323423,0.18816394,-0.94383126,0.0027621447,-2.4182088,0.18698516,1.7123145,0.94665396,0.04,0.04,0.016259799931273022,-0.0067880303097955785,-0.030080937367404914,-0.024254841435081775,-0.1512818611079934,0.22243354161278026,0.9886266463018603,-0.012129949586948569,0.10025075984433797,0.1114450703063502
1451.199999999009,0.1909604,-0.9462028,0.0028026386,-2.4191291,0.1897659,1.7144171,0.9490435,0.04,0.04,0.017260349379766282,-0.005902003821467439,-0.030155548552235345,-0.024444681793124617,-0.1507527061459898,0.22425383913868258,0.9882868367342821,-0.012277373096769977,0.10143176202072252,0.11335780564637131
1451.2166666656756,0.19376916,-0.9485845,0.0028433101,-2.4200535,0.19255883,1.7165288,0.95144373,0.04,0.04,0.015629426501817534,-0.0050305592526112,-0.03008163149875731,-0.024635702986539137,-0.15018588149052414,0.22605146547111285,0.9879406093919874,-0.012424217748321031,0.10260736085069315,0.1152853877418399
1451.2333333323422,0.19658977,-0.9509764,0.0028841528,-2.4209821,0.19536372,1.7186496,0.9538541,0.04,0.04,0.0153180551147436,-0.004092122282778332,-0.030133948509480923,-0.024827547232116914,-0.1495860370201335,0.22782652718998936,0.9875879183327922,-0.012570510580351165,0.10377742930617646,0.11722768868084403
1451.2499999990089,0.19942208,-0.95337826,0.0029251627,-2.4219146,0.19818012,1.7207792,0.9562744,0.04,0.04,0.01574016560890179,-0.0033061585394400517,-0.03031449588712931,-0.025021458967746324,-0.1489519847439498,0.2295805326337918,0.9872287364718625,-0.012716283294537218,0.10494177153356642,0.11918448980777513
1451.2666666656755,0.20226565,-0.95578957,0.0029663364,-2.4228506,0.20100783,1.7229171,0.9587044,0.04,0.04,0.015357110423330766,-0.0024485482355673938,-0.030105554717163585,-0.025216724233758342,-0.14828354528399365,0.2313148971294438,0.9868630633942943,-0.012861426217894387,0.10609993230790231,0.12115561145869078
1451.2833333323422,0.20512018,-0.9582102,0.0030076667,-2.42379,0.20384642,1.7250634,0.96114373,0.04,0.04,0.01569507714433982,-0.0015512882829304964,-0.029922265369264345,-0.025413258952864726,-0.14758141094510271,0.23302608662157356,0.9864908472288108,-0.013005976968417696,0.10725194378682883,0.12314086832090809
1451.2999999990088,0.20798528,-0.9606398,0.0030491496,-2.4247324,0.20669557,1.7272177,0.96359205,0.04,0.04,0.015495845346080728,-0.0006308237998964294,-0.03005495360146604,-0.025611086001197325,-0.1468441526355672,0.2347123441999466,0.986112092412142,-0.01314991380074878,0.10839739932367981,0.1251400207185644
1451.3166666656755,0.21086068,-0.9630781,0.0030907805,-2.4256785,0.20955497,1.7293794,0.9660491,0.04,0.04,0.014096429478094308,0.00018434184079207938,-0.030183299210206904,-0.025810100109272538,-0.14607239225615712,0.23637469164146735,0.9857268359473454,-0.013293210201887088,0.10953565640312403,0.12715280347715682
1451.3333333323421,0.213746,-0.96552473,0.0031325535,-2.4266276,0.21242419,1.7315488,0.9685146,0.04,0.04,0.014600284134491659,0.0011182293238876095,-0.029723352460719887,-0.026009265944713922,-0.14526919484827933,0.23801127283686038,0.9853350358092484,-0.013435751711233606,0.11066675253930239,0.12917901402761203
1451.3499999990088,0.21664087,-0.96797967,0.003174464,-2.42758,0.21530299,1.7337254,0.9709883,0.04,0.04,0.013896396058266092,0.001972416893114559,-0.0299354061267465,-0.026210324708502042,-0.14443294230796339,0.23962308628833656,0.9849366989765952,-0.013577564546950801,0.11179028945142246,0.13121844357569817
1451.3666666656754,0.21954498,-0.9704424,0.0032165067,-2.428536,0.21819101,1.7359089,0.97346985,0.04,0.04,0.013100142954414196,0.0028318441351871115,-0.029853978007898796,-0.026411632183679923,-0.1435645719794458,0.24120735465585846,0.9845318638291396,-0.013718556796441966,0.11290572689561335,0.13327080377455738
1451.383333332342,0.22245796,-0.97291267,0.003258678,-2.4294944,0.22108789,1.7380991,0.9759591,0.04,0.04,0.014049100588087171,0.003668812863810711,-0.02946693209278095,-0.026614728687561567,-0.14266698393755486,0.24276577019753776,0.984120477668098,-0.013858689069130676,0.11401319548907804,0.13533592806778638
1451.3999999990087,0.22537953,-0.97539,0.003300971,-2.4304557,0.22399324,1.7402958,0.9784556,0.04,0.04,0.012927190619160811,0.004494795347020908,-0.029378958880266204,-0.026819499713944872,-0.14173655800118876,0.24429595997954498,0.9837025868742104,-0.013998022650469276,0.11511215416854109,0.137413492429024
1451.4166666656754,0.2283092,-0.9778745,0.0033433817,-2.4314191,0.22690679,1.7424983,0.98095906,0.04,0.04,0.013969661491985974,0.00548627286810488,-0.029567909224037514,-0.02702498264539474,-0.14077798488246468,0.24579846756782295,0.9832781537756844,-0.014136505826291352,0.11620262670456118,0.13950333708361598
1451.433333332342,0.23124671,-0.98036563,0.0033859052,-2.4323864,0.22982815,1.7447071,0.9834692,0.04,0.04,0.010477538925268703,0.006274297666769568,-0.029051970856208698,-0.0272310990332941,-0.13978588561184999,0.24727086124821826,0.9828472867608731,-0.014273993736116927,0.11728372768203314,0.14160505369024856
1451.4499999990087,0.23419176,-0.9828632,0.0034285355,-2.4333556,0.23275693,1.7469214,0.9859857,0.04,0.04,0.01332774530617975,0.007068016177685932,-0.02907571328703007,-0.027437381232468167,-0.1387683815538273,0.24870830715261286,0.9824099043245393,-0.014410621597549488,0.11835583685547071,0.14371850873308933
1451.4666666656753,0.23714383,-0.9853669,0.003471268,-2.434327,0.23569277,1.7491411,0.9885083,0.04,0.04,0.01243794576173407,0.00809030590945281,-0.02877856013714375,-0.02764566283283046,-0.137720579461659,0.2501218625473285,0.9819660407009665,-0.014546248458887115,0.11941860814281045,0.14584340093084122
1451.483333332342,0.24010268,-0.9878761,0.0035140973,-2.4353004,0.23863538,1.7513659,0.9910368,0.04,0.04,0.011615090651284632,0.00872719089055618,-0.02841650818712349,-0.027855170258624273,-0.13664258487919362,0.2515040532377949,0.981515742264934,-0.01468081592707294,0.12047157931279685,0.14797945772204849
1451.4999999990087,0.24306796,-0.99039066,0.0035570187,-2.4362764,0.24158435,1.7535951,0.9935706,0.04,0.04,0.010022947986376707,0.0096274139017416,-0.028591258122645513,-0.028066311961219143,-0.13553657089659504,0.25285515847997164,0.9810591086051013,-0.014814412650167119,0.12151405540070542,0.15012625666707716
1451.5166666656753,0.24603924,-0.9929103,0.0036000262,-2.4372542,0.24453938,1.7558297,0.9961097,0.04,0.04,0.012025563001394346,0.010440115264448435,-0.0275502205321132,-0.028277594353968205,-0.13440818096374663,0.25417500211153643,0.9805960003129824,-0.014946856456906136,0.12254682188345663,0.15228378803570086
1451.533333332342,0.24901621,-0.99543506,0.0036431148,-2.4382331,0.24750005,1.7580682,0.9986536,0.04,0.04,0.01201913487416384,0.01133399451102024,-0.02817639115326731,-0.02849059608684948,-0.13324853969743886,0.2554590020840935,0.9801264881310702,-0.015078342524964006,0.12356938872859202,0.154451665642677
1451.5499999990086,0.2519985,-0.99796426,0.003686279,-2.4392142,0.25046602,1.7603106,1.0012022,0.04,0.04,0.009522710972964532,0.01209869739453584,-0.027665331401949267,-0.028704208321344682,-0.13206036138738952,0.256711077549801,0.9796506914808629,-0.015208596260636762,0.12458097393656355,0.15662950620449964
1451.5666666656753,0.25498575,-1.0004977,0.0037295136,-2.4401975,0.25343683,1.7625567,1.0037547,0.04,0.04,0.008971589266293378,0.013029417995524817,-0.027458200651198084,-0.028918929013458827,-0.13084975246900496,0.2579287477247262,0.9791686603737709,-0.015337861463050894,0.12558134679749336,0.15881690679553817
1451.583333332342,0.25797755,-1.0030346,0.0037728145,-2.4411814,0.25641245,1.7648065,1.0063112,0.04,0.04,0.010895088317530721,0.013482192638752943,-0.02642400865615624,-0.029133137987257585,-0.1296158956404233,0.25911441802044105,0.9786803089492346,-0.01546594233045079,0.12657086133293738,0.16101389556277446
1451.5999999990086,0.26097354,-1.0055752,0.0038161748,-2.4421675,0.25939223,1.767059,1.0088713,0.04,0.04,0.007713842295720141,0.014631740379350555,-0.027190823581912937,-0.02934772339795208,-0.12835529329322842,0.2602635889434043,0.9781858501822907,-0.015592780708776349,0.127548414114381,0.16321982033387852
1451.6166666656752,0.26397347,-1.0081192,0.003859589,-2.4431543,0.26237565,1.7693148,1.0114348,0.04,0.04,0.010375076993929255,0.015354389120397771,-0.026192536501512542,-0.029563631110814254,-0.1270760800569213,0.2613789230546582,0.9776851457860245,-0.015718448487420184,0.1285149382160078,0.16543456936760248
1451.6333333323419,0.26697677,-1.0106665,0.003903053,-2.4441426,0.2653627,1.7715727,1.0140011,0.04,0.04,0.008110431774577265,0.01618558534624559,-0.026530428183946242,-0.029780569887065456,-0.12576978980054782,0.26245866773152426,0.9771783573327526,-0.01584291069942651,0.12946941324788708,0.1676577799396173
1451.6499999990085,0.26998314,-1.0132159,0.00394656,-2.4451313,0.2683528,1.773833,1.0165704,0.04,0.04,0.00872925811994385,0.016826292625027328,-0.02521518897820041,-0.029997142935878823,-0.12444359619469535,0.2635023112386493,0.9766655051703751,-0.01596594222957995,0.13041190591584964,0.1698891241204486
1451.6666666656752,0.27299225,-1.0157679,0.003990106,-2.4461217,0.27134576,1.7760955,1.019142,0.04,0.04,0.006798226953774744,0.017625628402695437,-0.025571960642811753,-0.030215518409733716,-0.12309564444176073,0.2645076353519964,0.976146669247185,-0.01608769475766895,0.13134199921972645,0.17212828191780727
1451.6833333323418,0.2760038,-1.0183219,0.0040336866,-2.4471128,0.27434102,1.7783597,1.0217155,0.04,0.04,0.00741741740029056,0.018328095073028017,-0.02493933285465655,-0.03043223833032002,-0.1217283593875,0.26547150713647805,0.975621898330824,-0.016208247887725964,0.13225963971952942,0.17437486028389973
1451.6999999990085,0.27901733,-1.0208776,0.0040772967,-2.4481041,0.27733824,1.7806253,1.0242907,0.04,0.04,0.008009477427295408,0.019171850542920588,-0.024527761275439097,-0.03064812718766685,-0.12034303406836605,0.26639852833915445,0.9750911889501651,-0.01632751587569255,0.13316497821549714,0.17662863310898577
1451.7166666656751,0.2820325,-1.0234346,0.0041209282,-2.4490957,0.2803372,1.7828927,1.0268674,0.04,0.04,0.007476196240085997,0.019718877253649403,-0.023824717770226655,-0.030865983910081385,-0.11893549157242765,0.2672923560820725,0.9745545832758999,-0.0164453527574248,0.13405784955802816,0.1788893724079161
1451.7333333323418,0.28504884,-1.025993,0.004164577,-2.4500878,0.28333747,1.7851608,1.0294449,0.04,0.04,0.006370906173813751,0.020683231614515574,-0.024013886272289398,-0.03108419967716483,-0.1175060942126575,0.2681428877974175,0.9740122123402282,-0.016561942263297855,0.13493780337879796,0.18115656626207738
1451.7499999990084,0.28806615,-1.0285517,0.004208239,-2.4510803,0.28633857,1.7874295,1.0320235,0.04,0.04,0.005150834917788671,0.021164022785691294,-0.02305895502521249,-0.03130138853085154,-0.11605988311689225,0.2689557369860854,0.9734642084534659,-0.01667699817841105,0.13580434634097394,0.1834298015774018
1451.766666665675,0.29108405,-1.0311109,0.0042519066,-2.4520729,0.28934017,1.7896987,1.0346028,0.04,0.04,0.006051035920728864,0.021898292002020536,-0.02276442284376845,-0.031520102272462186,-0.11459976617138544,0.26973176529733367,0.9729105424493107,-0.016790619198783305,0.13665783243466864,0.18570888059586044
1451.7833333323417,0.29410207,-1.0336702,0.0042955754,-2.4530659,0.292342,1.7919679,1.037182,0.04,0.04,0.004269417587865476,0.02264580988101672,-0.022533591958961985,-0.03173861770903266,-0.1131215350772786,0.2704670710100179,0.9723513774001785,-0.01690285651030104,0.1374976302325836,0.18799333496215098
1451.7999999990084,0.29711992,-1.0362295,0.0043392414,-2.4540586,0.2953437,1.794237,1.0397608,0.04,0.04,0.005414395341674094,0.023272624508619,-0.021975769801896305,-0.03195576982604839,-0.11163113940586619,0.2711614486838703,0.9717866813417285,-0.01701377579979207,0.13832415529678652,0.19028296156328506
1451.816666665675,0.3001371,-1.0387886,0.0043828962,-2.4550512,0.29834488,1.7965055,1.0423391,0.04,0.04,0.004633564773470766,0.024070610367410428,-0.02176606386408153,-0.032171390527910376,-0.11012388224909143,0.2718154894088128,0.9712165768033085,-0.017123299725164697,0.1391370491825443,0.19257734834024362
1451.8333333323417,0.30315334,-1.0413468,0.0044265366,-2.4560432,0.30134487,1.7987732,1.0449166,0.04,0.04,0.004250890828938481,0.024754106789570685,-0.02085837404677271,-0.03238692967398302,-0.1086011663611195,0.2724296788494192,0.9706411593960456,-0.01723132733735969,0.13993626095654976,0.19487602190621992
1451.8499999990083,0.30616838,-1.0439036,0.0044701574,-2.457035,0.30434367,1.8010399,1.0474929,0.04,0.04,0.0029656901366692523,0.024982210494295387,-0.02027222560159192,-0.032600997454577396,-0.10706604037638126,0.27300111070450317,0.9700605417798916,-0.017337986457592366,0.140721350765724,0.19717870307406285
1451.866666665675,0.30918157,-1.0464592,0.004513753,-2.4580262,0.3073407,1.8033056,1.050068,0.04,0.04,0.003868437464760177,0.026108873872887628,-0.019882270301141425,-0.03281296158007274,-0.1055197585756833,0.2735311731243157,0.9694747302668918,-0.017442913089449813,0.14149270648799092,0.19948510262070876
1451.8833333323416,0.3121928,-1.0490129,0.0045573176,-2.4590166,0.31033587,1.8055695,1.052641,0.04,0.04,0.0026170981485940104,0.026257598391787873,-0.019491798944692995,-0.03302690022290766,-0.10396014060570634,0.2740199881257631,0.9688838791977241,-0.01754657304574725,0.14224978845803302,0.20179480689246013
1451.8999999990083,0.31520137,-1.0515646,0.004600846,-2.4600058,0.3133286,1.8078319,1.0552123,0.04,0.04,0.0033380040355801555,0.02728590578502388,-0.01858638605423124,-0.03323682765106059,-0.1023906003633355,0.27446527788405856,0.9682880008227558,-0.01764847967057272,0.1429929891305262,0.20410752971780696
1451.916666665675,0.31820714,-1.0541139,0.0046443334,-2.4609942,0.31631863,1.8100919,1.057781,0.04,0.04,0.0014664039766465464,0.027602267161219718,-0.018480302973711282,-0.03344791324312821,-0.10080950765048814,0.2748679983272782,0.967687291923342,-0.017748914176628813,0.14372166010958667,0.20642278341056192
1451.9333333323416,0.32120985,-1.0566603,0.0046877745,-2.4619815,0.31930542,1.8123498,1.0603467,0.04,0.04,0.0018744894668465406,0.02811857984882371,-0.01742775921895756,-0.033656405515818416,-0.0992205543277333,0.2752274333466798,0.9670817825753378,-0.01784796062104382,0.14443614024574664,0.20874021534790052
1451.9499999990082,0.32420897,-1.059204,0.004731163,-2.4629676,0.32228875,1.8146049,1.0629097,0.04,0.04,0.0014065539884811074,0.02884221312572377,-0.017478608565890674,-0.033863236694358756,-0.09762111841889151,0.2755457338337839,0.9664715895295223,-0.017945338926912562,0.14513617061677486,0.21105952577833373
1451.966666665675,0.3272042,-1.0617441,0.0047744946,-2.4639528,0.3252681,1.8168571,1.0654695,0.04,0.04,-0.00011459944513347864,0.029295517352678768,-0.016315443658898587,-0.03406731462051371,-0.09601503672130825,0.27581684835623754,0.9658568903486424,-0.018041050790709688,0.14582144516117113,0.21338016305065738
1451.9833333323415,0.3301951,-1.0642807,0.0048177643,-2.4649363,0.32824326,1.8191057,1.0680255,0.04,0.04,0.000840010704594718,0.029880218650557566,-0.0163293646390672,-0.03427159183598302,-0.09440392083196628,0.27604889889477296,0.9652377123438209,-0.018135312205033637,0.14649217771047177,0.2157019030749074
1451.9999999990082,0.33318135,-1.0668135,0.0048609637,-2.4659188,0.3312137,1.8213512,1.0705775,0.04,0.04,-0.0010109791859669315,0.030391176063937486,-0.01520647770583139,-0.034471585503950464,-0.09278699138592819,0.2762329809998173,0.9646142189728332,-0.01822791077273802,0.14714815094368755,0.21802424979379162
1452.0166666656748,0.33616272,-1.069342,0.004904091,-2.466899,0.3341793,1.8235933,1.0731251,0.04,0.04,0.0012706701882692073,0.030651784330404386,-0.014706451594315162,-0.034671488114779825,-0.09116523218846735,0.27637870770515305,0.9639863389724979,-0.018319073781573374,0.14778999187859934,0.22034715362515828
1452.0333333323415,0.33913857,-1.0718657,0.004947139,-2.4678776,0.33713958,1.8258308,1.075668,0.04,0.04,-0.00215424400118458,0.031357794139019735,-0.014115084361132624,-0.03486793155639137,-0.08953445865506378,0.27647891753235027,0.963354445245424,-0.01840865105225135,0.14841661561064576,0.22266980622212687
1452.0499999990082,0.34210876,-1.0743847,0.004990104,-2.4688542,0.34009412,1.8280638,1.0782062,0.04,0.04,-0.0007172137016286939,0.03177377705912976,-0.013884078836423619,-0.03506120614625802,-0.08790429057364851,0.276536309034844,0.962718507844015,-0.01849660403160638,0.14902857331896777,0.2249920768125051
1452.0666666656748,0.34507287,-1.0768985,0.0050329794,-2.469829,0.3430426,1.8302927,1.0807391,0.04,0.04,-0.002200613642910909,0.0321534011861635,-0.01262847773773057,-0.03525295110321572,-0.08627141913389247,0.27654985458800285,0.9620786684791414,-0.018582911323248106,0.1496257585007605,0.2273135355785632
1452.0833333323415,0.34803048,-1.0794069,0.005075762,-2.470801,0.34598467,1.8325162,1.0832666,0.04,0.04,-0.0009128452210127591,0.03273156721091963,-0.012660641252781879,-0.035441142250611346,-0.08463584544451974,0.2765177105973625,0.961435008390406,-0.01866769411280608,0.15020831088284736,0.22963385024767735
1452.099999999008,0.35098127,-1.0819094,0.005118445,-2.4717715,0.3489201,1.8347352,1.0857885,0.04,0.04,-0.0033288941051701215,0.03293259894288081,-0.011267305751005985,-0.035626417118256315,-0.08299803182262855,0.2764420792616019,0.9607876810144199,-0.01875064894136012,0.1507759957043815,0.2319526768428501
1452.1166666656748,0.35392502,-1.0844059,0.0051610214,-2.4727392,0.3518484,1.8369485,1.0883039,0.04,0.04,-0.0025838539715827835,0.03334407522302962,-0.011196545567293548,-0.03580969799646211,-0.0813602339353903,0.27632134655200036,0.9601368033307179,-0.018832248285691088,0.1513289287861372,0.2342695469471365
1452.1333333323414,0.35686123,-1.086896,0.0052034906,-2.4737043,0.35476914,1.8391563,1.0908132,0.04,0.04,-0.003132081098478068,0.03384889108923872,-0.010250639196263123,-0.035988339960532745,-0.07972295525093553,0.27615671536209097,0.9594825003213835,-0.018912121611300736,0.15186712045781506,0.2365841096883666
1452.149999999008,0.35978952,-1.0893795,0.0052458444,-2.4746675,0.3576821,1.8413581,1.0933156,0.04,0.04,-0.004848775704147101,0.03426620158649696,-0.00984000312331812,-0.03616302496721277,-0.07808639846797807,0.2759458165191162,0.9588249565811193,-0.018990350590077563,0.15239032071174244,0.23889591745162356
1452.1666666656747,0.36270955,-1.0918559,0.0052880775,-2.4756272,0.3605868,1.843554,1.0958109,0.04,0.04,-0.0026621286275396727,0.03452425185385133,-0.008593756245722783,-0.03633384760260053,-0.07645353923360254,0.2756886524886307,0.9581641557546136,-0.019067031442238234,0.1528992156533626,0.2412047445462377
1452.1833333323414,0.365621,-1.0943251,0.005330187,-2.4765842,0.3634829,1.845743,1.098299,0.04,0.04,-0.005212426974843254,0.03494140651496558,-0.008740959260400416,-0.036502741474687794,-0.0748199747651884,0.27539251255861946,0.9575004024505723,-0.019142058905850252,0.15339307059613858,0.2435100137179678
1452.199999999008,0.3685234,-1.0967865,0.0053721643,-2.477538,0.36637005,1.8479253,1.1007794,0.04,0.04,-0.004812558259104094,0.03527172766589759,-0.00735390842031558,-0.03666607732980723,-0.07319224732674696,0.2750477946473191,0.9568337402157971,-0.019215453389494496,0.15387233717702933,0.24581143949654405
1452.2166666656747,0.3714165,-1.0992402,0.005414007,-2.4784894,0.36924806,1.8501005,1.1032517,0.04,0.04,-0.006213128419751968,0.03545934584159305,-0.007169581310639828,-0.03682521606369843,-0.07156738657595343,0.27466012498463,0.9561643614642417,-0.019287313364504018,0.15433673967639397,0.2481086137056092
1452.2333333323413,0.37429994,-1.1016854,0.0054557105,-2.4794376,0.3721165,1.8522687,1.1057156,0.04,0.04,-0.0061564691528737114,0.035708779756915554,-0.005898415614835617,-0.03697945643854106,-0.06995047573854693,0.27422900967090325,0.9554923747686569,-0.019357540898308528,0.1547864880996069,0.25040117905296105
1452.249999999008,0.3771735,-1.1041224,0.0054972693,-2.480382,0.37497503,1.8544295,1.1081711,0.04,0.04,-0.004923031187109572,0.036019740454207305,-0.005832582681331022,-0.037130251021981586,-0.06833843299630273,0.2737553620952579,0.9548177961859691,-0.01942624515409694,0.15522206093069565,0.25268895679512726
1452.2666666656746,0.38003674,-1.106551,0.005538676,-2.4813237,0.37782317,1.8565823,1.1106179,0.04,0.04,-0.007872748534687446,0.036482192657638635,-0.0052504883519932655,-0.03727464332276775,-0.06673050824611612,0.273232875212368,0.9541409482692566,-0.019493271252503462,0.15564289177602894,0.2549712796597209
1452.2833333323413,0.38288918,-1.1089698,0.005579929,-2.482261,0.38066086,1.8587273,1.1130555,0.04,0.04,-0.005789632192065852,0.036302556989498136,-0.003426293585151452,-0.0374149256094819,-0.06513253267117451,0.27266995194214966,0.9534618285769827,-0.019558660636839923,0.15604949974962196,0.25724803958168907
1452.299999999008,0.38573065,-1.1113797,0.0056210225,-2.483195,0.38348755,1.8608638,1.1154835,0.04,0.04,-0.00813024509516147,0.036897024353932384,-0.004049832087682503,-0.03755116426715893,-0.06354032838949591,0.2720626978110492,0.9527806834138011,-0.019622568530515035,0.15644164825973614,0.2595186598446673
1452.3166666656746,0.38856074,-1.1137799,0.00566195,-2.484125,0.38630292,1.8629917,1.1179019,0.04,0.04,-0.006993260953924718,0.03697608704712474,-0.0027263174451008787,-0.03768047955729856,-0.06195734812696334,0.27141189387695197,0.952097578442032,-0.019684897215032807,0.1568197039886771,0.2617828993409538
1452.3333333323412,0.39137915,-1.1161699,0.0057027084,-2.4850514,0.38910672,1.8651108,1.1203105,0.04,0.04,-0.00947648303788462,0.03702132540228664,-0.0019011020777615073,-0.03780537191559122,-0.06038294401118747,0.2707183675129546,0.9514127891744159,-0.019745482424920944,0.1571832131270252,0.26404025835131634
1452.3499999990079,0.3941856,-1.1185503,0.0057432926,-2.4859736,0.39189857,1.8672211,1.1227088,0.04,0.04,-0.007264694904041136,0.03743992495280901,-0.0017199739346773768,-0.037925812599063274,-0.058821546447318795,0.2699820970007916,0.9507262226469534,-0.019804624173599596,0.15753318996078577,0.26629066918233757
1452.3666666656745,0.39697966,-1.1209201,0.005783698,-2.486892,0.3946781,1.869322,1.1250962,0.04,0.04,-0.009835188555573637,0.037490671108786344,-0.0006430360319220618,-0.03804024268170622,-0.05726567232392413,0.26920193000577264,0.9500382549826103,-0.019862309805964956,0.15786897145214177,0.26853340680707
1452.3833333323412,0.3997611,-1.123279,0.0058239186,-2.4878058,0.39744502,1.8714134,1.1274729,0.04,0.04,-0.008778055707914234,0.037512581469512085,6.472906111110177e-05,-0.03814761420181691,-0.05572293526863499,0.2683797164179726,0.9493489055499907,-0.01991843705534143,0.15819102818046232,0.27076836964371476
1452.3999999990078,0.40252954,-1.1256268,0.00586395,-2.4887154,0.40019897,1.8734947,1.1298385,0.04,0.04,-0.010021155461847897,0.03776545584874835,0.0006673926551403753,-0.03824970091059046,-0.05419074604707565,0.2675160369370577,0.9486584133270813,-0.019973018173882664,0.15849922483179554,0.2729950349301066
1452.4166666656745,0.40528458,-1.1279634,0.0059037874,-2.4896212,0.4029398,1.8755664,1.1321927,0.04,0.04,-0.011031140758444025,0.03782193220184249,0.0015481817814744225,-0.03834472659127315,-0.052672640083213894,0.26660882041144873,0.9479669074212366,-0.020025932551315805,0.1587936667111143,0.2752131462559637
1452.4333333323411,0.4080259,-1.1302885,0.005943428,-2.490522,0.40566698,1.8776278,1.1345353,0.04,0.04,-0.009530891781794892,0.03807019113535315,0.0022054898719314764,-0.03843370160730954,-0.05116943940313131,0.2656586137877737,0.9472744459275613,-0.02007732811953412,0.15907492843412846,0.27742240740771007
1452.4499999990078,0.4107533,-1.1326015,0.005982865,-2.4914181,0.40838024,1.8796786,1.1368661,0.04,0.04,-0.011440449530120134,0.037888382496409356,0.0028376698128274036,-0.0385174637196912,-0.04967694078640588,0.2646678388895678,0.9465813205602993,-0.020127182692599395,0.15934258452336683,0.2796223182090307
1452.4666666656744,0.41346648,-1.1349026,0.006022095,-2.4923096,0.41107932,1.8817185,1.1391845,0.04,0.04,-0.011079403267233445,0.03810418918293035,0.0032835978227452323,-0.03859423912280463,-0.048201049572408394,0.26363524580374686,0.9458875962462191,-0.020175680002616575,0.15959709583415596,0.2818126402510805
1452.483333332341,0.41616502,-1.1371913,0.006061113,-2.4931967,0.41376382,1.8837475,1.1414906,0.04,0.04,-0.012729288727886257,0.03814553219424477,0.004369935768644417,-0.0386633055643527,-0.04673901079172241,0.26256135000927494,0.9451935275034681,-0.020222526089520864,0.15983828412183126,0.28399290120194554
1452.4999999990077,0.4188486,-1.139467,0.006099914,-2.4940786,0.41643372,1.8857651,1.1437838,0.04,0.04,-0.01180445037878286,0.03797628009890586,0.005091591867723011,-0.03872568685996604,-0.04529572743168378,0.261448295265144,0.9444991872091265,-0.0202679396671662,0.16006646082930087,0.2861629327857285
1452.5166666656744,0.4215171,-1.1417301,0.006138496,-2.4949555,0.41908848,1.8877715,1.1460643,0.04,0.04,-0.012034263900995157,0.03815592812835833,0.005455537071696881,-0.038782632961164354,-0.04386829790854568,0.26029632039564093,0.9438046744070409,-0.02031183913567492,0.16028202229322416,0.2883224567874322
1452.533333332341,0.42417,-1.1439801,0.006176853,-2.495827,0.42172763,1.8897665,1.1483313,0.04,0.04,-0.011815633321754504,0.03842376893509192,0.00636529940126751,-0.03883215555020253,-0.04245627622410397,0.2591031973920509,0.9431101227331685,-0.020354377750195284,0.16048537815220687,0.29047106414232254
1452.5499999990077,0.42680705,-1.1462168,0.0062149814,-2.4966938,0.42435107,1.8917493,1.1505847,0.04,0.04,-0.014671662450949086,0.03809300452982667,0.007020267774704436,-0.038874116365416475,-0.041057790209907054,0.25786821926998393,0.9424158993498479,-0.020395466482705134,0.16067585008958613,0.29260821724203023
1452.5666666656743,0.4294281,-1.1484398,0.006252875,-2.4975553,0.42695844,1.89372,1.1528243,0.04,0.04,-0.013043374208709935,0.03809897052452493,0.00758898408564912,-0.03890757643023286,-0.039681579263551044,0.2565969257961334,0.9417219905804627,-0.020435233385584797,0.16085417917941172,0.2947338235326331
1452.583333332341,0.43203276,-1.150649,0.00629053,-2.4984107,0.42954957,1.8956786,1.1550499,0.04,0.04,-0.01255446841725849,0.03811151467604246,0.008278459432065066,-0.03893299350955477,-0.038320715809705,0.2552843353628335,0.941028476932997,-0.020473614284381547,0.16102072081883811,0.2968477121122549
1452.5999999990077,0.43462062,-1.1528437,0.006327944,-2.499261,0.43212414,1.8976245,1.1572617,0.04,0.04,-0.015052943474902492,0.037992964195809886,0.009269279695101051,-0.0389506377965471,-0.03697586600660977,0.2539304833052806,0.9403357291397093,-0.02051031728145684,0.1611749610853328,0.29894928551084854
1452.6166666656743,0.43719158,-1.1550244,0.0063651125,-2.5001059,0.4346818,1.8995577,1.1594588,0.04,0.04,-0.014769606086151299,0.03800809801750571,0.00952230555506528,-0.03896276530735941,-0.03565543048363975,0.25254174825677367,0.9396437874836747,-0.02054580029832847,0.16131753289776585,0.301038330305651
1452.633333332341,0.43974522,-1.1571902,0.006402031,-2.5009449,0.4372222,1.9014777,1.1616411,0.04,0.04,-0.014753834976133362,0.03788442788886792,0.01048435174167972,-0.03896542342946367,-0.03435210302524644,0.25111419978481153,0.9389528670879486,-0.020579896288592758,0.16144845145654282,0.3031144648121506
1452.6499999990076,0.44228134,-1.1593409,0.006438693,-2.501778,0.4397452,1.9033849,1.1638083,0.04,0.04,-0.014810452368507754,0.03768123684327884,0.011449854212253197,-0.038959537356969526,-0.03306983016625196,0.24964913800086289,0.9382630340373342,-0.020612678040375785,0.16156816895509019,0.3051775274222518
1452.6666666656743,0.44479957,-1.1614767,0.006475098,-2.502605,0.44225043,1.9052783,1.1659606,0.04,0.04,-0.015250142227030139,0.03787307403001483,0.011232084428947076,-0.038945810182971635,-0.0318070966253396,0.24814727156065197,0.9375744958199044,-0.020644108754412496,0.1616766848770522,0.3072271718597731
1452.683333332341,0.44729978,-1.1635975,0.006511239,-2.5034266,0.44473776,1.9071584,1.1680973,0.04,0.04,-0.016345581394405784,0.03752605256255315,0.012343994231478472,-0.03892455337352024,-0.03056416921201984,0.24660934641182097,0.9368874014337972,-0.020674226219070238,0.16177419388860728,0.3092631300309835
1452.6999999990076,0.4497816,-1.1657022,0.006547115,-2.504242,0.44720677,1.9090245,1.170218,0.04,0.04,-0.016336079907608436,0.03733538133984249,0.013273479499331664,-0.038894807670961665,-0.029343289032511315,0.2450353685220083,0.9362019704074231,-0.020703176171146205,0.1618608232637511,0.31128495465419725
1452.7166666656742,0.4522448,-1.1677912,0.0065827193,-2.5050507,0.44965717,1.9108765,1.1723229,0.04,0.04,-0.01537478513182755,0.0373937844359018,0.013474655932443902,-0.03885585786471778,-0.02814443177723079,0.24342899015928102,0.9355182313265902,-0.020730909323290848,0.1619371200042051,0.31329257479062844
1452.7333333323409,0.45468903,-1.1698644,0.006618052,-2.5058532,0.45208877,1.9127145,1.1744117,0.04,0.04,-0.016527320297532455,0.03726328805230272,0.014257604142109415,-0.038807919183399986,-0.026965966180172406,0.24178663685949112,0.9348363727325633,-0.0207573491507303,0.16200318329292177,0.31528567565847115
1452.7499999990075,0.45711413,-1.1719215,0.006653106,-2.5066493,0.45450133,1.9145379,1.1764842,0.04,0.04,-0.0167167657228795,0.037035545810437664,0.014663195951947205,-0.0387528302142984,-0.025807271476989448,0.24010950714183463,0.93415656601593,-0.020782551395782705,0.1620591273808626,0.31726398307932874
1452.7666666656742,0.45951986,-1.173962,0.0066878796,-2.5074394,0.45689464,1.9163468,1.1785402,0.04,0.04,-0.018223927433913545,0.03667007329818395,0.015689526649376173,-0.03868905525041169,-0.02467230170812581,0.23839745773239007,0.9334790510120924,-0.02080649770093206,0.16210491160690288,0.3192271113296971
1452.7833333323408,0.46190593,-1.1759857,0.0067223688,-2.5082228,0.4592684,1.9181412,1.1805793,0.04,0.04,-0.017132134202491045,0.03658987233851052,0.016400753825329684,-0.038617957224898414,-0.02356078346642082,0.2366581723370919,0.9328038568346982,-0.020829284733266774,0.16214118336140204,0.3211749402272482
1452.7999999990075,0.464272,-1.1779926,0.0067565693,-2.5089998,0.4616223,1.9199206,1.1826015,0.04,0.04,-0.01816391134821238,0.03653350899841534,0.016691953816649896,-0.038536371695607904,-0.022471267341736177,0.2348807461612754,0.9321312331512724,-0.020850847701667,0.1621678826256928,0.32310707850294706
1452.8166666656741,0.46661803,-1.1799821,0.0067904782,-2.5097704,0.4639563,1.9216845,1.1846062,0.04,0.04,-0.018971778734799827,0.03590626479653691,0.017405933689973452,-0.03844774855078065,-0.021405394074919863,0.23307457550504618,0.9314613844177513,-0.020871382944373417,0.16218497847749952,0.3250232414286835
1452.8333333323408,0.4689437,-1.1819546,0.0068240906,-2.5105345,0.46627003,1.9234332,1.1865935,0.04,0.04,-0.01856049780708524,0.03611917282694277,0.017714038679594868,-0.03834522045158148,-0.020365673804615084,0.2312338049456863,0.9307943504218272,-0.020890794041136432,0.1621930911436469,0.32692331384043
1452.8499999990074,0.47124872,-1.1839095,0.006857406,-2.5112913,0.46856305,1.9251661,1.1885637,0.04,0.04,-0.01788462860128348,0.0358512222448204,0.018444847118859187,-0.0382353730768287,-0.01934985338574327,0.22936294837472274,0.9301302980922874,-0.020908982066210877,0.16219244956263623,0.3288070138311823
1452.866666665674,0.4735329,-1.1858467,0.006890417,-2.512041,0.47083542,1.9268835,1.190516,0.04,0.04,-0.01887928683146356,0.03548104546529096,0.019145071886128573,-0.03811820203349875,-0.018357416436914256,0.22746359999746116,0.9294693693960937,-0.02092610877704357,0.16218322506077001,0.3306741460029295
1452.8833333323407,0.475796,-1.187766,0.0069231233,-2.512784,0.47308686,1.9285852,1.1924497,0.04,0.04,-0.019108324362004936,0.035245027750119284,0.019728498846971476,-0.03799140514496155,-0.01738853614404929,0.22553367886749984,0.9288116882018443,-0.020942441788474778,0.16216580944466236,0.332524453595121
1452.8999999990074,0.47803777,-1.1896672,0.006955522,-2.5135198,0.47531703,1.9302711,1.1943653,0.04,0.04,-0.018971122825073294,0.03518134112094895,0.020323876872752056,-0.03785320484025678,-0.016441769794138042,0.22357371436170204,0.9281573831433962,-0.020957669340274335,0.1621404933342777,0.3343577554559538
1452.916666665674,0.48025808,-1.1915504,0.0069876094,-2.5142486,0.4775258,1.9319404,1.1962627,0.04,0.04,-0.02021773345859401,0.03476676139959611,0.020362110080651696,-0.03770748536352628,-0.015517713927745584,0.22158595816909435,0.9275067380690301,-0.020971851996496385,0.16210699982548354,0.33617369449135276
1452.9333333323407,0.48245668,-1.1934152,0.007019382,-2.5149703,0.479713,1.9335936,1.1981417,0.04,0.04,-0.01970147694785318,0.03451021586078351,0.021302796417876912,-0.037552395947719655,-0.014620655871001184,0.21957048343097213,0.926859769703383,-0.02098500248418033,0.16206595395531098,0.3379722230371688
1452.9499999990073,0.48463342,-1.1952614,0.007050838,-2.5156858,0.48187846,1.9352304,1.200002,0.04,0.04,-0.022083113574566937,0.03404015699315366,0.02198678463524173,-0.0373887490599939,-0.013746631745593187,0.21752862668843295,0.9262168063598076,-0.020997083646877836,0.16201705015127565,0.3397528889579067
1452.966666665674,0.486788,-1.1970888,0.007081973,-2.5163937,0.48402193,1.9368504,1.201843,0.04,0.04,-0.019681017507311438,0.03401073673052757,0.022153015327652792,-0.037217212606123706,-0.012902023094092913,0.21546482765700278,0.9255777938420034,-0.02100840333900129,0.16196115455208424,0.34151570820662336
1452.9833333323406,0.48892024,-1.1988974,0.007112785,-2.5170941,0.48614314,1.9384538,1.2036654,0.04,0.04,-0.02047913597702511,0.03369601449025872,0.022894605708057014,-0.03703527521217678,-0.012079632572182586,0.21337485489088334,0.9249429224500304,-0.02101862229028245,0.16189832172940616,0.34326045672028255
1452.9999999990073,0.49102998,-1.2006867,0.0071432693,-2.5177872,0.48824197,1.94004,1.2054683,0.04,0.04,-0.02107430098070573,0.033288658861230225,0.02324692839278386,-0.036845375906656916,-0.011282949407581844,0.21125704168682624,0.924312385299746,-0.02102806142155776,0.1618286628109055,0.3449868387448704
1453.016666665674,0.4931171,-1.202457,0.007173427,-2.5184722,0.49031824,1.9416094,1.2072518,0.039999988,0.04,-0.01942005207644648,0.033147223716833984,0.023526109612725943,-0.0366433005685583,-0.010512625561704778,0.20911362366483377,0.9236861051294812,-0.02103674853596547,0.16175296698855496,0.34669498420392947
1453.0333333323406,0.49518132,-1.2042079,0.0072032525,-2.5191498,0.49237177,1.9431618,1.2090157,0.03999998,0.04,-0.021188297372232157,0.03277393916316651,0.02433438753471906,-0.03643301510840033,-0.009761076006260298,0.20694562651739684,0.9230643458710913,-0.02104454737626575,0.16167113386495782,0.34838453593998847
1453.0499999990072,0.49722254,-1.2059389,0.007232747,-2.51982,0.4944023,1.9446964,1.21076,0.039999973,0.04,-0.02247119648397522,0.032217128785161364,0.024760876732976556,-0.036213853952962366,-0.009034800523967094,0.20475383937267327,0.9224474486204751,-0.021051542191141484,0.16158286149747964,0.3500550184974309
1453.066666665674,0.4992406,-1.2076505,0.0072619016,-2.5204823,0.49640968,1.9462142,1.2124846,0.03999996,0.04,-0.020452930443681794,0.032236435030164046,0.02515081829511656,-0.03598510117266862,-0.00833651165500044,0.20254282715839406,0.9218352037198441,-0.021057665575542627,0.1614892725190924,0.35170676246634297
1453.0833333323405,0.5012352,-1.209342,0.0072907205,-2.5211368,0.49839383,1.9477135,1.214189,0.03999995,0.04,-0.02226318648594905,0.031689116948008245,0.025409215028826537,-0.035748926590411484,-0.007659998294811489,0.2003067206573627,0.9212280569625976,-0.02106314427749909,0.16138978204138024,0.3533391420019838
1453.0999999990072,0.5032063,-1.2110139,0.0073191994,-2.5217838,0.5003545,1.9491962,1.2158732,0.039999936,0.04,-0.021471704070741282,0.031570351549892184,0.026254652062607242,-0.035501099894932234,-0.007011355146567776,0.19805295134451772,0.9206258105112125,-0.021067846773713414,0.16128552835297946,0.35495244920523195
1453.1166666656738,0.50515383,-1.2126656,0.0073473332,-2.5224228,0.50229156,1.9506602,1.2175375,0.039999925,0.04,-0.022214618009508413,0.031015922295385412,0.025980827309934895,-0.03524659531586974,-0.006382198527268915,0.19577576360594837,0.920028885930654,-0.021071844346708394,0.1611758641717963,0.3565461642445509
1453.1333333323405,0.5070774,-1.214297,0.007375122,-2.5230541,0.5042049,1.9521064,1.219181,0.039999906,0.04,-0.022512091055304495,0.030834549113512022,0.026896985410018726,-0.034982078195480826,-0.005779708936006121,0.1934817429127084,0.9194372877218457,-0.021075285965248748,0.1610614512571254,0.35812025241129175
1453.1499999990072,0.5089769,-1.2159084,0.007402562,-2.523677,0.5060944,1.9535347,1.2208045,0.0399999,0.04,-0.021126326220821667,0.03067264117735391,0.02712711056045425,-0.03470830308270985,-0.00520199746659214,0.19116914838341928,0.9188509998095816,-0.021077779547464478,0.1609427654505576,0.3596748442793957
1453.1666666656738,0.5108525,-1.2174991,0.007429656,-2.5242922,0.5079598,1.954945,1.2224071,0.03999989,0.04,-0.022805772574008287,0.029819110073758814,0.027566125569600253,-0.03443054094903092,-0.004646088683156142,0.18884019999880267,0.9182703095289901,-0.021079836169758216,0.1608196704655182,0.3612095136287952
1453.1833333323405,0.5127038,-1.2190694,0.007456397,-2.5248995,0.50980127,1.9563369,1.2239894,0.03999988,0.04,-0.02280377192636074,0.029738175111226894,0.027879028692612273,-0.03414014476735951,-0.004113382405189596,0.18649119712422885,0.9176952980076563,-0.021081050571162243,0.16069230382813163,0.3627242931096049
1453.199999999007,0.5145305,-1.2206185,0.0074827857,-2.5254986,0.5116183,1.9577105,1.2255505,0.039999872,0.04,-0.02299952266837657,0.02938195962242096,0.028871227230842234,-0.03384205071724454,-0.00360851672421883,0.18412459054216082,0.9171261354987845,-0.021081653361205512,0.16056109151569456,0.36421882346731027
1453.2166666656738,0.5163326,-1.2221473,0.00750882,-2.5260897,0.5134111,1.9590656,1.2270906,0.039999858,0.04,-0.02237576973147526,0.02926225542017047,0.02810566662023728,-0.033536389918356196,-0.0031250757257966014,0.18174227070613663,0.9165627950907246,-0.02108180700700672,0.16042639895145253,0.3656932739171818
1453.2333333323404,0.51811033,-1.2236551,0.0075344983,-2.526673,0.51517934,1.9604021,1.2286099,0.03999985,0.04,-0.024125296892618664,0.028384915478774086,0.029208438227867894,-0.033221406854611155,-0.00266540065792481,0.17934499966675874,0.9160055786383856,-0.02108126170760577,0.16028795446978147,0.36714728919068035
1453.249999999007,0.51986325,-1.225142,0.0075598187,-2.5272484,0.51692295,1.9617202,1.2301075,0.03999984,0.04,-0.02299017557567673,0.02841135709876763,0.029324936118302336,-0.032899171387340706,-0.0022316269134761216,0.17693524472966513,0.9154544440370003,-0.02108040101712502,0.16014651857360857,0.3685808868818575
1453.2666666656737,0.5215915,-1.226608,0.0075847795,-2.527816,0.5186419,1.9630197,1.2315847,0.039999828,0.04,-0.02401333699206809,0.027842218945961505,0.029509349171530364,-0.032566951178359185,-0.0018182292748502651,0.174511241529277,0.914909575397716,-0.021078714878839073,0.16000184005856252,0.36999401049544267
1453.2833333323404,0.5232947,-1.228052,0.00760938,-2.528375,0.520336,1.9643004,1.2330401,0.03999982,0.04,-0.023058964191680076,0.027315107647751802,0.030553424684476305,-0.03222742936919468,-0.0014317299193824934,0.1720727282607748,0.9143710912633967,-0.021076648157911628,0.1598543650067425,0.3713864084111103
1453.299999999007,0.5249729,-1.2294759,0.007633618,-2.528926,0.5220052,1.9655622,1.2344743,0.0399998,0.04,-0.02306425490874453,0.027648597784857287,0.02930952868087644,-0.031881564128811754,-0.0010671664815268891,0.16962610191539382,0.9138389108515325,-0.021074144399876878,0.15970458908508794,0.37275832609971443
1453.3166666656737,0.5266261,-1.2308776,0.007657493,-2.5294688,0.52364933,1.9668053,1.2358869,0.039999794,0.04,-0.02443947478192321,0.026450976661784864,0.031221897868782822,-0.03152672638074479,-0.0007235351070272733,0.16716618045735201,0.9133133801106637,-0.02107115236465546,0.1595522397376796,0.37410928756654793
1453.3333333323403,0.52825415,-1.232259,0.0076810047,-2.5300026,0.5252688,1.9680294,1.2372786,0.03999978,0.04,-0.021089701692611484,0.026931238748484354,0.029422787601118827,-0.031165938287038522,-0.00040428250926932,0.16469873474486402,0.9127941510117733,-0.02106772213522681,0.15939822489089542,0.37544000168383823
1453.349999999007,0.529857,-1.2336184,0.007704151,-2.530528,0.5268633,1.9692343,1.2386483,0.039999772,0.04,-0.02417219048163055,0.025724127803783414,0.031366499093976596,-0.030799522909383696,-0.0001023643629246701,0.16221905248165697,0.9122817042936883,-0.021064001397227815,0.15924206301369592,0.3767497381860847
1453.3666666656736,0.5314345,-1.2349564,0.0077269305,-2.5310454,0.52843225,1.9704205,1.2399964,0.03999976,0.04,-0.023934726702190545,0.025932773243808604,0.03134201164141093,-0.030423337373704028,0.0001761958852101453,0.15972956602682897,0.9117760602801108,-0.02105983735668751,0.15908434111805905,0.3780384524907787
1453.3833333323403,0.5329866,-1.2362732,0.007749343,-2.5315547,0.52997583,1.9715875,1.241323,0.039999753,0.04,-0.02393838748586674,0.02557369135758325,0.03126892889625532,-0.030040902668019356,0.00043361686398805943,0.15723152144110283,0.9112772868313198,-0.02105526614766524,0.15892518815224702,0.37930616504820014
1453.399999999007,0.53451353,-1.2375681,0.0077713886,-2.5320556,0.5314943,1.9727354,1.242628,0.039999742,0.04,-0.02404370407891321,0.024627976322899592,0.03151585267797685,-0.029652520393238443,0.0006715206041201655,0.15472793521425793,0.910785486331153,-0.021050379836992015,0.15876448383633635,0.38055291099849076
1453.4166666656736,0.5360152,-1.2388417,0.0077930666,-2.5325482,0.5329874,1.9738644,1.2439111,0.039999735,0.04,-0.02354686262453498,0.024628544217630832,0.03169747981630611,-0.029254920719017037,0.00088657916240234,0.15221401119013955,0.9103006409911694,-0.021045258511889497,0.15860285461356305,0.3817786984807598
1453.4333333323402,0.53749096,-1.2400934,0.007814375,-2.5330327,0.5344551,1.9749743,1.2451727,0.039999723,0.04,-0.024577897624711298,0.024443921030792293,0.03252286132134907,-0.028851755297991652,0.0010817203961097088,0.14969750782574734,0.9098229755573748,-0.02103948889896655,0.15844018948564043,0.3829832886831345
1453.4499999990069,0.53894114,-1.2413236,0.007835314,-2.5335088,0.5358976,1.9760648,1.2464124,0.039999716,0.04,-0.02379355218531387,0.023968857602796323,0.03187931395425281,-0.028443989351361595,0.0012556292411971468,0.14717278463155414,0.909352440776394,-0.02103350100121598,0.15827681575669533,0.38416686463510596
1453.4666666656735,0.54036605,-1.2425323,0.007855883,-2.533976,0.53731465,1.977136,1.24763,0.03999971,0.04,-0.023041092776932004,0.02350359442561123,0.03180134600635487,-0.02803162280856982,0.0014097350742584974,0.144648425927879,0.9088890601318499,-0.021027558501332092,0.15811308770679566,0.38532943003609094
1453.4833333323402,0.54176515,-1.2437192,0.007876083,-2.534435,0.5387062,1.978188,1.2488258,0.0399997,0.04,-0.024015526568188506,0.023373766946144237,0.03264920628174295,-0.02760934323039524,0.0015478776083226384,0.1421163569663572,0.908432987711136,-0.021021239179610452,0.157949073186598,0.3864708328206249
1453.4999999990068,0.5431387,-1.2448844,0.007895916,-2.5348852,0.54007226,1.9792209,1.2499999,0.039999686,0.04,-0.023180629054664337,0.02284691726096577,0.032511291306602796,-0.027183975712746167,0.0016663984818250793,0.13958513122372218,0.9079842117719642,-0.02101466054366161,0.15778500524981684,0.3875912116307526
1453.5166666656735,0.5444868,-1.246028,0.007915378,-2.5353272,0.54141295,1.9802349,1.2511519,0.03999968,0.04,-0.02408725792504285,0.02236299266616948,0.032667650951234695,-0.026755133663051364,0.001768692976349663,0.137051038435093,0.9075427983319322,-0.021007970611892947,0.15762103304468075,0.388690550835164
1453.5333333323401,0.5458094,-1.2471498,0.007934471,-2.5357616,0.5427283,1.9812297,1.2522825,0.039999675,0.04,-0.025332765797081436,0.021937261319693313,0.03296955105724919,-0.02631902922658589,0.0018534092228001398,0.1345155094020857,0.907108959804807,-0.021000807053440384,0.1574568539840842,0.3897687009989129
1453.5499999990068,0.5471064,-1.2482501,0.007953192,-2.5361874,0.54401815,1.9822049,1.2533913,0.039999664,0.04,-0.02363474229447604,0.021876629269812486,0.03253746790788936,-0.02587951973232424,0.0019168387340749785,0.13198008238487888,0.9066826433626854,-0.02099354281442676,0.15729303140706596,0.39082573822066524
1453.5666666656734,0.5483779,-1.2493289,0.007971546,-2.5366042,0.54528266,1.983161,1.2544779,0.039999656,0.04,-0.02242266633007972,0.0215347681858713,0.032545808473927185,-0.025435975159543753,0.0019624674196287856,0.129447326508198,0.9062637376547561,-0.020986391692035568,0.15713006914192915,0.3918619023932187
1453.58333333234,0.54962385,-1.2503858,0.0079895295,-2.537013,0.54652184,1.9840975,1.2555424,0.039999645,0.04,-0.025185279322847975,0.020836709478433413,0.03306511882474883,-0.024986570000009554,0.00199702859273735,0.12691513359166348,0.905852593734528,-0.02097918212797776,0.15696740385514862,0.3928768082601009
1453.5999999990067,0.55084425,-1.251421,0.008007144,-2.5374138,0.5477357,1.985015,1.2565856,0.039999638,0.04,-0.024215787394910038,0.020684402323845053,0.03331124066036084,-0.024531362268361168,0.0020110590560824884,0.12438716076019603,0.9054491148590649,-0.020971542565418697,0.15680544340682354,0.39387072463100403
1453.6166666656734,0.5520393,-1.2524347,0.008024394,-2.5378063,0.5489242,1.9859135,1.257607,0.039999623,0.04,-0.023592613463652157,0.02036720015921034,0.032867425972260556,-0.024072441011498073,0.002006096107005771,0.12186032613320666,0.9050532808058938,-0.02096389280578801,0.15664452863491293,0.39484372319901645
1453.63333333234,0.5532091,-1.2534269,0.008041277,-2.5381901,0.5500877,1.9867932,1.2586067,0.039999623,0.04,-0.02299725843677436,0.01990557457305364,0.032951369122791174,-0.023610618932503824,0.001988201275342341,0.11933846840520887,0.9046650436982847,-0.020956192690121223,0.156484833217063,0.39579602533545366
1453.6499999990067,0.5543535,-1.254398,0.0080577945,-2.5385654,0.55122566,1.9876537,1.2595844,0.03999962,0.04,-0.02281591540538308,0.020131508491827432,0.03278256048971917,-0.02314443864328468,0.001955997269785875,0.11681917839982024,0.9042844649917781,-0.020948597253947935,0.15632681057284215,0.3967274769205535
1453.6666666656733,0.5554729,-1.2553474,0.008073947,-2.5389323,0.5523387,1.9884955,1.2605411,0.03999961,0.04,-0.023519829974816275,0.018914593390340073,0.032978296041685784,-0.022676051676132493,0.0019141597815037284,0.11430639076576606,0.9039116229808154,-0.02094082490972221,0.15616993715210717,0.39763829094064307
1453.68333333234,0.55656695,-1.2562754,0.008089734,-2.5392907,0.5534267,1.9893181,1.2614762,0.0399996,0.04,-0.02290627337888651,0.019225686928270314,0.03295922857637912,-0.02220444632723933,0.0018555645035397278,0.11179899323661499,0.9035465198301589,-0.020933007523204705,0.1560147289813908,0.39852841810805034
1453.6999999990066,0.5576358,-1.2571821,0.008105159,-2.5396414,0.55448973,1.9901221,1.2623895,0.0399996,0.04,-0.02446960656139474,0.018587998420571683,0.03333587062482879,-0.02173112718523796,0.0017849100452850888,0.109298682363901,0.9031892798148179,-0.02092511356719363,0.15586103531779638,0.39939779934227915
1453.7166666656733,0.5586797,-1.2580677,0.00812022,-2.539984,0.555528,1.9909071,1.263282,0.039999597,0.04,-0.023425086057704547,0.018284993116124415,0.032652254649201407,-0.02125515946825851,0.0016999943563601877,0.10680809037871856,0.9028398494745847,-0.02091709085107892,0.15570893689491885,0.4002466845360388
1453.73333333234,0.55969876,-1.2589321,0.008134926,-2.540318,0.5565413,1.9916737,1.2641529,0.03999959,0.04,-0.02225255924126479,0.018074801035983246,0.03293429105073464,-0.020777361669104183,0.001600594663836788,0.10432568395601763,0.9024981215036381,-0.020909165091755638,0.1555590550181443,0.4010752147657994
1453.7499999990066,0.56069285,-1.2597753,0.008149273,-2.540644,0.55753016,1.9924213,1.2650025,0.03999959,0.04,-0.023510946590388215,0.017608545877800807,0.032768816474493256,-0.020298605894543457,0.0014924257941084512,0.1018526407827236,0.9021642825959476,-0.020901264817958096,0.15541093167793585,0.401883299792545
1453.7666666656733,0.5616624,-1.260598,0.008163259,-2.5409617,0.5584944,1.9931504,1.2658312,0.03999958,0.04,-0.02246926309092956,0.017553654440205513,0.03221737199711194,-0.019817956047534273,0.0013712186440009572,0.09939246867359518,0.9018381664568393,-0.020893387685679353,0.1552650561574276,0.40267126816947435
