rsonawane2002/My_IMU/logs_2/traj_382/imu_382.csv
time,j1,j2,j3,j4,j5,j6,j7,gripper1,gripper2,imu_ax,imu_ay,imu_az,imu_gx,imu_gy,imu_gz
1448.5833333323446,0.00016700293,-0.785875,4.0107683e-05,-2.3551247,9.29385e-05,1.570997,0.786,0.04,0.04,-9.547202,0.024939848110079765,0.1163148,-3.2138962e-07,-0.0011641276068985462,-1.314705e-07
1448.5999999990113,0.00016701537,-0.78576016,4.011468e-05,-2.3552213,9.2983835e-05,1.5709941,0.786,0.04,0.04,-9.834508,0.0006403970764949918,0.009043212,-1.2647449e-07,-0.0022393001709133387,1.5589294e-06
1448.616666665678,0.00016709411,-0.7856543,4.012169e-05,-2.35531,9.309403e-05,1.5709913,0.786,0.04,0.04,-9.832419,0.0007335630943998694,0.007569402,-8.983907e-07,-0.0032334495335817337,5.895413e-06
1448.6333333323446,0.00016734983,-0.78555703,4.0129962e-05,-2.355391,9.3382434e-05,1.5709884,0.786,0.04,0.04,-9.830856,0.0008980166749097407,0.0061102137,-2.2295583e-06,-0.004158866126090288,1.657796e-05
1448.6499999990112,0.00016794213,-0.7854678,4.0141487e-05,-2.3554652,9.401817e-05,1.5709856,0.786,0.04,0.039999995,-9.829062,0.0011390272993594408,0.0048489864,-4.5015727e-06,-0.005021541379392147,3.7122758e-05
1448.666666665678,0.00016907464,-0.78538626,4.0159037e-05,-2.3555324,9.519429e-05,1.5709858,0.7860019,0.04,0.039999995,-9.827776,0.0014451107708737254,0.0035847402,-7.25892e-06,-0.00583293242380023,6.8449284e-05
1448.6833333323445,0.00017099066,-0.785312,4.0186198e-05,-2.3555973,9.7143784e-05,1.5709864,0.7860038,0.04,0.04,-9.82619,0.0017967408057302237,0.0024398314,-1.9103363e-05,-0.006583770737051964,0.000112830894
1448.6999999990112,0.00017396852,-0.7852448,4.0226732e-05,-2.3556554,0.00010015544,1.5709872,0.78600574,0.04,0.04,-9.825447,0.002227045828476548,0.0013961596,-3.031128e-05,-0.007312615402042866,0.00017382583
1448.7166666656778,0.00017831827,-0.78518414,4.0284966e-05,-2.3557103,0.00010454757,1.5709882,0.78600955,0.04,0.039999995,-9.824311,0.0027242619544267654,0.00038388278,-4.0247258e-05,-0.008006438612937927,0.00025315263
1448.7333333323445,0.0001843781,-0.78513026,4.0365925e-05,-2.3557608,0.000110630506,1.5709926,0.7860153,0.04,0.04,-9.823478,0.003232793416827917,-0.00048357574,-5.658454e-05,-0.008687026798725128,0.00034943406
1448.7499999990112,0.00019251075,-0.7850828,4.047463e-05,-2.3558097,0.00011879776,1.5709974,0.7860229,0.04,0.039999995,-9.822629,0.0038587981835007668,-0.0014046943,-7.857382e-05,-0.009336262010037899,0.00046919705
1448.7666666656778,0.0002031014,-0.7850418,4.061704e-05,-2.3558533,0.00012939594,1.5710055,0.78603244,0.039999995,0.04,-9.822144,0.004449757747352123,-0.0021099006,-0.00010475386,-0.00998839084059,0.0006072077
1448.7833333323445,0.00021655382,-0.7850072,4.0798757e-05,-2.3558962,0.00014284567,1.571014,0.7860439,0.03999999,0.04,-9.821218,0.005182886030524969,-0.0028688486,-0.0001335003,-0.010613660328090191,0.00076998636
1448.799999999011,0.00023328887,-0.78497905,4.1025873e-05,-2.3559382,0.00015956486,1.5710263,0.7860581,0.039999988,0.039999995,-9.82092,0.005896089598536491,-0.003405258,-0.00016387962,-0.011253474280238152,0.000956951
1448.8166666656778,0.00025374175,-0.78495747,4.130483e-05,-2.3559768,0.00017998545,1.5710415,0.7860754,0.039999984,0.03999999,-9.820604,0.0067296214401721954,-0.0040130997,-0.00019837158,-0.01189090870320797,0.0011686028
1448.8333333323444,0.00027836012,-0.7849425,4.1642295e-05,-2.3560133,0.00020455185,1.5710579,0.7860964,0.039999973,0.03999998,-9.819944,0.007534450385719538,-0.0044360184,-0.00023632757,-0.012525557540357113,0.0014056569
1448.849999999011,0.00030760193,-0.78493446,4.2044918e-05,-2.3560493,0.00023371831,1.5710782,0.7861215,0.039999966,0.039999977,-9.819589,0.008484775200486183,-0.0047861636,-0.00027919427,-0.013170996680855751,0.0016678701
1448.8666666656777,0.00034193392,-0.7849332,4.2519412e-05,-2.3560848,0.00026794945,1.571103,0.78615093,0.039999958,0.03999997,-9.819264,0.009400036185979843,-0.0050416742,-0.0003271894,-0.01382573414593935,0.0019574699
1448.8833333323444,0.0003818298,-0.7849392,4.3072803e-05,-2.3561203,0.00030771506,1.5711325,0.786185,0.03999995,0.03999996,-9.819106,0.0104771563783288,-0.005285635,-0.00037963752,-0.014490348286926746,0.0022740157
1448.899999999011,0.00042776903,-0.78495264,4.3712203e-05,-2.3561559,0.0003534907,1.5711671,0.78622425,0.039999947,0.03999996,-9.818887,0.011493434198200703,-0.0053375047,-0.00043604683,-0.015168586745858192,0.0026170001
1448.9166666656777,0.00048023523,-0.7849735,4.444462e-05,-2.3561919,0.0004057574,1.5712062,0.7862692,0.039999943,0.039999958,-9.818727,0.012715119868516922,-0.005366175,-0.0004966614,-0.015858061611652374,0.0029884155
1448.9333333323443,0.00053971494,-0.7850023,4.527734e-05,-2.3562288,0.00046499723,1.5712506,0.78632015,0.039999947,0.039999966,-9.81859,0.013855147175490856,-0.0052062995,-0.00056276383,-0.016568994149565697,0.0033867466
1448.949999999011,0.0006066969,-0.78503895,4.6217345e-05,-2.356268,0.0005316963,1.5713006,0.78637743,0.03999995,0.03999997,-9.8185425,0.015143923461437225,-0.004964066,-0.0006333561,-0.017300274223089218,0.0038138665
1448.9666666656776,0.00068167003,-0.7850842,4.7271922e-05,-2.35631,0.00060633954,1.5713569,0.7864416,0.039999954,0.039999977,-9.818742,0.016579747200012207,-0.004672951,-0.00070821703,-0.01805906742811203,0.004268146
1448.9833333323443,0.0007651237,-0.785138,4.8448263e-05,-2.3563523,0.00068941346,1.5714192,0.78651303,0.039999954,0.039999977,-9.818792,0.017935529351234436,-0.0041777184,-0.00078817795,-0.018843797966837883,0.004751353
1448.999999999011,0.0008575464,-0.7852008,4.9753653e-05,-2.3563952,0.0007814018,1.5714884,0.7865921,0.039999954,0.03999998,-9.818773,0.01953897252678871,-0.0036516855,-0.00087233353,-0.019649771973490715,0.005261768
1449.0166666656776,0.00095942436,-0.78527284,5.119502e-05,-2.3564396,0.000882789,1.5715648,0.78667927,0.039999954,0.03999998,-9.818547,0.021051038056612015,-0.0029027099,-0.00096114643,-0.020472947508096695,0.005801091
1449.0333333323442,0.0010712417,-0.78535455,5.277963e-05,-2.3564892,0.0009940543,1.5716486,0.78677493,0.039999958,0.039999988,-9.818539,0.022836528718471527,-0.002111273,-0.0010544573,-0.02131526730954647,0.0063674944
1449.0499999990109,0.0011934793,-0.785446,5.4514487e-05,-2.3565397,0.001115676,1.5717403,0.7868795,0.039999954,0.039999984,-9.818943,0.024514809250831604,-0.0010600099,-0.0011523662,-0.022197846323251724,0.006962635
1449.0666666656775,0.0013266143,-0.7855477,5.6406563e-05,-2.3565912,0.0012481266,1.5718402,0.7869934,0.039999954,0.03999999,-9.818876,0.026491772383451462,-1.2904871e-05,-0.0012546335,-0.023098601028323174,0.007583779
1449.0833333323442,0.0014711195,-0.78566,5.846277e-05,-2.3566487,0.0013918777,1.5719488,0.787117,0.039999954,0.03999999,-9.818632,0.02835441753268242,0.0013183011,-0.0013615525,-0.02401542104780674,0.008234213
1449.0999999990108,0.0016274625,-0.7857833,6.0690156e-05,-2.3567076,0.0015473928,1.5720663,0.78725076,0.039999943,0.03999998,-9.819191,0.03055376559495926,0.0027117846,-0.0014731368,-0.024971675127744675,0.008912051
1449.1166666656775,0.0017961062,-0.7859177,6.3095365e-05,-2.3567712,0.0017151308,1.5721931,0.7873952,0.03999994,0.03999998,-9.819006,0.03260573744773865,0.0043479837,-0.0015887865,-0.02594578079879284,0.009616231
1449.1333333323441,0.0019775082,-0.7860636,6.568516e-05,-2.3568377,0.0018955461,1.5723294,0.78755033,0.03999994,0.039999984,-9.8193245,0.03503382205963135,0.0060456702,-0.0017095256,-0.02695060335099697,0.010347413
1449.1499999990108,0.0021721185,-0.78622127,6.8466165e-05,-2.356908,0.0020890879,1.572476,0.78771675,0.03999994,0.039999988,-9.819331,0.03730624169111252,0.008021072,-0.0018336386,-0.02798088826239109,0.011105353
1449.1666666656774,0.0023803825,-0.78639084,7.144481e-05,-2.3569822,0.0022961956,1.5726327,0.78789485,0.03999994,0.03999999,-9.8194895,0.039978787302970886,0.010034592,-0.001961834,-0.029034247621893883,0.011889807
1449.183333332344,0.002602738,-0.7865731,7.46276e-05,-2.3570616,0.0025173046,1.5727998,0.788085,0.039999936,0.03999999,-9.819567,0.0424775630235672,0.0123553155,-0.0020942583,-0.030115200206637383,0.012699618
1449.1999999990107,0.0028396167,-0.78676826,7.802085e-05,-2.3571436,0.0027528505,1.5729777,0.7882876,0.039999936,0.04,-9.8198185,0.04525619000196457,0.014832996,-0.0022305343,-0.0312266293913126,0.013536433
1449.2166666656774,0.0030914417,-0.7869765,8.163066e-05,-2.3572326,0.00300325,1.5731668,0.78850293,0.039999936,0.04,-9.819801,0.048320088535547256,0.017420668,-0.0023709894,-0.03235578536987305,0.014398924
1449.233333332344,0.0033586293,-0.7871981,8.546325e-05,-2.3573232,0.0032689176,1.5733678,0.7887314,0.03999993,0.04,-9.820175,0.05120743811130524,0.02031469,-0.0025152538,-0.03352111577987671,0.015286878
1449.2499999990107,0.0036415893,-0.7874335,8.9524736e-05,-2.3574202,0.0035502464,1.573581,0.78897333,0.039999917,0.039999995,-9.819994,0.054546307772397995,0.023269538,-0.0026633197,-0.0346965566277504,0.016199242
1449.2666666656773,0.0039407224,-0.7876828,9.382077e-05,-2.3575242,0.0038476395,1.573806,0.78922904,0.039999913,0.039999988,-9.820241,0.057714879512786865,0.026565805,-0.002814746,-0.03590187802910805,0.017139165
1449.283333332344,0.0042564217,-0.78794664,9.835701e-05,-2.3576303,0.004161512,1.5740433,0.789499,0.039999913,0.039999995,-9.820723,0.061348333954811096,0.02993644,-0.0029697572,-0.037141866981983185,0.018101033
1449.2999999990107,0.0045890715,-0.7882251,0.00010313945,-2.3577425,0.0044922153,1.5742934,0.78978336,0.03999991,0.04,-9.820339,0.064786396920681,0.033663403,-0.0031287333,-0.03839077427983284,0.01908731
1449.3166666656773,0.004939048,-0.78851855,0.00010817329,-2.3578622,0.0048401393,1.5745564,0.7900826,0.039999902,0.039999995,-9.820685,0.06875212490558624,0.037465364,-0.0032904698,-0.03966755047440529,0.02009859
1449.333333332344,0.005306721,-0.78882724,0.00011346404,-2.3579843,0.0052056327,1.5748332,0.7903969,0.039999895,0.03999999,-9.820953,0.07249613106250763,0.041606754,-0.0034561292,-0.04097486659884453,0.021132804
1449.3499999990106,0.0056924513,-0.78915155,0.00011901701,-2.3581133,0.005589068,1.5751234,0.7907267,0.039999895,0.039999988,-9.82073,0.07679722458124161,0.04583261,-0.0036248132,-0.04228772968053818,0.022194125
1449.3666666656773,0.006096588,-0.78949165,0.00012483717,-2.358249,0.005990808,1.5754273,0.7910723,0.039999895,0.04,-9.820868,0.08083611726760864,0.05045665,-0.0037966948,-0.04362616688013077,0.023273388
1449.383333332344,0.006519475,-0.789848,0.00013092968,-2.358391,0.006411171,1.5757452,0.79143375,0.039999895,0.04,-9.821202,0.08547233045101166,0.055155475,-0.003972017,-0.044991835951805115,0.024377355
1449.3999999990106,0.0069614486,-0.79022044,0.00013729927,-2.358537,0.0068505197,1.5760777,0.7918115,0.039999895,0.04,-9.821224,0.08988887071609497,0.060235612,-0.004149444,-0.0463775098323822,0.025506575
1449.4166666656772,0.007422833,-0.7906095,0.00014395088,-2.3586895,0.0073091467,1.5764247,0.792206,0.039999887,0.04,-9.821068,0.09485812485218048,0.06536312,-0.0043297326,-0.04777107760310173,0.026655626
1449.4333333323439,0.0079039475,-0.7910154,0.00015088925,-2.3588495,0.007787363,1.5767868,0.79261726,0.039999872,0.04,-9.821147,0.09960151463747025,0.0709318,-0.00451324,-0.04918708652257919,0.02782607
1449.4499999990105,0.008405096,-0.7914387,0.00015811858,-2.359017,0.008285483,1.5771635,0.79304564,0.039999872,0.04,-9.821309,0.10475199669599533,0.0766455,-0.0046991715,-0.05062437057495117,0.02901927
1449.4666666656772,0.008926581,-0.7918792,0.00016564352,-2.3591914,0.008803804,1.5775558,0.7934914,0.039999865,0.04,-9.821533,0.11029373854398727,0.08256423,-0.0048873033,-0.052083250135183334,0.030234165
1449.4833333323438,0.009468694,-0.7923373,0.00017346807,-2.359371,0.009342629,1.5779634,0.7939548,0.039999858,0.04,-9.821545,0.11560384929180145,0.0888204,-0.0050781625,-0.053559813648462296,0.031471286
1449.4999999990105,0.010031716,-0.79281324,0.00018159655,-2.3595562,0.0099022165,1.5783867,0.79443616,0.039999858,0.04,-9.821433,0.12153607606887817,0.09521028,-0.0052711046,-0.05504554137587547,0.032729052
1449.5166666656771,0.01061592,-0.79330724,0.00019003243,-2.3597484,0.010482886,1.5788261,0.79493546,0.039999854,0.04,-9.821184,0.12723380327224731,0.10201265,-0.0054667187,-0.056541286408901215,0.03400946
1449.5333333323438,0.011221569,-0.7938195,0.00019877983,-2.359948,0.011084879,1.5792814,0.7954532,0.03999985,0.04,-9.821267,0.13357163965702057,0.10891643,-0.0056636487,-0.058050744235515594,0.035309907
1449.5499999990104,0.01184892,-0.7943503,0.00020784287,-2.3601549,0.011708421,1.5797532,0.7959894,0.03999985,0.04,-9.821152,0.13964956998825073,0.11626024,-0.005863078,-0.05957510322332382,0.03662819
1449.566666665677,0.01249822,-0.7948997,0.00021722473,-2.360369,0.012353793,1.5802417,0.79654425,0.039999843,0.04,-9.82125,0.14642789959907532,0.12368864,-0.006063867,-0.061113644391298294,0.03797037
1449.5833333323437,0.013169712,-0.79546803,0.00022692932,-2.3605907,0.013021184,1.5807465,0.7971181,0.03999984,0.04,-9.821047,0.15290214121341705,0.13153103,-0.0062657096,-0.06266261637210846,0.03932747
1449.5999999990104,0.013863619,-0.79605544,0.00023695966,-2.3608198,0.013710843,1.5812684,0.7977112,0.039999835,0.04,-9.821073,0.16010504961013794,0.13950069,-0.006469788,-0.06422547250986099,0.04070657
1449.616666665677,0.014580168,-0.7966624,0.00024731885,-2.3610563,0.014423022,1.5818073,0.7983236,0.039999828,0.04,-9.820857,0.1670481264591217,0.14788768,-0.006675179,-0.06579726189374924,0.042106666
1449.6333333323437,0.015319566,-0.7972888,0.0002580102,-2.3613002,0.01515789,1.582363,0.7989555,0.039999828,0.04,-9.82074,0.17466513812541962,0.1564015,-0.00688193,-0.06737688928842545,0.043524347
1449.6499999990103,0.016082022,-0.79793465,0.00026903627,-2.3615518,0.015915686,1.5829363,0.79960716,0.039999817,0.04,-9.820481,0.1820472925901413,0.16534339,-0.007090064,-0.06896664202213287,0.044961803
1449.666666665677,0.016867723,-0.7986001,0.00028040036,-2.3618107,0.016696576,1.5835271,0.80027866,0.039999817,0.04,-9.820344,0.190123051404953,0.17436177,-0.007299237,-0.07056237757205963,0.046418145
1449.6833333323436,0.01767686,-0.7992855,0.0002921051,-2.3620775,0.017500756,1.5841354,0.8009702,0.039999824,0.04,-9.82003,0.19795258343219757,0.18384822,-0.007509536,-0.07216612249612808,0.047893055
1449.6999999990103,0.018509613,-0.79999095,0.00030415284,-2.362352,0.018328428,1.5847613,0.8016817,0.039999813,0.04,-9.819726,0.2062578797340393,0.1935099,-0.0077204825,-0.07377463579177856,0.04938617
1449.716666665677,0.019366154,-0.8007166,0.00031654615,-2.3626342,0.019179728,1.5854052,0.8024133,0.039999805,0.04,-9.819541,0.21503926813602448,0.20338005,-0.007931364,-0.0753903016448021,0.050897494
1449.7333333323436,0.020246638,-0.8014625,0.00032928743,-2.3629246,0.02005482,1.5860672,0.80316585,0.039999798,0.04,-9.819074,0.2235715389251709,0.21369568,-0.008141708,-0.07700839638710022,0.052426767
1449.7499999990102,0.021151222,-0.802229,0.00034237877,-2.363223,0.020953864,1.5867474,0.8039388,0.039999798,0.04,-9.818841,0.23283937573432922,0.22409457,-0.008354871,-0.07863172888755798,0.05397418
1449.766666665677,0.022080049,-0.80301595,0.00035582256,-2.3635292,0.021877002,1.587446,0.8047327,0.0399998,0.04,-9.818366,0.24185365438461304,0.23498768,-0.008567301,-0.08025800436735153,0.055538684
1449.7833333323435,0.023033252,-0.80382353,0.00036962054,-2.3638434,0.022824375,1.5881628,0.8055473,0.039999798,0.04,-9.817923,0.2516080439090729,0.2459397,-0.0087810885,-0.08188259601593018,0.05711944
1449.7999999990102,0.024010967,-0.8046519,0.0003837744,-2.3641658,0.023796115,1.588898,0.80638283,0.039999787,0.04,-9.817377,0.2611333429813385,0.25737894,-0.008994481,-0.08350999653339386,0.05871942
1449.8166666656768,0.02501331,-0.8055012,0.00039828615,-2.364496,0.024792317,1.589652,0.8072394,0.039999783,0.04,-9.816942,0.27139371633529663,0.26890513,-0.009207687,-0.0851382240653038,0.06033536
1449.8333333323435,0.026040394,-0.8063716,0.0004131573,-2.3648345,0.025813112,1.5904242,0.8081171,0.039999783,0.04,-9.8162155,0.2814054489135742,0.28090557,-0.009420898,-0.08676271885633469,0.06196796
1449.8499999990102,0.02709232,-0.807263,0.00042838953,-2.365181,0.026858598,1.5912151,0.809016,0.039999776,0.04,-9.815701,0.29218676686286926,0.2930082,-0.009633293,-0.08838723599910736,0.063616075
1449.8666666656768,0.028169181,-0.80817556,0.00044398426,-2.3655355,0.027928865,1.5920249,0.8099363,0.039999783,0.04,-9.814883,0.3027328550815582,0.30556914,-0.0098454505,-0.09000775218009949,0.065282494
1449.8833333323435,0.029271072,-0.80910945,0.00045994212,-2.3658981,0.029024042,1.5928533,0.8108779,0.03999977,0.04,-9.814244,0.31403428316116333,0.3182072,-0.010057307,-0.0916246846318245,0.06696403
1449.89999999901,0.03039807,-0.8100647,0.00047626492,-2.366269,0.030144159,1.5937005,0.81184095,0.039999764,0.04,-9.813323,0.3250913619995117,0.33136207,-0.010268158,-0.09323656558990479,0.068661354
1449.9166666656768,0.031550243,-0.81104153,0.0004929532,-2.366649,0.031289298,1.5945668,0.81282556,0.039999776,0.04,-9.812597,0.33693820238113403,0.3445561,-0.0104779005,-0.09484364092350006,0.07037438
1449.9333333323434,0.032727666,-0.8120397,0.0005100084,-2.3670368,0.032459542,1.5954522,0.8138319,0.039999764,0.04,-9.811671,0.34853726625442505,0.35828385,-0.010687175,-0.09644675999879837,0.07210299
1449.94999999901,0.03393039,-0.813059,0.0005274306,-2.367433,0.03365494,1.5963565,0.8148597,0.039999757,0.04,-9.810682,0.3606725037097931,0.37212124,-0.010895896,-0.09804157167673111,0.073846996
1449.9666666656767,0.035158474,-0.81409997,0.0005452218,-2.367838,0.03487551,1.5972798,0.815909,0.039999764,0.04,-9.809764,0.3733280897140503,0.38612673,-0.011102455,-0.09962974488735199,0.07560576
1449.9833333323434,0.036411945,-0.8151625,0.00056338136,-2.3682513,0.036121335,1.5982221,0.8169802,0.039999757,0.04,-9.808645,0.38575997948646545,0.40066952,-0.01130731,-0.10121189057826996,0.07737963
1449.99999999901,0.037690837,-0.81624645,0.00058190996,-2.3686726,0.037392426,1.5991834,0.8180733,0.039999764,0.04,-9.807592,0.3989822268486023,0.41521814,-0.011511145,-0.10278484225273132,0.079168186
1450.0166666656767,0.03899518,-0.81735206,0.00060080824,-2.3691022,0.038688853,1.6001644,0.8191878,0.03999975,0.04,-9.806239,0.4119737446308136,0.43028563,-0.011714167,-0.10434719175100327,0.080971
1450.0333333323433,0.040325016,-0.81847936,0.0006200765,-2.3695402,0.040010586,1.6011641,0.82032436,0.039999757,0.04,-9.805046,0.4257618486881256,0.4453854,-0.0119139785,-0.1058969646692276,0.08278799
1450.04999999901,0.04168033,-0.8196283,0.0006397145,-2.3699865,0.041357648,1.602183,0.82148254,0.039999753,0.04,-9.803562,0.4393269717693329,0.46100834,-0.012112892,-0.10743532329797745,0.084619686
1450.0666666656766,0.04306113,-0.82079893,0.0006597228,-2.370441,0.042730056,1.6032212,0.8226625,0.03999977,0.04,-9.802218,0.4536738991737366,0.47665387,-0.012308886,-0.10896125435829163,0.08646273
1450.0833333323433,0.044467427,-0.821991,0.0006801011,-2.3709037,0.044127807,1.6042784,0.8238642,0.039999776,0.04,-9.800566,0.46781638264656067,0.4927971,-0.012502727,-0.11047234386205673,0.08831902
1450.09999999901,0.0458992,-0.82320476,0.0007008491,-2.3713756,0.045550887,1.6053549,0.8250878,0.03999978,0.04,-9.799081,0.4827730357646942,0.50895554,-0.012693941,-0.11197049170732498,0.090190455
1450.1166666656766,0.047356427,-0.82444006,0.0007219665,-2.3718553,0.046999324,1.6064506,0.82633305,0.039999772,0.04,-9.79738,0.49751418828964233,0.52562785,-0.012883061,-0.11345653980970383,0.09207558
1450.1333333323432,0.04883911,-0.825697,0.0007434532,-2.3723435,0.048473023,1.6075653,0.8275999,0.03999978,0.04,-9.795636,0.5130443572998047,0.5423003,-0.013069382,-0.11492440104484558,0.09397256
1450.1499999990099,0.050347198,-0.82697546,0.00076530874,-2.37284,0.04997201,1.608699,0.82888854,0.039999776,0.04,-9.793721,0.5283823609352112,0.5594896,-0.013251886,-0.11637777835130692,0.09588284
1450.1666666656765,0.05188066,-0.8282754,0.00078753254,-2.3733444,0.05149619,1.6098518,0.8301989,0.03999978,0.04,-9.791865,0.544493556022644,0.5766729,-0.013431772,-0.11781471967697144,0.09780288
1450.1833333323432,0.053439453,-0.8295968,0.0008101232,-2.3738575,0.05304557,1.6110238,0.8315309,0.039999776,0.04,-9.78967,0.5604459047317505,0.5943525,-0.013608498,-0.11923155933618546,0.09973818
1450.1999999990098,0.055023532,-0.83093965,0.0008330809,-2.3743794,0.05462006,1.6122149,0.83288455,0.03999978,0.04,-9.787565,0.576927661895752,0.61217,-0.013782455,-0.12063152343034744,0.10168278
1450.2166666656765,0.056632835,-0.83230394,0.0008564045,-2.3749094,0.05621965,1.6134248,0.8342597,0.03999978,0.04,-9.785477,0.5939789414405823,0.630085,-0.013952718,-0.12201389670372009,0.10364025
1450.2333333323431,0.0582673,-0.8336897,0.00088009314,-2.3754473,0.05784425,1.6146533,0.8356564,0.039999776,0.04,-9.783008,0.6108312010765076,0.648506,-0.014119291,-0.12337593734264374,0.10560805
1450.2499999990098,0.05992684,-0.8350968,0.0009041456,-2.3759935,0.059493784,1.6159012,0.8370745,0.03999978,0.04,-9.780613,0.6284787654876709,0.66690916,-0.014282391,-0.12471721321344376,0.10758667
1450.2666666656764,0.061611388,-0.836525,0.0009285611,-2.376548,0.061168168,1.6171676,0.8385138,0.039999776,0.04,-9.777967,0.6459600329399109,0.6857983,-0.014441454,-0.12603570520877838,0.10957482
1450.283333332343,0.063320875,-0.83797437,0.0009533376,-2.3771112,0.06286737,1.6184525,0.8399748,0.039999772,0.04,-9.775393,0.6642376780509949,0.7046618,-0.014595354,-0.1273338496685028,0.11157582
1450.2999999990097,0.06505521,-0.8394448,0.0009784745,-2.3776822,0.064591266,1.6197562,0.84145695,0.039999776,0.04,-9.772599,0.6823439598083496,0.72400737,-0.0147475945,-0.12861356139183044,0.11358503
1450.3166666656764,0.066814266,-0.8409361,0.00100397,-2.3782613,0.066339776,1.6210787,0.8429603,0.039999772,0.04,-9.76973,0.7012402415275574,0.7433126,-0.014894457,-0.12986792623996735,0.11560448
1450.333333332343,0.06859797,-0.8424483,0.001029823,-2.3788488,0.068112805,1.6224197,0.8444844,0.039999776,0.04,-9.766638,0.7199801802635193,0.7630687,-0.015037759,-0.13109822571277618,0.11763215
1450.3499999990097,0.07040623,-0.8439814,0.0010560318,-2.3794441,0.06991019,1.6237793,0.8460295,0.039999776,0.04,-9.763595,0.7394978404045105,0.78280467,-0.015174714,-0.13230565190315247,0.11966804
1450.3666666656763,0.0722389,-0.84553504,0.0010825947,-2.3800473,0.07173189,1.6251571,0.84759533,0.039999776,0.04,-9.760218,0.7588866353034973,0.8030126,-0.015307274,-0.1334863305091858,0.12171392
1450.383333332343,0.07409587,-0.8471093,0.0011095098,-2.3806584,0.073577754,1.6265532,0.849182,0.039999776,0.04,-9.756899,0.7790312767028809,0.8231485,-0.01543395,-0.1346423178911209,0.123767145
1450.3999999990097,0.07597701,-0.8487042,0.0011367755,-2.3812773,0.075447686,1.6279675,0.8507895,0.039999772,0.04,-9.753272,0.7990553379058838,0.84377015,-0.015555986,-0.13577252626419067,0.12582803
1450.4166666656763,0.07788223,-0.8503196,0.0011643895,-2.3819041,0.07734149,1.6294,0.8524176,0.039999772,0.04,-9.749666,0.819842517375946,0.8643123,-0.015673488,-0.13687454164028168,0.12789685
1450.433333332343,0.079811335,-0.85195524,0.0011923496,-2.3825393,0.07925909,1.6308503,0.85406613,0.039999776,0.04,-9.745724,0.8405078053474426,0.8853289,-0.015785696,-0.13794690370559692,0.129972
1450.4499999990096,0.081764214,-0.85361093,0.0012206539,-2.3831823,0.081200324,1.6323179,0.8557349,0.039999772,0.04,-9.741899,0.861735463142395,0.9063979,-0.015893068,-0.13899703323841095,0.13205461
1450.4666666656763,0.08374071,-0.8552867,0.0012493008,-2.3838334,0.08316507,1.6338046,0.8574238,0.039999772,0.04,-9.73789,0.8834781050682068,0.92749625,-0.01599408,-0.1400214582681656,0.13414367
1450.483333332343,0.08574068,-0.8569824,0.0012782868,-2.3844922,0.08515315,1.6353079,0.8591327,0.03999978,0.04,-9.733582,0.9051216840744019,0.9490118,-0.016089436,-0.14101256430149078,0.13623711
1450.4999999990096,0.08776395,-0.8586979,0.0013076108,-2.3851588,0.0871644,1.6368291,0.86086154,0.03999978,0.04,-9.729272,0.9275122284889221,0.97048324,-0.016178718,-0.14197847247123718,0.138337
1450.5166666656762,0.08981038,-0.8604331,0.0013372698,-2.3858325,0.08919865,1.6383675,0.8626103,0.039999783,0.04,-9.724702,0.9497960805892944,0.9923676,-0.016262075,-0.14291484653949738,0.1404377
1450.5333333323429,0.091879785,-0.86218786,0.0013672616,-2.3865142,0.09125575,1.6399237,0.8643785,0.039999783,0.04,-9.719987,0.9728107452392578,1.014137,-0.016339596,-0.14381906390190125,0.14254098
1450.5499999990095,0.09397197,-0.8639619,0.0013975833,-2.3872035,0.0933355,1.6414968,0.86616635,0.039999787,0.04,-9.715072,0.9957906007766724,1.0363399,-0.016410083,-0.14469127357006073,0.14465323
1450.5666666656762,0.09608676,-0.865755,0.0014282325,-2.3878999,0.09543775,1.6430868,0.86797327,0.039999794,0.04,-9.710162,1.0194743871688843,1.0584172,-0.016474884,-0.1455347239971161,0.14676996
1450.5833333323428,0.09822398,-0.8675672,0.0014592063,-2.388604,0.09756234,1.6446935,0.86979944,0.039999798,0.04,-9.704902,1.0430855751037598,1.0809128,-0.016532173,-0.14634685218334198,0.14888975
1450.5999999990095,0.10038346,-0.86939824,0.001490502,-2.3893147,0.09970908,1.6463174,0.8716447,0.03999979,0.04,-9.6996155,1.0673969984054565,1.1032743,-0.016583094,-0.14712800085544586,0.15101205
1450.6166666656761,0.10256497,-0.87124777,0.0015221168,-2.390033,0.10187769,1.6479574,0.87350875,0.039999805,0.04,-9.693937,1.09164297580719,1.1260347,-0.016626943,-0.14787274599075317,0.15313438
1450.6333333323428,0.10476832,-0.873116,0.001554048,-2.3907588,0.10406807,1.649614,0.8753914,0.03999981,0.04,-9.688413,1.1166294813156128,1.1486602,-0.016664393,-0.1485900729894638,0.1552612
1450.6499999990094,0.10699331,-0.87500256,0.0015862925,-2.3914912,0.106279954,1.6512868,0.8772927,0.039999817,0.04,-9.682431,1.1415425539016724,1.1716928,-0.016694574,-0.14927300810813904,0.1573875
1450.666666665676,0.10923973,-0.87690735,0.0016188459,-2.3922307,0.108513184,1.6529754,0.8792123,0.039999817,0.04,-9.676428,1.1671442985534668,1.1945366,-0.016717697,-0.14992177486419678,0.15951575
1450.6833333323427,0.111507386,-0.87883013,0.0016517062,-2.3929772,0.11076753,1.6546805,0.8811502,0.039999824,0.04,-9.670134,1.1927145719528198,1.2178086,-0.016734106,-0.1505390852689743,0.1616433
1450.6999999990094,0.11379604,-0.8807708,0.0016848702,-2.3937304,0.11304277,1.6564013,0.8831058,0.039999828,0.04,-9.663674,1.2187833786010742,1.2410041,-0.01674293,-0.15111936628818512,0.16377005
1450.716666665676,0.11610545,-0.8827289,0.0017183345,-2.3944907,0.115338705,1.6581374,0.8850792,0.039999835,0.04,-9.657089,1.245341420173645,1.2641832,-0.016743505,-0.15166451036930084,0.16589662
1450.7333333323427,0.11843542,-0.8847045,0.0017520965,-2.3952575,0.11765506,1.659889,0.88707006,0.039999835,0.04,-9.650282,1.2718846797943115,1.287731,-0.016736887,-0.15217864513397217,0.16801952
1450.7499999990093,0.120785676,-0.88669735,0.0017861516,-2.396031,0.11999167,1.661656,0.8890784,0.039999835,0.04,-9.643306,1.2990766763687134,1.311067,-0.016721776,-0.15265683829784393,0.17014201
1450.766666665676,0.123155996,-0.8887073,0.0018204972,-2.396811,0.12234818,1.6634383,0.891104,0.03999985,0.04,-9.636039,1.3262659311294556,1.3347825,-0.016699465,-0.15309898555278778,0.17226024
1450.7833333323426,0.12554616,-0.8907339,0.0018551288,-2.3975978,0.12472444,1.6652355,0.8931464,0.039999858,0.04,-9.628722,1.3540947437286377,1.3582785,-0.01666979,-0.15350580215454102,0.17437673
1450.7999999990093,0.1279559,-0.89277697,0.001890044,-2.398391,0.12712018,1.6670474,0.89520556,0.039999865,0.04,-9.621081,1.3819032907485962,1.3821223,-0.016631743,-0.1538786143064499,0.17648248
1450.816666665676,0.13038495,-0.89483666,0.0019252381,-2.3991907,0.12953524,1.6688739,0.89728135,0.039999872,0.04,-9.613372,1.4103753566741943,1.4057419,-0.016585639,-0.15421734750270844,0.17858931
1450.8333333323426,0.13283312,-0.8969126,0.0019607076,-2.399997,0.13196921,1.6707145,0.8993735,0.039999884,0.04,-9.605276,1.438843846321106,1.4297078,-0.01653167,-0.15451814234256744,0.18069021
1450.8499999990092,0.13530008,-0.8990043,0.00199645,-2.400809,0.13442194,1.6725692,0.9014814,0.039999887,0.04,-9.5971985,1.4679402112960815,1.4534421,-0.016469834,-0.1547873169183731,0.18278874
1450.866666665676,0.13778567,-0.9011117,0.0020324597,-2.401627,0.13689318,1.6744378,0.9036053,0.03999989,0.04,-9.588658,1.4970210790634155,1.4774698,-0.016398218,-0.15501895546913147,0.18487796
1450.8833333323425,0.14028953,-0.90323484,0.0020687345,-2.4024513,0.13938266,1.6763201,0.9057449,0.03999989,0.04,-9.58006,1.5266824960708618,1.5012517,-0.01631825,-0.15521414577960968,0.18696107
1450.8999999990092,0.14281143,-0.9053735,0.0021052684,-2.4032815,0.14189002,1.6782162,0.9078998,0.039999895,0.04,-9.571151,1.5564184188842773,1.5253679,-0.016230531,-0.15537312626838684,0.18903553
1450.9166666656758,0.14535111,-0.9075268,0.0021420596,-2.4041176,0.14441504,1.6801255,0.9100699,0.039999902,0.04,-9.562142,1.586685299873352,1.5492233,-0.016133446,-0.1554957628250122,0.19110028
1450.9333333323425,0.14790824,-0.9096952,0.0021791025,-2.4049592,0.14695749,1.682048,0.9122549,0.039999906,0.04,-9.552819,1.6170495748519897,1.5733312,-0.016027464,-0.15558354556560516,0.19315891
1450.9499999990092,0.15048254,-0.91187817,0.0022163945,-2.4058065,0.14951707,1.6839833,0.9144549,0.03999991,0.04,-9.543287,1.6478148698806763,1.5973399,-0.015913393,-0.15563353896141052,0.1952086
1450.9666666656758,0.15307374,-0.9140756,0.0022539299,-2.4066596,0.15209347,1.6859317,0.9166691,0.03999992,0.04,-9.533571,1.6789724826812744,1.6212056,-0.015791329,-0.1556474268436432,0.19724753
1450.9833333323425,0.15568161,-0.916287,0.0022917055,-2.4075184,0.1546864,1.6878922,0.9188977,0.03999992,0.04,-9.523573,1.7102296352386475,1.6453362,-0.01565959,-0.15562336146831512,0.19927531
1450.999999999009,0.1583058,-0.9185122,0.0023297172,-2.408382,0.15729561,1.6898654,0.9211404,0.039999932,0.04,-9.513513,1.741986632347107,1.6691785,-0.015520572,-0.1555684506893158,0.20129243
1451.0166666656758,0.16094612,-0.9207509,0.0023679598,-2.4092505,0.15992086,1.6918505,0.92339647,0.03999994,0.04,-9.502919,1.7738085985183716,1.6932492,-0.01537217,-0.1554708331823349,0.20329568
1451.0333333323424,0.1636021,-0.92300314,0.0024064307,-2.4101248,0.16256173,1.6938474,0.9256663,0.039999958,0.04,-9.492311,1.806089162826538,1.7170372,-0.0152131645,-0.15533825755119324,0.20528309
1451.049999999009,0.16627355,-0.9252685,0.0024451239,-2.4110038,0.165218,1.695856,0.9279489,0.03999997,0.04,-9.481431,1.838545560836792,1.7410885,-0.015047153,-0.15517175197601318,0.20725952
1451.0666666656757,0.16896012,-0.92754674,0.002484034,-2.4118881,0.16788936,1.6978759,0.9302446,0.03999998,0.04,-9.470321,1.8714306354522705,1.7648001,-0.0148701975,-0.15496701002120972,0.2092249
1451.0833333323424,0.17166154,-0.92983747,0.0025231582,-2.4127772,0.17057548,1.699907,0.9325528,0.039999988,0.04,-9.458968,1.9044243097305298,1.7887533,-0.014685136,-0.15472841262817383,0.21117395
1451.099999999009,0.17437746,-0.9321406,0.002562492,-2.4136715,0.17327607,1.701949,0.93487346,0.039999995,0.04,-9.4473915,1.9378288984298706,1.8123546,-0.014490091,-0.1544530987739563,0.2131082
1451.1166666656757,0.17710757,-0.9344556,0.0026020315,-2.4145703,0.17599088,1.7040017,0.93720657,0.04,0.04,-9.435597,1.971399188041687,1.8362001,-0.014286802,-0.15414465963840485,0.21502674
1451.1333333323423,0.17985158,-0.9367824,0.002641771,-2.415473,0.17871948,1.7060648,0.9395513,0.04,0.04,-9.423565,2.0053415298461914,1.8596568,-0.0140761845,-0.15380118787288666,0.21692824
1451.149999999009,0.18260922,-0.93912095,0.0026817056,-2.4163802,0.18146162,1.7081382,0.94190764,0.04,0.04,-9.411118,2.0394060611724854,1.8833376,-0.013854673,-0.15341894328594208,0.2188102
1451.1666666656756,0.1853801,-0.9414707,0.002721832,-2.4172924,0.18421696,1.7102215,0.94427526,0.04,0.04,-9.398559,2.0738625526428223,1.9066703,-0.013623833,-0.15299993753433228,0.22067428
1451.1833333323423,0.18816394,-0.94383126,0.0027621447,-2.4182088,0.18698516,1.7123145,0.94665396,0.04,0.04,-9.385858,2.1084961891174316,1.9301962,-0.013384657,-0.15255124866962433,0.22251959
1451.199999999009,0.1909604,-0.9462028,0.0028026386,-2.4191291,0.1897659,1.7144171,0.9490435,0.04,0.04,-9.372841,2.143427848815918,1.9534658,-0.013136527,-0.1520683318376541,0.22434628
1451.2166666656756,0.19376916,-0.9485845,0.0028433101,-2.4200535,0.19255883,1.7165288,0.95144373,0.04,0.04,-9.359519,2.178611993789673,1.9765213,-0.012879647,-0.1515486240386963,0.22615069
1451.2333333323422,0.19658977,-0.9509764,0.0028841528,-2.4209821,0.19536372,1.7186496,0.9538541,0.04,0.04,-9.3460045,2.2139782905578613,1.9997048,-0.012614498,-0.1509968787431717,0.22793284
1451.2499999990089,0.19942208,-0.95337826,0.0029251627,-2.4219146,0.19818012,1.7207792,0.9562744,0.04,0.04,-9.332296,2.2496838569641113,2.0225272,-0.01234129,-0.15041157603263855,0.229694
1451.2666666656755,0.20226565,-0.95578957,0.0029663364,-2.4228506,0.20100783,1.7229171,0.9587044,0.04,0.04,-9.318254,2.28554630279541,2.0454977,-0.012058884,-0.1497928351163864,0.231436
1451.2833333323422,0.20512018,-0.9582102,0.0030076667,-2.42379,0.20384642,1.7250634,0.96114373,0.04,0.04,-9.3040085,2.3216888904571533,2.0680761,-0.011768076,-0.14914141595363617,0.23315491
1451.2999999990088,0.20798528,-0.9606398,0.0030491496,-2.4247324,0.20669557,1.7272177,0.96359205,0.04,0.04,-9.289461,2.3580050468444824,2.0907526,-0.011468399,-0.14845579862594604,0.23484904
1451.3166666656755,0.21086068,-0.9630781,0.0030907805,-2.4256785,0.20955497,1.7293794,0.9660491,0.04,0.04,-9.274676,2.3945775032043457,2.1130588,-0.011159808,-0.14773623645305634,0.23651958
1451.3333333323421,0.213746,-0.96552473,0.0031325535,-2.4266276,0.21242419,1.7315488,0.9685146,0.04,0.04,-9.259695,2.4313557147979736,2.135481,-0.0108423475,-0.14698675274848938,0.23816429
1451.3499999990088,0.21664087,-0.96797967,0.003174464,-2.42758,0.21530299,1.7337254,0.9709883,0.04,0.04,-9.244454,2.468355655670166,2.157482,-0.010516652,-0.14620468020439148,0.2397846
1451.3666666656754,0.21954498,-0.9704424,0.0032165067,-2.428536,0.21819101,1.7359089,0.97346985,0.04,0.04,-9.228964,2.5055577754974365,2.1796024,-0.010182167,-0.14539161324501038,0.2413776
1451.383333332342,0.22245796,-0.97291267,0.003258678,-2.4294944,0.22108789,1.7380991,0.9759591,0.04,0.04,-9.213286,2.542966842651367,2.201294,-0.009840567,-0.144550159573555,0.24294461
1451.3999999990087,0.22537953,-0.97539,0.003300971,-2.4304557,0.22399324,1.7402958,0.9784556,0.04,0.04,-9.197271,2.5805630683898926,2.2230322,-0.009490866,-0.143676295876503,0.24448408
1451.4166666656754,0.2283092,-0.9778745,0.0033433817,-2.4314191,0.22690679,1.7424983,0.98095906,0.04,0.04,-9.181116,2.61834979057312,2.2443855,-0.0091332765,-0.1427752524614334,0.24599567
1451.433333332342,0.23124671,-0.98036563,0.0033859052,-2.4323864,0.22982815,1.7447071,0.9834692,0.04,0.04,-9.164518,2.656320571899414,2.2658005,-0.0087669995,-0.14184151589870453,0.2474776
1451.4499999990087,0.23419176,-0.9828632,0.0034285355,-2.4333556,0.23275693,1.7469214,0.9859857,0.04,0.04,-9.147965,2.694481372833252,2.2868967,-0.008394236,-0.140883207321167,0.24892464
1451.4666666656753,0.23714383,-0.9853669,0.003471268,-2.434327,0.23569277,1.7491411,0.9885083,0.04,0.04,-9.130993,2.7328107357025146,2.3077025,-0.008013132,-0.13989536464214325,0.2503478
1451.483333332342,0.24010268,-0.9878761,0.0035140973,-2.4353004,0.23863538,1.7513659,0.9910368,0.04,0.04,-9.113753,2.7713332176208496,2.3285072,-0.007624391,-0.13887804746627808,0.2517398
1451.4999999990087,0.24306796,-0.99039066,0.0035570187,-2.4362764,0.24158435,1.7535951,0.9935706,0.04,0.04,-9.096325,2.809952974319458,2.3488958,-0.00722897,-0.13783308863639832,0.2531015
1451.5166666656753,0.24603924,-0.9929103,0.0036000262,-2.4372542,0.24453938,1.7558297,0.9961097,0.04,0.04,-9.078755,2.848832130432129,2.369304,-0.0068270355,-0.13676658272743225,0.25443146
1451.533333332342,0.24901621,-0.99543506,0.0036431148,-2.4382331,0.24750005,1.7580682,0.9986536,0.04,0.04,-9.060803,2.8877387046813965,2.3892598,-0.006418087,-0.13566909730434418,0.25572616
1451.5499999990086,0.2519985,-0.99796426,0.003686279,-2.4392142,0.25046602,1.7603106,1.0012022,0.04,0.04,-9.042575,2.9268836975097656,2.409245,-0.0060010967,-0.13454414904117584,0.25698903
1451.5666666656753,0.25498575,-1.0004977,0.0037295136,-2.4401975,0.25343683,1.7625567,1.0037547,0.04,0.04,-9.024259,2.966090679168701,2.428791,-0.0055791116,-0.13339686393737793,0.2582179
1451.583333332342,0.25797755,-1.0030346,0.0037728145,-2.4411814,0.25641245,1.7648065,1.0063112,0.04,0.04,-9.00572,3.0055601596832275,2.4483206,-0.0051495796,-0.13222748041152954,0.2594144
1451.5999999990086,0.26097354,-1.0055752,0.0038161748,-2.4421675,0.25939223,1.767059,1.0088713,0.04,0.04,-8.986832,3.0449790954589844,2.467367,-0.004712957,-0.13103191554546356,0.26057488
1451.6166666656752,0.26397347,-1.0081192,0.003859589,-2.4431543,0.26237565,1.7693148,1.0114348,0.04,0.04,-8.967856,3.0847089290618896,2.4864173,-0.0042724535,-0.12981776893138885,0.26170138
1451.6333333323419,0.26697677,-1.0106665,0.003903053,-2.4441426,0.2653627,1.7715727,1.0140011,0.04,0.04,-8.948505,3.12437105178833,2.505032,-0.0038250675,-0.12857723236083984,0.26279297
1451.6499999990085,0.26998314,-1.0132159,0.00394656,-2.4451313,0.2683528,1.773833,1.0165704,0.04,0.04,-8.929014,3.1642990112304688,2.5235999,-0.0033719526,-0.12731727957725525,0.26384813
1451.6666666656752,0.27299225,-1.0157679,0.003990106,-2.4461217,0.27134576,1.7760955,1.019142,0.04,0.04,-8.909247,3.2041573524475098,2.5416842,-0.0029152785,-0.12603545188903809,0.26486573
1451.6833333323418,0.2760038,-1.0183219,0.0040336866,-2.4471128,0.27434102,1.7783597,1.0217155,0.04,0.04,-8.889348,3.244269371032715,2.5597394,-0.0024531276,-0.12473483383655548,0.2658416
1451.6999999990085,0.27901733,-1.0208776,0.0040772967,-2.4481041,0.27733824,1.7806253,1.0242907,0.04,0.04,-8.86923,3.2844130992889404,2.5774257,-0.0019854524,-0.12341664731502533,0.2667804
1451.7166666656751,0.2820325,-1.0234346,0.0041209282,-2.4490957,0.2803372,1.7828927,1.0268674,0.04,0.04,-8.848796,3.3245551586151123,2.5947855,-0.0015125975,-0.12207683175802231,0.26768652
1451.7333333323418,0.28504884,-1.025993,0.004164577,-2.4500878,0.28333747,1.7851608,1.0294449,0.04,0.04,-8.828137,3.364877223968506,2.6120014,-0.0010354912,-0.12071493268013,0.2685496
1451.7499999990084,0.28806615,-1.0285517,0.004208239,-2.4510803,0.28633857,1.7874295,1.0320235,0.04,0.04,-8.807327,3.4051601886749268,2.6288638,-0.0005534719,-0.11933666467666626,0.26937494
1451.766666665675,0.29108405,-1.0311109,0.0042519066,-2.4520729,0.28934017,1.7896987,1.0346028,0.04,0.04,-8.786417,3.4456937313079834,2.6455355,-6.947528e-05,-0.1179441288113594,0.27016392
1451.7833333323417,0.29410207,-1.0336702,0.0042955754,-2.4530659,0.292342,1.7919679,1.037182,0.04,0.04,-8.765157,3.4860384464263916,2.661826,0.00041853188,-0.11653367429971695,0.27091262
1451.7999999990084,0.29711992,-1.0362295,0.0043392414,-2.4540586,0.2953437,1.794237,1.0397608,0.04,0.04,-8.743812,3.526660203933716,2.677976,0.00090949197,-0.11511097848415375,0.27161992
1451.816666665675,0.3001371,-1.0387886,0.0043828962,-2.4550512,0.29834488,1.7965055,1.0423391,0.04,0.04,-8.722176,3.5670974254608154,2.6937153,0.0014052738,-0.11367229372262955,0.27228692
1451.8333333323417,0.30315334,-1.0413468,0.0044265366,-2.4560432,0.30134487,1.7987732,1.0449166,0.04,0.04,-8.700347,3.6077942848205566,2.709311,0.0019044018,-0.1122179925441742,0.27291432
1451.8499999990083,0.30616838,-1.0439036,0.0044701574,-2.457035,0.30434367,1.8010399,1.0474929,0.04,0.04,-8.678338,3.6482796669006348,2.724491,0.0024060227,-0.11075131595134735,0.2734986
1451.866666665675,0.30918157,-1.0464592,0.004513753,-2.4580262,0.3073407,1.8033056,1.050068,0.04,0.04,-8.65623,3.689014196395874,2.7394667,0.0029105148,-0.10927391797304153,0.27404144
1451.8833333323416,0.3121928,-1.0490129,0.0045573176,-2.4590166,0.31033587,1.8055695,1.052641,0.04,0.04,-8.633813,3.729543447494507,2.7540815,0.0034154744,-0.10778192430734634,0.2745439
1451.8999999990083,0.31520137,-1.0515646,0.004600846,-2.4600058,0.3133286,1.8078319,1.0552123,0.04,0.04,-8.61131,3.7702877521514893,2.7684727,0.0039240113,-0.10628103464841843,0.27500203
1451.916666665675,0.31820714,-1.0541139,0.0046443334,-2.4609942,0.31631863,1.8100919,1.057781,0.04,0.04,-8.588531,3.8107917308807373,2.7824957,0.0044325087,-0.104767344892025,0.2754185
1451.9333333323416,0.32120985,-1.0566603,0.0046877745,-2.4619815,0.31930542,1.8123498,1.0603467,0.04,0.04,-8.565691,3.851553440093994,2.7963183,0.0049424195,-0.10324577987194061,0.27579132
1451.9499999990082,0.32420897,-1.059204,0.004731163,-2.4629676,0.32228875,1.8146049,1.0629097,0.04,0.04,-8.542635,3.892160415649414,2.809783,0.0054548597,-0.10171397775411606,0.27612293
1451.966666665675,0.3272042,-1.0617441,0.0047744946,-2.4639528,0.3252681,1.8168571,1.0654695,0.04,0.04,-8.519378,3.9325878620147705,2.8229523,0.005966915,-0.10017500072717667,0.2764075
1451.9833333323415,0.3301951,-1.0642807,0.0048177643,-2.4649363,0.32824326,1.8191057,1.0680255,0.04,0.04,-8.496092,3.973318576812744,2.8358445,0.006478114,-0.09862985461950302,0.27665332
1451.9999999990082,0.33318135,-1.0668135,0.0048609637,-2.4659188,0.3312137,1.8213512,1.0705775,0.04,0.04,-8.4725065,4.013659954071045,2.8484106,0.0069899415,-0.09707920253276825,0.27685082
1452.0166666656748,0.33616272,-1.069342,0.004904091,-2.466899,0.3341793,1.8235933,1.0731251,0.04,0.04,-8.448899,4.0543131828308105,2.8607087,0.0075011016,-0.09552276134490967,0.27701032
1452.0333333323415,0.33913857,-1.0718657,0.004947139,-2.4678776,0.33713958,1.8258308,1.075668,0.04,0.04,-8.424972,4.094548225402832,2.8726697,0.008014064,-0.09395746141672134,0.277124
1452.0499999990082,0.34210876,-1.0743847,0.004990104,-2.4688542,0.34009412,1.8280638,1.0782062,0.04,0.04,-8.401109,4.135084629058838,2.8843448,0.008525062,-0.0923922136425972,0.27719462
1452.0666666656748,0.34507287,-1.0768985,0.0050329794,-2.469829,0.3430426,1.8302927,1.0807391,0.04,0.04,-8.376947,4.175209999084473,2.8957171,0.009033878,-0.09082302451133728,0.27722174
1452.0833333323415,0.34803048,-1.0794069,0.005075762,-2.470801,0.34598467,1.8325162,1.0832666,0.04,0.04,-8.352754,4.215578079223633,2.9067943,0.009541938,-0.08925110101699829,0.27720296
1452.099999999008,0.35098127,-1.0819094,0.005118445,-2.4717715,0.3489201,1.8347352,1.0857885,0.04,0.04,-8.328301,4.255538463592529,2.9175656,0.010048494,-0.08767616003751755,0.2771407
1452.1166666656748,0.35392502,-1.0844059,0.0051610214,-2.4727392,0.3518484,1.8369485,1.0883039,0.04,0.04,-8.303899,4.295764923095703,2.9280052,0.010551485,-0.08609969913959503,0.27703366
1452.1333333323414,0.35686123,-1.086896,0.0052034906,-2.4737043,0.35476914,1.8391563,1.0908132,0.04,0.04,-8.279247,4.335549354553223,2.9381735,0.01105332,-0.08452362567186356,0.2768822
1452.149999999008,0.35978952,-1.0893795,0.0052458444,-2.4746675,0.3576821,1.8413581,1.0933156,0.04,0.04,-8.254558,4.37554931640625,2.9480236,0.011552231,-0.08294755220413208,0.2766845
1452.1666666656747,0.36270955,-1.0918559,0.0052880775,-2.4756272,0.3605868,1.843554,1.0958109,0.04,0.04,-8.2297325,4.415148735046387,2.9576085,0.012046999,-0.08137399703264236,0.27644023
1452.1833333323414,0.365621,-1.0943251,0.005330187,-2.4765842,0.3634829,1.845743,1.098299,0.04,0.04,-8.20481,4.454951286315918,2.9668107,0.012539829,-0.07979883998632431,0.27615738
1452.199999999008,0.3685234,-1.0967865,0.0053721643,-2.477538,0.36637005,1.8479253,1.1007794,0.04,0.04,-8.179777,4.494441032409668,2.9757848,0.013027844,-0.07822836190462112,0.27582562
1452.2166666656747,0.3714165,-1.0992402,0.005414007,-2.4784894,0.36924806,1.8501005,1.1032517,0.04,0.04,-8.154613,4.533660411834717,2.9844398,0.013512859,-0.07666028290987015,0.27545068
1452.2333333323413,0.37429994,-1.1016854,0.0054557105,-2.4794376,0.3721165,1.8522687,1.1057156,0.04,0.04,-8.12953,4.573113918304443,2.9927862,0.013992694,-0.07509880512952805,0.27503225
1452.249999999008,0.3771735,-1.1041224,0.0054972693,-2.480382,0.37497503,1.8544295,1.1081711,0.04,0.04,-8.104207,4.612056255340576,3.0008364,0.014467885,-0.07354121655225754,0.27457103
1452.2666666656746,0.38003674,-1.106551,0.005538676,-2.4813237,0.37782317,1.8565823,1.1106179,0.04,0.04,-8.0788145,4.651132583618164,3.0085785,0.0149392495,-0.07198689877986908,0.27406073
1452.2833333323413,0.38288918,-1.1089698,0.005579929,-2.482261,0.38066086,1.8587273,1.1130555,0.04,0.04,-8.053421,4.6898274421691895,3.0161266,0.015404345,-0.07044093310832977,0.27350977
1452.299999999008,0.38573065,-1.1113797,0.0056210225,-2.483195,0.38348755,1.8608638,1.1154835,0.04,0.04,-8.027909,4.728609561920166,3.0231814,0.01586396,-0.06889941543340683,0.27291492
1452.3166666656746,0.38856074,-1.1137799,0.00566195,-2.484125,0.38630292,1.8629917,1.1179019,0.04,0.04,-8.002326,4.766934871673584,3.0301535,0.016318657,-0.06736638396978378,0.2722757
1452.3333333323412,0.39137915,-1.1161699,0.0057027084,-2.4850514,0.38910672,1.8651108,1.1203105,0.04,0.04,-7.976724,4.805413722991943,3.0366886,0.01676697,-0.06584038585424423,0.27159393
1452.3499999990079,0.3941856,-1.1185503,0.0057432926,-2.4859736,0.39189857,1.8672211,1.1227088,0.04,0.04,-7.9510903,4.843386173248291,3.0430129,0.017206378,-0.06432508677244186,0.27086937
1452.3666666656745,0.39697966,-1.1209201,0.005783698,-2.486892,0.3946781,1.869322,1.1250962,0.04,0.04,-7.92534,4.881499290466309,3.04903,0.017641827,-0.06281466782093048,0.27010086
1452.3833333323412,0.3997611,-1.123279,0.0058239186,-2.4878058,0.39744502,1.8714134,1.1274729,0.04,0.04,-7.899593,4.919087886810303,3.0548148,0.018070193,-0.061316508799791336,0.26928946
1452.3999999990078,0.40252954,-1.1256268,0.00586395,-2.4887154,0.40019897,1.8734947,1.1298385,0.04,0.04,-7.873849,4.9568281173706055,3.0602162,0.01849197,-0.05982726812362671,0.2684368
1452.4166666656745,0.40528458,-1.1279634,0.0059037874,-2.4896212,0.4029398,1.8755664,1.1321927,0.04,0.04,-7.8480124,4.993996620178223,3.0654511,0.01890532,-0.05835053324699402,0.26754007
1452.4333333323411,0.4080259,-1.1302885,0.005943428,-2.490522,0.40566698,1.8776278,1.1345353,0.04,0.04,-7.822287,5.0313639640808105,3.0703144,0.01930948,-0.0568867027759552,0.2666004
1452.4499999990078,0.4107533,-1.1326015,0.005982865,-2.4914181,0.40838024,1.8796786,1.1368661,0.04,0.04,-7.7963924,5.068287372589111,3.0749285,0.019706417,-0.05543169006705284,0.26562008
1452.4666666656744,0.41346648,-1.1349026,0.006022095,-2.4923096,0.41107932,1.8817185,1.1391845,0.04,0.04,-7.7705283,5.104833602905273,3.0793705,0.020093836,-0.053991593420505524,0.26459786
1452.483333332341,0.41616502,-1.1371913,0.006061113,-2.4931967,0.41376382,1.8837475,1.1414906,0.04,0.04,-7.7447057,5.141507625579834,3.083421,0.020473594,-0.05256420746445656,0.2635338
1452.4999999990077,0.4188486,-1.139467,0.006099914,-2.4940786,0.41643372,1.8857651,1.1437838,0.04,0.04,-7.718898,5.177640438079834,3.0873337,0.020842846,-0.051153428852558136,0.26243052
1452.5166666656744,0.4215171,-1.1417301,0.006138496,-2.4949555,0.41908848,1.8877715,1.1460643,0.04,0.04,-7.693094,5.213852882385254,3.0908008,0.021202175,-0.04975593090057373,0.26128846
1452.533333332341,0.42417,-1.1439801,0.006176853,-2.495827,0.42172763,1.8897665,1.1483313,0.04,0.04,-7.667199,5.249456882476807,3.0942256,0.0215525,-0.04837226867675781,0.26010463
1452.5499999990077,0.42680705,-1.1462168,0.0062149814,-2.4966938,0.42435107,1.8917493,1.1505847,0.04,0.04,-7.641388,5.285167694091797,3.0972161,0.021894628,-0.04700089246034622,0.25887886
1452.5666666656743,0.4294281,-1.1484398,0.006252875,-2.4975553,0.42695844,1.89372,1.1528243,0.04,0.04,-7.6156716,5.320352077484131,3.1001418,0.022225723,-0.045649975538253784,0.25761628
1452.583333332341,0.43203276,-1.150649,0.00629053,-2.4984107,0.42954957,1.8956786,1.1550499,0.04,0.04,-7.589916,5.3555426597595215,3.1026416,0.02254792,-0.04431290179491043,0.25631177
1452.5999999990077,0.43462062,-1.1528437,0.006327944,-2.499261,0.43212414,1.8976245,1.1572617,0.04,0.04,-7.564077,5.390120983123779,3.1050696,0.022860447,-0.04298994690179825,0.25496593
1452.6166666656743,0.43719158,-1.1550244,0.0063651125,-2.5001059,0.4346818,1.8995577,1.1594588,0.04,0.04,-7.538572,5.424890518188477,3.1070633,0.023158014,-0.04168769344687462,0.25358573
1452.633333332341,0.43974522,-1.1571902,0.006402031,-2.5009449,0.4372222,1.9014777,1.1616411,0.04,0.04,-7.51286,5.458960056304932,3.1090589,0.023447145,-0.04040146619081497,0.2521658
1452.6499999990076,0.44228134,-1.1593409,0.006438693,-2.501778,0.4397452,1.9033849,1.1638083,0.04,0.04,-7.487365,5.493128776550293,3.1105902,0.023724608,-0.03913426026701927,0.25070813
1452.6666666656743,0.44479957,-1.1614767,0.006475098,-2.502605,0.44225043,1.9052783,1.1659606,0.04,0.04,-7.461824,5.52667236328125,3.1120844,0.023991073,-0.037884633988142014,0.24921338
1452.683333332341,0.44729978,-1.1635975,0.006511239,-2.5034266,0.44473776,1.9071584,1.1680973,0.04,0.04,-7.4363837,5.560268878936768,3.1132042,0.024246026,-0.03665231540799141,0.24768253
1452.6999999990076,0.4497816,-1.1657022,0.006547115,-2.504242,0.44720677,1.9090245,1.170218,0.04,0.04,-7.411066,5.593464374542236,3.114189,0.024488673,-0.03543977439403534,0.24611545
1452.7166666656742,0.4522448,-1.1677912,0.0065827193,-2.5050507,0.44965717,1.9108765,1.1723229,0.04,0.04,-7.3857446,5.626150608062744,3.115052,0.024720605,-0.034247979521751404,0.24451512
1452.7333333323409,0.45468903,-1.1698644,0.006618052,-2.5058532,0.45208877,1.9127145,1.1744117,0.04,0.04,-7.3605547,5.658889293670654,3.1155074,0.024941321,-0.0330745205283165,0.24287833
1452.7499999990075,0.45711413,-1.1719215,0.006653106,-2.5066493,0.45450133,1.9145379,1.1764842,0.04,0.04,-7.3353124,5.6909661293029785,3.1159887,0.025149908,-0.031918447464704514,0.24120691
1452.7666666656742,0.45951986,-1.173962,0.0066878796,-2.5074394,0.45689464,1.9163468,1.1785402,0.04,0.04,-7.3103685,5.723145008087158,3.1160486,0.025345065,-0.030783290043473244,0.2395006
1452.7833333323408,0.46190593,-1.1759857,0.0067223688,-2.5082228,0.4592684,1.9181412,1.1805793,0.04,0.04,-7.2854285,5.754693984985352,3.1161478,0.025527937,-0.02966911531984806,0.23776674
1452.7999999990075,0.464272,-1.1779926,0.0067565693,-2.5089998,0.4616223,1.9199206,1.1826015,0.04,0.04,-7.2606554,5.786218643188477,3.1157868,0.025698388,-0.028575075790286064,0.23599416
1452.8166666656741,0.46661803,-1.1799821,0.0067904782,-2.5097704,0.4639563,1.9216845,1.1846062,0.04,0.04,-7.2358894,5.817141056060791,3.115517,0.025855336,-0.027501551434397697,0.23419312
1452.8333333323408,0.4689437,-1.1819546,0.0068240906,-2.5105345,0.46627003,1.9234332,1.1865935,0.04,0.04,-7.211412,5.848065376281738,3.1147969,0.02600032,-0.026454005390405655,0.23235577
1452.8499999990074,0.47124872,-1.1839095,0.006857406,-2.5112913,0.46856305,1.9251661,1.1885637,0.04,0.04,-7.1869006,5.878357410430908,3.114186,0.026131444,-0.02542707324028015,0.23048869
1452.866666665674,0.4735329,-1.1858467,0.006890417,-2.512041,0.47083542,1.9268835,1.190516,0.04,0.04,-7.1625757,5.9086456298828125,3.1131067,0.026248861,-0.024420345202088356,0.22859325
1452.8833333323407,0.475796,-1.187766,0.0069231233,-2.512784,0.47308686,1.9285852,1.1924497,0.04,0.04,-7.138295,5.93826961517334,3.1121476,0.02635365,-0.02343534305691719,0.22666657
1452.8999999990074,0.47803777,-1.1896672,0.006955522,-2.5135198,0.47531703,1.9302711,1.1943653,0.04,0.04,-7.114277,5.967925548553467,3.1107523,0.026448032,-0.022471817210316658,0.22470893
1452.916666665674,0.48025808,-1.1915504,0.0069876094,-2.5142486,0.4775258,1.9319404,1.1962627,0.04,0.04,-7.090261,5.996915817260742,3.1094859,0.02652906,-0.02152831293642521,0.22272342
1452.9333333323407,0.48245668,-1.1934152,0.007019382,-2.5149703,0.479713,1.9335936,1.1981417,0.04,0.04,-7.0665784,6.025944232940674,3.1077955,0.02659525,-0.02060898393392563,0.22070996
1452.9499999990073,0.48463342,-1.1952614,0.007050838,-2.5156858,0.48187846,1.9352304,1.200002,0.04,0.04,-7.0429106,6.054449558258057,3.1060963,0.026648704,-0.01971011981368065,0.21867014
1452.966666665674,0.486788,-1.1970888,0.007081973,-2.5163937,0.48402193,1.9368504,1.201843,0.04,0.04,-7.0195107,6.082540988922119,3.104395,0.026686301,-0.018837276846170425,0.2166083
1452.9833333323406,0.48892024,-1.1988974,0.007112785,-2.5170941,0.48614314,1.9384538,1.2036654,0.04,0.04,-6.996236,6.110541343688965,3.102257,0.026712583,-0.01798561029136181,0.21451941
1452.9999999990073,0.49102998,-1.2006867,0.0071432693,-2.5177872,0.48824197,1.94004,1.2054683,0.04,0.04,-6.973002,6.137864589691162,3.1002867,0.02672335,-0.017155921086668968,0.212403
1453.016666665674,0.4931171,-1.202457,0.007173427,-2.5184722,0.49031824,1.9416094,1.2072518,0.039999988,0.04,-6.9501634,6.165226936340332,3.0978892,0.026721431,-0.0163518525660038,0.21025981
1453.0333333323406,0.49518132,-1.2042079,0.0072032525,-2.5191498,0.49237177,1.9431618,1.2090157,0.03999998,0.04,-6.927148,6.191815376281738,3.0956888,0.02670917,-0.015564759261906147,0.20809178
1453.0499999990072,0.49722254,-1.2059389,0.007232747,-2.51982,0.4944023,1.9446964,1.21076,0.039999973,0.04,-6.9046555,6.21851921081543,3.0930521,0.026682861,-0.014800318516790867,0.20589975
1453.066666665674,0.4992406,-1.2076505,0.0072619016,-2.5204823,0.49640968,1.9462142,1.2124846,0.03999996,0.04,-6.882203,6.244523048400879,3.0906186,0.026642356,-0.014061844907701015,0.203688
1453.0833333323405,0.5012352,-1.209342,0.0072907205,-2.5211368,0.49839383,1.9477135,1.214189,0.03999995,0.04,-6.8599916,6.270488739013672,3.0877564,0.026588213,-0.0133419930934906,0.20145147
1453.0999999990072,0.5032063,-1.2110139,0.0073191994,-2.5217838,0.5003545,1.9491962,1.2158732,0.039999936,0.04,-6.837908,6.295790672302246,3.085121,0.026521651,-0.012649072334170341,0.19919597
1453.1166666656738,0.50515383,-1.2126656,0.0073473332,-2.5224228,0.50229156,1.9506602,1.2175375,0.039999925,0.04,-6.816108,6.32110071182251,3.0820725,0.026442867,-0.011972878128290176,0.19691728
1453.1333333323405,0.5070774,-1.214297,0.007375122,-2.5230541,0.5042049,1.9521064,1.219181,0.039999906,0.04,-6.7943845,6.345697402954102,3.0792603,0.026350852,-0.011321816593408585,0.19462124
1453.1499999990072,0.5089769,-1.2159084,0.007402562,-2.523677,0.5060944,1.9535347,1.2208045,0.0399999,0.04,-6.77308,6.370335578918457,3.0760167,0.026246052,-0.010693715885281563,0.19230594
1453.1666666656738,0.5108525,-1.2174991,0.007429656,-2.5242922,0.5079598,1.954945,1.2224071,0.03999989,0.04,-6.751689,6.394233226776123,3.073033,0.02612721,-0.01008293591439724,0.1899753
1453.1833333323405,0.5127038,-1.2190694,0.007456397,-2.5248995,0.50980127,1.9563369,1.2239894,0.03999988,0.04,-6.730779,6.418118476867676,3.069637,0.0259982,-0.009495689533650875,0.18762308
1453.199999999007,0.5145305,-1.2206185,0.0074827857,-2.5254986,0.5116183,1.9577105,1.2255505,0.039999872,0.04,-6.71004,6.44155740737915,3.0663357,0.025852922,-0.008932464756071568,0.18525365
1453.2166666656738,0.5163326,-1.2221473,0.00750882,-2.5260897,0.5134111,1.9590656,1.2270906,0.039999858,0.04,-6.689367,6.464410305023193,3.063087,0.025696067,-0.008388649672269821,0.1828682
1453.2333333323404,0.51811033,-1.2236551,0.0075344983,-2.526673,0.51517934,1.9604021,1.2286099,0.03999985,0.04,-6.6691074,6.487300872802734,3.0595226,0.025527323,-0.007867184467613697,0.18046728
1453.249999999007,0.51986325,-1.225142,0.0075598187,-2.5272484,0.51692295,1.9617202,1.2301075,0.03999984,0.04,-6.6489944,6.509521961212158,3.0561945,0.025344403,-0.007368686143308878,0.17805387
1453.2666666656737,0.5215915,-1.226608,0.0075847795,-2.527816,0.5186419,1.9630197,1.2315847,0.039999828,0.04,-6.629188,6.531673908233643,3.0524647,0.025152193,-0.00689052976667881,0.17562519
1453.2833333323404,0.5232947,-1.228052,0.00760938,-2.528375,0.520336,1.9643004,1.2330401,0.03999982,0.04,-6.609522,6.553197383880615,3.0490415,0.024944417,-0.006435337010771036,0.1731824
1453.299999999007,0.5249729,-1.2294759,0.007633618,-2.528926,0.5220052,1.9655622,1.2344743,0.0399998,0.04,-6.5902348,6.574649810791016,3.0451515,0.024725286,-0.006000254303216934,0.17073117
1453.3166666656737,0.5266261,-1.2308776,0.007657493,-2.5294688,0.52364933,1.9668053,1.2358869,0.039999794,0.04,-6.5709615,6.59545373916626,3.0416937,0.024495913,-0.00558492261916399,0.16826607
1453.3333333323403,0.52825415,-1.232259,0.0076810047,-2.5300026,0.5252688,1.9680294,1.2372786,0.03999978,0.04,-6.5522413,6.616252422332764,3.0377283,0.024253258,-0.005191347561776638,0.1657936
1453.349999999007,0.529857,-1.2336184,0.007704151,-2.530528,0.5268633,1.9692343,1.2386483,0.039999772,0.04,-6.5333314,6.636292934417725,3.0342078,0.024000727,-0.004812723491340876,0.16330913
1453.3666666656736,0.5314345,-1.2349564,0.0077269305,-2.5310454,0.52843225,1.9704205,1.2399964,0.03999976,0.04,-6.515077,6.656364917755127,3.0301974,0.023737282,-0.004456900991499424,0.16081373
1453.3833333323403,0.5329866,-1.2362732,0.007749343,-2.5315547,0.52997583,1.9715875,1.241323,0.039999753,0.04,-6.4968543,6.675793647766113,3.0265603,0.023462344,-0.004120019730180502,0.15830988
1453.399999999007,0.53451353,-1.2375681,0.0077713886,-2.5320556,0.5314943,1.9727354,1.242628,0.039999742,0.04,-6.479048,6.695180892944336,3.0225558,0.023177747,-0.003800994949415326,0.15580033
1453.4166666656736,0.5360152,-1.2388417,0.0077930666,-2.5325482,0.5329874,1.9738644,1.2439111,0.039999735,0.04,-6.4613585,6.713891506195068,3.0188699,0.022881685,-0.003503703512251377,0.15327968
1453.4333333323402,0.53749096,-1.2400934,0.007814375,-2.5330327,0.5344551,1.9749743,1.2451727,0.039999723,0.04,-6.444132,6.732607364654541,3.014819,0.022576038,-0.00322464550845325,0.15075633
1453.4499999990069,0.53894114,-1.2413236,0.007835314,-2.5335088,0.5358976,1.9760648,1.2464124,0.039999716,0.04,-6.4270277,6.750796318054199,3.0109067,0.022257498,-0.0029632628429681063,0.14822538
1453.4666666656735,0.54036605,-1.2425323,0.007855883,-2.533976,0.53731465,1.977136,1.24763,0.03999971,0.04,-6.410143,6.768546104431152,3.0072026,0.021929339,-0.002719986718147993,0.14569473
1453.4833333323402,0.54176515,-1.2437192,0.007876083,-2.534435,0.5387062,1.978188,1.2488258,0.0399997,0.04,-6.3935924,6.786113739013672,3.0031455,0.02159547,-0.002494074171409011,0.14315486
1453.4999999990068,0.5431387,-1.2448844,0.007895916,-2.5348852,0.54007226,1.9792209,1.2499999,0.039999686,0.04,-6.3772616,6.803191184997559,2.9994247,0.021251222,-0.0022851452231407166,0.14061625
1453.5166666656735,0.5444868,-1.246028,0.007915378,-2.5353272,0.54141295,1.9802349,1.2511519,0.03999968,0.04,-6.361268,6.820116996765137,2.9953449,0.020897884,-0.002090191002935171,0.13807508
1453.5333333323401,0.5458094,-1.2471498,0.007934471,-2.5357616,0.5427283,1.9812297,1.2522825,0.039999675,0.04,-6.3454795,6.836486339569092,2.9916563,0.020537578,-0.0019128740532323718,0.13553166
1453.5499999990068,0.5471064,-1.2482501,0.007953192,-2.5361874,0.54401815,1.9822049,1.2533913,0.039999664,0.04,-6.330179,6.852828502655029,2.987601,0.020165298,-0.0017534950748085976,0.13298894
1453.5666666656734,0.5483779,-1.2493289,0.007971546,-2.5366042,0.54528266,1.983161,1.2544779,0.039999656,0.04,-6.3149095,6.868531703948975,2.9839318,0.019784495,-0.0016104151727631688,0.13044876
1453.58333333234,0.54962385,-1.2503858,0.0079895295,-2.537013,0.54652184,1.9840975,1.2555424,0.039999645,0.04,-6.2999935,6.884089469909668,2.979915,0.019400746,-0.001479770871810615,0.12790821
1453.5999999990067,0.55084425,-1.251421,0.008007144,-2.5374138,0.5477357,1.985015,1.2565856,0.039999638,0.04,-6.285383,6.89916467666626,2.9762757,0.019007903,-0.0013688078615814447,0.12537156
1453.6166666656734,0.5520393,-1.2524347,0.008024394,-2.5378063,0.5489242,1.9859135,1.257607,0.039999623,0.04,-6.271195,6.91415548324585,2.9722729,0.018605035,-0.0012741181999444962,0.12283623
1453.63333333234,0.5532091,-1.2534269,0.008041277,-2.5381901,0.5500877,1.9867932,1.2586067,0.039999623,0.04,-6.2570057,6.9285054206848145,2.9687002,0.018196868,-0.0011919973185285926,0.12030587
1453.6499999990067,0.5543535,-1.254398,0.0080577945,-2.5385654,0.55122566,1.9876537,1.2595844,0.03999962,0.04,-6.24332,6.942799091339111,2.964759,0.017782668,-0.0011235042475163937,0.117777474
1453.6666666656733,0.5554729,-1.2553474,0.008073947,-2.5389323,0.5523387,1.9884955,1.2605411,0.03999961,0.04,-6.2296624,6.956491947174072,2.9612389,0.01736546,-0.0010650327894836664,0.115255445
1453.68333333234,0.55656695,-1.2562754,0.008089734,-2.5392907,0.5534267,1.9893181,1.2614762,0.0399996,0.04,-6.216577,6.970153331756592,2.9573781,0.016940355,-0.0010215839138254523,0.11273885
1453.6999999990066,0.5576358,-1.2571821,0.008105159,-2.5396414,0.55448973,1.9901221,1.2623895,0.0399996,0.04,-6.2036076,6.983345985412598,2.9537394,0.016510202,-0.0009892627131193876,0.110229515
1453.7166666656733,0.5586797,-1.2580677,0.00812022,-2.539984,0.555528,1.9909071,1.263282,0.039999597,0.04,-6.1909504,6.9961652755737305,2.950298,0.016074553,-0.0009705378324724734,0.107729495
1453.73333333234,0.55969876,-1.2589321,0.008134926,-2.540318,0.5565413,1.9916737,1.2641529,0.03999959,0.04,-6.17871,7.008882999420166,2.9465725,0.015632385,-0.0009649375570006669,0.10523809
1453.7499999990066,0.56069285,-1.2597753,0.008149273,-2.540644,0.55753016,1.9924213,1.2650025,0.03999959,0.04,-6.166506,7.020999431610107,2.9432106,0.015187674,-0.0009677402558736503,0.10275578
1453.7666666656733,0.5616624,-1.260598,0.008163259,-2.5409617,0.5584944,1.9931504,1.2658312,0.03999958,0.04,-6.15483,7.033087253570557,2.9395418,0.014738468,-0.0009834718657657504,0.10028626
1453.78333333234,0.5626074,-1.2613996,0.008176894,-2.5412717,0.5594342,1.9938611,1.266639,0.039999574,0.04,-6.143227,7.044615745544434,2.9363267,0.014286351,-0.0010097306221723557,0.097825766
1453.7999999990066,0.56352806,-1.2621806,0.008190172,-2.5415738,0.56034976,1.9945531,1.2674258,0.03999957,0.04,-6.1321445,7.0561089515686035,2.9327514,0.013829649,-0.0010464128572493792,0.095378
1453.8166666656732,0.5644244,-1.2629408,0.008203096,-2.5418675,0.56124127,1.995227,1.2681918,0.039999563,0.04,-6.12114,7.067039489746094,2.9296026,0.013370968,-0.0010939755011349916,0.09294706
1453.8333333323399,0.5652965,-1.2636806,0.008215679,-2.5421536,0.5621083,1.9958826,1.2689371,0.03999956,0.04,-6.110564,7.077876567840576,2.9261343,0.0129098995,-0.0011515243677422404,0.090524636
1453.8499999990065,0.56614465,-1.2644,0.008227914,-2.5424316,0.56295174,1.9965202,1.2696619,0.039999556,0.04,-6.1001387,7.088250160217285,2.9230654,0.012447057,-0.0012160089099779725,0.08812373
1453.8666666656732,0.5669689,-1.2650998,0.008239803,-2.5427012,0.56377155,1.9971398,1.2703663,0.039999552,0.04,-6.0901456,7.098512172698975,2.9197176,0.011982327,-0.0012892707018181682,0.08573714
1453.8833333323398,0.5677695,-1.2657788,0.00825135,-2.5429635,0.56456774,1.9977418,1.2710509,0.03999954,0.04,-6.0801377,7.108202934265137,2.9168048,0.011519121,-0.001368110184557736,0.08336513
1453.8999999990065,0.56854665,-1.266438,0.008262558,-2.5432181,0.5653406,1.9983261,1.2717148,0.03999953,0.04,-6.0708103,7.117952823638916,2.9135263,0.011050356,-0.0014557077083736658,0.0810154
1453.9166666656731,0.5693004,-1.2670778,0.00827343,-2.5434654,0.5660903,1.9988927,1.2723591,0.039999537,0.04,-6.0614862,7.127130508422852,2.910691,0.010584733,-0.0015514481347054243,0.07868066
1453.9333333323398,0.57003087,-1.2676977,0.008283967,-2.543705,0.56681716,1.9994423,1.272984,0.039999537,0.04,-6.052619,7.136285781860352,2.9075937,0.010116566,-0.0016544071258977056,0.07636807
1453.9499999990064,0.57073873,-1.2682983,0.008294175,-2.543937,0.5675212,1.9999745,1.2735891,0.039999522,0.04,-6.0439415,7.145027160644531,2.9046652,0.009645796,-0.0017625618493184447,0.07407581
1453.966666665673,0.57142395,-1.2688799,0.008304058,-2.544161,0.5682026,2.00049,1.2741748,0.03999952,0.04,-6.0354214,7.153363227844238,2.9020195,0.0091784885,-0.0018770096357911825,0.07180349
1453.9833333323397,0.5720869,-1.2694423,0.008313615,-2.5443778,0.5688618,2.0009882,1.2747409,0.03999951,0.04,-6.0272856,7.161613941192627,2.899103,0.008714528,-0.0019946901593357325,0.0695522
1453.9999999990064,0.5727275,-1.2699858,0.008322851,-2.5445874,0.569499,2.0014694,1.2752885,0.039999515,0.04,-6.019337,7.169425010681152,2.8965633,0.008253403,-0.002119899494573474,0.06732172
1454.016666665673,0.57334626,-1.2705107,0.00833177,-2.5447896,0.5701143,2.0019343,1.275817,0.039999515,0.04,-6.0118513,7.1772260665893555,2.893742,0.007791442,-0.0022500548511743546,0.06512222
1454.0333333323397,0.5739432,-1.2710172,0.008340376,-2.5449846,0.57070804,2.002383,1.2763273,0.039999515,0.04,-6.0044165,7.1845221519470215,2.8913267,0.007333317,-0.0023837389890104532,0.062946126
1454.0499999990063,0.57451874,-1.2715055,0.008348672,-2.5451732,0.5712804,2.0028164,1.2768193,0.03999951,0.04,-5.997367,7.191725254058838,2.8886528,0.0068769096,-0.002521263202652335,0.06079243
1454.066666665673,0.57507324,-1.2719759,0.0083566625,-2.545355,0.5718318,2.0032332,1.2772936,0.039999507,0.04,-5.9905515,7.19858455657959,2.8863099,0.0064211967,-0.0026604551821947098,0.058667302
1454.0833333323396,0.57560676,-1.2724284,0.008364352,-2.5455308,0.5723624,2.0036342,1.2777495,0.039999507,0.04,-5.984095,7.205355167388916,2.88379,0.0059675705,-0.002806884003803134,0.05657221
1454.0999999990063,0.5761196,-1.2728637,0.008371744,-2.5456991,0.5728729,2.00402,1.278188,0.03999951,0.04,-5.977788,7.211712837219238,2.881568,0.005517345,-0.002956204814836383,0.05451099
1454.116666665673,0.57661206,-1.2732819,0.008378841,-2.5458603,0.5733628,2.0043905,1.2786092,0.0399995,0.04,-5.9717135,7.2179083824157715,2.8791723,0.00507252,-0.003106343327090144,0.05247484
1454.1333333323396,0.5770848,-1.2736832,0.008385652,-2.5460143,0.5738328,2.004746,1.2790132,0.039999496,0.04,-5.9657836,7.22371768951416,2.8770838,0.004633002,-0.0032564427237957716,0.05046923
1454.1499999990062,0.57753783,-1.2740676,0.0083921775,-2.546162,0.5742833,2.0050867,1.2794006,0.039999496,0.04,-5.960173,7.229414463043213,2.8748126,0.0042018327,-0.0034047046210616827,0.04849364
1454.166666665673,0.57797146,-1.2744356,0.008398423,-2.5463047,0.5747146,2.0054126,1.2797713,0.039999492,0.04,-5.9548187,7.234811782836914,2.8728545,0.0037734755,-0.003556429408490658,0.046552565
1454.1833333323395,0.5783861,-1.2747874,0.008404397,-2.5464423,0.57512695,2.0057247,1.2801259,0.039999496,0.04,-5.949989,7.240286827087402,2.870675,0.0033478586,-0.003713465528562665,0.04465159
1454.1999999990062,0.5787822,-1.2751236,0.008410102,-2.5465724,0.5755208,2.0060225,1.2804645,0.039999504,0.04,-5.945215,7.245360851287842,2.8686757,0.0029269506,-0.003871119348332286,0.042787306
1454.2166666656728,0.5791599,-1.2754445,0.008415541,-2.5466952,0.57589674,2.0063064,1.2807876,0.039999507,0.04,-5.940411,7.250000476837158,2.866907,0.0025142557,-0.004027270246297121,0.04095524
1454.2333333323395,0.5795196,-1.27575,0.0084207235,-2.5468113,0.5762548,2.0065768,1.2810951,0.039999504,0.04,-5.935875,7.254539489746094,2.8649447,0.0021118585,-0.004178742412477732,0.03915602
1454.2499999990061,0.5798621,-1.2760408,0.008425652,-2.5469253,0.5765953,2.0068343,1.2813877,0.039999507,0.04,-5.931537,7.258788108825684,2.8632703,0.0017187608,-0.004327673465013504,0.037392277
1454.2666666656728,0.58018744,-1.2763168,0.008430331,-2.547032,0.5769187,2.0070786,1.2816656,0.0399995,0.04,-5.9280267,7.263342380523682,2.8614013,0.0013270043,-0.004484814126044512,0.03567689
1454.2833333323395,0.580496,-1.2765784,0.00843477,-2.5471318,0.5772255,2.007311,1.2819291,0.0399995,0.04,-5.924112,7.267166614532471,2.8598247,0.0009452663,-0.004638422280550003,0.034000058
1454.299999999006,0.58078825,-1.2768265,0.008438973,-2.5472298,0.5775162,2.007531,1.2821788,0.0399995,0.04,-5.9204087,7.270875930786133,2.8580537,0.0005761043,-0.004782708827406168,0.032359596
1454.3166666656728,0.5810646,-1.2770613,0.008442948,-2.5473208,0.5777911,2.0077388,1.282415,0.039999504,0.04,-5.917411,7.27474308013916,2.8565953,0.00020715436,-0.004936734214425087,0.0307703
1454.3333333323394,0.5813254,-1.2772825,0.008446699,-2.547405,0.57805055,2.0079348,1.282638,0.039999504,0.04,-5.9141173,7.2780985832214355,2.8549695,-0.0001494733,-0.005082387011498213,0.029219802
1454.349999999006,0.5815713,-1.2774913,0.008450232,-2.5474875,0.57829505,2.0081193,1.2828481,0.039999504,0.04,-5.9109735,7.2811665534973145,2.853563,-0.00049327663,-0.005222855135798454,0.027710484
1454.3666666656727,0.5818025,-1.2776877,0.008453555,-2.5475633,0.5785252,2.0082932,1.2830456,0.039999504,0.04,-5.9085846,7.284590244293213,2.8520498,-0.00083381595,-0.0053699021227657795,0.02625603
1454.3833333323394,0.5820197,-1.2778722,0.0084566735,-2.5476322,0.57874125,2.0084567,1.2832313,0.039999507,0.04,-5.9057665,7.287301540374756,2.8507352,-0.0011601576,-0.0055070482194423676,0.024841512
1454.399999999006,0.58222306,-1.2780448,0.008459598,-2.5477,0.5789438,2.00861,1.2834053,0.0399995,0.04,-5.903096,7.289916515350342,2.8493247,-0.0014702476,-0.005631960462778807,0.023467755
1454.4166666656727,0.5824134,-1.2782063,0.008462328,-2.547761,0.5791331,2.008753,1.2835683,0.039999507,0.04,-5.9012265,7.292782306671143,2.8480809,-0.0017795669,-0.005764455068856478,0.022150619
1454.4333333323393,0.58259124,-1.2783575,0.00846488,-2.5478206,0.57930994,2.0088868,1.2837204,0.0399995,0.04,-5.8989515,7.29513692855835,2.8467624,-0.0020718728,-0.005886740982532501,0.020882435
1454.449999999006,0.58275694,-1.2784983,0.008467259,-2.5478737,0.5794746,2.009011,1.2838619,0.039999504,0.04,-5.8973036,7.297667980194092,2.8455646,-0.0023581805,-0.006012179888784885,0.019668128
1454.4666666656726,0.58291095,-1.2786287,0.008469467,-2.5479255,0.5796276,2.0091267,1.2839935,0.0399995,0.04,-5.895243,7.299625396728516,2.8444757,-0.0026254533,-0.006126783788204193,0.01850201
1454.4833333323393,0.583054,-1.2787502,0.008471512,-2.547971,0.57977045,2.0092337,1.2841158,0.039999504,0.04,-5.8939977,7.3019537925720215,2.8432007,-0.0028876606,-0.006244774907827377,0.01739441
1454.499999999006,0.5831864,-1.2788626,0.0084734075,-2.5480154,0.57990193,2.0093331,1.2842289,0.039999504,0.04,-5.892173,7.30364465713501,2.842215,-0.0031331987,-0.00635131960734725,0.016335508
1454.5166666656726,0.58330876,-1.2789667,0.008475155,-2.5480545,0.58002377,2.009425,1.2843336,0.039999507,0.04,-5.8911285,7.305716514587402,2.8410318,-0.0033686892,-0.006456485018134117,0.015338005
1454.5333333323392,0.5834217,-1.2790629,0.008476772,-2.5480914,0.58013636,2.0095096,1.2844303,0.039999504,0.04,-5.889631,7.307211399078369,2.8400862,-0.0035873363,-0.00655158469453454,0.014390334
1454.5499999990059,0.5835258,-1.2791516,0.008478263,-2.548126,0.5802401,2.0095882,1.2845193,0.039999504,0.04,-5.888702,7.308969974517822,2.8389878,-0.0037951279,-0.006643690634518862,0.013503133
1454.5666666656725,0.5836218,-1.2792329,0.008479633,-2.5481563,0.58033574,2.0096614,1.2846011,0.039999507,0.04,-5.887733,7.310506820678711,2.8380384,-0.0039904304,-0.006728756707161665,0.012675124
1454.5833333323392,0.58371,-1.2793078,0.008480891,-2.5481853,0.5804237,2.0097282,1.2846766,0.03999951,0.04,-5.886728,7.311834812164307,2.836987,-0.0041674264,-0.006801995914429426,0.011901234
1454.5999999990058,0.58379126,-1.279377,0.008482047,-2.5482125,0.58050466,2.0097878,1.2847463,0.039999507,0.04,-5.886067,7.313289165496826,2.8361137,-0.004334325,-0.006874498911201954,0.011193906
1454.6166666656725,0.58386576,-1.2794406,0.008483112,-2.5482364,0.58057904,2.0098455,1.2848101,0.03999951,0.04,-5.88547,7.314620494842529,2.8352306,-0.004489793,-0.006949948146939278,0.010546944
1454.6333333323391,0.5839345,-1.2794989,0.008484088,-2.5482583,0.58064747,2.009897,1.2848688,0.03999951,0.04,-5.8845696,7.315611839294434,2.834393,-0.0046288376,-0.007003049831837416,0.009943443
1454.6499999990058,0.58399767,-1.2795527,0.008484986,-2.5482793,0.58071053,2.0099447,1.284923,0.03999951,0.04,-5.884074,7.316722393035889,2.8336458,-0.004757369,-0.0070602321065962315,0.009391491
1454.6666666656724,0.58405584,-1.2796019,0.008485811,-2.5482988,0.58076847,2.0099883,1.2849727,0.03999951,0.04,-5.8835764,7.317741870880127,2.83299,-0.004877834,-0.007113625295460224,0.0088845175
1454.683333332339,0.5841095,-1.2796474,0.008486568,-2.548316,0.58082193,2.0100296,1.2850183,0.039999515,0.04,-5.883147,7.3186845779418945,2.8323147,-0.004989116,-0.0071652415208518505,0.008420286
1454.6999999990057,0.5841588,-1.2796891,0.008487265,-2.548331,0.5808711,2.0100658,1.2850603,0.039999515,0.04,-5.8825383,7.319412708282471,2.831723,-0.005088979,-0.007206178270280361,0.007987131
1454.7166666656724,0.5842041,-1.2797275,0.008487904,-2.5483453,0.5809162,2.0101016,1.285099,0.039999515,0.04,-5.8820624,7.320116996765137,2.831262,-0.0051792488,-0.007248764391988516,0.0075906944
1454.733333332339,0.58424586,-1.2797627,0.008488494,-2.548359,0.5809579,2.010131,1.285135,0.039999515,0.04,-5.88167,7.320855140686035,2.8306882,-0.005263961,-0.007278927136212587,0.0072224014
1454.7499999990057,0.5842843,-1.2797956,0.008489033,-2.5483723,0.58099633,2.0101593,1.285168,0.03999951,0.04,-5.8814545,7.321572303771973,2.8303463,-0.005344644,-0.0073231360875070095,0.0068931216
1454.7666666656723,0.5843196,-1.2798258,0.008489532,-2.5483847,0.5810315,2.0101874,1.2851981,0.039999515,0.04,-5.881152,7.32220983505249,2.8298848,-0.005419626,-0.007360052317380905,0.006585921
1454.783333332339,0.5843521,-1.2798532,0.008489988,-2.5483954,0.581064,2.0102098,1.285226,0.039999522,0.04,-5.8807936,7.322731018066406,2.8294604,-0.005487321,-0.007385514676570892,0.006301276
1454.7999999990056,0.584382,-1.279879,0.008490407,-2.5484047,0.5810938,2.0102308,1.2852514,0.039999522,0.04,-5.88057,7.323228359222412,2.829147,-0.005550201,-0.0074219489470124245,0.006046414
1454.8166666656723,0.5844095,-1.2799021,0.0084907925,-2.5484133,0.5811212,2.0102513,1.2852747,0.03999952,0.04,-5.8801785,7.3236083984375,2.8288636,-0.005604102,-0.007451226469129324,0.005807493
1454.833333332339,0.5844348,-1.2799239,0.008491147,-2.548421,0.58114654,2.0102718,1.2852963,0.03999952,0.04,-5.8799767,7.324039459228516,2.8284752,-0.0056552202,-0.007474812678992748,0.0055867024
1454.8499999990056,0.58445805,-1.2799435,0.008491473,-2.548428,0.58116984,2.0102918,1.2853163,0.03999952,0.04,-5.879618,7.32436466217041,2.828222,-0.0057008243,-0.007487994618713856,0.005377288
1454.8666666656723,0.5844795,-1.2799618,0.008491771,-2.5484347,0.5811913,2.010306,1.2853345,0.03999952,0.04,-5.8794513,7.3247575759887695,2.827909,-0.005745233,-0.0074970657005906105,0.0051839687
1454.883333332339,0.58449936,-1.2799786,0.008492045,-2.5484407,0.581211,2.0103192,1.2853519,0.039999522,0.04,-5.879358,7.325134754180908,2.827823,-0.0057839393,-0.007522817235440016,0.005013712
1454.8999999990056,0.5845176,-1.279994,0.008492298,-2.5484467,0.5812291,2.0103323,1.2853673,0.039999522,0.04,-5.8791785,7.325430393218994,2.827573,-0.005822277,-0.007544283755123615,0.0048580286
1454.9166666656722,0.5845341,-1.2800084,0.008492531,-2.5484524,0.5812458,2.0103452,1.2853812,0.03999952,0.04,-5.879061,7.325732231140137,2.8273537,-0.005855993,-0.007562487386167049,0.004713525
1454.9333333323389,0.58454937,-1.2800214,0.008492744,-2.548458,0.5812611,2.010358,1.2853947,0.03999952,0.04,-5.878892,7.326006889343262,2.8271494,-0.005886794,-0.007575010880827904,0.0045790114
1454.9499999990055,0.58456373,-1.2800333,0.00849294,-2.5484636,0.5812753,2.0103707,1.2854067,0.03999952,0.04,-5.8788075,7.326272010803223,2.8269448,-0.005919543,-0.007584676146507263,0.004455074
1454.9666666656722,0.5845765,-1.2800446,0.008493121,-2.548469,0.58128816,2.010383,1.2854176,0.03999952,0.04,-5.8786845,7.326484203338623,2.8267944,-0.0059478735,-0.007592352572828531,0.0043391925
1454.9833333323388,0.5845887,-1.280055,0.008493286,-2.5484736,0.5813001,2.0103896,1.2854276,0.03999951,0.04,-5.8785644,7.326731204986572,2.826633,-0.0059742723,-0.0075958347879350185,0.004233187
1454.9999999990055,0.5845995,-1.2800642,0.008493437,-2.5484774,0.581311,2.0103955,1.2854372,0.039999515,0.04,-5.651347,7.199671268463135,2.8734527,0.0,-0.0,0.0
1455.0166666656721,0.5845995,-1.2800642,0.008493437,-2.5484774,0.581311,2.0103955,1.2854372,0.039999515,0.04,-5.8789077,7.32736873626709,2.8256369,0.0,-0.0,0.0
1455.0333333323388,0.5845995,-1.2800642,0.008493437,-2.5484774,0.581311,2.0103955,1.2854372,0.039999515,0.04,-5.8789077,7.32736873626709,2.8256369,0.0,-0.0,0.0
1455.0499999990054,0.5845995,-1.2800642,0.008493437,-2.5484774,0.581311,2.0103955,1.2854372,0.039999515,0.04,-5.8789077,7.32736873626709,2.8256369,0.0,-0.0,0.0
1455.066666665672,0.5845995,-1.2800642,0.008493437,-2.5484774,0.581311,2.0103955,1.2854372,0.039999515,0.04,-5.8789077,7.32736873626709,2.8256369,0.0,-0.0,0.0
1455.0833333323387,0.5845995,-1.2800642,0.008493437,-2.5484774,0.581311,2.0103955,1.2854372,0.039999515,0.04,-5.8789077,7.32736873626709,2.8256369,0.0,-0.0,0.0
1455.0999999990054,0.5845995,-1.2800642,0.008493437,-2.5484774,0.581311,2.0103955,1.2854372,0.039999515,0.04,-5.8789077,7.32736873626709,2.8256369,0.0,-0.0,0.0
1455.116666665672,0.5845995,-1.2800642,0.008493437,-2.5484774,0.581311,2.0103955,1.2854372,0.039999515,0.04,-5.8789077,7.32736873626709,2.8256369,0.0,-0.0,0.0
1455.1333333323387,0.5845995,-1.2800642,0.008493437,-2.5484774,0.581311,2.0103955,1.2854372,0.039999515,0.04,-5.8789077,7.32736873626709,2.8256369,0.0,-0.0,0.0
1455.1499999990053,0.5845995,-1.2800642,0.008493437,-2.5484774,0.581311,2.0103955,1.2854372,0.039999515,0.04,-5.8789077,7.32736873626709,2.8256369,0.0,-0.0,0.0
1455.166666665672,0.5845995,-1.2800642,0.008493437,-2.5484774,0.581311,2.0103955,1.2854372,0.039999515,0.04,-5.8789077,7.32736873626709,2.8256369,0.0,-0.0,0.0
1455.1833333323386,0.5845995,-1.2800642,0.008493437,-2.5484774,0.581311,2.0103955,1.2854372,0.039999515,0.04,-5.8789077,7.32736873626709,2.8256369,0.0,-0.0,0.0
1455.1999999990053,0.5845995,-1.2800642,0.008493437,-2.5484774,0.581311,2.0103955,1.2854372,0.039999515,0.04,-5.8789077,7.32736873626709,2.8256369,0.0,-0.0,0.0
1455.216666665672,0.5845995,-1.2800642,0.008493437,-2.5484774,0.581311,2.0103955,1.2854372,0.039999515,0.04,-5.8789077,7.32736873626709,2.8256369,0.0,-0.0,0.0
1455.2333333323386,0.5845995,-1.2800642,0.008493437,-2.5484774,0.581311,2.0103955,1.2854372,0.039999515,0.04,-5.8789077,7.32736873626709,2.8256369,0.0,-0.0,0.0
1455.2499999990052,0.5845995,-1.2800642,0.008493437,-2.5484774,0.581311,2.0103955,1.2854372,0.039999515,0.04,-5.8789077,7.32736873626709,2.8256369,0.0,-0.0,0.0
1455.266666665672,0.5845995,-1.2800642,0.008493437,-2.5484774,0.581311,2.0103955,1.2854372,0.039999515,0.04,-5.8789077,7.32736873626709,2.8256369,0.0,-0.0,0.0
1455.2833333323385,0.5845995,-1.2800642,0.008493437,-2.5484774,0.581311,2.0103955,1.2854372,0.039999515,0.04,-5.8789077,7.32736873626709,2.8256369,0.0,-0.0,0.0
1455.2999999990052,0.5845995,-1.2800642,0.008493437,-2.5484774,0.581311,2.0103955,1.2854372,0.039999515,0.04,-5.8789077,7.32736873626709,2.8256369,0.0,-0.0,0.0
1455.3166666656718,0.5845995,-1.2800642,0.008493437,-2.5484774,0.581311,2.0103955,1.2854372,0.039999515,0.04,-5.8789077,7.32736873626709,2.8256369,0.0,-0.0,0.0
1455.3333333323385,0.5845995,-1.2800642,0.008493437,-2.5484774,0.581311,2.0103955,1.2854372,0.039999515,0.04,-5.8789077,7.32736873626709,2.8256369,0.0,-0.0,0.0
1455.3499999990051,0.5845995,-1.2800642,0.008493437,-2.5484774,0.581311,2.0103955,1.2854372,0.039999515,0.04,-5.8789077,7.32736873626709,2.8256369,0.0,-0.0,0.0
1455.3666666656718,0.5845995,-1.2800642,0.008493437,-2.5484774,0.581311,2.0103955,1.2854372,0.039999515,0.04,-5.8789077,7.32736873626709,2.8256369,0.0,-0.0,0.0
1455.3833333323385,0.5845995,-1.2800642,0.008493437,-2.5484774,0.581311,2.0103955,1.2854372,0.039999515,0.04,-5.8789077,7.32736873626709,2.8256369,0.0,-0.0,0.0
1455.399999999005,0.5845995,-1.2800642,0.008493437,-2.5484774,0.581311,2.0103955,1.2854372,0.039999515,0.04,-5.8789077,7.32736873626709,2.8256369,0.0,-0.0,0.0
1455.4166666656718,0.5845995,-1.2800642,0.008493437,-2.5484774,0.581311,2.0103955,1.2854372,0.039999515,0.04,-5.8789077,7.32736873626709,2.8256369,0.0,-0.0,0.0
1455.4333333323384,0.5845995,-1.2800642,0.008493437,-2.5484774,0.581311,2.0103955,1.2854372,0.039999515,0.04,-5.8789077,7.32736873626709,2.8256369,0.0,-0.0,0.0
1455.449999999005,0.5845995,-1.2800642,0.008493437,-2.5484774,0.581311,2.0103955,1.2854372,0.039999515,0.04,-5.8789077,7.32736873626709,2.8256369,0.0,-0.0,0.0
1455.4666666656717,0.5845995,-1.2800642,0.008493437,-2.5484774,0.581311,2.0103955,1.2854372,0.039999515,0.04,-5.8789077,7.32736873626709,2.8256369,0.0,-0.0,0.0
1455.4833333323384,0.5845995,-1.2800642,0.008493437,-2.5484774,0.581311,2.0103955,1.2854372,0.039999515,0.04,-5.8789077,7.32736873626709,2.8256369,0.0,-0.0,0.0
1455.499999999005,0.5845995,-1.2800642,0.008493437,-2.5484774,0.581311,2.0103955,1.2854372,0.039999515,0.04,-5.8789077,7.32736873626709,2.8256369,0.0,-0.0,0.0
1455.5166666656717,0.5845995,-1.2800642,0.008493437,-2.5484774,0.581311,2.0103955,1.2854372,0.039999515,0.04,-5.8789077,7.32736873626709,2.8256369,0.0,-0.0,0.0
1455.5333333323383,0.5845995,-1.2800642,0.008493437,-2.5484774,0.581311,2.0103955,1.2854372,0.039999515,0.04,-5.8789077,7.32736873626709,2.8256369,0.0,-0.0,0.0
1455.549999999005,0.5845995,-1.2800642,0.008493437,-2.5484774,0.581311,2.0103955,1.2854372,0.039999515,0.04,-5.8789077,7.32736873626709,2.8256369,0.0,-0.0,0.0
1455.5666666656716,0.5845995,-1.2800642,0.008493437,-2.5484774,0.581311,2.0103955,1.2854372,0.039999515,0.04,-5.8789077,7.32736873626709,2.8256369,0.0,-0.0,0.0
1455.5833333323383,0.5845995,-1.2800642,0.008493437,-2.5484774,0.581311,2.0103955,1.2854372,0.039999515,0.04,-5.8789077,7.32736873626709,2.8256369,0.0,-0.0,0.0
1455.599999999005,0.5845995,-1.2800642,0.008493437,-2.5484774,0.581311,2.0103955,1.2854372,0.039999515,0.04,-5.8789077,7.32736873626709,2.8256369,0.0,-0.0,0.0
1455.6166666656716,0.5845995,-1.2800642,0.008493437,-2.5484774,0.581311,2.0103955,1.2854372,0.039999515,0.04,-5.8789077,7.32736873626709,2.8256369,0.0,-0.0,0.0
1455.6333333323382,0.5845995,-1.2800642,0.008493437,-2.5484774,0.581311,2.0103955,1.2854372,0.039999515,0.04,-5.8789077,7.32736873626709,2.8256369,0.0,-0.0,0.0
1455.6499999990049,0.5845995,-1.2800642,0.008493437,-2.5484774,0.581311,2.0103955,1.2854372,0.039999515,0.04,-5.8789077,7.32736873626709,2.8256369,0.0,-0.0,0.0
1455.6666666656715,0.5845995,-1.2800642,0.008493437,-2.5484774,0.581311,2.0103955,1.2854372,0.039999515,0.04,-5.8789077,7.32736873626709,2.8256369,0.0,-0.0,0.0
1455.6833333323382,0.5845995,-1.2800642,0.008493437,-2.5484774,0.581311,2.0103955,1.2854372,0.039999515,0.04,-5.8789077,7.32736873626709,2.8256369,0.0,-0.0,0.0
1455.6999999990048,0.5845995,-1.2800642,0.008493437,-2.5484774,0.581311,2.0103955,1.2854372,0.039999515,0.04,-5.8789077,7.32736873626709,2.8256369,0.0,-0.0,0.0
1455.7166666656715,0.5845995,-1.2800642,0.008493437,-2.5484774,0.581311,2.0103955,1.2854372,0.039999515,0.04,-5.8789077,7.32736873626709,2.8256369,0.0,-0.0,0.0
1455.7333333323381,0.5845995,-1.2800642,0.008493437,-2.5484774,0.581311,2.0103955,1.2854372,0.039999515,0.04,-5.8789077,7.32736873626709,2.8256369,0.0,-0.0,0.0
1455.7499999990048,0.5845995,-1.2800642,0.008493437,-2.5484774,0.581311,2.0103955,1.2854372,0.039999515,0.04,-5.8789077,7.32736873626709,2.8256369,0.0,-0.0,0.0
1455.7666666656714,0.5845995,-1.2800642,0.008493437,-2.5484774,0.581311,2.0103955,1.2854372,0.039999515,0.04,-5.8789077,7.32736873626709,2.8256369,0.0,-0.0,0.0
1455.783333332338,0.5845995,-1.2800642,0.008493437,-2.5484774,0.581311,2.0103955,1.2854372,0.039999515,0.04,-5.8789077,7.32736873626709,2.8256369,0.0,-0.0,0.0
1455.7999999990047,0.5845995,-1.2800642,0.008493437,-2.5484774,0.581311,2.0103955,1.2854372,0.039999515,0.04,-5.8789077,7.32736873626709,2.8256369,0.0,-0.0,0.0
1455.8166666656714,0.5845995,-1.2800642,0.008493437,-2.5484774,0.581311,2.0103955,1.2854372,0.039999515,0.04,-5.8789077,7.32736873626709,2.8256369,0.0,-0.0,0.0
1455.833333332338,0.5845995,-1.2800642,0.008493437,-2.5484774,0.581311,2.0103955,1.2854372,0.039999515,0.04,-5.8789077,7.32736873626709,2.8256369,0.0,-0.0,0.0
1455.8499999990047,0.5845995,-1.2800642,0.008493437,-2.5484774,0.581311,2.0103955,1.2854372,0.039999515,0.04,-5.8789077,7.32736873626709,2.8256369,0.0,-0.0,0.0
1455.8666666656713,0.5845995,-1.2800642,0.008493437,-2.5484774,0.581311,2.0103955,1.2854372,0.039999515,0.04,-5.8789077,7.32736873626709,2.8256369,0.0,-0.0,0.0
1455.883333332338,0.5845995,-1.2800642,0.008493437,-2.5484774,0.581311,2.0103955,1.2854372,0.039999515,0.04,-5.8789077,7.32736873626709,2.8256369,0.0,-0.0,0.0
1455.8999999990046,0.5845995,-1.2800642,0.008493437,-2.5484774,0.581311,2.0103955,1.2854372,0.039999515,0.04,-5.8789077,7.32736873626709,2.8256369,0.0,-0.0,0.0
1455.9166666656713,0.5845995,-1.2800642,0.008493437,-2.5484774,0.581311,2.0103955,1.2854372,0.039999515,0.04,-5.8789077,7.32736873626709,2.8256369,0.0,-0.0,0.0
1455.933333332338,0.5845995,-1.2800642,0.008493437,-2.5484774,0.581311,2.0103955,1.2854372,0.039999515,0.04,-5.8789077,7.32736873626709,2.8256369,0.0,-0.0,0.0
1455.9499999990046,0.5845995,-1.2800642,0.008493437,-2.5484774,0.581311,2.0103955,1.2854372,0.039999515,0.04,-5.8789077,7.32736873626709,2.8256369,0.0,-0.0,0.0
1455.9666666656713,0.5845995,-1.2800642,0.008493437,-2.5484774,0.581311,2.0103955,1.2854372,0.039999515,0.04,-5.8789077,7.32736873626709,2.8256369,0.0,-0.0,0.0
1455.983333332338,0.5845995,-1.2800642,0.008493437,-2.5484774,0.581311,2.0103955,1.2854372,0.039999515,0.04,-5.8789077,7.32736873626709,2.8256369,0.0,-0.0,0.0
1455.9999999990046,0.5845995,-1.2800642,0.008493437,-2.5484774,0.581311,2.0103955,1.2854372,0.039999515,0.04,-5.8789077,7.32736873626709,2.8256369,0.0,-0.0,0.0
1456.0166666656712,0.5845995,-1.2800642,0.008493437,-2.5484774,0.581311,2.0103955,1.2854372,0.039999515,0.04,-5.8789077,7.32736873626709,2.8256369,0.0,-0.0,0.0
1456.0333333323379,0.5845995,-1.2800642,0.008493437,-2.5484774,0.581311,2.0103955,1.2854372,0.039999515,0.04,-5.8789077,7.32736873626709,2.8256369,0.0,-0.0,0.0
1456.0499999990045,0.5845995,-1.2800642,0.008493437,-2.5484774,0.581311,2.0103955,1.2854372,0.039999515,0.04,-5.8789077,7.32736873626709,2.8256369,0.0,-0.0,0.0
1456.0666666656712,0.5845995,-1.2800642,0.008493437,-2.5484774,0.581311,2.0103955,1.2854372,0.039999515,0.04,-5.8789077,7.32736873626709,2.8256369,0.0,-0.0,0.0
1456.0833333323378,0.5845995,-1.2800642,0.008493437,-2.5484774,0.581311,2.0103955,1.2854372,0.039999515,0.04,-5.8789077,7.32736873626709,2.8256369,0.0,-0.0,0.0
1456.0999999990045,0.5845995,-1.2800642,0.008493437,-2.5484774,0.581311,2.0103955,1.2854372,0.039999515,0.04,-5.8789077,7.32736873626709,2.8256369,0.0,-0.0,0.0
1456.1166666656711,0.5845995,-1.2800642,0.008493437,-2.5484774,0.581311,2.0103955,1.2854372,0.039999515,0.04,-5.8789077,7.32736873626709,2.8256369,0.0,-0.0,0.0
1456.1333333323378,0.5845995,-1.2800642,0.008493437,-2.5484774,0.581311,2.0103955,1.2854372,0.039999515,0.04,-5.8789077,7.32736873626709,2.8256369,0.0,-0.0,0.0
1456.1499999990044,0.5845995,-1.2800642,0.008493437,-2.5484774,0.581311,2.0103955,1.2854372,0.039999515,0.04,-5.8789077,7.32736873626709,2.8256369,0.0,-0.0,0.0
1456.166666665671,0.5845995,-1.2800642,0.008493437,-2.5484774,0.581311,2.0103955,1.2854372,0.039999515,0.04,-5.8789077,7.32736873626709,2.8256369,0.0,-0.0,0.0
1456.1833333323377,0.5845995,-1.2800642,0.008493437,-2.5484774,0.581311,2.0103955,1.2854372,0.039999515,0.04,-5.8789077,7.32736873626709,2.8256369,0.0,-0.0,0.0
1456.1999999990044,0.5845995,-1.2800642,0.008493437,-2.5484774,0.581311,2.0103955,1.2854372,0.039999515,0.04,-5.8789077,7.32736873626709,2.8256369,0.0,-0.0,0.0
1456.216666665671,0.5845995,-1.2800642,0.008493437,-2.5484774,0.581311,2.0103955,1.2854372,0.039999515,0.04,-5.8789077,7.32736873626709,2.8256369,0.0,-0.0,0.0
1456.2333333323377,0.5845995,-1.2800642,0.008493437,-2.5484774,0.581311,2.0103955,1.2854372,0.039999515,0.04,-5.8789077,7.32736873626709,2.8256369,0.0,-0.0,0.0
1456.2499999990043,0.5845995,-1.2800642,0.008493437,-2.5484774,0.581311,2.0103955,1.2854372,0.039999515,0.04,-5.8789077,7.32736873626709,2.8256369,0.0,-0.0,0.0
1456.266666665671,0.5845995,-1.2800642,0.008493437,-2.5484774,0.581311,2.0103955,1.2854372,0.039999515,0.04,-5.8789077,7.32736873626709,2.8256369,0.0,-0.0,0.0
1456.2833333323376,0.5845995,-1.2800642,0.008493437,-2.5484774,0.581311,2.0103955,1.2854372,0.039999515,0.04,-5.8789077,7.32736873626709,2.8256369,0.0,-0.0,0.0
1456.2999999990043,0.5845995,-1.2800642,0.008493437,-2.5484774,0.581311,2.0103955,1.2854372,0.039999515,0.04,-5.8789077,7.32736873626709,2.8256369,0.0,-0.0,0.0
1456.316666665671,0.5845995,-1.2800642,0.008493437,-2.5484774,0.581311,2.0103955,1.2854372,0.039999515,0.04,-5.8789077,7.32736873626709,2.8256369,0.0,-0.0,0.0
1456.3333333323376,0.5845995,-1.2800642,0.008493437,-2.5484774,0.581311,2.0103955,1.2854372,0.039999515,0.04,-5.8789077,7.32736873626709,2.8256369,0.0,-0.0,0.0
1456.3499999990042,0.5845995,-1.2800642,0.008493437,-2.5484774,0.581311,2.0103955,1.2854372,0.039999515,0.04,-5.8789077,7.32736873626709,2.8256369,0.0,-0.0,0.0
1456.366666665671,0.5845995,-1.2800642,0.008493437,-2.5484774,0.581311,2.0103955,1.2854372,0.039999515,0.04,-5.8789077,7.32736873626709,2.8256369,0.0,-0.0,0.0
1456.3833333323375,0.5845995,-1.2800642,0.008493437,-2.5484774,0.581311,2.0103955,1.2854372,0.039999515,0.04,-5.8789077,7.32736873626709,2.8256369,0.0,-0.0,0.0
1456.3999999990042,0.5845995,-1.2800642,0.008493437,-2.5484774,0.581311,2.0103955,1.2854372,0.039999515,0.04,-5.8789077,7.32736873626709,2.8256369,0.0,-0.0,0.0
1456.4166666656708,0.5845995,-1.2800642,0.008493437,-2.5484774,0.581311,2.0103955,1.2854372,0.039999515,0.04,-5.8789077,7.32736873626709,2.8256369,0.0,-0.0,0.0
1456.4333333323375,0.5845995,-1.2800642,0.008493437,-2.5484774,0.581311,2.0103955,1.2854372,0.039999515,0.04,-5.8789077,7.32736873626709,2.8256369,0.0,-0.0,0.0
1456.4499999990041,0.5845995,-1.2800642,0.008493437,-2.5484774,0.581311,2.0103955,1.2854372,0.039999515,0.04,-5.8789077,7.32736873626709,2.8256369,0.0,-0.0,0.0
1456.4666666656708,0.5845995,-1.2800642,0.008493437,-2.5484774,0.581311,2.0103955,1.2854372,0.039999515,0.04,-5.8789077,7.32736873626709,2.8256369,0.0,-0.0,0.0
1456.4833333323375,0.5845995,-1.2800642,0.008493437,-2.5484774,0.581311,2.0103955,1.2854372,0.039999515,0.04,-5.8789077,7.32736873626709,2.8256369,0.0,-0.0,0.0
1456.499999999004,0.5845995,-1.2800642,0.008493437,-2.5484774,0.581311,2.0103955,1.2854372,0.039999515,0.04,-5.8789077,7.32736873626709,2.8256369,0.0,-0.0,0.0
1456.5166666656708,0.5845995,-1.2800642,0.008493437,-2.5484774,0.581311,2.0103955,1.2854372,0.039999515,0.04,-5.8789077,7.32736873626709,2.8256369,0.0,-0.0,0.0
1456.5333333323374,0.5845995,-1.2800642,0.008493437,-2.5484774,0.581311,2.0103955,1.2854372,0.039999515,0.04,-5.8789077,7.32736873626709,2.8256369,0.0,-0.0,0.0
1456.549999999004,0.5845995,-1.2800642,0.008493437,-2.5484774,0.581311,2.0103955,1.2854372,0.039999515,0.04,-5.8789077,7.32736873626709,2.8256369,0.0,-0.0,0.0
1456.5666666656707,0.5845995,-1.2800642,0.008493437,-2.5484774,0.581311,2.0103955,1.2854372,0.039999515,0.04,-5.8789077,7.32736873626709,2.8256369,0.0,-0.0,0.0
1456.5833333323374,0.5845995,-1.2800642,0.008493437,-2.5484774,0.581311,2.0103955,1.2854372,0.039999515,0.04,-5.8789077,7.32736873626709,2.8256369,0.0,-0.0,0.0
1456.599999999004,0.5845995,-1.2800642,0.008493437,-2.5484774,0.581311,2.0103955,1.2854372,0.039999515,0.04,-5.8789077,7.32736873626709,2.8256369,0.0,-0.0,0.0
