rsonawane2002/My_IMU/logs_2/traj_420/imu_400hz_420.csv
time,j1,j2,j3,j4,j5,j6,j7,gripper1,gripper2,imu_ax,imu_ay,imu_az,imu_gx,imu_gy,imu_gz
0.0,0.00016700293,-0.785875,4.0107683e-05,-2.3551247,9.29385e-05,1.570997,0.786,0.04,0.04,-9.465709,-0.065368503332138,0.104634315,-5.6937456e-08,-0.0011641273740679,7.2604837e-07
0.0025,0.00016700358250000002,-0.7858577739999998,4.0108430150000013e-05,-2.3551391900000005,9.294344100000008e-05,1.570996565,0.786,0.04,0.04,-9.521031550000805,-0.0554677746402754,0.09030030974979142,-1.450899651012828e-07,-0.0013253590441332313,7.55527454500429e-07
0.005,0.000167004235,-0.7858405479999995,4.0109177300000024e-05,-2.355153680000001,9.294838200000015e-05,1.57099613,0.786,0.04,0.04,-9.57635410000161,-0.04556704594841279,0.07596630449958283,-2.3324247420256556e-07,-0.0014865907141985626,7.850065390008579e-07
0.0075,0.00016700488750000003,-0.7858233219999993,4.0109924450000035e-05,-2.3551681700000007,9.295332300000022e-05,1.570995695,0.786,0.04,0.04,-9.631676650002415,-0.035666317256550194,0.061632299249374245,-3.2139498330384837e-07,-0.0016478223842638937,8.14485623501287e-07
0.01,0.00016700554000000003,-0.7858060959999991,4.0110671600000046e-05,-2.355182660000001,9.295826400000029e-05,1.57099526,0.786,0.04,0.04,-9.686999200003221,-0.025765588564687587,0.04729829399916565,-4.0954749240513117e-07,-0.001809054054329225,8.43964708001716e-07
0.0125,0.00016700619250000005,-0.7857888699999988,4.011141875000006e-05,-2.3551971500000013,9.296320500000037e-05,1.570994825,0.786,0.04,0.04,-9.742321750004026,-0.01586485987282498,0.03296428874895706,-4.977000015064139e-07,-0.001970285724394556,8.734437925021449e-07
0.015,0.00016700684500000005,-0.7857716439999985,4.011216590000007e-05,-2.3552116400000016,9.296814600000044e-05,1.57099439,0.786,0.04,0.04,-9.79764430000483,-0.0059641311809623815,0.018630283498748484,-5.858525106076967e-07,-0.0021315173944598874,9.029228770025739e-07
0.0175,0.00016700802500000018,-0.7857548619999986,4.0112219949999875e-05,-2.355225735000001,9.297205450000018e-05,1.57099396,0.786,0.04,0.04,-9.83442009999997,0.0006355150457236314,0.009002688769980076,-8.678492575621261e-07,-0.0022885100799750176,9.202306564993473e-07
0.02,0.00016701026000000017,-0.7857389679999988,4.011088779999989e-05,-2.355239040000001,9.297389800000014e-05,1.57099354,0.786,0.04,0.04,-9.834102399999974,0.0006329963449386584,0.00878791507998281,-1.5375344800535988e-06,-0.0024370247963934467,9.131958259994369e-07
0.0225,0.00016701249500000013,-0.785723073999999,4.0109555649999914e-05,-2.355252345000001,9.297574150000012e-05,1.57099312,0.786,0.04,0.04,-9.83378469999998,0.0006304776441536855,0.008573141389985545,-2.2072197025450715e-06,-0.0025855395128118754,9.061609954995265e-07
0.025,0.00016701473000000012,-0.7857071799999992,4.010822349999993e-05,-2.3552656500000007,9.29775850000001e-05,1.5709927,0.786,0.04,0.04,-9.833466999999983,0.0006279589433687125,0.008358367699988281,-2.8769049250365447e-06,-0.0027340542292303045,8.991261649996161e-07
0.0275,0.00016701696500000008,-0.7856912859999994,4.0106891349999946e-05,-2.3552789550000006,9.297942850000008e-05,1.57099228,0.786,0.04,0.04,-9.833149299999986,0.0006254402425837397,0.008143594009991015,-3.5465901475280175e-06,-0.0028825689456487336,8.920913344997057e-07
0.03,0.00016701920000000006,-0.7856753919999995,4.010555919999996e-05,-2.35529226,9.298127200000005e-05,1.57099186,0.786,0.04,0.04,-9.83283159999999,0.0006229215417987667,0.00792882031999375,-4.21627537001949e-06,-0.0030310836620671623,8.850565039997952e-07
0.0325,0.00016702143500000002,-0.7856594979999997,4.010422704999998e-05,-2.355305565,9.298311550000003e-05,1.57099144,0.786,0.04,0.04,-9.832513899999993,0.0006204028410137938,0.007714046629996484,-4.885960592510964e-06,-0.0031795983784855915,8.780216734998848e-07
0.035,0.00016702642200000007,-0.7856444499999998,4.009931299999991e-05,-2.3553181,9.297997299999993e-05,1.57099101,0.786,0.04,0.04,-9.832251999999997,0.0006170252745504715,0.0075078041299974285,-6.274396100022257e-06,-0.0033205979736538878,7.881303574213278e-07
0.0375,0.0001670327850000001,-0.7856298249999998,4.009260799999991e-05,-2.35533025,9.297433749999992e-05,1.570990575,0.786,0.04,0.04,-9.832017999999996,0.000613218275247998,0.007305827224997245,-8.022206750023843e-06,-0.0034578400081973224,6.568107985557086e-07
0.04,0.0001670391480000001,-0.7856151999999997,4.00859029999999e-05,-2.3553424,9.296870199999991e-05,1.57099014,0.786,0.04,0.04,-9.831783999999995,0.0006094112759455246,0.007103850319997061,-9.770017400025434e-06,-0.003595082042740757,5.25491239690089e-07
0.0425,0.0001670455110000001,-0.7856005749999998,4.0079197999999894e-05,-2.35535455,9.296306649999991e-05,1.5709897050000001,0.786,0.04,0.04,-9.831549999999996,0.0006056042766430512,0.006901873414996877,-1.1517828050027026e-05,-0.003732324077284192,3.941716808244695e-07
0.045,0.00016705187400000012,-0.7855859499999998,4.007249299999989e-05,-2.3553667000000003,9.29574309999999e-05,1.57098927,0.786,0.04,0.04,-9.831315999999996,0.0006017972773405776,0.006699896509996694,-1.3265638700028612e-05,-0.0038695661118276267,2.628521219588503e-07
0.0475,0.00016705823700000012,-0.7855713249999997,4.0065787999999884e-05,-2.35537885,9.29517954999999e-05,1.570988835,0.786,0.04,0.04,-9.831081999999995,0.0005979902780381042,0.00649791960499651,-1.5013449350030202e-05,-0.004006808146371062,1.315325630932308e-07
0.05,0.00016706460000000026,-0.7855566999999998,4.005908299999969e-05,-2.355391,9.294615999999965e-05,1.5709884,0.786,0.04,0.04,-9.830847999999994,0.0005941832787356156,0.00629594269999703,-1.6761260000060463e-05,-0.004144050180914306,2.130042244175917e-10
0.0525,0.00016707874950000048,-0.7855432044999996,4.004227999999945e-05,-2.3554020550000003,9.292678449999937e-05,1.57098798,0.786,0.04,0.04,-9.830589699999992,0.0005895464535567882,0.006132622894994653,-2.0085155450108828e-05,-0.004270853428174211,-3.0666440641454747e-07
0.055,0.00016709289900000067,-0.7855297089999994,4.00254769999992e-05,-2.3554131100000006,9.290740899999908e-05,1.57098756,0.786,0.04,0.04,-9.830331399999988,0.0005849096283779607,0.005969303089992276,-2.34090509001572e-05,-0.004397656675434116,-6.135418170535134e-07
0.0575,0.0001671070485000009,-0.7855162134999991,4.000867399999896e-05,-2.355424165000001,9.28880334999988e-05,1.57098714,0.786,0.04,0.04,-9.830073099999984,0.0005802728031991332,0.0058059832849898995,-2.673294635020557e-05,-0.0045244599226940225,-9.204192276924794e-07
0.06,0.00016712119800000108,-0.7855027179999989,3.999187099999872e-05,-2.355435220000001,9.286865799999852e-05,1.57098672,0.786,0.04,0.04,-9.82981479999998,0.0005756359780203058,0.005642663479987523,-3.0056841800253935e-05,-0.004651263169953927,-1.2272966383314446e-06
0.0625,0.0001671353475000013,-0.7854892224999988,3.997506799999847e-05,-2.355446275000001,9.284928249999824e-05,1.5709863,0.786,0.04,0.04,-9.829556499999978,0.0005709991528414783,0.005479343674985146,-3.338073725030231e-05,-0.004778066417213833,-1.5341740489704104e-06
0.065,0.0001671494970000015,-0.7854757269999986,3.995826499999823e-05,-2.3554573300000015,9.282990699999796e-05,1.57098588,0.786,0.04,0.04,-9.829298199999974,0.0005663623276626509,0.0053160238699827694,-3.670463270035068e-05,-0.004904869664473738,-1.8410514596093765e-06
0.0675,0.00016716778450000296,-0.7854625754999986,3.993609464999635e-05,-2.355468040000001,9.28037774999956e-05,1.570985455,0.785999905,0.04,0.03999999975,-9.829059349999978,0.0005611269734791813,0.005154388289982439,-4.076065360061253e-05,-0.005028439033789449,-2.1839151550460303e-06
0.07,0.0001671943480000026,-0.7854501119999988,3.990318959999677e-05,-2.355478060000001,9.276413999999612e-05,1.57098502,0.78599962,0.04,0.039999999,-9.828859399999981,0.0005546945612870482,0.004996121159984454,-4.6280925400542244e-05,-0.005145540647220123,-2.5987514200407486e-06
0.0725,0.00016722091150000228,-0.785437648499999,3.987028454999719e-05,-2.355488080000001,9.272450249999661e-05,1.570984585,0.785999335,0.04,0.03999999825,-9.828659449999984,0.0005482621490949151,0.00483785402998647,-5.180119720047193e-05,-0.005262642260650797,-3.0135876850354648e-06
0.075,0.00016724747500000193,-0.7854251849999991,3.983737949999761e-05,-2.355498100000001,9.268486499999712e-05,1.57098415,0.78599905,0.04,0.0399999975,-9.828459499999985,0.000541829736902782,0.004679586899988485,-5.732146900040164e-05,-0.005379743874081471,-3.428423950030183e-06
0.0775,0.0001672740385000016,-0.7854127214999993,3.980447444999803e-05,-2.3555081200000005,9.264522749999762e-05,1.5709837150000001,0.785998765,0.04,0.03999999675,-9.828259549999988,0.000535397324710649,0.0045213197699904995,-6.284174080033136e-05,-0.005496845487512145,-3.843260215024901e-06
0.08,0.00016730060200000125,-0.7854002579999995,3.977156939999844e-05,-2.3555181400000005,9.260558999999813e-05,1.57098328,0.78599848,0.04,0.039999996,-9.82805959999999,0.0005289649125185159,0.004363052639992515,-6.836201260026108e-05,-0.0056139471009428185,-4.25809648001962e-06
0.0825,0.00016732716550000093,-0.7853877944999996,3.973866434999886e-05,-2.3555281600000004,9.256595249999863e-05,1.570982845,0.785998195,0.04,0.03999999525,-9.827859649999994,0.0005225325003263827,0.00420478550999453,-7.388228440019078e-05,-0.0057310487143734925,-4.672932745014339e-06
0.085,0.00016736567300000178,-0.7853759659999996,3.9690269399997754e-05,-2.3555375500000006,9.250538459999716e-05,1.57098259,0.78599791,0.04,0.039999995,-9.827646499999991,0.0005148267839100362,0.004065045849994778,-8.026587550027275e-05,-0.005842229118574931,-5.34494305003204e-06
0.08750000000000001,0.00016741015250000242,-0.7853644549999994,3.9634129499996935e-05,-2.3555466250000006,9.243435149999612e-05,1.570982425,0.785997625,0.04,0.039999995,-9.827426749999988,0.0005064844153816698,0.00393456992499288,-8.708112625037192e-05,-0.005950448918162156,-6.145540375043691e-06
0.09,0.00016745463200000307,-0.7853529439999992,3.9577989599996116e-05,-2.355555700000001,9.236331839999509e-05,1.57098226,0.78599734,0.04,0.039999995,-9.827206999999985,0.0004981420468533034,0.0038040939999909817,-9.389637700047107e-05,-0.0060586687177493805,-6.946137700055338e-06
0.0925,0.00016749911150000372,-0.785341432999999,3.95218496999953e-05,-2.355564775000001,9.229228529999405e-05,1.570982095,0.7859970550000001,0.04,0.039999995,-9.826987249999982,0.000489799678324937,0.0036736180749890827,-0.00010071162775057025,-0.006166888517336605,-7.746735025066989e-06
0.095,0.00016754359100000437,-0.785329921999999,3.9465709799994486e-05,-2.355573850000001,9.222125219999302e-05,1.57098193,0.78599677,0.04,0.039999995,-9.826767499999978,0.0004814573097965706,0.003543142149987184,-0.00010752687850066944,-0.00627510831692383,-8.547332350078639e-06
0.0975,0.000167588070500005,-0.7853184109999988,3.940956989999367e-05,-2.355582925000001,9.215021909999199e-05,1.570981765,0.785996485,0.04,0.039999995,-9.826547749999975,0.0004731149412682042,0.003412666224985285,-0.00011434212925076861,-0.006383328116511055,-9.34792967509029e-06
0.1,0.00016763255000000875,-0.7853068999999987,3.935342999998884e-05,-2.355592000000001,9.207918599998532e-05,1.5709816,0.7859961999999999,0.04,0.039999995,-9.826327999999979,0.0004647725727395447,0.003282190299984429,-0.00012115738000127396,-0.006491547916097172,-1.0148527000166495e-05
0.10250000000000001,0.00016770123500000787,-0.7852962109999988,3.926585354998996e-05,-2.3556005800000013,9.196390649998678e-05,1.570981615,0.78599563,0.04,0.03999999575,-9.82615729999998,0.0004541284986759202,0.0031599029499859857,-0.00013116238450114657,-0.006591072049934615,-1.1456097400149847e-05
0.105,0.000167769920000007,-0.7852855219999989,3.9178277099991075e-05,-2.355609160000001,9.184862699998826e-05,1.5709816300000001,0.78599506,0.04,0.0399999965,-9.825986599999982,0.0004434844246122958,0.0030376155999875436,-0.00014116738900101913,-0.0066905961837720575,-1.2763667800133191e-05
0.1075,0.0001678386050000061,-0.7852748329999991,3.9090700649992194e-05,-2.355617740000001,9.173334749998972e-05,1.570981645,0.78599449,0.04,0.03999999725,-9.825815899999984,0.00043284035054867134,0.0029153282499891006,-0.00015117239350089174,-0.0067901203176095005,-1.4071238200116544e-05
0.11,0.00016790729000000523,-0.7852641439999992,3.9003124199993307e-05,-2.3556263200000007,9.161806799999119e-05,1.57098166,0.78599392,0.04,0.039999998,-9.825645199999986,0.00042219627648504683,0.0027930408999906576,-0.00016117739800076438,-0.0068896444514469435,-1.5378808600099896e-05
0.1125,0.00016797597500000437,-0.7852534549999993,3.8915547749994426e-05,-2.3556349000000005,9.150278849999265e-05,1.570981675,0.78599335,0.04,0.03999999875,-9.825474499999988,0.0004115522024214224,0.0026707535499922146,-0.00017118240250063696,-0.006989168585284386,-1.6686379000083246e-05
0.115,0.0001680446600000035,-0.7852427659999994,3.882797129999554e-05,-2.355643480000001,9.138750899999413e-05,1.57098169,0.7859927800000001,0.04,0.0399999995,-9.825303799999991,0.00040090812835779787,0.0025484661999937716,-0.0001811874070005096,-0.007088692719121829,-1.79939494000666e-05
0.11750000000000001,0.00016812372800000425,-0.7852323199999995,3.872686894999452e-05,-2.3556517300000004,9.125422294999277e-05,1.570981725,0.7859921950000001,0.04,0.04,-9.825159799999996,0.00039091614598827864,0.0024295968349952106,-0.0001919688275005273,-0.0071862335549707,-1.931004775005699e-05
0.12,0.00016822356200000435,-0.7852223599999996,3.859871479999441e-05,-2.3556593200000004,9.108492379999261e-05,1.5709818,0.78599158,0.04,0.04,-9.825069199999996,0.00038222834700672075,0.0023175634399951093,-0.00020430308000053845,-0.0072798077948431844,-2.0643202000058196e-05
0.1225,0.00016832339600000444,-0.7852123999999996,3.847056064999429e-05,-2.3556669100000005,9.091562464999245e-05,1.570981875,0.785990965,0.04,0.04,-9.824978599999996,0.00037354054802516285,0.002205530044995007,-0.00021663733250054966,-0.00737338203471567,-2.197635625005941e-05
0.125,0.00016842323000000454,-0.7852024399999995,3.834240649999417e-05,-2.3556745000000006,9.07463254999923e-05,1.57098195,0.78599035,0.04,0.04,-9.824887999999996,0.00036485274904360496,0.0020934966499949054,-0.0002289715850005609,-0.007466956274588155,-2.3309510500060624e-05
0.1275,0.00016852306400000464,-0.7851924799999995,3.8214252349994054e-05,-2.3556820900000006,9.057702634999215e-05,1.570982025,0.7859897349999999,0.04,0.04,-9.824797399999996,0.000356164950062047,0.001981463254994803,-0.00024130583750057213,-0.00756053051446064,-2.464266475006184e-05
0.13,0.00016862289800000473,-0.7851825199999996,3.8086098199993934e-05,-2.3556896800000002,9.0407727199992e-05,1.5709821,0.78598912,0.04,0.04,-9.824706799999996,0.0003474771510804891,0.0018694298599947012,-0.00025364009000058334,-0.007654104754333126,-2.597581900006305e-05
0.1325,0.00016872273200000483,-0.7851725599999995,3.795794404999382e-05,-2.3556972700000003,9.023842804999184e-05,1.570982175,0.785988505,0.04,0.04,-9.824616199999996,0.0003387893520989312,0.0017573964649945993,-0.0002659743425005946,-0.00774767899420561,-2.7308973250064263e-05
0.135,0.00016884841200000806,-0.7851630359999995,3.77961247999896e-05,-2.3557041800000005,9.002402809998621e-05,1.57098226,0.7859876899999999,0.04,0.04,-9.82447589999999,0.00032794803264475625,0.0016625010099949747,-0.00028090475100094465,-0.007836746657272244,-2.8947588600104277e-05
0.1375,0.0001689870150000101,-0.7851537299999993,3.7617472999987e-05,-2.3557107500000005,8.978707774998276e-05,1.57098235,0.7859867749999999,0.04,0.04,-9.824310749999988,0.0003160299529545078,0.0015761745249937185,-0.0002971332375011808,-0.007923561031936442,-3.0738934500130344e-05
0.14,0.00016912561800001212,-0.7851444239999992,3.74388211999844e-05,-2.3557173200000006,8.955012739997931e-05,1.5709824399999999,0.7859858599999999,0.04,0.04,-9.824145599999985,0.00030411187326425933,0.0014898480399924622,-0.000313361724001417,-0.00801037540660064,-3.253028040015642e-05
0.14250000000000002,0.00016926422100001413,-0.785135117999999,3.72601693999818e-05,-2.3557238900000006,8.931317704997587e-05,1.57098253,0.7859849449999998,0.04,0.04,-9.823980449999983,0.0002921937935740109,0.0014035215549912058,-0.00032959021050165316,-0.008097189781264839,-3.4321626300182484e-05
0.145,0.00016940282400001614,-0.7851258119999989,3.70815175999792e-05,-2.3557304600000006,8.907622669997242e-05,1.5709826199999999,0.7859840299999998,0.04,0.04,-9.82381529999998,0.0002802757138837626,0.0013171950699899506,-0.00034581869700188916,-0.008184004155929035,-3.611297220020853e-05
0.1475,0.00016954142700001816,-0.7851165059999988,3.69028657999766e-05,-2.3557370300000007,8.883927634996897e-05,1.57098271,0.7859831149999998,0.04,0.04,-9.823650149999978,0.00026835763419351416,0.0012308685849886942,-0.00036204718350212533,-0.008270818530593234,-3.7904318100234604e-05
0.15,0.000169680030000027,-0.7851071999999988,3.6724213999965104e-05,-2.3557436000000007,8.86023259999536e-05,1.5709828,0.7859821999999997,0.04,0.04,-9.823484999999982,0.00025643955450319175,0.0011445420999884016,-0.0003782756700028387,-0.008357632905256523,-3.969566400031768e-05
0.1525,0.00016986552600002462,-0.7850984549999989,3.648439219996816e-05,-2.3557496600000007,8.828347909995766e-05,1.57098289,0.7859808499999998,0.04,0.04,-9.823361699999984,0.00024401347036303998,0.0010648368399894163,-0.00039778362000259036,-0.008438198780651628,-4.1878774800289887e-05
0.155,0.00017005102200002228,-0.7850897099999989,3.624457039997121e-05,-2.3557557200000008,8.796463219996172e-05,1.57098298,0.7859794999999998,0.04,0.04,-9.823238399999985,0.0002315873862228882,0.000985131579990431,-0.00041729157000234196,-0.008518764656046732,-4.406188560026209e-05
0.1575,0.0001702365180000199,-0.7850809649999991,3.600474859997426e-05,-2.3557617800000004,8.764578529996578e-05,1.57098307,0.7859781499999998,0.04,0.04,-9.823115099999987,0.00021916130208273643,0.0009054263199914459,-0.0004367995200020936,-0.008599330531441835,-4.6244996400234293e-05
0.16,0.00017042201400001755,-0.7850722199999992,3.576492679997732e-05,-2.3557678400000004,8.732693839996984e-05,1.57098316,0.7859767999999999,0.04,0.04,-9.822991799999988,0.00020673521794258463,0.0008257210599924607,-0.0004563074700018452,-0.00867989640683694,-4.84281072002065e-05
0.1625,0.00017060751000001518,-0.7850634749999993,3.5525104999980366e-05,-2.3557739000000004,8.70080914999739e-05,1.57098325,0.7859754499999999,0.04,0.04,-9.82286849999999,0.00019430913380243282,0.0007460157999934756,-0.00047581542000159685,-0.008760462282232045,-5.061121800017871e-05
0.165,0.00017079300600001283,-0.7850547299999995,3.528528319998342e-05,-2.3557799600000005,8.668924459997796e-05,1.57098334,0.7859740999999999,0.04,0.04,-9.822745199999991,0.00018188304966228105,0.0006663105399944903,-0.0004953233700013484,-0.00884102815762715,-5.279432880015091e-05
0.1675,0.00017099700800001468,-0.7850461434999996,3.5021297799980966e-05,-2.355785735,8.633798374997464e-05,1.57098344,0.7859726275,0.04,0.04,-9.822634799999996,0.00016900738119062587,0.0005930900314963282,-0.0005158563865013762,-0.00892041581683326,-5.514533945016374e-05
0.17,0.0001712380220000149,-0.7850378739999996,3.4708985199980686e-05,-2.3557909400000003,8.592189499997426e-05,1.57098356,0.78597091,0.04,0.04,-9.822550199999995,0.00015523254405620923,0.0005328390259962734,-0.0005384395360013967,-0.008997447043662024,-5.783214980016618e-05
0.17250000000000001,0.00017147903600001513,-0.7850296044999995,3.43966725999804e-05,-2.3557961450000002,8.550580624997388e-05,1.57098368,0.7859691925,0.04,0.04,-9.822465599999996,0.00014145770692179259,0.00047258802049621857,-0.0005610226855014173,-0.00907447827049079,-6.0518960150168626e-05
0.17500000000000002,0.00017172005000001535,-0.7850213349999995,3.408435999998011e-05,-2.35580135,8.508971749997351e-05,1.5709838,0.785967475,0.04,0.04,-9.822380999999995,0.00012768286978737597,0.00041233701499616374,-0.0005836058350014378,-0.009151509497319554,-6.320577050017107e-05
0.1775,0.00017196106400001556,-0.7850130654999995,3.377204739997983e-05,-2.3558065550000005,8.467362874997313e-05,1.57098392,0.7859657574999999,0.04,0.04,-9.822296399999994,0.00011390803265295949,0.0003520860094961095,-0.0006061889845014582,-0.009228540724148318,-6.589258085017349e-05
0.18,0.00017220207800001578,-0.7850047959999995,3.345973479997955e-05,-2.3558117600000004,8.425753999997275e-05,1.5709840400000001,0.7859640399999999,0.04,0.04,-9.822211799999994,0.00010013319551854284,0.0002918350039960547,-0.0006287721340014787,-0.009305571950977084,-6.857939120017594e-05
0.1825,0.000172443092000016,-0.7849965264999995,3.314742219997926e-05,-2.3558169650000003,8.384145124997238e-05,1.57098416,0.7859623224999999,0.04,0.04,-9.822127199999994,8.635835838412621e-05,0.00023158399849599985,-0.0006513552835014993,-0.009382603177805848,-7.126620155017838e-05
0.185,0.00017272716000002334,-0.7849885359999994,3.27788766999697e-05,-2.3558214900000003,8.33502180999596e-05,1.57098429,0.7859603149999999,0.04,0.04,-9.822049099999994,7.209369796217398e-05,0.00017314068999560418,-0.000676483940002017,-0.00945679554716305,-7.420249850023385e-05
0.1875,0.0001730327550000278,-0.7849806849999993,3.238221474996392e-05,-2.355825675,8.28214127499519e-05,1.570984425,0.7859581624999998,0.04,0.04,-9.821974249999993,5.758412589652748e-05,0.00011560122999476684,-0.0007028853500024012,-0.009529568487784893,-7.72635387502784e-05
0.19,0.00017333835000003222,-0.7849728339999992,3.198555279995815e-05,-2.3558298600000005,8.229260739994422e-05,1.57098456,0.7859560099999998,0.04,0.04,-9.821899399999992,4.307455383088097e-05,5.806176999392947e-05,-0.0007292867600027854,-0.009602341428406738,-8.032457900032295e-05
0.1925,0.00017364394500003668,-0.7849649829999991,3.1588890849952376e-05,-2.3558340450000004,8.176380204993651e-05,1.570984695,0.7859538574999997,0.04,0.04,-9.821824549999992,2.856498176523447e-05,5.223099930921286e-07,-0.0007556881700031695,-0.009675114369028582,-8.338561925036748e-05
0.195,0.00017394954000004114,-0.784957131999999,3.119222889994661e-05,-2.3558382300000007,8.123499669992882e-05,1.57098483,0.7859517049999997,0.04,0.04,-9.82174969999999,1.4055409699587963e-05,-5.701715000774521e-05,-0.0007820895800035538,-0.009747887309650427,-8.644665950041204e-05
0.1975,0.00017425513500004557,-0.7849492809999988,3.079556694994084e-05,-2.3558424150000006,8.070619134992112e-05,1.5709849649999998,0.7859495524999996,0.04,0.04,-9.821674849999988,-4.5416236605853833e-07,-0.0001145566100085826,-0.000808490990003938,-0.00982066025027227,-8.950769975045659e-05
0.2,0.00017456073000006214,-0.7849414299999988,3.0398904999919225e-05,-2.3558466000000005,8.017738599989233e-05,1.5709851,0.7859473999999995,0.04,0.04,-9.821599999999979,-1.4963734431655446e-05,-0.00017209607000649306,-0.0008348924000049743,-0.009893433190893294,-9.256874000055213e-05
0.2025,0.00017494030800006765,-0.7849338759999988,2.9905503999912045e-05,-2.3558501850000004,7.951967934988275e-05,1.570985235,0.7859447299999995,0.04,0.04,-9.821473399999977,-2.9170335622232744e-05,-0.00021175729850707024,-0.0008652767300054165,-0.009961196128291041,-9.594125900060121e-05
0.20500000000000002,0.00017531988600007317,-0.7849263219999986,2.9412102999904865e-05,-2.355853770000001,7.886197269987318e-05,1.57098537,0.7859420599999994,0.04,0.04,-9.821346799999976,-4.337693681281005e-05,-0.0002514185270076474,-0.0008956610600058586,-0.010028959065688786,-9.931377800065029e-05
0.20750000000000002,0.0001756994640000787,-0.7849187679999985,2.8918701999897682e-05,-2.355857355000001,7.820426604986362e-05,1.570985505,0.7859393899999995,0.04,0.04,-9.821220199999974,-5.7583538003387345e-05,-0.00029107975550822464,-0.0009260453900063008,-0.010096722003086532,-0.00010268629700069937
0.21,0.00017607904200008423,-0.7849112139999984,2.842530099989051e-05,-2.355860940000001,7.754655939985404e-05,1.57098564,0.7859367199999994,0.04,0.04,-9.821093599999971,-7.179013919396449e-05,-0.00033074098400880136,-0.0009564297200067427,-0.010164484940484277,-0.00010605881600074841
0.2125,0.00017645862000008976,-0.7849036599999982,2.793189999988333e-05,-2.3558645250000008,7.688885274984447e-05,1.570985775,0.7859340499999994,0.04,0.04,-9.82096699999997,-8.599674038454178e-05,-0.0003704022125093785,-0.0009868140500071847,-0.010232247877882024,-0.00010943133500079748
0.215,0.00017683819800009529,-0.7848961059999982,2.7438498999876146e-05,-2.3558681100000007,7.62311460998349e-05,1.57098591,0.7859313799999993,0.04,0.04,-9.820840399999968,-0.00010020334157511909,-0.00041006344100995567,-0.001017198380007627,-0.010300010815279769,-0.00011280385400084657
0.2175,0.0001772456850001146,-0.7848886379999982,2.690859624985085e-05,-2.355871455000001,7.552465824980109e-05,1.5709860500000001,0.7859285129999992,0.04,0.04,-9.820746649999993,-0.00011570910865416363,-0.00044870857850905736,-0.0010489383000085225,-0.010367064783365831,-0.00011637249400097984
0.22,0.00017770899000009606,-0.7848813419999985,2.630568999987498e-05,-2.3558743200000007,7.472060799983326e-05,1.5709862,0.7859252519999993,0.04,0.04,-9.820718599999994,-0.00013381320750709418,-0.00048532153400759225,-0.0010833894000071439,-0.01043270081283019,-0.00012033337600082134
0.2225,0.00017817229500007752,-0.7848740459999988,2.5702783749899106e-05,-2.355877185,7.391655774986545e-05,1.57098635,0.7859219909999995,0.04,0.04,-9.820690549999995,-0.0001519173063600247,-0.0005219344895061271,-0.0011178405000057652,-0.010498336842294549,-0.00012429425800066285
0.225,0.00017863560000005898,-0.7848667499999991,2.509987749992323e-05,-2.35588005,7.311250749989762e-05,1.5709865,0.7859187299999996,0.04,0.04,-9.820662499999996,-0.00017002140521295522,-0.000558547445004662,-0.0011522916000043866,-0.010563972871758908,-0.00012825514000050435
0.2275,0.00017909890500004047,-0.7848594539999993,2.4496971249947358e-05,-2.355882915,7.23084572499298e-05,1.57098665,0.7859154689999998,0.04,0.04,-9.820634449999998,-0.00018812550406588574,-0.0005951604005031969,-0.001186742700003008,-0.010629608901223267,-0.00013221602200034582
0.23,0.00017956221000002193,-0.7848521579999996,2.3894064999971485e-05,-2.35588578,7.150440699996197e-05,1.5709868,0.7859122079999998,0.04,0.04,-9.820606399999999,-0.0002062296029188163,-0.0006317733560017318,-0.0012211938000016294,-0.010695244930687624,-0.00013617690400018732
0.2325,0.0001800255150000034,-0.7848448619999999,2.329115874999561e-05,-2.355888645,7.070035674999415e-05,1.57098695,0.785908947,0.04,0.04,-9.82057835,-0.00022433370177174684,-0.0006683863115002665,-0.0012556449000002507,-0.010760880960151983,-0.00014013778600002882
0.23500000000000001,0.00018055132500000205,-0.7848376669999999,2.2606471999997355e-05,-2.35589084,6.978712259999648e-05,1.57098743,0.785905244,0.04,0.04,-9.820531,-0.0002416410599835116,-0.0006965285630000871,-0.0012928351500001406,-0.01082498999312538,-0.0001444220040000162
0.23750000000000002,0.00018110838750001014,-0.7848305224999998,2.18808949999868e-05,-2.3558927,6.88192964999824e-05,1.570988075,0.7859013199999999,0.04,0.04,-9.820473999999999,-0.0002585500478746827,-0.000720435462500435,-0.0013313949750007016,-0.010888335527853277,-0.00014886789000008089
0.24,0.00018166545000001825,-0.7848233779999998,2.1155317999976246e-05,-2.35589456,6.785147039996831e-05,1.57098872,0.7858973959999999,0.04,0.04,-9.820416999999999,-0.0002754590357658536,-0.0007443423620007827,-0.0013699548000012623,-0.010951681062581174,-0.00015331377600014554
0.2425,0.00018222251250002634,-0.7848162334999996,2.0429740999965686e-05,-2.35589642,6.688364429995423e-05,1.570989365,0.7858934719999998,0.04,0.04,-9.820359999999997,-0.0002923680236570246,-0.0007682492615011306,-0.0014085146250018235,-0.011015026597309071,-0.00015775966200021023
0.245,0.00018277957500003445,-0.7848090889999996,1.970416399995513e-05,-2.35589828,6.591581819994014e-05,1.57099001,0.7858895479999998,0.04,0.04,-9.820302999999996,-0.0003092770115481957,-0.0007921561610014786,-0.0014470744500023848,-0.011078372132036968,-0.00016220554800027494
0.2475,0.00018333663750004256,-0.7848019444999995,1.897858699994457e-05,-2.35590014,6.494799209992606e-05,1.5709906550000001,0.7858856239999997,0.04,0.04,-9.820245999999996,-0.00032618599943936677,-0.0008160630605018264,-0.0014856342750029458,-0.011141717666764864,-0.00016665143400033963
0.25,0.0001838937000000601,-0.7847947999999993,1.825300999992163e-05,-2.355902,6.398016599989544e-05,1.5709913,0.7858816999999996,0.04,0.04,-9.820188999999992,-0.00034309498733082794,-0.0008399699600026357,-0.001524194100003892,-0.011205063201492286,-0.00017109732000044971
0.2525,0.00018455476200007875,-0.7847877499999991,1.7391315799897334e-05,-2.35590317,6.283058759986303e-05,1.5709919600000002,0.7858770154999994,0.04,0.04,-9.82012044999999,-0.00036319363862506965,-0.0008689498160034528,-0.0015669868800050986,-0.011263182340196675,-0.00017604224550058916
0.255,0.0001852158240000974,-0.784780699999999,1.652962159987304e-05,-2.35590434,6.168100919983062e-05,1.5709926200000002,0.7858723309999993,0.04,0.04,-9.820051899999989,-0.0003832922899193113,-0.0008979296720042699,-0.001609779660006305,-0.011321301478901064,-0.00018098717100072857
0.2575,0.00018587688600011604,-0.7847736499999988,1.5667927399848743e-05,-2.3559055100000004,6.0531430799798206e-05,1.5709932800000002,0.7858676464999992,0.04,0.04,-9.819983349999987,-0.000403390941213553,-0.000926909528005087,-0.0016525724400075117,-0.011379420617605452,-0.00018593209650086801
0.26,0.00018653794800013468,-0.7847665999999985,1.4806233199824446e-05,-2.3559066800000004,5.9381852399765795e-05,1.5709939400000001,0.785862961999999,0.04,0.04,-9.819914799999985,-0.0004234895925077947,-0.0009558893840059041,-0.0016953652200087182,-0.011437539756309841,-0.00019087702200100743
0.2625,0.0001871990100001533,-0.7847595499999984,1.394453899980015e-05,-2.3559078500000004,5.8232273999733385e-05,1.5709946000000001,0.7858582774999989,0.04,0.04,-9.819846249999983,-0.00044358824380203636,-0.0009848692400067213,-0.0017381580000099249,-0.01149565889501423,-0.00019582194750114684
0.265,0.00018786007200017195,-0.7847524999999982,1.3082844799775854e-05,-2.3559090200000004,5.7082695599700974e-05,1.5709952600000003,0.7858535929999988,0.04,0.04,-9.819777699999982,-0.00046368689509627807,-0.0010138490960075383,-0.0017809507800111313,-0.011553778033718617,-0.0002007668730012863
0.2675,0.00018855927200020595,-0.7847454649999981,1.2171201529731355e-05,-2.3559099800000003,5.586643599964157e-05,1.5709959300000003,0.7858486399999985,0.04,0.04,-9.819722099999993,-0.00048328786797847127,-0.0010352381950016487,-0.0018251548650124892,-0.011611497169375571,-0.0002058815370014485
0.27,0.00018933474800017492,-0.7847384599999985,1.1159660119771834e-05,-2.35591052,5.451681399969558e-05,1.5709966200000003,0.7858431499999987,0.04,0.04,-9.819692399999994,-0.0005018934840378167,-0.0010414457800014003,-0.0018721815600106074,-0.011668416298938658,-0.00021133567800123024
0.2725,0.00019011022400014388,-0.7847314549999987,1.0148118709812313e-05,-2.35591106,5.316719199974958e-05,1.57099731,0.785837659999999,0.04,0.04,-9.819662699999995,-0.0005204991000971622,-0.0010476533650011519,-0.0019192082550087257,-0.011725335428501746,-0.000216789819001012
0.275,0.00019088570000011285,-0.784724449999999,9.136577299852793e-06,-2.3559116,5.181756999980359e-05,1.5709980000000001,0.7858321699999992,0.04,0.04,-9.819632999999996,-0.0005391047161565077,-0.0010538609500009035,-0.001966234950006844,-0.011782254558064833,-0.00022224396000079374
0.2775,0.0001916611760000818,-0.7847174449999993,8.125035889893272e-06,-2.35591214,5.04679479998576e-05,1.5709986900000001,0.7858266799999994,0.04,0.04,-9.819603299999997,-0.0005577103322158531,-0.001060068535000655,-0.002013261645004962,-0.01183917368762792,-0.00022769810100057547
0.28,0.00019243665200005078,-0.7847104399999996,7.113494479933749e-06,-2.35591268,4.911832599991161e-05,1.57099938,0.7858211899999996,0.04,0.04,-9.819573599999998,-0.0005763159482751986,-0.0010662761200004066,-0.00206028834000308,-0.011896092817191008,-0.00023315224200035723
0.28250000000000003,0.00019321212800001974,-0.7847034349999998,6.101953069974229e-06,-2.35591322,4.776870399996562e-05,1.57100007,0.7858156999999999,0.04,0.04,-9.8195439,-0.000594921564334544,-0.001072483705000158,-0.0021073150350011984,-0.011953011946754095,-0.00023860638300013897
0.28500000000000003,0.00019407095700001967,-0.7846964039999998,4.981234039974331e-06,-2.35591304,4.627332549996575e-05,1.5710007799999999,0.7858096229999999,0.04,0.04,-9.819534200000001,-0.0006159519369253059,-0.0010723316499999273,-0.0021572465300011222,-0.012009354773910054,-0.0002444051510001304
0.28750000000000003,0.00019497146250003277,-0.7846893599999998,3.805926199957227e-06,-2.3559125,4.4705068749942926e-05,1.5710015,0.7858032524999998,0.04,0.04,-9.819534500000001,-0.0006381946877817095,-0.0010689997749998787,-0.00220863042500187,-0.012065409449862464,-0.00025037623250021734
0.29,0.00019587196800004587,-0.7846823159999997,2.630618359940149e-06,-2.35591196,4.313681199992014e-05,1.57100222,0.7857968819999996,0.04,0.04,-9.8195348,-0.0006604374386381127,-0.0010656678999998303,-0.0022600143200026167,-0.012121464125814874,-0.0002563473140003041
0.2925,0.00019677247350005896,-0.7846752719999995,1.4553105199230448e-06,-2.35591142,4.1568555249897316e-05,1.57100294,0.7857905114999996,0.04,0.04,-9.8195351,-0.0006826801894945164,-0.0010623360249997819,-0.0023113982150033646,-0.012177518801767285,-0.000262318395500391
0.295,0.00019767297900007206,-0.7846682279999995,2.800026799059415e-07,-2.35591088,4.000029849987449e-05,1.5710036600000001,0.7857841409999995,0.04,0.04,-9.8195354,-0.0007049229403509201,-0.0010590041499997334,-0.002362782110004112,-0.012233573477719696,-0.00026828947700047786
0.2975,0.00019857348450008516,-0.7846611839999993,-8.953051601111627e-07,-2.35591034,3.843204174985168e-05,1.5710043800000002,0.7857777704999994,0.04,0.04,-9.8195357,-0.0007271656912073238,-0.0010556722749996848,-0.00241416600500486,-0.012289628153672107,-0.00027426055850056477
0.3,0.0001994739900001131,-0.7846541399999992,-2.070613000147676e-06,-2.3559098,3.686378499980294e-05,1.5710051,0.7857713999999992,0.04,0.04,-9.819535999999994,-0.0007494084420636329,-0.0010523403999994807,-0.0024655499000060923,-0.012345682829624298,-0.000280231640000709
0.3025,0.00020051021550012818,-0.7846469939999992,-3.4237652501673687e-06,-2.3559083299999997,3.505810314977666e-05,1.5710060000000001,0.7857640799999991,0.04,0.04,-9.819479599999992,-0.0007707841199615389,-0.0010475826399994116,-0.0025213728050069045,-0.012399723194546184,-0.0002867278865008035
0.305,0.00020154644100014326,-0.784639847999999,-4.776917500187061e-06,-2.3559068599999997,3.325242129975038e-05,1.5710069000000002,0.785756759999999,0.04,0.04,-9.819423199999992,-0.000792159797859445,-0.0010428248799993422,-0.0025771957100077167,-0.01245376355946807,-0.0002932241330008981
0.3075,0.00020258266650015832,-0.7846327019999989,-6.130069750206754e-06,-2.3559053899999998,3.1446739449724105e-05,1.5710078,0.7857494399999989,0.04,0.04,-9.81936679999999,-0.000813535475757351,-0.001038067119999273,-0.0026330186150085293,-0.012507803924389957,-0.0002997203795009926
0.31,0.0002036188920001734,-0.7846255559999988,-7.483222000226446e-06,-2.35590392,2.9641057599697828e-05,1.5710087000000001,0.7857421199999988,0.04,0.04,-9.81931039999999,-0.0008349111536552572,-0.0010333093599992037,-0.0026888415200093416,-0.012561844289311844,-0.0003062166260010871
0.3125,0.0002046551175001885,-0.7846184099999987,-8.836374250246138e-06,-2.35590245,2.783537574967155e-05,1.5710096000000002,0.7857347999999987,0.04,0.04,-9.81925399999999,-0.0008562868315531633,-0.0010285515999991345,-0.002744664425010154,-0.01261588465423373,-0.0003127128725011817
0.315,0.00020569134300020358,-0.7846112639999986,-1.018952650026583e-05,-2.35590098,2.602969389964527e-05,1.5710105,0.7857274799999986,0.04,0.04,-9.819197599999988,-0.0008776625094510693,-0.0010237938399990652,-0.0028004873300109664,-0.012669925019155617,-0.0003192091190012762
0.3175,0.00020677642000023344,-0.7846040699999985,-1.1606700500304967e-05,-2.3558992299999995,2.413854139959302e-05,1.5710115200000003,0.7857198199999984,0.04,0.04,-9.819153149999996,-0.0009001323720488016,-0.0010157005049970858,-0.0028578178400119098,-0.01272332328372731,-0.000325882450501387
0.32,0.00020795920000020224,-0.7845967799999988,-1.3151918000264214e-05,-2.3558969199999997,2.2076447599647406e-05,1.5710127800000002,0.7857114799999986,0.04,0.04,-9.819132599999996,-0.0009247906040441563,-0.0010009360199974753,-0.002918163560010318,-0.01277543734759981,-0.00033290995200120166
0.3225,0.00020914198000017106,-0.784589489999999,-1.469713550022346e-05,-2.3558946099999996,2.0014353799701794e-05,1.5710140400000001,0.7857031399999989,0.04,0.04,-9.819112049999998,-0.0009494488360395109,-0.0009861715349978647,-0.002978509280008727,-0.01282755141147231,-0.00033993745350101626
0.325,0.00021032476000013985,-0.7845821999999991,-1.6242353000182705e-05,-2.3558923,1.7952259999756178e-05,1.5710153000000002,0.785694799999999,0.04,0.04,-9.819091499999997,-0.0009741070680348656,-0.0009714070499982542,-0.0030388550000071354,-0.012879665475344812,-0.0003469649550008309
0.3275,0.00021150754000010864,-0.7845749099999993,-1.778757050014195e-05,-2.3558899899999997,1.5890166199810565e-05,1.5710165600000001,0.7856864599999992,0.04,0.04,-9.819070949999999,-0.0009987653000302203,-0.0009566425649986436,-0.0030992007200055438,-0.012931779539217312,-0.0003539924565006456
0.33,0.00021269032000007746,-0.7845676199999996,-1.9332788000101196e-05,-2.35588768,1.3828072399864953e-05,1.57101782,0.7856781199999995,0.04,0.04,-9.819050399999998,-0.001023423532025575,-0.0009418780799990331,-0.003159546440003952,-0.012983893603089812,-0.00036101995800046023
0.3325,0.00021387310000004625,-0.7845603299999997,-2.087800550006044e-05,-2.3558853699999998,1.1765978599919339e-05,1.5710190800000001,0.7856697799999997,0.04,0.04,-9.819029849999998,-0.0010480817640209296,-0.0009271135949994225,-0.0032198921600023606,-0.013036007666962312,-0.0003680474595002749
0.335,0.00021516083400005364,-0.7845528999999998,-2.2560804200070107e-05,-2.35588247,9.519364329906384e-06,1.5710203600000001,0.7856606899999996,0.0399999995,0.0399999995,-9.819007299999999,-0.0010717801167638393,-0.0009127365699994323,-0.003283277440002598,-0.013086776994170674,-0.0003754009790003009
0.3375,0.00021650104500007313,-0.7845453999999996,-2.43123935000956e-05,-2.355879275,7.180489824872347e-06,1.57102165,0.7856512249999995,0.03999999875,0.03999999875,-9.81898375,-0.0010949985298805923,-0.0008985532749992259,-0.003348182500003543,-0.013136873953047058,-0.0003829175075004103
0.34,0.00021784125600009266,-0.7845378999999996,-2.606398280012109e-05,-2.35587608,4.841615319838309e-06,1.57102294,0.7856417599999994,0.039999998,0.039999998,-9.818960199999998,-0.0011182169429973451,-0.0008843699799990195,-0.003413087560004487,-0.013186970911923442,-0.0003904340360005196
0.3425,0.00021918146700011215,-0.7845303999999994,-2.7815572100146577e-05,-2.3558728849999997,2.502740814804272e-06,1.5710242300000001,0.7856322949999992,0.03999999725,0.03999999725,-9.818936649999998,-0.001141435356114098,-0.0008701866849988131,-0.0034779926200054316,-0.013237067870799826,-0.000397950564500629
0.34500000000000003,0.00022052167800013165,-0.7845228999999992,-2.9567161400172066e-05,-2.35586969,1.6386630977023406e-07,1.57102552,0.7856228299999991,0.0399999965,0.0399999965,-9.818913099999998,-0.001164653769230851,-0.0008560033899986067,-0.0035428976800063764,-0.01328716482967621,-0.0004054670930007384
0.34750000000000003,0.00022186188900015115,-0.7845153999999992,-3.131875070019756e-05,-2.355866495,-2.175008195263802e-06,1.57102681,0.7856133649999989,0.03999999575,0.03999999575,-9.818889549999998,-0.0011878721823476038,-0.0008418200949984003,-0.003607802740007321,-0.013337261788552594,-0.0004129836215008478
0.35000000000000003,0.00022320210000019208,-0.784507899999999,-3.307034000025116e-05,-2.3558632999999998,-4.5138827003353476e-06,1.5710281000000001,0.7856038999999987,0.039999995,0.039999995,-9.818866,-0.001211090595464749,-0.0008276367999956993,-0.003672707800008837,-0.01338735874742899,-0.0004205001500010365
0.3525,0.00022471065300019342,-0.784500099999999,-3.504266405025291e-05,-2.355859205,-7.147316945337687e-06,1.57102939,0.7855932199999986,0.039999994250000004,0.039999994250000004,-9.81887125,-0.0012373905279707074,-0.0007938639849956694,-0.0037421002300088986,-0.013437538966542864,-0.00042863964500104376
0.355,0.00022621920600019482,-0.784492299999999,-3.701498810025471e-05,-2.35585511,-9.780751190340084e-06,1.5710306800000002,0.7855825399999986,0.039999993500000004,0.039999993500000004,-9.8188765,-0.0012636904604766664,-0.0007600911699956386,-0.0038114926600089616,-0.01348771918565674,-0.00043677914000105116
0.3575,0.00022772775900019619,-0.784484499999999,-3.89873121502565e-05,-2.355851015,-1.2414185435342481e-05,1.5710319700000002,0.7855718599999986,0.039999992750000005,0.039999992750000005,-9.818881750000001,-0.0012899903929826254,-0.0007263183549956079,-0.0038808850900090247,-0.013537899404770615,-0.00044491863500105856
0.36,0.00022923631200019755,-0.784476699999999,-4.09596362002583e-05,-2.3558469199999994,-1.504761968034488e-05,1.57103326,0.7855611799999986,0.039999992,0.039999992,-9.818887,-0.0013162903254885843,-0.000692545539995577,-0.003950277520009088,-0.013588079623884492,-0.00045305813000106595
0.3625,0.00023074486500019892,-0.7844688999999989,-4.29319602502601e-05,-2.3558428249999994,-1.7681053925347276e-05,1.5710345500000003,0.7855504999999986,0.03999999125,0.03999999125,-9.818892250000001,-0.0013425902579945433,-0.0006587727249955464,-0.004019669950009151,-0.013638259842998367,-0.00046119762500107335
0.365,0.0002322534180002003,-0.7844610999999989,-4.4904284300261897e-05,-2.3558387299999994,-2.0314488170349673e-05,1.5710358400000002,0.7855398199999986,0.0399999905,0.0399999905,-9.8188975,-0.0013688901905005023,-0.0006249999099955156,-0.004089062380009214,-0.013688440062112244,-0.0004693371200010808
0.3675,0.00023382172900021796,-0.784453194999999,-4.695498480028509e-05,-2.3558342649999995,-2.3052524450380624e-05,1.5710373100000004,0.7855287249999985,0.0399999899,0.0399999897,-9.818904800000002,-0.0013957612623962128,-0.0005892455409948707,-0.00415991980000953,-0.01373867052607881,-0.0004776013025010995
0.37,0.00023550955600019647,-0.784445079999999,-4.916243820025698e-05,-2.3558290599999996,-2.5999764800343098e-05,1.5710391400000003,0.7855167999999986,0.0399999896,0.0399999888,-9.818916200000002,-0.0014237746130707411,-0.0005495280639953764,-0.00423370720000859,-0.0137890014797507,-0.0004861148600009911
0.3725,0.00023719738300017498,-0.7844369649999992,-5.136989160022887e-05,-2.3558238549999997,-2.8947005150305576e-05,1.5710409700000003,0.7855048749999988,0.0399999893,0.0399999879,-9.818927600000002,-0.0014517879637452695,-0.0005098105869958821,-0.004307494600007651,-0.013839332433422589,-0.0004946284175008827
0.375,0.00023888521000015348,-0.7844288499999993,-5.357734500020077e-05,-2.3558186499999993,-3.1894245500268054e-05,1.5710428000000003,0.7854929499999989,0.039999989,0.039999987,-9.818939000000002,-0.001479801314419798,-0.00047009310999638774,-0.004381282000006711,-0.013889663387094478,-0.0005031419750007743
0.3775,0.000240573037000132,-0.7844207349999994,-5.578479840017266e-05,-2.3558134449999995,-3.484148585023053e-05,1.5710446300000003,0.7854810249999991,0.0399999887,0.0399999861,-9.818950400000002,-0.001507814665094326,-0.00043037563299689344,-0.004455069400005771,-0.013939994340766367,-0.0005116555325006659
0.38,0.00024226086400011053,-0.7844126199999994,-5.799225180014456e-05,-2.3558082399999996,-3.7788726200193e-05,1.5710464600000003,0.7854690999999991,0.0399999884,0.039999985200000004,-9.8189618,-0.0015358280157688545,-0.00039065815599739913,-0.004528856800004833,-0.013990325294438256,-0.0005201690900005575
0.3825,0.00024394869100008903,-0.7844045049999996,-6.019970520011645e-05,-2.3558030349999997,-4.073596655015548e-05,1.5710482900000002,0.7854571749999993,0.0399999881,0.0399999843,-9.8189732,-0.0015638413664433829,-0.0003509406789979048,-0.004602644200003893,-0.014040656248110144,-0.0005286826475004491
0.385,0.0002457633170001093,-0.7843961099999995,-6.257348770014302e-05,-2.3557971599999994,-4.3905307000190956e-05,1.57105014,0.7854443399999992,0.0399999876,0.039999983600000004,-9.818959099999999,-0.0015918295714088986,-0.00031659025399815666,-0.004679527000004566,-0.014089298527690511,-0.0005376462940005349
0.3875,0.00024764134250013665,-0.7843875749999994,-6.503043475017877e-05,-2.3557909499999994,-4.7185697500238695e-05,1.5710520000000001,0.785431049999999,0.039999987,0.039999983,-9.818932249999998,-0.0016198052035199105,-0.0002849233549976958,-0.004757957500005707,-0.014137096470225303,-0.0005468349850006687
0.39,0.00024951936800016395,-0.7843790399999993,-6.748738180021453e-05,-2.3557847399999994,-5.0466088000286434e-05,1.5710538600000001,0.7854177599999989,0.0399999864,0.0399999824,-9.818905399999997,-0.0016477808356309227,-0.00025325645599723497,-0.004836388000006848,-0.014184894412760093,-0.0005560236760008023
0.3925,0.0002513973935001913,-0.7843705049999992,-6.994432885025029e-05,-2.3557785299999994,-5.3746478500334174e-05,1.5710557200000002,0.7854044699999986,0.0399999858,0.0399999818,-9.818878549999997,-0.0016757564677419348,-0.00022158955699677413,-0.00491481850000799,-0.014232692355294884,-0.0005652123670009361
0.395,0.0002532754190002186,-0.7843619699999991,-7.240127590028604e-05,-2.355772319999999,-5.702686900038191e-05,1.5710575800000002,0.7853911799999984,0.039999985200000004,0.0399999812,-9.818851699999996,-0.001703732099852947,-0.00018992265799631325,-0.0049932490000091315,-0.014280490297829674,-0.0005744010580010699
0.3975,0.00025515344450024595,-0.7843534349999989,-7.48582229503218e-05,-2.355766109999999,-6.030725950042965e-05,1.5710594400000002,0.7853778899999982,0.0399999846,0.0399999806,-9.818824849999995,-0.001731707731963959,-0.0001582557589958524,-0.005071679500010273,-0.014328288240364466,-0.0005835897490012035
0.4,0.0002570314700003026,-0.7843448999999987,-7.731517000039595e-05,-2.355759899999999,-6.358765000052866e-05,1.5710613000000002,0.7853645999999979,0.039999984,0.03999998,-9.818798000000001,-0.0017596833640756374,-0.00012658885999197104,-0.00515011000001206,-0.01437608618289931,-0.0005927784400014168
0.4025,0.00025911062750030443,-0.7843359704999987,-8.003597050039843e-05,-2.3557526399999986,-6.722029450053196e-05,1.5710631750000004,0.7853498849999978,0.0399999834,0.039999979549999995,-9.818813750000002,-0.001792237191698567,-7.141763599192081e-05,-0.005232979000012136,-0.014424257958314889,-0.0006025132990014256
0.405,0.00026118978500030634,-0.7843270409999987,-8.275677100040091e-05,-2.355745379999999,-7.085293900053526e-05,1.5710650500000003,0.7853351699999978,0.0399999828,0.0399999791,-9.818829500000001,-0.0018247910193214967,-1.6246411991870598e-05,-0.0053158480000122105,-0.014472429733730469,-0.0006122481580014344
0.40750000000000003,0.00026326894250030825,-0.7843181114999986,-8.547757150040338e-05,-2.355738119999999,-7.448558350053858e-05,1.5710669250000002,0.7853204549999978,0.0399999822,0.03999997865,-9.818845250000003,-0.0018573448469444264,3.892481200817963e-05,-0.005398717000012286,-0.014520601509146048,-0.0006219830170014433
0.41000000000000003,0.0002653481000003101,-0.7843091819999987,-8.819837200040586e-05,-2.3557308599999986,-7.811822800054188e-05,1.5710688000000002,0.7853057399999978,0.0399999816,0.0399999782,-9.818861000000002,-0.001889898674567356,9.409603600822985e-05,-0.005481586000012362,-0.014568773284561626,-0.0006317178760014522
0.41250000000000003,0.000267427257500312,-0.7843002524999987,-9.091917250040834e-05,-2.355723599999999,-8.175087250054518e-05,1.5710706750000003,0.7852910249999978,0.039999981,0.03999997775,-9.818876750000003,-0.0019224525021902857,0.00014926726000828006,-0.0055644550000124365,-0.014616945059977205,-0.000641452735001461
0.41500000000000004,0.00026950641500031393,-0.7842913229999986,-9.363997300041081e-05,-2.355716339999999,-8.538351700054848e-05,1.5710725500000002,0.7852763099999978,0.039999980399999996,0.039999977299999996,-9.818892500000002,-0.0019550063298132154,0.0002044384840083303,-0.005647324000012512,-0.014665116835392783,-0.0006511875940014699
0.4175,0.00027165623400033756,-0.7842822214999986,-9.645349200044185e-05,-2.3557087099999987,-8.91399395005899e-05,1.5710746050000004,0.7852610949999976,0.03999997985,0.039999976799999996,-9.818904700000001,-0.0019868298317349637,0.00026079513000865236,-0.005731671450012863,-0.014713495271287545,-0.0006611053850015151
0.42,0.0002739473760003084,-0.7842727759999987,-9.945244800040366e-05,-2.355700339999999,-9.314391800053893e-05,1.5710770200000004,0.7852448799999978,0.039999979399999996,0.0399999762,-9.818909800000002,-0.002017192682255347,0.0003195226200079047,-0.005818975800011751,-0.014762287028140388,-0.0006713890400013841
0.4225,0.0002762385180002792,-0.7842633304999989,-0.00010245140400036547,-2.3556919699999987,-9.714789650048795e-05,1.5710794350000004,0.785228664999998,0.03999997895,0.0399999756,-9.818914900000001,-0.00204755553277573,0.000378250110007157,-0.005906280150010639,-0.014811078784993232,-0.0006816726950012532
0.425,0.00027852966000025005,-0.7842538849999989,-0.0001054503600003273,-2.355683599999999,-0.00010115187500043697,1.5710818500000003,0.7852124499999983,0.0399999785,0.039999975,-9.81892,-0.002077918383296114,0.00043697760000640926,-0.005993584500009528,-0.014859870541846076,-0.0006919563500011222
0.4275,0.0002808208020002209,-0.7842444394999991,-0.0001084493160002891,-2.3556752299999992,-0.000105155853500386,1.5710842650000003,0.7851962349999985,0.039999978049999996,0.0399999744,-9.818925100000001,-0.002108281233816497,0.0004957050900056616,-0.0060808888500084165,-0.01490866229869892,-0.0007022400050009914
0.43,0.0002831119440001917,-0.7842349939999992,-0.00011144827200025093,-2.355666859999999,-0.00010915983200033502,1.5710866800000003,0.7851800199999986,0.0399999776,0.0399999738,-9.8189302,-0.0021386440843368807,0.0005544325800049139,-0.006168193200007305,-0.014957454055551763,-0.0007125236600008605
0.4325,0.00028540308600016255,-0.7842255484999994,-0.00011444722800021274,-2.3556584899999993,-0.00011316381050028405,1.5710890950000003,0.7851638049999988,0.03999997715,0.039999973200000004,-9.8189353,-0.002169006934857264,0.0006131600700041662,-0.006255497550006193,-0.015006245812404607,-0.0007228073150007295
0.435,0.0002878427660001921,-0.7842157449999992,-0.00011764112100025145,-2.355649379999999,-0.00011742802500033572,1.5710915200000002,0.7851465299999987,0.0399999763,0.0399999723,-9.818941800000001,-0.0022029823623624734,0.0006708639900043693,-0.006345788000007012,-0.015053883753720505,-0.0007334565950008275
0.4375,0.00029035671500022864,-0.7842057624999991,-0.00012093248250029934,-2.355639899999999,-0.00012182235750039966,1.5710939500000003,0.7851287249999984,0.03999997525,0.03999997125,-9.818949,-0.0022387640783595544,0.0007280561250052016,-0.006437571500008348,-0.015100944787268105,-0.0007442886875009851
0.44,0.00029287066400026523,-0.7841957799999989,-0.00012422384400034725,-2.355630419999999,-0.0001262166900004636,1.5710963800000002,0.7851109199999982,0.0399999742,0.0399999702,-9.8189562,-0.002274545794356635,0.000785248260006034,-0.006529355000009683,-0.015148005820815704,-0.0007551207800011427
0.4425,0.0002953846130003018,-0.7841857974999988,-0.00012751520550039516,-2.3556209399999988,-0.00013061102250052755,1.5710988100000003,0.7850931149999979,0.03999997315,0.03999996915,-9.818963400000001,-0.0023103275103537155,0.0008424403950068663,-0.006621138500011019,-0.015195066854363304,-0.0007659528725013003
0.445,0.0002978985620003384,-0.7841758149999987,-0.00013080656700044304,-2.3556114599999987,-0.0001350053550005915,1.5711012400000004,0.7850753099999976,0.0399999721,0.0399999681,-9.8189706,-0.0023461092263507965,0.0008996325300076986,-0.006712922000012354,-0.015242127887910904,-0.0007767849650014581
0.4475,0.000300412511000375,-0.7841658324999985,-0.00013409792850049094,-2.3556019799999985,-0.00013939968750065546,1.5711036700000003,0.7850575049999974,0.03999997105,0.03999996705,-9.8189778,-0.002381890942347877,0.0009568246650085309,-0.0068047055000136905,-0.015289188921458504,-0.0007876170575016157
0.45,0.0003029264600004498,-0.7841558499999982,-0.00013738929000058902,-2.3555924999999984,-0.00014379402000078639,1.5711061000000004,0.7850396999999968,0.03999997,0.039999966,-9.818985000000001,-0.0024176726583444185,0.001014016800011478,-0.006896489000015752,-0.015336249955006272,-0.000798449150001842
0.4525,0.0003056739605004523,-0.7841452719999983,-0.0001409871645005923,-2.3555818349999984,-0.00014859747750079077,1.5711090250000004,0.7850202599999968,0.0399999694,0.039999964799999996,-9.818993400000002,-0.0024501611595095134,0.0010841273400115418,-0.006992705900015839,-0.015384338190786927,-0.0008097005975018523
0.455,0.00030842146100045484,-0.7841346939999982,-0.00014458503900059556,-2.3555711699999984,-0.00015340093500079512,1.5711119500000004,0.7850008199999968,0.0399999688,0.0399999636,-9.8190018,-0.002482649660674608,0.0011542378800116057,-0.007088922800015927,-0.01543242642656758,-0.0008209520450018625
0.4575,0.00031116896150045734,-0.7841241159999982,-0.00014818291350059885,-2.3555605049999984,-0.0001582043925007995,1.5711148750000004,0.7849813799999968,0.0399999682,0.0399999624,-9.819010200000001,-0.0025151381618397028,0.0012243484200116694,-0.007185139700016015,-0.015480514662348234,-0.0008322034925018727
0.46,0.00031391646200045983,-0.7841135379999983,-0.00015178078800060212,-2.3555498399999983,-0.00016300785000080388,1.5711178000000006,0.7849619399999967,0.0399999676,0.0399999612,-9.819018600000001,-0.002547626663004797,0.0012944589600117334,-0.007281356600016102,-0.015528602898128888,-0.000843454940001883
0.4625,0.0003166639625004623,-0.7841029599999982,-0.0001553786625006054,-2.3555391749999983,-0.00016781130750080826,1.5711207250000006,0.7849424999999968,0.039999967,0.03999996,-9.819027000000002,-0.0025801151641698917,0.001364569500011797,-0.00737757350001619,-0.015576691133909542,-0.0008547063875018932
0.465,0.0003194114630004648,-0.7840923819999982,-0.00015897653700060866,-2.3555285099999983,-0.00017261476500081264,1.5711236500000005,0.7849230599999968,0.039999966399999996,0.0399999588,-9.819035400000002,-0.0026126036653349866,0.0014346800400118608,-0.007473790400016277,-0.015624779369690197,-0.0008659578350019034
0.4675,0.00032224037350048163,-0.7840815984999983,-0.0001626812650006308,-2.3555174549999984,-0.00017756089750084223,1.5711266050000006,0.7849030399999967,0.0399999657,0.0399999578,-9.819047050000004,-0.002647970849654716,0.0015068182650122665,-0.007571485250016204,-0.01567249437794845,-0.00087743429000192
0.47000000000000003,0.00032523210400040275,-0.7840704039999985,-0.00016659970000052748,-2.3555056199999984,-0.00018279238000070425,1.5711296200000004,0.7848818599999972,0.039999964799999996,0.0399999572,-9.819065200000002,-0.002689095400279316,0.0015830118600102569,-0.0076721360000135495,-0.015719462931162463,-0.0008893607600016054
0.47250000000000003,0.0003282238345003238,-0.7840592094999987,-0.00017051813500042413,-2.355493784999999,-0.00018802386250056627,1.5711326350000003,0.7848606799999978,0.0399999639,0.0399999566,-9.819083350000003,-0.0027302199509039167,0.0016592054550082472,-0.007772786750010895,-0.01576643148437648,-0.000901287230001291
0.47500000000000003,0.00033121556500024493,-0.7840480149999991,-0.0001744365700003208,-2.3554819499999993,-0.0001932553450004283,1.5711356500000002,0.7848394999999982,0.039999963,0.039999955999999996,-9.819101500000002,-0.002771344501528517,0.0017353990500062377,-0.00787343750000824,-0.015813400037590495,-0.0009132137000009764
0.47750000000000004,0.000334207295500166,-0.7840368204999993,-0.00017835500500021744,-2.3554701149999997,-0.00019848682750029032,1.571138665,0.7848183199999988,0.0399999621,0.0399999554,-9.819119650000001,-0.0028124690521531175,0.001811592645004228,-0.007974088250005585,-0.015860368590804513,-0.0009251401700006618
0.48,0.000337199026000087,-0.7840256259999996,-0.000182273440000114,-2.3554582799999997,-0.00020371831000015223,1.57114168,0.7847971399999993,0.0399999612,0.0399999548,-9.8191378,-0.002853593602777717,0.001887786240002217,-0.008074739000002929,-0.015907337144018527,-0.0009370666400003471
0.4825,0.0003401907565000081,-0.7840144314999999,-0.00018619187500001067,-2.355446445,-0.00020894979250001426,1.571144695,0.7847759599999999,0.0399999603,0.0399999542,-9.81915595,-0.002894718153402317,0.0019639798350002072,-0.008175389750000274,-0.015954305697232544,-0.0009489931100000325
0.485,0.0003433523340000118,-0.78400279,-0.00019033329800001545,-2.35543378,-0.00021447892800002065,1.57114791,0.7847535739999999,0.03999996,0.039999954,-9.8191708,-0.0029328982345761135,0.002046141360000309,-0.008278940500000382,-0.016001992300152885,-0.0009612837500000453
0.4875,0.000346598835000059,-0.7839909249999998,-0.00019458621500007735,-2.3554207,-0.00022015689000010326,1.5711512250000002,0.7847305849999996,0.03999996,0.039999954,-9.819184,-0.0029696060810244676,0.0021312868500015483,-0.008383941250001909,-0.0160500379279264,-0.0009737564750002269
0.49,0.00034984533600010626,-0.7839790599999996,-0.00019883913200013922,-2.3554076199999994,-0.0002258348520001859,1.57115454,0.7847075959999992,0.03999996,0.039999954,-9.819197200000001,-0.0030063139274728217,0.0022164323400027876,-0.008488942000003438,-0.016098083555699912,-0.0009862292000004083
0.4925,0.0003530918370001535,-0.7839671949999993,-0.00020309204900020113,-2.3553945399999994,-0.00023151281400026852,1.571157855,0.7846846069999989,0.03999996,0.039999954,-9.819210400000001,-0.003043021773921176,0.0023015778300040264,-0.008593942750004965,-0.016146129183473426,-0.0009987019250005899
0.495,0.00035633833800020073,-0.7839553299999992,-0.000207344966000263,-2.355381459999999,-0.00023719077600035116,1.57116117,0.7846616179999986,0.03999996,0.039999954,-9.8192236,-0.0030797296203695303,0.0023867233200052657,-0.008698943500006493,-0.01619417481124694,-0.0010111746500007714
0.4975,0.000359584839000248,-0.783943464999999,-0.0002115978830003249,-2.355368379999999,-0.0002428687380004338,1.5711644850000002,0.7846386289999981,0.03999996,0.039999954,-9.8192368,-0.0031164374668178844,0.002471868810006505,-0.008803944250008022,-0.016242220439020454,-0.001023647375000953
0.5,0.0003628313400003194,-0.7839315999999988,-0.00021585080000041846,-2.3553552999999985,-0.0002485467000005587,1.5711678000000002,0.7846156399999977,0.03999996,0.039999954,-9.819250000000002,-0.0031531453132668855,0.0025570143000085248,-0.008908945000009941,-0.016290266066793947,-0.001036120100001184
0.5025000000000001,0.0003663430785003706,-0.7839189849999987,-0.00022045196000048553,-2.3553410199999982,-0.00025468955400064825,1.5711713850000004,0.7845907789999973,0.0399999609,0.0399999546,-9.819271300000002,-0.0031969662522942943,0.002650745085009891,-0.009018253600011534,-0.016338061913852932,-0.0010491379250013738
0.505,0.0003698548170004216,-0.7839063699999984,-0.0002250531200005524,-2.3553267399999984,-0.0002608324080007375,1.5711749700000004,0.784565917999997,0.0399999618,0.0399999552,-9.819292600000002,-0.003240787191321701,0.002744475870011253,-0.009127562200013123,-0.016385857760911917,-0.0010621557500015628
0.5075000000000001,0.00037336655550047274,-0.7838937549999982,-0.00022965428000061946,-2.355312459999998,-0.00026697526200082704,1.5711785550000004,0.7845410569999967,0.0399999627,0.0399999558,-9.819313900000003,-0.0032846081303491096,0.002838206655012619,-0.009236870800014715,-0.016433653607970902,-0.0010751735750017526
0.51,0.0003768782940005238,-0.7838811399999981,-0.0002342554400006863,-2.355298179999998,-0.00027311811600091627,1.5711821400000006,0.7845161959999963,0.0399999636,0.0399999564,-9.819335200000003,-0.003328429069376516,0.002931937440013981,-0.009346179400016304,-0.016481449455029887,-0.0010881914000019418
0.5125,0.0003803900325005748,-0.7838685249999979,-0.00023885660000075317,-2.3552838999999977,-0.00027926097000100555,1.5711857250000005,0.7844913349999959,0.0399999645,0.039999957,-9.819356500000003,-0.0033722500084039228,0.0030256682250153428,-0.009455488000017893,-0.016529245302088873,-0.001101209225002131
0.515,0.000383901771000626,-0.7838559099999978,-0.00024345776000082024,-2.3552696199999974,-0.00028540382400109505,1.5711893100000005,0.7844664739999956,0.0399999654,0.039999957600000004,-9.819377800000005,-0.0034160709474313315,0.003119399010016709,-0.009564796600019486,-0.016577041149147858,-0.0011142270500023206
0.5175,0.0003875053670006785,-0.7838430479999976,-0.00024817953000088916,-2.3552548699999973,-0.00029170769900118706,1.5711929900000006,0.7844409549999952,0.0399999662,0.0399999581,-9.819401500000005,-0.003458797384526332,0.0032121120500162455,-0.009675526400020347,-0.01662520505488788,-0.0011274260300024295
0.52,0.0003912926780005787,-0.783829691999998,-0.00025314252000075836,-2.3552391799999977,-0.0002983336160010125,1.5711968600000006,0.7844141199999959,0.0399999668,0.0399999584,-9.819430000000004,-0.0034993348177583742,0.003302789600013856,-0.009789098600017355,-0.016674105077989353,-0.0011409873200020721
0.5225,0.00039507998900047874,-0.7838163359999983,-0.00025810551000062735,-2.355223489999998,-0.0003049595330008376,1.5712007300000004,0.7843872849999967,0.0399999674,0.039999958700000005,-9.819458500000005,-0.003539872250990414,0.0033934671500114623,-0.009902670800014356,-0.016723005101090822,-0.001154548610001714
0.525,0.00039886730000037894,-0.7838029799999987,-0.00026306850000049655,-2.3552077999999983,-0.00031158545000066295,1.5712046000000004,0.7843604499999973,0.039999968000000004,0.039999959,-9.819487000000004,-0.0035804096842224557,0.0034841447000090726,-0.010016243000011364,-0.016771905124192292,-0.0011681099000013567
0.5275,0.0004026546110002789,-0.7837896239999991,-0.00026803149000036554,-2.355192109999999,-0.00031821136700048804,1.5712084700000002,0.7843336149999981,0.0399999686,0.0399999593,-9.819515500000003,-0.003620947117454496,0.003574822250006679,-0.010129815200008366,-0.01682080514729376,-0.001181671190000999
0.53,0.0004064419220001791,-0.7837762679999994,-0.00027299448000023475,-2.3551764199999994,-0.00032483728400031347,1.5712123400000002,0.7843067799999988,0.0399999692,0.0399999596,-9.819544000000002,-0.0036614845506865376,0.0036654998000042894,-0.010243387400005372,-0.016869705170395235,-0.0011952324800006415
0.5325,0.00041022923300007916,-0.7837629119999998,-0.00027795747000010373,-2.3551607299999997,-0.00033146320100013857,1.57121621,0.7842799449999995,0.0399999698,0.0399999599,-9.819572500000001,-0.0037020219839185775,0.003756177350001896,-0.010356959600002375,-0.016918605193496705,-0.0012087937700002835
0.535,0.0004142070890000889,-0.7837490139999997,-0.0002831706480001166,-2.3551440799999996,-0.00033842310600015567,1.57122027,0.7842517659999995,0.03999997,0.03999996,-9.8195887,-0.003747715079226584,0.0038607458800024356,-0.010473319700002572,-0.01696721781045298,-0.0012227150900003079
0.5375,0.00041828021750014814,-0.7837348449999996,-0.0002885089200001941,-2.3551269499999994,-0.00034555000500025924,1.571224425,0.784222914999999,0.03999997,0.03999996,-9.81959875,-0.003795986005572431,0.003972259900004056,-0.010591073750004284,-0.017015686724336662,-0.0012368164250005128
0.54,0.0004223533460002075,-0.7837206759999993,-0.00029384719200027193,-2.355109819999999,-0.00035267690400036313,1.57122858,0.7841940639999986,0.03999997,0.03999996,-9.819608800000001,-0.0038442569319182794,0.004083773920005682,-0.010708827800006,-0.01706415563822035,-0.0012509177600007184
0.5425,0.0004264264745002667,-0.7837065069999991,-0.0002991854640003495,-2.355092689999999,-0.00035980380300046664,1.5712327350000002,0.7841652129999982,0.03999997,0.03999996,-9.819618850000001,-0.003892527858264126,0.004195287940007302,-0.01082658185000771,-0.017112624552104033,-0.0012650190950009232
0.545,0.0004304996030003261,-0.7836923379999989,-0.00030452373600042734,-2.3550755599999986,-0.00036693070200057053,1.5712368900000002,0.7841363619999977,0.03999997,0.03999996,-9.819628900000001,-0.003940798784609974,0.004306801960008927,-0.010944335900009426,-0.01716109346598772,-0.0012791204300011288
0.5475,0.00043457273150038526,-0.7836781689999986,-0.0003098620080005049,-2.3550584299999984,-0.0003740576010006741,1.5712410450000003,0.7841075109999973,0.03999997,0.03999996,-9.819638950000002,-0.003989069710955821,0.0044183159800105475,-0.011062089950011136,-0.017209562379871403,-0.0012932217650013338
0.55,0.0004386458600004769,-0.7836639999999984,-0.00031520028000062513,-2.3550412999999977,-0.0003811845000008346,1.5712452000000003,0.7840786599999967,0.03999997,0.03999996,-9.819649,-0.004037340637301333,0.004529830000011562,-0.01117984400001331,-0.017258031293755128,-0.0013073231000015981
0.5525,0.0004430148530005404,-0.7836489849999981,-0.0003209271060007083,-2.3550228349999975,-0.0003888301245009457,1.5712497300000006,0.7840477059999962,0.03999997,0.03999996,-9.819654550000001,-0.0040825279662441046,0.004635748750013101,-0.011301776150015081,-0.017306848056620423,-0.0013219632200018108
0.555,0.0004473838460006041,-0.7836339699999979,-0.0003266539320007918,-2.3550043699999974,-0.0003964757490010571,1.5712542600000006,0.7840167519999958,0.03999997,0.03999996,-9.819660100000002,-0.004127715295186878,0.004741667500014645,-0.011423708300016858,-0.01735566481948572,-0.0013366033400020242
0.5575,0.0004517528390006676,-0.7836189549999977,-0.000332380758000875,-2.3549859049999973,-0.0004041213735011682,1.5712587900000006,0.7839857979999952,0.03999997,0.03999996,-9.819665650000001,-0.004172902624129649,0.004847586250016184,-0.01154564045001863,-0.017404481582351014,-0.001351243460002237
0.56,0.00045612183200073126,-0.7836039399999974,-0.00033810758400095847,-2.354967439999997,-0.00041176699800127964,1.5712633200000008,0.7839548439999948,0.03999997,0.03999996,-9.819671200000002,-0.004218089953072423,0.0049535050000177275,-0.011667572600020408,-0.01745329834521631,-0.0013658835800024504
0.5625,0.0004604908250007947,-0.7835889249999972,-0.0003438344100010417,-2.3549489749999966,-0.00041941262250139074,1.5712678500000008,0.7839238899999944,0.03999997,0.03999996,-9.819676750000001,-0.004263277282015194,0.005059423750019267,-0.011789504750022179,-0.017502115108081605,-0.001380523700002663
0.5650000000000001,0.00046485981800085843,-0.783573909999997,-0.00034956123600112513,-2.3549305099999964,-0.00042705824700150217,1.5712723800000008,0.7838929359999939,0.03999997,0.03999996,-9.819682300000002,-0.004308464610957968,0.00516534250002081,-0.011911436900023956,-0.0175509318709469,-0.0013951638200028764
0.5675,0.00046933075100096515,-0.7835586014999967,-0.0003554219390012652,-2.354911589999996,-0.0004348826005016892,1.5712769700000009,0.7838612614999931,0.03999997,0.03999996,-9.819699450000009,-0.004356387536983713,0.005278083550026093,-0.01203472022502601,-0.01759990500287235,-0.0014099826800031334
0.5700000000000001,0.0004740055640009695,-0.7835427059999966,-0.000361550396001271,-2.354891759999996,-0.0004430644120016968,1.571281680000001,0.7838281459999931,0.03999997,0.03999996,-9.81973980000001,-0.0044097816571703335,0.005404469200026211,-0.012160705900026127,-0.01764919087291782,-0.0014251590200031474
0.5725,0.00047868037700097367,-0.7835268104999966,-0.0003676788530012764,-2.354871929999996,-0.0004512462235017041,1.571286390000001,0.7837950304999931,0.03999997,0.03999996,-9.819780150000009,-0.004463175777356951,0.005530854850026323,-0.012286691575026239,-0.01769847674296329,-0.001440335360003161
0.5750000000000001,0.000483355190000978,-0.7835109149999967,-0.0003738073100012821,-2.354852099999996,-0.0004594280350017117,1.571291100000001,0.783761914999993,0.03999997,0.03999996,-9.81982050000001,-0.0045165698975435705,0.005657240500026441,-0.012412677250026358,-0.01774776261300876,-0.001455511700003175
0.5775,0.00048803000300098214,-0.7834950194999967,-0.0003799357670012876,-2.3548322699999957,-0.000467609846501719,1.571295810000001,0.783728799499993,0.03999997,0.03999996,-9.819860850000008,-0.004569964017730188,0.005783626150026553,-0.01253866292502647,-0.017797048483054228,-0.0014706880400031886
0.58,0.0004927048160009862,-0.7834791239999966,-0.00038606422400129303,-2.354812439999996,-0.0004757916580017262,1.571300520000001,0.783695683999993,0.03999997,0.03999996,-9.81990120000001,-0.004623358137916806,0.005910011800026665,-0.012664648600026581,-0.017846334353099697,-0.001485864380003202
0.5825,0.0004973796290009907,-0.7834632284999966,-0.00039219268100129873,-2.3547926099999956,-0.0004839734695017339,1.571305230000001,0.7836625684999929,0.03999997,0.03999996,-9.819941550000008,-0.004676752258103426,0.006036397450026784,-0.012790634275026698,-0.01789562022314517,-0.0015010407200032163
0.585,0.0005022648500010166,-0.7834466869999965,-0.0003985975050013329,-2.3547718299999953,-0.0004925242120017795,1.571310250000001,0.7836279569999928,0.0399999703,0.0399999606,-9.819966800000003,-0.00472747320310282,0.006160160700024945,-0.01291932110002649,-0.01794562712312767,-0.0015165726200032004
0.5875,0.0005072552750009532,-0.7834298224999967,-0.00040514051250124973,-2.3547505749999957,-0.0005012594200016684,1.571315425000001,0.7835925974999932,0.03999997075,0.0399999615,-9.819984500000004,-0.004776857560509883,0.006282612750023389,-0.013049358500024838,-0.017995994538078344,-0.0015322823000030006
0.59,0.0005122457000008895,-0.783412957999997,-0.0004116835200011663,-2.354729319999996,-0.0005099946280015571,1.5713206000000008,0.7835572379999937,0.039999971200000005,0.0399999624,-9.820002200000003,-0.004826241917916943,0.006405064800021827,-0.01317939590002318,-0.018046361953029017,-0.0015479919800028003
0.5925,0.000517236125000826,-0.7833960934999972,-0.00041822652750108313,-2.3547080649999965,-0.000518729836001446,1.571325775000001,0.7835218784999941,0.03999997165,0.0399999633,-9.820019900000004,-0.004875626275324005,0.006527516850020271,-0.013309433300021526,-0.01809672936797969,-0.0015637016600026006
0.595,0.0005222265500007624,-0.7833792289999975,-0.00042476953500099964,-2.3546868099999965,-0.0005274650440013346,1.5713309500000008,0.7834865189999946,0.0399999721,0.0399999642,-9.820037600000003,-0.004925010632731065,0.006649968900018709,-0.013439470700019867,-0.018147096782930364,-0.0015794113400024001
0.5975,0.0005272169750006989,-0.7833623644999976,-0.00043131254250091647,-2.354665554999997,-0.0005362002520012235,1.5713361250000009,0.783451159499995,0.03999997255,0.0399999651,-9.820055300000003,-0.004974394990138128,0.006772420950017153,-0.013569508100018215,-0.01819746419788104,-0.0015951210200022005
0.6,0.0005322074000006767,-0.7833454999999978,-0.00043785555000088746,-2.354644299999997,-0.0005449354600011848,1.5713413000000007,0.7834157999999952,0.039999973,0.039999966,-9.820073000000004,-0.005023779347545832,0.006894873000016103,-0.013699545500017061,-0.018247831612831788,-0.0016108307000020517
0.6025,0.0005375230400007543,-0.7833276754999975,-0.000444825769500989,-2.3546214099999965,-0.0005542409800013204,1.571346640000001,0.7833781409999947,0.039999973,0.0399999651,-9.820107050000006,-0.005078226863414281,0.007021349250017947,-0.013833549575019014,-0.018298798054463862,-0.0016269451250022866
0.605,0.0005428386800008315,-0.7833098509999973,-0.0004517959890010903,-2.3545985199999966,-0.0005635465000014557,1.5713519800000009,0.7833404819999941,0.039999973,0.0399999642,-9.820141100000006,-0.005132674379282727,0.007147825500019784,-0.013967553650020961,-0.018349764496095933,-0.0016430595500025206
0.6075,0.0005481543200009089,-0.783292026499997,-0.0004587662085011919,-2.3545756299999963,-0.0005728520200015913,1.5713573200000008,0.7833028229999935,0.039999973,0.0399999633,-9.820175150000006,-0.005187121895151176,0.007274301750021628,-0.014101557725022914,-0.018400730937728007,-0.0016591739750027555
0.61,0.0005534699600009862,-0.7832742019999968,-0.00046573642800129317,-2.354552739999996,-0.0005821575400017265,1.571362660000001,0.783265163999993,0.039999973,0.0399999624,-9.820209200000006,-0.005241569411019622,0.007400778000023466,-0.014235561800024861,-0.018451697379360078,-0.0016752884000029898
0.6125,0.0005587856000010637,-0.7832563774999964,-0.00047270664750139477,-2.3545298499999956,-0.0005914630600018622,1.571368000000001,0.7832275049999925,0.039999973,0.0399999615,-9.820243250000006,-0.00529601692688807,0.007527254250025308,-0.014369565875026814,-0.01850266382099215,-0.0016914028250032246
0.615,0.0005641012400011409,-0.7832385529999962,-0.00047967686700149605,-2.3545069599999953,-0.0006007685800019974,1.5713733400000012,0.783189845999992,0.039999973,0.0399999606,-9.820277300000008,-0.0053504644427565164,0.0076537305000271465,-0.014503569950028761,-0.01855363026262422,-0.0017075172500034587
0.6175,0.0005695284600012694,-0.7832204144999958,-0.0004867936480016647,-2.3544835649999944,-0.0006102697720022225,1.5713788550000012,0.783151392999991,0.039999973200000004,0.0399999603,-9.820307250000004,-0.005407260428196575,0.007788978850034327,-0.014638882050030987,-0.018604807741951602,-0.0017238504700037678
0.62,0.0005751788400012745,-0.7832016479999958,-0.0004942035520016713,-2.3544591599999944,-0.0006201623080022313,1.5713847200000013,0.7831113519999909,0.0399999738,0.0399999612,-9.820329000000005,-0.00546875335277511,0.007941771400034462,-0.01477681020003111,-0.01865640729666918,-0.0017406212800037827
0.6225,0.0005808292200012797,-0.7831828814999957,-0.0005016134560016782,-2.3544347549999944,-0.0006300548440022405,1.5713905850000012,0.7830713109999909,0.0399999744,0.0399999621,-9.820350750000005,-0.005530246277353647,0.008094563950034606,-0.014914738350031239,-0.018708006851386755,-0.0017573920900037982
0.625,0.0005864796000012848,-0.7831641149999957,-0.0005090233600016848,-2.3544103499999944,-0.0006399473800022494,1.5713964500000013,0.7830312699999908,0.039999975,0.039999963,-9.820372500000005,-0.005591739201932182,0.008247356500034742,-0.015052666500031361,-0.018759606406104332,-0.0017741629000038131
0.6275000000000001,0.00059212998000129,-0.7831453484999957,-0.0005164332640016918,-2.3543859449999944,-0.0006498399160022586,1.5714023150000014,0.7829912289999909,0.0399999756,0.0399999639,-9.820394250000005,-0.00565323212651072,0.008400149050034883,-0.01519059465003149,-0.01881120596082191,-0.001790933710003829
0.63,0.0005977803600012951,-0.7831265819999956,-0.0005238431680016983,-2.3543615399999944,-0.0006597324520022673,1.5714081800000013,0.7829511879999909,0.0399999762,0.039999964799999996,-9.820416000000005,-0.005714725051089254,0.00855294160003502,-0.015328522800031613,-0.018862805515539486,-0.0018077045200038438
0.6325000000000001,0.0006034307400013003,-0.7831078154999956,-0.0005312530720017052,-2.3543371349999944,-0.0006696249880022765,1.5714140450000014,0.7829111469999908,0.039999976799999996,0.0399999657,-9.820437750000005,-0.0057762179756677915,0.008705734150035161,-0.015466450950031742,-0.018914405070257063,-0.0018244753300038594
0.635,0.0006093104540014393,-0.7830883139999952,-0.0005389642560018877,-2.354311729999994,-0.0006799197740025202,1.5714201100000014,0.7828694699999897,0.039999977,0.039999966,-9.820451500000003,-0.005834843078641842,0.008851062900033999,-0.01560688420003402,-0.01896584350616965,-0.001841596330004153
0.6375000000000001,0.0006153048350015267,-0.783068444999995,-0.0005468260800020022,-2.354285824999993,-0.0006904156850026732,1.5714262750000014,0.7828269749999892,0.039999977,0.039999966,-9.820461250000003,-0.005892034270815141,0.008992659750036063,-0.015748570000036086,-0.01901720138267983,-0.0018588924250044052
0.64,0.0006212992160016138,-0.7830485759999947,-0.0005546879040021165,-2.354259919999993,-0.0007009115960028257,1.5714324400000015,0.7827844799999886,0.039999977,0.039999966,-9.820471000000003,-0.005949225462988437,0.00913425660003812,-0.015890255800038146,-0.019068559259190005,-0.0018761885200046565
0.6425,0.0006272935970017009,-0.7830287069999944,-0.0005625497280022307,-2.3542340149999927,-0.0007114075070029782,1.5714386050000018,0.7827419849999879,0.039999977,0.039999966,-9.820480750000003,-0.006006416655161733,0.009275853450040178,-0.016031941600040202,-0.019119917135700184,-0.0018934846150049076
0.645,0.0006332879780017882,-0.7830088379999941,-0.0005704115520023454,-2.354208109999992,-0.0007219034180031312,1.5714447700000018,0.7826994899999873,0.039999977,0.039999966,-9.820490500000004,-0.0060636078473350315,0.009417450300042242,-0.01617362740004227,-0.019171275012210363,-0.0019107807100051599
0.6475,0.0006392823590018753,-0.7829889689999937,-0.0005782733760024596,-2.354182204999992,-0.0007323993290032837,1.5714509350000019,0.7826569949999866,0.039999977,0.039999966,-9.820500250000004,-0.006120799039508328,0.0095590471500443,-0.016315313200044326,-0.019222632888720538,-0.0019280768050054112
0.65,0.0006452767400020784,-0.7829690999999931,-0.0005861352000027261,-2.354156299999991,-0.0007428952400036395,1.5714571000000022,0.7826144999999852,0.039999977,0.039999966,-9.820510000000017,-0.006177990231684833,0.009700644000053346,-0.01645699900004762,-0.01927399076523119,-0.0019453729000058347
0.6525,0.0006516242945019974,-0.7829482259999934,-0.0005944610310026199,-2.354128684999991,-0.0007540105250034978,1.571463565000002,0.7825695149999858,0.039999977,0.039999966,-9.820559200000016,-0.006244975747561584,0.009863570100051268,-0.016602437650045765,-0.0193267878145145,-0.0019631931100056077
0.655,0.0006579718490019168,-0.7829273519999936,-0.0006027868620025141,-2.3541010699999916,-0.0007651258100033565,1.571470030000002,0.7825245299999865,0.039999977,0.039999966,-9.820608400000015,-0.006311961263438338,0.010026496200049197,-0.016747876300043915,-0.019379584863797813,-0.001981013320005381
0.6575,0.0006643194035018358,-0.7829064779999939,-0.0006111126930024079,-2.354073454999992,-0.0007762410950032146,1.5714764950000017,0.782479544999987,0.039999977,0.039999966,-9.820657600000015,-0.006378946779315088,0.01018942230004712,-0.016893314950042062,-0.019432381913081123,-0.0019988335300051537
0.66,0.0006706669580017551,-0.7828856039999942,-0.0006194385240023021,-2.3540458399999924,-0.0007873563800030734,1.5714829600000018,0.7824345599999876,0.039999977,0.039999966,-9.820706800000014,-0.006445932295191842,0.010352348400045048,-0.017038753600040212,-0.019485178962364437,-0.0020166537400049273
0.6625,0.0006770145125016741,-0.7828647299999945,-0.0006277643550021959,-2.354018224999993,-0.0007984716650029316,1.5714894250000018,0.7823895749999881,0.039999977,0.039999966,-9.820756000000014,-0.0065129178110685925,0.01051527450004297,-0.01718419225003836,-0.01953797601164775,-0.0020344739500047
0.665,0.0006833620670015935,-0.7828438559999947,-0.0006360901860020901,-2.3539906099999928,-0.0008095869500027902,1.5714958900000016,0.7823445899999887,0.039999977,0.039999966,-9.820805200000013,-0.006579903326945346,0.0106782006000409,-0.01732963090003651,-0.019590773060931065,-0.0020522941600044733
0.6675,0.0006898303380015987,-0.7828226054999947,-0.0006445745880020973,-2.353962509999993,-0.0008209139630027998,1.5715025050000018,0.7822987449999886,0.039999977,0.039999966,-9.82083925,-0.006645376817338066,0.010841224100038892,-0.017476306500035538,-0.019643734395516654,-0.0020702882450043705
0.67,0.0006965400420015134,-0.782800601999995,-0.0006533761320019854,-2.3539334399999934,-0.0008326644320026506,1.5715094200000015,0.7822511799999893,0.039999977,0.039999966,-9.820843,-0.006707826256766027,0.011004442400036818,-0.017625456000033644,-0.01969702430070644,-0.002088630080004137
0.6725,0.0007032497460014279,-0.7827785984999953,-0.0006621776760018731,-2.3539043699999938,-0.0008444149010025006,1.5715163350000014,0.7822036149999899,0.039999977,0.039999966,-9.820846750000001,-0.006770275696193985,0.011167660700034736,-0.01777460550003174,-0.019750314205896225,-0.0021069719150039034
0.675,0.0007099594500013426,-0.7827565949999956,-0.0006709792200017613,-2.353875299999994,-0.0008561653700023513,1.5715232500000014,0.7821560499999904,0.039999977,0.039999966,-9.8208505,-0.006832725135621947,0.011330879000032662,-0.017923755000029844,-0.019803604111086014,-0.0021253137500036705
0.6775,0.000716669154001257,-0.7827345914999959,-0.000679780764001649,-2.3538462299999945,-0.0008679158390022014,1.5715301650000013,0.7821084849999911,0.039999977,0.039999966,-9.82085425,-0.006895174575049906,0.01149409730003058,-0.018072904500027943,-0.019856894016275797,-0.0021436555850034363
0.68,0.0007233788580011717,-0.7827125879999962,-0.0006885823080015371,-2.353817159999995,-0.0008796663080020521,1.5715370800000013,0.7820609199999917,0.039999977,0.039999966,-9.820858,-0.006957624014477867,0.011657315600028506,-0.018222054000026047,-0.019910183921465586,-0.0021619974200032034
0.6825,0.0007300885620010861,-0.7826905844999965,-0.0006973838520014249,-2.3537880899999952,-0.0008914167770019023,1.5715439950000012,0.7820133549999924,0.039999977,0.039999966,-9.82086175,-0.007020073453905825,0.011820533900026424,-0.018371203500024146,-0.01996347382665537,-0.0021803392550029696
0.685,0.000737045537001185,-0.7826678189999962,-0.0007065103000015547,-2.3537577699999948,-0.0009036010000020756,1.5715511700000013,0.7819640399999916,0.039999977299999996,0.039999966399999996,-9.820902300000009,-0.0070895266719284205,0.011992301000029465,-0.018522715800025555,-0.020017480850228767,-0.002199027960003157
0.6875,0.0007441261475012879,-0.7826446724999958,-0.0007157992000016896,-2.3537268249999945,-0.0009160021000022557,1.5715584750000013,0.7819138499999909,0.03999997775,0.039999967,-9.82096125000001,-0.007162481779245846,0.012168342500032023,-0.018675409500027777,-0.020071846432993715,-0.002217890100003431
0.6900000000000001,0.0007512067580013912,-0.7826215259999955,-0.000725088100001825,-2.353695879999994,-0.0009284032000024364,1.5715657800000016,0.7818636599999902,0.0399999782,0.0399999676,-9.821020200000012,-0.007235436886563274,0.012344384000034589,-0.018828103200030002,-0.020126212015758663,-0.002236752240003706
0.6925,0.000758287368501494,-0.7825983794999951,-0.00073437700000196,-2.3536649349999936,-0.0009408043000026167,1.5715730850000016,0.7818134699999895,0.03999997865,0.0399999682,-9.821079150000012,-0.007308391993880699,0.012520425500037145,-0.01898079690003222,-0.020180577598523607,-0.00225561438000398
0.6950000000000001,0.0007653679790015972,-0.7825752329999948,-0.0007436659000020954,-2.353633989999993,-0.0009532054000027973,1.5715803900000018,0.7817632799999887,0.0399999791,0.0399999688,-9.821138100000013,-0.007381347101198127,0.012696467000039712,-0.019133490600034445,-0.020234943181288555,-0.002274476520004255
0.6975,0.0007724485895017001,-0.7825520864999944,-0.0007529548000022304,-2.3536030449999927,-0.0009656065000029775,1.5715876950000018,0.781713089999988,0.039999979549999995,0.0399999694,-9.821197050000015,-0.007454302208515552,0.01287250850004227,-0.019286184300036664,-0.0202893087640535,-0.002293338660004529
0.7000000000000001,0.0007795292000019,-0.7825289399999937,-0.0007622437000024928,-2.3535720999999916,-0.0009780076000033278,1.571595000000002,0.7816628999999866,0.03999998,0.03999997,-9.821255999999998,-0.007527257315831785,0.01304855000004356,-0.01943887800003979,-0.02034367434681847,-0.0023122008000049346
0.7025,0.0007869893300019066,-0.7825046189999938,-0.0007720313005025014,-2.353539534999992,-0.0009910745050033395,1.571602635000002,0.7816100309999865,0.03999998,0.03999997,-9.821250449999999,-0.007595517998578615,0.013219583000043712,-0.01959511110003993,-0.020398123469217596,-0.0023315750850049517
0.705,0.0007944494600019132,-0.7824802979999937,-0.0007818189010025101,-2.3535069699999918,-0.0010041414100033512,1.571610270000002,0.7815571619999865,0.03999998,0.03999997,-9.821244899999998,-0.007663778681325446,0.013390616000043864,-0.01975134420004007,-0.020452572591616727,-0.002350949370004969
0.7075,0.0008019095900019202,-0.7824559769999937,-0.0007916065015025192,-2.3534744049999916,-0.0010172083150033634,1.571617905000002,0.7815042929999865,0.03999998,0.03999997,-9.821239349999999,-0.00773203936407228,0.013561649000044022,-0.019907577300040214,-0.020507021714015857,-0.002370323655004987
0.71,0.0008093697200019269,-0.7824316559999938,-0.0008013941020025279,-2.3534418399999915,-0.0010302752200033749,1.571625540000002,0.7814514239999863,0.03999998,0.03999997,-9.821233799999998,-0.007800300046819111,0.013732682000044174,-0.020063810400040353,-0.020561470836414984,-0.002389697940005004
0.7125,0.0008168298500019338,-0.7824073349999937,-0.0008111817025025371,-2.3534092749999918,-0.001043342125003387,1.571633175000002,0.7813985549999863,0.03999998,0.03999997,-9.821228249999997,-0.007868560729565944,0.013903715000044335,-0.0202200435000405,-0.020615919958814115,-0.0024090722250050224
0.715,0.0008242899800019405,-0.7823830139999937,-0.0008209693030025457,-2.3533767099999916,-0.0010564090300033988,1.571640810000002,0.7813456859999863,0.03999998,0.03999997,-9.821222699999998,-0.007936821412312774,0.014074748000044487,-0.020376276600040637,-0.020670369081213242,-0.0024284465100050394
0.7175,0.0008318794335020129,-0.7823582849999935,-0.0008309268145026411,-2.353343529999991,-0.001069702735003526,1.5716485850000022,0.7812918909999857,0.03999998,0.0399999698,-9.82123375000001,-0.008008608315160152,0.01425563610005145,-0.02053370270004099,-0.0207252189517163,-0.002447950180005069
0.72,0.0008397275340019129,-0.7823327399999938,-0.0008412241480025098,-2.3533091199999916,-0.0010834500400033506,1.571656640000002,0.7812362439999865,0.03999998,0.0399999692,-9.82127800000001,-0.008087447658200336,0.014456234400048892,-0.02069351480003895,-0.020780870318426264,-0.002467712620004817
0.7225,0.0008475756345018131,-0.7823071949999941,-0.0008515214815023789,-2.353274709999992,-0.001097197345003176,1.571664695000002,0.7811805969999872,0.03999998,0.0399999686,-9.82132225000001,-0.008166287001240525,0.014656832700046344,-0.020853326900036922,-0.020836521685136233,-0.002487475060004566
0.725,0.000855423735001713,-0.7822816499999944,-0.0008618188150022475,-2.3532402999999924,-0.0011109446500030006,1.5716727500000018,0.7811249499999879,0.03999998,0.039999968,-9.821366500000009,-0.008245126344280708,0.014857431000043785,-0.021013139000034882,-0.020892173051846197,-0.0025072375000043134
0.7275,0.0008632718355016133,-0.7822561049999948,-0.0008721161485021167,-2.353205889999993,-0.0011246919550028259,1.5716808050000017,0.7810693029999886,0.03999998,0.0399999674,-9.821410750000009,-0.008323965687320896,0.015058029300041235,-0.021172951100032852,-0.020947824418556162,-0.0025269999400040623
0.73,0.0008711199360015131,-0.782230559999995,-0.0008824134820019854,-2.353171479999993,-0.0011384392600026505,1.5716888600000016,0.7810136559999893,0.03999998,0.0399999668,-9.82145500000001,-0.008402805030361081,0.015258627600038677,-0.021332763200030812,-0.021003475785266127,-0.0025467623800038103
0.7325,0.0008789680365014134,-0.7822050149999954,-0.0008927108155018545,-2.3531370699999936,-0.0011521865650024757,1.5716969150000015,0.78095800899999,0.03999998,0.0399999662,-9.821499250000008,-0.008481644373401268,0.015459225900036127,-0.021492575300028783,-0.021059127151976095,-0.002566524820003559
0.735,0.0008870802590015296,-0.782178673999995,-0.0009033552340020071,-2.353101419999993,-0.0011663973800026795,1.5717052500000017,0.7809004939999892,0.039999980399999996,0.0399999667,-9.821520400000002,-0.008558201603605401,0.015649002300034204,-0.021654525200030247,-0.021115077473233598,-0.002586798590003809
0.7375,0.0008953245425016497,-0.7821519349999946,-0.0009141731950021647,-2.3530651499999924,-0.00118083995000289,1.5717137250000017,0.7808420449999883,0.039999981,0.03999996775,-9.821530000000003,-0.008633617777392416,0.01583336775003689,-0.02181754400003262,-0.02117117727176475,-0.002607328025004108
0.74,0.0009035688260017695,-0.7821251959999942,-0.000924991156002322,-2.353028879999992,-0.0011952825200030998,1.571722200000002,0.7807835959999875,0.0399999816,0.0399999688,-9.821539600000003,-0.008709033951179427,0.01601773320003957,-0.021980562800034992,-0.0212272770702959,-0.0026278574600044065
0.7425,0.0009118131095018897,-0.7820984569999938,-0.0009358091170024797,-2.3529926099999914,-0.0012097250900033104,1.571730675000002,0.7807251469999866,0.0399999822,0.03999996985,-9.821549200000003,-0.008784450124966441,0.016202098650042258,-0.022143581600037366,-0.02128337686882705,-0.0026483868950047057
0.745,0.0009200573930020095,-0.7820717179999934,-0.0009466270780026368,-2.352956339999991,-0.0012241676600035203,1.5717391500000022,0.7806666979999858,0.0399999828,0.0399999709,-9.821558800000004,-0.008859866298753452,0.016386464100044938,-0.022306600400039733,-0.021339476667358203,-0.0026689163300050037
0.7475,0.0009283016765021296,-0.782044978999993,-0.0009574450390027945,-2.3529200699999904,-0.0012386102300037307,1.5717476250000022,0.7806082489999848,0.0399999834,0.03999997195,-9.821568400000004,-0.008935282472540466,0.016570829550047624,-0.02246961920004211,-0.021395576465889354,-0.002689445765005303
0.75,0.0009365459600023597,-0.7820182399999923,-0.0009682630000030966,-2.3528837999999896,-0.001253052800004134,1.5717561000000024,0.7805497999999832,0.039999984,0.039999973,-9.821578000000008,-0.009010698646329958,0.016755195000059484,-0.022632638000045387,-0.021451676264420565,-0.00270997520000567
0.7525000000000001,0.0009451944260023677,-0.7819902289999923,-0.0009796122550031073,-2.3528458799999896,-0.0012682044800041482,1.5717650100000025,0.7804884949999832,0.039999984,0.03999997255,-9.821602000000007,-0.009095209743850637,0.016973209200059687,-0.02279897825004554,-0.021507994271830193,-0.002730755240005689
0.755,0.0009538428920023754,-0.7819622179999923,-0.0009909615100031173,-2.3528079599999896,-0.0012833561600041616,1.5717739200000025,0.7804271899999832,0.039999984,0.0399999721,-9.821626000000007,-0.009179720841371312,0.017191223400059883,-0.022965318500045687,-0.021564312279239817,-0.0027515352800057077
0.7575000000000001,0.0009624913580023835,-0.7819342069999923,-0.0010023107650031279,-2.3527700399999896,-0.0012985078400041758,1.5717828300000025,0.780365884999983,0.039999984,0.03999997165,-9.821650000000007,-0.009264231938891991,0.017409237600060086,-0.023131658750045844,-0.021620630286649446,-0.002772315320005727
0.76,0.0009711398240023912,-0.7819061959999922,-0.0010136600200031378,-2.3527321199999895,-0.0013136595200041892,1.5717917400000025,0.780304579999983,0.039999984,0.039999971200000005,-9.821674000000007,-0.009348743036412666,0.01762725180006028,-0.02329799900004599,-0.02167694829405907,-0.0027930953600057455
0.7625000000000001,0.0009797882900023991,-0.7818781849999923,-0.0010250092750031484,-2.3526941999999895,-0.0013288112000042036,1.5718006500000026,0.780243274999983,0.039999984,0.03999997075,-9.821698000000007,-0.009433254133933346,0.01784526600006048,-0.023464339250046144,-0.0217332663014687,-0.0028138754000057646
0.765,0.0009884367560024068,-0.7818501739999922,-0.0010363585300031586,-2.3526562799999895,-0.001343962880004217,1.5718095600000026,0.780181969999983,0.039999984,0.0399999703,-9.821722000000007,-0.00951776523145402,0.018063280200060677,-0.023630679500046294,-0.021789584308878323,-0.0028346554400057833
0.7675000000000001,0.0009972226000024887,-0.7818217399999919,-0.0010478883000032662,-2.3526177149999894,-0.0013593555850043607,1.5718186050000027,0.7801196879999824,0.039999984,0.03999997,-9.82175095000001,-0.009601526148639841,0.018276889950056257,-0.023798114450046592,-0.02184643736110725,-0.0028556521600058868
0.77,0.0010062832000023733,-0.7817924599999924,-0.0010597791000031146,-2.3525778599999896,-0.0013752303400041584,1.5718279200000025,0.7800554519999832,0.039999984,0.03999997,-9.82178980000001,-0.009683786705157828,0.018481690800053647,-0.02396773880004443,-0.02190436050297343,-0.0028770822400056135
0.7725,0.0010153438000022577,-0.7817631799999927,-0.001071669900002963,-2.35253800499999,-0.0013911050950039558,1.5718372350000023,0.779991215999984,0.039999984,0.03999997,-9.82182865000001,-0.009766047261675813,0.018686491650051033,-0.024137363150042265,-0.02196228364483961,-0.00289851232000534
0.775,0.0010244044000021425,-0.7817338999999931,-0.001083560700002812,-2.352498149999991,-0.001406979850003754,1.5718465500000023,0.7799269799999848,0.039999984,0.03999997,-9.821867500000009,-0.009848307818193803,0.01889129250004843,-0.024306987500040112,-0.022020206786705798,-0.0029199424000050677
0.7775,0.001033465000002027,-0.7817046199999934,-0.0010954515000026603,-2.3524582949999915,-0.0014228546050035515,1.571855865000002,0.7798627439999856,0.039999984,0.03999997,-9.821906350000008,-0.009930568374711788,0.01909609335004582,-0.02447661185003795,-0.022078129928571978,-0.0029413724800047944
0.78,0.001042525600001912,-0.7816753399999938,-0.001107342300002509,-2.3524184399999917,-0.0014387293600033497,1.571865180000002,0.7797985079999864,0.039999984,0.03999997,-9.821945200000007,-0.010012828931229779,0.019300894200043217,-0.024646236200035792,-0.02213605307043816,-0.002962802560004522
0.7825,0.0010515862000017963,-0.7816460599999941,-0.0011192331000023574,-2.3523785849999923,-0.0014546041150031472,1.5718744950000019,0.7797342719999872,0.039999984,0.03999997,-9.821984050000008,-0.010095089487747764,0.019505695050040604,-0.02481586055003363,-0.02219397621230434,-0.0029842326400042487
0.785,0.0010609266100019316,-0.7816158999999937,-0.001131491690002535,-2.3523374699999917,-0.0014709698900033843,1.571884080000002,0.7796680339999863,0.0399999844,0.0399999703,-9.822011400000004,-0.010185056831706795,0.019731749800048222,-0.024987536400035183,-0.022252051532280315,-0.003006075830004492
0.7875,0.0010704069250020692,-0.7815852999999933,-0.0011439341750027158,-2.352295724999991,-0.0014875811750036257,1.5718938000000022,0.7796007949999852,0.039999985,0.03999997075,-9.822033000000005,-0.010278877569382979,0.01996843150005166,-0.025160238000037694,-0.022310202941311117,-0.003028125575004813
0.79,0.0010798872400022074,-0.7815546999999928,-0.0011563766600028971,-2.3522539799999906,-0.0015041924600038678,1.5719035200000022,0.7795335559999843,0.0399999856,0.039999971200000005,-9.822054600000005,-0.010372698307059166,0.02020511320005511,-0.02533293960004021,-0.02236835435034192,-0.003050175320005134
0.7925,0.0010893675550023452,-0.7815240999999924,-0.0011688191450030779,-2.35221223499999,-0.0015208037450041092,1.5719132400000024,0.7794663169999834,0.039999986200000004,0.03999997165,-9.822076200000005,-0.01046651904473535,0.02044179490005855,-0.02550564120004272,-0.02242650575937272,-0.0030722250650054546
0.795,0.0010988478700024835,-0.781493499999992,-0.0011812616300032593,-2.352170489999989,-0.0015374150300043513,1.5719229600000026,0.7793990779999823,0.0399999868,0.0399999721,-9.822097800000005,-0.010560339782411537,0.020678476600062,-0.025678342800045238,-0.022484657168403522,-0.0030942748100057757
0.7975,0.001108328185002621,-0.7814628999999915,-0.00119370411500344,-2.3521287449999884,-0.0015540263150045927,1.5719326800000026,0.7793318389999814,0.0399999874,0.03999997255,-9.822119400000005,-0.010654160520087719,0.02091515830006544,-0.02585104440004775,-0.022542808577434324,-0.0031163245550060964
0.8,0.0011178085000028838,-0.7814322999999906,-0.001206146600003785,-2.352086999999987,-0.001570637600005053,1.5719424000000028,0.7792645999999795,0.039999988,0.039999973,-9.822141000000004,-0.010747981257762591,0.02115184000006399,-0.026023746000051137,-0.022600959986465375,-0.0031383743000066395
0.8025,0.0011277161350027574,-0.7814003799999911,-0.001219150520003619,-2.352043439999988,-0.0015879986600048316,1.5719526150000027,0.7791943489999804,0.039999988,0.03999997465,-9.822153600000004,-0.010837282892341357,0.021371680000061184,-0.026199436500048894,-0.022659959085301995,-0.0031611869450063486
0.805,0.0011376237700026315,-0.7813684599999915,-0.0012321544400034537,-2.3519998799999886,-0.0016053597200046108,1.5719628300000026,0.7791240979999813,0.039999988,0.039999976300000004,-9.822166200000003,-0.010926584526920127,0.02159152000005839,-0.026375127000046662,-0.02271895818413862,-0.0031839995900060586
0.8075,0.001147531405002505,-0.7813365399999919,-0.001245158360003288,-2.351956319999989,-0.0016227207800043894,1.5719730450000025,0.7790538469999823,0.039999988,0.03999997795,-9.822178800000003,-0.011015886161498893,0.021811360000055586,-0.02655081750004442,-0.022777957282975242,-0.0032068122350057677
0.81,0.0011574390400023791,-0.7813046199999923,-0.0012581622800031226,-2.3519127599999896,-0.001640081840004169,1.5719832600000023,0.7789835959999831,0.039999988,0.0399999796,-9.822191400000003,-0.011105187796077663,0.02203120000005279,-0.026726508000042188,-0.022836956381811865,-0.003229624880005478
0.8125,0.0011673466750022528,-0.7812726999999927,-0.0012711662000029567,-2.35186919999999,-0.0016574429000039475,1.5719934750000022,0.778913344999984,0.039999988,0.039999981250000004,-9.822204000000003,-0.011194489430656429,0.022251040000049984,-0.026902198500039946,-0.02289595548064849,-0.0032524375250051873
0.8150000000000001,0.0011772543100021268,-0.7812407799999931,-0.0012841701200027914,-2.3518256399999906,-0.0016748039600037268,1.572003690000002,0.778843093999985,0.039999988,0.0399999829,-9.822216600000003,-0.011283791065235199,0.02247088000004719,-0.027077889000037714,-0.022954954579485112,-0.0032752501700048973
0.8175,0.0011873067600021352,-0.781208399999993,-0.0012973644350028027,-2.3517813799999905,-0.0016924191300037418,1.572014060000002,0.7787718119999849,0.0399999878,0.0399999838,-9.82224157500001,-0.011376142641549736,0.022702193650052493,-0.02725457360003689,-0.023014268372220165,-0.003298101360004734
0.8200000000000001,0.0011976488400021448,-0.781175099999993,-0.0013109395400028154,-2.3517357199999904,-0.0017105425200037586,1.5720247400000023,0.7786984679999848,0.0399999872,0.0399999832,-9.82229130000001,-0.011474594101330157,0.02295645460005273,-0.027433246400037054,-0.02307421155275149,-0.0033210296400047554
0.8225,0.001207990920002154,-0.781141799999993,-0.0013245146450028274,-2.3516900599999904,-0.0017286659100037747,1.5720354200000022,0.7786251239999847,0.0399999866,0.0399999826,-9.822341025000009,-0.011573045561110575,0.023210715550052958,-0.02761191920003721,-0.023134154733282813,-0.0033439579200047758
0.8250000000000001,0.0012183330000021637,-0.781108499999993,-0.00133808975000284,-2.3516443999999903,-0.0017467893000037917,1.5720461000000023,0.7785517799999847,0.039999986,0.039999981999999996,-9.82239075000001,-0.011671497020890997,0.023464976500053195,-0.02779059200003738,-0.02319409791381414,-0.003366886200004797
0.8275,0.0012286750800021729,-0.781075199999993,-0.0013516648550028522,-2.3515987399999903,-0.0017649126900038078,1.5720567800000023,0.7784784359999847,0.0399999854,0.0399999814,-9.82244047500001,-0.011769948480671415,0.02371923745005342,-0.027969264800037537,-0.02325404109434546,-0.0033898144800048173
0.8300000000000001,0.0012390171600021825,-0.781041899999993,-0.0013652399600028648,-2.3515530799999906,-0.0017830360800038245,1.5720674600000022,0.7784050919999845,0.0399999848,0.0399999808,-9.82249020000001,-0.011868399940451836,0.023973498400053656,-0.028147937600037705,-0.023313984274876787,-0.003412742760004839
0.8325,0.0012493592400021917,-0.781008599999993,-0.0013788150650028768,-2.3515074199999906,-0.0018011594700038406,1.5720781400000023,0.7783317479999845,0.039999984200000005,0.0399999802,-9.82253992500001,-0.011966851400232252,0.024227759350053883,-0.028326610400037863,-0.023373927455408113,-0.003435671040004859
0.835,0.001259995760002393,-0.7809743869999923,-0.0013927771300031413,-2.3514604799999894,-0.0018197993200041935,1.5720891000000026,0.7782563299999831,0.0399999846,0.0399999797,-9.822549449999997,-0.01206188742073455,0.02447092740005273,-0.028507214400040292,-0.023433839902295,-0.0034586703500051118
0.8375,0.00127077950000255,-0.7809397174999918,-0.0014069326750033475,-2.3514128999999886,-0.0018386974000044688,1.5721002000000026,0.778179874999982,0.0399999855,0.03999997925,-9.822538874999998,-0.01215521572159942,0.024708549000056194,-0.028688784000042936,-0.023493736982359688,-0.0034817051750054475
