rsonawane2002/My_IMU/logs_2/traj_294/imu_294.csv
time,j1,j2,j3,j4,j5,j6,j7,gripper1,gripper2,imu_ax,imu_ay,imu_az,imu_gx,imu_gy,imu_gz
476.1833333332289,0.00016700293,-0.785875,4.0107683e-05,-2.3551247,9.29385e-05,1.570997,0.786,0.04,0.04,-9.491749,0.017225254327058792,0.08555643,3.132105e-07,-0.0011641276068985462,1.8953969e-07
476.19999999989557,0.00016700175,-0.78576016,4.012233e-05,-2.3552213,9.2978684e-05,1.5709941,0.786,0.04,0.04,-9.834373,0.0006514311535283923,0.009098779,-2.0337242e-07,-0.002238175831735134,9.431806e-07
476.2166666665622,0.0001669734,-0.7856543,4.018972e-05,-2.35531,9.304784e-05,1.5709913,0.786,0.04,0.04,-9.832443,0.0006938966689631343,0.0075053284,-1.2925696e-06,-0.0032258005812764168,1.040462e-06
476.23333333322887,0.00016687508,-0.78555703,4.0397572e-05,-2.355391,9.3198454e-05,1.5709884,0.786,0.04,0.04,-9.830673,0.0007906905957497656,0.0060329693,-4.196571e-06,-0.004135088063776493,5.4623587e-07
476.2499999998955,0.0001666467,-0.7854678,4.087174e-05,-2.3554652,9.3506365e-05,1.5709856,0.786,0.04,0.04,-9.8289,0.0009315344505012035,0.004629115,-9.462228e-06,-0.004964382853358984,-7.829199e-07
476.2666666665622,0.00016621253,-0.78538626,4.1772437e-05,-2.3555326,9.40685e-05,1.5709827,0.786,0.04,0.04,-9.827298,0.0011083169374614954,0.003276377,-1.812759e-05,-0.005720820277929306,-3.1689367e-06
476.2833333332288,0.00016548255,-0.785312,4.3290434e-05,-2.3555977,9.4997755e-05,1.5709797,0.786,0.04,0.04,-9.825748,0.001324859564192593,0.0019880892,-3.036072e-05,-0.0064054811373353004,-6.810433e-06
476.2999999998955,0.00016435444,-0.7852449,4.5644287e-05,-2.3556564,9.64261e-05,1.5709767,0.786,0.04,0.04,-9.824809,0.001563988858833909,0.000732468,-4.7098205e-05,-0.007040491793304682,-1.1838468e-05
476.3166666665621,0.0001627144,-0.7851842,4.9077087e-05,-2.3557127,9.850951e-05,1.5709732,0.786,0.04,0.039999995,-9.823327,0.0018381576519459486,-0.0004777559,-6.896662e-05,-0.007605396211147308,-1.7703938e-05
476.3333333332288,0.00016043881,-0.7851303,5.3853873e-05,-2.3557634,0.00010139441,1.5709665,0.786,0.04,0.039999995,-9.822397,0.0021203882060945034,-0.0016680122,-9.6272866e-05,-0.008123194798827171,-2.608141e-05
476.34999999989543,0.00015739506,-0.78508294,6.02591e-05,-2.3558133,0.00010524144,1.5709597,0.786,0.04,0.04,-9.821204,0.002431038301438093,-0.0027575514,-0.00012984003,-0.008590685203671455,-3.70471e-05
476.3666666665621,0.00015344273,-0.785042,6.8594265e-05,-2.3558593,0.00011024153,1.5709519,0.786,0.04,0.04,-9.8204365,0.0027661873027682304,-0.0039001743,-0.00016963552,-0.009012386202812195,-4.914689e-05
476.38333333322873,0.00014843456,-0.78500754,7.917582e-05,-2.3559027,0.00011658287,1.5709413,0.7859981,0.04,0.04,-9.819401,0.00310722179710865,-0.0050075203,-0.00021641108,-0.009381881915032864,-6.328859e-05
476.3999999998954,0.00014221735,-0.7849795,9.2333445e-05,-2.3559456,0.00012446301,1.5709285,0.7859962,0.04,0.04,-9.818526,0.0034610996954143047,-0.0060372017,-0.00026130266,-0.009710068814456463,-7.9572936e-05
476.41666666656204,0.00013463254,-0.7849581,0.0001084079,-2.355988,0.00013409389,1.5709138,0.7859943,0.04,0.039999995,-9.817887,0.0038329362869262695,-0.007073646,-0.00031406264,-0.010002958588302135,-9.728686e-05
476.4333333332287,0.00012551753,-0.78494334,0.00012774993,-2.35603,0.00014566575,1.5708956,0.7859924,0.04,0.04,-9.817267,0.004195221234112978,-0.008105883,-0.00037454432,-0.010258602909743786,-0.000118827535
476.44999999989534,0.00011470569,-0.78493536,0.00015071828,-2.356072,0.00015939494,1.5708735,0.7859905,0.04,0.04,-9.816674,0.0045637283474206924,-0.009099791,-0.0004434029,-0.010484067723155022,-0.00014265123
476.466666666562,0.000102027014,-0.78493446,0.00017767814,-2.356114,0.00017553441,1.5708482,0.78598857,0.04,0.03999999,-9.816088,0.00497167045250535,-0.01010129,-0.0005204593,-0.010678797960281372,-0.00016573688
476.48333333322864,8.730983e-05,-0.7849406,0.00020900105,-2.3561563,0.00019426024,1.5708194,0.78598666,0.039999995,0.039999995,-9.815521,0.005330758169293404,-0.011107756,-0.0006060546,-0.010840339586138725,-0.00019518686
476.4999999998953,7.037984e-05,-0.78495413,0.00024506252,-2.3561993,0.00021579833,1.5707862,0.78598285,0.03999999,0.04,-9.814989,0.005712191574275494,-0.012104563,-0.00070078217,-0.010970689356327057,-0.00022703226
476.51666666656195,5.106117e-05,-0.7849754,0.0002862412,-2.3562424,0.00024039113,1.5707487,0.78597903,0.039999988,0.039999995,-9.814449,0.006108068861067295,-0.013085824,-0.000795637,-0.011071300134062767,-0.0002597236
476.5333333332286,2.9177056e-05,-0.7850044,0.00033291816,-2.356287,0.00026826447,1.5707067,0.7859752,0.03999998,0.03999999,-9.813877,0.006476372946053743,-0.01404796,-0.00089995103,-0.011140109039843082,-0.00029577676
476.54999999989525,4.5500515e-06,-0.7850417,0.00038547633,-2.3563366,0.0002996481,1.5706595,0.7859714,0.039999977,0.039999988,-9.813399,0.006861218251287937,-0.015040437,-0.0010134802,-0.011179914698004723,-0.00033349823
476.5666666665619,-2.2997596e-05,-0.78508735,0.00044429896,-2.3563871,0.00033477004,1.5706062,0.7859657,0.039999973,0.039999984,-9.813378,0.0072278836742043495,-0.015989685,-0.0011367333,-0.011208350770175457,-0.00037376737
476.58333333322855,-5.3643478e-05,-0.7851417,0.0005097693,-2.3564386,0.0003738579,1.5705476,0.78595996,0.03999997,0.039999984,-9.812842,0.0075683980248868465,-0.016960103,-0.0012609429,-0.011209656484425068,-0.00041747885
476.5999999998952,-8.756508e-05,-0.785205,0.00058227015,-2.3564963,0.00041714078,1.5704825,0.78595424,0.039999966,0.03999998,-9.81229,0.007941510528326035,-0.017970266,-0.0013948509,-0.011179540306329727,-0.00046291694
476.61666666656185,-0.00012493899,-0.78527766,0.00066218246,-2.3565552,0.0004648454,1.5704108,0.7859467,0.039999958,0.039999973,-9.812362,0.008282157592475414,-0.018958885,-0.0015386774,-0.011143033392727375,-0.0005109456
476.6333333332285,-0.00016594095,-0.78535986,0.00074988557,-2.3566203,0.0005171976,1.5703322,0.7859391,0.039999954,0.039999973,-9.811789,0.00861375592648983,-0.01996274,-0.0016844417,-0.011076199822127819,-0.00056246767
476.64999999989516,-0.00021074577,-0.78545207,0.00084575627,-2.3566868,0.00057442253,1.5702462,0.78593147,0.039999947,0.039999966,-9.811874,0.008939338847994804,-0.020993032,-0.001839747,-0.011004196479916573,-0.0006157417
476.6666666665618,-0.00025952657,-0.7855546,0.00095016847,-2.3567598,0.0006367428,1.5701526,0.78592193,0.039999936,0.039999954,-9.811252,0.00924630556255579,-0.022034679,-0.002005078,-0.010901165194809437,-0.0006716593
476.68333333322846,-0.00031245514,-0.7856678,0.0010634926,-2.356835,0.0007043785,1.5700512,0.7859124,0.03999993,0.03999995,-9.811271,0.009539340622723103,-0.023078233,-0.002171866,-0.010789798572659492,-0.00073109457
476.6999999998951,-0.0003697015,-0.7857917,0.001186096,-2.3569164,0.0007775493,1.5699416,0.7859018,0.039999917,0.03999994,-9.810739,0.00980682298541069,-0.024119567,-0.0023490759,-0.010651016607880592,-0.00079232926
476.71666666656176,-0.00043143364,-0.7859269,0.0013183411,-2.3570046,0.0008564703,1.5698235,0.78589034,0.039999906,0.039999932,-9.8107395,0.01008765958249569,-0.025251335,-0.002531403,-0.010503478348255157,-0.00085711223
476.7333333332284,-0.00049781764,-0.78607357,0.0014605855,-2.3570952,0.0009413564,1.5696963,0.78587824,0.0399999,0.039999925,-9.810731,0.010339675471186638,-0.026367197,-0.0027203965,-0.010347796604037285,-0.00092370994
476.74999999989507,-0.0005690175,-0.7862323,0.0016131839,-2.3571923,0.0010324168,1.5695598,0.7858649,0.0399999,0.03999993,-9.810155,0.01056884415447712,-0.02751933,-0.002916802,-0.010164379142224789,-0.0009938967
476.7666666665617,-0.00064519455,-0.7864032,0.0017764837,-2.3572967,0.0011298606,1.5694138,0.78585106,0.03999989,0.03999992,-9.810042,0.010789783671498299,-0.028661575,-0.0031177371,-0.009970065206289291,-0.0010659316
476.78333333322837,-0.00072650774,-0.78658664,0.0019508294,-2.3574083,0.0012338904,1.5692576,0.7858358,0.039999887,0.039999917,-9.810095,0.010983312502503395,-0.029860612,-0.0033266828,-0.009770067408680916,-0.0011415776
476.799999999895,-0.00081311417,-0.78678304,0.002136559,-2.3575234,0.00134471,1.5690916,0.78582,0.039999884,0.039999917,-9.810074,0.01116609200835228,-0.031089658,-0.0035396535,-0.0095629608258605,-0.0012191219
476.8166666665617,-0.00090516737,-0.78699255,0.002334004,-2.3576453,0.0014625157,1.5689152,0.78580284,0.03999988,0.039999913,-9.809509,0.011324145831167698,-0.032361716,-0.0037601201,-0.009328171610832214,-0.001300302
476.8333333332283,-0.0010028193,-0.78721565,0.0025434918,-2.3577743,0.0015875028,1.5687282,0.7857849,0.039999884,0.03999992,-9.8093605,0.011441495269536972,-0.03361581,-0.0039849244,-0.009081211872398853,-0.0013834331
476.849999999895,-0.001106218,-0.78745234,0.0027653426,-2.3579106,0.0017198614,1.5685301,0.7857658,0.03999989,0.039999932,-9.809263,0.011578347533941269,-0.03496138,-0.0042164163,-0.008823834359645844,-0.0014702482
476.8666666665616,-0.001215509,-0.7877036,0.0029998699,-2.3580546,0.00185978,1.5683208,0.7857457,0.039999895,0.039999936,-9.809154,0.011680606752634048,-0.036330186,-0.0044527934,-0.008557581342756748,-0.0015590537
476.8833333332283,-0.0013308355,-0.78796905,0.0032473826,-2.3582063,0.0020074411,1.5680995,0.78572446,0.0399999,0.039999943,-9.809051,0.011750144883990288,-0.037696533,-0.0046944935,-0.008280211128294468,-0.001651619
476.89999999989493,-0.0014523374,-0.7882493,0.003508183,-2.3583658,0.0021630262,1.5678663,0.78570205,0.039999902,0.039999947,-9.80896,0.011807175353169441,-0.039136022,-0.004941359,-0.007995989173650742,-0.001746226
476.9166666665616,-0.0015801516,-0.7885445,0.0037825666,-2.3585331,0.0023267106,1.567621,0.7856785,0.039999906,0.039999954,-9.808811,0.011829329654574394,-0.040611878,-0.0051926905,-0.007701373193413019,-0.0018446419
476.93333333322823,-0.0017144121,-0.788855,0.004070823,-2.3587084,0.0024986656,1.5673636,0.7856538,0.039999913,0.03999996,-9.808735,0.01183865126222372,-0.04213541,-0.005449184,-0.007399132940918207,-0.0019451939
476.9499999998949,-0.0018552496,-0.78918153,0.0043732333,-2.3588922,0.002679059,1.5670935,0.7856279,0.039999917,0.03999997,-9.808535,0.011784308589994907,-0.04367181,-0.0057101315,-0.007083557080477476,-0.0020496044
476.96666666656154,-0.002002792,-0.7895238,0.0046900753,-2.3590846,0.0028680572,1.5668106,0.7856006,0.039999925,0.039999977,-9.808433,0.011770169250667095,-0.045281284,-0.0059753414,-0.0067596822045743465,-0.0021563072
476.9833333332282,-0.0021571645,-0.78988224,0.0050216154,-2.3592858,0.003065818,1.5665143,0.78557223,0.03999993,0.039999984,-9.808364,0.011699889786541462,-0.046944678,-0.0062439297,-0.0064285630360245705,-0.0022667933
476.99999999989484,-0.002318488,-0.79025704,0.005368118,-2.3594968,0.0032724994,1.5662047,0.78554255,0.039999932,0.03999999,-9.808219,0.011599425226449966,-0.048638284,-0.0065172864,-0.006089534144848585,-0.0023805131
477.0166666665615,-0.0024868813,-0.7906487,0.0057298383,-2.3597171,0.0034882536,1.5658815,0.7855114,0.039999936,0.039999995,-9.808259,0.011482248082756996,-0.050407957,-0.006794466,-0.0057478295639157295,-0.0024965513
477.03333333322814,-0.0026624592,-0.7910573,0.0061070244,-2.3599458,0.003713228,1.5655445,0.785479,0.03999994,0.04,-9.808164,0.011324174702167511,-0.05220439,-0.007073945,-0.005398457869887352,-0.0026166895
477.0499999998948,-0.002845335,-0.7914831,0.0064999196,-2.3601832,0.0039475868,1.5651934,0.7854454,0.039999943,0.04,-9.80793,0.011156808584928513,-0.054067664,-0.0073577175,-0.005037756636738777,-0.0027376583
477.06666666656145,-0.0030356168,-0.7919264,0.0069087553,-2.3604305,0.0041914596,1.564828,0.7854102,0.039999947,0.04,-9.807761,0.010943708941340446,-0.055972196,-0.007644827,-0.0046683624386787415,-0.0028629296
477.0833333332281,-0.0032334104,-0.7923874,0.007333762,-2.3606875,0.004444969,1.5644481,0.7853737,0.039999947,0.04,-9.807686,0.010662980377674103,-0.057880413,-0.007934001,-0.004293384961783886,-0.0029931916
477.09999999989475,-0.003438818,-0.79286647,0.0077751633,-2.3609543,0.004708254,1.564054,0.78533584,0.039999947,0.04,-9.807578,0.01043214276432991,-0.059935696,-0.008226158,-0.003912299871444702,-0.0031260967
477.1166666665614,-0.003651939,-0.7933637,0.008233169,-2.3612306,0.00498145,1.5636448,0.7852966,0.039999954,0.04,-9.807443,0.010138190351426601,-0.06201673,-0.008521116,-0.0035222279839217663,-0.0032617478
477.13333333322805,-0.0038728705,-0.7938792,0.008707992,-2.3615172,0.0052646813,1.5632207,0.78525573,0.03999995,0.04,-9.807266,0.009813085198402405,-0.06412595,-0.008818463,-0.003124699927866459,-0.0034010129
477.1499999998947,-0.0041017057,-0.79441327,0.009199827,-2.3618138,0.0055580665,1.5627816,0.7852135,0.039999954,0.04,-9.807188,0.009455437771975994,-0.06631843,-0.009117167,-0.0027216763701289892,-0.0035439325
477.16666666656135,-0.004338532,-0.7949662,0.009708875,-2.362121,0.0058617014,1.562327,0.7851698,0.039999954,0.04,-9.807047,0.009053305722773075,-0.068559356,-0.00941787,-0.0023121254052966833,-0.003692084
477.183333333228,-0.0045834407,-0.7955382,0.010235315,-2.3624382,0.006175718,1.5618567,0.7851246,0.039999954,0.04,-9.80695,0.008635961450636387,-0.070842184,-0.009720662,-0.0018975605489686131,-0.0038424265
477.19999999989466,-0.0048365123,-0.7961294,0.010779332,-2.3627656,0.006500211,1.5613712,0.785078,0.039999954,0.04,-9.806758,0.008143794722855091,-0.073153846,-0.010024618,-0.001475405297242105,-0.003997361
477.2166666665613,-0.0050978265,-0.7967397,0.011341102,-2.363104,0.006835284,1.5608697,0.78502977,0.039999943,0.03999999,-9.80657,0.007680214010179043,-0.07561742,-0.010330535,-0.0010446722153574228,-0.004156916
477.23333333322796,-0.0053674607,-0.7973697,0.011920786,-2.3634531,0.007180997,1.560352,0.78498,0.03999994,0.04,-9.806528,0.007142562419176102,-0.078112185,-0.010636669,-0.0006123805651441216,-0.0043225936
477.2499999998946,-0.005645492,-0.7980196,0.012518548,-2.3638134,0.0075374893,1.5598183,0.7849287,0.039999936,0.04,-9.80636,0.006601389497518539,-0.08063807,-0.010943898,-0.00017443389515392482,-0.004489079
477.26666666656126,-0.005931988,-0.7986894,0.01313454,-2.3641841,0.007904833,1.5592682,0.78487575,0.039999932,0.04,-9.806231,0.005998558364808559,-0.08324146,-0.0112515185,0.0002691318222787231,-0.004661112
477.2833333332279,-0.006227018,-0.79937917,0.013768906,-2.364566,0.008283136,1.5587016,0.78482133,0.03999993,0.04,-9.8060465,0.005374348722398281,-0.0859084,-0.011559317,0.0007188927265815437,-0.0048357043
477.29999999989457,-0.0065306467,-0.8000891,0.01442179,-2.3649588,0.008672491,1.5581187,0.7847654,0.039999932,0.04,-9.8059225,0.004711231216788292,-0.088645615,-0.011867693,0.0011715451255440712,-0.005013712
477.3166666665612,-0.0068429364,-0.80081946,0.015093318,-2.365363,0.009072932,1.557519,0.7847079,0.03999993,0.04,-9.805712,0.003978163003921509,-0.0914509,-0.012176409,0.0016320758732035756,-0.005199784
477.33333333322787,-0.0071639456,-0.8015701,0.015783625,-2.365778,0.009484601,1.5569028,0.78464866,0.039999936,0.04,-9.805596,0.003234824165701866,-0.094267346,-0.0124850655,0.002095277886837721,-0.0053839823
477.3499999998945,-0.0074937292,-0.8023415,0.016492823,-2.3662047,0.00990752,1.5562695,0.78458774,0.03999993,0.04,-9.805397,0.0024579968303442,-0.097262494,-0.0127923265,0.0025650192983448505,-0.0055772206
477.3666666665612,-0.007832341,-0.80313355,0.01722103,-2.3666422,0.010341766,1.5556194,0.7845252,0.039999925,0.04,-9.805276,0.001642877236008644,-0.100247175,-0.013098896,0.003037203336134553,-0.0057740835
477.3833333332278,-0.008179828,-0.8039465,0.017968355,-2.3670921,0.010787411,1.554952,0.7844611,0.03999992,0.04,-9.805,0.000780569389462471,-0.10333663,-0.013404504,0.003517436794936657,-0.0059746406
477.3999999998945,-0.008536241,-0.8047804,0.018734898,-2.367553,0.011244504,1.5542676,0.7843953,0.039999917,0.04,-9.804959,-0.00012437067925930023,-0.10646674,-0.013709037,0.0039966111071407795,-0.006180537
477.4166666665611,-0.008901627,-0.8056353,0.01952075,-2.3680258,0.011713103,1.5535661,0.78432786,0.039999917,0.04,-9.804714,-0.0010720156133174896,-0.10967883,-0.01401224,0.004482864867895842,-0.006390957
477.4333333332278,-0.009276017,-0.8065112,0.020326007,-2.3685098,0.012193263,1.5528473,0.7842587,0.039999913,0.04,-9.804564,-0.002053486183285713,-0.112974316,-0.0143140415,0.004971540067344904,-0.006606023
477.44999999989443,-0.009659454,-0.8074084,0.021150742,-2.3690054,0.012685047,1.552111,0.7841879,0.039999913,0.04,-9.804316,-0.0031190458685159683,-0.11629137,-0.014613542,0.005466862581670284,-0.0068242564
477.4666666665611,-0.010051974,-0.80832696,0.021995034,-2.3695133,0.013188481,1.5513575,0.78411543,0.03999991,0.04,-9.804165,-0.004165841266512871,-0.1197653,-0.014911218,0.005963580682873726,-0.007048886
477.48333333322773,-0.010453608,-0.80926675,0.022858946,-2.3700323,0.013703614,1.5505862,0.78404135,0.039999906,0.04,-9.803958,-0.005283119156956673,-0.12326438,-0.015206586,0.006465479265898466,-0.007278242
477.4999999998944,-0.010864382,-0.810228,0.023742544,-2.3705637,0.014230482,1.5497974,0.7839656,0.039999913,0.04,-9.803715,-0.006443645805120468,-0.12684797,-0.01549997,0.006970640271902084,-0.007511717
477.51666666656104,-0.011284328,-0.8112107,0.024645891,-2.3711066,0.014769128,1.548991,0.7838881,0.0399999,0.039999995,-9.803599,-0.007659010589122772,-0.13049729,-0.015790453,0.007476191967725754,-0.007750985
477.5333333332277,-0.011713466,-0.81221503,0.025569033,-2.3716617,0.015319546,1.5481671,0.7838089,0.039999902,0.04,-9.803314,-0.008914951235055923,-0.13422441,-0.016078334,0.0079872477799654,-0.007995846
477.54999999989434,-0.012151816,-0.8132408,0.026512021,-2.3722281,0.015881801,1.5473253,0.783728,0.039999895,0.04,-9.803126,-0.010212861001491547,-0.13802813,-0.016362604,0.008501656353473663,-0.008244193
477.566666666561,-0.012599404,-0.8142884,0.02747488,-2.3728065,0.016455896,1.5464655,0.78364533,0.039999895,0.04,-9.802875,-0.011570047587156296,-0.14191398,-0.01664385,0.009018571116030216,-0.008498263
477.58333333322764,-0.013056239,-0.8153577,0.028457653,-2.3733976,0.017041866,1.545588,0.783561,0.039999895,0.04,-9.802658,-0.013002414256334305,-0.14580652,-0.016921237,0.009537960402667522,-0.008756766
477.5999999998943,-0.013522332,-0.81644857,0.029460361,-2.3740005,0.017639728,1.5446928,0.7834749,0.039999895,0.04,-9.802464,-0.014421042054891586,-0.14987922,-0.017194968,0.01005842350423336,-0.0090211285
477.61666666656095,-0.0139976945,-0.8175612,0.030483032,-2.3746154,0.018249484,1.5437799,0.7833871,0.039999887,0.04,-9.8022585,-0.015921853482723236,-0.1540133,-0.017464694,0.010580513626337051,-0.009290782
477.6333333332276,-0.014482332,-0.8186955,0.03152567,-2.3752418,0.018871125,1.5428492,0.78329766,0.039999887,0.04,-9.801992,-0.017476888373494148,-0.15820156,-0.01773048,0.011106597259640694,-0.009566256
477.64999999989425,-0.014976254,-0.8198517,0.032588314,-2.3758802,0.019504698,1.5419005,0.7832066,0.039999884,0.04,-9.801672,-0.01907218061387539,-0.16247973,-0.017991796,0.011637594550848007,-0.009845381
477.6666666665609,-0.015479457,-0.8210296,0.033670932,-2.3765311,0.020150185,1.5409338,0.78311366,0.039999876,0.04,-9.80141,-0.020741602405905724,-0.16680825,-0.018249009,0.012170843780040741,-0.01013054
477.68333333322755,-0.015991943,-0.8222292,0.03477354,-2.3771935,0.020807583,1.5399489,0.783019,0.039999872,0.04,-9.801249,-0.0224468894302845,-0.17123996,-0.018500736,0.012702361680567265,-0.010421009
477.6999999998942,-0.016513715,-0.82345074,0.035896122,-2.3778677,0.02147689,1.5389469,0.7829227,0.039999876,0.04,-9.800906,-0.024253280833363533,-0.17569393,-0.018747784,0.013237602077424526,-0.010716748
477.71666666656085,-0.017044757,-0.82469386,0.037038665,-2.378554,0.022158086,1.537927,0.78282464,0.03999987,0.04,-9.800586,-0.02603255771100521,-0.18032467,-0.018989746,0.013778537511825562,-0.011018505
477.7333333332275,-0.017585069,-0.82595885,0.03820116,-2.3792527,0.022851177,1.5368892,0.7827249,0.039999865,0.04,-9.800332,-0.027905214577913284,-0.18500318,-0.01922617,0.01432060543447733,-0.011324835
477.74999999989416,-0.018134631,-0.8272456,0.039383594,-2.3799636,0.023556137,1.5358336,0.78262347,0.039999854,0.04,-9.8000765,-0.029846185818314552,-0.18973222,-0.019457377,0.014862996526062489,-0.011637125
477.7666666665608,-0.018693436,-0.82855386,0.04058592,-2.3806858,0.024272947,1.53476,0.78252035,0.03999985,0.04,-9.799819,-0.031834863126277924,-0.19455877,-0.01968246,0.015406040474772453,-0.011954701
477.78333333322746,-0.019261466,-0.8298837,0.04180811,-2.3814204,0.025001604,1.5336688,0.78241557,0.039999843,0.04,-9.79944,-0.033880751579999924,-0.19947895,-0.019902004,0.01595289632678032,-0.012276783
477.7999999998941,-0.019838706,-0.8312354,0.043050103,-2.3821664,0.025742058,1.5325601,0.782309,0.03999984,0.04,-9.799232,-0.03599873557686806,-0.20447539,-0.020115612,0.016497736796736717,-0.012605709
477.81666666656076,-0.020425135,-0.83260864,0.04431188,-2.3829248,0.026494307,1.5314338,0.78220063,0.03999983,0.04,-9.798812,-0.038157202303409576,-0.20953773,-0.02032237,0.017049912363290787,-0.01293836
477.8333333332274,-0.021020731,-0.83400303,0.045593392,-2.3836944,0.027258312,1.5302898,0.78209066,0.039999824,0.04,-9.798558,-0.04042849689722061,-0.21464853,-0.020522293,0.01760169304907322,-0.013277007
477.84999999989407,-0.021625461,-0.8354189,0.046894584,-2.3844764,0.028034048,1.5291282,0.781979,0.039999824,0.04,-9.798203,-0.04267764836549759,-0.21994545,-0.02071578,0.018153907731175423,-0.013620147
477.8666666665607,-0.022239303,-0.8368562,0.04821539,-2.38527,0.028821463,1.5279493,0.7818658,0.03999981,0.04,-9.797927,-0.04504209756851196,-0.22527127,-0.020902691,0.01870562881231308,-0.01397001
477.88333333322737,-0.022862228,-0.83831465,0.049555723,-2.3860757,0.029620536,1.5267527,0.7817508,0.039999805,0.04,-9.79755,-0.0474468432366848,-0.23067552,-0.021082887,0.01926121860742569,-0.014323526
477.899999999894,-0.023494203,-0.8397944,0.05091554,-2.3868928,0.030431222,1.5255388,0.7816341,0.0399998,0.04,-9.797249,-0.049920421093702316,-0.2361697,-0.021255486,0.019814837723970413,-0.014682271
477.9166666665607,-0.024135195,-0.8412952,0.05229477,-2.3877215,0.031253483,1.5243076,0.7815157,0.039999794,0.04,-9.796877,-0.052475422620773315,-0.24173822,-0.021420458,0.020370835438370705,-0.015046976
477.9333333332273,-0.024785168,-0.84281707,0.05369333,-2.3885615,0.03208726,1.523059,0.78139573,0.039999783,0.04,-9.796513,-0.055088963359594345,-0.24741098,-0.02157798,0.0209274310618639,-0.015417463
477.949999999894,-0.025444075,-0.8443598,0.055111114,-2.3894134,0.03293247,1.5217935,0.78127396,0.039999776,0.04,-9.796118,-0.057798609137535095,-0.25310382,-0.02172791,0.021486731246113777,-0.015792081
477.9666666665606,-0.026111877,-0.84592354,0.05654805,-2.3902767,0.033789113,1.5205108,0.78115064,0.039999772,0.04,-9.79577,-0.060500048100948334,-0.25898802,-0.021869335,0.02204545959830284,-0.016170915
477.9833333332273,-0.026788536,-0.84750795,0.05800404,-2.3911514,0.034657117,1.5192107,0.7810257,0.03999977,0.04,-9.795383,-0.06331876665353775,-0.26488265,-0.022003204,0.02260521985590458,-0.016555406
477.99999999989393,-0.027474003,-0.84911305,0.05947899,-2.3920379,0.035536427,1.517894,0.78089917,0.03999977,0.04,-9.795008,-0.06618887931108475,-0.27086732,-0.022129072,0.02316335402429104,-0.016943237
478.0166666665606,-0.028168231,-0.8507385,0.0609728,-2.3929353,0.036427,1.5165602,0.78077096,0.03999976,0.04,-9.794664,-0.06914178282022476,-0.276963,-0.022246663,0.023721104487776756,-0.017336577
478.03333333322723,-0.028871175,-0.85238445,0.062485352,-2.3938441,0.037328742,1.5152099,0.78064126,0.039999757,0.04,-9.794202,-0.07216194272041321,-0.28314286,-0.022355411,0.02428039349615574,-0.017734788
478.0499999998939,-0.029582778,-0.85405064,0.064016536,-2.394764,0.03824161,1.5138427,0.78050995,0.03999976,0.04,-9.793839,-0.0752425268292427,-0.28939432,-0.022456147,0.024838831275701523,-0.018136717
478.06666666656054,-0.030302988,-0.8557371,0.06556625,-2.3956952,0.03916553,1.5124594,0.780377,0.039999753,0.04,-9.79338,-0.07841162383556366,-0.29573637,-0.022548141,0.025397971272468567,-0.0185442
478.0833333332272,-0.031031752,-0.8574437,0.06713434,-2.3966374,0.040100418,1.5110599,0.7802424,0.039999757,0.04,-9.792996,-0.08167815208435059,-0.30212486,-0.02263066,0.02595851942896843,-0.01895517
478.09999999989384,-0.031769,-0.85917014,0.06872072,-2.3975906,0.04104622,1.5096433,0.78010625,0.039999753,0.04,-9.792531,-0.08494476228952408,-0.3086695,-0.022704422,0.026520362123847008,-0.019371355
478.1166666665605,-0.032514695,-0.8609164,0.07032525,-2.3985548,0.04200285,1.5082113,0.7799686,0.03999975,0.04,-9.792116,-0.08832994848489761,-0.31524485,-0.022769064,0.027077961713075638,-0.019791946
478.13333333322714,-0.03326875,-0.8626821,0.07194777,-2.3995295,0.042970225,1.5067633,0.7798295,0.039999746,0.04,-9.791642,-0.09177565574645996,-0.32194728,-0.022824561,0.027639156207442284,-0.02021575
478.1499999998938,-0.03403111,-0.86446744,0.07358817,-2.4005153,0.043948244,1.5052978,0.77968884,0.039999742,0.04,-9.791185,-0.09530358016490936,-0.3287188,-0.022871079,0.028200620785355568,-0.020644415
478.16666666656045,-0.034801725,-0.8662721,0.07524631,-2.4015117,0.04493685,1.5038167,0.77954656,0.03999974,0.04,-9.790765,-0.09890682995319366,-0.3355216,-0.022907931,0.028753606602549553,-0.0210763
478.1833333332271,-0.035580523,-0.86809576,0.076922044,-2.4025185,0.045935936,1.5023203,0.7794028,0.039999735,0.04,-9.790294,-0.10258705914020538,-0.3424791,-0.022934875,0.029307611286640167,-0.021512773
478.19999999989375,-0.03636743,-0.86993855,0.07861522,-2.4035356,0.04694541,1.5008082,0.77925754,0.03999974,0.04,-9.789792,-0.10637648403644562,-0.34948936,-0.02295225,0.029863204807043076,-0.021952849
478.2166666665604,-0.037162364,-0.87179995,0.08032565,-2.404563,0.047965217,1.4992808,0.7791109,0.039999735,0.04,-9.789278,-0.11017189174890518,-0.35662115,-0.022959571,0.03041848912835121,-0.022395635
478.23333333322705,-0.037965253,-0.8736801,0.08205323,-2.405601,0.048995227,1.4977387,0.77896273,0.039999727,0.04,-9.788765,-0.11409254372119904,-0.36383754,-0.02295777,0.030972924083471298,-0.022844397
478.2499999998937,-0.038776033,-0.8755787,0.08379775,-2.4066489,0.050035365,1.4961817,0.778813,0.039999712,0.04,-9.788303,-0.11807702481746674,-0.37112153,-0.022945749,0.03152712062001228,-0.023295471
478.26666666656035,-0.039594624,-0.8774957,0.085559115,-2.4077072,0.051085476,1.4946096,0.77866185,0.03999971,0.04,-9.787711,-0.1221565529704094,-0.37849134,-0.022923045,0.03208455443382263,-0.023751166
478.283333333227,-0.040420953,-0.87943083,0.08733708,-2.4087756,0.052145496,1.4930226,0.77850926,0.039999697,0.04,-9.787238,-0.1262933760881424,-0.3859234,-0.02289045,0.03263795003294945,-0.024208037
478.29999999989366,-0.041254934,-0.8813839,0.08913148,-2.4098527,0.053215344,1.4914207,0.7783553,0.0399997,0.04,-9.786721,-0.13050943613052368,-0.3934456,-0.022847624,0.03318914398550987,-0.02466696
478.3166666665603,-0.04209649,-0.88335454,0.09094221,-2.410941,0.05429491,1.4898045,0.7781999,0.039999694,0.04,-9.786041,-0.13481920957565308,-0.40105528,-0.022794725,0.033744219690561295,-0.025128668
478.33333333322696,-0.042945527,-0.88534284,0.09276902,-2.4120393,0.055384077,1.4881737,0.7780431,0.039999686,0.04,-9.785665,-0.13923399150371552,-0.40873545,-0.022731043,0.0342920646071434,-0.025593612
478.3499999998936,-0.043801982,-0.88734835,0.09461173,-2.413146,0.056482736,1.4865288,0.777885,0.03999968,0.04,-9.785162,-0.1436689794063568,-0.4165546,-0.022657234,0.03483469784259796,-0.026060127
478.36666666656026,-0.044665743,-0.8893711,0.096470185,-2.414262,0.057590768,1.4848697,0.7777256,0.03999967,0.04,-9.784424,-0.1482297033071518,-0.42443094,-0.022573607,0.03538166359066963,-0.026530331
478.3833333332269,-0.04553675,-0.89141077,0.0983442,-2.415388,0.05870807,1.483197,0.77756476,0.039999664,0.04,-9.7838,-0.15285126864910126,-0.43236938,-0.022478955,0.03592873737215996,-0.027000844
478.39999999989357,-0.046414893,-0.89346725,0.10023358,-2.4165237,0.05983453,1.4815104,0.7774026,0.03999967,0.04,-9.783302,-0.15756231546401978,-0.4404107,-0.022374056,0.036470524966716766,-0.027473088
478.4166666665602,-0.0473001,-0.89554024,0.10213809,-2.417668,0.060970068,1.4798102,0.77723926,0.039999664,0.04,-9.782747,-0.16234751045703888,-0.4485321,-0.022258312,0.03700823709368706,-0.027946295
478.43333333322687,-0.048192263,-0.8976296,0.104057565,-2.4188209,0.062114526,1.4780967,0.7770746,0.039999656,0.04,-9.7821,-0.16723154485225677,-0.45673487,-0.022132833,0.03754493221640587,-0.02842249
478.4499999998935,-0.049091283,-0.8997348,0.105991796,-2.4199827,0.06326776,1.4763701,0.7769086,0.039999653,0.04,-9.781398,-0.17221982777118683,-0.46498966,-0.021996459,0.03808403015136719,-0.028899897
478.4666666665602,-0.04999708,-0.9018558,0.10794059,-2.4211535,0.06442967,1.4746305,0.77674145,0.03999965,0.04,-9.780795,-0.17722158133983612,-0.4733951,-0.021849299,0.038617558777332306,-0.02937679
478.4833333332268,-0.05090955,-0.90399265,0.10990372,-2.422333,0.06560018,1.4728779,0.776573,0.03999965,0.04,-9.780165,-0.18234990537166595,-0.48184767,-0.021691969,0.039148204028606415,-0.02985525
478.4999999998935,-0.051828604,-0.9061452,0.11188098,-2.4235208,0.066779114,1.4711128,0.7764033,0.039999634,0.04,-9.779512,-0.1875622421503067,-0.49037153,-0.02152347,0.039675720036029816,-0.030334594
478.5166666665601,-0.05275414,-0.9083125,0.11387213,-2.4247172,0.06796631,1.4693352,0.77623254,0.039999638,0.04,-9.778791,-0.19285273551940918,-0.4989619,-0.021344796,0.040203921496868134,-0.030814813
478.5333333332268,-0.053686038,-0.91049474,0.11587705,-2.4259217,0.06916173,1.4675454,0.7760604,0.039999634,0.04,-9.778176,-0.19821733236312866,-0.50769544,-0.021155916,0.04072564095258713,-0.03129474
478.54999999989343,-0.05462421,-0.9126919,0.11789541,-2.4271338,0.07036517,1.4657434,0.77588725,0.039999627,0.04,-9.777462,-0.2036907970905304,-0.5164683,-0.020955678,0.041245099157094955,-0.031775218
478.5666666665601,-0.05556857,-0.91490334,0.11992703,-2.4283545,0.0715765,1.4639297,0.77571285,0.03999961,0.04,-9.776714,-0.20923350751399994,-0.5253027,-0.020745292,0.04176362603902817,-0.032256305
478.58333333322673,-0.056518987,-0.91712904,0.121971644,-2.4295828,0.07279562,1.4621042,0.7755374,0.039999604,0.04,-9.776069,-0.21487125754356384,-0.5342397,-0.0205242,0.04227661341428757,-0.0327361
478.5999999998934,-0.057475366,-0.9193687,0.1240291,-2.4308188,0.074022375,1.4602674,0.77536094,0.039999604,0.04,-9.775328,-0.2205439805984497,-0.5432711,-0.020292995,0.042785946279764175,-0.03321468
478.61666666656004,-0.05843761,-0.921622,0.12609911,-2.4320621,0.07525663,1.4584194,0.77518326,0.039999597,0.04,-9.774548,-0.2263508141040802,-0.55236787,-0.020052038,0.043294187635183334,-0.0336931
478.6333333332267,-0.059405603,-0.9238886,0.1281815,-2.4333127,0.076498285,1.4565604,0.7750046,0.039999593,0.04,-9.773756,-0.23221296072006226,-0.5615442,-0.019800078,0.043800026178359985,-0.03416967
478.64999999989334,-0.06037923,-0.92616856,0.130276,-2.4345708,0.07774713,1.4546905,0.7748249,0.039999582,0.04,-9.772985,-0.23818713426589966,-0.57079446,-0.019537956,0.04430181160569191,-0.034645785
478.66666666656,-0.061358385,-0.9284616,0.13238229,-2.435836,0.07900305,1.4528099,0.77464426,0.03999958,0.04,-9.772245,-0.24421977996826172,-0.5801194,-0.019265627,0.044798385351896286,-0.0351201
478.68333333322664,-0.062342945,-0.93076724,0.13450025,-2.4371085,0.080265895,1.4509192,0.7744625,0.039999574,0.04,-9.77145,-0.25033220648765564,-0.5895084,-0.018983826,0.04529165104031563,-0.035592947
478.6999999998933,-0.06333283,-0.9330854,0.13662961,-2.4383876,0.08153553,1.4490181,0.77427983,0.039999574,0.04,-9.770698,-0.25654515624046326,-0.59898925,-0.018691316,0.04578015208244324,-0.03606221
478.71666666655995,-0.0643279,-0.9354156,0.13877007,-2.4396732,0.082811825,1.447107,0.77409613,0.039999567,0.04,-9.769814,-0.26283350586891174,-0.6085458,-0.018389398,0.04626613110303879,-0.036530547
478.7333333332266,-0.065328024,-0.93775773,0.14092144,-2.4409661,0.08409462,1.445186,0.7739116,0.039999563,0.04,-9.768963,-0.26918891072273254,-0.6181771,-0.01807719,0.0467473529279232,-0.036995854
478.74999999989325,-0.06633312,-0.94011134,0.14308347,-2.4422655,0.085383795,1.443256,0.77372605,0.039999563,0.04,-9.768208,-0.27564671635627747,-0.6278914,-0.01775562,0.04722047597169876,-0.03745937
478.7666666665599,-0.067343056,-0.94247633,0.14525585,-2.4435713,0.08667918,1.4413166,0.7735396,0.039999556,0.04,-9.767343,-0.2821732461452484,-0.6376952,-0.017424162,0.047690656036138535,-0.037919287
478.78333333322655,-0.068357766,-0.9448524,0.14743842,-2.4448822,0.087980606,1.4393679,0.7733523,0.039999552,0.04,-9.766491,-0.2887813150882721,-0.64755255,-0.017083181,0.04815502464771271,-0.03837702
478.7999999998932,-0.06937704,-0.9472392,0.14963084,-2.4461997,0.08928792,1.4374104,0.7731641,0.039999545,0.04,-9.765459,-0.2954837381839752,-0.6574661,-0.01673306,0.048618629574775696,-0.03883172
478.81666666655985,-0.070400804,-0.94963646,0.15183288,-2.4475222,0.09060096,1.4354445,0.7729752,0.039999537,0.04,-9.764662,-0.3022359311580658,-0.66747326,-0.016373174,0.049073588103055954,-0.039281618
478.8333333332265,-0.07142896,-0.95204395,0.15404427,-2.4488509,0.091919586,1.4334701,0.77278537,0.03999953,0.04,-9.763643,-0.30911436676979065,-0.67753446,-0.016004574,0.04952866584062576,-0.039728254
478.84999999989316,-0.07246134,-0.9544615,0.1562648,-2.4501848,0.093243696,1.4314879,0.77259487,0.039999526,0.04,-9.762754,-0.3160155713558197,-0.6876831,-0.015626766,0.049975525587797165,-0.040170245
478.8666666665598,-0.07349783,-0.9568887,0.15849423,-2.4515243,0.09457302,1.4294976,0.77240366,0.03999952,0.04,-9.761773,-0.323034405708313,-0.6978838,-0.015240329,0.05041961744427681,-0.040608555
478.88333333322646,-0.07453831,-0.95932513,0.16073216,-2.4528687,0.095907465,1.4274997,0.7722115,0.039999507,0.04,-9.760801,-0.3301265835762024,-0.7081622,-0.014845274,0.05085708573460579,-0.04104273
478.8999999998931,-0.075582676,-0.9617708,0.16297835,-2.4542184,0.0972469,1.4254942,0.7720188,0.039999504,0.04,-9.759802,-0.3372710645198822,-0.7185,-0.01444088,0.05128960683941841,-0.04147025
478.91666666655976,-0.076630816,-0.964225,0.16523261,-2.4555726,0.09859112,1.4234813,0.7718253,0.039999496,0.04,-9.758837,-0.3445121645927429,-0.72891104,-0.014029166,0.051715072244405746,-0.041895397
478.9333333332264,-0.077682585,-0.9666878,0.16749465,-2.456932,0.09993997,1.4214617,0.7716312,0.039999492,0.04,-9.757789,-0.3518155515193939,-0.7393803,-0.013608975,0.05213433876633644,-0.042313766
478.94999999989307,-0.07873787,-0.9691589,0.16976419,-2.458295,0.101293325,1.4194354,0.77143645,0.03999949,0.04,-9.756811,-0.3592042028903961,-0.74992794,-0.013180747,0.05254783853888512,-0.042726725
478.9666666665597,-0.07979654,-0.9716381,0.17204094,-2.459663,0.10265099,1.4174027,0.77124107,0.039999485,0.04,-9.755643,-0.3666640520095825,-0.7605209,-0.0127448635,0.05295808985829353,-0.04313469
478.98333333322637,-0.08085845,-0.97412455,0.17432462,-2.4610348,0.10401281,1.4153636,0.771045,0.039999478,0.04,-9.75459,-0.3741934597492218,-0.7711681,-0.012301676,0.053363267332315445,-0.043537512
478.999999999893,-0.08192349,-0.97661847,0.17661501,-2.462411,0.105378635,1.4133188,0.7708486,0.039999474,0.04,-9.753506,-0.38178443908691406,-0.7819057,-0.011850268,0.053759463131427765,-0.043932542
479.0166666665597,-0.08299152,-0.97911936,0.1789118,-2.4637911,0.10674828,1.411268,0.77065146,0.039999463,0.04,-9.752389,-0.3894745409488678,-0.79268855,-0.011392436,0.05415128171443939,-0.04432249
479.0333333332263,-0.084062405,-0.981627,0.18121472,-2.4651747,0.10812158,1.4092118,0.7704537,0.03999946,0.04,-9.75133,-0.39721575379371643,-0.8035357,-0.010927574,0.05453312769532204,-0.044706684
479.049999999893,-0.08513603,-0.9841407,0.18352349,-2.4665616,0.10949837,1.4071501,0.77025557,0.03999945,0.04,-9.750096,-0.4050258696079254,-0.8144238,-0.010454828,0.05491223931312561,-0.04508277
479.0666666665596,-0.08621226,-0.9866608,0.18583779,-2.4679518,0.11087849,1.405084,0.7700571,0.039999444,0.04,-9.748971,-0.4129093289375305,-0.82540554,-0.009975988,0.0552811436355114,-0.045452315
479.0833333332263,-0.08729098,-0.9891865,0.18815742,-2.469345,0.112261765,1.4030128,0.769858,0.03999944,0.04,-9.74778,-0.4208575487136841,-0.8364074,-0.009491904,0.05564732849597931,-0.04581518
479.09999999989293,-0.08837202,-0.99171776,0.19048202,-2.470741,0.11364806,1.4009374,0.7696585,0.039999433,0.04,-9.746548,-0.42887550592422485,-0.84747195,-0.009000612,0.05600510910153389,-0.046170097
479.1166666665596,-0.089455284,-0.99425423,0.19281134,-2.4721403,0.11503714,1.3988574,0.7694585,0.03999943,0.04,-9.745249,-0.4369637370109558,-0.8585776,-0.008503309,0.05636005476117134,-0.046518467
479.13333333322623,-0.090540625,-0.99679554,0.1951451,-2.4735425,0.11642889,1.3967735,0.76925826,0.03999942,0.04,-9.744112,-0.4451048970222473,-0.86974853,-0.008000139,0.05670194327831268,-0.046859827
479.1499999998929,-0.09162795,-0.9993415,0.19748303,-2.474947,0.117823124,1.3946859,0.76905763,0.039999418,0.04,-9.742846,-0.4533044993877411,-0.8809758,-0.007492354,0.05703730508685112,-0.047191937
479.16666666655954,-0.09271706,-1.0018915,0.1998248,-2.4763534,0.11921969,1.3925948,0.7688567,0.039999407,0.04,-9.741525,-0.46158045530319214,-0.892241,-0.00697962,0.05736742913722992,-0.047517397
479.1833333332262,-0.09380786,-1.0044454,0.20217013,-2.4777622,0.12061837,1.3905008,0.7686554,0.039999403,0.04,-9.740205,-0.4699127674102783,-0.90356046,-0.006461425,0.05768981948494911,-0.047833957
479.19999999989284,-0.09490022,-1.007003,0.20451882,-2.479173,0.12201903,1.3884037,0.7684539,0.039999396,0.04,-9.738935,-0.4782847464084625,-0.9149609,-0.005938534,0.05800481513142586,-0.048142258
479.2166666665595,-0.09599399,-1.009564,0.20687045,-2.4805856,0.12342148,1.3863039,0.7682521,0.039999392,0.04,-9.737568,-0.48674276471138,-0.92634994,-0.0054114875,0.05831107497215271,-0.04844121
479.23333333322614,-0.09708905,-1.0121282,0.20922486,-2.482,0.124825574,1.3842015,0.7680501,0.03999939,0.04,-9.736188,-0.49524617195129395,-0.9377884,-0.00488048,0.05861105024814606,-0.04873286
479.2499999998928,-0.09818525,-1.0146948,0.21158166,-2.483416,0.12623113,1.382097,0.7678477,0.03999938,0.04,-9.734855,-0.5037965178489685,-0.9492697,-0.0043459097,0.058900825679302216,-0.049014248
479.26666666655944,-0.09928247,-1.0172638,0.21394062,-2.4848332,0.12763794,1.3799907,0.7676453,0.039999377,0.04,-9.733439,-0.512408435344696,-0.9608334,-0.003806804,0.05918220803141594,-0.04928684
479.2833333332261,-0.10038055,-1.0198348,0.2163014,-2.4862514,0.12904589,1.3778826,0.76744276,0.039999366,0.04,-9.731999,-0.5210843682289124,-0.9724099,-0.003265004,0.059457022696733475,-0.049551427
479.29999999989275,-0.101479396,-1.0224074,0.21866377,-2.4876704,0.13045472,1.3757733,0.7672399,0.03999936,0.04,-9.730557,-0.5297964215278625,-0.9840354,-0.0027203395,0.05972205102443695,-0.049807005
479.3166666665594,-0.10257883,-1.0249817,0.2210274,-2.4890897,0.13186438,1.3736628,0.76703703,0.039999347,0.04,-9.729077,-0.5385540127754211,-0.99569565,-0.0021720007,0.059980448335409164,-0.05005129
479.33333333322605,-0.10367878,-1.0275569,0.22339205,-2.4905097,0.1332746,1.3715513,0.76683414,0.039999343,0.04,-9.727517,-0.5473755598068237,-1.007361,-0.0016210977,0.060234230011701584,-0.050286762
479.3499999998927,-0.10477906,-1.0301327,0.22575736,-2.4919302,0.1346853,1.3694392,0.7666311,0.03999934,0.04,-9.726056,-0.5562406778335571,-1.0190867,-0.001068738,0.06047501787543297,-0.050511815
479.36666666655935,-0.10587953,-1.0327091,0.22812308,-2.4933517,0.13609618,1.367327,0.7664281,0.03999933,0.04,-9.724496,-0.5651518106460571,-1.0308582,-0.0005139371,0.060707997530698776,-0.05072918
479.383333333226,-0.106980085,-1.0352856,0.23048888,-2.4947736,0.13750716,1.3652146,0.7662251,0.03999933,0.04,-9.723034,-0.574083149433136,-1.0426337,4.191219e-05,0.06093047931790352,-0.050934363
479.39999999989266,-0.108080566,-1.0378621,0.23285449,-2.4961953,0.13891807,1.3631023,0.7660221,0.039999325,0.04,-9.721523,-0.583065390586853,-1.0544764,0.0005985367,0.06114083528518677,-0.05113043
479.4166666665593,-0.109180845,-1.0404382,0.23521966,-2.4976165,0.14032868,1.3609904,0.7658191,0.039999314,0.04,-9.719883,-0.5921111106872559,-1.0662997,0.0011564307,0.06134406104683876,-0.051317584
479.43333333322596,-0.11028083,-1.0430135,0.23758407,-2.4990366,0.14173885,1.358879,0.76561606,0.039999306,0.04,-9.718245,-0.6011810302734375,-1.0781617,0.0017153423,0.06153930723667145,-0.051493436
479.4499999998926,-0.11138031,-1.0455874,0.23994742,-2.5004559,0.1431484,1.3567687,0.7654132,0.0399993,0.04,-9.716557,-0.6102815866470337,-1.0900617,0.0022751575,0.06172672286629677,-0.051658154
479.46666666655926,-0.112479195,-1.04816,0.24230944,-2.501875,0.14455718,1.3546594,0.76521057,0.03999929,0.04,-9.714867,-0.619454026222229,-1.1019682,0.0028350262,0.06190592050552368,-0.051813837
479.4833333332259,-0.11357734,-1.0507306,0.24466982,-2.5032926,0.14596498,1.3525516,0.76500803,0.039999284,0.04,-9.713245,-0.6286181807518005,-1.1139051,0.0033940398,0.0620720237493515,-0.051958736
479.49999999989257,-0.11467462,-1.0532995,0.24702828,-2.5047092,0.14737163,1.3504454,0.7648057,0.039999273,0.04,-9.711483,-0.6378410458564758,-1.1258693,0.0039532236,0.06223037838935852,-0.052093536
479.5166666665592,-0.115770884,-1.0558658,0.24938451,-2.5061245,0.14877696,1.3483413,0.7646035,0.03999926,0.04,-9.70979,-0.6470756530761719,-1.1378126,0.004511064,0.06237919628620148,-0.052216824
479.53333333322587,-0.11686602,-1.0584295,0.25173825,-2.5075388,0.1501808,1.3462394,0.76440144,0.03999926,0.04,-9.708023,-0.6563513278961182,-1.1498208,0.005068096,0.06251854449510574,-0.052329604
479.5499999998925,-0.117959894,-1.0609905,0.25408918,-2.508951,0.15158299,1.3441403,0.7641996,0.039999254,0.04,-9.706304,-0.6656351089477539,-1.16182,0.0056238207,0.06264623999595642,-0.052430913
479.5666666665592,-0.11905233,-1.0635478,0.2564371,-2.5103612,0.15298332,1.3420436,0.76399815,0.03999925,0.04,-9.704453,-0.6749721765518188,-1.1738086,0.006177867,0.06276854127645493,-0.05252106
479.5833333332258,-0.1201432,-1.0661016,0.25878164,-2.5117698,0.15438166,1.33995,0.7637969,0.039999243,0.04,-9.702657,-0.6843265295028687,-1.185869,0.0067298077,0.06287860125303268,-0.052602217
479.5999999998925,-0.12123242,-1.0686513,0.26112255,-2.5131755,0.15577786,1.3378596,0.76359606,0.03999923,0.04,-9.700853,-0.6936964392662048,-1.1978787,0.0072797183,0.06297729164361954,-0.052671473
479.6166666665591,-0.12231981,-1.071197,0.26345944,-2.5145793,0.1571717,1.335773,0.7633955,0.03999923,0.04,-9.698916,-0.7030971050262451,-1.2099115,0.007827149,0.06306856870651245,-0.052728046
479.6333333332258,-0.1234053,-1.0737383,0.26579213,-2.5159807,0.15856303,1.33369,0.7631953,0.039999224,0.04,-9.69708,-0.7125089764595032,-1.2219431,0.008371508,0.06314988434314728,-0.05277532
479.64999999989243,-0.12448869,-1.0762742,0.26812023,-2.5173788,0.15995169,1.3316109,0.76299536,0.03999921,0.04,-9.695203,-0.7219457030296326,-1.2339723,0.008912213,0.06322050839662552,-0.052812986
479.6666666665591,-0.12556991,-1.0788051,0.27044362,-2.5187752,0.1613375,1.3295358,0.76279587,0.039999206,0.04,-9.693228,-0.7313743233680725,-1.2460438,0.009450808,0.0632803663611412,-0.052838292
479.68333333322573,-0.12664875,-1.0813305,0.27276197,-2.5201676,0.16272025,1.3274655,0.76259696,0.039999206,0.04,-9.691427,-0.7408220171928406,-1.2580853,0.009984478,0.06332443654537201,-0.052851643
479.6999999998924,-0.12772512,-1.08385,0.2750749,-2.521557,0.16409981,1.3253999,0.7623985,0.039999194,0.04,-9.689333,-0.7503097653388977,-1.2701536,0.010514284,0.06336479634046555,-0.052855283
479.71666666655904,-0.1287989,-1.0863634,0.27738222,-2.522943,0.16547607,1.3233395,0.7622004,0.039999187,0.04,-9.687409,-0.7597966194152832,-1.2821797,0.01103987,0.06339128315448761,-0.052848555
479.7333333332257,-0.12986994,-1.0888706,0.27968374,-2.5243256,0.16684876,1.3212843,0.7620029,0.039999183,0.04,-9.685378,-0.769277811050415,-1.2942035,0.011561128,0.06340901553630829,-0.052828997
479.74999999989234,-0.13093816,-1.091371,0.2819789,-2.525704,0.16821778,1.3192346,0.76180595,0.039999176,0.04,-9.683381,-0.7788007259368896,-1.306213,0.012077384,0.06341546028852463,-0.052798152
479.766666666559,-0.1320033,-1.0938643,0.28426757,-2.5270786,0.16958296,1.3171908,0.76160955,0.039999165,0.04,-9.681262,-0.7882995009422302,-1.3182228,0.012587935,0.06341464817523956,-0.052758332
479.78333333322564,-0.13306537,-1.0963504,0.2865495,-2.5284493,0.17094408,1.3151528,0.76141363,0.03999916,0.04,-9.679241,-0.7978041768074036,-1.3302274,0.01309361,0.06340131908655167,-0.052707985
479.7999999998923,-0.1341242,-1.0988288,0.2888246,-2.529816,0.17230105,1.3131211,0.76121837,0.039999157,0.04,-9.677172,-0.8072917461395264,-1.3422049,0.013593566,0.06337662041187286,-0.05264448
479.81666666655894,-0.13517965,-1.1012992,0.29109228,-2.531178,0.1736537,1.3110961,0.7610238,0.039999153,0.04,-9.675112,-0.8168153166770935,-1.3541942,0.014087666,0.06333906203508377,-0.052570518
479.8333333332256,-0.1362316,-1.1037614,0.29335248,-2.5325356,0.17500186,1.3090779,0.7608298,0.039999142,0.04,-9.6729555,-0.8263083100318909,-1.3661861,0.014574909,0.06329365074634552,-0.05248746
479.84999999989225,-0.13727991,-1.1062154,0.29560465,-2.5338886,0.17634532,1.3070663,0.7606365,0.039999127,0.04,-9.670818,-0.8358474969863892,-1.3780729,0.01505669,0.06323736160993576,-0.05239388
479.8666666665589,-0.13832445,-1.1086605,0.2978489,-2.5352364,0.17768395,1.3050623,0.76044387,0.039999135,0.04,-9.66867,-0.8452999591827393,-1.3899708,0.015530834,0.06316899508237839,-0.05228768
479.88333333322555,-0.13936514,-1.1110963,0.30008465,-2.5365791,0.1790176,1.3030655,0.76025194,0.039999127,0.04,-9.666461,-0.8548279404640198,-1.4018701,0.015998755,0.06309247761964798,-0.05217135
479.8999999998922,-0.14040183,-1.113523,0.30231175,-2.5379171,0.18034612,1.3010763,0.7600608,0.039999116,0.04,-9.664265,-0.8642994165420532,-1.4137319,0.016459322,0.06300398707389832,-0.05204516
479.91666666655885,-0.14143439,-1.11594,0.30452994,-2.5392494,0.18166927,1.2990953,0.75987035,0.039999105,0.04,-9.662116,-0.8737534880638123,-1.4255584,0.016911453,0.06290275603532791,-0.05190914
479.9333333332255,-0.14246273,-1.1183469,0.30673903,-2.5405762,0.18298693,1.2971225,0.7596807,0.0399991,0.04,-9.65983,-0.8832111358642578,-1.4373659,0.017356455,0.06279342621564865,-0.051761128
479.94999999989216,-0.14348665,-1.1207434,0.30893862,-2.541898,0.184299,1.2951579,0.7594919,0.0399991,0.04,-9.657616,-0.8926334977149963,-1.4491831,0.017793534,0.06267272680997849,-0.051602982
479.9666666665588,-0.14450611,-1.1231291,0.31112856,-2.5432138,0.18560536,1.2932018,0.7593039,0.039999098,0.04,-9.65545,-0.9020559787750244,-1.460933,0.018221917,0.06253532320261002,-0.051434465
479.98333333322546,-0.145521,-1.1255043,0.31330854,-2.5445237,0.18690577,1.2912546,0.7591169,0.03999909,0.04,-9.65315,-0.9114816188812256,-1.4726452,0.018642131,0.062387846410274506,-0.05125786
479.9999999998921,-0.1465311,-1.1278685,0.31547832,-2.545827,0.18820009,1.289317,0.7589307,0.039999083,0.04,-9.650854,-0.920863687992096,-1.4843199,0.0190533,0.062229856848716736,-0.051070392
480.01666666655876,-0.14753638,-1.1302211,0.31763762,-2.5471246,0.18948816,1.2873884,0.7587453,0.03999908,0.04,-9.648476,-0.9302368760108948,-1.4959388,0.019455833,0.0620662197470665,-0.050872415
480.0333333332254,-0.14853665,-1.1325622,0.3197863,-2.5484157,0.19076991,1.2854695,0.75856096,0.03999908,0.04,-9.646292,-0.9395456314086914,-1.5075803,0.019849151,0.06188476085662842,-0.050664112
480.04999999989207,-0.14953186,-1.1348913,0.32192397,-2.5496993,0.19204506,1.2835605,0.7583774,0.039999064,0.04,-9.643901,-0.9488916397094727,-1.5191225,0.020233719,0.06169505417346954,-0.050447654
480.0666666665587,-0.1505219,-1.1372082,0.3240504,-2.550976,0.19331357,1.2816614,0.7581948,0.039999057,0.04,-9.641476,-0.9581793546676636,-1.5306271,0.020609425,0.06149876117706299,-0.05022072
480.08333333322537,-0.15150662,-1.1395128,0.32616544,-2.552246,0.19457524,1.2797724,0.75801325,0.03999905,0.04,-9.639066,-0.9674192667007446,-1.5421153,0.020975657,0.06129308044910431,-0.04998439
480.099999999892,-0.15248594,-1.1418046,0.32826874,-2.5535095,0.19582991,1.2778938,0.75783277,0.03999905,0.04,-9.636769,-0.9766647219657898,-1.553502,0.021331359,0.0610736608505249,-0.049738068
480.1166666665587,-0.15345973,-1.1440834,0.33036014,-2.5547657,0.19707751,1.2760259,0.75765324,0.03999904,0.04,-9.634406,-0.9858595132827759,-1.5648773,0.02167667,0.06084210053086281,-0.04948347
480.1333333332253,-0.15442783,-1.1463491,0.3324394,-2.5560143,0.19831784,1.2741688,0.7574748,0.039999034,0.04,-9.632025,-0.9950292110443115,-1.5761976,0.022012116,0.06059984117746353,-0.04921954
480.149999999892,-0.1553902,-1.1486014,0.33450615,-2.5572553,0.19955078,1.272323,0.75729746,0.039999023,0.04,-9.629578,-1.0041676759719849,-1.5874493,0.02233767,0.06034878268837929,-0.048947323
480.1666666665586,-0.15634668,-1.1508396,0.33656028,-2.5584886,0.20077619,1.2704884,0.7571212,0.03999902,0.04,-9.627137,-1.0132577419281006,-1.5986433,0.022652062,0.06008988246321678,-0.048664913
480.1833333332253,-0.1572972,-1.1530641,0.33860162,-2.5597146,0.2019939,1.2686653,0.75694597,0.039999016,0.04,-9.624707,-1.0223088264465332,-1.6098257,0.022956476,0.05981821194291115,-0.048374314
480.19999999989193,-0.15824167,-1.1552743,0.34062988,-2.5609329,0.20320386,1.2668537,0.75677174,0.03999901,0.04,-9.622321,-1.0312854051589966,-1.62095,0.023249716,0.05953598767518997,-0.04807442
480.2166666665586,-0.15917993,-1.1574701,0.34264484,-2.5621433,0.20440587,1.2650541,0.75659883,0.039999004,0.04,-9.619909,-1.040287733078003,-1.6319648,0.023532793,0.05924041196703911,-0.047766913
480.23333333322523,-0.16011198,-1.1596512,0.34464625,-2.5633454,0.20559977,1.2632666,0.756427,0.039998993,0.04,-9.617494,-1.0492295026779175,-1.6429447,0.023803659,0.05893493816256523,-0.047452535
480.2499999998919,-0.16103762,-1.1618171,0.34663388,-2.5645392,0.20678547,1.2614913,0.7562562,0.039998993,0.04,-9.614989,-1.0580953359603882,-1.6538597,0.024063922,0.05862027034163475,-0.04712816
480.26666666655854,-0.16195667,-1.1639681,0.3486075,-2.5657244,0.20796287,1.2597286,0.7560869,0.039998986,0.04,-9.612542,-1.0669357776641846,-1.6647205,0.024313401,0.05829397588968277,-0.046796735
480.2833333332252,-0.1628692,-1.1661035,0.3505669,-2.5669014,0.20913179,1.2579783,0.75591856,0.03999899,0.04,-9.610032,-1.0757297277450562,-1.6754801,0.024551198,0.05796072259545326,-0.046456322
480.29999999989184,-0.16377503,-1.168223,0.35251188,-2.5680697,0.21029213,1.2562411,0.75575167,0.03999898,0.04,-9.607611,-1.0844627618789673,-1.6862181,0.024777588,0.05761399865150452,-0.04611014
480.3166666665585,-0.16467407,-1.170327,0.35444224,-2.569229,0.21144375,1.254517,0.75558597,0.03999897,0.04,-9.605118,-1.0931559801101685,-1.696879,0.024992052,0.0572572685778141,-0.045756295
480.33333333322514,-0.1655662,-1.1724147,0.35635787,-2.5703797,0.21258652,1.2528061,0.7554215,0.039998967,0.04,-9.602596,-1.1017619371414185,-1.7074717,0.02519507,0.05689268186688423,-0.045395225
480.3499999998918,-0.16645138,-1.1744862,0.35825837,-2.5715215,0.21372038,1.2511085,0.7552584,0.039998956,0.04,-9.60017,-1.1103756427764893,-1.7179581,0.02538649,0.0565166212618351,-0.04502667
480.36666666655844,-0.16732948,-1.1765406,0.36014366,-2.572654,0.21484515,1.2494246,0.75509655,0.039998952,0.04,-9.597667,-1.1188864707946777,-1.7283745,0.025565721,0.05613115802407265,-0.044650596
480.3833333332251,-0.16820037,-1.1785785,0.3620137,-2.5737765,0.21596071,1.2477545,0.75493604,0.039998956,0.04,-9.595214,-1.1273488998413086,-1.7387719,0.025733184,0.05573365092277527,-0.04426811
480.39999999989175,-0.16906407,-1.1805995,0.36386803,-2.5748904,0.21706696,1.2460982,0.75477684,0.03999895,0.04,-9.592608,-1.1358182430267334,-1.7490182,0.025890075,0.055330876260995865,-0.04387996
480.4166666665584,-0.16992043,-1.1826034,0.3657066,-2.5759945,0.21816383,1.2444559,0.7546189,0.039998937,0.04,-9.590197,-1.1441320180892944,-1.7592363,0.026034249,0.05491515249013901,-0.04348525
480.43333333322505,-0.17076933,-1.1845899,0.36752924,-2.5770888,0.21925116,1.2428281,0.7544624,0.039998934,0.04,-9.5876665,-1.1524375677108765,-1.76934,0.02616719,0.05449241027235985,-0.043083478
480.4499999998917,-0.17161074,-1.1865586,0.36933565,-2.578174,0.22032884,1.2412144,0.7543074,0.039998926,0.04,-9.585137,-1.1606552600860596,-1.7794077,0.02628772,0.05406123772263527,-0.042676207
480.46666666655835,-0.17244452,-1.1885096,0.3711258,-2.5792494,0.22139676,1.2396154,0.7541538,0.03999892,0.04,-9.582768,-1.168811321258545,-1.7893667,0.026395632,0.05361499264836311,-0.042262197
480.483333333225,-0.17327067,-1.1904427,0.3728994,-2.5803144,0.22245486,1.2380313,0.7540016,0.03999892,0.04,-9.580224,-1.176932454109192,-1.7992378,0.02649202,0.05316239595413208,-0.041842528
480.49999999989166,-0.17408907,-1.1923573,0.37465635,-2.5813692,0.22350296,1.2364619,0.7538508,0.039998922,0.04,-9.577692,-1.1849709749221802,-1.8090128,0.026576126,0.0527031384408474,-0.04141603
480.5166666665583,-0.17489961,-1.1942538,0.37639633,-2.582414,0.22454105,1.2349073,0.75370145,0.039998908,0.04,-9.575218,-1.1929583549499512,-1.8187428,0.026648812,0.052232544869184494,-0.040987417
480.53333333322496,-0.17570226,-1.196132,0.37811932,-2.583449,0.22556901,1.233368,0.7535536,0.039998896,0.04,-9.572745,-1.2008496522903442,-1.8283426,0.026709601,0.051753152161836624,-0.040553305
480.5499999998916,-0.17649692,-1.1979911,0.3798252,-2.5844734,0.22658676,1.2318444,0.7534072,0.03999889,0.04,-9.570283,-1.2086679935455322,-1.8378772,0.026757507,0.05126569792628288,-0.04011304
480.56666666655826,-0.17728353,-1.1998314,0.3815137,-2.585487,0.22759409,1.2303364,0.7532623,0.03999889,0.04,-9.567819,-1.2164385318756104,-1.8473412,0.026794363,0.05076952651143074,-0.039668545
480.5833333332249,-0.17806199,-1.2016528,0.3831847,-2.5864906,0.228591,1.2288439,0.7531188,0.03999888,0.04,-9.565276,-1.2240958213806152,-1.8567324,0.026819253,0.050267405807971954,-0.03921866
480.59999999989157,-0.17883226,-1.2034549,0.3848381,-2.5874834,0.22957739,1.2273668,0.75297683,0.03999888,0.04,-9.562892,-1.2317299842834473,-1.8659383,0.026831971,0.04975559189915657,-0.038764194
480.6166666665582,-0.17959422,-1.2052377,0.38647372,-2.588466,0.2305532,1.2259052,0.7528364,0.03999888,0.04,-9.560415,-1.2392808198928833,-1.8750992,0.026833892,0.04923417046666145,-0.038304936
480.63333333322487,-0.18034783,-1.207001,0.38809142,-2.5894375,0.23151827,1.2244607,0.7526976,0.039998878,0.04,-9.558031,-1.2467429637908936,-1.8841681,0.02682324,0.048702020198106766,-0.037842505
480.6499999998915,-0.18109304,-1.2087445,0.38969105,-2.590398,0.23247258,1.2230321,0.7525604,0.039998874,0.04,-9.555539,-1.2541459798812866,-1.8931897,0.026801236,0.048167817294597626,-0.03737638
480.66666666655817,-0.18182981,-1.2104684,0.39127243,-2.5913475,0.23341605,1.2216194,0.75242454,0.039998867,0.04,-9.553109,-1.2614740133285522,-1.9020531,0.026767436,0.04762544110417366,-0.03690695
480.6833333332248,-0.18255807,-1.212172,0.39283556,-2.5922866,0.2343486,1.2202232,0.7522903,0.03999886,0.04,-9.550665,-1.2686984539031982,-1.9108096,0.026722748,0.047075651586055756,-0.03643384
480.6999999998915,-0.1832778,-1.2138555,0.39438027,-2.593214,0.2352701,1.2188436,0.7521577,0.03999886,0.04,-9.548342,-1.2757984399795532,-1.9195852,0.026666226,0.04651407524943352,-0.035956733
480.7166666665581,-0.18398882,-1.215519,0.39590633,-2.5941303,0.23618059,1.2174805,0.75202674,0.03999885,0.04,-9.545872,-1.2829303741455078,-1.9281287,0.026598902,0.04594903066754341,-0.03547619
480.7333333332248,-0.18469116,-1.2171621,0.39741385,-2.595036,0.23707993,1.2161342,0.75189734,0.03999885,0.04,-9.543486,-1.2899194955825806,-1.9365958,0.026520109,0.04537786543369293,-0.034992456
480.74999999989143,-0.18538478,-1.2187847,0.39890245,-2.5959299,0.23796804,1.2148045,0.75176966,0.039998848,0.04,-9.5412035,-1.2968350648880005,-1.9450029,0.026429597,0.04479675367474556,-0.034506436
480.7666666665581,-0.1860696,-1.2203869,0.4003721,-2.5968125,0.23884487,1.2134919,0.7516435,0.039998848,0.04,-9.538778,-1.3036655187606812,-1.9532814,0.0263283,0.044210851192474365,-0.0340172
480.78333333322473,-0.18674557,-1.2219684,0.4018228,-2.5976837,0.2397104,1.2121964,0.75151885,0.03999884,0.04,-9.536414,-1.310411810874939,-1.9614522,0.02621657,0.043620068579912186,-0.033526003
480.7999999998914,-0.18741262,-1.2235291,0.40325436,-2.5985434,0.24056455,1.2109175,0.7513959,0.03999883,0.04,-9.534106,-1.3170897960662842,-1.9695379,0.026094604,0.04302283376455307,-0.033033673
480.81666666655804,-0.18807079,-1.2250687,0.4046667,-2.5993915,0.24140722,1.2096559,0.7512745,0.039998822,0.04,-9.531765,-1.323665738105774,-1.9774991,0.025962152,0.04241900518536568,-0.03253868
480.8333333332247,-0.18871993,-1.2265873,0.4060598,-2.6002278,0.24223833,1.2084116,0.7511549,0.039998814,0.04,-9.52944,-1.3301289081573486,-1.9854249,0.025819695,0.04180881753563881,-0.032041874
480.84999999989134,-0.18936008,-1.2280848,0.40743357,-2.6010525,0.24305792,1.2071844,0.75103706,0.03999881,0.04,-9.527186,-1.336568832397461,-1.9931526,0.025666332,0.04119356721639633,-0.031542823
480.866666666558,-0.18999115,-1.2295614,0.4087879,-2.6018655,0.24386588,1.2059748,0.75092095,0.03999881,0.04,-9.52491,-1.3428795337677002,-2.000804,0.02550284,0.04057217389345169,-0.031040307
480.88333333322464,-0.19061317,-1.2310157,0.41012266,-2.602667,0.24466221,1.2047826,0.75080633,0.039998814,0.04,-9.522624,-1.3491270542144775,-2.0083482,0.025328875,0.039948832243680954,-0.030536518
480.8999999998913,-0.19122608,-1.2324501,0.4114378,-2.6034567,0.24544685,1.2036076,0.7506934,0.03999881,0.04,-9.520449,-1.355257511138916,-2.015876,0.02514676,0.03931363672018051,-0.030033417
480.91666666655794,-0.19182982,-1.2338622,0.41273332,-2.6042347,0.24621978,1.2024504,0.7505821,0.03999881,0.04,-9.518183,-1.3613225221633911,-2.023103,0.024953732,0.038679495453834534,-0.029527228
480.9333333332246,-0.19242434,-1.2352531,0.4140091,-2.605001,0.24698098,1.201311,0.75047255,0.039998803,0.04,-9.516032,-1.3672857284545898,-2.0304253,0.024752364,0.03803683817386627,-0.02902179
480.94999999989125,-0.19300973,-1.2366226,0.41526514,-2.605755,0.24773036,1.2001894,0.7503647,0.039998796,0.04,-9.513812,-1.3731452226638794,-2.0375633,0.024541436,0.03739122301340103,-0.02851662
480.9666666665579,-0.19358584,-1.2379705,0.41650128,-2.6064975,0.2484679,1.1990851,0.75025856,0.039998796,0.04,-9.51166,-1.3789560794830322,-2.0445404,0.024320938,0.03674374520778656,-0.028009119
480.98333333322455,-0.19415274,-1.2392966,0.41771752,-2.6072278,0.24919358,1.1979984,0.750154,0.03999879,0.04,-9.509535,-1.3846511840820312,-2.0514488,0.024092223,0.03609008714556694,-0.027502066
480.9999999998912,-0.19471036,-1.2406013,0.41891393,-2.607946,0.24990739,1.1969297,0.7500513,0.03999879,0.04,-9.507387,-1.390248417854309,-2.0582454,0.023855446,0.03543272241950035,-0.026993794
481.01666666655785,-0.19525869,-1.241884,0.4200905,-2.6086526,0.25060934,1.1958787,0.74995035,0.039998777,0.04,-9.505274,-1.3957892656326294,-2.0649192,0.023609705,0.034773945808410645,-0.026486672
481.0333333332245,-0.19579777,-1.2431449,0.42124692,-2.6093469,0.25129932,1.1948459,0.7498511,0.03999877,0.04,-9.503257,-1.4011921882629395,-2.0715296,0.023355613,0.03410836681723595,-0.025978856
481.04999999989116,-0.19632746,-1.2443839,0.42238346,-2.6100292,0.25197735,1.1938307,0.74975353,0.039998766,0.04,-9.501145,-1.4065111875534058,-2.078007,0.02309352,0.03344247117638588,-0.025470614
481.0666666665578,-0.19684787,-1.2456013,0.42349994,-2.6107,0.25264344,1.1928334,0.7496577,0.039998773,0.04,-9.499127,-1.4117480516433716,-2.0843606,0.022824598,0.032772161066532135,-0.024961729
481.08333333322446,-0.1973589,-1.2467972,0.42459643,-2.6113582,0.25329763,1.1918539,0.7495635,0.03999877,0.04,-9.497112,-1.4168624877929688,-2.090647,0.02254742,0.03209880739450455,-0.024454532
481.0999999998911,-0.19786061,-1.247971,0.42567286,-2.6120045,0.2539399,1.1908922,0.7494712,0.03999877,0.04,-9.495119,-1.4219534397125244,-2.0967343,0.022263873,0.03142450749874115,-0.023947267
481.11666666655776,-0.19835302,-1.2491229,0.42672923,-2.6126387,0.25457022,1.1899487,0.7493804,0.039998766,0.04,-9.493153,-1.426914095878601,-2.102769,0.02197286,0.03074747510254383,-0.023441637
481.1333333332244,-0.19883606,-1.2502528,0.42776564,-2.6132612,0.25518855,1.189023,0.7492914,0.039998762,0.04,-9.491212,-1.4317762851715088,-2.1087136,0.021676218,0.03006872348487377,-0.022937382
481.14999999989107,-0.19930981,-1.2513611,0.42878202,-2.6138713,0.2557949,1.1881154,0.74920416,0.039998762,0.04,-9.489326,-1.4365310668945312,-2.1145349,0.021372488,0.02938692644238472,-0.022433342
481.1666666665577,-0.19977424,-1.2524477,0.4297784,-2.6144698,0.2563894,1.1872255,0.7491186,0.03999876,0.04,-9.487381,-1.4412256479263306,-2.1202219,0.021062458,0.028706761077046394,-0.021930857
481.18333333322437,-0.20022936,-1.2535124,0.43075478,-2.6150558,0.25697201,1.1863533,0.7490348,0.039998747,0.04,-9.485557,-1.4458086490631104,-2.1258228,0.02074666,0.028022710233926773,-0.021431332
481.199999999891,-0.20067523,-1.2545555,0.4317112,-2.61563,0.25754258,1.185499,0.7489527,0.039998747,0.04,-9.483619,-1.4502809047698975,-2.1313176,0.02042549,0.02734002284705639,-0.020931967
481.21666666655767,-0.20111181,-1.2555767,0.43264776,-2.6161923,0.2581014,1.1846623,0.74887234,0.039998744,0.04,-9.481853,-1.4546822309494019,-2.1366584,0.020098584,0.026655789464712143,-0.020433713
481.2333333332243,-0.20153911,-1.2565764,0.43356436,-2.6167424,0.25864828,1.1838434,0.7487936,0.03999874,0.04,-9.480071,-1.4589933156967163,-2.1419303,0.019766403,0.025969920679926872,-0.019937428
481.249999999891,-0.20195718,-1.2575543,0.43446118,-2.617281,0.25918332,1.1830422,0.74871653,0.039998736,0.04,-9.478277,-1.4632129669189453,-2.1470664,0.019430121,0.02528493106365204,-0.019444738
481.2666666665576,-0.20236601,-1.2585107,0.43533823,-2.6178074,0.25970662,1.1822586,0.74864113,0.03999873,0.04,-9.476576,-1.4673054218292236,-2.1521342,0.019088952,0.02459809184074402,-0.018953215
481.2833333332243,-0.2027657,-1.2594457,0.43619552,-2.618322,0.26021817,1.1814928,0.7485674,0.03999873,0.04,-9.474822,-1.4713382720947266,-2.1570592,0.018744068,0.023912908509373665,-0.018463306
481.29999999989093,-0.2031562,-1.2603592,0.4370332,-2.618825,0.2607179,1.1807443,0.74849546,0.039998725,0.04,-9.473097,-1.475268840789795,-2.1618917,0.018395668,0.02322978526353836,-0.017976029
481.3166666665576,-0.20353755,-1.2612513,0.43785125,-2.6193163,0.26120588,1.1800131,0.74842525,0.03999872,0.04,-9.471515,-1.4790841341018677,-2.1666276,0.018042311,0.022543836385011673,-0.017492395
481.33333333322423,-0.20390987,-1.2621219,0.43864986,-2.6197958,0.2616822,1.1793,0.7483567,0.039998725,0.04,-9.469822,-1.482790470123291,-2.1712573,0.017685132,0.021858474239706993,-0.017009351
481.3499999998909,-0.20427306,-1.2629718,0.43942896,-2.6202633,0.26214695,1.1786041,0.7482898,0.039998725,0.04,-9.468229,-1.4864673614501953,-2.1757774,0.017325545,0.02117631956934929,-0.016529819
481.36666666655753,-0.20462729,-1.2638005,0.4401887,-2.6207192,0.26260036,1.1779253,0.7482246,0.039998718,0.04,-9.46659,-1.490044355392456,-2.1801386,0.016963031,0.020499369129538536,-0.016053975
481.3833333332242,-0.20497257,-1.2646081,0.44092923,-2.6211636,0.2630422,1.1772639,0.7481611,0.039998714,0.04,-9.465007,-1.4935047626495361,-2.1844115,0.016598541,0.019824501127004623,-0.015581341
481.39999999989084,-0.20530888,-1.265395,0.44165057,-2.6215963,0.2634726,1.1766195,0.7480991,0.039998718,0.04,-9.463526,-1.496860384941101,-2.188626,0.016231056,0.019149785861372948,-0.015112297
481.4166666665575,-0.20563638,-1.266161,0.44235292,-2.622018,0.26389173,1.1759924,0.7480389,0.039998714,0.04,-9.461969,-1.5001471042633057,-2.1926847,0.015862312,0.01848004199564457,-0.014645624
481.43333333322414,-0.205955,-1.2669061,0.44303635,-2.6224282,0.26429957,1.175382,0.7479802,0.039998706,0.04,-9.460531,-1.5033307075500488,-2.1966984,0.015491327,0.017810793593525887,-0.014184712
481.4499999998908,-0.2062649,-1.267631,0.44370106,-2.6228273,0.26469603,1.1747884,0.747923,0.039998703,0.04,-9.459011,-1.5064109563827515,-2.200587,0.015120037,0.017145546153187752,-0.013727275
481.46666666655744,-0.20656608,-1.2683356,0.444347,-2.623215,0.2650814,1.1742114,0.7478675,0.039998695,0.04,-9.457666,-1.5094163417816162,-2.2043445,0.014747142,0.016481857746839523,-0.013271448
481.4833333332241,-0.20685863,-1.26902,0.4449744,-2.623592,0.26545575,1.173651,0.74781364,0.039998684,0.04,-9.456237,-1.5123412609100342,-2.2080157,0.014373503,0.015822507441043854,-0.012822133
481.49999999989075,-0.20714262,-1.2696843,0.44558337,-2.6239572,0.2658191,1.173107,0.7477614,0.039998677,0.04,-9.454887,-1.5151481628417969,-2.2115924,0.013998855,0.015167120844125748,-0.012375527
481.5166666665574,-0.20741811,-1.2703288,0.44617423,-2.6243122,0.26617157,1.1725793,0.7477107,0.039998677,0.04,-9.453452,-1.5179109573364258,-2.215032,0.013624567,0.014518726617097855,-0.0119333
481.53333333322405,-0.20768516,-1.2709534,0.44674695,-2.6246555,0.26651326,1.172068,0.7476615,0.039998677,0.04,-9.452228,-1.5205273628234863,-2.2184467,0.013249803,0.013870526105165482,-0.011494284
481.5499999998907,-0.20794386,-1.2715588,0.44730172,-2.6249886,0.26684418,1.1715724,0.74761367,0.039998673,0.04,-9.45082,-1.5231213569641113,-2.2216923,0.012877106,0.013232462108135223,-0.011061575
481.56666666655735,-0.20819427,-1.2721444,0.44783872,-2.6253104,0.26716456,1.1710929,0.7475676,0.039998673,0.04,-9.449605,-1.5255684852600098,-2.224867,0.012504505,0.012597003020346165,-0.010632217
481.583333333224,-0.20843652,-1.2727108,0.4483582,-2.6256223,0.26747447,1.1706289,0.747523,0.03999867,0.04,-9.448285,-1.5279468297958374,-2.2279785,0.0121328365,0.011967849917709827,-0.010208642
481.59999999989066,-0.20867066,-1.2732584,0.44886026,-2.6259234,0.26777402,1.1701806,0.74748,0.03999867,0.04,-9.447125,-1.5302677154541016,-2.2309499,0.01176277,0.011342408135533333,-0.009790245
481.6166666665573,-0.2088968,-1.2737873,0.44934514,-2.6262147,0.26806328,1.1697475,0.7474383,0.039998673,0.04,-9.445911,-1.5324770212173462,-2.2338364,0.0113938255,0.01072459015995264,-0.009375909
481.63333333322396,-0.20911501,-1.2742975,0.44981304,-2.6264958,0.26834244,1.1693295,0.7473981,0.03999867,0.04,-9.444797,-1.534591555595398,-2.2366488,0.011026596,0.010109951719641685,-0.008967558
481.6499999998906,-0.20932536,-1.2747896,0.45026407,-2.626766,0.26861152,1.1689266,0.74735934,0.03999867,0.04,-9.443632,-1.5366477966308594,-2.2393692,0.01066228,0.009502422995865345,-0.008564801
481.66666666655726,-0.20952797,-1.2752637,0.4506985,-2.6270268,0.26887074,1.1685385,0.7473221,0.039998665,0.04,-9.442414,-1.538632869720459,-2.2419405,0.010301244,0.00890591461211443,-0.008167099
481.6833333332239,-0.20972298,-1.2757204,0.45111656,-2.6272779,0.26912016,1.1681647,0.74728626,0.03999867,0.04,-9.441358,-1.5405011177062988,-2.244475,0.0099420585,0.00831523071974516,-0.0077750315
481.69999999989057,-0.20991045,-1.276159,0.45151857,-2.627519,0.26936,1.1678057,0.74725175,0.03999867,0.04,-9.44027,-1.5422757863998413,-2.2469156,0.009585139,0.007731929421424866,-0.0073892176
481.7166666665572,-0.21009055,-1.2765801,0.45190468,-2.6277502,0.26959038,1.1674609,0.74721855,0.03999867,0.04,-9.439205,-1.5440438985824585,-2.24927,0.009233111,0.007158157881349325,-0.0070092822
481.73333333322387,-0.21026334,-1.2769846,0.45227516,-2.6279726,0.26981142,1.1671301,0.7471868,0.03999867,0.04,-9.438169,-1.5456887483596802,-2.2515593,0.008885308,0.00659141456708312,-0.0066359043
481.7499999998905,-0.21042894,-1.2773716,0.45263022,-2.6281857,0.2700232,1.166813,0.7471564,0.03999867,0.04,-9.437195,-1.5472413301467896,-2.25373,0.008540284,0.006033224519342184,-0.006268726
481.76666666655717,-0.21058743,-1.2777427,0.45297006,-2.6283896,0.270226,1.1665093,0.7471272,0.039998673,0.04,-9.436194,-1.5487316846847534,-2.255862,0.008200239,0.005481956526637077,-0.005907746
481.7833333332238,-0.21073905,-1.2780976,0.45329505,-2.6285846,0.2704199,1.166219,0.7470994,0.039998673,0.04,-9.435217,-1.5501506328582764,-2.25785,0.007865072,0.004942005965858698,-0.0055541866
481.7999999998905,-0.21088384,-1.2784363,0.4536055,-2.628771,0.27060518,1.1659418,0.7470729,0.03999867,0.04,-9.434258,-1.5514949560165405,-2.259797,0.0075337132,0.004412028938531876,-0.005207573
481.8166666665571,-0.21102194,-1.2787595,0.45390165,-2.628949,0.27078184,1.1656774,0.7470473,0.039998665,0.04,-9.433355,-1.5527641773223877,-2.2616894,0.0072080516,0.003890273394063115,-0.0048688194
481.8333333332238,-0.21115354,-1.2790674,0.45418376,-2.6291182,0.27095014,1.1654255,0.7470231,0.03999866,0.04,-9.432421,-1.5539464950561523,-2.2634974,0.0068891332,0.003378836438059807,-0.004536603
481.84999999989043,-0.2112787,-1.2793603,0.45445213,-2.629279,0.27111012,1.1651859,0.7470001,0.039998658,0.04,-9.431539,-1.5550919771194458,-2.2651858,0.0065749995,0.002878722967579961,-0.0042114723
481.8666666665571,-0.21139762,-1.2796385,0.45470703,-2.6294315,0.2712622,1.1649582,0.7469782,0.039998654,0.04,-9.43066,-1.556152582168579,-2.2668283,0.0062671956,0.0023895881604403257,-0.0038935798
481.88333333322373,-0.21151043,-1.2799026,0.4549488,-2.629576,0.27140647,1.1647421,0.74695754,0.039998658,0.04,-9.429774,-1.557140588760376,-2.2683861,0.0059660967,0.0019127236446365714,-0.003582776
481.8999999998904,-0.2116173,-1.2801526,0.45517787,-2.6297128,0.27154317,1.1645375,0.74693775,0.039998658,0.04,-9.428898,-1.5580815076828003,-2.2698715,0.005671981,0.0014488274464383721,-0.0032801193
481.91666666655703,-0.21171834,-1.2803892,0.45539448,-2.6298425,0.2716724,1.1643442,0.7469193,0.039998654,0.04,-9.428112,-1.5589373111724854,-2.2713335,0.005385435,0.000995233072899282,-0.0029863608
481.9333333332237,-0.21181372,-1.2806125,0.45559895,-2.6299655,0.2717943,1.1641617,0.7469016,0.039998654,0.04,-9.427341,-1.559719443321228,-2.272704,0.005104124,0.0005538802943192422,-0.0027002143
481.94999999989034,-0.21190362,-1.280823,0.4557916,-2.630083,0.27190915,1.1639895,0.74688506,0.039998654,0.04,-9.426579,-1.5604194402694702,-2.2740452,0.0048310296,0.00012221325596328825,-0.002422278
481.966666666557,-0.21198827,-1.281021,0.45597288,-2.630193,0.27201724,1.1638275,0.7468695,0.039998654,0.04,-9.425986,-1.5610545873641968,-2.2753484,0.004563058,-0.0003034640394616872,-0.0021541868
481.98333333322364,-0.21206777,-1.281207,0.45614314,-2.6302953,0.27211863,1.1636755,0.7468549,0.039998658,0.04,-9.42516,-1.5616847276687622,-2.2765315,0.0043038935,-0.0007136077038012445,-0.0018937251
481.9999999998903,-0.21214224,-1.2813812,0.4563027,-2.6303902,0.27221388,1.1635332,0.7468412,0.039998658,0.04,-9.424298,-1.562276005744934,-2.2776363,0.0040536397,-0.001105600269511342,-0.0016417176
482.01666666655694,-0.2122119,-1.2815443,0.45645195,-2.6304784,0.27230304,1.1633999,0.74682844,0.039998654,0.04,-9.423433,-1.56282639503479,-2.2786841,0.0038140635,-0.001477368175983429,-0.0013987959
482.0333333332236,-0.21227694,-1.2816967,0.4565913,-2.6305604,0.27238613,1.1632754,0.7468164,0.03999865,0.04,-9.422696,-1.5632810592651367,-2.2796903,0.0035834366,-0.0018351206090301275,-0.0011664
482.04999999989025,-0.2123376,-1.2818387,0.45672122,-2.6306396,0.2724636,1.1631595,0.7468053,0.03999865,0.04,-9.421927,-1.5636911392211914,-2.2806315,0.0033625504,-0.002176627516746521,-0.00094129407
482.0666666665569,-0.21239401,-1.2819704,0.456842,-2.6307113,0.27253544,1.1630516,0.7467949,0.03999865,0.04,-9.421548,-1.56394362449646,-2.281674,0.0031467744,-0.0025156131014227867,-0.00072801596
482.08333333322355,-0.21244638,-1.2820929,0.45695406,-2.630776,0.27260235,1.1629514,0.7467852,0.03999865,0.04,-9.420639,-1.5642812252044678,-2.2825103,0.0029432732,-0.0028325736057013273,-0.0005228661
482.0999999998902,-0.21249485,-1.2822063,0.45705786,-2.6308396,0.27266416,1.1628586,0.7467763,0.03999865,0.04,-9.419748,-1.5646191835403442,-2.2832458,0.00275206,-0.003124399110674858,-0.0003276012
482.11666666655685,-0.21253966,-1.2823113,0.4571539,-2.630896,0.27272135,1.162773,0.7467681,0.03999865,0.04,-9.419499,-1.564691185951233,-2.2841969,0.0025660018,-0.003418086329475045,-0.0001443333
482.1333333332235,-0.2125811,-1.2824084,0.4572425,-2.6309516,0.27277422,1.1626941,0.7467605,0.03999865,0.04,-9.418561,-1.5649334192276,-2.2848763,0.0023926576,-0.0036834708880633116,3.0163672e-05
482.14999999989016,-0.21261927,-1.282498,0.45732418,-2.6310003,0.27282292,1.162621,0.7467534,0.039998654,0.04,-9.418277,-1.5649346113204956,-2.2857368,0.0022257662,-0.003947569523006678,0.00019166304
482.1666666665568,-0.21265444,-1.2825804,0.45739946,-2.6310453,0.2728678,1.1625539,0.74674696,0.039998654,0.04,-9.417297,-1.5651248693466187,-2.2863014,0.0020733222,-0.004182405769824982,0.0003440336
482.18333333322346,-0.21268684,-1.2826557,0.4574687,-2.6310863,0.27290908,1.162492,0.7467411,0.039998654,0.04,-9.416689,-1.565161108970642,-2.2870011,0.0019311538,-0.004402513615787029,0.00048507217
482.1999999998901,-0.21271662,-1.2827257,0.4575323,-2.6311262,0.27294716,1.1624353,0.7467355,0.039998654,0.04,-9.415988,-1.5651854276657104,-2.287645,0.0018005307,-0.004605230409651995,0.0006147754
482.21666666655676,-0.21274404,-1.2827896,0.45759103,-2.6311598,0.27298215,1.1623827,0.7467305,0.039998658,0.04,-9.415594,-1.5651320219039917,-2.2882738,0.0016785304,-0.0047971103340387344,0.0007323826
482.2333333332234,-0.21276927,-1.2828487,0.457645,-2.631193,0.2730143,1.1623342,0.7467259,0.039998658,0.04,-9.414725,-1.565258502960205,-2.2887185,0.0015693333,-0.0049643805250525475,0.00084342127
482.24999999989006,-0.21279249,-1.2829032,0.4576946,-2.6312225,0.27304396,1.1622894,0.74672174,0.039998658,0.04,-9.414454,-1.565192461013794,-2.2892802,0.0014658844,-0.0051271007396280766,0.0009441107
482.2666666665567,-0.21281382,-1.2829528,0.45774022,-2.6312485,0.27307114,1.1622483,0.7467178,0.039998658,0.04,-9.413879,-1.5652316808700562,-2.2896907,0.0013714548,-0.005273245275020599,0.0010368547
482.28333333322337,-0.2128335,-1.2829984,0.45778227,-2.631274,0.27309623,1.162211,0.74671406,0.039998658,0.04,-9.413323,-1.565272331237793,-2.290102,0.0012868061,-0.005404184106737375,0.0011229337
482.29999999989,-0.21285161,-1.2830403,0.45782092,-2.6312985,0.2731193,1.1621773,0.7467107,0.039998658,0.04,-9.413094,-1.565229892730713,-2.290562,0.0012076667,-0.005529177840799093,0.0012011365
482.31666666655667,-0.21286829,-1.283079,0.45785645,-2.631319,0.27314052,1.1621455,0.7467077,0.039998654,0.04,-9.4128275,-1.5652010440826416,-2.2909887,0.0011330078,-0.005646515637636185,0.001271701
482.3333333332233,-0.2128836,-1.2831151,0.45788917,-2.6313374,0.27316,1.1621159,0.7467049,0.03999865,0.04,-9.41226,-1.5652756690979004,-2.291195,0.0010663159,-0.00574815459549427,0.0013379664
482.34999999989,-0.21289773,-1.2831484,0.4579193,-2.6313553,0.27317792,1.16209,0.74670243,0.03999865,0.04,-9.411908,-1.5653131008148193,-2.2914324,0.0010051827,-0.005838780198246241,0.001399765
482.3666666665566,-0.21291073,-1.2831788,0.457947,-2.6313722,0.2731945,1.1620644,0.7467001,0.039998654,0.04,-9.411709,-1.565269947052002,-2.2917655,0.00094693166,-0.0059207892045378685,0.0014574872
482.3833333332233,-0.2129227,-1.2832067,0.45797247,-2.6313887,0.27320963,1.1620424,0.746698,0.03999865,0.04,-9.411541,-1.565269112586975,-2.2920084,0.000893507,-0.006006581708788872,0.0015086358
482.3999999998899,-0.21293366,-1.2832328,0.45799592,-2.6314023,0.27322364,1.1620208,0.74669605,0.039998654,0.04,-9.411359,-1.5652354955673218,-2.2923243,0.00084284204,-0.006083306856453419,0.0015559178
482.4166666665566,-0.21294382,-1.2832559,0.4580175,-2.6314144,0.27323648,1.1620026,0.74669415,0.03999865,0.04,-9.410978,-1.5653105974197388,-2.2924206,0.0007982622,-0.006150835659354925,0.0016003095
482.43333333322323,-0.21295314,-1.2832781,0.45803738,-2.631425,0.27324837,1.1619846,0.7466923,0.039998654,0.04,-9.4107275,-1.5653092861175537,-2.2926953,0.00075844186,-0.006208228413015604,0.0016409925
482.4499999998899,-0.21296169,-1.2832978,0.45805565,-2.6314354,0.27325928,1.1619675,0.74669063,0.03999865,0.04,-9.410478,-1.5653479099273682,-2.2927556,0.0007225407,-0.0062593319453299046,0.0016792762
482.46666666655653,-0.21296959,-1.2833166,0.45807248,-2.6314456,0.27326933,1.1619531,0.74668914,0.039998654,0.04,-9.410434,-1.5653165578842163,-2.2929893,0.0006890511,-0.0063156369142234325,0.0017133421
482.4833333332232,-0.21297684,-1.2833335,0.45808792,-2.631455,0.27327856,1.161939,0.7466877,0.03999865,0.04,-9.4103,-1.565303921699524,-2.2931478,0.0006565492,-0.0063611180521547794,0.0017451321
482.49999999988984,-0.21298355,-1.2833487,0.45810217,-2.6314642,0.2732871,1.1619251,0.74668646,0.039998654,0.04,-9.410166,-1.5653035640716553,-2.2932878,0.0006274314,-0.006407872308045626,0.0017738196
482.5166666665565,-0.2129897,-1.2833636,0.45811528,-2.6314733,0.27329496,1.1619145,0.7466854,0.03999865,0.04,-9.410138,-1.5652847290039062,-2.2934628,0.0005998852,-0.006460569333285093,0.0017991975
482.53333333322314,-0.21299537,-1.2833768,0.45812735,-2.6314807,0.27330214,1.161904,0.7466843,0.039998654,0.04,-9.409983,-1.56527841091156,-2.293604,0.00057279994,-0.006496815010905266,0.0018233996
482.5499999998898,-0.21300058,-1.2833881,0.45813844,-2.6314871,0.27330875,1.1618938,0.7466833,0.03999865,0.04,-9.409788,-1.5653074979782104,-2.293686,0.00054968434,-0.0065315524116158485,0.0018459412
482.56666666655644,-0.21300536,-1.2833995,0.45814866,-2.6314929,0.27331483,1.1618837,0.7466825,0.039998654,0.04,-9.409671,-1.5653202533721924,-2.2938154,0.0005297368,-0.006567648146301508,0.0018660947
482.5833333332231,-0.21300977,-1.2834105,0.45815808,-2.631498,0.27332044,1.1618768,0.7466818,0.03999865,0.04,-9.409549,-1.565335988998413,-2.2938342,0.00051008014,-0.006599840708076954,0.0018854678
482.59999999988975,-0.21301383,-1.2834202,0.45816675,-2.6315026,0.27332556,1.16187,0.74668115,0.03999865,0.04,-9.280133,-1.5514792203903198,-2.2326756,0.0,-0.0,0.0
482.6166666665564,-0.21301383,-1.2834202,0.45816675,-2.6315026,0.27332556,1.16187,0.74668115,0.03999865,0.04,-9.408684,-1.5648401975631714,-2.294352,0.0,-0.0,0.0
482.63333333322305,-0.21301383,-1.2834202,0.45816675,-2.6315026,0.27332556,1.16187,0.74668115,0.03999865,0.04,-9.408684,-1.5648401975631714,-2.294352,0.0,-0.0,0.0
482.6499999998897,-0.21301383,-1.2834202,0.45816675,-2.6315026,0.27332556,1.16187,0.74668115,0.03999865,0.04,-9.408684,-1.5648401975631714,-2.294352,0.0,-0.0,0.0
482.66666666655635,-0.21301383,-1.2834202,0.45816675,-2.6315026,0.27332556,1.16187,0.74668115,0.03999865,0.04,-9.408684,-1.5648401975631714,-2.294352,0.0,-0.0,0.0
482.683333333223,-0.21301383,-1.2834202,0.45816675,-2.6315026,0.27332556,1.16187,0.74668115,0.03999865,0.04,-9.408684,-1.5648401975631714,-2.294352,0.0,-0.0,0.0
482.69999999988966,-0.21301383,-1.2834202,0.45816675,-2.6315026,0.27332556,1.16187,0.74668115,0.03999865,0.04,-9.408684,-1.5648401975631714,-2.294352,0.0,-0.0,0.0
482.7166666665563,-0.21301383,-1.2834202,0.45816675,-2.6315026,0.27332556,1.16187,0.74668115,0.03999865,0.04,-9.408684,-1.5648401975631714,-2.294352,0.0,-0.0,0.0
482.73333333322296,-0.21301383,-1.2834202,0.45816675,-2.6315026,0.27332556,1.16187,0.74668115,0.03999865,0.04,-9.408684,-1.5648401975631714,-2.294352,0.0,-0.0,0.0
482.7499999998896,-0.21301383,-1.2834202,0.45816675,-2.6315026,0.27332556,1.16187,0.74668115,0.03999865,0.04,-9.408684,-1.5648401975631714,-2.294352,0.0,-0.0,0.0
482.76666666655626,-0.21301383,-1.2834202,0.45816675,-2.6315026,0.27332556,1.16187,0.74668115,0.03999865,0.04,-9.408684,-1.5648401975631714,-2.294352,0.0,-0.0,0.0
482.7833333332229,-0.21301383,-1.2834202,0.45816675,-2.6315026,0.27332556,1.16187,0.74668115,0.03999865,0.04,-9.408684,-1.5648401975631714,-2.294352,0.0,-0.0,0.0
482.79999999988956,-0.21301383,-1.2834202,0.45816675,-2.6315026,0.27332556,1.16187,0.74668115,0.03999865,0.04,-9.408684,-1.5648401975631714,-2.294352,0.0,-0.0,0.0
482.8166666665562,-0.21301383,-1.2834202,0.45816675,-2.6315026,0.27332556,1.16187,0.74668115,0.03999865,0.04,-9.408684,-1.5648401975631714,-2.294352,0.0,-0.0,0.0
482.83333333322287,-0.21301383,-1.2834202,0.45816675,-2.6315026,0.27332556,1.16187,0.74668115,0.03999865,0.04,-9.408684,-1.5648401975631714,-2.294352,0.0,-0.0,0.0
482.8499999998895,-0.21301383,-1.2834202,0.45816675,-2.6315026,0.27332556,1.16187,0.74668115,0.03999865,0.04,-9.408684,-1.5648401975631714,-2.294352,0.0,-0.0,0.0
482.86666666655617,-0.21301383,-1.2834202,0.45816675,-2.6315026,0.27332556,1.16187,0.74668115,0.03999865,0.04,-9.408684,-1.5648401975631714,-2.294352,0.0,-0.0,0.0
482.8833333332228,-0.21301383,-1.2834202,0.45816675,-2.6315026,0.27332556,1.16187,0.74668115,0.03999865,0.04,-9.408684,-1.5648401975631714,-2.294352,0.0,-0.0,0.0
482.8999999998895,-0.21301383,-1.2834202,0.45816675,-2.6315026,0.27332556,1.16187,0.74668115,0.03999865,0.04,-9.408684,-1.5648401975631714,-2.294352,0.0,-0.0,0.0
482.9166666665561,-0.21301383,-1.2834202,0.45816675,-2.6315026,0.27332556,1.16187,0.74668115,0.03999865,0.04,-9.408684,-1.5648401975631714,-2.294352,0.0,-0.0,0.0
482.9333333332228,-0.21301383,-1.2834202,0.45816675,-2.6315026,0.27332556,1.16187,0.74668115,0.03999865,0.04,-9.408684,-1.5648401975631714,-2.294352,0.0,-0.0,0.0
482.9499999998894,-0.21301383,-1.2834202,0.45816675,-2.6315026,0.27332556,1.16187,0.74668115,0.03999865,0.04,-9.408684,-1.5648401975631714,-2.294352,0.0,-0.0,0.0
482.9666666665561,-0.21301383,-1.2834202,0.45816675,-2.6315026,0.27332556,1.16187,0.74668115,0.03999865,0.04,-9.408684,-1.5648401975631714,-2.294352,0.0,-0.0,0.0
482.98333333322273,-0.21301383,-1.2834202,0.45816675,-2.6315026,0.27332556,1.16187,0.74668115,0.03999865,0.04,-9.408684,-1.5648401975631714,-2.294352,0.0,-0.0,0.0
482.9999999998894,-0.21301383,-1.2834202,0.45816675,-2.6315026,0.27332556,1.16187,0.74668115,0.03999865,0.04,-9.408684,-1.5648401975631714,-2.294352,0.0,-0.0,0.0
483.01666666655603,-0.21301383,-1.2834202,0.45816675,-2.6315026,0.27332556,1.16187,0.74668115,0.03999865,0.04,-9.408684,-1.5648401975631714,-2.294352,0.0,-0.0,0.0
483.0333333332227,-0.21301383,-1.2834202,0.45816675,-2.6315026,0.27332556,1.16187,0.74668115,0.03999865,0.04,-9.408684,-1.5648401975631714,-2.294352,0.0,-0.0,0.0
483.04999999988934,-0.21301383,-1.2834202,0.45816675,-2.6315026,0.27332556,1.16187,0.74668115,0.03999865,0.04,-9.408684,-1.5648401975631714,-2.294352,0.0,-0.0,0.0
483.066666666556,-0.21301383,-1.2834202,0.45816675,-2.6315026,0.27332556,1.16187,0.74668115,0.03999865,0.04,-9.408684,-1.5648401975631714,-2.294352,0.0,-0.0,0.0
483.08333333322264,-0.21301383,-1.2834202,0.45816675,-2.6315026,0.27332556,1.16187,0.74668115,0.03999865,0.04,-9.408684,-1.5648401975631714,-2.294352,0.0,-0.0,0.0
483.0999999998893,-0.21301383,-1.2834202,0.45816675,-2.6315026,0.27332556,1.16187,0.74668115,0.03999865,0.04,-9.408684,-1.5648401975631714,-2.294352,0.0,-0.0,0.0
483.11666666655594,-0.21301383,-1.2834202,0.45816675,-2.6315026,0.27332556,1.16187,0.74668115,0.03999865,0.04,-9.408684,-1.5648401975631714,-2.294352,0.0,-0.0,0.0
483.1333333332226,-0.21301383,-1.2834202,0.45816675,-2.6315026,0.27332556,1.16187,0.74668115,0.03999865,0.04,-9.408684,-1.5648401975631714,-2.294352,0.0,-0.0,0.0
483.14999999988925,-0.21301383,-1.2834202,0.45816675,-2.6315026,0.27332556,1.16187,0.74668115,0.03999865,0.04,-9.408684,-1.5648401975631714,-2.294352,0.0,-0.0,0.0
483.1666666665559,-0.21301383,-1.2834202,0.45816675,-2.6315026,0.27332556,1.16187,0.74668115,0.03999865,0.04,-9.408684,-1.5648401975631714,-2.294352,0.0,-0.0,0.0
483.18333333322255,-0.21301383,-1.2834202,0.45816675,-2.6315026,0.27332556,1.16187,0.74668115,0.03999865,0.04,-9.408684,-1.5648401975631714,-2.294352,0.0,-0.0,0.0
483.1999999998892,-0.21301383,-1.2834202,0.45816675,-2.6315026,0.27332556,1.16187,0.74668115,0.03999865,0.04,-9.408684,-1.5648401975631714,-2.294352,0.0,-0.0,0.0
483.21666666655585,-0.21301383,-1.2834202,0.45816675,-2.6315026,0.27332556,1.16187,0.74668115,0.03999865,0.04,-9.408684,-1.5648401975631714,-2.294352,0.0,-0.0,0.0
483.2333333332225,-0.21301383,-1.2834202,0.45816675,-2.6315026,0.27332556,1.16187,0.74668115,0.03999865,0.04,-9.408684,-1.5648401975631714,-2.294352,0.0,-0.0,0.0
483.24999999988916,-0.21301383,-1.2834202,0.45816675,-2.6315026,0.27332556,1.16187,0.74668115,0.03999865,0.04,-9.408684,-1.5648401975631714,-2.294352,0.0,-0.0,0.0
483.2666666665558,-0.21301383,-1.2834202,0.45816675,-2.6315026,0.27332556,1.16187,0.74668115,0.03999865,0.04,-9.408684,-1.5648401975631714,-2.294352,0.0,-0.0,0.0
483.28333333322246,-0.21301383,-1.2834202,0.45816675,-2.6315026,0.27332556,1.16187,0.74668115,0.03999865,0.04,-9.408684,-1.5648401975631714,-2.294352,0.0,-0.0,0.0
483.2999999998891,-0.21301383,-1.2834202,0.45816675,-2.6315026,0.27332556,1.16187,0.74668115,0.03999865,0.04,-9.408684,-1.5648401975631714,-2.294352,0.0,-0.0,0.0
483.31666666655576,-0.21301383,-1.2834202,0.45816675,-2.6315026,0.27332556,1.16187,0.74668115,0.03999865,0.04,-9.408684,-1.5648401975631714,-2.294352,0.0,-0.0,0.0
483.3333333332224,-0.21301383,-1.2834202,0.45816675,-2.6315026,0.27332556,1.16187,0.74668115,0.03999865,0.04,-9.408684,-1.5648401975631714,-2.294352,0.0,-0.0,0.0
483.34999999988906,-0.21301383,-1.2834202,0.45816675,-2.6315026,0.27332556,1.16187,0.74668115,0.03999865,0.04,-9.408684,-1.5648401975631714,-2.294352,0.0,-0.0,0.0
483.3666666665557,-0.21301383,-1.2834202,0.45816675,-2.6315026,0.27332556,1.16187,0.74668115,0.03999865,0.04,-9.408684,-1.5648401975631714,-2.294352,0.0,-0.0,0.0
483.38333333322237,-0.21301383,-1.2834202,0.45816675,-2.6315026,0.27332556,1.16187,0.74668115,0.03999865,0.04,-9.408684,-1.5648401975631714,-2.294352,0.0,-0.0,0.0
483.399999999889,-0.21301383,-1.2834202,0.45816675,-2.6315026,0.27332556,1.16187,0.74668115,0.03999865,0.04,-9.408684,-1.5648401975631714,-2.294352,0.0,-0.0,0.0
483.41666666655567,-0.21301383,-1.2834202,0.45816675,-2.6315026,0.27332556,1.16187,0.74668115,0.03999865,0.04,-9.408684,-1.5648401975631714,-2.294352,0.0,-0.0,0.0
483.4333333332223,-0.21301383,-1.2834202,0.45816675,-2.6315026,0.27332556,1.16187,0.74668115,0.03999865,0.04,-9.408684,-1.5648401975631714,-2.294352,0.0,-0.0,0.0
483.449999999889,-0.21301383,-1.2834202,0.45816675,-2.6315026,0.27332556,1.16187,0.74668115,0.03999865,0.04,-9.408684,-1.5648401975631714,-2.294352,0.0,-0.0,0.0
483.4666666665556,-0.21301383,-1.2834202,0.45816675,-2.6315026,0.27332556,1.16187,0.74668115,0.03999865,0.04,-9.408684,-1.5648401975631714,-2.294352,0.0,-0.0,0.0
483.4833333332223,-0.21301383,-1.2834202,0.45816675,-2.6315026,0.27332556,1.16187,0.74668115,0.03999865,0.04,-9.408684,-1.5648401975631714,-2.294352,0.0,-0.0,0.0
483.4999999998889,-0.21301383,-1.2834202,0.45816675,-2.6315026,0.27332556,1.16187,0.74668115,0.03999865,0.04,-9.408684,-1.5648401975631714,-2.294352,0.0,-0.0,0.0
483.5166666665556,-0.21301383,-1.2834202,0.45816675,-2.6315026,0.27332556,1.16187,0.74668115,0.03999865,0.04,-9.408684,-1.5648401975631714,-2.294352,0.0,-0.0,0.0
483.53333333322223,-0.21301383,-1.2834202,0.45816675,-2.6315026,0.27332556,1.16187,0.74668115,0.03999865,0.04,-9.408684,-1.5648401975631714,-2.294352,0.0,-0.0,0.0
483.5499999998889,-0.21301383,-1.2834202,0.45816675,-2.6315026,0.27332556,1.16187,0.74668115,0.03999865,0.04,-9.408684,-1.5648401975631714,-2.294352,0.0,-0.0,0.0
483.56666666655553,-0.21301383,-1.2834202,0.45816675,-2.6315026,0.27332556,1.16187,0.74668115,0.03999865,0.04,-9.408684,-1.5648401975631714,-2.294352,0.0,-0.0,0.0
483.5833333332222,-0.21301383,-1.2834202,0.45816675,-2.6315026,0.27332556,1.16187,0.74668115,0.03999865,0.04,-9.408684,-1.5648401975631714,-2.294352,0.0,-0.0,0.0
483.59999999988884,-0.21301383,-1.2834202,0.45816675,-2.6315026,0.27332556,1.16187,0.74668115,0.03999865,0.04,-9.408684,-1.5648401975631714,-2.294352,0.0,-0.0,0.0
483.6166666665555,-0.21301383,-1.2834202,0.45816675,-2.6315026,0.27332556,1.16187,0.74668115,0.03999865,0.04,-9.408684,-1.5648401975631714,-2.294352,0.0,-0.0,0.0
483.63333333322214,-0.21301383,-1.2834202,0.45816675,-2.6315026,0.27332556,1.16187,0.74668115,0.03999865,0.04,-9.408684,-1.5648401975631714,-2.294352,0.0,-0.0,0.0
483.6499999998888,-0.21301383,-1.2834202,0.45816675,-2.6315026,0.27332556,1.16187,0.74668115,0.03999865,0.04,-9.408684,-1.5648401975631714,-2.294352,0.0,-0.0,0.0
483.66666666655544,-0.21301383,-1.2834202,0.45816675,-2.6315026,0.27332556,1.16187,0.74668115,0.03999865,0.04,-9.408684,-1.5648401975631714,-2.294352,0.0,-0.0,0.0
483.6833333332221,-0.21301383,-1.2834202,0.45816675,-2.6315026,0.27332556,1.16187,0.74668115,0.03999865,0.04,-9.408684,-1.5648401975631714,-2.294352,0.0,-0.0,0.0
483.69999999988875,-0.21301383,-1.2834202,0.45816675,-2.6315026,0.27332556,1.16187,0.74668115,0.03999865,0.04,-9.408684,-1.5648401975631714,-2.294352,0.0,-0.0,0.0
483.7166666665554,-0.21301383,-1.2834202,0.45816675,-2.6315026,0.27332556,1.16187,0.74668115,0.03999865,0.04,-9.408684,-1.5648401975631714,-2.294352,0.0,-0.0,0.0
483.73333333322205,-0.21301383,-1.2834202,0.45816675,-2.6315026,0.27332556,1.16187,0.74668115,0.03999865,0.04,-9.408684,-1.5648401975631714,-2.294352,0.0,-0.0,0.0
483.7499999998887,-0.21301383,-1.2834202,0.45816675,-2.6315026,0.27332556,1.16187,0.74668115,0.03999865,0.04,-9.408684,-1.5648401975631714,-2.294352,0.0,-0.0,0.0
483.76666666655535,-0.21301383,-1.2834202,0.45816675,-2.6315026,0.27332556,1.16187,0.74668115,0.03999865,0.04,-9.408684,-1.5648401975631714,-2.294352,0.0,-0.0,0.0
483.783333333222,-0.21301383,-1.2834202,0.45816675,-2.6315026,0.27332556,1.16187,0.74668115,0.03999865,0.04,-9.408684,-1.5648401975631714,-2.294352,0.0,-0.0,0.0
483.79999999988866,-0.21301383,-1.2834202,0.45816675,-2.6315026,0.27332556,1.16187,0.74668115,0.03999865,0.04,-9.408684,-1.5648401975631714,-2.294352,0.0,-0.0,0.0
483.8166666665553,-0.21301383,-1.2834202,0.45816675,-2.6315026,0.27332556,1.16187,0.74668115,0.03999865,0.04,-9.408684,-1.5648401975631714,-2.294352,0.0,-0.0,0.0
483.83333333322196,-0.21301383,-1.2834202,0.45816675,-2.6315026,0.27332556,1.16187,0.74668115,0.03999865,0.04,-9.408684,-1.5648401975631714,-2.294352,0.0,-0.0,0.0
483.8499999998886,-0.21301383,-1.2834202,0.45816675,-2.6315026,0.27332556,1.16187,0.74668115,0.03999865,0.04,-9.408684,-1.5648401975631714,-2.294352,0.0,-0.0,0.0
483.86666666655526,-0.21301383,-1.2834202,0.45816675,-2.6315026,0.27332556,1.16187,0.74668115,0.03999865,0.04,-9.408684,-1.5648401975631714,-2.294352,0.0,-0.0,0.0
483.8833333332219,-0.21301383,-1.2834202,0.45816675,-2.6315026,0.27332556,1.16187,0.74668115,0.03999865,0.04,-9.408684,-1.5648401975631714,-2.294352,0.0,-0.0,0.0
483.89999999988856,-0.21301383,-1.2834202,0.45816675,-2.6315026,0.27332556,1.16187,0.74668115,0.03999865,0.04,-9.408684,-1.5648401975631714,-2.294352,0.0,-0.0,0.0
483.9166666665552,-0.21301383,-1.2834202,0.45816675,-2.6315026,0.27332556,1.16187,0.74668115,0.03999865,0.04,-9.408684,-1.5648401975631714,-2.294352,0.0,-0.0,0.0
483.93333333322187,-0.21301383,-1.2834202,0.45816675,-2.6315026,0.27332556,1.16187,0.74668115,0.03999865,0.04,-9.408684,-1.5648401975631714,-2.294352,0.0,-0.0,0.0
483.9499999998885,-0.21301383,-1.2834202,0.45816675,-2.6315026,0.27332556,1.16187,0.74668115,0.03999865,0.04,-9.408684,-1.5648401975631714,-2.294352,0.0,-0.0,0.0
483.96666666655517,-0.21301383,-1.2834202,0.45816675,-2.6315026,0.27332556,1.16187,0.74668115,0.03999865,0.04,-9.408684,-1.5648401975631714,-2.294352,0.0,-0.0,0.0
483.9833333332218,-0.21301383,-1.2834202,0.45816675,-2.6315026,0.27332556,1.16187,0.74668115,0.03999865,0.04,-9.408684,-1.5648401975631714,-2.294352,0.0,-0.0,0.0
483.9999999998885,-0.21301383,-1.2834202,0.45816675,-2.6315026,0.27332556,1.16187,0.74668115,0.03999865,0.04,-9.408684,-1.5648401975631714,-2.294352,0.0,-0.0,0.0
484.0166666665551,-0.21301383,-1.2834202,0.45816675,-2.6315026,0.27332556,1.16187,0.74668115,0.03999865,0.04,-9.408684,-1.5648401975631714,-2.294352,0.0,-0.0,0.0
484.0333333332218,-0.21301383,-1.2834202,0.45816675,-2.6315026,0.27332556,1.16187,0.74668115,0.03999865,0.04,-9.408684,-1.5648401975631714,-2.294352,0.0,-0.0,0.0
484.0499999998884,-0.21301383,-1.2834202,0.45816675,-2.6315026,0.27332556,1.16187,0.74668115,0.03999865,0.04,-9.408684,-1.5648401975631714,-2.294352,0.0,-0.0,0.0
484.0666666665551,-0.21301383,-1.2834202,0.45816675,-2.6315026,0.27332556,1.16187,0.74668115,0.03999865,0.04,-9.408684,-1.5648401975631714,-2.294352,0.0,-0.0,0.0
484.08333333322173,-0.21301383,-1.2834202,0.45816675,-2.6315026,0.27332556,1.16187,0.74668115,0.03999865,0.04,-9.408684,-1.5648401975631714,-2.294352,0.0,-0.0,0.0
484.0999999998884,-0.21301383,-1.2834202,0.45816675,-2.6315026,0.27332556,1.16187,0.74668115,0.03999865,0.04,-9.408684,-1.5648401975631714,-2.294352,0.0,-0.0,0.0
484.11666666655503,-0.21301383,-1.2834202,0.45816675,-2.6315026,0.27332556,1.16187,0.74668115,0.03999865,0.04,-9.408684,-1.5648401975631714,-2.294352,0.0,-0.0,0.0
484.1333333332217,-0.21301383,-1.2834202,0.45816675,-2.6315026,0.27332556,1.16187,0.74668115,0.03999865,0.04,-9.408684,-1.5648401975631714,-2.294352,0.0,-0.0,0.0
484.14999999988834,-0.21301383,-1.2834202,0.45816675,-2.6315026,0.27332556,1.16187,0.74668115,0.03999865,0.04,-9.408684,-1.5648401975631714,-2.294352,0.0,-0.0,0.0
484.166666666555,-0.21301383,-1.2834202,0.45816675,-2.6315026,0.27332556,1.16187,0.74668115,0.03999865,0.04,-9.408684,-1.5648401975631714,-2.294352,0.0,-0.0,0.0
484.18333333322164,-0.21301383,-1.2834202,0.45816675,-2.6315026,0.27332556,1.16187,0.74668115,0.03999865,0.04,-9.408684,-1.5648401975631714,-2.294352,0.0,-0.0,0.0
484.1999999998883,-0.21301383,-1.2834202,0.45816675,-2.6315026,0.27332556,1.16187,0.74668115,0.03999865,0.04,-9.408684,-1.5648401975631714,-2.294352,0.0,-0.0,0.0
