rsonawane2002/My_IMU/logs_2/traj_467/imu_467.csv
time,j1,j2,j3,j4,j5,j6,j7,gripper1,gripper2,imu_ax,imu_ay,imu_az,imu_gx,imu_gy,imu_gz
2387.8333333361265,0.00016700293,-0.785875,4.0107683e-05,-2.3551247,9.29385e-05,1.570997,0.786,0.04,0.04,-9.503096,-0.03877079486846924,0.06917943,1.03470136e-07,-0.0011641276068985462,3.4432438e-07
2387.8500000027934,0.00016699577,-0.78576016,4.0121384e-05,-2.3552213,9.296605e-05,1.5709941,0.786,0.04,0.04,-9.834536,0.0006350457551889122,0.009062329,2.0284853e-07,-0.00223955768160522,2.5446352e-07
2387.8666666694603,0.00016691998,-0.7856543,4.0181254e-05,-2.35531,9.293591e-05,1.5709913,0.786,0.04,0.04,-9.832331,0.0006060123560018837,0.0076345215,2.4596307e-06,-0.0032350891269743443,-4.3918944e-06
2387.883333336127,0.00016666325,-0.78555703,4.0363797e-05,-2.355391,9.276767e-05,1.5709884,0.786,0.04,0.039999995,-9.831107,0.0005621123127639294,0.0061220094,8.310548e-06,-0.004164215177297592,-1.6645721e-05
2387.900000002794,0.00016606529,-0.7854677,4.077887e-05,-2.3554647,9.232121e-05,1.5709856,0.786,0.04,0.039999995,-9.829724,0.0004868393880315125,0.0048377817,1.9737647e-05,-0.005035718437284231,-4.1663476e-05
2387.916666669461,0.00016492237,-0.7853859,4.1566153e-05,-2.3555315,9.142178e-05,1.5709827,0.786,0.04,0.04,-9.828506,0.00039206509245559573,0.0036328258,3.7757414e-05,-0.005857132375240326,-8.26283e-05
2387.933333336128,0.00016299155,-0.7853113,4.2891832e-05,-2.3555918,8.988389e-05,1.5709828,0.786,0.04,0.04,-9.827269,0.00028578811907209456,0.0026186332,6.435526e-05,-0.006639890838414431,-0.00014086907
2387.9500000027947,0.00015999518,-0.78524315,4.494614e-05,-2.355649,8.748554e-05,1.5709833,0.786,0.04,0.04,-9.826663,0.0001425186055712402,0.0014404007,0.00010002063,-0.007378262933343649,-0.00021981304
2387.9666666694616,0.00015562431,-0.78518176,4.7940808e-05,-2.3556995,8.397745e-05,1.5709839,0.786,0.04,0.04,-9.826472,-2.7845439035445452e-05,0.00049346406,0.00014651085,-0.008108525536954403,-0.00032176045
2387.9833333361285,0.00014954228,-0.7851265,5.2106505e-05,-2.3557434,7.908795e-05,1.5709847,0.786,0.04,0.04,-9.825633,-0.00021349365124478936,-0.00028505968,0.00020437798,-0.008817804977297783,-0.0004487833
2388.0000000027953,0.0001413881,-0.7850773,5.7690733e-05,-2.3557825,7.251889e-05,1.5709857,0.786,0.039999995,0.04,-9.825464,-0.00045703156501986086,-0.001131211,0.00027490876,-0.009515206329524517,-0.00060353446
2388.016666669462,0.00013077878,-0.785034,6.4955915e-05,-2.3558168,6.396706e-05,1.5709866,0.786,0.03999999,0.039999995,-9.825382,-0.0007190181640908122,-0.0018181973,0.00035875852,-0.010214358568191528,-0.0007859321
2388.033333336129,0.00011731246,-0.78499657,7.417748e-05,-2.3558445,5.3107593e-05,1.5709904,0.7860019,0.039999988,0.039999988,-9.825393,-0.0010136045748367906,-0.0024294716,0.00045649367,-0.010919732972979546,-0.0009973827
2388.050000002796,0.00010057098,-0.78496486,8.5642314e-05,-2.3558671,3.9602248e-05,1.5709949,0.7860038,0.03999998,0.039999977,-9.825017,-0.0013407095102593303,-0.0029344563,0.00056039257,-0.011616767384111881,-0.0012399686
2388.066666669463,8.0121696e-05,-0.78493905,9.964703e-05,-2.3558862,2.3100923e-05,1.5709996,0.78600574,0.039999977,0.039999973,-9.825428,-0.001757411053404212,-0.003427098,0.0006796649,-0.012327050790190697,-0.00151563
2388.0833333361297,5.551978e-05,-0.78491896,0.00011649662,-2.3558981,3.2450296e-06,1.5710044,0.78600764,0.039999973,0.03999997,-9.825899,-0.002208975376561284,-0.0037239946,0.00081469567,-0.013062842190265656,-0.0018244138
2388.1000000027966,2.6310126e-05,-0.7849048,0.00013650354,-2.3559034,-2.0333262e-05,1.5710129,0.78600955,0.03999997,0.039999966,-9.826016,-0.002707254607230425,-0.003962503,0.0009660696,-0.013813626952469349,-0.0021671003
2388.1166666694635,-7.971086e-06,-0.7848965,0.00015998546,-2.3559039,-4.8008103e-05,1.5710214,0.78601146,0.03999997,0.03999996,-9.825929,-0.003233944298699498,-0.004077717,0.0011343267,-0.01456857193261385,-0.0025434955
2388.1333333361304,-4.7794452e-05,-0.7848942,0.00018726557,-2.355899,-8.0160964e-05,1.571033,0.78601336,0.039999966,0.039999958,-9.826749,-0.003902971278876066,-0.0041177887,0.0013197083,-0.015357238240540028,-0.0029558213
2388.1500000027972,-9.36363e-05,-0.78489804,0.0002186704,-2.3558877,-0.000117176074,1.5710454,0.7860155,0.03999997,0.03999996,-9.827274,-0.0046086497604846954,-0.0040472564,0.0015226596,-0.01616739109158516,-0.0034036625
2388.166666669464,-0.00014597706,-0.784908,0.0002545297,-2.3558693,-0.00015944142,1.5710598,0.7860193,0.03999997,0.03999996,-9.827701,-0.0053863669745624065,-0.0038127513,0.0017422271,-0.017004553228616714,-0.0038873313
2388.183333336131,-0.00020530011,-0.7849243,0.00029517512,-2.355844,-0.00020734793,1.571076,0.78602314,0.03999997,0.03999996,-9.827954,-0.006214741617441177,-0.0033965865,0.0019722222,-0.01786910742521286,-0.004407057
2388.200000002798,-0.00027209078,-0.7849471,0.00034093973,-2.3558125,-0.00026128773,1.571095,0.78602695,0.03999997,0.03999996,-9.828755,-0.0072139110416173935,-0.0029763961,0.002220664,-0.01876261457800865,-0.004963021
2388.2166666694648,-0.00034683503,-0.78497666,0.0003921569,-2.355774,-0.00032165294,1.571115,0.78603077,0.039999973,0.03999996,-9.829446,-0.008261939510703087,-0.002357462,0.002487335,-0.019688421860337257,-0.005554445
2388.2333333361316,-0.0004300191,-0.78501314,0.00044916032,-2.3557286,-0.00038883768,1.5711387,0.7860365,0.039999973,0.03999996,-9.829801,-0.009371623396873474,-0.0014805712,0.0027725368,-0.020651740953326225,-0.006183053
2388.2500000027985,-0.0005221277,-0.78505677,0.0005122827,-2.355676,-0.00046323307,1.5711645,0.7860422,0.039999973,0.03999996,-9.830773,-0.010685151442885399,-0.0006540348,0.00306802,-0.021643660962581635,-0.006847934
2388.2666666694654,-0.00062364433,-0.7851077,0.0005818558,-2.355615,-0.0005452298,1.5711921,0.78604794,0.039999973,0.03999996,-9.8315115,-0.012051247991621494,0.00046062423,0.0033822802,-0.022674281150102615,-0.0075490098
2388.2833333361323,-0.00073504937,-0.78516597,0.0006582097,-2.355546,-0.0006352162,1.5712236,0.7860551,0.039999973,0.03999996,-9.832144,-0.013543529435992241,0.0017291498,0.0037152725,-0.023740315809845924,-0.008286137
2388.300000002799,-0.00085682067,-0.78523207,0.0007416722,-2.3554688,-0.00073357753,1.5712583,0.7860627,0.039999977,0.03999996,-9.832544,-0.015096144750714302,0.0031973054,0.0040609036,-0.024839164689183235,-0.0090582445
2388.316666669466,-0.0009894323,-0.7853061,0.0008325686,-2.355383,-0.00084069837,1.5712959,0.78607035,0.039999977,0.03999996,-9.8335705,-0.016908399760723114,0.004759165,0.0044234623,-0.025971924886107445,-0.009866913
2388.333333336133,-0.0011333538,-0.78538847,0.00093122147,-2.3552883,-0.00095695775,1.5713363,0.78607947,0.039999977,0.03999996,-9.834331,-0.018796585500240326,0.0065594423,0.0048050815,-0.02714262343943119,-0.010711724
2388.3500000028,-0.0012890499,-0.78547925,0.0010379499,-2.3551848,-0.0010827308,1.5713795,0.786089,0.03999998,0.03999997,-9.835045,-0.020819831639528275,0.00859996,0.005198753,-0.028350645676255226,-0.0115916245
2388.3666666694667,-0.0014569806,-0.78557867,0.0011530698,-2.3550713,-0.0012183896,1.5714266,0.7860989,0.03999998,0.03999998,-9.835436,-0.022931989282369614,0.0108835995,0.0056095687,-0.029597613960504532,-0.012508745
2388.3833333361335,-0.0016376001,-0.7856869,0.001276892,-2.3549483,-0.0013642989,1.5714775,0.78611034,0.03999998,0.039999966,-9.836486,-0.02528744377195835,0.013207179,0.0060380585,-0.030877865850925446,-0.013452403
2388.4000000028004,-0.0018313562,-0.7858043,0.0014097249,-2.3548157,-0.0015208238,1.5715322,0.7861218,0.03999998,0.039999966,-9.837243,-0.02780075930058956,0.015821232,0.0064782132,-0.032194215804338455,-0.014435331
2388.4166666694673,-0.0020386903,-0.7859309,0.0015518715,-2.3546727,-0.0016883189,1.5715908,0.78613466,0.03999998,0.03999999,-9.83801,-0.03047020174562931,0.018689005,0.006937218,-0.03354806825518608,-0.015455926
2388.433333336134,-0.002260038,-0.7860671,0.0017036306,-2.3545187,-0.0018671404,1.5716535,0.786148,0.039999984,0.039999988,-9.83829,-0.03317098319530487,0.021847013,0.007408881,-0.03493701294064522,-0.016503839
2388.450000002801,-0.0024958276,-0.78621316,0.0018652969,-2.3543549,-0.0020576234,1.5717205,0.78616244,0.039999988,0.04,-9.839375,-0.03625763952732086,0.025088541,0.007897191,-0.03635891154408455,-0.0175861
2388.466666669468,-0.0027464798,-0.7863692,0.002037159,-2.3541794,-0.0022600982,1.5717918,0.7861777,0.039999988,0.04,-9.840201,-0.03942850977182388,0.028645664,0.008399399,-0.037819553166627884,-0.018699033
2388.483333336135,-0.003012409,-0.78653556,0.002219501,-2.3539934,-0.0024749157,1.5718672,0.7861939,0.039999984,0.039999995,-9.840353,-0.042699672281742096,0.03254411,0.008916356,-0.0393109992146492,-0.019844707
2388.5000000028017,-0.0032940204,-0.78671247,0.002412602,-2.3537948,-0.0027024092,1.5719469,0.7862111,0.039999984,0.039999995,-9.841593,-0.04634945094585419,0.036532637,0.009447602,-0.04084167629480362,-0.021022463
2388.5166666694686,-0.0035917128,-0.78689986,0.0026167354,-2.353585,-0.0029428944,1.572031,0.78622925,0.039999984,0.04,-9.84215,-0.05009875074028969,0.0408655,0.009993257,-0.04240261763334274,-0.022231072
2388.5333333361355,-0.0039058768,-0.7870982,0.00283217,-2.3533626,-0.0031966937,1.5721201,0.7862483,0.03999998,0.04,-9.84291,-0.05405419319868088,0.0454529,0.010552345,-0.04400094226002693,-0.02347
2388.5500000028023,-0.0042368947,-0.7873078,0.003059169,-2.3531277,-0.0034641214,1.5722141,0.78626853,0.039999973,0.04,-9.842984,-0.05810727924108505,0.050422624,0.011126005,-0.045628562569618225,-0.024739612
2388.566666669469,-0.0045851422,-0.7875289,0.0032979888,-2.3528812,-0.0037454716,1.5723128,0.78628975,0.03999997,0.04,-9.844089,-0.06257491558790207,0.05546747,0.011712705,-0.0472869873046875,-0.026037687
2388.583333336136,-0.0049509853,-0.78776145,0.0035488813,-2.3526213,-0.0040410385,1.5724163,0.7863121,0.03999997,0.04,-9.844794,-0.06715638935565948,0.060927417,0.012312816,-0.04898162558674812,-0.027363755
2388.600000002803,-0.0053347806,-0.78800607,0.003812091,-2.3523474,-0.0043511093,1.5725251,0.7863355,0.039999966,0.04,-9.845337,-0.0719679594039917,0.066642486,0.012925623,-0.050705686211586,-0.028718995
2388.61666666947,-0.0057368786,-0.7882625,0.0040878593,-2.3520608,-0.0046759723,1.5726392,0.78636,0.03999996,0.04,-9.845211,-0.07688012719154358,0.0727943,0.013551665,-0.05245309695601463,-0.030102102
2388.6333333361367,-0.0061576185,-0.7885312,0.0043764194,-2.3517613,-0.005015907,1.5727586,0.7863857,0.039999958,0.04,-9.846419,-0.08225619792938232,0.07900254,0.014190293,-0.054235149174928665,-0.03151245
2388.6500000028036,-0.006597333,-0.7888122,0.004678001,-2.3514483,-0.0053711757,1.5728831,0.78641266,0.03999996,0.04,-9.846967,-0.08775471895933151,0.08563694,0.014841335,-0.05604659765958786,-0.032949615
2388.6666666694705,-0.0070563457,-0.7891059,0.004992825,-2.351121,-0.0057420367,1.5730134,0.7864406,0.039999958,0.04,-9.847511,-0.09348747134208679,0.09258646,0.015504304,-0.057888831943273544,-0.034413047
2388.6833333361374,-0.0075349733,-0.7894124,0.0053211087,-2.350779,-0.0061287424,1.5731491,0.7864699,0.03999996,0.04,-9.847363,-0.09933951497077942,0.09995422,0.016179813,-0.05975539982318878,-0.035901442
2388.7000000028042,-0.0080335215,-0.7897319,0.0056630624,-2.3504226,-0.0065315273,1.5732905,0.7865002,0.03999996,0.04,-9.848334,-0.10568717122077942,0.10743691,0.016866822,-0.06164814159274101,-0.03741518
2388.716666669471,-0.008552288,-0.7900646,0.0060188905,-2.3500514,-0.006950668,1.5734377,0.7865318,0.039999966,0.04,-9.848701,-0.11216992139816284,0.11534947,0.017565744,-0.06356456130743027,-0.03895454
2388.733333336138,-0.009091562,-0.7904106,0.00638879,-2.3496654,-0.007386371,1.5735908,0.7865649,0.03999997,0.04,-9.8484745,-0.11876797676086426,0.123720616,0.01827602,-0.06550498306751251,-0.040518172
2388.750000002805,-0.009651623,-0.79077,0.006772957,-2.3492641,-0.007838847,1.5737497,0.786599,0.03999997,0.04,-9.849363,-0.12588021159172058,0.13218188,0.018996416,-0.06746809184551239,-0.04210474
2388.7666666694718,-0.010232746,-0.79114306,0.0071715754,-2.3488479,-0.008308343,1.5739146,0.7866344,0.039999966,0.04,-9.849669,-0.13313986361026764,0.14110854,0.019728675,-0.069454126060009,-0.04371627
2388.7833333361386,-0.01083519,-0.79153013,0.0075848293,-2.3484163,-0.008795089,1.5740855,0.78667134,0.03999996,0.04,-9.849956,-0.14065909385681152,0.15038411,0.02047149,-0.0714634358882904,-0.045350537
2388.8000000028055,-0.01145921,-0.79193103,0.008012889,-2.3479695,-0.0092992615,1.5742625,0.7867094,0.039999958,0.04,-9.849574,-0.14830268919467926,0.16014823,0.021223567,-0.07349428534507751,-0.04700618
2388.8166666694724,-0.012105053,-0.79234624,0.008455925,-2.3475072,-0.009821064,1.5744458,0.7867487,0.039999954,0.04,-9.850423,-0.15649785101413727,0.16998413,0.02198698,-0.07554786652326584,-0.048683535
2388.8333333361393,-0.012772953,-0.7927755,0.008914101,-2.3470294,-0.010360698,1.5746353,0.7867896,0.03999995,0.04,-9.850582,-0.16483429074287415,0.18031755,0.022760903,-0.0776204913854599,-0.050383087
2388.850000002806,-0.013463142,-0.7932194,0.0093875695,-2.3465352,-0.010918355,1.574831,0.78683174,0.039999954,0.04,-9.850761,-0.17345361411571503,0.19099315,0.023543356,-0.07971607148647308,-0.052103307
2388.866666669473,-0.014175834,-0.793678,0.009876488,-2.3460238,-0.011494222,1.5750331,0.7868752,0.03999997,0.04,-9.850082,-0.1822558492422104,0.20219511,0.024335809,-0.0818263441324234,-0.053853314
2388.88333333614,-0.014911246,-0.7941513,0.010380998,-2.3454967,-0.0120884,1.5752417,0.78692,0.039999973,0.04,-9.850569,-0.19150929152965546,0.2134865,0.025138011,-0.08394765108823776,-0.05561128
2388.900000002807,-0.01566958,-0.7946392,0.010901242,-2.344953,-0.012701101,1.5754566,0.78696626,0.039999966,0.04,-9.8506155,-0.20099690556526184,0.22529893,0.025949407,-0.08608819544315338,-0.05739122
2388.9166666694737,-0.01645103,-0.79514205,0.011437349,-2.3443935,-0.013332485,1.5756783,0.78701395,0.039999958,0.04,-9.850532,-0.21076028048992157,0.23745133,0.026769312,-0.08824585378170013,-0.05918993
2388.9333333361405,-0.01725578,-0.7956601,0.011989447,-2.343817,-0.0139826825,1.5759065,0.7870631,0.03999996,0.04,-9.849799,-0.22064808011054993,0.2501176,0.027598094,-0.0904204249382019,-0.061005466
2388.9500000028074,-0.01808401,-0.79619324,0.01255766,-2.343223,-0.014651852,1.5761415,0.7871136,0.03999996,0.04,-9.850225,-0.23115645349025726,0.2629168,0.028434968,-0.09260810911655426,-0.06284074
2388.9666666694743,-0.018935883,-0.79674166,0.013142105,-2.3426125,-0.01534012,1.576383,0.7871656,0.039999954,0.04,-9.849837,-0.2417958825826645,0.27621722,0.029280465,-0.09480410069227219,-0.06469275
2388.983333336141,-0.019811567,-0.7973055,0.013742888,-2.3419847,-0.016047623,1.5766314,0.78721905,0.03999995,0.04,-9.848887,-0.2525894045829773,0.29004773,0.030133702,-0.09701520204544067,-0.06656269
2389.000000002808,-0.020711202,-0.7978849,0.014360116,-2.3413398,-0.016774496,1.5768867,0.78727406,0.03999995,0.04,-9.849122,-0.2639942765235901,0.3039888,0.030994687,-0.0992349311709404,-0.068450026
2389.016666669475,-0.02163494,-0.79847956,0.014993886,-2.3406777,-0.017520836,1.5771488,0.78733045,0.039999947,0.04,-9.848664,-0.27554139494895935,0.31845853,0.031862758,-0.10146578401327133,-0.07035186
2389.033333336142,-0.022582924,-0.7990898,0.015644297,-2.3399985,-0.018286763,1.5774176,0.7873882,0.03999994,0.04,-9.848128,-0.28740236163139343,0.3333005,0.03273848,-0.1037062406539917,-0.072270274
2389.0500000028087,-0.023555271,-0.7997163,0.016311431,-2.3393016,-0.01907238,1.5776935,0.7874475,0.039999936,0.04,-9.84685,-0.29941174387931824,0.34867355,0.033622045,-0.1059572771191597,-0.074203975
2389.0666666694756,-0.024552098,-0.8003586,0.016995367,-2.3385868,-0.01987777,1.5779763,0.7875084,0.039999932,0.04,-9.846813,-0.3120414912700653,0.36422896,0.034511924,-0.10821352154016495,-0.076151714
2389.0833333361425,-0.025573524,-0.80101657,0.017696192,-2.3378541,-0.020703038,1.5782659,0.78757083,0.03999993,0.04,-9.845954,-0.3248351812362671,0.3802734,0.035408016,-0.11047340929508209,-0.07811492
2389.1000000028093,-0.026619654,-0.8016906,0.018413965,-2.337104,-0.02154827,1.5785627,0.7876347,0.039999925,0.04,-9.845054,-0.33793291449546814,0.39670494,0.036310405,-0.11273927241563797,-0.080092005
2389.116666669476,-0.027690582,-0.8023806,0.019148765,-2.3363364,-0.02241354,1.5788665,0.7876999,0.03999992,0.04,-9.843438,-0.3511890172958374,0.41369596,0.037219398,-0.1150103509426117,-0.082083635
2389.133333336143,-0.028786387,-0.8030867,0.019900642,-2.3355503,-0.023298897,1.5791773,0.7877667,0.03999992,0.04,-9.843124,-0.3650778830051422,0.43081376,0.038134944,-0.11728738248348236,-0.08408674
2389.15000000281,-0.02990715,-0.80380887,0.020669654,-2.3347466,-0.02420443,1.5794953,0.7878351,0.03999992,0.04,-9.841914,-0.3791351914405823,0.44846138,0.03905582,-0.11956481635570526,-0.08610342
2389.166666669477,-0.031052956,-0.80454725,0.021455849,-2.3339245,-0.02513019,1.5798204,0.78790504,0.039999917,0.04,-9.840679,-0.39350414276123047,0.4665013,0.03998164,-0.12184403836727142,-0.08813336
2389.1833333361437,-0.03222387,-0.80530185,0.02225927,-2.3330848,-0.026076233,1.5801526,0.78797656,0.039999917,0.04,-9.838589,-0.4080151617527008,0.48511127,0.04091291,-0.12412470579147339,-0.09017449
2389.2000000028106,-0.033419933,-0.8060726,0.023079963,-2.3322268,-0.027042603,1.580492,0.7880494,0.039999917,0.04,-9.837892,-0.4232293367385864,0.5038419,0.041848626,-0.12640610337257385,-0.09223387
2389.2166666694775,-0.0346412,-0.8068597,0.02391796,-2.3313503,-0.028029347,1.5808383,0.7881239,0.03999993,0.04,-9.836308,-0.4385245442390442,0.52310956,0.04279026,-0.1286870539188385,-0.09430015
2389.2333333361444,-0.035887722,-0.807663,0.024773285,-2.3304563,-0.029036472,1.5811918,0.78819996,0.039999917,0.04,-9.833848,-0.4539966881275177,0.5429277,0.043735746,-0.13096541166305542,-0.09637545
2389.2500000028112,-0.037159517,-0.8084828,0.02564597,-2.3295434,-0.03006402,1.5815527,0.78827757,0.039999913,0.04,-9.832844,-0.4701267182826996,0.5628754,0.04468528,-0.13324405252933502,-0.09846036
2389.266666669478,-0.038456626,-0.8093186,0.026536023,-2.3286133,-0.031112025,1.5819206,0.7883567,0.039999913,0.04,-9.830843,-0.48641976714134216,0.58337057,0.04563864,-0.13551534712314606,-0.10055514
2389.283333336145,-0.03977907,-0.810171,0.027443454,-2.3276646,-0.032180477,1.582296,0.7884375,0.039999906,0.04,-9.828944,-0.5030385255813599,0.6042412,0.046596095,-0.13778986036777496,-0.10266024
2389.300000002812,-0.04112684,-0.8110397,0.028368283,-2.3266983,-0.03326942,1.5826781,0.7885196,0.039999906,0.04,-9.825961,-0.5198023915290833,0.6256968,0.047556445,-0.1400555670261383,-0.10477534
2389.3166666694788,-0.042499974,-0.81192464,0.029310511,-2.3257134,-0.034378838,1.5830674,0.7886033,0.039999902,0.04,-9.824492,-0.5372315645217896,0.64727557,0.0485209,-0.1423213630914688,-0.10689757
2389.3333333361456,-0.04389844,-0.81282616,0.030270137,-2.3247101,-0.035508722,1.5834641,0.7886886,0.0399999,0.04,-9.822009,-0.5548099279403687,0.6693677,0.049488388,-0.14458025991916656,-0.10902816
2389.3500000028125,-0.045322236,-0.81374377,0.03124715,-2.3236887,-0.036659095,1.583868,0.7887755,0.039999887,0.04,-9.819363,-0.5727231502532959,0.6918984,0.05045795,-0.14682868123054504,-0.1111685
2389.3666666694794,-0.046771355,-0.81467783,0.03224154,-2.3226492,-0.037829902,1.5842791,0.788864,0.039999884,0.04,-9.815916,-0.5907737016677856,0.7149205,0.051429875,-0.14907099306583405,-0.11331521
2389.3833333361463,-0.048245784,-0.81562835,0.0332533,-2.321592,-0.039021157,1.5846975,0.788954,0.039999884,0.04,-9.813772,-0.6094896197319031,0.7381328,0.052403614,-0.15130531787872314,-0.11546856
2389.400000002813,-0.049745463,-0.8165951,0.03428241,-2.3205156,-0.040232815,1.585123,0.78904533,0.03999988,0.04,-9.810784,-0.6283764243125916,0.76185876,0.053379368,-0.15353146195411682,-0.117630385
2389.41666666948,-0.051270388,-0.817578,0.035328828,-2.3194218,-0.041464906,1.5855556,0.7891383,0.03999989,0.04,-9.807451,-0.6476180553436279,0.7859809,0.054357793,-0.15574388206005096,-0.1198079
2389.433333336147,-0.052820485,-0.81857723,0.036392525,-2.3183098,-0.042717297,1.5859953,0.78923297,0.03999989,0.04,-9.80341,-0.6668881773948669,0.8106233,0.05533692,-0.15794816613197327,-0.12197962
2389.450000002814,-0.054395728,-0.81959265,0.037473496,-2.3171804,-0.04398998,1.5864422,0.7893292,0.039999884,0.04,-9.800626,-0.6868959069252014,0.8354327,0.056316398,-0.160142183303833,-0.12415787
2389.4666666694807,-0.05599605,-0.82062423,0.03857168,-2.3160324,-0.04528295,1.5868963,0.7894269,0.039999884,0.04,-9.797005,-0.7070746421813965,0.8607479,0.057296846,-0.16232700645923615,-0.12634389
2389.4833333361476,-0.057621386,-0.8216723,0.039687037,-2.3148663,-0.046596106,1.5873576,0.78952605,0.039999872,0.04,-9.79228,-0.7273500561714172,0.8865813,0.058277436,-0.16449637711048126,-0.12853299
2389.5000000028144,-0.05927168,-0.8227362,0.040819503,-2.3136828,-0.04792943,1.5878259,0.78962666,0.03999987,0.04,-9.788862,-0.7483084797859192,0.91259056,0.05925882,-0.16664808988571167,-0.1307264
2389.5166666694813,-0.060946833,-0.82381624,0.041969046,-2.3124807,-0.049282845,1.5883012,0.7897288,0.039999865,0.04,-9.784721,-0.7694211006164551,0.9390801,0.060240325,-0.16879190504550934,-0.13292518
2389.533333336148,-0.062646784,-0.82491225,0.043135613,-2.3112614,-0.05065629,1.5887831,0.78983265,0.03999986,0.04,-9.780119,-0.7908137440681458,0.96596766,0.061220996,-0.1709163784980774,-0.13512658
2389.550000002815,-0.06437143,-0.8260242,0.04431913,-2.310024,-0.052049674,1.5892725,0.78993785,0.039999858,0.04,-9.774814,-0.8123778700828552,0.99337053,0.062200513,-0.17302961647510529,-0.13733122
2389.566666669482,-0.0661207,-0.827152,0.04551954,-2.3087687,-0.053462923,1.5897684,0.7900446,0.039999843,0.04,-9.77061,-0.8345885276794434,1.0209036,0.06317934,-0.17512375116348267,-0.13953976
2389.583333336149,-0.06789446,-0.82829565,0.046736777,-2.3074965,-0.054895986,1.5902718,0.7901528,0.03999985,0.04,-9.765527,-0.8569549918174744,1.0489621,0.06415667,-0.17720232903957367,-0.14175333
2389.6000000028157,-0.06969262,-0.82945496,0.04797075,-2.3062065,-0.056348767,1.5907818,0.79026246,0.039999854,0.04,-9.760281,-0.8796346783638,1.0773687,0.065132566,-0.179264098405838,-0.14397244
2389.6166666694826,-0.07151507,-0.83063,0.04922139,-2.304899,-0.057821162,1.5912989,0.7903737,0.039999854,0.04,-9.754044,-0.9023888111114502,1.106279,0.06610667,-0.18130910396575928,-0.1461867
2389.6333333361495,-0.0733617,-0.83182067,0.05048861,-2.303574,-0.059313063,1.5918229,0.7904864,0.03999985,0.04,-9.748974,-0.9258124828338623,1.1353323,0.06707802,-0.18333260715007782,-0.14840189
2389.6500000028163,-0.07523237,-0.8330269,0.051772345,-2.3022323,-0.060824383,1.5923536,0.7906006,0.039999843,0.04,-9.74299,-0.9493798613548279,1.1648846,0.0680464,-0.18533791601657867,-0.15061818
2389.666666669483,-0.077126965,-0.8342485,0.053072494,-2.3008735,-0.062355023,1.5928909,0.79071605,0.039999828,0.04,-9.736788,-0.9732588529586792,1.1947958,0.06901215,-0.18732331693172455,-0.15283656
2389.68333333615,-0.07904533,-0.83548546,0.054388966,-2.299497,-0.0639049,1.593435,0.7908331,0.03999983,0.04,-9.729722,-0.997254490852356,1.2251649,0.06997548,-0.18929287791252136,-0.15505518
2389.700000002817,-0.08098733,-0.8367377,0.05572166,-2.2981045,-0.06547384,1.5939859,0.79095155,0.039999828,0.04,-9.723552,-1.021863341331482,1.255691,0.070934325,-0.1912350058555603,-0.15727165
2389.716666669484,-0.08295282,-0.83800507,0.057070475,-2.2966936,-0.06706176,1.5945435,0.79107153,0.039999817,0.04,-9.716807,-1.0466357469558716,1.2866837,0.07189005,-0.19316327571868896,-0.15948917
2389.7333333361507,-0.08494164,-0.8392875,0.05843531,-2.2952664,-0.068668544,1.5951077,0.7911928,0.039999828,0.04,-9.708648,-1.071503758430481,1.3181096,0.0728401,-0.19506007432937622,-0.16170827
2389.7500000028176,-0.086953655,-0.840585,0.059816044,-2.293823,-0.07029402,1.5956783,0.7913156,0.039999828,0.04,-9.701917,-1.0970081090927124,1.3497128,0.07378649,-0.1969365030527115,-0.16392674
2389.7666666694845,-0.08898867,-0.84189725,0.061212584,-2.2923634,-0.071938075,1.5962555,0.7914398,0.03999982,0.04,-9.694263,-1.1225924491882324,1.3817645,0.07472782,-0.19879406690597534,-0.16613808
2389.7833333361514,-0.09104656,-0.8432242,0.0626248,-2.2908876,-0.0736006,1.5968395,0.79156536,0.039999813,0.04,-9.686257,-1.148492455482483,1.4141304,0.075663954,-0.20062808692455292,-0.16834877
2389.8000000028183,-0.093127094,-0.84456587,0.06405258,-2.2893946,-0.07528141,1.5974298,0.7916923,0.039999813,0.04,-9.677302,-1.17449152469635,1.4469041,0.07659439,-0.20243701338768005,-0.17055495
2389.816666669485,-0.09523015,-0.8459222,0.06549579,-2.2878852,-0.07698041,1.598026,0.7918206,0.039999798,0.04,-9.669259,-1.2010968923568726,1.4798766,0.077518545,-0.20421795547008514,-0.17276053
2389.833333336152,-0.0973555,-0.8472926,0.0669543,-2.28636,-0.0786974,1.598629,0.7919503,0.039999798,0.04,-9.660383,-1.2277837991714478,1.5132653,0.07843673,-0.20597437024116516,-0.17495827
2389.850000002819,-0.099502966,-0.8486773,0.06842802,-2.2848194,-0.08043227,1.5992383,0.79208136,0.039999787,0.04,-9.651235,-1.2547905445098877,1.5469346,0.07934772,-0.20770496129989624,-0.17715722
2389.8666666694858,-0.10167235,-0.85007644,0.06991676,-2.2832634,-0.08218492,1.5998536,0.7922136,0.039999794,0.04,-9.641195,-1.2819052934646606,1.5810294,0.08025237,-0.20941205322742462,-0.1793531
2389.8833333361526,-0.10386346,-0.85148954,0.07142043,-2.2816916,-0.08395512,1.6004753,0.7923473,0.039999798,0.04,-9.632101,-1.3095839023590088,1.6153103,0.08115021,-0.21109408140182495,-0.18154658
2389.9000000028195,-0.106076114,-0.8529164,0.07293885,-2.2801042,-0.08574263,1.6011031,0.7924823,0.03999979,0.04,-9.621983,-1.337288737297058,1.6499327,0.08203984,-0.2127469778060913,-0.1837252
2389.9166666694864,-0.108310066,-0.8543572,0.07447193,-2.2785017,-0.08754733,1.6017368,0.7926186,0.03999978,0.04,-9.611589,-1.3653212785720825,1.6848675,0.08292112,-0.21437276899814606,-0.1859026
2389.9333333361533,-0.11056515,-0.8558115,0.07601945,-2.2768838,-0.089369066,1.6023766,0.7927561,0.039999776,0.04,-9.600277,-1.3934279680252075,1.7201729,0.083794594,-0.21597184240818024,-0.18807013
2389.95000000282,-0.11284109,-0.8572794,0.07758132,-2.2752507,-0.09120771,1.6030222,0.7928951,0.03999977,0.04,-9.589815,-1.4221142530441284,1.7556362,0.08465923,-0.2175406664609909,-0.19023642
2389.966666669487,-0.11513772,-0.8587607,0.07915736,-2.2736025,-0.09306302,1.6036737,0.79303527,0.03999977,0.04,-9.578423,-1.4508274793624878,1.7914674,0.08551383,-0.21908052265644073,-0.19238992
2389.983333336154,-0.11745479,-0.8602553,0.08074742,-2.2719402,-0.09493481,1.6043311,0.79317653,0.03999975,0.04,-9.566068,-1.4796929359436035,1.8276386,0.08635886,-0.22058972716331482,-0.19454055
2390.000000002821,-0.119792044,-0.8617629,0.08235133,-2.2702637,-0.09682296,1.6049942,0.7933191,0.039999757,0.04,-9.554703,-1.509068489074707,1.8639729,0.087195106,-0.2220710963010788,-0.19668387
2390.0166666694877,-0.12214928,-0.8632834,0.083968945,-2.2685726,-0.098727226,1.605663,0.79346305,0.03999975,0.04,-9.542365,-1.538544774055481,1.9006245,0.0880211,-0.2235254943370819,-0.1988213
2390.0333333361546,-0.124526255,-0.8648166,0.08560011,-2.2668672,-0.100647435,1.6063372,0.7936081,0.03999975,0.04,-9.529592,-1.568181037902832,1.9375407,0.0888359,-0.2249472588300705,-0.2009444
2390.0500000028214,-0.1269227,-0.86636233,0.08724464,-2.2651477,-0.10258333,1.607017,0.79375434,0.039999742,0.04,-9.51595,-1.5979273319244385,1.9747665,0.089640155,-0.22634068131446838,-0.20305559
2390.0666666694883,-0.12933832,-0.8679205,0.08890237,-2.2634144,-0.10453478,1.6077023,0.79390174,0.039999746,0.04,-9.503049,-1.6281882524490356,2.0121386,0.090433754,-0.22770141065120697,-0.2051592
2390.083333336155,-0.13177298,-0.86949104,0.090573125,-2.2616675,-0.10650153,1.6083931,0.7940502,0.039999727,0.04,-9.489261,-1.6585158109664917,2.0498304,0.091215625,-0.22903206944465637,-0.2072544
2390.100000002822,-0.13422641,-0.8710736,0.09225672,-2.2599072,-0.10848341,1.609089,0.79420006,0.03999972,0.04,-9.475082,-1.689019799232483,2.0877433,0.09198579,-0.23033007979393005,-0.20933692
2390.116666669489,-0.13669825,-0.87266827,0.09395299,-2.2581336,-0.11048022,1.6097902,0.79435074,0.03999971,0.04,-9.4600315,-1.7196271419525146,2.125936,0.09274269,-0.23159828782081604,-0.21140893
2390.133333336156,-0.13918827,-0.8742746,0.09566175,-2.2563472,-0.11249174,1.6104965,0.7945027,0.03999971,0.04,-9.445665,-1.7506955862045288,2.164299,0.09348876,-0.23283430933952332,-0.21347271
2390.1500000028227,-0.14169626,-0.8758926,0.09738281,-2.2545474,-0.11451774,1.611208,0.7946557,0.03999971,0.04,-9.430388,-1.7818018198013306,2.2028944,0.09422148,-0.23403850197792053,-0.21552375
2390.1666666694896,-0.14422195,-0.87752205,0.09911601,-2.2527351,-0.116558,1.6119245,0.79480976,0.039999705,0.04,-9.414678,-1.813063144683838,2.241721,0.09494066,-0.2352084368467331,-0.21755713
2390.1833333361565,-0.14676501,-0.87916255,0.10086111,-2.2509103,-0.118612275,1.6126456,0.79496485,0.039999694,0.04,-9.398144,-1.8444249629974365,2.280766,0.09564632,-0.2363470196723938,-0.21957776
2390.2000000028233,-0.14932522,-0.8808143,0.102617964,-2.249073,-0.12068035,1.6133722,0.79512095,0.03999969,0.04,-9.382221,-1.876181960105896,2.3199687,0.09633874,-0.23745395243167877,-0.22158484
2390.21666666949,-0.1519022,-0.88247687,0.10438638,-2.2472234,-0.12276201,1.6141032,0.79527825,0.03999969,0.04,-9.365382,-1.9079848527908325,2.359402,0.09701654,-0.23852474987506866,-0.22357494
2390.233333336157,-0.15449573,-0.8841502,0.10616614,-2.2453628,-0.124857,1.614839,0.7954365,0.039999668,0.04,-9.347615,-1.9398796558380127,2.3990235,0.097679324,-0.23956213891506195,-0.22555485
2390.250000002824,-0.15710555,-0.8858339,0.10795704,-2.24349,-0.12696518,1.6155794,0.7955957,0.039999656,0.04,-9.33062,-1.9721426963806152,2.4388244,0.09832825,-0.2405705749988556,-0.22751899
2390.266666669491,-0.15973131,-0.8875281,0.109758876,-2.2416062,-0.12908623,1.6163237,0.795756,0.039999656,0.04,-9.312592,-2.004434823989868,2.4787786,0.09896183,-0.24154488742351532,-0.22947091
2390.2833333361577,-0.16237275,-0.8892325,0.111571476,-2.2397106,-0.13121992,1.6170738,0.79591715,0.039999664,0.04,-9.29421,-2.036874294281006,2.5189342,0.09958031,-0.2424888014793396,-0.23140463
2390.3000000028246,-0.16502956,-0.8909468,0.11339463,-2.2378037,-0.13336599,1.6178278,0.7960792,0.039999656,0.04,-9.27477,-2.0693180561065674,2.5591917,0.10018239,-0.24338889122009277,-0.23331833
2390.3166666694915,-0.16770144,-0.89267105,0.11522808,-2.2358868,-0.13552421,1.6185856,0.79624224,0.039999645,0.04,-9.25604,-2.1021182537078857,2.599662,0.100768596,-0.2442575842142105,-0.23521389
2390.3333333361584,-0.17038804,-0.8944045,0.11707169,-2.2339582,-0.13769439,1.6193476,0.79640615,0.039999638,0.04,-9.236503,-2.1349685192108154,2.6402864,0.10133907,-0.24509760737419128,-0.23709157
2390.3500000028253,-0.17308913,-0.89614755,0.118925184,-2.23202,-0.13987625,1.6201137,0.7965709,0.039999615,0.04,-9.216316,-2.1679530143737793,2.6809876,0.10189312,-0.24589960277080536,-0.23895504
2390.366666669492,-0.17580438,-0.89789975,0.120788395,-2.2300713,-0.1420695,1.6208838,0.79673654,0.039999608,0.04,-9.195482,-2.200927734375,2.72185,0.102430366,-0.2466694712638855,-0.24079496
2390.383333336159,-0.17853343,-0.8996609,0.1226611,-2.2281127,-0.14427389,1.6216578,0.79690295,0.039999608,0.04,-9.175038,-2.2342076301574707,2.7628448,0.102950394,-0.2474050521850586,-0.24261688
2390.400000002826,-0.181276,-0.9014307,0.12454303,-2.226145,-0.1464892,1.6224358,0.7970703,0.03999959,0.04,-9.153734,-2.2675278186798096,2.8039458,0.103453785,-0.24810610711574554,-0.24442221
2390.4166666694928,-0.18403175,-0.90320903,0.12643403,-2.2241678,-0.14871515,1.6232175,0.7972385,0.039999597,0.04,-9.132094,-2.3009488582611084,2.84514,0.10393944,-0.24877586960792542,-0.24620886
2390.4333333361596,-0.18680038,-0.9049956,0.12833387,-2.2221808,-0.15095149,1.6240029,0.79740727,0.03999959,0.04,-9.109576,-2.3343396186828613,2.8864048,0.10440721,-0.24941201508045197,-0.24797043
2390.4500000028265,-0.18958156,-0.90679055,0.13024227,-2.2201848,-0.15319796,1.6247921,0.797577,0.03999958,0.04,-9.087328,-2.3679819107055664,2.9278183,0.10485817,-0.2500098943710327,-0.2497097
2390.4666666694934,-0.19237497,-0.9085934,0.13215907,-2.21818,-0.15545426,1.6255845,0.79774743,0.039999567,0.04,-9.064333,-2.4016220569610596,2.9693186,0.10528899,-0.25057247281074524,-0.25142685
2390.4833333361603,-0.19518033,-0.91040397,0.13408406,-2.2161665,-0.1577202,1.6263801,0.7979185,0.03999956,0.04,-9.040579,-2.435309886932373,3.01085,0.10570226,-0.2511027157306671,-0.25312245
2390.500000002827,-0.19799717,-0.91222197,0.13601692,-2.2141452,-0.15999547,1.6271791,0.79809046,0.039999552,0.04,-9.017083,-2.469153642654419,3.0525122,0.1060969,-0.25159764289855957,-0.25479385
2390.516666669494,-0.2008253,-0.91404754,0.13795747,-2.2121155,-0.16227977,1.6279815,0.7982629,0.039999537,0.04,-8.99291,-2.5030317306518555,3.0941954,0.10647271,-0.25206080079078674,-0.2564419
2390.533333336161,-0.20366439,-0.9158798,0.13990553,-2.2100778,-0.16457291,1.6287869,0.79843616,0.03999952,0.04,-8.968166,-2.5369338989257812,3.135959,0.1068292,-0.2524864375591278,-0.25806785
2390.550000002828,-0.20651397,-0.91771924,0.14186083,-2.2080324,-0.16687454,1.6295953,0.79861,0.03999951,0.04,-8.942728,-2.5708491802215576,3.1776626,0.10716644,-0.25287848711013794,-0.2596677
2390.5666666694947,-0.20937377,-0.91956526,0.1438231,-2.2059798,-0.16918442,1.6304066,0.79878426,0.0399995,0.04,-8.917491,-2.6049230098724365,3.219578,0.107484125,-0.253235399723053,-0.26124665
2390.5833333361616,-0.21224342,-0.9214176,0.14579216,-2.2039201,-0.17150225,1.6312207,0.7989593,0.0399995,0.04,-8.891538,-2.638960361480713,3.261426,0.107783325,-0.253557413816452,-0.26279885
2390.6000000028284,-0.21512268,-0.9232762,0.14776778,-2.2018538,-0.1738278,1.6320376,0.799135,0.039999492,0.04,-8.865208,-2.6730377674102783,3.3033051,0.10806266,-0.2538474500179291,-0.2643236
2390.6166666694953,-0.2180111,-0.92514074,0.14974965,-2.1997805,-0.17616072,1.632857,0.7993111,0.039999485,0.04,-8.838104,-2.7070815563201904,3.3451338,0.108321205,-0.2541029155254364,-0.26581946
2390.633333336162,-0.22090833,-0.9270111,0.15173754,-2.1977007,-0.17850077,1.6336787,0.7994879,0.03999947,0.04,-8.811159,-2.7412309646606445,3.387101,0.10856106,-0.25432470440864563,-0.26728943
2390.650000002829,-0.22381406,-0.92888665,0.15373129,-2.1956155,-0.18084769,1.634503,0.79966515,0.03999945,0.04,-8.783483,-2.7753357887268066,3.4290118,0.1087795,-0.2545124590396881,-0.26873097
2390.666666669496,-0.22672798,-0.93076795,0.1557306,-2.1935246,-0.18320118,1.6353297,0.7998428,0.03999944,0.04,-8.755552,-2.809502363204956,3.4708803,0.108979434,-0.2546707093715668,-0.27014583
2390.683333336163,-0.2296497,-0.9326542,0.15773526,-2.1914275,-0.18556091,1.6361586,0.8000209,0.039999433,0.04,-8.726747,-2.8435730934143066,3.5126977,0.10915864,-0.25479209423065186,-0.27152842
2390.7000000028297,-0.23257886,-0.9345454,0.15974501,-2.1893249,-0.18792666,1.6369894,0.8001996,0.039999418,0.04,-8.698065,-2.877728223800659,3.5546246,0.10931765,-0.25487980246543884,-0.2728858
2390.7166666694966,-0.23551506,-0.93644124,0.1617596,-2.1872175,-0.19029817,1.6378222,0.80037886,0.039999407,0.04,-8.668735,-2.9118075370788574,3.5964313,0.10945502,-0.2549338936805725,-0.27421215
2390.7333333361635,-0.23845796,-0.9383414,0.16377884,-2.1851048,-0.19267505,1.6386569,0.8005583,0.03999938,0.04,-8.63882,-2.9458959102630615,3.6381428,0.10957202,-0.25495675206184387,-0.2755095
2390.7500000028303,-0.2414073,-0.9402457,0.16580246,-2.1829882,-0.19505708,1.6394935,0.8007383,0.03999937,0.04,-8.608836,-2.979942798614502,3.6799428,0.10966934,-0.25494396686553955,-0.2767752
2390.766666669497,-0.24436261,-0.9421539,0.16783017,-2.1808672,-0.19744393,1.6403317,0.80091846,0.03999936,0.04,-8.578376,-3.013975143432617,3.7216132,0.10974598,-0.2549017071723938,-0.27801096
2390.783333336164,-0.24732359,-0.9440658,0.1698617,-2.1787417,-0.1998353,1.6411716,0.8010991,0.03999935,0.04,-8.547448,-3.0479650497436523,3.7632225,0.10980313,-0.25482746958732605,-0.2792159
2390.800000002831,-0.25028986,-0.9459814,0.17189686,-2.1766129,-0.20223099,1.642013,0.8012801,0.039999336,0.04,-8.515836,-3.0818653106689453,3.8046632,0.109837666,-0.2547183334827423,-0.2803875
2390.816666669498,-0.25326103,-0.9479001,0.17393543,-2.1744797,-0.20463063,1.642856,0.8014612,0.03999932,0.04,-8.484306,-3.1157500743865967,3.846227,0.109852545,-0.25457844138145447,-0.28152788
2390.8333333361647,-0.2562367,-0.94982165,0.17597707,-2.1723433,-0.20703396,1.6436999,0.8016427,0.039999302,0.04,-8.452048,-3.1495344638824463,3.8875842,0.10984668,-0.25440171360969543,-0.2826338
2390.8500000028316,-0.2592167,-0.9517461,0.17802157,-2.1702046,-0.20944075,1.6445451,0.8018245,0.039999295,0.04,-8.419572,-3.1833152770996094,3.9288664,0.10982036,-0.25419744849205017,-0.28370988
2390.8666666694985,-0.26220047,-0.953673,0.18006872,-2.1680624,-0.21185054,1.6453916,0.8020065,0.03999928,0.04,-8.386564,-3.2169816493988037,3.969957,0.109773465,-0.2539635896682739,-0.28474516
2390.8833333361654,-0.26518777,-0.95560217,0.1821182,-2.1659184,-0.2142631,1.6462389,0.80218875,0.03999927,0.04,-8.353301,-3.250563859939575,4.0111127,0.10970574,-0.25369471311569214,-0.2857505
2390.9000000028323,-0.26817805,-0.9575334,0.18416984,-2.1637716,-0.21667817,1.6470872,0.8023711,0.03999925,0.04,-8.319672,-3.2840776443481445,4.0520663,0.109617464,-0.25339698791503906,-0.28671953
2390.916666669499,-0.27117112,-0.9594667,0.1862233,-2.1616225,-0.21909547,1.6479365,0.8025536,0.03999923,0.04,-8.285549,-3.317509651184082,4.092904,0.10950962,-0.2530667781829834,-0.28765494
2390.933333336166,-0.27416673,-0.96140146,0.18827835,-2.1594718,-0.22151466,1.6487861,0.8027363,0.039999217,0.04,-8.250963,-3.3508481979370117,4.1334925,0.10938029,-0.25270381569862366,-0.28855386
2390.950000002833,-0.2771643,-0.9633377,0.19033478,-2.1573203,-0.22393547,1.6496363,0.8029191,0.0399992,0.04,-8.216267,-3.3840172290802,4.174181,0.109229915,-0.2523123025894165,-0.2894158
2390.9666666695,-0.28016335,-0.96527505,0.19239233,-2.155167,-0.22635761,1.650487,0.8031021,0.03999918,0.04,-8.181134,-3.4171481132507324,4.2146177,0.109060265,-0.25189194083213806,-0.29024193
2390.9833333361667,-0.28316382,-0.96721315,0.19445074,-2.1530135,-0.22878067,1.651338,0.8032852,0.039999165,0.04,-8.145517,-3.450199604034424,4.2547464,0.108870685,-0.2514408528804779,-0.29103068
2391.0000000028335,-0.28616518,-0.969152,0.19650976,-2.1508589,-0.23120445,1.6521893,0.80346835,0.03999915,0.04,-8.109768,-3.483046531677246,4.2949953,0.10866042,-0.2509630024433136,-0.29178426
2391.0166666695004,-0.28916693,-0.9710912,0.19856912,-2.1487038,-0.23362866,1.6530406,0.80365145,0.03999913,0.04,-8.073506,-3.5157787799835205,4.3349395,0.10843025,-0.2504545748233795,-0.29249775
2391.0333333361673,-0.29216895,-0.97303045,0.20062862,-2.1465487,-0.23605306,1.6538922,0.8038347,0.039999112,0.04,-8.036895,-3.5484163761138916,4.374719,0.1081814,-0.24991610646247864,-0.29317665
2391.050000002834,-0.2951707,-0.9749697,0.20268798,-2.1443937,-0.23847726,1.6547436,0.80401784,0.039999094,0.04,-8.000022,-3.580979347229004,4.4141665,0.10791244,-0.24935001134872437,-0.2938155
2391.066666669501,-0.29817188,-0.9769087,0.20474689,-2.142239,-0.24090092,1.6555948,0.804201,0.039999083,0.04,-7.962782,-3.6132383346557617,4.4537077,0.10762463,-0.24875494837760925,-0.29441276
2391.083333336168,-0.30117217,-0.97884715,0.20680511,-2.140085,-0.24332383,1.6564459,0.80438405,0.03999906,0.04,-7.925205,-3.6454570293426514,4.4929366,0.1073171,-0.2481306791305542,-0.2949764
2391.100000002835,-0.3041711,-0.9807847,0.20886245,-2.137932,-0.24574572,1.6572965,0.804567,0.039999038,0.04,-7.8873363,-3.6774704456329346,4.531965,0.106990255,-0.24747823178768158,-0.29549757
2391.1166666695017,-0.3071684,-0.9827213,0.21091865,-2.1357796,-0.24816623,1.6581467,0.8047497,0.039999012,0.04,-7.849238,-3.7094619274139404,4.570629,0.106645614,-0.24680085480213165,-0.29598007
2391.1333333361686,-0.3101636,-0.9846567,0.21297336,-2.1336288,-0.25058502,1.6589963,0.80493236,0.039998997,0.04,-7.810612,-3.7410781383514404,4.609383,0.10628153,-0.24609123170375824,-0.29642227
2391.1500000028354,-0.31315634,-0.98659056,0.2150264,-2.1314805,-0.253002,1.6598456,0.8051149,0.03999898,0.04,-7.7718635,-3.77262806892395,4.6477933,0.105899185,-0.24535639584064484,-0.29682413
2391.1666666695023,-0.31614634,-0.9885228,0.21707754,-2.1293335,-0.25541666,1.6606938,0.8052972,0.03999896,0.04,-7.73289,-3.8040459156036377,4.6859627,0.105499335,-0.24459680914878845,-0.29718688
2391.183333336169,-0.31913316,-0.990453,0.21912655,-2.1271882,-0.25782877,1.6615411,0.8054793,0.039998934,0.04,-7.693482,-3.8353145122528076,4.7237706,0.10508111,-0.24380750954151154,-0.29750937
2391.200000002836,-0.3221165,-0.99238116,0.2211731,-2.125047,-0.260238,1.6623873,0.8056612,0.039998922,0.04,-7.6537495,-3.866215229034424,4.7616186,0.10464498,-0.2429908961057663,-0.29778656
2391.216666669503,-0.32509592,-0.99430674,0.22321694,-2.1229074,-0.26264408,1.6632327,0.80584276,0.039998893,0.04,-7.61405,-3.8971190452575684,4.7991314,0.10419256,-0.24215593934059143,-0.2980272
2391.23333333617,-0.32807112,-0.9962296,0.22525783,-2.1207707,-0.26504672,1.6640764,0.80602413,0.039998874,0.04,-7.5738745,-3.9278037548065186,4.8361835,0.103722304,-0.24128946661949158,-0.2982237
2391.2500000028367,-0.3310417,-0.9981496,0.22729555,-2.1186385,-0.26744568,1.6649189,0.80620533,0.039998855,0.04,-7.5333486,-3.9581263065338135,4.8733325,0.103234276,-0.24039936065673828,-0.29837748
2391.2666666695036,-0.33400723,-1.0000664,0.2293299,-2.116509,-0.2698406,1.6657603,0.80638623,0.039998833,0.04,-7.4928656,-3.9884095191955566,4.9100475,0.10273115,-0.2394895702600479,-0.29848728
2391.2833333361705,-0.33696753,-1.0019798,0.23136052,-2.1143837,-0.27223116,1.6665999,0.8065668,0.0399988,0.04,-7.451822,-4.018429756164551,4.946518,0.10221028,-0.23854871094226837,-0.29855958
2391.3000000028374,-0.3399222,-1.0038896,0.23338726,-2.112262,-0.2746171,1.667438,0.8067471,0.039998773,0.04,-7.4109755,-4.048390865325928,4.982561,0.101673864,-0.2375890612602234,-0.29859048
2391.3166666695042,-0.34287074,-1.005796,0.23540983,-2.1101446,-0.27699813,1.6682744,0.80692697,0.039998755,0.04,-7.369457,-4.077866077423096,5.0186443,0.10112081,-0.23660284280776978,-0.29857594
2391.333333336171,-0.34581283,-1.0076979,0.23742794,-2.108032,-0.27937403,1.6691089,0.8071063,0.03999874,0.04,-7.3278303,-4.107221603393555,5.054342,0.10055175,-0.2355906069278717,-0.29851693
2391.350000002838,-0.34874824,-1.0095955,0.23944141,-2.105924,-0.28174445,1.6699415,0.8072853,0.03999871,0.04,-7.286167,-4.136425018310547,5.0897074,0.09996888,-0.23455770313739777,-0.2984171
2391.366666669505,-0.35167646,-1.0114884,0.24144997,-2.103821,-0.28410912,1.6707722,0.807464,0.039998684,0.04,-7.2443767,-4.165470123291016,5.124625,0.09937003,-0.23349997401237488,-0.29827413
2391.3833333361717,-0.35459724,-1.0133767,0.24345337,-2.1017237,-0.28646776,1.6716007,0.80764216,0.03999866,0.04,-7.202114,-4.194087028503418,5.159602,0.098757155,-0.23242150247097015,-0.29808804
2391.4000000028386,-0.3575101,-1.0152601,0.2454514,-2.0996318,-0.28882006,1.672427,0.8078198,0.039998636,0.04,-7.1598186,-4.222568988800049,5.1941404,0.09813021,-0.23132090270519257,-0.29785866
2391.4166666695055,-0.36041483,-1.0171382,0.24744377,-2.0975456,-0.29116562,1.6732509,0.80799687,0.039998613,0.04,-7.1173472,-4.2508087158203125,5.2283554,0.097489774,-0.23019735515117645,-0.29758614
2391.4333333361724,-0.36331102,-1.0190109,0.24943033,-2.0954657,-0.29350427,1.6740725,0.80817354,0.03999859,0.04,-7.074968,-4.2789506912231445,5.262137,0.09683534,-0.22905300557613373,-0.2972716
2391.4500000028393,-0.3661983,-1.0208778,0.25141078,-2.0933921,-0.2958358,1.6748917,0.8083496,0.039998572,0.04,-7.0319524,-4.306600093841553,5.2959213,0.09616795,-0.22788681089878082,-0.29691368
2391.466666669506,-0.36907634,-1.0227393,0.25338486,-2.0913253,-0.29815996,1.6757079,0.8085251,0.03999855,0.04,-6.9890456,-4.334116458892822,5.3292327,0.09548781,-0.22669881582260132,-0.29651213
2391.483333336173,-0.3719448,-1.0245944,0.25535232,-2.0892653,-0.3004763,1.6765215,0.8087,0.039998516,0.04,-6.9462886,-4.361522197723389,5.362121,0.094795264,-0.22549185156822205,-0.29606587
2391.50000000284,-0.37480333,-1.0264431,0.25731292,-2.0872123,-0.30278465,1.6773324,0.8088744,0.039998498,0.04,-6.9028826,-4.388392448425293,5.394978,0.09409058,-0.22426483035087585,-0.29557502
2391.516666669507,-0.3776515,-1.028285,0.25926644,-2.0851665,-0.30508465,1.6781403,0.809048,0.039998468,0.04,-6.859605,-4.415150165557861,5.4273453,0.09337334,-0.22301708161830902,-0.2950399
2391.5333333361737,-0.38048917,-1.0301205,0.26121268,-2.0831282,-0.3073761,1.6789453,0.80922097,0.03999844,0.04,-6.816227,-4.441667556762695,5.4593983,0.09264601,-0.2217494696378708,-0.2944645
2391.5500000028405,-0.38331583,-1.0319487,0.26315144,-2.081098,-0.30965868,1.6797469,0.8093934,0.03999841,0.04,-6.773047,-4.468043327331543,5.490987,0.09190707,-0.2204609364271164,-0.29384357
2391.5666666695074,-0.3861312,-1.03377,0.26508242,-2.079076,-0.31193212,1.6805453,0.80956507,0.03999838,0.04,-6.7292833,-4.49392032623291,5.5225754,0.091158,-0.21915759146213531,-0.29317957
2391.5833333361743,-0.38893503,-1.0355839,0.2670056,-2.077062,-0.31419623,1.6813408,0.809736,0.03999835,0.04,-6.685667,-4.5196452140808105,5.5536895,0.090398856,-0.21783490478992462,-0.29247296
2391.600000002841,-0.39172694,-1.0373899,0.26892045,-2.0750563,-0.31645066,1.6821326,0.80990636,0.039998326,0.04,-6.6418896,-4.54508113861084,5.584442,0.08962943,-0.21648931503295898,-0.29171997
2391.616666669508,-0.39450657,-1.039188,0.27082676,-2.0730596,-0.31869522,1.6829209,0.8100759,0.039998297,0.04,-6.598552,-4.5704345703125,5.614701,0.08884973,-0.21512790024280548,-0.29092896
2391.633333336175,-0.39727348,-1.0409786,0.27272445,-2.0710719,-0.32092956,1.6837057,0.8102446,0.03999828,0.04,-6.5544558,-4.595175266265869,5.6449594,0.088061236,-0.213749498128891,-0.2900911
2391.650000002842,-0.40002754,-1.04276,0.27461338,-2.0690937,-0.3231535,1.6844869,0.8104127,0.039998244,0.04,-6.510605,-4.619833469390869,5.674777,0.08726379,-0.21235229074954987,-0.2892118
2391.6666666695087,-0.4027683,-1.0445331,0.2764931,-2.067125,-0.3253667,1.6852645,0.8105797,0.039998222,0.04,-6.4669456,-4.644248962402344,5.7041492,0.08645981,-0.2109432965517044,-0.28828713
2391.6833333361756,-0.40549552,-1.0462977,0.2783635,-2.0651658,-0.32756898,1.6860381,0.8107461,0.039998192,0.04,-6.4234414,-4.6684889793396,5.733088,0.08564836,-0.20951434969902039,-0.28732127
2391.7000000028424,-0.4082089,-1.0480535,0.2802244,-2.0632167,-0.32976004,1.686808,0.81091154,0.039998163,0.04,-6.379164,-4.692150592803955,5.7619853,0.08482797,-0.2080674022436142,-0.2863148
2391.7166666695093,-0.410908,-1.0497998,0.2820755,-2.0612779,-0.3319397,1.6875739,0.8110762,0.039998136,0.04,-6.3353715,-4.7156982421875,5.7904224,0.08400056,-0.2066059112548828,-0.2852631
2391.733333336176,-0.4135927,-1.051537,0.28391665,-2.0593498,-0.33410755,1.6883355,0.81123984,0.03999811,0.04,-6.292,-4.739104270935059,5.818298,0.08316685,-0.20512817800045013,-0.28416565
2391.750000002843,-0.4162625,-1.0532651,0.2857476,-2.0574315,-0.33626342,1.6890924,0.8114027,0.039998077,0.04,-6.2478466,-4.762004375457764,5.8461976,0.08232835,-0.20363780856132507,-0.28303292
2391.76666666951,-0.41891727,-1.054983,0.2875682,-2.0555236,-0.3384071,1.689845,0.8115646,0.039998055,0.04,-6.2039704,-4.784633159637451,5.873598,0.08148107,-0.20212970674037933,-0.28185514
2391.783333336177,-0.42155653,-1.0566907,0.2893782,-2.053628,-0.3405384,1.6905937,0.81172544,0.039998032,0.04,-6.16028,-4.807089805603027,5.9005995,0.08062852,-0.20060734450817108,-0.28063974
2391.8000000028437,-0.42418012,-1.0583886,0.2911774,-2.0517426,-0.34265697,1.6913384,0.8118855,0.03999801,0.04,-6.1172504,-4.829412460327148,5.92711,0.07977396,-0.19907371699810028,-0.27937675
2391.8166666695106,-0.42678773,-1.0600764,0.29296562,-2.0498695,-0.3447625,1.6920778,0.81204444,0.039997976,0.04,-6.073022,-4.851078987121582,5.9535966,0.07891109,-0.19751739501953125,-0.2780753
2391.8333333361775,-0.429379,-1.0617537,0.29474258,-2.0480077,-0.34685493,1.6928128,0.81220263,0.039997943,0.04,-6.0296917,-4.8727006912231445,5.979637,0.07804624,-0.19595618546009064,-0.2767329
2391.8500000028444,-0.4319536,-1.0634205,0.29650816,-2.046158,-0.34893396,1.693543,0.81235963,0.03999791,0.04,-5.98618,-4.893979549407959,6.0052633,0.077175215,-0.1943768709897995,-0.27535287
2391.8666666695112,-0.43451127,-1.0650761,0.2982622,-2.0443206,-0.3509993,1.6942686,0.8125156,0.039997876,0.04,-5.9434037,-4.915143013000488,6.03044,0.07630162,-0.19278593361377716,-0.27392814
2391.883333336178,-0.4370519,-1.0667206,0.30000445,-2.042495,-0.35305086,1.6949891,0.81267047,0.03999786,0.04,-5.8997245,-4.935750484466553,6.055494,0.07542609,-0.19118206202983856,-0.27246514
2391.900000002845,-0.43957508,-1.068354,0.30173472,-2.0406826,-0.35508835,1.6957047,0.81282425,0.03999783,0.04,-5.8566084,-4.9561848640441895,6.080097,0.07454697,-0.18956556916236877,-0.27096486
2391.916666669512,-0.44208047,-1.0699763,0.30345285,-2.0388825,-0.35711154,1.6964154,0.8129771,0.03999779,0.04,-5.813699,-4.976370334625244,6.1043653,0.07366604,-0.1879388689994812,-0.26942524
2391.9333333361787,-0.44456786,-1.0715872,0.30515853,-2.0370953,-0.3591202,1.6971208,0.81312877,0.03999776,0.04,-5.7713537,-4.996373176574707,6.1281433,0.07278219,-0.18629790842533112,-0.2678416
2391.9500000028456,-0.44703698,-1.0731856,0.30685174,-2.0353208,-0.36111403,1.6978211,0.8132794,0.039997734,0.04,-5.72809,-5.015809535980225,6.1518717,0.071895406,-0.18464423716068268,-0.2662245
2391.9666666695125,-0.4494875,-1.0747722,0.30853224,-2.0335603,-0.3630928,1.6985164,0.8134287,0.0399977,0.04,-5.685603,-5.035120010375977,6.175009,0.07100818,-0.182980015873909,-0.26456767
2391.9833333361794,-0.4519193,-1.0763472,0.3101998,-2.0318136,-0.36505648,1.699206,0.81357706,0.03999768,0.04,-5.6438603,-5.054344177246094,6.197778,0.07012192,-0.18130643665790558,-0.26287368
2392.0000000028463,-0.45433202,-1.0779097,0.31185433,-2.0300796,-0.3670048,1.6998903,0.81372416,0.03999766,0.04,-5.6011143,-5.072930335998535,6.2204714,0.06923339,-0.1796227991580963,-0.26114175
2392.016666669513,-0.45672554,-1.07946,0.3134956,-2.02836,-0.36893746,1.700569,0.8138701,0.039997622,0.04,-5.559031,-5.091379165649414,6.242623,0.06834429,-0.17792637646198273,-0.2593752
2392.03333333618,-0.45909944,-1.0809973,0.31512338,-2.026654,-0.3708545,1.7012424,0.81401503,0.03999759,0.04,-5.517231,-5.109561920166016,6.2644877,0.067454666,-0.17622053623199463,-0.25757042
2392.050000002847,-0.46145353,-1.0825224,0.31673765,-2.024962,-0.3727555,1.7019099,0.8141586,0.039997548,0.04,-5.4762154,-5.127638339996338,6.285834,0.06656493,-0.17450407147407532,-0.25573432
2392.066666669514,-0.4637876,-1.0840341,0.31833822,-2.0232847,-0.37464038,1.702572,0.81430095,0.03999753,0.04,-5.434165,-5.145061016082764,6.307156,0.06567546,-0.17277780175209045,-0.25385702
2392.0833333361807,-0.4661014,-1.0855327,0.31992474,-2.0216217,-0.37650883,1.7032282,0.81444216,0.0399975,0.04,-5.3930283,-5.162446975708008,6.3279467,0.064788386,-0.1710423082113266,-0.25194523
2392.1000000028475,-0.46839482,-1.0870185,0.32149726,-2.0199735,-0.3783607,1.7038786,0.814582,0.03999747,0.04,-5.352076,-5.179502964019775,6.348431,0.06390154,-0.16929908096790314,-0.2500016
2392.1166666695144,-0.47066757,-1.0884905,0.32305548,-2.01834,-0.38019583,1.7045231,0.81472063,0.03999744,0.04,-5.3119316,-5.196430683135986,6.3684964,0.06301575,-0.16754558682441711,-0.24802245
2392.1333333361813,-0.47291926,-1.0899496,0.32459947,-2.0167222,-0.38201413,1.7051618,0.8148579,0.03999742,0.04,-5.2708893,-5.212823867797852,6.3884006,0.06213221,-0.16578608751296997,-0.24601232
2392.150000002848,-0.47514972,-1.0913949,0.32612887,-2.0151196,-0.3838153,1.7057945,0.81499404,0.03999739,0.04,-5.2306314,-5.229080677032471,6.407935,0.06125146,-0.16401655972003937,-0.24396776
2392.166666669515,-0.47735882,-1.0928261,0.32764363,-2.013532,-0.3855992,1.7064209,0.8151287,0.03999736,0.04,-5.1907206,-5.245066165924072,6.4270797,0.060372807,-0.16224081814289093,-0.24189176
2392.183333336182,-0.47954634,-1.094243,0.3291435,-2.0119596,-0.3873656,1.7070415,0.815262,0.03999733,0.04,-5.1516657,-5.260915756225586,6.445789,0.059498124,-0.16045790910720825,-0.23978154
2392.200000002849,-0.48171207,-1.0956463,0.33062857,-2.0104027,-0.3891144,1.7076558,0.8153941,0.0399973,0.04,-5.1116276,-5.276207447052002,6.4643435,0.058626004,-0.1586674451828003,-0.23764524
2392.2166666695157,-0.48385587,-1.0970359,0.33209857,-2.0088623,-0.3908455,1.7082636,0.8155248,0.039997276,0.04,-5.072437,-5.291377067565918,6.4825516,0.05775663,-0.1568683683872223,-0.23547567
2392.2333333361826,-0.4859775,-1.0984108,0.33355317,-2.0073376,-0.39255872,1.7088655,0.81565416,0.039997246,0.04,-5.0343075,-5.306441783905029,6.5003767,0.0568909,-0.15506507456302643,-0.2332762
2392.2500000028494,-0.48807657,-1.0997711,0.3349925,-2.0058286,-0.39425385,1.7094611,0.8157821,0.03999723,0.04,-4.9950986,-5.3209123611450195,6.517968,0.056028258,-0.15325318276882172,-0.23104726
2392.2666666695163,-0.49015313,-1.1011169,0.3364164,-2.004336,-0.39593062,1.7100499,0.8159088,0.039997194,0.04,-4.9568954,-5.335296154022217,6.535183,0.055170193,-0.1514364778995514,-0.22878961
2392.283333336183,-0.49220693,-1.1024479,0.33782464,-2.0028598,-0.3975891,1.7106324,0.8160341,0.039997168,0.04,-4.9190063,-5.349442958831787,6.552097,0.054316986,-0.14961561560630798,-0.22650532
2392.30000000285,-0.49423784,-1.1037642,0.3392172,-2.0014005,-0.39922902,1.7112086,0.816158,0.03999713,0.04,-4.8821445,-5.363427639007568,6.568588,0.053467732,-0.1477888822555542,-0.22419304
2392.316666669517,-0.49624574,-1.1050658,0.34059379,-1.9999584,-0.40085042,1.7117779,0.81628054,0.03999711,0.04,-4.844264,-5.37693977355957,6.5849643,0.052624214,-0.14595888555049896,-0.22185609
2392.333333336184,-0.4982303,-1.1063524,0.34195453,-1.9985324,-0.402453,1.7123408,0.81640166,0.039997082,0.04,-4.8074274,-5.390298366546631,6.6009846,0.051785093,-0.1441272497177124,-0.21949312
2392.3500000028507,-0.50019157,-1.1076238,0.34329915,-1.997123,-0.4040367,1.7128972,0.81652135,0.039997052,0.04,-4.7707996,-5.403378963470459,6.6166363,0.050951175,-0.14228849112987518,-0.21710268
2392.3666666695176,-0.50212914,-1.1088798,0.34462768,-1.9957299,-0.40560132,1.7134467,0.8166396,0.03999703,0.04,-4.735309,-5.416336536407471,6.631915,0.050121192,-0.1404445469379425,-0.21468942
2392.3833333361845,-0.50404304,-1.1101204,0.34593993,-1.9943546,-0.40714687,1.7139895,0.8167564,0.039997,0.04,-4.698682,-5.428800106048584,6.647042,0.049297135,-0.13859489560127258,-0.21225227
2392.4000000028514,-0.50593305,-1.1113459,0.34723577,-1.9929956,-0.40867308,1.7145255,0.81687176,0.03999697,0.04,-4.6633453,-5.44119930267334,6.6618185,0.048480067,-0.13674670457839966,-0.20979166
2392.4166666695182,-0.5077992,-1.1125561,0.34851515,-1.9916546,-0.41018,1.7150546,0.8169855,0.039996944,0.04,-4.6281004,-5.453240394592285,6.6763244,0.04766649,-0.13489118218421936,-0.2073083
2392.433333336185,-0.5096412,-1.1137505,0.34977803,-1.9903306,-0.41166747,1.7155771,0.8170977,0.039996926,0.04,-4.5941906,-5.465283393859863,6.6904736,0.046860754,-0.13303522765636444,-0.20480397
2392.450000002852,-0.5114588,-1.1149293,0.3510242,-1.989024,-0.4131353,1.7160928,0.8172086,0.0399969,0.04,-4.559086,-5.476783752441406,6.704412,0.04606097,-0.1311752051115036,-0.20228036
2392.466666669519,-0.5132523,-1.1160924,0.3522537,-1.987735,-0.41458338,1.7166011,0.817318,0.039996862,0.04,-4.525165,-5.488170623779297,6.7180448,0.045267522,-0.12931372225284576,-0.19973354
2392.4833333361858,-0.5150212,-1.1172394,0.35346645,-1.9864635,-0.4160118,1.717103,0.8174259,0.039996848,0.04,-4.4923677,-5.499453544616699,6.7313404,0.044479523,-0.1274522989988327,-0.19716942
2392.5000000028526,-0.5167655,-1.1183709,0.35466227,-1.9852097,-0.41742036,1.7175975,0.81753224,0.03999682,0.04,-4.4584966,-5.510292053222656,6.7444186,0.043699373,-0.12558813393115997,-0.19458748
2392.5166666695195,-0.5184851,-1.1194861,0.35584128,-1.9839735,-0.418809,1.7180852,0.817637,0.039996788,0.04,-4.4257097,-5.520951271057129,6.757247,0.042925354,-0.12372323870658875,-0.19198556
2392.5333333361864,-0.5201799,-1.1205851,0.35700318,-1.9827552,-0.4201777,1.7185658,0.81774044,0.039996766,0.04,-4.3933992,-5.531458854675293,6.7697244,0.042159207,-0.1218571737408638,-0.18936783
2392.5500000028533,-0.52184975,-1.1216681,0.35814798,-1.9815549,-0.42152613,1.7190393,0.8178425,0.039996743,0.04,-4.362331,-5.541815280914307,6.781909,0.041400015,-0.11999266594648361,-0.18673347
2392.56666666952,-0.5234947,-1.1227351,0.35927573,-1.9803724,-0.42285457,1.719506,0.81794286,0.03999672,0.04,-4.330067,-5.5517401695251465,6.79395,0.040647022,-0.11812837421894073,-0.1840856
2392.583333336187,-0.52511483,-1.1237862,0.36038637,-1.9792079,-0.42416275,1.7199657,0.8180417,0.039996687,0.04,-4.298988,-5.561540603637695,6.805666,0.039901674,-0.11626279354095459,-0.18142147
2392.600000002854,-0.5267097,-1.124821,0.36147976,-1.9780612,-0.4254506,1.7204182,0.81813884,0.039996672,0.04,-4.268308,-5.571128845214844,6.8171253,0.03916294,-0.11439629644155502,-0.17874412
2392.616666669521,-0.52827924,-1.1258398,0.36255592,-1.9769326,-0.42671818,1.7208633,0.8182347,0.03999665,0.04,-4.2389197,-5.580620765686035,6.828287,0.03843253,-0.1125314012169838,-0.17605574
2392.6333333361877,-0.5298238,-1.1268417,0.36361486,-1.9758224,-0.42796543,1.7213014,0.81832886,0.039996635,0.04,-4.208307,-5.5896453857421875,6.839314,0.03770784,-0.11066621541976929,-0.17335306
2392.6500000028545,-0.53134304,-1.1278275,0.36465645,-1.9747303,-0.4291922,1.7217323,0.8184215,0.039996613,0.04,-4.179145,-5.5986714363098145,6.8499517,0.03699369,-0.1088072881102562,-0.17063893
2392.6666666695214,-0.5328368,-1.1287966,0.36568063,-1.9736564,-0.43039852,1.722156,0.8185127,0.039996583,0.04,-4.150199,-5.607391357421875,6.8604255,0.036285654,-0.10694785416126251,-0.1679162
2392.6833333361883,-0.53430516,-1.1297498,0.3666874,-1.9726006,-0.43158445,1.7225727,0.81860226,0.039996557,0.04,-4.1226754,-5.616074562072754,6.870593,0.035586786,-0.10509390383958817,-0.16518638
2392.700000002855,-0.53574836,-1.1306863,0.36767685,-1.9715629,-0.43274987,1.7229819,0.8186903,0.03999654,0.04,-4.0938263,-5.624282360076904,6.880596,0.034894105,-0.10323887318372726,-0.1624466
2392.716666669522,-0.5371662,-1.1316066,0.36864883,-1.9705435,-0.43389475,1.7233839,0.8187767,0.03999652,0.04,-4.066361,-5.6324334144592285,6.8903217,0.034209564,-0.10138873010873795,-0.15969671
2392.733333336189,-0.5385586,-1.1325101,0.36960334,-1.9695424,-0.435019,1.7237787,0.8188616,0.039996494,0.04,-4.0401144,-5.640472888946533,6.899806,0.03353294,-0.09954271465539932,-0.1569405
2392.750000002856,-0.5399256,-1.1333972,0.37054047,-1.9685595,-0.4361228,1.7241664,0.818945,0.03999647,0.04,-4.012772,-5.648163795471191,6.9090776,0.032864008,-0.09770176559686661,-0.15418313
2392.7666666695227,-0.541267,-1.1342678,0.37146014,-1.9675949,-0.43720618,1.7245467,0.81902677,0.039996453,0.04,-3.986652,-5.655710697174072,6.918114,0.032203108,-0.09586387127637863,-0.15141675
2392.7833333361896,-0.5425829,-1.1351225,0.37236235,-1.9666485,-0.43826893,1.7249202,0.81910706,0.039996438,0.04,-3.9610324,-5.663122177124023,6.9269285,0.031551242,-0.09403227269649506,-0.14865041
2392.8000000028565,-0.5438734,-1.1359603,0.37324712,-1.9657203,-0.4393111,1.7252862,0.81918573,0.03999641,0.04,-3.9365551,-5.670356273651123,6.9355373,0.030905267,-0.09220123291015625,-0.14587905
2392.8166666695233,-0.5451388,-1.136782,0.37411442,-1.9648106,-0.44033286,1.7256452,0.8192629,0.039996393,0.04,-3.9111476,-5.677308559417725,6.943903,0.030268932,-0.09037928283214569,-0.14310618
2392.83333333619,-0.54637873,-1.1375871,0.37496442,-1.9639193,-0.44133407,1.7259969,0.81933856,0.039996374,0.04,-3.886897,-5.68411111831665,6.952082,0.029639214,-0.08856214582920074,-0.1403286
2392.850000002857,-0.54759336,-1.138376,0.37579706,-1.9630462,-0.44231495,1.7263414,0.8194126,0.039996352,0.04,-3.8631966,-5.690823078155518,6.9600224,0.029018795,-0.0867539644241333,-0.13755612
2392.866666669524,-0.5487826,-1.139148,0.37661237,-1.9621912,-0.44327527,1.7266788,0.8194852,0.03999633,0.04,-3.8406856,-5.697343826293945,6.967778,0.028406672,-0.08495073020458221,-0.13477905
2392.883333336191,-0.5499468,-1.1399038,0.3774104,-1.9613539,-0.44421524,1.7270089,0.8195563,0.039996315,0.04,-3.817171,-5.703616619110107,6.9752793,0.027803008,-0.08315669745206833,-0.13200772
2392.9000000028577,-0.5510857,-1.1406434,0.37819114,-1.9605348,-0.44513485,1.7273319,0.81962574,0.039996292,0.04,-3.794775,-5.709717750549316,6.982623,0.027205732,-0.08136904239654541,-0.12923776
2392.9166666695246,-0.55219936,-1.1413666,0.37895465,-1.9597338,-0.44603425,1.7276475,0.8196937,0.03999627,0.04,-3.7729583,-5.715697288513184,6.989766,0.02661745,-0.07958944141864777,-0.12647331
2392.9333333361915,-0.55328804,-1.1420736,0.37970105,-1.958951,-0.44691345,1.7279563,0.81976014,0.03999626,0.04,-3.7523882,-5.721557140350342,6.996722,0.026037456,-0.07781897485256195,-0.12371192
2392.9500000028584,-0.5543516,-1.1427647,0.38043028,-1.9581863,-0.4477724,1.7282581,0.819825,0.039996248,0.04,-3.7307699,-5.727168083190918,7.0034523,0.025466295,-0.0760582908987999,-0.12095715
2392.9666666695252,-0.5553905,-1.1434399,0.3811425,-1.9574393,-0.44861132,1.7285527,0.8198884,0.039996237,0.04,-3.710327,-5.732633590698242,7.010035,0.02490263,-0.07430461794137955,-0.11820878
2392.983333336192,-0.55640465,-1.1440984,0.38183773,-1.9567097,-0.44943017,1.7288402,0.81995034,0.039996225,0.04,-3.6911888,-5.738028526306152,7.0164404,0.024346756,-0.072562076151371,-0.11546804
2393.000000002859,-0.557394,-1.1447413,0.38251597,-1.9559982,-0.45022917,1.7291209,0.8200106,0.03999621,0.04,-3.6710153,-5.743145942687988,7.022556,0.023799011,-0.07083066552877426,-0.1127393
2393.016666669526,-0.5583589,-1.1453683,0.3831774,-1.9553044,-0.45100826,1.7293946,0.8200694,0.039996196,0.04,-3.6520152,-5.748147487640381,7.0286098,0.023259196,-0.06910821795463562,-0.110018656
2393.0333333361928,-0.5592993,-1.1459792,0.38382202,-1.9546279,-0.4517677,1.7296612,0.8201268,0.039996177,0.04,-3.6335723,-5.75302267074585,7.034437,0.02272807,-0.06739798933267593,-0.107306495
2393.0500000028596,-0.56021565,-1.1465745,0.38445002,-1.9539686,-0.4525075,1.7299211,0.8201827,0.03999616,0.04,-3.616367,-5.757803916931152,7.040099,0.022204846,-0.06570064276456833,-0.1046075
2393.0666666695265,-0.5611076,-1.1471545,0.38506156,-1.9533271,-0.45322782,1.730174,0.82023704,0.039996143,0.04,-3.5980113,-5.762299060821533,7.045572,0.021687856,-0.06401269882917404,-0.10191986
2393.0833333361934,-0.5619754,-1.1477184,0.38565654,-1.952703,-0.4539286,1.73042,0.8202899,0.03999613,0.04,-3.5809507,-5.766770839691162,7.0509315,0.021180328,-0.06233824044466019,-0.09924829
2393.1000000028603,-0.5628196,-1.1482668,0.3862351,-1.9520959,-0.45461014,1.7306594,0.8203414,0.039996117,0.04,-3.5644858,-5.771082401275635,7.0560546,0.02068222,-0.06067967042326927,-0.096590206
2393.116666669527,-0.5636401,-1.1488001,0.38679746,-1.9515061,-0.45527256,1.730892,0.8203915,0.039996102,0.04,-3.5491166,-5.775283336639404,7.06106,0.020190502,-0.05903369560837746,-0.09395102
2393.133333336194,-0.5644369,-1.1493181,0.38734362,-1.9509329,-0.45591602,1.731118,0.82044,0.0399961,0.04,-3.5327606,-5.779273509979248,7.065896,0.019707028,-0.05740327388048172,-0.09132632
2393.150000002861,-0.5652103,-1.1498209,0.3878738,-1.9503769,-0.45654052,1.7313373,0.8204872,0.039996088,0.04,-3.517553,-5.783142566680908,7.0705633,0.019231498,-0.05578520894050598,-0.088721745
2393.166666669528,-0.5659608,-1.1503091,0.38838813,-1.949837,-0.45714632,1.73155,0.820533,0.039996076,0.04,-3.5029228,-5.7869343757629395,7.075092,0.018764898,-0.054184094071388245,-0.08613522
2393.1833333361947,-0.5666882,-1.1507822,0.3888867,-1.9493139,-0.45773366,1.7317563,0.8205773,0.03999606,0.04,-3.4893148,-5.7905707359313965,7.0795054,0.01830352,-0.05259617418050766,-0.08356832
2393.2000000028615,-0.5673926,-1.1512405,0.38936967,-1.9488071,-0.45830256,1.7319561,0.82062024,0.039996058,0.04,-3.4748614,-5.794066905975342,7.083691,0.017851554,-0.05102522671222687,-0.081023656
2393.2166666695284,-0.5680746,-1.151684,0.38983718,-1.9483165,-0.4588533,1.7321495,0.8206618,0.03999605,0.04,-3.4615397,-5.7974467277526855,7.0877795,0.01740813,-0.04947071895003319,-0.07850167
2393.2333333361953,-0.5687342,-1.1521131,0.39028946,-1.9478419,-0.45938596,1.7323365,0.82070214,0.03999604,0.04,-3.4494002,-5.800770282745361,7.0917287,0.01697248,-0.04793407395482063,-0.07600498
2393.250000002862,-0.5693718,-1.1525279,0.39072645,-1.9473833,-0.4599009,1.7325174,0.8207411,0.039996035,0.04,-3.4363039,-5.803900241851807,7.095493,0.016544782,-0.04641573131084442,-0.0735336
2393.266666669529,-0.5699876,-1.1529284,0.39114872,-1.9469404,-0.46039814,1.732692,0.8207787,0.039996024,0.04,-3.4243207,-5.8068928718566895,7.0991783,0.016123543,-0.04491516202688217,-0.07108613
2393.283333336196,-0.57058185,-1.153315,0.39155596,-1.9465129,-0.46087793,1.7328603,0.8208149,0.039996017,0.04,-3.4128387,-5.809879302978516,7.1026635,0.015712464,-0.04343435913324356,-0.068667665
2393.300000002863,-0.5711548,-1.1536876,0.39194864,-1.946101,-0.46134052,1.7330228,0.82084984,0.039996013,0.04,-3.4024186,-5.812670707702637,7.106115,0.015308109,-0.04197370260953903,-0.066274755
2393.3166666695297,-0.57170665,-1.1540465,0.39232695,-1.9457041,-0.46178603,1.7331791,0.82088363,0.039996002,0.04,-3.3911023,-5.815361976623535,7.109337,0.014911933,-0.04053223878145218,-0.06391422
2393.3333333361966,-0.57223773,-1.1543921,0.39269096,-1.945322,-0.46221477,1.7333299,0.8209159,0.039995994,0.04,-3.3809056,-5.817967414855957,7.1124735,0.014523497,-0.03911265358328819,-0.061582815
2393.3500000028635,-0.57274824,-1.1547245,0.3930409,-1.9449548,-0.46262696,1.7334747,0.82094705,0.039995987,0.04,-3.3710673,-5.82041597366333,7.115491,0.014143335,-0.037711720913648605,-0.059279926
2393.3666666695303,-0.57323873,-1.1550437,0.39337698,-1.944602,-0.4630229,1.7336137,0.82097703,0.039995972,0.04,-3.3623343,-5.822859287261963,7.118424,0.013770557,-0.0363328754901886,-0.057014816
2393.383333336197,-0.5737092,-1.1553501,0.39369944,-1.9442636,-0.4634028,1.7337471,0.82100564,0.03999596,0.04,-3.3527572,-5.8250932693481445,7.1211653,0.013404941,-0.03497735410928726,-0.054779105
2393.400000002864,-0.5741601,-1.1556436,0.3940086,-1.9439392,-0.4637668,1.7338749,0.8210333,0.039995957,0.04,-3.344185,-5.8272905349731445,7.123831,0.013048285,-0.03364378958940506,-0.05258063
2393.416666669531,-0.5745919,-1.1559246,0.39430463,-1.9436287,-0.46411535,1.7339973,0.82105964,0.039995953,0.04,-3.3360581,-5.829404830932617,7.126372,0.012699313,-0.03233426436781883,-0.050418288
2393.433333336198,-0.57500464,-1.1561934,0.3945876,-1.9433317,-0.46444863,1.7341145,0.82108486,0.039995946,0.04,-3.3289149,-5.831455230712891,7.1288266,0.01235894,-0.031049171462655067,-0.048294816
2393.4500000028647,-0.575399,-1.1564502,0.39485782,-1.9430479,-0.46476695,1.7342263,0.82110894,0.03999594,0.04,-3.3209546,-5.833318710327148,7.131122,0.012026514,-0.02978789433836937,-0.04620929
2393.4666666695316,-0.57577497,-1.1566951,0.39511558,-1.9427774,-0.46507052,1.7343329,0.82113177,0.039995935,0.04,-3.31395,-5.8351030349731445,7.1333566,0.011700975,-0.028551684692502022,-0.044160187
2393.4833333361985,-0.57613313,-1.1569289,0.39536119,-1.9425195,-0.46535984,1.7344344,0.8211537,0.03999593,0.04,-3.3079572,-5.836909770965576,7.135512,0.011385523,-0.02734297700226307,-0.04215624
2393.5000000028654,-0.57647383,-1.157151,0.39559472,-1.9422743,-0.46563497,1.7345309,0.82117444,0.039995927,0.04,-3.3010676,-5.838491439819336,7.1375346,0.011075727,-0.02615811862051487,-0.040191736
2393.5166666695322,-0.57679766,-1.157362,0.39581662,-1.9420413,-0.4658963,1.7346227,0.8211943,0.039995924,0.04,-3.2952867,-5.84007453918457,7.1394324,0.010775534,-0.02500212751328945,-0.038272075
2393.533333336199,-0.5771048,-1.1575624,0.39602715,-1.9418203,-0.46614417,1.73471,0.82121295,0.03999592,0.04,-3.2897656,-5.841574668884277,7.1412516,0.010482714,-0.02387370355427265,-0.036397483
2393.550000002866,-0.5773959,-1.1577523,0.3962265,-1.941611,-0.46637896,1.7347925,0.82123077,0.03999592,0.04,-3.2851026,-5.843008995056152,7.143034,0.010198904,-0.022772569209337234,-0.034567915
2393.566666669533,-0.577671,-1.1579314,0.39641508,-1.9414132,-0.46660095,1.7348704,0.8212475,0.039995916,0.04,-3.2797995,-5.844320774078369,7.144658,0.009922425,-0.021701917052268982,-0.032785084
2393.5833333361998,-0.5779308,-1.1581007,0.39659306,-1.9412262,-0.4668106,1.734944,0.8212633,0.03999591,0.04,-3.2753427,-5.845621585845947,7.1461983,0.009656153,-0.020661698654294014,-0.031053241
2393.6000000028666,-0.5781756,-1.1582606,0.39676082,-1.94105,-0.4670082,1.7350134,0.8212782,0.039995905,0.04,-3.271202,-5.846792221069336,7.1476736,0.009398061,-0.01965279132127762,-0.029367877
2393.6166666695335,-0.578406,-1.1584102,0.39691865,-1.9408846,-0.46719408,1.7350786,0.82129246,0.039995905,0.04,-3.267748,-5.84792947769165,7.1491203,0.00914791,-0.01867200993001461,-0.027733132
2393.6333333362004,-0.5786222,-1.1585513,0.39706692,-1.9407288,-0.4673687,1.7351397,0.82130563,0.0399959,0.04,-3.2639189,-5.849029541015625,7.1503634,0.008907742,-0.017727715894579887,-0.026152555
2393.6500000028673,-0.5788249,-1.1586838,0.39720583,-1.9405826,-0.46753234,1.7351972,0.82131803,0.039995898,0.04,-3.260533,-5.849984645843506,7.1516476,0.008675179,-0.016812043264508247,-0.024623703
2393.666666669534,-0.5790146,-1.1588073,0.39733577,-1.9404465,-0.46768537,1.735251,0.8213295,0.039995898,0.04,-3.2575748,-5.850892543792725,7.1528163,0.0084506525,-0.015927769243717194,-0.023148648
2393.683333336201,-0.5791917,-1.1589227,0.3974571,-1.940319,-0.46782833,1.7353011,0.8213403,0.039995898,0.04,-3.2554545,-5.851861000061035,7.1539235,0.008238185,-0.01508167665451765,-0.021730095
2393.700000002868,-0.57935655,-1.1590304,0.39757013,-1.9402,-0.46796146,1.7353482,0.8213503,0.039995894,0.04,-3.2525952,-5.8526291847229,7.154929,0.008032445,-0.014268120750784874,-0.020367878
2393.716666669535,-0.57951,-1.1591307,0.39767528,-1.9400897,-0.46808514,1.7353922,0.8213596,0.03999589,0.04,-3.250399,-5.853383541107178,7.1559052,0.007836349,-0.01348605565726757,-0.019064505
2393.7333333362017,-0.5796525,-1.1592234,0.39777282,-1.9399875,-0.46820006,1.7354325,0.82136834,0.039995886,0.04,-3.248933,-5.854167938232422,7.156833,0.0076500634,-0.012741226702928543,-0.017821714
2393.7500000028685,-0.5797846,-1.1593095,0.39786324,-1.9398929,-0.46830648,1.7354692,0.82137626,0.039995883,0.04,-3.2470276,-5.854824542999268,7.157665,0.007473111,-0.012037445791065693,-0.016638556
2393.7666666695354,-0.5799065,-1.1593896,0.39794677,-1.9398053,-0.46840498,1.735504,0.8213837,0.03999588,0.04,-3.245635,-5.855467796325684,7.158481,0.0073068803,-0.011373915709555149,-0.015517713
2393.7833333362023,-0.5800191,-1.1594632,0.39802396,-1.9397241,-0.4684958,1.7355363,0.8213906,0.039995875,0.04,-3.2443209,-5.856000900268555,7.1592355,0.0071480926,-0.010740775614976883,-0.014458763
2393.800000002869,-0.5801228,-1.1595312,0.39809513,-1.9396492,-0.46857953,1.7355652,0.82139695,0.039995875,0.04,-3.2436612,-5.856570720672607,7.159899,0.006999542,-0.010146067477762699,-0.013465924
2393.816666669536,-0.58021843,-1.1595935,0.3981606,-1.9395807,-0.4686567,1.7355928,0.8214028,0.039995875,0.04,-3.2425873,-5.857054710388184,7.1605773,0.0068611004,-0.009594010189175606,-0.012538659
2393.833333336203,-0.5803066,-1.1596513,0.398221,-1.9395173,-0.46872756,1.7356178,0.82140815,0.039995875,0.04,-3.2420866,-5.857560634613037,7.1611347,0.0067338725,-0.009081117808818817,-0.011678909
2393.85000000287,-0.5803875,-1.1597047,0.39827648,-1.9394588,-0.46879283,1.7356408,0.8214131,0.03999587,0.04,-3.241553,-5.857974052429199,7.1617365,0.0066153063,-0.00860755518078804,-0.010886282
2393.8666666695367,-0.58046216,-1.1597537,0.39832738,-1.9394052,-0.46885288,1.7356617,0.82141757,0.03999587,0.04,-3.241341,-5.8583526611328125,7.162291,0.006505681,-0.008170058019459248,-0.010155563
2393.8833333362036,-0.5805308,-1.1597989,0.3983743,-1.9393562,-0.46890813,1.7356821,0.8214217,0.03999587,0.04,-3.2408476,-5.8587117195129395,7.1627517,0.006404797,-0.007770319003611803,-0.009483497
2393.9000000028705,-0.580594,-1.1598406,0.39841738,-1.939311,-0.46895897,1.7356994,0.82142556,0.039995868,0.04,-3.240529,-5.859086036682129,7.163177,0.0063129207,-0.00739842327311635,-0.008866276
2393.9166666695373,-0.5806522,-1.1598787,0.3984573,-1.9392695,-0.46900576,1.7357165,0.8214291,0.039995868,0.04,-3.2402458,-5.859371185302734,7.1636367,0.0062271934,-0.007062286604195833,-0.008296896
2393.933333336204,-0.5807056,-1.1599134,0.3984938,-1.9392308,-0.46904877,1.7357302,0.82143235,0.039995868,0.04,-3.2401168,-5.85972261428833,7.1639614,0.0061502615,-0.0067484937608242035,-0.0077732834
2393.950000002871,-0.5807548,-1.1599451,0.39852738,-1.9391954,-0.46908846,1.7357436,0.8214354,0.039995864,0.04,-3.2397778,-5.859936237335205,7.1643233,0.0060784575,-0.006468330975621939,-0.007293486
2393.966666669538,-0.5808001,-1.1599752,0.39855835,-1.9391627,-0.4691249,1.7357569,0.8214382,0.039995864,0.04,-3.2395885,-5.860194206237793,7.1645947,0.006013064,-0.006208406761288643,-0.0068509444
2393.983333336205,-0.5808418,-1.1600022,0.39858684,-1.9391329,-0.46915847,1.7357701,0.8214406,0.039995864,0.04,-3.2393386,-5.8603925704956055,7.1649294,0.005951148,-0.0059618097729980946,-0.0064424244
2394.0000000028717,-0.58088017,-1.1600271,0.39861304,-1.9391054,-0.4691894,1.7357799,0.8214428,0.039995864,0.04,-3.239106,-5.860640048980713,7.1651273,0.0058968607,-0.005733193829655647,-0.006067919
2394.0166666695386,-0.5809154,-1.1600502,0.39863706,-1.93908,-0.46921778,1.7357894,0.821445,0.039995864,0.04,-3.2389798,-5.860812187194824,7.165444,0.005846445,-0.005533430725336075,-0.0057225316
2394.0333333362055,-0.58094805,-1.1600713,0.39865917,-1.9390566,-0.46924394,1.7357988,0.82144696,0.039995864,0.04,-3.2387905,-5.8609700202941895,7.1656585,0.005798742,-0.005346641410142183,-0.005405335
2394.0500000028724,-0.58097786,-1.1600904,0.39867952,-1.9390352,-0.46926796,1.7358083,0.82144886,0.039995864,0.04,-3.2387211,-5.8611345291137695,7.1658463,0.005754986,-0.0051726531237363815,-0.005112678
2394.0666666695392,-0.58100533,-1.1601089,0.39869842,-1.9390153,-0.46929008,1.7358168,0.8214506,0.039995864,0.04,-3.2385004,-5.861298561096191,7.166005,0.005715293,-0.005009355489164591,-0.004844941
2394.083333336206,-0.58103067,-1.1601249,0.39871573,-1.9389971,-0.4693105,1.7358228,0.8214522,0.039995868,0.04,-3.238225,-5.861406326293945,7.1662416,0.0056772516,-0.004855699837207794,-0.004596573
2394.100000002873,-0.5810541,-1.1601402,0.39873168,-1.9389805,-0.46932924,1.7358286,0.82145375,0.039995868,0.04,-3.2383459,-5.861580848693848,7.1663885,0.005644642,-0.004728118889033794,-0.0043694247
2394.11666666954,-0.5810756,-1.1601547,0.39874628,-1.938965,-0.4693464,1.7358342,0.82145506,0.039995868,0.04,-3.2382069,-5.861669540405273,7.1665645,0.0056128693,-0.004607298411428928,-0.0041589467
2394.1333333362068,-0.58109534,-1.1601669,0.39875975,-1.9389509,-0.4693623,1.7358398,0.8214563,0.039995868,0.04,-3.2379656,-5.861733913421631,7.1667285,0.005582483,-0.004492619540542364,-0.0039651184
2394.1500000028736,-0.58111346,-1.1601784,0.39877215,-1.9389379,-0.4693769,1.7358454,0.82145745,0.039995868,0.04,-3.2380466,-5.861903667449951,7.166757,0.0055576963,-0.004389997571706772,-0.0037889055
2394.1666666695405,-0.58113027,-1.1601896,0.3987836,-1.9389259,-0.46939027,1.735851,0.8214584,0.039995868,0.04,-3.2378876,-5.861973285675049,7.166889,0.005534171,-0.004291975405067205,-0.0036263324
2394.1833333362074,-0.58114564,-1.1602004,0.3987941,-1.9389149,-0.46940258,1.7358567,0.82145935,0.039995868,0.04,-3.2377527,-5.862028121948242,7.167028,0.0055113803,-0.004197414964437485,-0.0034753124
2394.2000000028743,-0.58115983,-1.1602087,0.39880377,-1.9389046,-0.46941388,1.735861,0.8214602,0.039995868,0.04,-3.2375736,-5.862091541290283,7.1671457,0.0054894085,-0.004107147920876741,-0.00333629
2394.216666669541,-0.5811728,-1.1602167,0.39881268,-1.9388953,-0.4694243,1.7358631,0.8214609,0.039995868,0.04,-3.2377264,-5.86221981048584,7.167156,0.005472321,-0.004033242352306843,-0.003210976
2394.233333336208,-0.5811848,-1.1602243,0.39882085,-1.9388866,-0.46943393,1.7358652,0.82146156,0.039995868,0.04,-3.2377172,-5.862277507781982,7.167317,0.0054566385,-0.003972687292844057,-0.0030947987
2394.250000002875,-0.5811959,-1.1602318,0.39882833,-1.9388787,-0.46944278,1.7358673,0.82146215,0.039995868,0.04,-3.1298952,-5.690995693206787,7.1549273,0.0,-0.0,0.0
2394.266666669542,-0.5811959,-1.1602318,0.39882833,-1.9388787,-0.46944278,1.7358673,0.82146215,0.039995868,0.04,-3.2396178,-5.862401485443115,7.1675124,0.0,-0.0,0.0
2394.2833333362087,-0.5811959,-1.1602318,0.39882833,-1.9388787,-0.46944278,1.7358673,0.82146215,0.039995868,0.04,-3.2396178,-5.862401485443115,7.1675124,0.0,-0.0,0.0
2394.3000000028755,-0.5811959,-1.1602318,0.39882833,-1.9388787,-0.46944278,1.7358673,0.82146215,0.039995868,0.04,-3.2396178,-5.862401485443115,7.1675124,0.0,-0.0,0.0
2394.3166666695424,-0.5811959,-1.1602318,0.39882833,-1.9388787,-0.46944278,1.7358673,0.82146215,0.039995868,0.04,-3.2396178,-5.862401485443115,7.1675124,0.0,-0.0,0.0
2394.3333333362093,-0.5811959,-1.1602318,0.39882833,-1.9388787,-0.46944278,1.7358673,0.82146215,0.039995868,0.04,-3.2396178,-5.862401485443115,7.1675124,0.0,-0.0,0.0
2394.350000002876,-0.5811959,-1.1602318,0.39882833,-1.9388787,-0.46944278,1.7358673,0.82146215,0.039995868,0.04,-3.2396178,-5.862401485443115,7.1675124,0.0,-0.0,0.0
2394.366666669543,-0.5811959,-1.1602318,0.39882833,-1.9388787,-0.46944278,1.7358673,0.82146215,0.039995868,0.04,-3.2396178,-5.862401485443115,7.1675124,0.0,-0.0,0.0
2394.38333333621,-0.5811959,-1.1602318,0.39882833,-1.9388787,-0.46944278,1.7358673,0.82146215,0.039995868,0.04,-3.2396178,-5.862401485443115,7.1675124,0.0,-0.0,0.0
2394.400000002877,-0.5811959,-1.1602318,0.39882833,-1.9388787,-0.46944278,1.7358673,0.82146215,0.039995868,0.04,-3.2396178,-5.862401485443115,7.1675124,0.0,-0.0,0.0
2394.4166666695437,-0.5811959,-1.1602318,0.39882833,-1.9388787,-0.46944278,1.7358673,0.82146215,0.039995868,0.04,-3.2396178,-5.862401485443115,7.1675124,0.0,-0.0,0.0
2394.4333333362106,-0.5811959,-1.1602318,0.39882833,-1.9388787,-0.46944278,1.7358673,0.82146215,0.039995868,0.04,-3.2396178,-5.862401485443115,7.1675124,0.0,-0.0,0.0
2394.4500000028775,-0.5811959,-1.1602318,0.39882833,-1.9388787,-0.46944278,1.7358673,0.82146215,0.039995868,0.04,-3.2396178,-5.862401485443115,7.1675124,0.0,-0.0,0.0
2394.4666666695443,-0.5811959,-1.1602318,0.39882833,-1.9388787,-0.46944278,1.7358673,0.82146215,0.039995868,0.04,-3.2396178,-5.862401485443115,7.1675124,0.0,-0.0,0.0
2394.483333336211,-0.5811959,-1.1602318,0.39882833,-1.9388787,-0.46944278,1.7358673,0.82146215,0.039995868,0.04,-3.2396178,-5.862401485443115,7.1675124,0.0,-0.0,0.0
2394.500000002878,-0.5811959,-1.1602318,0.39882833,-1.9388787,-0.46944278,1.7358673,0.82146215,0.039995868,0.04,-3.2396178,-5.862401485443115,7.1675124,0.0,-0.0,0.0
2394.516666669545,-0.5811959,-1.1602318,0.39882833,-1.9388787,-0.46944278,1.7358673,0.82146215,0.039995868,0.04,-3.2396178,-5.862401485443115,7.1675124,0.0,-0.0,0.0
2394.533333336212,-0.5811959,-1.1602318,0.39882833,-1.9388787,-0.46944278,1.7358673,0.82146215,0.039995868,0.04,-3.2396178,-5.862401485443115,7.1675124,0.0,-0.0,0.0
2394.5500000028787,-0.5811959,-1.1602318,0.39882833,-1.9388787,-0.46944278,1.7358673,0.82146215,0.039995868,0.04,-3.2396178,-5.862401485443115,7.1675124,0.0,-0.0,0.0
2394.5666666695456,-0.5811959,-1.1602318,0.39882833,-1.9388787,-0.46944278,1.7358673,0.82146215,0.039995868,0.04,-3.2396178,-5.862401485443115,7.1675124,0.0,-0.0,0.0
2394.5833333362125,-0.5811959,-1.1602318,0.39882833,-1.9388787,-0.46944278,1.7358673,0.82146215,0.039995868,0.04,-3.2396178,-5.862401485443115,7.1675124,0.0,-0.0,0.0
2394.6000000028794,-0.5811959,-1.1602318,0.39882833,-1.9388787,-0.46944278,1.7358673,0.82146215,0.039995868,0.04,-3.2396178,-5.862401485443115,7.1675124,0.0,-0.0,0.0
2394.6166666695462,-0.5811959,-1.1602318,0.39882833,-1.9388787,-0.46944278,1.7358673,0.82146215,0.039995868,0.04,-3.2396178,-5.862401485443115,7.1675124,0.0,-0.0,0.0
2394.633333336213,-0.5811959,-1.1602318,0.39882833,-1.9388787,-0.46944278,1.7358673,0.82146215,0.039995868,0.04,-3.2396178,-5.862401485443115,7.1675124,0.0,-0.0,0.0
2394.65000000288,-0.5811959,-1.1602318,0.39882833,-1.9388787,-0.46944278,1.7358673,0.82146215,0.039995868,0.04,-3.2396178,-5.862401485443115,7.1675124,0.0,-0.0,0.0
2394.666666669547,-0.5811959,-1.1602318,0.39882833,-1.9388787,-0.46944278,1.7358673,0.82146215,0.039995868,0.04,-3.2396178,-5.862401485443115,7.1675124,0.0,-0.0,0.0
2394.6833333362138,-0.5811959,-1.1602318,0.39882833,-1.9388787,-0.46944278,1.7358673,0.82146215,0.039995868,0.04,-3.2396178,-5.862401485443115,7.1675124,0.0,-0.0,0.0
2394.7000000028806,-0.5811959,-1.1602318,0.39882833,-1.9388787,-0.46944278,1.7358673,0.82146215,0.039995868,0.04,-3.2396178,-5.862401485443115,7.1675124,0.0,-0.0,0.0
2394.7166666695475,-0.5811959,-1.1602318,0.39882833,-1.9388787,-0.46944278,1.7358673,0.82146215,0.039995868,0.04,-3.2396178,-5.862401485443115,7.1675124,0.0,-0.0,0.0
2394.7333333362144,-0.5811959,-1.1602318,0.39882833,-1.9388787,-0.46944278,1.7358673,0.82146215,0.039995868,0.04,-3.2396178,-5.862401485443115,7.1675124,0.0,-0.0,0.0
2394.7500000028813,-0.5811959,-1.1602318,0.39882833,-1.9388787,-0.46944278,1.7358673,0.82146215,0.039995868,0.04,-3.2396178,-5.862401485443115,7.1675124,0.0,-0.0,0.0
2394.766666669548,-0.5811959,-1.1602318,0.39882833,-1.9388787,-0.46944278,1.7358673,0.82146215,0.039995868,0.04,-3.2396178,-5.862401485443115,7.1675124,0.0,-0.0,0.0
2394.783333336215,-0.5811959,-1.1602318,0.39882833,-1.9388787,-0.46944278,1.7358673,0.82146215,0.039995868,0.04,-3.2396178,-5.862401485443115,7.1675124,0.0,-0.0,0.0
2394.800000002882,-0.5811959,-1.1602318,0.39882833,-1.9388787,-0.46944278,1.7358673,0.82146215,0.039995868,0.04,-3.2396178,-5.862401485443115,7.1675124,0.0,-0.0,0.0
2394.816666669549,-0.5811959,-1.1602318,0.39882833,-1.9388787,-0.46944278,1.7358673,0.82146215,0.039995868,0.04,-3.2396178,-5.862401485443115,7.1675124,0.0,-0.0,0.0
2394.8333333362157,-0.5811959,-1.1602318,0.39882833,-1.9388787,-0.46944278,1.7358673,0.82146215,0.039995868,0.04,-3.2396178,-5.862401485443115,7.1675124,0.0,-0.0,0.0
2394.8500000028826,-0.5811959,-1.1602318,0.39882833,-1.9388787,-0.46944278,1.7358673,0.82146215,0.039995868,0.04,-3.2396178,-5.862401485443115,7.1675124,0.0,-0.0,0.0
2394.8666666695494,-0.5811959,-1.1602318,0.39882833,-1.9388787,-0.46944278,1.7358673,0.82146215,0.039995868,0.04,-3.2396178,-5.862401485443115,7.1675124,0.0,-0.0,0.0
2394.8833333362163,-0.5811959,-1.1602318,0.39882833,-1.9388787,-0.46944278,1.7358673,0.82146215,0.039995868,0.04,-3.2396178,-5.862401485443115,7.1675124,0.0,-0.0,0.0
2394.900000002883,-0.5811959,-1.1602318,0.39882833,-1.9388787,-0.46944278,1.7358673,0.82146215,0.039995868,0.04,-3.2396178,-5.862401485443115,7.1675124,0.0,-0.0,0.0
2394.91666666955,-0.5811959,-1.1602318,0.39882833,-1.9388787,-0.46944278,1.7358673,0.82146215,0.039995868,0.04,-3.2396178,-5.862401485443115,7.1675124,0.0,-0.0,0.0
2394.933333336217,-0.5811959,-1.1602318,0.39882833,-1.9388787,-0.46944278,1.7358673,0.82146215,0.039995868,0.04,-3.2396178,-5.862401485443115,7.1675124,0.0,-0.0,0.0
2394.950000002884,-0.5811959,-1.1602318,0.39882833,-1.9388787,-0.46944278,1.7358673,0.82146215,0.039995868,0.04,-3.2396178,-5.862401485443115,7.1675124,0.0,-0.0,0.0
2394.9666666695507,-0.5811959,-1.1602318,0.39882833,-1.9388787,-0.46944278,1.7358673,0.82146215,0.039995868,0.04,-3.2396178,-5.862401485443115,7.1675124,0.0,-0.0,0.0
2394.9833333362176,-0.5811959,-1.1602318,0.39882833,-1.9388787,-0.46944278,1.7358673,0.82146215,0.039995868,0.04,-3.2396178,-5.862401485443115,7.1675124,0.0,-0.0,0.0
2395.0000000028845,-0.5811959,-1.1602318,0.39882833,-1.9388787,-0.46944278,1.7358673,0.82146215,0.039995868,0.04,-3.2396178,-5.862401485443115,7.1675124,0.0,-0.0,0.0
2395.0166666695513,-0.5811959,-1.1602318,0.39882833,-1.9388787,-0.46944278,1.7358673,0.82146215,0.039995868,0.04,-3.2396178,-5.862401485443115,7.1675124,0.0,-0.0,0.0
2395.033333336218,-0.5811959,-1.1602318,0.39882833,-1.9388787,-0.46944278,1.7358673,0.82146215,0.039995868,0.04,-3.2396178,-5.862401485443115,7.1675124,0.0,-0.0,0.0
2395.050000002885,-0.5811959,-1.1602318,0.39882833,-1.9388787,-0.46944278,1.7358673,0.82146215,0.039995868,0.04,-3.2396178,-5.862401485443115,7.1675124,0.0,-0.0,0.0
2395.066666669552,-0.5811959,-1.1602318,0.39882833,-1.9388787,-0.46944278,1.7358673,0.82146215,0.039995868,0.04,-3.2396178,-5.862401485443115,7.1675124,0.0,-0.0,0.0
2395.083333336219,-0.5811959,-1.1602318,0.39882833,-1.9388787,-0.46944278,1.7358673,0.82146215,0.039995868,0.04,-3.2396178,-5.862401485443115,7.1675124,0.0,-0.0,0.0
2395.1000000028857,-0.5811959,-1.1602318,0.39882833,-1.9388787,-0.46944278,1.7358673,0.82146215,0.039995868,0.04,-3.2396178,-5.862401485443115,7.1675124,0.0,-0.0,0.0
2395.1166666695526,-0.5811959,-1.1602318,0.39882833,-1.9388787,-0.46944278,1.7358673,0.82146215,0.039995868,0.04,-3.2396178,-5.862401485443115,7.1675124,0.0,-0.0,0.0
2395.1333333362195,-0.5811959,-1.1602318,0.39882833,-1.9388787,-0.46944278,1.7358673,0.82146215,0.039995868,0.04,-3.2396178,-5.862401485443115,7.1675124,0.0,-0.0,0.0
2395.1500000028864,-0.5811959,-1.1602318,0.39882833,-1.9388787,-0.46944278,1.7358673,0.82146215,0.039995868,0.04,-3.2396178,-5.862401485443115,7.1675124,0.0,-0.0,0.0
2395.1666666695533,-0.5811959,-1.1602318,0.39882833,-1.9388787,-0.46944278,1.7358673,0.82146215,0.039995868,0.04,-3.2396178,-5.862401485443115,7.1675124,0.0,-0.0,0.0
2395.18333333622,-0.5811959,-1.1602318,0.39882833,-1.9388787,-0.46944278,1.7358673,0.82146215,0.039995868,0.04,-3.2396178,-5.862401485443115,7.1675124,0.0,-0.0,0.0
2395.200000002887,-0.5811959,-1.1602318,0.39882833,-1.9388787,-0.46944278,1.7358673,0.82146215,0.039995868,0.04,-3.2396178,-5.862401485443115,7.1675124,0.0,-0.0,0.0
2395.216666669554,-0.5811959,-1.1602318,0.39882833,-1.9388787,-0.46944278,1.7358673,0.82146215,0.039995868,0.04,-3.2396178,-5.862401485443115,7.1675124,0.0,-0.0,0.0
2395.2333333362208,-0.5811959,-1.1602318,0.39882833,-1.9388787,-0.46944278,1.7358673,0.82146215,0.039995868,0.04,-3.2396178,-5.862401485443115,7.1675124,0.0,-0.0,0.0
2395.2500000028876,-0.5811959,-1.1602318,0.39882833,-1.9388787,-0.46944278,1.7358673,0.82146215,0.039995868,0.04,-3.2396178,-5.862401485443115,7.1675124,0.0,-0.0,0.0
2395.2666666695545,-0.5811959,-1.1602318,0.39882833,-1.9388787,-0.46944278,1.7358673,0.82146215,0.039995868,0.04,-3.2396178,-5.862401485443115,7.1675124,0.0,-0.0,0.0
2395.2833333362214,-0.5811959,-1.1602318,0.39882833,-1.9388787,-0.46944278,1.7358673,0.82146215,0.039995868,0.04,-3.2396178,-5.862401485443115,7.1675124,0.0,-0.0,0.0
2395.3000000028883,-0.5811959,-1.1602318,0.39882833,-1.9388787,-0.46944278,1.7358673,0.82146215,0.039995868,0.04,-3.2396178,-5.862401485443115,7.1675124,0.0,-0.0,0.0
2395.316666669555,-0.5811959,-1.1602318,0.39882833,-1.9388787,-0.46944278,1.7358673,0.82146215,0.039995868,0.04,-3.2396178,-5.862401485443115,7.1675124,0.0,-0.0,0.0
2395.333333336222,-0.5811959,-1.1602318,0.39882833,-1.9388787,-0.46944278,1.7358673,0.82146215,0.039995868,0.04,-3.2396178,-5.862401485443115,7.1675124,0.0,-0.0,0.0
2395.350000002889,-0.5811959,-1.1602318,0.39882833,-1.9388787,-0.46944278,1.7358673,0.82146215,0.039995868,0.04,-3.2396178,-5.862401485443115,7.1675124,0.0,-0.0,0.0
2395.366666669556,-0.5811959,-1.1602318,0.39882833,-1.9388787,-0.46944278,1.7358673,0.82146215,0.039995868,0.04,-3.2396178,-5.862401485443115,7.1675124,0.0,-0.0,0.0
2395.3833333362227,-0.5811959,-1.1602318,0.39882833,-1.9388787,-0.46944278,1.7358673,0.82146215,0.039995868,0.04,-3.2396178,-5.862401485443115,7.1675124,0.0,-0.0,0.0
2395.4000000028896,-0.5811959,-1.1602318,0.39882833,-1.9388787,-0.46944278,1.7358673,0.82146215,0.039995868,0.04,-3.2396178,-5.862401485443115,7.1675124,0.0,-0.0,0.0
2395.4166666695564,-0.5811959,-1.1602318,0.39882833,-1.9388787,-0.46944278,1.7358673,0.82146215,0.039995868,0.04,-3.2396178,-5.862401485443115,7.1675124,0.0,-0.0,0.0
2395.4333333362233,-0.5811959,-1.1602318,0.39882833,-1.9388787,-0.46944278,1.7358673,0.82146215,0.039995868,0.04,-3.2396178,-5.862401485443115,7.1675124,0.0,-0.0,0.0
2395.45000000289,-0.5811959,-1.1602318,0.39882833,-1.9388787,-0.46944278,1.7358673,0.82146215,0.039995868,0.04,-3.2396178,-5.862401485443115,7.1675124,0.0,-0.0,0.0
2395.466666669557,-0.5811959,-1.1602318,0.39882833,-1.9388787,-0.46944278,1.7358673,0.82146215,0.039995868,0.04,-3.2396178,-5.862401485443115,7.1675124,0.0,-0.0,0.0
2395.483333336224,-0.5811959,-1.1602318,0.39882833,-1.9388787,-0.46944278,1.7358673,0.82146215,0.039995868,0.04,-3.2396178,-5.862401485443115,7.1675124,0.0,-0.0,0.0
2395.500000002891,-0.5811959,-1.1602318,0.39882833,-1.9388787,-0.46944278,1.7358673,0.82146215,0.039995868,0.04,-3.2396178,-5.862401485443115,7.1675124,0.0,-0.0,0.0
2395.5166666695577,-0.5811959,-1.1602318,0.39882833,-1.9388787,-0.46944278,1.7358673,0.82146215,0.039995868,0.04,-3.2396178,-5.862401485443115,7.1675124,0.0,-0.0,0.0
2395.5333333362246,-0.5811959,-1.1602318,0.39882833,-1.9388787,-0.46944278,1.7358673,0.82146215,0.039995868,0.04,-3.2396178,-5.862401485443115,7.1675124,0.0,-0.0,0.0
2395.5500000028915,-0.5811959,-1.1602318,0.39882833,-1.9388787,-0.46944278,1.7358673,0.82146215,0.039995868,0.04,-3.2396178,-5.862401485443115,7.1675124,0.0,-0.0,0.0
2395.5666666695583,-0.5811959,-1.1602318,0.39882833,-1.9388787,-0.46944278,1.7358673,0.82146215,0.039995868,0.04,-3.2396178,-5.862401485443115,7.1675124,0.0,-0.0,0.0
2395.583333336225,-0.5811959,-1.1602318,0.39882833,-1.9388787,-0.46944278,1.7358673,0.82146215,0.039995868,0.04,-3.2396178,-5.862401485443115,7.1675124,0.0,-0.0,0.0
2395.600000002892,-0.5811959,-1.1602318,0.39882833,-1.9388787,-0.46944278,1.7358673,0.82146215,0.039995868,0.04,-3.2396178,-5.862401485443115,7.1675124,0.0,-0.0,0.0
2395.616666669559,-0.5811959,-1.1602318,0.39882833,-1.9388787,-0.46944278,1.7358673,0.82146215,0.039995868,0.04,-3.2396178,-5.862401485443115,7.1675124,0.0,-0.0,0.0
2395.633333336226,-0.5811959,-1.1602318,0.39882833,-1.9388787,-0.46944278,1.7358673,0.82146215,0.039995868,0.04,-3.2396178,-5.862401485443115,7.1675124,0.0,-0.0,0.0
2395.6500000028927,-0.5811959,-1.1602318,0.39882833,-1.9388787,-0.46944278,1.7358673,0.82146215,0.039995868,0.04,-3.2396178,-5.862401485443115,7.1675124,0.0,-0.0,0.0
2395.6666666695596,-0.5811959,-1.1602318,0.39882833,-1.9388787,-0.46944278,1.7358673,0.82146215,0.039995868,0.04,-3.2396178,-5.862401485443115,7.1675124,0.0,-0.0,0.0
2395.6833333362265,-0.5811959,-1.1602318,0.39882833,-1.9388787,-0.46944278,1.7358673,0.82146215,0.039995868,0.04,-3.2396178,-5.862401485443115,7.1675124,0.0,-0.0,0.0
2395.7000000028934,-0.5811959,-1.1602318,0.39882833,-1.9388787,-0.46944278,1.7358673,0.82146215,0.039995868,0.04,-3.2396178,-5.862401485443115,7.1675124,0.0,-0.0,0.0
2395.7166666695603,-0.5811959,-1.1602318,0.39882833,-1.9388787,-0.46944278,1.7358673,0.82146215,0.039995868,0.04,-3.2396178,-5.862401485443115,7.1675124,0.0,-0.0,0.0
2395.733333336227,-0.5811959,-1.1602318,0.39882833,-1.9388787,-0.46944278,1.7358673,0.82146215,0.039995868,0.04,-3.2396178,-5.862401485443115,7.1675124,0.0,-0.0,0.0
2395.750000002894,-0.5811959,-1.1602318,0.39882833,-1.9388787,-0.46944278,1.7358673,0.82146215,0.039995868,0.04,-3.2396178,-5.862401485443115,7.1675124,0.0,-0.0,0.0
2395.766666669561,-0.5811959,-1.1602318,0.39882833,-1.9388787,-0.46944278,1.7358673,0.82146215,0.039995868,0.04,-3.2396178,-5.862401485443115,7.1675124,0.0,-0.0,0.0
2395.7833333362278,-0.5811959,-1.1602318,0.39882833,-1.9388787,-0.46944278,1.7358673,0.82146215,0.039995868,0.04,-3.2396178,-5.862401485443115,7.1675124,0.0,-0.0,0.0
2395.8000000028946,-0.5811959,-1.1602318,0.39882833,-1.9388787,-0.46944278,1.7358673,0.82146215,0.039995868,0.04,-3.2396178,-5.862401485443115,7.1675124,0.0,-0.0,0.0
2395.8166666695615,-0.5811959,-1.1602318,0.39882833,-1.9388787,-0.46944278,1.7358673,0.82146215,0.039995868,0.04,-3.2396178,-5.862401485443115,7.1675124,0.0,-0.0,0.0
2395.8333333362284,-0.5811959,-1.1602318,0.39882833,-1.9388787,-0.46944278,1.7358673,0.82146215,0.039995868,0.04,-3.2396178,-5.862401485443115,7.1675124,0.0,-0.0,0.0
2395.8500000028953,-0.5811959,-1.1602318,0.39882833,-1.9388787,-0.46944278,1.7358673,0.82146215,0.039995868,0.04,-3.2396178,-5.862401485443115,7.1675124,0.0,-0.0,0.0
