rsonawane2002/My_IMU/logs_2/traj_324/imu_324.csv
time,j1,j2,j3,j4,j5,j6,j7,gripper1,gripper2,imu_ax,imu_ay,imu_az,imu_gx,imu_gy,imu_gz
807.6833333329274,0.00016700293,-0.785875,4.0107683e-05,-2.3551247,9.29385e-05,1.570997,0.786,0.04,0.04,-9.465831,0.00972455833107233,0.067080066,-2.715035e-08,-0.0011641274904832244,5.9304324e-07
807.6999999995941,0.00016700562,-0.78576016,4.0123636e-05,-2.3552213,9.297187e-05,1.5709941,0.786,0.04,0.04,-9.834332,0.0006504720658995211,0.009126942,-2.1795493e-07,-0.002239079214632511,4.9945896e-07
807.7166666662607,0.00016700759,-0.7856543,4.0201365e-05,-2.35531,9.2987575e-05,1.5709913,0.786,0.04,0.04,-9.832531,0.0007191664772108197,0.0075519043,2.6868025e-07,-0.0032345589715987444,-2.458412e-06
807.7333333329274,0.00016701067,-0.78555703,4.0443563e-05,-2.355391,9.296158e-05,1.5709884,0.786,0.04,0.04,-9.830895,0.0008574051316827536,0.006162323,1.7119593e-06,-0.004164722748100758,-1.1018254e-05
807.749999999594,0.00016701895,-0.78546774,4.0997635e-05,-2.3554652,9.28607e-05,1.5709856,0.786,0.04,0.04,-9.82933,0.0010574834886938334,0.004872487,4.9016385e-06,-0.005035076756030321,-2.7597289e-05
807.7666666662607,0.00016703866,-0.7853861,4.2051302e-05,-2.355532,9.264185e-05,1.570986,0.7860019,0.04,0.04,-9.8280525,0.0013021836057305336,0.003689717,1.082955e-05,-0.005860328674316406,-5.4349377e-05
807.7833333329273,0.00016707781,-0.78531164,4.382807e-05,-2.3555956,9.2264454e-05,1.5709866,0.7860038,0.04,0.039999995,-9.8266325,0.0016016687732189894,0.002527441,1.1608541e-05,-0.006626027636229992,-9.243439e-05
807.799999999594,0.00016714647,-0.78524417,4.6584148e-05,-2.3556538,9.1658745e-05,1.5709875,0.78600574,0.04,0.039999995,-9.826038,0.0019275054801255465,0.00154068,1.7076893e-05,-0.007377993781119585,-0.00014518917
807.8166666662606,0.00016725596,-0.7851833,5.06046e-05,-2.3557053,9.0748516e-05,1.5709884,0.78600955,0.04,0.04,-9.825152,0.00228160060942173,0.00062826136,2.8455743e-05,-0.008108255453407764,-0.00021410354
807.8333333329273,0.00016741891,-0.7851289,5.61999e-05,-2.3557549,8.947446e-05,1.5709931,0.78601515,0.04,0.04,-9.824223,0.0026686338242143393,-0.00020769658,3.88683e-05,-0.008818678557872772,-0.0002989872
807.8499999995939,0.00016764924,-0.7850808,6.370341e-05,-2.3557987,8.775874e-05,1.5709978,0.78602153,0.04,0.04,-9.823902,0.0030642603524029255,-0.0010266597,4.980125e-05,-0.009521638043224812,-0.00040185874
807.8666666662606,0.0001679619,-0.7850389,7.346863e-05,-2.3558407,8.552068e-05,1.5710063,0.7860302,0.04,0.04,-9.823232,0.00347347860224545,-0.0016716805,6.724273e-05,-0.010220305062830448,-0.0005238117
807.8833333329272,0.00016837267,-0.7850031,8.586653e-05,-2.3558772,8.266904e-05,1.5710173,0.7860416,0.04,0.04,-9.823043,0.003882349468767643,-0.0023184728,8.659476e-05,-0.010921475477516651,-0.0006664542
807.8999999995939,0.00016889819,-0.7849736,0.0001012835,-2.355912,7.912049e-05,1.5710297,0.78605497,0.04,0.04,-9.822502,0.004289689473807812,-0.0028222883,0.00010638671,-0.011620208621025085,-0.00082930614
807.9166666662605,0.00016955577,-0.7849504,0.00012011912,-2.3559437,7.478421e-05,1.5710459,0.7860718,0.04,0.04,-9.822462,0.004687443841248751,-0.0031997238,0.00013290002,-0.01233995333313942,-0.0010135792
807.9333333329272,0.00017036307,-0.7849333,0.00014278427,-2.3559713,6.957363e-05,1.5710659,0.7860918,0.04,0.04,-9.822323,0.00507322046905756,-0.0035321517,0.00016016958,-0.013071822933852673,-0.0012192
807.9499999995938,0.00017133879,-0.78492266,0.00016969956,-2.355998,6.3384185e-05,1.5710897,0.7861156,0.04,0.04,-9.822009,0.005401949398219585,-0.0037502265,0.00019162889,-0.013813355006277561,-0.0014482699
807.9666666662605,0.0001725014,-0.78491855,0.00020129346,-2.356022,5.612509e-05,1.5711176,0.7861435,0.039999995,0.03999999,-9.822213,0.00575621984899044,-0.0038631395,0.0002263974,-0.01458173431456089,-0.0016996085
807.9833333329271,0.00017387046,-0.784921,0.00023800129,-2.3560424,4.766223e-05,1.5711511,0.78617597,0.03999999,0.04,-9.822194,0.006025122478604317,-0.0038595274,0.0002644786,-0.015372139401733875,-0.001978289
807.9999999995938,0.00017546493,-0.7849304,0.000280263,-2.356062,3.792255e-05,1.5711901,0.7862133,0.039999988,0.039999995,-9.822113,0.006307709962129593,-0.0037597204,0.00030537182,-0.016178809106349945,-0.0022764374
808.0166666662604,0.00017730446,-0.7849469,0.0003285227,-2.356081,2.6798707e-05,1.5712339,0.7862561,0.039999984,0.039999995,-9.822361,0.006504931021481752,-0.0035015163,0.00035031166,-0.0170157290995121,-0.0026000903
808.0333333329271,0.0001794088,-0.78497064,0.00038322722,-2.3560965,1.4191173e-05,1.5712839,0.7863044,0.03999998,0.03999999,-9.822722,0.00666402094066143,-0.0031035119,0.00039753955,-0.017891451716423035,-0.0029468075
808.0499999995938,0.00018179779,-0.7850017,0.00044482533,-2.3561099,-4.1405634e-09,1.5713403,0.786359,0.039999977,0.03999999,-9.822671,0.006756708957254887,-0.0026068804,0.00044917592,-0.018788058310747147,-0.0033183838
808.0666666662604,0.00018449123,-0.78504056,0.0005137662,-2.3561218,-1.5889522e-05,1.5714036,0.78642005,0.039999973,0.039999988,-9.822839,0.006801482290029526,-0.0019563362,0.00050327514,-0.019714228808879852,-0.0037130865
808.083333332927,0.00018750901,-0.7850874,0.0005904994,-2.3561332,-3.356868e-05,1.5714741,0.78648794,0.03999997,0.039999984,-9.823098,0.006773301400244236,-0.001142038,0.00056123605,-0.020673677325248718,-0.0041317595
808.0999999995937,0.00019087097,-0.7851423,0.00067547325,-2.3561435,-5.3144995e-05,1.5715522,0.78656316,0.039999966,0.039999984,-9.82349,0.006662566214799881,-0.00017349469,0.0006228334,-0.021670887246727943,-0.004575162
808.1166666662604,0.0001945968,-0.7852058,0.0007691345,-2.3561513,-7.472016e-05,1.5716382,0.78664607,0.03999996,0.03999998,-9.823847,0.006487712729722261,0.00094008166,0.0006875949,-0.022705744951963425,-0.0050414423
808.133333332927,0.00019870616,-0.7852779,0.0008719283,-2.3561578,-9.839734e-05,1.5717326,0.786737,0.039999958,0.03999998,-9.824,0.006215567234903574,0.00222649,0.00075563113,-0.023769967257976532,-0.005532154
808.1499999995937,0.0002032186,-0.7853591,0.0009842957,-2.3561628,-0.00012427685,1.5718356,0.78683645,0.039999954,0.039999977,-9.824342,0.005868549458682537,0.0036973697,0.00082762836,-0.024871595203876495,-0.00604538
808.1666666662603,0.0002081535,-0.7854495,0.0011066754,-2.356167,-0.00015246056,1.571948,0.7869448,0.03999995,0.039999977,-9.8246355,0.005416629835963249,0.00536252,0.0009026409,-0.026008794084191322,-0.00658259
808.183333332927,0.00021353009,-0.78554946,0.0012395014,-2.356171,-0.00018304678,1.5720699,0.7870623,0.039999947,0.039999973,-9.825062,0.0048777638003230095,0.007201679,0.0009808585,-0.027184776961803436,-0.007141798
808.1999999995936,0.00021936733,-0.78565925,0.0013832042,-2.356174,-0.00021613548,1.5722018,0.7871895,0.039999943,0.03999997,-9.825441,0.004179014824330807,0.009254931,0.0010630302,-0.028401151299476624,-0.007724418
808.2166666662603,0.00022568398,-0.7857792,0.0015382087,-2.3561747,-0.0002518231,1.5723443,0.7873267,0.03999994,0.03999997,-9.825921,0.0034813322126865387,0.011456594,0.0011480125,-0.029656067490577698,-0.008328414
808.2333333329269,0.00023249863,-0.78590965,0.0017049349,-2.3561745,-0.00029020716,1.5724975,0.78747416,0.039999936,0.03999997,-9.826128,0.002617727965116501,0.013908585,0.001236273,-0.030942654237151146,-0.008955154
808.2499999995936,0.00023982934,-0.78605074,0.0018837976,-2.356173,-0.0003313815,1.5726618,0.78763247,0.039999932,0.039999966,-9.826518,0.0016493555158376694,0.016575668,0.0013280931,-0.032266322523355484,-0.009602544
808.2666666662602,0.00024769435,-0.7862027,0.002075205,-2.356171,-0.00037544113,1.5728377,0.7878018,0.039999925,0.03999996,-9.826881,0.0005508139729499817,0.019469686,0.0014229066,-0.03362727537751198,-0.010271928
808.2833333329269,0.00025611123,-0.7863661,0.0022795598,-2.3561678,-0.00042247743,1.5730255,0.7879826,0.039999917,0.039999954,-9.82731,-0.0006638914346694946,0.022577528,0.001520991,-0.035026270896196365,-0.010961138
808.2999999995935,0.00026509762,-0.7865411,0.0024972588,-2.3561645,-0.00047258195,1.5732253,0.78817517,0.03999991,0.03999995,-9.827656,-0.0020120497792959213,0.025942214,0.0016223338,-0.036461152136325836,-0.01167148
808.3166666662602,0.00027467046,-0.786728,0.0027286906,-2.3561609,-0.0005258438,1.5734379,0.7883799,0.039999906,0.039999947,-9.8281555,-0.0034847985953092575,0.029552652,0.0017269948,-0.03793760761618614,-0.012401638
808.3333333329268,0.0002848467,-0.7869269,0.0029742385,-2.356155,-0.0005823503,1.5736636,0.7885972,0.0399999,0.039999943,-9.828611,-0.005089029669761658,0.033387855,0.0018344268,-0.03945178911089897,-0.013150299
808.3499999995935,0.00029564285,-0.7871383,0.0032342784,-2.3561478,-0.00064218865,1.5739026,0.7888273,0.0399999,0.039999947,-9.828803,-0.006835758686065674,0.037474114,0.0019443565,-0.04099591076374054,-0.013918713
808.3666666662601,0.00030707513,-0.7873625,0.003509179,-2.35614,-0.0007054428,1.5741551,0.7890705,0.0399999,0.039999947,-9.829119,-0.00872492790222168,0.041848987,0.0020576993,-0.04257267713546753,-0.014705491
808.3833333329268,0.0003191593,-0.78759956,0.0037993009,-2.356131,-0.0007721955,1.5744216,0.7893272,0.039999902,0.039999954,-9.829521,-0.010748248547315598,0.04651175,0.0021739276,-0.044186752289533615,-0.0155093195
808.3999999995934,0.00033191085,-0.78784984,0.0041049994,-2.3561215,-0.0008425285,1.5747027,0.7895977,0.039999906,0.03999996,-9.829866,-0.012929543852806091,0.05141917,0.0022928168,-0.04583503305912018,-0.016331369
808.4166666662601,0.00034534515,-0.7881138,0.004426621,-2.356111,-0.00091652054,1.5749984,0.7898821,0.039999913,0.039999973,-9.8302145,-0.015260737389326096,0.056607213,0.0024144384,-0.047516532242298126,-0.017170278
808.4333333329267,0.00035947704,-0.78839123,0.0047645024,-2.3561003,-0.0009942494,1.5753089,0.790181,0.039999917,0.039999977,-9.830551,-0.01773538812994957,0.062114418,0.0025393774,-0.04923117905855179,-0.018024651
808.4499999995934,0.00037432084,-0.7886827,0.005118976,-2.3560894,-0.0010757912,1.5756346,0.79049456,0.03999992,0.039999984,-9.830897,-0.0204611849039793,0.06789087,0.002666928,-0.05098320543766022,-0.018895658
808.46666666626,0.00038989077,-0.7889885,0.0054903654,-2.356077,-0.0011612198,1.5759759,0.7908231,0.03999992,0.039999988,-9.83138,-0.023177234455943108,0.0739378,0.002796848,-0.05277074873447418,-0.019781834
808.4833333329267,0.0004062006,-0.78930885,0.005878984,-2.356063,-0.0012506068,1.5763332,0.7911669,0.03999992,0.039999988,-9.831599,-0.026132140308618546,0.080313146,0.002929458,-0.05458727106451988,-0.020681836
808.4999999995933,0.00042326385,-0.78964394,0.006285143,-2.356048,-0.0013440243,1.5767064,0.79152644,0.03999993,0.04,-9.831778,-0.029261209070682526,0.08700219,0.003064283,-0.05642961338162422,-0.02159683
808.51666666626,0.00044109352,-0.789994,0.006709139,-2.3560326,-0.00144154,1.5770959,0.7919014,0.039999936,0.04,-9.832061,-0.032550960779190063,0.09401217,0.0032003147,-0.05830403044819832,-0.022525314
808.5333333329266,0.00045970213,-0.7903595,0.007151264,-2.3560162,-0.0015431996,1.5775023,0.7922924,0.03999994,0.04,-9.832349,-0.03599537909030914,0.101348996,0.003340648,-0.06021033599972725,-0.02346359
808.5499999995933,0.0004791024,-0.79074025,0.007611803,-2.3559988,-0.0016490762,1.5779252,0.79269975,0.039999936,0.04,-9.832535,-0.039641670882701874,0.10900365,0.0034831278,-0.06214241683483124,-0.024416778
808.56666666626,0.00049930613,-0.79113644,0.00809103,-2.3559806,-0.0017592517,1.5783657,0.79312354,0.03999993,0.04,-9.832808,-0.04345773905515671,0.11699542,0.0036275974,-0.06410650163888931,-0.025383351
808.5833333329266,0.0005203251,-0.7915486,0.008589216,-2.3559625,-0.001873779,1.5788236,0.7935641,0.039999925,0.04,-9.83302,-0.047431983053684235,0.12528875,0.0037746374,-0.06609782576560974,-0.026360292
808.5999999995933,0.00054217054,-0.7919768,0.009106615,-2.3559444,-0.0019927232,1.579299,0.79402167,0.039999917,0.04,-9.833282,-0.05159743130207062,0.13395275,0.0039238557,-0.06811955571174622,-0.027348671
808.6166666662599,0.0005648535,-0.7924214,0.009643481,-2.3559246,-0.0021161428,1.5797923,0.7944964,0.03999991,0.04,-9.833594,-0.055933259427547455,0.14295569,0.0040749856,-0.07017392665147781,-0.028346946
808.6333333329266,0.0005883844,-0.7928823,0.010200054,-2.3559031,-0.0022441063,1.5803037,0.79498863,0.0399999,0.04,-9.833588,-0.06045703589916229,0.15231144,0.004228359,-0.07224918156862259,-0.02935558
808.6499999995932,0.00061277347,-0.79335994,0.010776577,-2.3558807,-0.0023766519,1.5808334,0.79549855,0.039999887,0.039999995,-9.833614,-0.06515198945999146,0.16200012,0.004383496,-0.07434698939323425,-0.030372117
808.6666666662599,0.0006380308,-0.7938545,0.011373272,-2.3558574,-0.0025138473,1.5813817,0.7960263,0.039999876,0.039999995,-9.833683,-0.07004480808973312,0.17207068,0.0045402288,-0.07646840065717697,-0.031397704
808.6833333329265,0.0006641657,-0.7943658,0.011990362,-2.355833,-0.002655731,1.5819486,0.79657197,0.039999872,0.04,-9.83373,-0.07510793954133987,0.1825118,0.004698867,-0.07861395180225372,-0.03242995
808.6999999995932,0.00069118704,-0.79489446,0.012628055,-2.355808,-0.0028023422,1.5825343,0.79713595,0.039999865,0.04,-9.833666,-0.08046703785657883,0.19333927,0.004859505,-0.08078361302614212,-0.033469267
808.7166666662598,0.0007191039,-0.7954403,0.013286554,-2.3557825,-0.002953728,1.5831395,0.7977182,0.03999986,0.04,-9.833777,-0.08580420911312103,0.20449251,0.0050213635,-0.08297716826200485,-0.03451407
808.7333333329265,0.0007479247,-0.79600376,0.01396605,-2.355757,-0.0031099229,1.5837641,0.79831916,0.03999986,0.04,-9.833763,-0.09143361449241638,0.21602282,0.005185682,-0.0851920023560524,-0.035563964
808.7499999995931,0.0007776572,-0.79658467,0.014666738,-2.35573,-0.0032709741,1.5844079,0.7989388,0.03999986,0.04,-9.833829,-0.09726215898990631,0.22795314,0.005350767,-0.0874331146478653,-0.036619797
808.7666666662598,0.0008083095,-0.7971832,0.015388793,-2.355702,-0.0034369114,1.5850712,0.7995774,0.039999858,0.04,-9.833635,-0.10327734053134918,0.2402417,0.0055175773,-0.0896928608417511,-0.03768045
808.7833333329264,0.00083988893,-0.7977996,0.01613239,-2.3556726,-0.0036078007,1.5857548,0.80023503,0.039999854,0.04,-9.833493,-0.10947832465171814,0.2529248,0.0056855865,-0.09197341650724411,-0.038744982
808.7999999995931,0.00087240257,-0.7984348,0.016897697,-2.355642,-0.0037836644,1.5864578,0.8009117,0.03999985,0.04,-9.833232,-0.11587034165859222,0.26598212,0.0058551,-0.09426943957805634,-0.03981308
808.8166666662597,0.00090585696,-0.7990878,0.01768486,-2.3556108,-0.003964546,1.5871813,0.8016077,0.03999985,0.04,-9.832902,-0.12244987487792969,0.27953345,0.0060264887,-0.09658091515302658,-0.04088302
808.8333333329264,0.0009402586,-0.7997592,0.01849403,-2.3555787,-0.0041504675,1.5879242,0.8023231,0.039999846,0.04,-9.832698,-0.1292322278022766,0.29337323,0.0061989385,-0.09891205281019211,-0.0419561
808.849999999593,0.0009756134,-0.80044883,0.019325353,-2.355546,-0.004341467,1.588688,0.8030584,0.039999843,0.04,-9.832356,-0.13620367646217346,0.30767018,0.0063731344,-0.10126321762800217,-0.043030947
808.8666666662597,0.0010119271,-0.80115724,0.020178959,-2.3555133,-0.0045375987,1.5894722,0.80381316,0.03999984,0.04,-9.832072,-0.14337903261184692,0.32231706,0.006546861,-0.10363209992647171,-0.044109203
808.8833333329263,0.0010492051,-0.80188423,0.021054974,-2.355479,-0.0047388687,1.5902771,0.80458766,0.03999983,0.04,-9.831707,-0.15072426199913025,0.33742,0.0067226565,-0.10601907223463058,-0.045186073
808.899999999593,0.0010874524,-0.80262995,0.021953518,-2.3554435,-0.0049453154,1.5911025,0.80538213,0.039999824,0.04,-9.831159,-0.15827201306819916,0.35288444,0.0068997596,-0.10841856896877289,-0.046263702
808.9166666662596,0.0011266737,-0.8033943,0.022874689,-2.355407,-0.005156963,1.5919487,0.80619663,0.039999817,0.04,-9.830557,-0.1660086065530777,0.3687859,0.0070772893,-0.11083069443702698,-0.047340557
808.9333333329263,0.0011668733,-0.8041777,0.023818603,-2.3553693,-0.0053738216,1.592816,0.8070312,0.039999805,0.04,-9.830003,-0.1739329993724823,0.3850832,0.007255621,-0.11325839161872864,-0.048415255
808.9499999995929,0.0012080551,-0.80498004,0.024785353,-2.355331,-0.005595929,1.5937043,0.807886,0.039999798,0.04,-9.829145,-0.18216250836849213,0.40184286,0.0074350922,-0.11569517105817795,-0.049488045
808.9666666662596,0.0012502233,-0.80580145,0.025775028,-2.3552911,-0.005823304,1.5946136,0.8087612,0.039999794,0.04,-9.828596,-0.19037093222141266,0.41895244,0.0076148487,-0.1181468591094017,-0.0505592
808.9833333329262,0.0012933805,-0.806642,0.026787715,-2.355251,-0.0060559525,1.595544,0.8096567,0.039999783,0.04,-9.827736,-0.1988620012998581,0.43652883,0.0077946815,-0.12060850858688354,-0.051626403
808.9999999995929,0.0013375307,-0.8075017,0.027823472,-2.3552103,-0.00629391,1.5964956,0.81057245,0.039999776,0.04,-9.826932,-0.207555890083313,0.45450127,0.007975247,-0.12308287620544434,-0.05269085
809.0166666662595,0.0013826757,-0.8083806,0.028882373,-2.3551683,-0.0065371734,1.5974683,0.8115088,0.039999776,0.04,-9.826059,-0.21642060577869415,0.4729107,0.008156975,-0.12556953728199005,-0.053749382
809.0333333329262,0.0014288186,-0.80927885,0.029964482,-2.3551257,-0.006785741,1.5984622,0.81246555,0.039999772,0.04,-9.825013,-0.22549062967300415,0.49174625,0.008338607,-0.12806600332260132,-0.054804236
809.0499999995928,0.0014759611,-0.8101965,0.03106985,-2.3550816,-0.0070396424,1.5994775,0.8134428,0.039999764,0.04,-9.823961,-0.2347402721643448,0.5109994,0.008520985,-0.1305730938911438,-0.055853743
809.0666666662595,0.0015241056,-0.81113356,0.032198526,-2.355037,-0.007298898,1.6005145,0.8144408,0.039999757,0.04,-9.822713,-0.2441728413105011,0.53067654,0.008703776,-0.13308529555797577,-0.056897555
809.0833333329261,0.001573253,-0.81208986,0.03335054,-2.354991,-0.0075635114,1.601573,0.8154594,0.03999975,0.04,-9.821481,-0.2537956237792969,0.5507921,0.008886512,-0.13560523092746735,-0.05793581
809.0999999995928,0.0016234047,-0.8130656,0.034525916,-2.354944,-0.00783348,1.6026528,0.8164986,0.03999974,0.04,-9.820112,-0.2635880410671234,0.57131404,0.009069398,-0.13813185691833496,-0.058967315
809.1166666662594,0.0016745618,-0.8140607,0.035724707,-2.354897,-0.008108819,1.6037539,0.8175585,0.039999727,0.04,-9.818682,-0.273566871881485,0.59230983,0.009252454,-0.14066573977470398,-0.05999132
809.1333333329261,0.0017267248,-0.81507534,0.0369469,-2.3548486,-0.008389551,1.6048765,0.8186392,0.03999972,0.04,-9.817282,-0.2837355434894562,0.613703,0.009435384,-0.14321058988571167,-0.061008185
809.1499999995928,0.0017798939,-0.8161094,0.03819253,-2.3547993,-0.008675653,1.6060207,0.8197407,0.039999716,0.04,-9.815582,-0.2940780520439148,0.63554233,0.009618062,-0.14575853943824768,-0.062019244
809.1666666662594,0.0018340695,-0.8171632,0.039461575,-2.3547487,-0.008967152,1.6071864,0.8208626,0.039999727,0.04,-9.813851,-0.3045976758003235,0.6578133,0.009800267,-0.1483106166124344,-0.06302229
809.183333332926,0.0018892506,-0.8182363,0.04075406,-2.3546972,-0.009263982,1.6083738,0.82200533,0.039999723,0.04,-9.811931,-0.31523874402046204,0.6805237,0.009983643,-0.1508629322052002,-0.06401002
809.1999999995927,0.0019454367,-0.8193287,0.042069964,-2.354645,-0.009566158,1.6095829,0.8231687,0.039999712,0.04,-9.809926,-0.3262139558792114,0.7036913,0.010166389,-0.15342099964618683,-0.06498877
809.2166666662594,0.0020026274,-0.8204406,0.043409277,-2.3545916,-0.00987374,1.6108133,0.82435274,0.0399997,0.04,-9.808009,-0.3371396064758301,0.7272122,0.01034888,-0.1559814214706421,-0.0659598
809.233333332926,0.0020608222,-0.8215722,0.044771973,-2.3545375,-0.010186685,1.612065,0.82555753,0.03999969,0.04,-9.80579,-0.348314493894577,0.75122523,0.010531116,-0.158543199300766,-0.06691802
809.2499999995927,0.0021200185,-0.82272303,0.04615803,-2.3544824,-0.0105049815,1.6133381,0.82678306,0.039999682,0.04,-9.803532,-0.35967129468917847,0.7756911,0.010712839,-0.16110754013061523,-0.06786496
809.2666666662593,0.002180215,-0.8238932,0.047567405,-2.3544264,-0.010828629,1.6146327,0.82802916,0.03999967,0.04,-9.801105,-0.37118592858314514,0.80056095,0.01089327,-0.1636730581521988,-0.06880018
809.283333332926,0.0022414098,-0.82508266,0.049000062,-2.3543694,-0.011157621,1.6159489,0.8292958,0.039999664,0.04,-9.798572,-0.3828568458557129,0.8258672,0.011073536,-0.16623878479003906,-0.0697231
809.2999999995926,0.0023036005,-0.82629144,0.05045595,-2.3543115,-0.01149194,1.6172862,0.830583,0.039999656,0.04,-9.795889,-0.3946884870529175,0.85160923,0.011253302,-0.1688031554222107,-0.07063345
809.3166666662593,0.0023667847,-0.8275196,0.051935025,-2.3542528,-0.0118315695,1.6186448,0.8318906,0.03999965,0.04,-9.793092,-0.4066717326641083,0.87779593,0.011432577,-0.1713676154613495,-0.07153068
809.3333333329259,0.0024309605,-0.8287668,0.053437244,-2.354193,-0.012176485,1.6200248,0.83321863,0.03999964,0.04,-9.790134,-0.41879934072494507,0.9044089,0.011611133,-0.1739298552274704,-0.0724129
809.3499999995926,0.002496125,-0.83003324,0.054962516,-2.3541322,-0.012526685,1.6214259,0.83456707,0.039999634,0.04,-9.787025,-0.4310952425003052,0.93143016,0.011789171,-0.17648908495903015,-0.0732828
809.3666666662592,0.0025622733,-0.83131874,0.056510787,-2.354071,-0.0128821535,1.6228482,0.83593583,0.039999623,0.04,-9.783791,-0.44352662563323975,0.95892215,0.011966188,-0.1790459305047989,-0.07413856
809.3833333329259,0.0026294033,-0.8326234,0.058081966,-2.3540082,-0.013242879,1.6242918,0.83732486,0.03999961,0.04,-9.780468,-0.45610493421554565,0.9868219,0.012142152,-0.18160127103328705,-0.07498031
809.3999999995925,0.0026975109,-0.83394694,0.059675984,-2.3539448,-0.013608847,1.6257555,0.838734,0.0399996,0.04,-9.776845,-0.4688221216201782,1.0151663,0.01231711,-0.18414852023124695,-0.075807035
809.4166666662592,0.002766592,-0.83528954,0.06129275,-2.3538804,-0.013980028,1.627242,0.8401633,0.03999959,0.04,-9.773175,-0.4816659390926361,1.0439334,0.01249163,-0.18669547140598297,-0.076617315
809.4333333329258,0.0028366423,-0.83665055,0.06293216,-2.3538153,-0.014356403,1.6287477,0.8416129,0.039999582,0.04,-9.769255,-0.49465036392211914,1.0730976,0.01266421,-0.18922816216945648,-0.07741201
809.4499999995925,0.002907657,-0.8380308,0.06459413,-2.3537493,-0.014737936,1.6302742,0.84308183,0.039999574,0.04,-9.765168,-0.5078672766685486,1.1027606,0.012834774,-0.19176363945007324,-0.07819016
809.4666666662591,0.0029796308,-0.8394295,0.066278554,-2.353682,-0.01512462,1.6318213,0.84457153,0.03999956,0.04,-9.761051,-0.5209963917732239,1.1327889,0.013006763,-0.19429083168506622,-0.078952186
809.4833333329258,0.0030525604,-0.84084666,0.0679853,-2.3536143,-0.015516432,1.6333894,0.8460807,0.039999545,0.04,-9.756622,-0.5343675017356873,1.1632285,0.013172934,-0.19680939614772797,-0.079697885
809.4999999995924,0.0031264392,-0.8422824,0.069714256,-2.3535452,-0.015913326,1.6349777,0.84760934,0.03999954,0.04,-9.752159,-0.5478371977806091,1.1940925,0.013339269,-0.19932204484939575,-0.08042466
809.5166666662591,0.0032012626,-0.84373647,0.07146536,-2.353475,-0.016315272,1.6365862,0.8491574,0.039999526,0.04,-9.747285,-0.5614442229270935,1.2253925,0.013504803,-0.20182231068611145,-0.08113619
809.5333333329257,0.0032770245,-0.8452089,0.073238395,-2.3534048,-0.016722275,1.638215,0.8507248,0.03999951,0.04,-9.74236,-0.5751555562019348,1.2571081,0.013669424,-0.20431488752365112,-0.08182956
809.5499999995924,0.003353719,-0.8466994,0.075033285,-2.3533337,-0.01713428,1.6398635,0.85231155,0.039999507,0.04,-9.737325,-0.5889708399772644,1.2892396,0.013832806,-0.20680083334445953,-0.08250389
809.566666666259,0.0034313402,-0.84820783,0.07684988,-2.3532617,-0.017551247,1.6415321,0.85391766,0.039999492,0.04,-9.7319765,-0.602898895740509,1.32177,0.013994644,-0.20927689969539642,-0.083160855
809.5833333329257,0.0035098814,-0.8497343,0.07868805,-2.353189,-0.017973166,1.6432205,0.8555426,0.039999485,0.04,-9.726506,-0.6169161796569824,1.3546859,0.014154102,-0.21174441277980804,-0.08379806
809.5999999995923,0.0035893372,-0.8512786,0.08054764,-2.353115,-0.018400004,1.6449283,0.8571866,0.03999947,0.04,-9.720736,-0.6310539841651917,1.3880247,0.014312693,-0.21419855952262878,-0.0844184
809.616666666259,0.0036697,-0.8528406,0.082428515,-2.3530402,-0.018831722,1.6466562,0.8588496,0.03999946,0.04,-9.71477,-0.6452619433403015,1.4217659,0.014468956,-0.21664120256900787,-0.085018516
809.6333333329256,0.0037509624,-0.85442,0.08433049,-2.352964,-0.019268254,1.6484034,0.86053115,0.03999945,0.04,-9.708576,-0.6595607995986938,1.4558959,0.014622469,-0.21906810998916626,-0.08559748
809.6499999995923,0.0038331174,-0.8560169,0.08625342,-2.352887,-0.01970958,1.6501696,0.86223114,0.039999433,0.04,-9.702129,-0.6739556789398193,1.4904145,0.014774402,-0.221479594707489,-0.086158924
809.666666666259,0.003916158,-0.857631,0.08819713,-2.3528092,-0.020155668,1.651955,0.8639495,0.03999942,0.04,-9.695572,-0.6884269118309021,1.5253634,0.014925003,-0.22388015687465668,-0.08669952
809.6833333329256,0.004000076,-0.85926235,0.090161465,-2.3527308,-0.020606479,1.6537591,0.865686,0.03999941,0.04,-9.6887455,-0.7029800415039062,1.5606719,0.015073413,-0.226265549659729,-0.08722114
809.6999999995923,0.0040848637,-0.86091053,0.092146255,-2.3526516,-0.021061983,1.6555824,0.86744064,0.039999396,0.04,-9.681556,-0.7176971435546875,1.5964133,0.015220162,-0.22863702476024628,-0.087722406
809.7166666662589,0.0041705132,-0.86257577,0.09415129,-2.3525722,-0.02152213,1.6574241,0.8692132,0.03999939,0.04,-9.674428,-0.732295036315918,1.6324353,0.0153644,-0.23099257051944733,-0.08820241
809.7333333329256,0.0042570177,-0.8642575,0.096176416,-2.3524919,-0.021986868,1.6592842,0.8710035,0.03999937,0.04,-9.666961,-0.7470531463623047,1.6689206,0.015506504,-0.23333530128002167,-0.08866249
809.7499999995922,0.004344366,-0.8659559,0.09822141,-2.3524106,-0.022456171,1.6611627,0.87281156,0.03999936,0.04,-9.65918,-0.761876106262207,1.7057265,0.015646745,-0.23566164076328278,-0.08910168
809.7666666662589,0.0044325506,-0.86767066,0.10028609,-2.3523283,-0.02292997,1.6630592,0.8746368,0.039999343,0.04,-9.651133,-0.7767380475997925,1.7429225,0.015783554,-0.23796893656253815,-0.08951925
809.7833333329255,0.004521565,-0.86940163,0.10237029,-2.3522449,-0.023408255,1.6649737,0.87647945,0.039999336,0.04,-9.642805,-0.7916848063468933,1.7804836,0.01591879,-0.2402571737766266,-0.08991881
809.7999999995922,0.0046114,-0.8711487,0.10447377,-2.3521607,-0.023890954,1.6669061,0.8783392,0.039999325,0.04,-9.634262,-0.8066430687904358,1.8183986,0.016051125,-0.24252617359161377,-0.09029511
809.8166666662588,0.0047020447,-0.8729117,0.10659635,-2.3520758,-0.024377994,1.6688563,0.88021564,0.039999314,0.04,-9.625453,-0.8216562271118164,1.8566713,0.016181007,-0.2447746843099594,-0.09064887
809.8333333329255,0.00479349,-0.8746903,0.1087378,-2.3519902,-0.024869373,1.6708231,0.88210887,0.039999302,0.04,-9.616432,-0.8367217183113098,1.8953073,0.016308524,-0.24700388312339783,-0.09098291
809.8499999995921,0.0048857247,-0.87648445,0.11089793,-2.3519042,-0.025365025,1.6728076,0.8840187,0.039999295,0.04,-9.607127,-0.8518084287643433,1.9342864,0.016433498,-0.24921615421772003,-0.09129543
809.8666666662588,0.0049787415,-0.87829393,0.11307649,-2.3518178,-0.02586487,1.674809,0.8859447,0.039999284,0.04,-9.597543,-0.8669300079345703,1.9735919,0.016555207,-0.25140559673309326,-0.09158467
809.8833333329254,0.0050725318,-0.88011855,0.11527326,-2.3517306,-0.026368897,1.676827,0.8878869,0.039999265,0.04,-9.587765,-0.882099449634552,2.0132403,0.01667516,-0.25357720255851746,-0.091856025
809.8999999995921,0.0051670824,-0.8819582,0.117488004,-2.3516426,-0.026877059,1.6788615,0.8898449,0.039999254,0.04,-9.577624,-0.8972407579421997,2.0532196,0.016791945,-0.2557274401187897,-0.09210278
809.9166666662587,0.0052623865,-0.8838126,0.11972054,-2.3515534,-0.027389282,1.6809123,0.8918186,0.039999243,0.04,-9.567215,-0.9124370217323303,2.093518,0.016906392,-0.25785529613494873,-0.09232869
809.9333333329254,0.0053584315,-0.88568145,0.121970624,-2.3514628,-0.027905526,1.6829789,0.8938078,0.03999923,0.04,-9.556445,-0.9276337623596191,2.1341271,0.017018007,-0.2599583864212036,-0.0925332
809.949999999592,0.0054552085,-0.887565,0.124237984,-2.3513718,-0.028425716,1.6850618,0.8958124,0.039999213,0.04,-9.545262,-0.9429289102554321,2.1750839,0.017126597,-0.2620365619659424,-0.09271619
809.9666666662587,0.0055527054,-0.8894626,0.12652244,-2.3512805,-0.028949795,1.6871604,0.8978321,0.039999202,0.04,-9.534095,-0.9580481648445129,2.2163022,0.01723207,-0.2640884220600128,-0.09287667
809.9833333329253,0.0056509124,-0.891374,0.12882364,-2.3511887,-0.029477738,1.6892742,0.89986664,0.03999919,0.04,-9.522601,-0.9732787609100342,2.2578528,0.017334515,-0.26611942052841187,-0.093016095
809.999999999592,0.005749818,-0.8932993,0.13114148,-2.351096,-0.030009475,1.6914033,0.90191585,0.039999172,0.04,-9.510774,-0.9884801506996155,2.299675,0.017433792,-0.26812779903411865,-0.09313481
810.0166666662586,0.005849412,-0.8952381,0.13347557,-2.3510027,-0.030544939,1.6935475,0.90397954,0.03999917,0.04,-9.498585,-1.0036765336990356,2.3418052,0.017530449,-0.2701093554496765,-0.09322857
810.0333333329253,0.005949684,-0.89719045,0.13582574,-2.3509092,-0.031084064,1.6957064,0.90605736,0.03999915,0.04,-9.486134,-1.0188738107681274,2.3842072,0.01762335,-0.27206525206565857,-0.09330382
810.0499999995919,0.0060506193,-0.8991559,0.13819171,-2.3508148,-0.031626828,1.6978798,0.9081493,0.039999135,0.04,-9.4734125,-1.0340429544448853,2.4269147,0.017713664,-0.27399688959121704,-0.093356386
810.0666666662586,0.0061522103,-0.9011344,0.14057323,-2.3507202,-0.03217313,1.7000675,0.91025484,0.03999913,0.04,-9.4603195,-1.0491845607757568,2.4698572,0.01780015,-0.27590057253837585,-0.09338532
810.0833333329252,0.006254444,-0.9031255,0.14297001,-2.3506248,-0.032722928,1.7022694,0.91237384,0.039999112,0.04,-9.446936,-1.0643281936645508,2.513085,0.01788419,-0.2777773439884186,-0.09339669
810.0999999995919,0.006357309,-0.90512925,0.14538187,-2.3505282,-0.033276185,1.704485,0.91450614,0.03999911,0.04,-9.433231,-1.0794131755828857,2.5565455,0.017965136,-0.279624879360199,-0.09338473
810.1166666662585,0.006460794,-0.9071452,0.14780848,-2.3504307,-0.033832766,1.7067139,0.91665137,0.0399991,0.04,-9.419131,-1.0944697856903076,2.6002765,0.018042712,-0.28144213557243347,-0.093349695
810.1333333329252,0.0065648854,-0.9091732,0.15024947,-2.350333,-0.034392647,1.7089562,0.9188094,0.03999908,0.04,-9.404801,-1.1095091104507446,2.6442459,0.018117698,-0.28323128819465637,-0.09329628
810.1499999995918,0.006669573,-0.9112129,0.15270464,-2.350235,-0.03495581,1.7112118,0.92098033,0.039999064,0.04,-9.390174,-1.1244750022888184,2.6884475,0.018188614,-0.28499189019203186,-0.093221016
810.1666666662585,0.006774843,-0.91326433,0.15517372,-2.3501363,-0.035522133,1.71348,0.92316324,0.039999057,0.04,-9.375255,-1.139404535293579,2.7328794,0.018255066,-0.28672346472740173,-0.09312337
810.1833333329251,0.0068806857,-0.9153271,0.15765643,-2.3500369,-0.03609157,1.7157608,0.92535865,0.039999038,0.04,-9.359902,-1.1542974710464478,2.7775404,0.018319454,-0.28842318058013916,-0.09300613
810.1999999995918,0.0069870846,-0.91740096,0.1601525,-2.349937,-0.03666407,1.718054,0.92756563,0.039999023,0.04,-9.344217,-1.1691901683807373,2.822431,0.018378215,-0.2900926470756531,-0.09286898
810.2166666662584,0.0070940303,-0.9194857,0.16266164,-2.3498366,-0.037239537,1.7203592,0.9297843,0.039999016,0.04,-9.328354,-1.1838890314102173,2.8674817,0.01843463,-0.29173046350479126,-0.09270845
810.2333333329251,0.0072015105,-0.9215811,0.1651835,-2.349736,-0.03781794,1.722676,0.9320144,0.039999,0.04,-9.312074,-1.1986119747161865,2.9127629,0.018487098,-0.2933366894721985,-0.09252935
810.2499999995918,0.0073095113,-0.92368686,0.16771783,-2.3496346,-0.038399167,1.7250043,0.9342551,0.03999899,0.04,-9.295527,-1.2132452726364136,2.95824,0.018535035,-0.2949129045009613,-0.09232874
810.2666666662584,0.0074180183,-0.92580265,0.17026438,-2.3495333,-0.0389832,1.7273439,0.93650675,0.03999897,0.04,-9.278582,-1.2278326749801636,3.003894,0.018581439,-0.2964557111263275,-0.092110604
810.283333332925,0.0075270217,-0.9279286,0.1728228,-2.3494313,-0.039569944,1.7296942,0.9387687,0.03999896,0.04,-9.261394,-1.242335557937622,3.0497172,0.018624198,-0.29796841740608215,-0.091870844
810.2999999995917,0.007636507,-0.9300645,0.17539279,-2.3493283,-0.04015934,1.7320552,0.94104093,0.039998952,0.04,-9.243738,-1.256746530532837,3.095722,0.018663986,-0.29944586753845215,-0.091610506
810.3166666662584,0.007746462,-0.93220913,0.17797405,-2.3492246,-0.040751323,1.7344267,0.9433232,0.039998934,0.04,-9.225747,-1.2710939645767212,3.1418946,0.01869944,-0.3008871376514435,-0.091332115
810.333333332925,0.007856872,-0.93436337,0.18056627,-2.3491201,-0.04134581,1.7368082,0.9456151,0.039998926,0.04,-9.20751,-1.285359501838684,3.1881535,0.018731512,-0.302295058965683,-0.091033414
810.3499999995917,0.007967726,-0.9365261,0.18316917,-2.349015,-0.04194272,1.7391995,0.94791645,0.039998904,0.04,-9.188838,-1.299533724784851,3.234631,0.018759686,-0.3036656677722931,-0.09071799
810.3666666662583,0.008079008,-0.9386978,0.18578239,-2.3489099,-0.04254199,1.7416004,0.95022714,0.0399989,0.04,-9.169904,-1.3135993480682373,3.2812033,0.018784713,-0.30500128865242004,-0.09038006
810.383333332925,0.008190708,-0.9408779,0.18840571,-2.3488042,-0.043143567,1.7440106,0.9525467,0.03999889,0.04,-9.150706,-1.327605128288269,3.327955,0.0188047,-0.3063039481639862,-0.09002716
810.3999999995916,0.0083028115,-0.9430661,0.19103876,-2.3486981,-0.043747358,1.7464297,0.95487493,0.039998874,0.04,-9.131069,-1.3414894342422485,3.3747923,0.018821323,-0.30756887793540955,-0.0896539
810.4166666662583,0.0084153,-0.9452623,0.19368127,-2.3485923,-0.044353317,1.7488576,0.9572115,0.03999885,0.04,-9.111167,-1.3552987575531006,3.421758,0.018834373,-0.30879929661750793,-0.08926471
810.4333333329249,0.0085281655,-0.947466,0.19633287,-2.3484862,-0.04496135,1.7512937,0.95955604,0.039998855,0.04,-9.090948,-1.3689758777618408,3.4688168,0.018843576,-0.30999305844306946,-0.08885315
810.4499999995916,0.008641392,-0.9496769,0.19899328,-2.3483794,-0.04557137,1.7537378,0.9619085,0.039998837,0.04,-9.070315,-1.3826169967651367,3.5159924,0.018849485,-0.3111535310745239,-0.088427864
810.4666666662582,0.008754968,-0.9518948,0.20166206,-2.3482723,-0.04618335,1.75619,0.9642685,0.039998822,0.04,-9.0494585,-1.3960553407669067,3.5631895,0.018851545,-0.3122766613960266,-0.08798442
810.4833333329249,0.008868874,-0.9541198,0.20433904,-2.348165,-0.04679719,1.7586497,0.9666356,0.03999881,0.04,-9.028215,-1.4093959331512451,3.6105058,0.018848894,-0.3133619427680969,-0.08752304
810.4999999995915,0.008983101,-0.9563514,0.20702384,-2.3480575,-0.04741279,1.7611163,0.9690095,0.0399988,0.04,-9.006634,-1.42264723777771,3.6579056,0.018843489,-0.3144091069698334,-0.0870441
810.5166666662582,0.009097636,-0.9585892,0.20971617,-2.34795,-0.048030123,1.7635901,0.9713901,0.03999879,0.04,-8.984702,-1.4357891082763672,3.705363,0.018834636,-0.3154195547103882,-0.086550295
810.5333333329248,0.009212461,-0.96083295,0.21241571,-2.3478413,-0.048649088,1.7660702,0.9737771,0.039998777,0.04,-8.9625225,-1.4487992525100708,3.7528563,0.018821971,-0.3163917362689972,-0.08603933
810.5499999995915,0.009327566,-0.96308255,0.21512207,-2.3477325,-0.04926962,1.768557,0.97617024,0.039998766,0.04,-8.939838,-1.4616960287094116,3.800378,0.018805869,-0.31732356548309326,-0.08551391
810.5666666662581,0.009442937,-0.96533734,0.2178349,-2.3476236,-0.049891647,1.7710494,0.97856903,0.03999875,0.04,-8.916974,-1.4744536876678467,3.8479698,0.018785186,-0.3182159960269928,-0.08497291
810.5833333329248,0.009558556,-0.96759754,0.22055392,-2.3475144,-0.050515085,1.7735478,0.9809734,0.03999875,0.04,-8.89379,-1.4870761632919312,3.8955626,0.018761631,-0.3190719783306122,-0.08441366
810.5999999995914,0.009674412,-0.9698626,0.22327878,-2.3474047,-0.05113985,1.7760514,0.9833831,0.039998736,0.04,-8.870219,-1.4995942115783691,3.943196,0.01873315,-0.3198866844177246,-0.0838429
810.6166666662581,0.0097904885,-0.9721322,0.2260092,-2.3472953,-0.05176587,1.77856,0.98579764,0.03999872,0.04,-8.846362,-1.5119712352752686,3.9908257,0.018700805,-0.3206627070903778,-0.08325754
810.6333333329247,0.009906774,-0.9744061,0.22874483,-2.3471854,-0.052393086,1.7810736,0.9882167,0.03999871,0.04,-8.822258,-1.5242217779159546,4.038472,0.018665215,-0.3214012384414673,-0.08265663
810.6499999995914,0.010023252,-0.9766842,0.23148529,-2.3470747,-0.053021405,1.7835916,0.9906401,0.0399987,0.04,-8.797731,-1.5363260507583618,4.086082,0.01862656,-0.32209810614585876,-0.08204087
810.666666666258,0.010139908,-0.97896636,0.23423032,-2.346964,-0.053650767,1.7861136,0.9930674,0.0399987,0.04,-8.772845,-1.5482890605926514,4.1336904,0.018583551,-0.3227519989013672,-0.08141227
810.6833333329247,0.010256731,-0.98125196,0.23697954,-2.346853,-0.054281045,1.7886394,0.9954985,0.039998688,0.04,-8.747753,-1.5601357221603394,4.1813054,0.018538138,-0.3233661353588104,-0.08077011
810.6999999995913,0.0103736995,-0.98354083,0.23973262,-2.346742,-0.054912195,1.791169,0.99793303,0.039998673,0.04,-8.722281,-1.5718430280685425,4.228864,0.018488469,-0.32394033670425415,-0.08011631
810.716666666258,0.010490803,-0.98583263,0.2424892,-2.3466306,-0.055544183,1.7937016,1.0003706,0.039998658,0.04,-8.6965885,-1.5833936929702759,4.2763724,0.018434754,-0.32447221875190735,-0.07945233
810.7333333329246,0.010608029,-0.98812705,0.24524897,-2.346519,-0.056176905,1.7962373,1.0028111,0.039998647,0.04,-8.670612,-1.5947915315628052,4.3238454,0.018378098,-0.32496538758277893,-0.078773625
810.7499999995913,0.01072536,-0.990424,0.24801159,-2.3464074,-0.056810293,1.7987758,1.005254,0.03999864,0.04,-8.644263,-1.6060607433319092,4.3712397,0.01831758,-0.3254157602787018,-0.078083515
810.766666666258,0.010842786,-0.9927231,0.2507767,-2.3462958,-0.057444237,1.8013165,1.0076994,0.039998632,0.04,-8.617633,-1.6171681880950928,4.418586,0.018253798,-0.3258235454559326,-0.077380076
810.7833333329246,0.010960291,-0.9950241,0.253544,-2.346184,-0.058078643,1.8038592,1.0101465,0.039998632,0.04,-8.590776,-1.6281429529190063,4.46587,0.018185794,-0.3261914551258087,-0.076665476
810.7999999995913,0.011077857,-0.99732643,0.25631306,-2.3460722,-0.0587135,1.8064038,1.0125953,0.039998617,0.04,-8.563564,-1.6389899253845215,4.5130463,0.018115107,-0.32651764154434204,-0.07594466
810.8166666662579,0.0111954715,-0.9996302,0.2590837,-2.34596,-0.059348688,1.8089496,1.0150455,0.0399986,0.04,-8.536141,-1.6496442556381226,4.560133,0.01804062,-0.3268028497695923,-0.07521135
810.8333333329246,0.011313121,-1.0019349,0.2618554,-2.3458478,-0.059984114,1.8114965,1.0174967,0.039998595,0.04,-8.508308,-1.660168170928955,4.607125,0.017962852,-0.32704323530197144,-0.074466355
810.8499999995912,0.011430791,-1.0042406,0.26462787,-2.3457355,-0.06061973,1.8140442,1.0199488,0.03999858,0.04,-8.480353,-1.6705412864685059,4.6540174,0.017881216,-0.32724401354789734,-0.073713906
810.8666666662579,0.011548467,-1.0065467,0.26740083,-2.3456233,-0.06125547,1.8165925,1.0224012,0.039998576,0.04,-8.451996,-1.6807554960250854,4.7008057,0.017795198,-0.3274003565311432,-0.072951324
810.8833333329245,0.011666133,-1.0088528,0.27017394,-2.3455114,-0.061891235,1.8191408,1.0248535,0.039998572,0.04,-8.423438,-1.690809965133667,4.747444,0.017706927,-0.32751381397247314,-0.072179355
810.8999999995912,0.011783775,-1.0111588,0.2729468,-2.3453996,-0.0625269,1.821689,1.0273057,0.03999857,0.04,-8.394738,-1.7007421255111694,4.7939835,0.01761745,-0.3275890350341797,-0.0713983
810.9166666662578,0.011901377,-1.0134645,0.27571914,-2.3452876,-0.063162446,1.8242365,1.0297576,0.03999855,0.04,-8.365665,-1.71051824092865,4.8403573,0.017523333,-0.3276224732398987,-0.070612416
810.9333333329245,0.012018928,-1.0157695,0.27849054,-2.3451753,-0.063797824,1.8267833,1.0322086,0.03999854,0.04,-8.336343,-1.7201242446899414,4.8865943,0.01742544,-0.3276141583919525,-0.06981872
810.9499999995911,0.012136412,-1.0180734,0.28126073,-2.345063,-0.06443291,1.8293291,1.0346587,0.039998528,0.04,-8.30668,-1.7295639514923096,4.932652,0.017325658,-0.32755935192108154,-0.069016576
810.9666666662578,0.012253814,-1.0203762,0.28402933,-2.3449507,-0.065067634,1.8318733,1.0371076,0.03999852,0.04,-8.276903,-1.7388757467269897,4.978568,0.017221164,-0.3274625837802887,-0.068207614
810.9833333329244,0.012371124,-1.0226774,0.28679597,-2.3448386,-0.065701894,1.8344157,1.0395542,0.039998516,0.04,-8.246885,-1.7480103969573975,5.024329,0.017113328,-0.3273245096206665,-0.067390814
810.9999999995911,0.012488321,-1.0249767,0.2895603,-2.3447268,-0.06633568,1.836956,1.0419991,0.03999851,0.04,-8.216613,-1.7570055723190308,5.069902,0.017004983,-0.3271440863609314,-0.06656927
811.0166666662577,0.012605392,-1.027274,0.29232207,-2.3446152,-0.06696889,1.8394942,1.0444416,0.039998513,0.04,-8.186216,-1.7658354043960571,5.115286,0.01689259,-0.3269244134426117,-0.06573948
811.0333333329244,0.012722327,-1.0295689,0.2950809,-2.3445036,-0.067601345,1.8420297,1.0468817,0.0399985,0.04,-8.155488,-1.774547815322876,5.1604714,0.016778976,-0.32666051387786865,-0.06490686
811.049999999591,0.012839107,-1.0318611,0.2978365,-2.3443928,-0.06823308,1.844562,1.0493189,0.039998487,0.04,-8.124561,-1.783084511756897,5.205463,0.016661076,-0.3263542056083679,-0.064069495
811.0666666662577,0.012955719,-1.0341502,0.30058852,-2.344282,-0.06886403,1.8470911,1.0517528,0.03999848,0.04,-8.093519,-1.79148530960083,5.250269,0.016540695,-0.3260091543197632,-0.06322889
811.0833333329243,0.013072149,-1.0364363,0.3033365,-2.344171,-0.06949409,1.8496164,1.0541832,0.039998475,0.04,-8.062226,-1.7997134923934937,5.2948446,0.016419068,-0.3256227970123291,-0.062382754
811.099999999591,0.013188383,-1.038719,0.30608022,-2.34406,-0.07012315,1.8521378,1.0566099,0.039998464,0.04,-8.030681,-1.8077775239944458,5.3391843,0.016294135,-0.3251928687095642,-0.061532088
811.1166666662576,0.013304408,-1.0409977,0.30881932,-2.343949,-0.07075117,1.854655,1.0590326,0.03999846,0.04,-7.9988966,-1.8156987428665161,5.383305,0.01616656,-0.32471737265586853,-0.060677744
811.1333333329243,0.013420206,-1.0432727,0.31155345,-2.3438382,-0.07137802,1.8571678,1.061451,0.039998453,0.04,-7.967105,-1.8234796524047852,5.427199,0.016036546,-0.3242030739784241,-0.059819903
811.1499999995909,0.013535765,-1.045543,0.31428227,-2.3437276,-0.07200367,1.8596759,1.0638645,0.039998442,0.04,-7.934952,-1.8310966491699219,5.470853,0.015903438,-0.3236430585384369,-0.05896024
811.1666666662576,0.013651073,-1.0478088,0.31700552,-2.343617,-0.07262805,1.8621786,1.0662731,0.039998446,0.04,-7.9027925,-1.8385804891586304,5.5142555,0.015768975,-0.32304301857948303,-0.058098275
811.1833333329242,0.013766115,-1.0500697,0.31972283,-2.3435063,-0.073251024,1.864676,1.0686765,0.039998442,0.04,-7.870373,-1.8458987474441528,5.5574083,0.015632238,-0.32239991426467896,-0.057232533
811.1999999995909,0.013880881,-1.0523254,0.32243383,-2.3433957,-0.07387258,1.8671674,1.0710746,0.039998434,0.04,-7.8378434,-1.8530796766281128,5.600307,0.015493981,-0.32171526551246643,-0.056369655
811.2166666662575,0.01399535,-1.0545756,0.32513818,-2.3432856,-0.07449263,1.8696529,1.0734664,0.039998427,0.04,-7.8051276,-1.860122561454773,5.642945,0.015351482,-0.3209898769855499,-0.055504628
811.2333333329242,0.014109512,-1.0568204,0.32783568,-2.3431756,-0.07511109,1.8721318,1.0758524,0.03999842,0.04,-7.77234,-1.866994023323059,5.685326,0.015209678,-0.32022279500961304,-0.054634653
811.2499999995908,0.01422335,-1.059059,0.33052585,-2.343066,-0.07572784,1.8746043,1.0782318,0.03999841,0.04,-7.739335,-1.8737483024597168,5.727443,0.015064409,-0.3194129765033722,-0.053766426
811.2666666662575,0.014336853,-1.0612911,0.3332083,-2.3429565,-0.076342896,1.87707,1.0806044,0.03999841,0.04,-7.7062893,-1.8803586959838867,5.769244,0.014917952,-0.3185643255710602,-0.05290032
811.2833333329241,0.014450008,-1.0635169,0.33588296,-2.3428473,-0.076956145,1.8795282,1.0829703,0.039998397,0.04,-7.6731477,-1.8867987394332886,5.81076,0.014770362,-0.3176756501197815,-0.052032027
811.2999999995908,0.0145628,-1.0657358,0.33854938,-2.3427384,-0.07756752,1.8819789,1.0853287,0.039998382,0.04,-7.639795,-1.8931299448013306,5.8520107,0.014620133,-0.3167455792427063,-0.051165804
811.3166666662574,0.014675213,-1.0679476,0.34120718,-2.3426294,-0.07817695,1.8844218,1.0876796,0.03999837,0.04,-7.606361,-1.8993077278137207,5.892957,0.014469319,-0.31577441096305847,-0.05030201
811.3333333329241,0.014787237,-1.0701523,0.34385622,-2.3425207,-0.0787844,1.8868566,1.0900227,0.03999837,0.04,-7.572848,-1.9053397178649902,5.9335766,0.014316151,-0.3147629499435425,-0.049437985
811.3499999995908,0.014898859,-1.0723498,0.34649596,-2.342413,-0.07938976,1.8892828,1.0923578,0.039998367,0.04,-7.5392137,-1.9112517833709717,5.9739337,0.014162823,-0.31370988488197327,-0.048575293
811.3666666662574,0.015010067,-1.074539,0.34912634,-2.3423057,-0.079992905,1.8917001,1.0946844,0.039998364,0.04,-7.505581,-1.9169843196868896,6.0140133,0.014006142,-0.3126183748245239,-0.04771164
811.383333332924,0.015120845,-1.0767202,0.3517467,-2.342199,-0.08059381,1.8941087,1.0970025,0.039998356,0.04,-7.471926,-1.922681450843811,6.0537133,0.013850971,-0.31149253249168396,-0.046853337
811.3999999995907,0.01523118,-1.0788927,0.3543569,-2.3420932,-0.081192456,1.896508,1.0993116,0.039998356,0.04,-7.4380946,-1.9281433820724487,6.0931215,0.013691591,-0.31032633781433105,-0.04599859
811.4166666662574,0.015341058,-1.0810564,0.3569567,-2.3419874,-0.08178867,1.8988978,1.1016115,0.039998353,0.04,-7.4043465,-1.9335275888442993,6.132179,0.013533148,-0.3091246783733368,-0.045144476
811.433333332924,0.015450469,-1.0832115,0.35954583,-2.3418815,-0.082382455,1.9012775,1.1039017,0.039998353,0.04,-7.370377,-1.9387762546539307,6.1708875,0.0133727845,-0.30788326263427734,-0.044295657
811.4499999995907,0.015559402,-1.0853574,0.36212385,-2.341776,-0.0829737,1.9036473,1.1061825,0.03999835,0.04,-7.336373,-1.9438388347625732,6.2092924,0.013212806,-0.30660051107406616,-0.043449253
811.4666666662573,0.015667843,-1.087494,0.36469045,-2.3416708,-0.08356235,1.9060066,1.1084532,0.03999835,0.04,-7.3023143,-1.948883056640625,6.2473617,0.013050501,-0.30527934432029724,-0.042607456
811.483333332924,0.015775772,-1.089621,0.36724547,-2.3415658,-0.084148325,1.9083551,1.1107135,0.03999835,0.04,-7.2682915,-1.9537307024002075,6.285116,0.012887209,-0.30392077565193176,-0.041768525
811.4999999995906,0.015883183,-1.0917382,0.36978853,-2.3414612,-0.08473158,1.9106927,1.1129631,0.03999835,0.04,-7.2342052,-1.9584903717041016,6.322509,0.012724046,-0.30252423882484436,-0.040935412
811.5166666662573,0.01599007,-1.0938454,0.3723193,-2.3413572,-0.085311994,1.913019,1.1152021,0.039998353,0.04,-7.200111,-1.9631038904190063,6.359572,0.012561064,-0.30108895897865295,-0.04010632
811.5333333329239,0.016096408,-1.0959419,0.37483743,-2.3412538,-0.085889556,1.9153335,1.1174295,0.039998353,0.04,-7.1660676,-1.9676064252853394,6.3962893,0.012396146,-0.2996189296245575,-0.039281793
811.5499999995906,0.01620219,-1.098028,0.3773428,-2.3411512,-0.0864642,1.9176365,1.1196456,0.039998353,0.04,-7.132023,-1.971989393234253,6.432626,0.012233285,-0.2981131970882416,-0.038464136
811.5666666662572,0.01630741,-1.1001027,0.379835,-2.3410494,-0.08703586,1.9199275,1.1218505,0.039998353,0.04,-7.098051,-1.9762778282165527,6.468656,0.01207042,-0.2965739965438843,-0.037651
811.5833333329239,0.016412046,-1.1021665,0.38231385,-2.3409483,-0.0876044,1.9222062,1.1240433,0.039998353,0.04,-7.064053,-1.980440616607666,6.504271,0.011905862,-0.29500019550323486,-0.036842912
811.5999999995905,0.016516093,-1.1042192,0.38477895,-2.340848,-0.088169836,1.9244725,1.1262242,0.03999834,0.04,-7.0300922,-1.9845160245895386,6.5395794,0.011742243,-0.2933930456638336,-0.0360439
811.6166666662572,0.016619531,-1.1062602,0.38723007,-2.340748,-0.088732086,1.9267259,1.1283923,0.039998338,0.04,-6.9961224,-1.9884374141693115,6.5744967,0.011578412,-0.29175013303756714,-0.035249952
811.6333333329238,0.016722357,-1.1082895,0.3896669,-2.3406487,-0.0892911,1.9289658,1.1305482,0.039998334,0.04,-6.9622054,-1.9922823905944824,6.6090455,0.01141535,-0.2900733947753906,-0.034462813
811.6499999995905,0.016824557,-1.1103069,0.3920891,-2.3405495,-0.08984682,1.9311926,1.1326914,0.03999833,0.04,-6.928276,-1.9960026741027832,6.643224,0.011251375,-0.28836166858673096,-0.033681963
811.6666666662571,0.01692612,-1.1123117,0.3944966,-2.3404505,-0.090399146,1.9334059,1.1348213,0.03999833,0.04,-6.894442,-1.9995990991592407,6.677027,0.0110864015,-0.28661394119262695,-0.032905873
811.6833333329238,0.01702704,-1.1143042,0.3968889,-2.340352,-0.090948,1.935605,1.1369379,0.039998338,0.04,-6.8606844,-2.003140449523926,6.71046,0.010923331,-0.2848339378833771,-0.032138236
811.6999999995904,0.017127294,-1.1162839,0.39926594,-2.3402543,-0.091493346,1.9377902,1.1390407,0.039998334,0.04,-6.8270593,-2.0064914226531982,6.7435117,0.010759803,-0.2830209732055664,-0.03137956
811.7166666662571,0.017226884,-1.1182508,0.40162736,-2.340157,-0.092035115,1.9399612,1.1411301,0.039998334,0.04,-6.793379,-2.0098931789398193,6.77624,0.010598495,-0.28117606043815613,-0.030628432
811.7333333329237,0.017325789,-1.1202041,0.40397292,-2.3400602,-0.0925733,1.9421175,1.1432053,0.039998334,0.04,-6.759858,-2.013115406036377,6.8085814,0.0104352655,-0.2792980372905731,-0.029886467
811.7499999995904,0.017424004,-1.1221443,0.40630224,-2.339965,-0.09310779,1.9442589,1.1452662,0.039998334,0.04,-6.726468,-2.016263484954834,6.8404984,0.010274613,-0.27739015221595764,-0.029150784
811.766666666257,0.01752152,-1.1240714,0.4086151,-2.3398702,-0.09363853,1.9463853,1.1473126,0.039998334,0.04,-6.693267,-2.019284725189209,6.872131,0.010114186,-0.2754547894001007,-0.028422887
811.7833333329237,0.017618308,-1.1259843,0.4109114,-2.3397758,-0.09416549,1.9484962,1.1493446,0.03999833,0.04,-6.6599655,-2.022216320037842,6.9033074,0.009953851,-0.27348628640174866,-0.02770426
811.7999999995903,0.017714385,-1.1278831,0.41319096,-2.339682,-0.09468862,1.9505918,1.1513615,0.03999833,0.04,-6.6268997,-2.0250937938690186,6.9341226,0.009793831,-0.27148911356925964,-0.026994903
811.816666666257,0.017809728,-1.1297674,0.41545346,-2.3395889,-0.09520782,1.9526718,1.1533632,0.039998334,0.04,-6.593975,-2.0278899669647217,6.9645615,0.009636258,-0.2694622278213501,-0.026292408
811.8333333329236,0.017904324,-1.1316375,0.41769838,-2.3394961,-0.09572307,1.9547358,1.1553496,0.039998334,0.04,-6.5611677,-2.030595302581787,6.9946017,0.00948023,-0.267407089471817,-0.025600033
811.8499999995903,0.01799817,-1.133493,0.41992578,-2.3394039,-0.096234284,1.9567833,1.1573201,0.039998334,0.04,-6.528433,-2.0331764221191406,7.024252,0.009325096,-0.26532167196273804,-0.024916466
811.866666666257,0.018091248,-1.1353338,0.4221353,-2.3393126,-0.0967414,1.9588149,1.1592749,0.039998338,0.04,-6.4958506,-2.0357046127319336,7.0535483,0.009171397,-0.26320791244506836,-0.024243133
811.8833333329236,0.01818356,-1.1371598,0.42432675,-2.339222,-0.09724443,1.9608295,1.1612139,0.03999834,0.04,-6.463497,-2.0381455421447754,7.082467,0.0090194205,-0.26106616854667664,-0.023578772
811.8999999995902,0.018275086,-1.1389707,0.42649996,-2.3391328,-0.09774325,1.9628277,1.163137,0.039998345,0.04,-6.4312673,-2.0405056476593018,7.1110244,0.008867771,-0.25889796018600464,-0.022922626
811.9166666662569,0.018365819,-1.140766,0.4286546,-2.3390443,-0.098237835,1.9648086,1.1650434,0.03999835,0.04,-6.3992844,-2.0428075790405273,7.1391983,0.008716714,-0.2567049264907837,-0.022275833
811.9333333329236,0.018455753,-1.1425453,0.43079054,-2.3389566,-0.098728135,1.9667723,1.1669331,0.039998353,0.04,-6.3674507,-2.045025110244751,7.1669474,0.008569018,-0.2544885575771332,-0.021638736
811.9499999995902,0.018544883,-1.1443094,0.4329075,-2.338869,-0.09921414,1.9687188,1.1688062,0.039998345,0.04,-6.335917,-2.047107696533203,7.194288,0.008423752,-0.25224924087524414,-0.021014785
811.9666666662569,0.01863319,-1.1460576,0.43500534,-2.338782,-0.09969572,1.9706473,1.1706624,0.039998345,0.04,-6.3041697,-2.0492374897003174,7.22131,0.008277822,-0.24997921288013458,-0.020396156
811.9833333329235,0.018720675,-1.1477896,0.43708375,-2.3386958,-0.10017291,1.9725584,1.1725014,0.03999835,0.04,-6.2728167,-2.0512664318084717,7.247928,0.008134391,-0.24768541753292084,-0.019791
811.9999999995902,0.018807331,-1.1495054,0.43914258,-2.338611,-0.10064561,1.9744515,1.1743232,0.039998353,0.04,-6.2417355,-2.0531914234161377,7.274162,0.007992275,-0.24536800384521484,-0.019195078
812.0166666662568,0.018893141,-1.1512046,0.44118175,-2.338527,-0.10111378,1.9763266,1.1761276,0.039998353,0.04,-6.2109146,-2.0550649166107178,7.30005,0.007852281,-0.24303008615970612,-0.018609019
812.0333333329235,0.018978106,-1.1528875,0.44320092,-2.3384442,-0.101577416,1.978183,1.177914,0.039998356,0.04,-6.180277,-2.0568933486938477,7.325552,0.007714299,-0.24067118763923645,-0.018033441
812.0499999995901,0.01906221,-1.1545535,0.4452,-2.3383617,-0.10203645,1.9800211,1.1796829,0.039998356,0.04,-6.1498303,-2.0586183071136475,7.3506684,0.0075791837,-0.23829175531864166,-0.017466797
812.0666666662568,0.01914545,-1.1562027,0.4471787,-2.3382802,-0.10249084,1.9818405,1.1814339,0.039998356,0.04,-6.119546,-2.0603301525115967,7.375373,0.0074453587,-0.23588894307613373,-0.016912265
812.0833333329234,0.019227818,-1.157835,0.44913694,-2.338199,-0.10294057,1.9836409,1.1831667,0.039998364,0.04,-6.0895586,-2.0619418621063232,7.3997264,0.007312385,-0.23346613347530365,-0.016366843
812.0999999995901,0.019309305,-1.1594497,0.45107445,-2.338118,-0.103385545,1.9854225,1.1848814,0.039998367,0.04,-6.05969,-2.0635156631469727,7.423692,0.0071820742,-0.23102052509784698,-0.015832325
812.1166666662567,0.019389907,-1.1610475,0.45299134,-2.338038,-0.10382572,1.9871846,1.1865776,0.03999837,0.04,-6.0301614,-2.0650317668914795,7.447254,0.007052475,-0.22855433821678162,-0.0153098125
812.1333333329234,0.019469617,-1.1626279,0.45488715,-2.3379595,-0.10426114,1.9889276,1.1882551,0.039998375,0.04,-6.0008693,-2.066506862640381,7.470531,0.006926414,-0.22607067227363586,-0.01479739
812.14999999959,0.019548427,-1.1641902,0.45676163,-2.3378825,-0.10469167,1.9906512,1.1899137,0.03999838,0.04,-5.9718995,-2.0678961277008057,7.4934177,0.006802982,-0.22356872260570526,-0.014294273
812.1666666662567,0.019626321,-1.1657349,0.45861486,-2.3378062,-0.105117336,1.9923552,1.1915537,0.039998382,0.04,-5.943336,-2.0692405700683594,7.5159254,0.00668236,-0.22105646133422852,-0.0138007365
812.1833333329233,0.019703306,-1.1672616,0.4604466,-2.3377306,-0.10553807,1.9940394,1.1931746,0.039998382,0.04,-5.9147744,-2.0705432891845703,7.5380335,0.006562611,-0.21852383017539978,-0.01331727
812.19999999959,0.01977938,-1.1687707,0.46225673,-2.3376558,-0.10595384,1.995704,1.1947762,0.039998386,0.04,-5.886726,-2.0717039108276367,7.559747,0.0064463727,-0.215976282954216,-0.012845398
812.2166666662566,0.019854533,-1.1702622,0.46404508,-2.3375816,-0.10636465,1.9973483,1.1963584,0.03999839,0.04,-5.8585877,-2.073005437850952,7.5811853,0.0063324384,-0.21340979635715485,-0.012384698
812.2333333329233,0.019928757,-1.1717352,0.46581146,-2.3375084,-0.10677046,1.9989725,1.1979213,0.0399984,0.04,-5.830859,-2.0741515159606934,7.6022315,0.006220561,-0.21082623302936554,-0.011934083
812.2499999995899,0.020002043,-1.1731896,0.46755588,-2.3374355,-0.10717121,2.0005763,1.1994648,0.039998405,0.04,-5.8035083,-2.075263500213623,7.6228814,0.0061112335,-0.2082296758890152,-0.01149449
812.2666666662566,0.020074395,-1.1746254,0.46927807,-2.3373642,-0.10756687,2.0021603,1.2009888,0.039998405,0.04,-5.776398,-2.076345682144165,7.643179,0.0060038297,-0.20561861991882324,-0.011065772
812.2833333329232,0.020145796,-1.1760423,0.47097808,-2.3372934,-0.107957445,2.0037239,1.2024931,0.03999841,0.04,-5.749738,-2.0773684978485107,7.6631584,0.0058991304,-0.2029973417520523,-0.0106473
812.2999999995899,0.020216243,-1.1774408,0.47265562,-2.3372233,-0.10834287,2.0052662,1.2039775,0.03999841,0.04,-5.7232556,-2.0783660411834717,7.6827273,0.005796832,-0.20036332309246063,-0.0102390405
812.3166666662565,0.020285742,-1.1788208,0.47431064,-2.3371542,-0.108723156,2.0067878,1.205442,0.03999842,0.04,-5.6970296,-2.079303026199341,7.7019925,0.0056969076,-0.1977182775735855,-0.0098423585
812.3333333329232,0.02035429,-1.180182,0.4759431,-2.337086,-0.10909826,2.0082896,1.2068862,0.039998423,0.04,-5.6711507,-2.0801796913146973,7.720904,0.0055987607,-0.19506171345710754,-0.009453364
812.3499999995898,0.02042187,-1.1815243,0.47755286,-2.337019,-0.10946818,2.0097694,1.2083101,0.03999842,0.04,-5.645607,-2.0810623168945312,7.739435,0.0055051455,-0.19239215552806854,-0.009077638
812.3666666662565,0.020488484,-1.1828479,0.47913983,-2.3369532,-0.109832875,2.0112286,1.2097142,0.039998423,0.04,-5.6203847,-2.081888198852539,7.7576694,0.0054145684,-0.1897161304950714,-0.008710244
812.3833333329231,0.020554129,-1.184152,0.4807039,-2.3368888,-0.11019234,2.012667,1.2110983,0.039998427,0.04,-5.595508,-2.082674741744995,7.775573,0.0053253463,-0.1870322972536087,-0.008352838
812.3999999995898,0.020618804,-1.1854374,0.48224494,-2.336825,-0.11054656,2.014084,1.2124629,0.039998434,0.04,-5.5710473,-2.083435297012329,7.79309,0.0052379244,-0.18434283137321472,-0.008004485
812.4166666662564,0.020682503,-1.1867033,0.48376298,-2.3367617,-0.11089546,2.01548,1.213806,0.039998434,0.04,-5.546653,-2.0841262340545654,7.8102465,0.005148012,-0.18164141476154327,-0.007666785
812.4333333329231,0.020745229,-1.1879501,0.485258,-2.3366992,-0.1112391,2.0168548,1.215129,0.03999844,0.04,-5.52277,-2.0848228931427,7.827101,0.0050664116,-0.17893491685390472,-0.0073378766
812.4499999995897,0.020806974,-1.1891779,0.4867298,-2.3366375,-0.11157742,2.018208,1.2164321,0.039998446,0.04,-5.4992814,-2.0853819847106934,7.843568,0.004986016,-0.1762210577726364,-0.00701977
812.4666666662564,0.02086773,-1.1903862,0.48817843,-2.336577,-0.11191038,2.0195398,1.2177137,0.039998446,0.04,-5.475812,-2.0860841274261475,7.8597784,0.0049046064,-0.1734999567270279,-0.006710645
812.483333332923,0.020927507,-1.1915748,0.48960373,-2.336518,-0.11223799,2.02085,1.2189753,0.03999845,0.04,-5.452964,-2.086681842803955,7.8756633,0.004829779,-0.1707761287689209,-0.0064117163
812.4999999995897,0.020986298,-1.1927444,0.49100563,-2.3364604,-0.11256028,2.0221393,1.2202156,0.039998453,0.04,-5.4305143,-2.0872514247894287,7.8912153,0.0047561275,-0.16805338859558105,-0.0061218166
812.5166666662564,0.021044102,-1.1938944,0.49238425,-2.3364031,-0.112877235,2.023407,1.2214359,0.03999846,0.04,-5.4082932,-2.087747812271118,7.9064255,0.0046867183,-0.16532474756240845,-0.005839481
812.533333332923,0.02110092,-1.1950245,0.49373943,-2.3363469,-0.1131888,2.0246534,1.2226351,0.039998464,0.04,-5.386393,-2.088258743286133,7.9213066,0.0046168035,-0.1625933200120926,-0.005567438
812.5499999995897,0.021156741,-1.1961355,0.49507117,-2.3362913,-0.113495015,2.0258782,1.2238138,0.03999847,0.04,-5.364898,-2.0887558460235596,7.9358354,0.0045515974,-0.15985992550849915,-0.005305951
812.5666666662563,0.021211581,-1.1972269,0.49637952,-2.3362362,-0.11379581,2.0270815,1.2249714,0.03999847,0.04,-5.3436837,-2.08916974067688,7.9501104,0.004487009,-0.1571241021156311,-0.0050525945
812.583333332923,0.021265425,-1.1982988,0.49766436,-2.336182,-0.11409125,2.028263,1.2261086,0.039998483,0.04,-5.322818,-2.089603900909424,7.964011,0.0044267895,-0.1543860137462616,-0.00480859
812.5999999995896,0.021318275,-1.1993512,0.49892575,-2.3361304,-0.11438129,2.0294232,1.2272248,0.039998483,0.04,-5.302374,-2.0899770259857178,7.977663,0.0043667983,-0.15164901316165924,-0.0045735417
812.6166666662563,0.02137014,-1.2003841,0.50016356,-2.3360786,-0.11466593,2.0305617,1.2283204,0.039998483,0.04,-5.282436,-2.090336322784424,7.9910526,0.00431022,-0.14891740679740906,-0.0043455195
812.6333333329229,0.021421012,-1.2013973,0.50137806,-2.3360276,-0.114945196,2.0316784,1.2293952,0.039998487,0.04,-5.2625837,-2.09067702293396,8.004024,0.0042555523,-0.1461842656135559,-0.004127215
812.6499999995896,0.021470891,-1.2023909,0.50256896,-2.3359776,-0.11521907,2.0327733,1.230449,0.039998494,0.04,-5.2432423,-2.090998888015747,8.01675,0.004203272,-0.14345474541187286,-0.0039157616
812.6666666662562,0.021519786,-1.2033654,0.5037363,-2.3359284,-0.11548757,2.0338466,1.2314824,0.039998498,0.04,-5.2242565,-2.0912649631500244,8.029182,0.0041536484,-0.1407313048839569,-0.0037128413
812.6833333329229,0.021567693,-1.2043203,0.5048805,-2.3358803,-0.1157507,2.0348983,1.2324948,0.039998498,0.04,-5.205543,-2.0915255546569824,8.041302,0.0041037854,-0.1380084604024887,-0.003518707
812.6999999995895,0.021614613,-1.2052554,0.50600123,-2.335833,-0.11600849,2.035929,1.2334865,0.039998505,0.04,-5.1874638,-2.091658592224121,8.053117,0.0040579997,-0.13529226183891296,-0.0033313583
812.7166666662562,0.021660553,-1.2061713,0.50709873,-2.3357878,-0.11626086,2.0369382,1.2344576,0.03999851,0.04,-5.1694517,-2.0920095443725586,8.064693,0.0040149395,-0.13258221745491028,-0.0031515036
812.7333333329228,0.021705505,-1.2070675,0.50817275,-2.3357427,-0.1165079,2.037926,1.2354081,0.039998513,0.04,-5.152003,-2.092211961746216,8.0760145,0.003974704,-0.12988059222698212,-0.0029790765
812.7499999995895,0.021749478,-1.2079446,0.50922364,-2.3356984,-0.116749614,2.0388923,1.2363381,0.039998513,0.04,-5.134817,-2.092377185821533,8.086953,0.003935457,-0.127186119556427,-0.0028146901
812.7666666662561,0.021792475,-1.2088022,0.5102513,-2.335655,-0.11698601,2.0398374,1.2372475,0.03999852,0.04,-5.1179414,-2.092536211013794,8.097639,0.003897614,-0.12449798732995987,-0.0026576943
812.7833333329228,0.021834496,-1.2096407,0.5112559,-2.3356123,-0.11721707,2.0407612,1.2381366,0.039998524,0.04,-5.101559,-2.0926764011383057,8.108074,0.0038625442,-0.12181945145130157,-0.002508014
812.7999999995894,0.021875551,-1.2104598,0.5122374,-2.3355708,-0.117442876,2.0416636,1.2390051,0.039998528,0.04,-5.085441,-2.0927767753601074,8.118218,0.003827897,-0.1191486045718193,-0.0023643568
812.8166666662561,0.021915631,-1.2112598,0.5131961,-2.3355305,-0.11766339,2.0425448,1.2398537,0.03999853,0.04,-5.0698223,-2.09287428855896,8.128107,0.0037973726,-0.1164916381239891,-0.0022275273
812.8333333329227,0.021954743,-1.212041,0.51413184,-2.3354917,-0.11787866,2.0434053,1.2406816,0.039998535,0.04,-5.054569,-2.0929508209228516,8.137754,0.0037667835,-0.11384865641593933,-0.0020959505
812.8499999995894,0.021992905,-1.2128034,0.51504475,-2.335453,-0.11808869,2.0442448,1.2414898,0.03999854,0.04,-5.039659,-2.092992067337036,8.147119,0.0037394415,-0.11121760308742523,-0.0019708243
812.866666666256,0.022030113,-1.213547,0.515935,-2.3354154,-0.11829354,2.045064,1.2422776,0.03999855,0.04,-5.0249634,-2.0930187702178955,8.156167,0.0037121472,-0.1085953637957573,-0.0018521609
812.8833333329227,0.022066377,-1.2142718,0.5168027,-2.3353786,-0.11849316,2.0458622,1.2430454,0.039998554,0.04,-5.010745,-2.0930392742156982,8.165009,0.0036868958,-0.10598606616258621,-0.001740719
812.8999999995893,0.02210169,-1.2149775,0.51764804,-2.335343,-0.11868766,2.04664,1.2437935,0.039998554,0.04,-4.9968953,-2.0930371284484863,8.173588,0.0036636095,-0.1033923402428627,-0.0016371774
812.916666666256,0.022136064,-1.2156645,0.51847076,-2.3353083,-0.11887703,2.0473964,1.2445217,0.039998554,0.04,-4.983485,-2.0930206775665283,8.181914,0.0036427744,-0.10081601142883301,-0.0015370445
812.9333333329226,0.022169504,-1.216333,0.51927173,-2.335275,-0.119061306,2.0481327,1.2452303,0.039998557,0.04,-4.970443,-2.0929346084594727,8.189995,0.0036220597,-0.09826058894395828,-0.0014411625
812.9499999995893,0.022202022,-1.2169833,0.5200504,-2.335243,-0.11924052,2.048849,1.2459195,0.03999856,0.04,-4.9578643,-2.092827081680298,8.197812,0.003605526,-0.09572311490774155,-0.001349778
812.966666666256,0.022233613,-1.2176151,0.52080745,-2.335211,-0.11941471,2.0495453,1.2465891,0.039998565,0.04,-4.945426,-2.0928189754486084,8.205461,0.0035892604,-0.09320474416017532,-0.0012632608
812.9833333329226,0.022264294,-1.2182292,0.52154243,-2.3351796,-0.11958391,2.0502212,1.2472402,0.039998565,0.04,-4.9333105,-2.0927722454071045,8.212756,0.0035758414,-0.09070255607366562,-0.0011832978
812.9999999995892,0.022294067,-1.2188252,0.5222562,-2.3351495,-0.11974814,2.0508778,1.247872,0.03999857,0.04,-4.9215627,-2.0926239490509033,8.2198305,0.0035584057,-0.08821872621774673,-0.0011096763
813.0166666662559,0.022322942,-1.2194031,0.5229484,-2.3351202,-0.119907476,2.0515146,1.2484847,0.039998572,0.04,-4.910344,-2.092515468597412,8.22677,0.0035447492,-0.08575709909200668,-0.0010384581
813.0333333329226,0.02235092,-1.2199634,0.52361935,-2.335092,-0.12006192,2.0521312,1.2490784,0.03999858,0.04,-4.899403,-2.0923590660095215,8.233384,0.0035329487,-0.08331809937953949,-0.0009725942
813.0499999995892,0.022378018,-1.2205064,0.5242694,-2.3350646,-0.120211534,2.0527291,1.2496536,0.039998587,0.04,-4.8888717,-2.092177391052246,8.23985,0.0035236469,-0.08090630918741226,-0.0009073546
813.0666666662559,0.022404239,-1.2210321,0.5248987,-2.3350391,-0.12035632,2.0533078,1.2502106,0.039998587,0.04,-4.878549,-2.0920190811157227,8.246013,0.0035149178,-0.07851289957761765,-0.0008496415
813.0833333329225,0.022429591,-1.2215402,0.52550745,-2.335014,-0.1204964,2.0538673,1.2507491,0.03999859,0.04,-4.8688297,-2.09181547164917,8.25208,0.0035063734,-0.07615054398775101,-0.00079277885
813.0999999995892,0.022454089,-1.2220315,0.5260958,-2.334989,-0.12063178,2.0544083,1.2512697,0.039998595,0.04,-4.8593073,-2.091622829437256,8.257818,0.0035016013,-0.0738159567117691,-0.00073978823
813.1166666662558,0.022477737,-1.2225056,0.5266639,-2.3349645,-0.120762534,2.0549307,1.2517724,0.039998602,0.04,-4.849956,-2.091404438018799,8.263318,0.003496263,-0.0715014785528183,-0.00069257536
813.1333333329225,0.022500552,-1.2229637,0.52721196,-2.3349411,-0.12088867,2.0554347,1.2522576,0.039998602,0.04,-4.841056,-2.091153383255005,8.268611,0.0034918836,-0.06921443343162537,-0.0006498104
813.1499999995891,0.022522539,-1.2234051,0.5277405,-2.334919,-0.121010296,2.055921,1.2527254,0.039998602,0.04,-4.832538,-2.0908734798431396,8.273785,0.0034864417,-0.0669555589556694,-0.0006105398
813.1666666662558,0.022543712,-1.2238306,0.5282495,-2.3348973,-0.121127464,2.0563889,1.2531759,0.039998606,0.04,-4.82443,-2.090604782104492,8.278745,0.0034837283,-0.06472785025835037,-0.00057274237
813.1833333329224,0.022564074,-1.22424,0.5287394,-2.3348768,-0.121240236,2.0568392,1.2536093,0.03999861,0.04,-4.8164835,-2.090292453765869,8.283462,0.003480487,-0.062530517578125,-0.00053725106
813.1999999995891,0.022583641,-1.2246336,0.5292103,-2.3348572,-0.12134866,2.0572724,1.254026,0.039998617,0.04,-4.809137,-2.08990216255188,8.287992,0.003479882,-0.06036577746272087,-0.00050442846
813.2166666662557,0.022602426,-1.2250117,0.5296626,-2.334839,-0.121452786,2.0576885,1.2544266,0.039998617,0.04,-4.801792,-2.0896670818328857,8.292371,0.0034794116,-0.0582328662276268,-0.00047414907
813.2333333329224,0.022620436,-1.2253743,0.5300964,-2.3348212,-0.12155271,2.0580878,1.2548106,0.03999862,0.04,-4.794999,-2.0893044471740723,8.296565,0.0034779774,-0.05613663047552109,-0.00044500333
813.249999999589,0.022637688,-1.2257217,0.53051233,-2.3348033,-0.12164842,2.0584702,1.2551788,0.03999862,0.04,-4.7883377,-2.0889594554901123,8.300482,0.0034782654,-0.054071757942438126,-0.0004200968
813.2666666662557,0.022654204,-1.2260547,0.5309107,-2.3347855,-0.12174007,2.0588365,1.2555314,0.039998624,0.04,-4.7820096,-2.0886054039001465,8.304244,0.0034787427,-0.052041810005903244,-0.00039797975
813.2833333329223,0.022669982,-1.226373,0.5312914,-2.3347688,-0.1218277,2.0591865,1.2558684,0.039998636,0.04,-4.775872,-2.0882344245910645,8.307823,0.0034791648,-0.050043411552906036,-0.0003788456
813.299999999589,0.022685044,-1.2266772,0.531655,-2.3347528,-0.1219114,2.059521,1.2561901,0.039998636,0.04,-4.770276,-2.087820529937744,8.311283,0.0034804288,-0.04808541014790535,-0.0003622325
813.3166666662556,0.022699399,-1.2269672,0.532002,-2.3347378,-0.12199125,2.05984,1.2564971,0.039998636,0.04,-4.764858,-2.0873773097991943,8.31455,0.0034827606,-0.04616331681609154,-0.00034663637
813.3333333329223,0.022713061,-1.2272434,0.5323326,-2.334724,-0.1220673,2.060144,1.2567894,0.03999864,0.04,-4.759817,-2.086972236633301,8.317673,0.0034851101,-0.04428340122103691,-0.00033286528
813.3499999995889,0.022726048,-1.2275064,0.532647,-2.334711,-0.122139655,2.0604331,1.2570678,0.03999864,0.04,-4.7551026,-2.086536407470703,8.320641,0.0034900282,-0.04244718328118324,-0.00031972176
813.3666666662556,0.022738373,-1.2277564,0.5329457,-2.3346992,-0.12220841,2.0607078,1.2573324,0.039998643,0.04,-4.7505355,-2.086045980453491,8.323417,0.003493243,-0.040650397539138794,-0.00030695295
813.3833333329222,0.022750046,-1.2279935,0.5332289,-2.334688,-0.122273624,2.0609682,1.257583,0.039998643,0.04,-4.746336,-2.085552215576172,8.326066,0.0034953572,-0.038898371160030365,-0.00029548508
813.3999999995889,0.022761092,-1.228218,0.5334971,-2.334677,-0.12233537,2.061215,1.2578206,0.039998647,0.04,-4.742397,-2.0850412845611572,8.328543,0.0035000918,-0.03719183802604675,-0.00028355603
813.4166666662555,0.022771522,-1.2284302,0.53375083,-2.334666,-0.12239375,2.0614486,1.258045,0.03999865,0.04,-4.7385945,-2.084538459777832,8.330814,0.0035029885,-0.035527195781469345,-0.000274567
813.4333333329222,0.02278136,-1.2286304,0.53399044,-2.334655,-0.12244888,2.0616686,1.2582569,0.03999865,0.04,-4.735055,-2.084040403366089,8.332965,0.0035083517,-0.03390522301197052,-0.00026786196
813.4499999995888,0.022790624,-1.2288191,0.5342161,-2.334644,-0.12250083,2.0618765,1.2584566,0.039998654,0.04,-4.731846,-2.083437919616699,8.334953,0.0035127264,-0.0323299877345562,-0.00026232042
813.4666666662555,0.022799322,-1.2289966,0.5344284,-2.3346343,-0.12254973,2.0620718,1.2586446,0.039998654,0.04,-4.7286844,-2.082940101623535,8.336835,0.0035169479,-0.030798345804214478,-0.00026066406
813.4833333329221,0.022807471,-1.2291635,0.534628,-2.3346252,-0.12259562,2.062255,1.258821,0.039998654,0.04,-4.7260494,-2.082359790802002,8.338659,0.0035207784,-0.02932075411081314,-0.00025768936
813.4999999995888,0.022815093,-1.22932,0.5348149,-2.3346167,-0.12263865,2.062427,1.2589864,0.039998658,0.04,-4.723513,-2.0817792415618896,8.340319,0.0035259172,-0.027892788872122765,-0.00025374998
813.5166666662554,0.022822212,-1.2294666,0.5349897,-2.334609,-0.12267887,2.0625877,1.2591412,0.039998658,0.04,-4.7211857,-2.0811710357666016,8.341824,0.003530353,-0.026513146236538887,-0.00025174965
813.5333333329221,0.022828838,-1.229603,0.53515303,-2.334602,-0.1227164,2.062738,1.2592858,0.03999866,0.04,-4.719161,-2.0805246829986572,8.343267,0.00353412,-0.02518961764872074,-0.00024866482
813.5499999995887,0.022834996,-1.2297308,0.53530514,-2.3345962,-0.122751385,2.0628777,1.2594204,0.039998665,0.04,-4.717353,-2.0799148082733154,8.344561,0.0035380546,-0.023921336978673935,-0.0002459572
813.5666666662554,0.022840703,-1.229849,0.5354466,-2.334591,-0.122783884,2.0630078,1.2595454,0.039998665,0.04,-4.715658,-2.079235553741455,8.345785,0.003542655,-0.022707510739564896,-0.0002430213
813.583333332922,0.022845987,-1.2299588,0.53557795,-2.3345864,-0.12281405,2.0631292,1.2596616,0.03999867,0.04,-4.714291,-2.078589916229248,8.346845,0.0035476568,-0.021552259102463722,-0.0002402782
813.5999999995887,0.022850864,-1.2300607,0.5356997,-2.3345828,-0.12284202,2.0632417,1.2597691,0.03999867,0.04,-4.7130246,-2.0779316425323486,8.3478365,0.0035535428,-0.020453723147511482,-0.00023986299
813.6166666662554,0.022855343,-1.230155,0.5358122,-2.3345792,-0.12286787,2.0633454,1.2598684,0.03999867,0.04,-4.711938,-2.077227830886841,8.3487425,0.0035588853,-0.019413186237215996,-0.00023782888
813.633333332922,0.022859465,-1.230242,0.535916,-2.334576,-0.12289173,2.063441,1.2599602,0.03999867,0.04,-4.710961,-2.07649564743042,8.349523,0.0035641275,-0.018432985991239548,-0.0002341396
813.6499999995887,0.022863248,-1.2303221,0.53601176,-2.3345726,-0.12291374,2.0635295,1.2600448,0.03999867,0.04,-4.71014,-2.0757741928100586,8.350193,0.003568263,-0.017511896789073944,-0.00023244099
813.6666666662553,0.022866707,-1.2303964,0.5361001,-2.3345692,-0.122934006,2.0636117,1.260123,0.039998677,0.04,-4.7094545,-2.0750536918640137,8.350791,0.0035724165,-0.016649745404720306,-0.00023085416
813.683333332922,0.02286987,-1.2304645,0.53618103,-2.3345659,-0.12295265,2.0636878,1.2601948,0.039998677,0.04,-4.7088447,-2.0743134021759033,8.35132,0.0035752202,-0.015844222158193588,-0.00023225027
813.6999999995886,0.022872763,-1.2305273,0.53625554,-2.3345625,-0.12296977,2.0637565,1.2602609,0.039998673,0.04,-4.7084813,-2.073488235473633,8.3517475,0.0035772382,-0.015101042576134205,-0.00023511142
813.7166666662553,0.022875404,-1.2305844,0.53632426,-2.3345592,-0.122985534,2.0638177,1.2603216,0.039998673,0.04,-4.708083,-2.072786331176758,8.352226,0.0035781818,-0.014420529827475548,-0.00023452882
813.7333333329219,0.022877818,-1.2306376,0.53638726,-2.3345559,-0.12300005,2.063878,1.2603776,0.039998673,0.04,-4.7078753,-2.072150468826294,8.35265,0.00358134,-0.013804369606077671,-0.0002314547
813.7499999995886,0.022880021,-1.2306867,0.53644484,-2.3345525,-0.123013414,2.0639315,1.2604291,0.039998677,0.04,-4.707368,-2.0715460777282715,8.352912,0.0035815372,-0.013217470608651638,-0.00023728365
813.7666666662552,0.022882033,-1.2307318,0.53649825,-2.3345492,-0.12302567,2.0639775,1.2604765,0.03999868,0.04,-4.707116,-2.070904493331909,8.353286,0.0035798987,-0.012684283778071404,-0.00023792815
813.7833333329219,0.022883875,-1.2307734,0.5365477,-2.3345459,-0.12303694,2.064023,1.26052,0.03999868,0.04,-4.706931,-2.0704174041748047,8.353688,0.0035802845,-0.012205083854496479,-0.0002322196
813.7999999995885,0.02288556,-1.2308112,0.53659326,-2.334543,-0.1230473,2.0640614,1.2605599,0.039998684,0.04,-4.7065816,-2.070033550262451,8.353897,0.0035821307,-0.011749613098800182,-0.00023461743
813.8166666662552,0.022887094,-1.2308455,0.536635,-2.3345404,-0.123056844,2.0640996,1.2605966,0.039998684,0.04,-4.7065773,-2.069571018218994,8.354254,0.0035848827,-0.011348176747560501,-0.00022953968
813.8333333329218,0.022888495,-1.2308779,0.53667307,-2.3345377,-0.1230656,2.0641372,1.2606308,0.039998684,0.04,-4.7063904,-2.0691990852355957,8.354402,0.0035874,-0.010969561524689198,-0.00022994053
813.8499999995885,0.022889774,-1.2309079,0.5367083,-2.3345354,-0.12307366,2.0641677,1.260662,0.039998684,0.04,-4.7060003,-2.068791627883911,8.354569,0.0035852052,-0.010606255382299423,-0.00023694852
813.8666666662551,0.022890938,-1.2309345,0.5367406,-2.3345332,-0.12308109,2.064198,1.2606906,0.039998684,0.04,-4.705945,-2.0684218406677246,8.354903,0.0035854927,-0.010287946090102196,-0.00023442552
813.8833333329218,0.022892004,-1.2309602,0.5367706,-2.3345313,-0.12308793,2.0642273,1.260717,0.039998688,0.04,-4.7058735,-2.068150520324707,8.355018,0.0035864688,-0.009991014376282692,-0.0002371022
813.8999999995884,0.02289298,-1.2309828,0.536798,-2.3345294,-0.123094216,2.0642502,1.2607414,0.039998688,0.04,-4.7055445,-2.0678772926330566,8.355214,0.0035865556,-0.009706197306513786,-0.00024168647
813.9166666662551,0.02289387,-1.2310046,0.5368232,-2.3345277,-0.12310001,2.0642729,1.2607638,0.039998688,0.04,-4.705667,-2.0675668716430664,8.355441,0.0035872306,-0.009465621784329414,-0.00023820104
813.9333333329217,0.022894686,-1.2310236,0.5368464,-2.334526,-0.12310534,2.0642955,1.2607843,0.039998688,0.04,-4.705392,-2.0673139095306396,8.355572,0.0035864345,-0.009233122691512108,-0.00023768029
813.9499999995884,0.022895422,-1.231042,0.53686774,-2.3345246,-0.12311024,2.064317,1.2608031,0.03999869,0.04,-4.705365,-2.067131996154785,8.355636,0.0035873272,-0.009016088210046291,-0.00024076666
813.966666666255,0.022896098,-1.2310587,0.5368873,-2.3345232,-0.12311472,2.0643322,1.2608205,0.039998688,0.04,-4.7051277,-2.066913604736328,8.355794,0.0035872022,-0.008809912018477917,-0.00024518743
813.9833333329217,0.02289671,-1.2310736,0.53690535,-2.334522,-0.12311888,2.0643475,1.2608365,0.03999869,0.04,-4.705191,-2.0666656494140625,8.356008,0.0035866152,-0.00863951351493597,-0.00024024239
813.9999999995883,0.022897271,-1.231088,0.5369222,-2.334521,-0.12312267,2.0643625,1.2608513,0.039998688,0.04,-4.7051578,-2.0665345191955566,8.356073,0.0035871645,-0.008480272255837917,-0.00023811564
814.016666666255,0.022897787,-1.2311013,0.5369376,-2.3345203,-0.123126164,2.0643775,1.2608649,0.039998688,0.04,-4.7049837,-2.0664021968841553,8.356183,0.0035876222,-0.008326932787895203,-0.00023747612
814.0333333329216,0.022898253,-1.2311124,0.53695154,-2.3345199,-0.12312941,2.0643923,1.2608773,0.039998688,0.04,-4.704912,-2.06624698638916,8.356251,0.0035876147,-0.00818230677396059,-0.00024018905
814.0499999995883,0.022898674,-1.2311233,0.5369647,-2.3345194,-0.1231324,2.0644054,1.2608886,0.039998688,0.04,-4.7049704,-2.0661211013793945,8.356295,0.0035885172,-0.00805085338652134,-0.0002440328
814.066666666255,0.022899067,-1.2311337,0.5369766,-2.334519,-0.123135164,2.0644166,1.2608994,0.039998688,0.04,-4.704818,-2.066011667251587,8.356417,0.0035903642,-0.007927872240543365,-0.0002459525
814.0833333329216,0.022899425,-1.2311435,0.5369877,-2.3345184,-0.1231377,2.0644243,1.2609092,0.039998688,0.04,-4.704749,-2.06584095954895,8.3565035,0.0035886806,-0.00781702809035778,-0.00024599012
814.0999999995882,0.022899756,-1.2311519,0.53699774,-2.334518,-0.123140015,2.064432,1.2609181,0.039998688,0.04,-4.5283933,-1.9816807508468628,8.24277,0.0,-0.0,0.0
814.1166666662549,0.022899756,-1.2311519,0.53699774,-2.334518,-0.123140015,2.064432,1.2609181,0.039998688,0.04,-4.706256,-2.064544439315796,8.356131,0.0,-0.0,0.0
814.1333333329216,0.022899756,-1.2311519,0.53699774,-2.334518,-0.123140015,2.064432,1.2609181,0.039998688,0.04,-4.706256,-2.064544439315796,8.356131,0.0,-0.0,0.0
814.1499999995882,0.022899756,-1.2311519,0.53699774,-2.334518,-0.123140015,2.064432,1.2609181,0.039998688,0.04,-4.706256,-2.064544439315796,8.356131,0.0,-0.0,0.0
814.1666666662549,0.022899756,-1.2311519,0.53699774,-2.334518,-0.123140015,2.064432,1.2609181,0.039998688,0.04,-4.706256,-2.064544439315796,8.356131,0.0,-0.0,0.0
814.1833333329215,0.022899756,-1.2311519,0.53699774,-2.334518,-0.123140015,2.064432,1.2609181,0.039998688,0.04,-4.706256,-2.064544439315796,8.356131,0.0,-0.0,0.0
814.1999999995882,0.022899756,-1.2311519,0.53699774,-2.334518,-0.123140015,2.064432,1.2609181,0.039998688,0.04,-4.706256,-2.064544439315796,8.356131,0.0,-0.0,0.0
814.2166666662548,0.022899756,-1.2311519,0.53699774,-2.334518,-0.123140015,2.064432,1.2609181,0.039998688,0.04,-4.706256,-2.064544439315796,8.356131,0.0,-0.0,0.0
814.2333333329215,0.022899756,-1.2311519,0.53699774,-2.334518,-0.123140015,2.064432,1.2609181,0.039998688,0.04,-4.706256,-2.064544439315796,8.356131,0.0,-0.0,0.0
814.2499999995881,0.022899756,-1.2311519,0.53699774,-2.334518,-0.123140015,2.064432,1.2609181,0.039998688,0.04,-4.706256,-2.064544439315796,8.356131,0.0,-0.0,0.0
814.2666666662548,0.022899756,-1.2311519,0.53699774,-2.334518,-0.123140015,2.064432,1.2609181,0.039998688,0.04,-4.706256,-2.064544439315796,8.356131,0.0,-0.0,0.0
814.2833333329214,0.022899756,-1.2311519,0.53699774,-2.334518,-0.123140015,2.064432,1.2609181,0.039998688,0.04,-4.706256,-2.064544439315796,8.356131,0.0,-0.0,0.0
814.2999999995881,0.022899756,-1.2311519,0.53699774,-2.334518,-0.123140015,2.064432,1.2609181,0.039998688,0.04,-4.706256,-2.064544439315796,8.356131,0.0,-0.0,0.0
814.3166666662547,0.022899756,-1.2311519,0.53699774,-2.334518,-0.123140015,2.064432,1.2609181,0.039998688,0.04,-4.706256,-2.064544439315796,8.356131,0.0,-0.0,0.0
814.3333333329214,0.022899756,-1.2311519,0.53699774,-2.334518,-0.123140015,2.064432,1.2609181,0.039998688,0.04,-4.706256,-2.064544439315796,8.356131,0.0,-0.0,0.0
814.349999999588,0.022899756,-1.2311519,0.53699774,-2.334518,-0.123140015,2.064432,1.2609181,0.039998688,0.04,-4.706256,-2.064544439315796,8.356131,0.0,-0.0,0.0
814.3666666662547,0.022899756,-1.2311519,0.53699774,-2.334518,-0.123140015,2.064432,1.2609181,0.039998688,0.04,-4.706256,-2.064544439315796,8.356131,0.0,-0.0,0.0
814.3833333329213,0.022899756,-1.2311519,0.53699774,-2.334518,-0.123140015,2.064432,1.2609181,0.039998688,0.04,-4.706256,-2.064544439315796,8.356131,0.0,-0.0,0.0
814.399999999588,0.022899756,-1.2311519,0.53699774,-2.334518,-0.123140015,2.064432,1.2609181,0.039998688,0.04,-4.706256,-2.064544439315796,8.356131,0.0,-0.0,0.0
814.4166666662546,0.022899756,-1.2311519,0.53699774,-2.334518,-0.123140015,2.064432,1.2609181,0.039998688,0.04,-4.706256,-2.064544439315796,8.356131,0.0,-0.0,0.0
814.4333333329213,0.022899756,-1.2311519,0.53699774,-2.334518,-0.123140015,2.064432,1.2609181,0.039998688,0.04,-4.706256,-2.064544439315796,8.356131,0.0,-0.0,0.0
814.4499999995879,0.022899756,-1.2311519,0.53699774,-2.334518,-0.123140015,2.064432,1.2609181,0.039998688,0.04,-4.706256,-2.064544439315796,8.356131,0.0,-0.0,0.0
814.4666666662546,0.022899756,-1.2311519,0.53699774,-2.334518,-0.123140015,2.064432,1.2609181,0.039998688,0.04,-4.706256,-2.064544439315796,8.356131,0.0,-0.0,0.0
814.4833333329212,0.022899756,-1.2311519,0.53699774,-2.334518,-0.123140015,2.064432,1.2609181,0.039998688,0.04,-4.706256,-2.064544439315796,8.356131,0.0,-0.0,0.0
814.4999999995879,0.022899756,-1.2311519,0.53699774,-2.334518,-0.123140015,2.064432,1.2609181,0.039998688,0.04,-4.706256,-2.064544439315796,8.356131,0.0,-0.0,0.0
814.5166666662545,0.022899756,-1.2311519,0.53699774,-2.334518,-0.123140015,2.064432,1.2609181,0.039998688,0.04,-4.706256,-2.064544439315796,8.356131,0.0,-0.0,0.0
814.5333333329212,0.022899756,-1.2311519,0.53699774,-2.334518,-0.123140015,2.064432,1.2609181,0.039998688,0.04,-4.706256,-2.064544439315796,8.356131,0.0,-0.0,0.0
814.5499999995878,0.022899756,-1.2311519,0.53699774,-2.334518,-0.123140015,2.064432,1.2609181,0.039998688,0.04,-4.706256,-2.064544439315796,8.356131,0.0,-0.0,0.0
814.5666666662545,0.022899756,-1.2311519,0.53699774,-2.334518,-0.123140015,2.064432,1.2609181,0.039998688,0.04,-4.706256,-2.064544439315796,8.356131,0.0,-0.0,0.0
814.5833333329211,0.022899756,-1.2311519,0.53699774,-2.334518,-0.123140015,2.064432,1.2609181,0.039998688,0.04,-4.706256,-2.064544439315796,8.356131,0.0,-0.0,0.0
814.5999999995878,0.022899756,-1.2311519,0.53699774,-2.334518,-0.123140015,2.064432,1.2609181,0.039998688,0.04,-4.706256,-2.064544439315796,8.356131,0.0,-0.0,0.0
814.6166666662544,0.022899756,-1.2311519,0.53699774,-2.334518,-0.123140015,2.064432,1.2609181,0.039998688,0.04,-4.706256,-2.064544439315796,8.356131,0.0,-0.0,0.0
814.6333333329211,0.022899756,-1.2311519,0.53699774,-2.334518,-0.123140015,2.064432,1.2609181,0.039998688,0.04,-4.706256,-2.064544439315796,8.356131,0.0,-0.0,0.0
814.6499999995877,0.022899756,-1.2311519,0.53699774,-2.334518,-0.123140015,2.064432,1.2609181,0.039998688,0.04,-4.706256,-2.064544439315796,8.356131,0.0,-0.0,0.0
814.6666666662544,0.022899756,-1.2311519,0.53699774,-2.334518,-0.123140015,2.064432,1.2609181,0.039998688,0.04,-4.706256,-2.064544439315796,8.356131,0.0,-0.0,0.0
814.683333332921,0.022899756,-1.2311519,0.53699774,-2.334518,-0.123140015,2.064432,1.2609181,0.039998688,0.04,-4.706256,-2.064544439315796,8.356131,0.0,-0.0,0.0
814.6999999995877,0.022899756,-1.2311519,0.53699774,-2.334518,-0.123140015,2.064432,1.2609181,0.039998688,0.04,-4.706256,-2.064544439315796,8.356131,0.0,-0.0,0.0
814.7166666662544,0.022899756,-1.2311519,0.53699774,-2.334518,-0.123140015,2.064432,1.2609181,0.039998688,0.04,-4.706256,-2.064544439315796,8.356131,0.0,-0.0,0.0
814.733333332921,0.022899756,-1.2311519,0.53699774,-2.334518,-0.123140015,2.064432,1.2609181,0.039998688,0.04,-4.706256,-2.064544439315796,8.356131,0.0,-0.0,0.0
814.7499999995877,0.022899756,-1.2311519,0.53699774,-2.334518,-0.123140015,2.064432,1.2609181,0.039998688,0.04,-4.706256,-2.064544439315796,8.356131,0.0,-0.0,0.0
814.7666666662543,0.022899756,-1.2311519,0.53699774,-2.334518,-0.123140015,2.064432,1.2609181,0.039998688,0.04,-4.706256,-2.064544439315796,8.356131,0.0,-0.0,0.0
814.783333332921,0.022899756,-1.2311519,0.53699774,-2.334518,-0.123140015,2.064432,1.2609181,0.039998688,0.04,-4.706256,-2.064544439315796,8.356131,0.0,-0.0,0.0
814.7999999995876,0.022899756,-1.2311519,0.53699774,-2.334518,-0.123140015,2.064432,1.2609181,0.039998688,0.04,-4.706256,-2.064544439315796,8.356131,0.0,-0.0,0.0
814.8166666662543,0.022899756,-1.2311519,0.53699774,-2.334518,-0.123140015,2.064432,1.2609181,0.039998688,0.04,-4.706256,-2.064544439315796,8.356131,0.0,-0.0,0.0
814.8333333329209,0.022899756,-1.2311519,0.53699774,-2.334518,-0.123140015,2.064432,1.2609181,0.039998688,0.04,-4.706256,-2.064544439315796,8.356131,0.0,-0.0,0.0
814.8499999995876,0.022899756,-1.2311519,0.53699774,-2.334518,-0.123140015,2.064432,1.2609181,0.039998688,0.04,-4.706256,-2.064544439315796,8.356131,0.0,-0.0,0.0
814.8666666662542,0.022899756,-1.2311519,0.53699774,-2.334518,-0.123140015,2.064432,1.2609181,0.039998688,0.04,-4.706256,-2.064544439315796,8.356131,0.0,-0.0,0.0
814.8833333329209,0.022899756,-1.2311519,0.53699774,-2.334518,-0.123140015,2.064432,1.2609181,0.039998688,0.04,-4.706256,-2.064544439315796,8.356131,0.0,-0.0,0.0
814.8999999995875,0.022899756,-1.2311519,0.53699774,-2.334518,-0.123140015,2.064432,1.2609181,0.039998688,0.04,-4.706256,-2.064544439315796,8.356131,0.0,-0.0,0.0
814.9166666662542,0.022899756,-1.2311519,0.53699774,-2.334518,-0.123140015,2.064432,1.2609181,0.039998688,0.04,-4.706256,-2.064544439315796,8.356131,0.0,-0.0,0.0
814.9333333329208,0.022899756,-1.2311519,0.53699774,-2.334518,-0.123140015,2.064432,1.2609181,0.039998688,0.04,-4.706256,-2.064544439315796,8.356131,0.0,-0.0,0.0
814.9499999995875,0.022899756,-1.2311519,0.53699774,-2.334518,-0.123140015,2.064432,1.2609181,0.039998688,0.04,-4.706256,-2.064544439315796,8.356131,0.0,-0.0,0.0
814.9666666662541,0.022899756,-1.2311519,0.53699774,-2.334518,-0.123140015,2.064432,1.2609181,0.039998688,0.04,-4.706256,-2.064544439315796,8.356131,0.0,-0.0,0.0
814.9833333329208,0.022899756,-1.2311519,0.53699774,-2.334518,-0.123140015,2.064432,1.2609181,0.039998688,0.04,-4.706256,-2.064544439315796,8.356131,0.0,-0.0,0.0
814.9999999995874,0.022899756,-1.2311519,0.53699774,-2.334518,-0.123140015,2.064432,1.2609181,0.039998688,0.04,-4.706256,-2.064544439315796,8.356131,0.0,-0.0,0.0
815.0166666662541,0.022899756,-1.2311519,0.53699774,-2.334518,-0.123140015,2.064432,1.2609181,0.039998688,0.04,-4.706256,-2.064544439315796,8.356131,0.0,-0.0,0.0
815.0333333329207,0.022899756,-1.2311519,0.53699774,-2.334518,-0.123140015,2.064432,1.2609181,0.039998688,0.04,-4.706256,-2.064544439315796,8.356131,0.0,-0.0,0.0
815.0499999995874,0.022899756,-1.2311519,0.53699774,-2.334518,-0.123140015,2.064432,1.2609181,0.039998688,0.04,-4.706256,-2.064544439315796,8.356131,0.0,-0.0,0.0
815.066666666254,0.022899756,-1.2311519,0.53699774,-2.334518,-0.123140015,2.064432,1.2609181,0.039998688,0.04,-4.706256,-2.064544439315796,8.356131,0.0,-0.0,0.0
815.0833333329207,0.022899756,-1.2311519,0.53699774,-2.334518,-0.123140015,2.064432,1.2609181,0.039998688,0.04,-4.706256,-2.064544439315796,8.356131,0.0,-0.0,0.0
815.0999999995873,0.022899756,-1.2311519,0.53699774,-2.334518,-0.123140015,2.064432,1.2609181,0.039998688,0.04,-4.706256,-2.064544439315796,8.356131,0.0,-0.0,0.0
815.116666666254,0.022899756,-1.2311519,0.53699774,-2.334518,-0.123140015,2.064432,1.2609181,0.039998688,0.04,-4.706256,-2.064544439315796,8.356131,0.0,-0.0,0.0
815.1333333329206,0.022899756,-1.2311519,0.53699774,-2.334518,-0.123140015,2.064432,1.2609181,0.039998688,0.04,-4.706256,-2.064544439315796,8.356131,0.0,-0.0,0.0
815.1499999995873,0.022899756,-1.2311519,0.53699774,-2.334518,-0.123140015,2.064432,1.2609181,0.039998688,0.04,-4.706256,-2.064544439315796,8.356131,0.0,-0.0,0.0
815.166666666254,0.022899756,-1.2311519,0.53699774,-2.334518,-0.123140015,2.064432,1.2609181,0.039998688,0.04,-4.706256,-2.064544439315796,8.356131,0.0,-0.0,0.0
815.1833333329206,0.022899756,-1.2311519,0.53699774,-2.334518,-0.123140015,2.064432,1.2609181,0.039998688,0.04,-4.706256,-2.064544439315796,8.356131,0.0,-0.0,0.0
815.1999999995872,0.022899756,-1.2311519,0.53699774,-2.334518,-0.123140015,2.064432,1.2609181,0.039998688,0.04,-4.706256,-2.064544439315796,8.356131,0.0,-0.0,0.0
815.2166666662539,0.022899756,-1.2311519,0.53699774,-2.334518,-0.123140015,2.064432,1.2609181,0.039998688,0.04,-4.706256,-2.064544439315796,8.356131,0.0,-0.0,0.0
815.2333333329206,0.022899756,-1.2311519,0.53699774,-2.334518,-0.123140015,2.064432,1.2609181,0.039998688,0.04,-4.706256,-2.064544439315796,8.356131,0.0,-0.0,0.0
815.2499999995872,0.022899756,-1.2311519,0.53699774,-2.334518,-0.123140015,2.064432,1.2609181,0.039998688,0.04,-4.706256,-2.064544439315796,8.356131,0.0,-0.0,0.0
815.2666666662539,0.022899756,-1.2311519,0.53699774,-2.334518,-0.123140015,2.064432,1.2609181,0.039998688,0.04,-4.706256,-2.064544439315796,8.356131,0.0,-0.0,0.0
815.2833333329205,0.022899756,-1.2311519,0.53699774,-2.334518,-0.123140015,2.064432,1.2609181,0.039998688,0.04,-4.706256,-2.064544439315796,8.356131,0.0,-0.0,0.0
815.2999999995872,0.022899756,-1.2311519,0.53699774,-2.334518,-0.123140015,2.064432,1.2609181,0.039998688,0.04,-4.706256,-2.064544439315796,8.356131,0.0,-0.0,0.0
815.3166666662538,0.022899756,-1.2311519,0.53699774,-2.334518,-0.123140015,2.064432,1.2609181,0.039998688,0.04,-4.706256,-2.064544439315796,8.356131,0.0,-0.0,0.0
815.3333333329205,0.022899756,-1.2311519,0.53699774,-2.334518,-0.123140015,2.064432,1.2609181,0.039998688,0.04,-4.706256,-2.064544439315796,8.356131,0.0,-0.0,0.0
815.3499999995871,0.022899756,-1.2311519,0.53699774,-2.334518,-0.123140015,2.064432,1.2609181,0.039998688,0.04,-4.706256,-2.064544439315796,8.356131,0.0,-0.0,0.0
815.3666666662538,0.022899756,-1.2311519,0.53699774,-2.334518,-0.123140015,2.064432,1.2609181,0.039998688,0.04,-4.706256,-2.064544439315796,8.356131,0.0,-0.0,0.0
815.3833333329204,0.022899756,-1.2311519,0.53699774,-2.334518,-0.123140015,2.064432,1.2609181,0.039998688,0.04,-4.706256,-2.064544439315796,8.356131,0.0,-0.0,0.0
815.3999999995871,0.022899756,-1.2311519,0.53699774,-2.334518,-0.123140015,2.064432,1.2609181,0.039998688,0.04,-4.706256,-2.064544439315796,8.356131,0.0,-0.0,0.0
815.4166666662537,0.022899756,-1.2311519,0.53699774,-2.334518,-0.123140015,2.064432,1.2609181,0.039998688,0.04,-4.706256,-2.064544439315796,8.356131,0.0,-0.0,0.0
815.4333333329204,0.022899756,-1.2311519,0.53699774,-2.334518,-0.123140015,2.064432,1.2609181,0.039998688,0.04,-4.706256,-2.064544439315796,8.356131,0.0,-0.0,0.0
815.449999999587,0.022899756,-1.2311519,0.53699774,-2.334518,-0.123140015,2.064432,1.2609181,0.039998688,0.04,-4.706256,-2.064544439315796,8.356131,0.0,-0.0,0.0
815.4666666662537,0.022899756,-1.2311519,0.53699774,-2.334518,-0.123140015,2.064432,1.2609181,0.039998688,0.04,-4.706256,-2.064544439315796,8.356131,0.0,-0.0,0.0
815.4833333329203,0.022899756,-1.2311519,0.53699774,-2.334518,-0.123140015,2.064432,1.2609181,0.039998688,0.04,-4.706256,-2.064544439315796,8.356131,0.0,-0.0,0.0
815.499999999587,0.022899756,-1.2311519,0.53699774,-2.334518,-0.123140015,2.064432,1.2609181,0.039998688,0.04,-4.706256,-2.064544439315796,8.356131,0.0,-0.0,0.0
815.5166666662536,0.022899756,-1.2311519,0.53699774,-2.334518,-0.123140015,2.064432,1.2609181,0.039998688,0.04,-4.706256,-2.064544439315796,8.356131,0.0,-0.0,0.0
815.5333333329203,0.022899756,-1.2311519,0.53699774,-2.334518,-0.123140015,2.064432,1.2609181,0.039998688,0.04,-4.706256,-2.064544439315796,8.356131,0.0,-0.0,0.0
815.5499999995869,0.022899756,-1.2311519,0.53699774,-2.334518,-0.123140015,2.064432,1.2609181,0.039998688,0.04,-4.706256,-2.064544439315796,8.356131,0.0,-0.0,0.0
815.5666666662536,0.022899756,-1.2311519,0.53699774,-2.334518,-0.123140015,2.064432,1.2609181,0.039998688,0.04,-4.706256,-2.064544439315796,8.356131,0.0,-0.0,0.0
815.5833333329202,0.022899756,-1.2311519,0.53699774,-2.334518,-0.123140015,2.064432,1.2609181,0.039998688,0.04,-4.706256,-2.064544439315796,8.356131,0.0,-0.0,0.0
815.5999999995869,0.022899756,-1.2311519,0.53699774,-2.334518,-0.123140015,2.064432,1.2609181,0.039998688,0.04,-4.706256,-2.064544439315796,8.356131,0.0,-0.0,0.0
815.6166666662535,0.022899756,-1.2311519,0.53699774,-2.334518,-0.123140015,2.064432,1.2609181,0.039998688,0.04,-4.706256,-2.064544439315796,8.356131,0.0,-0.0,0.0
815.6333333329202,0.022899756,-1.2311519,0.53699774,-2.334518,-0.123140015,2.064432,1.2609181,0.039998688,0.04,-4.706256,-2.064544439315796,8.356131,0.0,-0.0,0.0
815.6499999995868,0.022899756,-1.2311519,0.53699774,-2.334518,-0.123140015,2.064432,1.2609181,0.039998688,0.04,-4.706256,-2.064544439315796,8.356131,0.0,-0.0,0.0
815.6666666662535,0.022899756,-1.2311519,0.53699774,-2.334518,-0.123140015,2.064432,1.2609181,0.039998688,0.04,-4.706256,-2.064544439315796,8.356131,0.0,-0.0,0.0
815.6833333329201,0.022899756,-1.2311519,0.53699774,-2.334518,-0.123140015,2.064432,1.2609181,0.039998688,0.04,-4.706256,-2.064544439315796,8.356131,0.0,-0.0,0.0
815.6999999995868,0.022899756,-1.2311519,0.53699774,-2.334518,-0.123140015,2.064432,1.2609181,0.039998688,0.04,-4.706256,-2.064544439315796,8.356131,0.0,-0.0,0.0
