rsonawane2002/My_IMU/logs_2/traj_339/clean_339.csv
time,j1,j2,j3,j4,j5,j6,j7,gripper1,gripper2,imu_ax,imu_ay,imu_az,imu_gx,imu_gy,imu_gz,quat_x,quat_y,quat_z,quat_w
973.4333333327767,0.00016700293,-0.785875,4.0107683e-05,-2.3551247,9.29385e-05,1.570997,0.786,0.04,0.04,0.0,-0.0,0.0,2.875329272945135e-08,-0.0011641195053377316,4.421952117202833e-08,0.9999995971961153,0.00020320632366974898,0.0008736418299892524,3.263050917662294e-05
973.4499999994433,0.00016701521,-0.78576016,4.01172e-05,-2.3552213,9.298301e-05,1.5709941,0.786,0.04,0.04,-0.29199845980574235,-5.5485794508687656e-05,0.020128403480978996,-9.125365003151035e-08,-0.002237034159235666,4.992753457468781e-07,0.9999996850598075,0.0002032015594212062,0.0007665025171516138,3.260833296607615e-05
973.46666666611,0.00016709325,-0.7856541,4.014434e-05,-2.35531,9.308694e-05,1.5709913,0.786,0.04,0.04,0.023131101287576783,-0.00013801411676435914,-0.0015688908076683106,-7.322914035982594e-07,-0.003219243331320589,3.3955532626886266e-06,0.9999997559148543,0.00020315728758157393,0.0006677078325114967,3.261285784394796e-05
973.4833333327766,0.00016734739,-0.7855565,4.0219304e-05,-2.355391,9.335473e-05,1.5709884,0.786,0.04,0.04,0.022263115931386857,-0.00037351268754786467,-0.001423538507472344,-1.8030138088158287e-06,-0.004112424711465779,1.0967599976687456e-05,0.9999998124356808,0.00020300766080410472,0.0005769299343226799,3.2685528134412766e-05
973.4999999994433,0.00016793716,-0.78546613,4.0385643e-05,-2.3554652,9.39427e-05,1.5709856,0.786,0.04,0.039999995,0.019794302838627154,-0.0007178571919286552,-0.0010872041515064268,-3.3899871522853405e-06,-0.004912875397128484,2.599805220094596e-05,0.9999998572788376,0.00020265753683647596,0.0004932449242090557,3.288878497276052e-05
973.5166666661099,0.00016906667,-0.7853824,4.0699215e-05,-2.355532,9.5019386e-05,1.5709827,0.7860019,0.04,0.04,0.01987888331265175,-0.001135192992758827,-0.0004913697892572344,-4.962231151888738e-06,-0.0056240100976607844,4.7974682231676566e-05,0.9999998920913808,0.00020293879647985543,0.0004165633343272423,3.3287533083437177e-05
973.5333333327766,0.00017097953,-0.7853044,4.1226474e-05,-2.355596,9.6817974e-05,1.5709797,0.7860038,0.04,0.04,0.010813381927077259,-0.0016562055054939416,-0.002230006664927231,-1.472865980558068e-05,-0.006241526669413069,8.08969617073951e-05,0.999999919692292,0.00020275263112043301,0.0003440241299984084,3.397320001565767e-05
973.5499999994432,0.0001739551,-0.7852316,4.2043655e-05,-2.3556542,9.9595185e-05,1.5709766,0.78600764,0.04,0.04,0.015761168744732323,-0.0022468993158128157,-0.0003593951388491945,-2.278588741501267e-05,-0.006784814479524087,0.00012542411431556842,0.9999999404487167,0.00020288603601242532,0.00027696833224903703,3.5048002605796716e-05
973.5666666661099,0.00017830443,-0.78516275,4.3235457e-05,-2.3557057,0.00010362991,1.5709729,0.7860118,0.04,0.04,0.015572924246143316,-0.002898834979107108,0.00025405713492965276,-3.7340182681244065e-05,-0.007235829474750899,0.00018203149020312216,0.9999999557493743,0.000202378704809137,0.00021494887290125826,3.662091158678294e-05
973.5833333327765,0.00018436657,-0.7850975,4.4894372e-05,-2.3557558,0.00010924234,1.5709662,0.78601795,0.04,0.04,0.005441441626685695,-0.0036204612145426004,-0.003629557757345303,-4.935430580070934e-05,-0.007595524142671718,0.00025436216495914156,0.9999999670291319,0.0002018332903491851,0.00015394233401466959,3.881772756185592e-05
973.5999999994432,0.00019250592,-0.78503466,4.711978e-05,-2.3557994,0.000116752366,1.5709594,0.786027,0.04,0.04,0.013605375450853607,-0.0043803181325896,0.0013893204858561603,-6.492559574000059e-05,-0.00789237955837313,0.0003401468496363202,0.9999999740896421,0.00020150927568762092,9.731626821516491e-05,4.176446906987634e-05
973.6166666661098,0.0002031087,-0.78497356,5.0016915e-05,-2.3558419,0.00012651998,1.5709513,0.78603846,0.039999995,0.04,0.0035230735648816847,-0.005198968022829389,-0.001440962582055505,-8.69322250776623e-05,-0.008092753531216508,0.0004427539598235987,0.9999999779172417,0.0002009084118324647,4.149428917101322e-05,4.560208422158347e-05
973.6333333327765,0.00021658065,-0.7849136,5.369644e-05,-2.35588,0.0001389123,1.5709407,0.7860529,0.03999999,0.04,0.007753511962871329,-0.0060521678572926325,-0.000601182990989102,-0.00011148349021561648,-0.008224105556513376,0.0005612973253627203,0.9999999786259973,0.00020008672261815366,-1.2868110567389452e-05,5.0474946698567234e-05
973.6499999994431,0.00023334424,-0.78485394,5.8273512e-05,-2.3559153,0.00015431664,1.5709267,0.7860707,0.039999988,0.039999995,0.004098447214206935,-0.006943568861614009,-0.0014795451352078715,-0.0001389038933768509,-0.008274434679863305,0.0006981685233008361,0.9999999763311354,0.00019900104534646066,-6.73804524913748e-05,5.653483266527366e-05
973.6666666661098,0.0002538363,-0.78479356,6.386716e-05,-2.3559496,0.00017313044,1.5709119,0.7860925,0.039999984,0.03999999,0.0006061769748155754,-0.007863464987196641,0.0002816771631941606,-0.00016935261619900957,-0.008253080229964647,0.000853103601585693,0.9999999709572986,0.0001976892566058435,-0.00012213239578073222,6.393776287316726e-05
973.6833333327764,0.0002785064,-0.7847321,7.059998e-05,-2.3559792,0.00019576304,1.5708935,0.78611875,0.039999977,0.039999988,0.005786794685835872,-0.008810676173319367,6.318658916093511e-05,-0.00020397840239000983,-0.008158979658238096,0.0010257433274229416,0.9999999624870907,0.00019609174804272928,-0.0001768262298364243,7.284454597986835e-05
973.6999999994431,0.0003078144,-0.78466874,7.8597266e-05,-2.3560069,0.00022263419,1.5708715,0.78615004,0.03999997,0.03999998,-3.403818367164746e-05,-0.009779392762969397,-0.0008384256405147283,-0.00024182223167181958,-0.007981414489427836,0.0012182174005399109,0.9999999504209833,0.00019426244603689227,-0.00023336970466189232,8.341890705536743e-05
973.7166666661097,0.00034222886,-0.7846025,8.7986846e-05,-2.3560336,0.00025417,1.5708456,0.78618675,0.039999958,0.039999973,-0.002745433009931908,-0.010765819490648467,-0.0008184119985710225,-0.0002843092727224717,-0.0077339641654617375,0.0014291494625265982,0.9999999340981242,0.00019210098901132974,-0.00029277658721053466,9.582707095804776e-05
973.7333333327764,0.00038222564,-0.7845331,9.889843e-05,-2.3560584,0.00029080483,1.5708159,0.7862293,0.03999995,0.039999966,-0.0015195734216932877,-0.011769100063000826,-0.000191012046579786,-0.0003308195088811104,-0.0074233167138471985,0.0016605358824462863,0.9999999130388074,0.00018953237897312996,-0.0003547494597268794,0.00011023917641534374
973.749999999443,0.00042828615,-0.7844594,0.000111463334,-2.3560803,0.00033297643,1.5707822,0.78627825,0.039999947,0.03999996,-0.0010940108419177363,-0.012783235440996491,0.0006292102043392589,-0.0003806446147721974,-0.007039202189566161,0.0019117150850405237,0.9999998865952248,0.00018653788276620786,-0.00041943808156268115,0.00012682606842590724
973.7666666661097,0.00048089595,-0.7843813,0.00012581378,-2.3561003,0.00038112706,1.5707442,0.7863341,0.039999947,0.039999966,-0.0030521533066929507,-0.013805709132075008,0.00015297924447210676,-0.00043434039325007624,-0.006580729049499891,0.0021819710495167696,0.9999998537581583,0.0001830965074672401,-0.0004875586181767223,0.00014575981875677304
973.7833333327764,0.0005405439,-0.7842976,0.00014208302,-2.3561199,0.0004357027,1.5707014,0.7863974,0.039999947,0.039999966,-0.006817562914007702,-0.01483561487859483,-0.0002456679363938008,-0.0004915524415422864,-0.0060503775130990745,0.00247309525214254,0.9999998128287221,0.00017918543757436476,-0.0005606022828050595,0.00016721297808054166
973.799999999443,0.0006077204,-0.7842079,0.00016040502,-2.3561392,0.00049714907,1.5706528,0.78646874,0.039999947,0.03999997,-0.008049058508907692,-0.015867971235065854,-0.000802695900548045,-0.0005529558271341935,-0.005456201519298888,0.0027834052836119005,0.9999997619924885,0.00017481043980609884,-0.0006394048573370996,0.00019135753154154243
973.8166666661097,0.00068291684,-0.78411126,0.00018091364,-2.3561578,0.0005659149,1.570599,0.7865485,0.039999947,0.03999997,-0.008112158855055895,-0.016904455506694577,0.00017399369884874005,-0.0006185883593434706,-0.004803016019145649,0.003114604389281592,0.9999996996456696,0.000169857775231744,-0.000723997683713938,0.00021836726083221774
973.8333333327763,0.00076662446,-0.78400743,0.000203743,-2.3561747,0.0006424466,1.5705386,0.7866373,0.03999995,0.039999977,-0.007158122860251304,-0.017939115327528614,-3.9164186094176046e-05,-0.0006876291008255349,-0.004086425833910626,0.0034649056063882785,0.9999996238582645,0.00016436236271251216,-0.0008145912188736685,0.0002484139482646923
973.849999999443,0.0008593338,-0.7838954,0.00022902664,-2.3561902,0.0007271916,1.5704724,0.7867357,0.039999958,0.039999988,-0.008529972108650696,-0.018973564749778498,0.000768660130545662,-0.0007608170370123233,-0.0033038630046085963,0.0038350491073881237,0.9999995323170228,0.00015830054504639422,-0.0009115750327695667,0.000281669368010411
973.8666666661096,0.0009615331,-0.78377515,0.0002568977,-2.3562047,0.00082059455,1.570399,0.78684413,0.039999958,0.03999999,-0.00960926513040583,-0.020001558438439895,-0.00029474849740918074,-0.00083829169364896,-0.0024560790963065893,0.0042248891040291715,0.9999994220318368,0.0001515901093121714,-0.0010156966456328854,0.00031830292993280276
973.8833333327763,0.0010737084,-0.78364545,0.00028748898,-2.3562188,0.00092309853,1.5703188,0.7869631,0.039999958,0.039999995,-0.011827144298526271,-0.021026744150933484,0.00030179026997423364,-0.000919324402012445,-0.0015464924911622775,0.004634221335846174,0.9999992893876846,0.00014421018310766543,-0.0011277933749360973,0.00035848242973940105
973.8999999994429,0.001196343,-0.7835061,0.00032093207,-2.3562322,0.0010351436,1.5702312,0.7870932,0.039999958,0.039999995,-0.011765916670158916,-0.022045032207887363,0.00013455708347542839,-0.0010039649581629678,-0.000577736073932392,0.005063678430268379,0.9999991309275601,0.00013617108269440228,-0.0012480771165709482,0.0004023742934362464
973.9166666661096,0.0013299151,-0.7833564,0.00035735773,-2.3562448,0.0011571654,1.5701357,0.7872348,0.039999954,0.039999995,-0.012635973811292445,-0.023053553276589506,0.00012602820826934646,-0.0010930301677736145,0.0004512490811319457,0.0055112838287166375,0.9999989423515541,0.00012733710158186682,-0.001377117784157993,0.0004501418047679522
973.9333333327762,0.0014749003,-0.7831955,0.0003968955,-2.356257,0.0012895968,1.5700321,0.7873885,0.03999995,0.039999995,-0.014164433995911274,-0.02405588238744082,0.0003522402693523219,-0.0011851182367507967,0.0015389783461846667,0.005977588184059,0.9999987185134293,0.00011778327248159205,-0.0015156348768221677,0.0005019457340223516
973.9499999994429,0.0016317683,-0.78302306,0.00043967343,-2.356269,0.0014328664,1.5699198,0.7875548,0.039999943,0.03999999,-0.015013803413710392,-0.02504610716825551,-9.529920732553876e-05,-0.0012812685874968935,0.002681183570708934,0.006462266145813275,0.9999984538461416,0.00010743882795104726,-0.0016641695476180011,0.0005579443888858916
973.9666666661095,0.0018009837,-0.7828387,0.0004858183,-2.3562808,0.001587398,1.569799,0.78773415,0.039999943,0.03999999,-0.015834946906911895,-0.02602612777227906,8.782712836996609e-05,-0.0013808014081967013,0.0038780564667208438,0.0069658162620772485,0.9999981425654703,9.626622647705184e-05,-0.0018229953080352074,0.0006182932395516184
973.9833333327762,0.0019830053,-0.78264177,0.0005354557,-2.3562927,0.0017536083,1.5696689,0.78792703,0.03999994,0.03999999,-0.01673885596651381,-0.02699328559723933,-2.4727937297797098e-05,-0.0014841490357435441,0.005130107497456214,0.007485190221983989,0.9999977775939375,8.423105671006222e-05,-0.001992743901824837,0.0006831427792001116
973.9999999994428,0.002178285,-0.78243166,0.0005887087,-2.3563046,0.001931912,1.5695298,0.7881339,0.039999936,0.04,-0.01735134239129188,-0.027948914098318428,0.0003586676429856439,-0.0015906354055100803,0.006434117433655428,0.008021935089941696,0.9999973518193698,7.130367288559736e-05,-0.0021736602970365937,0.0007526426423789024
974.0166666661095,0.0023872715,-0.78220785,0.0006456993,-2.3563166,0.0021227235,1.5693805,0.7883554,0.039999932,0.039999995,-0.01827083240681926,-0.02889830281711291,-0.00018602255056343608,-0.0017005999013825594,0.007790678975664659,0.008577049382685942,0.9999968561317951,5.751559744779675e-05,-0.002366556452673296,0.0008269395614757124
974.0333333327761,0.0026104036,-0.78197,0.0007065476,-2.3563285,0.002326425,1.5692211,0.7885918,0.039999932,0.04,-0.018589005896973987,-0.02981146847393954,-6.855884280287938e-05,-0.0018143835643526837,0.009196540659541735,0.00914680306532532,0.9999962819756909,4.275538361902355e-05,-0.0025715892591140835,0.0009061652464841086
974.0499999994428,0.0028481137,-0.78171754,0.00077137153,-2.3563404,0.0025434317,1.5690516,0.7888436,0.039999925,0.039999995,-0.019301663112614165,-0.030740815525901605,0.00024488825187685137,-0.0019309592424408151,0.010652772101354758,0.009734051989572813,0.999995619587558,2.700521892481671e-05,-0.0027890953142148335,0.0009904664266965923
974.0666666661094,0.0031008273,-0.7814499,0.00084028736,-2.3563523,0.0027741082,1.5688715,0.7891113,0.039999917,0.03999999,-0.019964782731030084,-0.03162153472608797,9.64294058602988e-05,-0.0020505729861546324,0.012158665353431056,0.010335733775225163,0.9999948578997224,1.0310778322678281e-05,-0.0030195610369000824,0.0010799624745150742
974.0833333327761,0.0033689628,-0.7811668,0.0009134094,-2.3563643,0.0030188495,1.5686804,0.78939533,0.03999991,0.039999984,-0.02045732647042442,-0.032514806612856696,-3.564193260530146e-05,-0.002173901892159654,0.013714082378658132,0.010953215585880319,0.9999939851503878,-7.426769818322718e-06,-0.003263354406007301,0.0011747876020803628
974.0999999994427,0.0036529305,-0.7808674,0.0009908493,-2.3563764,0.0032780275,1.5684781,0.7896961,0.039999902,0.039999984,-0.0217767397446611,-0.033379542259533365,4.0397333278541225e-05,-0.002300119595961079,0.015316167409138926,0.01158315578847743,0.9999929876234429,-2.6211404338493033e-05,-0.003521112572337209,0.0012750620204039329
974.1166666661094,0.003953133,-0.7805515,0.0010727171,-2.3563888,0.0035520112,1.5682639,0.7900141,0.039999895,0.03999998,-0.02224566450987897,-0.034229625925373715,-0.000438563069060649,-0.002429424819515611,0.016964548929309792,0.012227612820109363,0.9999918508041542,-4.6043073017302876e-05,-0.003793324624949853,0.0013809031853254765
974.133333332776,0.0042699655,-0.7802188,0.0011591206,-2.3564017,0.0038411587,1.568038,0.7903496,0.039999895,0.039999984,-0.022885925634796855,-0.03506338557523678,-0.0002868288948354447,-0.002561495405636341,0.01865598536129644,0.012885061265777563,0.9999905602238212,-6.700605100386834e-05,-0.004080152675401369,0.0014924233925808384
974.1499999994427,0.004603815,-0.7798687,0.0012501656,-2.356415,0.0041458244,1.5678,0.7907031,0.039999887,0.03999998,-0.023569660430178274,-0.035881501737288456,-0.00034513718782935854,-0.0026963987084797567,0.020391423021967843,0.01355517567444782,0.9999890991409157,-8.909002915758423e-05,-0.004382057986438975,0.0016097298252090708
974.1666666661093,0.004955057,-0.77950084,0.0013459551,-2.3564286,0.0044663507,1.5675498,0.79107505,0.039999884,0.039999984,-0.02374483774503222,-0.036677315417520985,-0.0002453404267743764,-0.002833832832153625,0.02216900032957873,0.014236227703370078,0.9999874504196677,-0.000112308472372307,-0.004699294205727271,0.0017329235261328393
974.183333332776,0.0053240657,-0.77911466,0.0014465904,-2.3564427,0.004803075,1.5672866,0.7914658,0.039999884,0.039999988,-0.024873712977724338,-0.03746123625747531,-0.0007287713075010416,-0.0029739172474388537,0.023990723914983744,0.01492933127715267,0.9999855933563018,-0.0001366726410173043,-0.0050325928957586875,0.0018620980585601521
974.1999999994426,0.0057111997,-0.77871007,0.0015521696,-2.3564575,0.005156336,1.5670106,0.7918758,0.039999884,0.04,-0.025309536647877273,-0.038227645443469904,-0.0007065106547798905,-0.003117004679945315,0.025850523379544955,0.01563044376881321,0.9999835088748508,-0.00016221430942020557,-0.0053820310697935605,0.0019973498499006362
974.2166666661093,0.006116813,-0.77828634,0.0016627895,-2.3564725,0.005526438,1.5667214,0.7923053,0.039999872,0.039999995,-0.0254128056176528,-0.038964794112255306,-0.0005652350483664748,-0.003262360947705722,0.02774980116599471,0.016343173540492226,0.9999811751690204,-0.00018896334914578954,-0.005747984811800061,0.0021387545536538342
974.2333333327759,0.006541249,-0.77784336,0.0017785442,-2.356488,0.005913705,1.5664188,0.79275465,0.039999865,0.039999988,-0.025992411731556864,-0.03969664487017757,-0.000915515756805263,-0.003410227340165474,0.029689274257963926,0.01706691501308413,0.9999785692470824,-0.00021697210418651717,-0.006130771786189585,0.0022863960658161767
974.2499999994426,0.0069848453,-0.77738076,0.0018995247,-2.3565042,0.0063184435,1.5661027,0.79322433,0.039999858,0.039999995,-0.026723332263056676,-0.040407959859159806,-0.0008740555481390189,-0.0035601308084452256,0.031666689915694914,0.01779588194517589,0.9999756670454445,-0.0002461989910641702,-0.006530651427037912,0.002440347314105101
974.2666666661092,0.007447926,-0.776898,0.002025821,-2.3565216,0.0067409496,1.5657728,0.7937146,0.039999854,0.03999999,-0.02827268612606293,-0.04109043615301011,-0.0013893914726725853,-0.003712598603564328,0.03368190355473112,0.01853595500871803,0.9999724391115241,-0.00027671374252532523,-0.006948450316942617,0.002600670114940731
974.2833333327759,0.0079308115,-0.77639484,0.00215752,-2.3565392,0.0071815164,1.5654285,0.7942258,0.039999846,0.04,-0.02706253046458329,-0.041772588579599285,-0.0012037216657434513,-0.003866720782269562,0.03573039062769046,0.019280797019794797,0.9999688605529754,-0.0003084969447640934,-0.007384042906311894,0.0027674291999790304
974.2999999994425,0.008433811,-0.7758711,0.002294706,-2.3565571,0.00764042,1.5650698,0.79475844,0.039999843,0.039999995,-0.027193269744785198,-0.042420780674429226,-0.0013885506936262004,-0.004023280341280962,0.037814652311959226,0.02003364549294858,0.9999649034998974,-0.0003415204333667517,-0.007837573110229716,0.0029406767888128416
974.3166666661092,0.008957225,-0.7753261,0.0024374614,-2.356575,0.00811794,1.5646967,0.7953126,0.03999983,0.039999995,-0.027541733891922604,-0.04306445260461658,-0.0010517041765467638,-0.004182103377706435,0.039935497818106895,0.020790651593369857,0.9999605376461164,-0.0003758988827328378,-0.00830930496085476,0.0031204649633133795
974.3333333327759,0.0095013445,-0.7747597,0.002585866,-2.3565931,0.008614346,1.5643089,0.79588866,0.039999824,0.039999977,-0.02804192702083874,-0.04368092936424782,-0.0014885150082522003,-0.0043426539504689,0.04209238268472458,0.02155850366667275,0.9999557308331773,-0.0004115933589457219,-0.008799534008646363,0.003306836255967482
974.3499999994425,0.010066456,-0.7741716,0.0027399969,-2.3566113,0.009129888,1.5639062,0.79648703,0.039999824,0.039999995,-0.02812929443114509,-0.04427812687416363,-0.0015140931656443257,-0.004504899025425946,0.044285905368208554,0.022321923422585023,0.9999504497155336,-0.00044859098994239023,-0.009308497412747257,0.0034998222444454024
974.3666666661092,0.010652828,-0.7735615,0.0028999292,-2.3566298,0.009664825,1.5634884,0.7971078,0.03999982,0.04,-0.029224226068302883,-0.044852719513082534,-0.0019841235046946792,-0.004669346493569246,0.04651370734442178,0.023092285232302535,0.9999446565626431,-0.0004869867164456469,-0.009836701508439183,0.0036994539042660424
974.3833333327758,0.011260733,-0.7729291,0.0030657353,-2.3566487,0.010219393,1.5630552,0.7977514,0.039999813,0.04,-0.029174272096943454,-0.04541849162614797,-0.0020958672469539863,-0.004835200436003224,0.04877350421452264,0.02386533086673691,0.9999383148115089,-0.0005267294140801055,-0.01038432664290521,0.003905750659925038
974.3999999994425,0.011890428,-0.7722742,0.003237486,-2.3566687,0.010793822,1.5626067,0.798418,0.03999981,0.04,-0.030893638866102968,-0.045948593632791704,-0.0025776790817833017,-0.005002843376860383,0.05106547485938159,0.024640249980804472,0.9999313822703656,-0.0005679039155104871,-0.01095191150475,0.004118721939008659
974.4166666661091,0.012542153,-0.7715966,0.003415248,-2.3566895,0.011388356,1.5621423,0.799108,0.039999805,0.04,-0.030512482063382862,-0.0464738528437772,-0.002989711594492128,-0.005171110079482719,0.05338580835508678,0.025417152490008903,0.9999238173574211,-0.0006103819791141326,-0.011539728934864097,0.004338383490699681
974.4333333327758,0.013216154,-0.770896,0.0035990877,-2.356711,0.012003196,1.561662,0.79982126,0.039999798,0.04,-0.030748412697811922,-0.0469756090677155,-0.0029770793826155995,-0.005341936162011285,0.05573481948133317,0.02619355515075794,0.9999155781277672,-0.0006544525823346916,-0.012147902144170651,0.004564732492301183
974.4499999994424,0.0139126545,-0.770172,0.0037890673,-2.3567333,0.012638566,1.561166,0.80055845,0.03999979,0.04,-0.031480239904646545,-0.047461474535330506,-0.0029338524341948613,-0.005511930241505522,0.05811247269546024,0.0269702974970526,0.999906619715992,-0.0006998531197013915,-0.012776677385871701,0.004797767056319052
974.4666666661091,0.014631882,-0.7694245,0.0039852476,-2.3567572,0.013294658,1.5606533,0.80131954,0.039999787,0.04,-0.03264069165833661,-0.047907687975178026,-0.004289563757398085,-0.005684067135388368,0.06051635064002882,0.02774493410767816,0.9998968862982672,-0.0007467427239155346,-0.013426955746482951,0.0050374602446387135
974.4833333327757,0.015374051,-0.76865315,0.004187688,-2.3567817,0.013971671,1.5601246,0.8021053,0.03999978,0.04,-0.03151608462124145,-0.048378911647404405,-0.003397732749554905,-0.005856577901168801,0.06294203269085309,0.02851846000319723,0.9998863389875327,-0.0007948548884050531,-0.014098181841970158,0.005283803607823862
974.4999999994424,0.016139368,-0.7678578,0.0043964456,-2.3568065,0.01466978,1.5595795,0.80291533,0.039999772,0.04,-0.03098459279589072,-0.048800091239357274,-0.0037122377591902733,-0.00603229865525453,0.06539498247471526,0.02928757221070147,0.9998749284604744,-0.0008445167348375802,-0.014790483741397938,0.005536769666620729
974.516666666109,0.01692802,-0.76703846,0.0046115704,-2.3568316,0.015389162,1.5590179,0.8037501,0.039999776,0.04,-0.030848179144915555,-0.04919855870439971,-0.004034850424772252,-0.00620774642327393,0.06787559452055832,0.030053852601297094,0.9998626057467014,-0.0008955958646275369,-0.015503874035824958,0.005796328781639039
974.5333333327757,0.0177402,-0.7661947,0.004833115,-2.3568566,0.016130013,1.5584394,0.8046098,0.03999976,0.04,-0.031041112522789405,-0.04960988123047655,-0.004322213687757426,-0.006384410146536318,0.07038468884005306,0.030816570337435067,0.9998493139855483,-0.0009481091854141512,-0.016238753416617364,0.006062449923525112
974.5499999994423,0.018576087,-0.7653262,0.005061128,-2.3568819,0.016892476,1.557844,0.8054946,0.03999976,0.04,-0.03166012683419872,-0.04997191599530604,-0.0044986468364482946,-0.006562065743792332,0.07291951787330705,0.03157314906438439,0.9998349963834677,-0.0010020372007768722,-0.01699537463626037,0.0063350745293451706
974.566666666109,0.019435849,-0.7644331,0.005295656,-2.3569078,0.017676704,1.5572317,0.80640465,0.039999753,0.04,-0.03231875150560004,-0.05030093678373912,-0.0052986232567553415,-0.006740791449063921,0.07547916612464275,0.03232355451520112,0.999819592206982,-0.0010574389387596535,-0.017774080614972407,0.006614145466145688
974.5833333327756,0.020319648,-0.76351506,0.005536744,-2.3569353,0.01848286,1.5566019,0.80734015,0.03999975,0.04,-0.03386750575744557,-0.05063198765722851,-0.006095584140042298,-0.006919964719971472,0.07806200012914902,0.03306721949886132,0.9998030310532486,-0.0011142809467877995,-0.018575603500036918,0.006899596315551006
974.5999999994423,0.021227645,-0.7625717,0.0057844366,-2.3569634,0.019311072,1.5559553,0.80830115,0.03999974,0.04,-0.032867654102775035,-0.050969396916535764,-0.005420298767222498,-0.007100134175081908,0.08066121902015859,0.033803225779560124,0.9997852604118757,-0.0011726207004297757,-0.019399543732370756,0.007191364740211779
974.6166666661089,0.022159977,-0.76160324,0.006038769,-2.356993,0.020161472,1.5552913,0.809288,0.03999973,0.04,-0.03388449656420711,-0.05122297355882599,-0.006709573460828011,-0.007280050405400633,0.08328231230024856,0.034531508236994315,0.999766207920305,-0.0012323502771339895,-0.020246487065312572,0.00748936412266418
974.6333333327756,0.023116782,-0.7606093,0.006299782,-2.3570244,0.021034198,1.5546098,0.81030065,0.03999972,0.04,-0.03501615276615411,-0.05150092249107119,-0.007218180571855193,-0.007461472060434626,0.08592196860055415,0.03524982475513782,0.9997457986106976,-0.0012935986920049251,-0.021116959181139927,0.00779350996820911
974.6499999994422,0.02409819,-0.7595899,0.0065675094,-2.357056,0.021929355,1.5539105,0.8113394,0.03999972,0.04,-0.03185577876645418,-0.05178046470649053,-0.0068042731862894,-0.007642580925318922,0.08857361530795918,0.03595820685889536,0.9997239823541806,-0.0013562663317231054,-0.02201020762300409,0.008103728026513666
974.6666666661089,0.025104318,-0.75854474,0.006841986,-2.3570876,0.022847053,1.5531939,0.81240433,0.03999972,0.04,-0.032284026812479105,-0.052022481688052125,-0.006821594868577918,-0.007824532643800008,0.09124709548546475,0.03665566348120702,0.9997006916875867,-0.0014203515119826393,-0.022926284441803814,0.008419924146727613
974.6833333327755,0.026135286,-0.7574738,0.007123239,-2.3571198,0.023787405,1.5524597,0.8134955,0.03999971,0.04,-0.03268161568690253,-0.05224165004078726,-0.007610939612945344,-0.008006918672084085,0.09394103592978167,0.03734222233062345,0.9996758502166212,-0.0014859133077120175,-0.02386554024342041,0.008741998867959594
974.6999999994422,0.027191188,-0.7563771,0.007411302,-2.357152,0.024750486,1.551707,0.81461304,0.0399997,0.04,-0.03207821287098955,-0.05241376988495833,-0.008382003619988865,-0.008189679331915362,0.09665553066416388,0.03801545214256345,0.999649381164742,-0.0015529478870746807,-0.02482823705257773,0.00906982550379258
974.7166666661088,0.028272133,-0.75525445,0.0077061956,-2.3571846,0.025736412,1.5509368,0.81575704,0.039999694,0.04,-0.03262828489711822,-0.052629998755610724,-0.008254707450583432,-0.00837277256304532,0.09938620933023952,0.038675489572549265,0.9996212147987638,-0.001621438807669821,-0.02581425159674509,0.00940331191319302
974.7333333327755,0.029378202,-0.7541056,0.008007949,-2.357218,0.026745237,1.550149,0.8169277,0.039999697,0.04,-0.03321068316652909,-0.05276264976690481,-0.008770455651530007,-0.008555491617918048,0.102135633156861,0.039322111389281274,0.9995912680408839,-0.0016913339039513636,-0.026823937195034408,0.009742311809826768
974.7499999994421,0.030509477,-0.7529307,0.008316583,-2.3572528,0.02777705,1.5493433,0.81812495,0.039999697,0.04,-0.03425256985825076,-0.0528917324801606,-0.009699690054953969,-0.008739119893085762,0.10490145682182199,0.03995313492098604,0.9995594520295363,-0.0017626656469201423,-0.027857737040557128,0.010086691985454558
974.7666666661088,0.031666033,-0.7517298,0.008632115,-2.357289,0.028831925,1.5485197,0.81934893,0.039999682,0.04,-0.03406221968742518,-0.053008969378449955,-0.010399896757573579,-0.008922778570448833,0.10767987227762801,0.040568636388901125,0.9995256839072345,-0.0018354367012363003,-0.02891576770209542,0.010436319278816253
974.7833333327754,0.03284794,-0.75050247,0.008954566,-2.3573275,0.029909901,1.547678,0.8205998,0.03999968,0.04,-0.03561862507359681,-0.05308571360524844,-0.011108190273612095,-0.009106309210735838,0.11046910438390183,0.04116767087886301,0.9994898622704503,-0.001909580781058478,-0.02999871206294769,0.01079101452140537
974.7999999994421,0.034055244,-0.7492488,0.00928395,-2.3573658,0.031011062,1.5468181,0.8218775,0.039999668,0.04,-0.03184840685757084,-0.053236077562496265,-0.010512388222316815,-0.0092902159098604,0.1132652514103488,0.041749892042684,0.9994519335832572,-0.001985160868638642,-0.031105526796983547,0.011150685884556253
974.8166666661087,0.035288006,-0.74796855,0.009620285,-2.3574045,0.0321354,1.5459402,0.8231821,0.039999668,0.04,-0.03237898942325401,-0.053281465760808555,-0.010989751536594206,-0.009474268241753625,0.11607692011130032,0.042314989592039914,0.9994118053291364,-0.0020621403808322868,-0.03223650819850562,0.011515141552484481
974.8333333327754,0.03654625,-0.7466618,0.009963578,-2.3574433,0.033282977,1.545044,0.8245137,0.039999668,0.04,-0.032209874243194214,-0.05331107503544069,-0.011598669663914762,-0.00965824118804276,0.1189020429860264,0.04286070449088348,0.9993693884596391,-0.0021405216730716182,-0.033391745137096265,0.011884230453551714
974.849999999442,0.037830014,-0.74532855,0.01031384,-2.3574822,0.03445384,1.5441295,0.8258723,0.039999653,0.04,-0.03160946478923954,-0.05336893317686858,-0.01200250814217263,-0.009842339356012572,0.12173990216012168,0.043387024911891586,0.9993245981627606,-0.0022202600953967412,-0.034571149189433874,0.012257797341597492
974.8666666661087,0.03913935,-0.7439687,0.010671076,-2.3575215,0.035648,1.5431968,0.82725793,0.039999645,0.04,-0.032390628972978064,-0.053374233063573084,-0.012697481467061067,-0.010026771447307264,0.124591817675858,0.04389315490195264,0.9992773327793989,-0.002301393425707571,-0.035775076980412,0.012635649909530729
974.8833333327754,0.04047425,-0.7425824,0.011035299,-2.3575613,0.036865484,1.5422461,0.8286706,0.03999964,0.04,-0.032115565570323135,-0.053355243673212926,-0.013060191843194957,-0.01021103795847482,0.12745270650043555,0.04437932397597906,0.9992275037624078,-0.002383879569250498,-0.03700343984837998,0.013017614310388321
974.899999999442,0.041834746,-0.74116963,0.011406507,-2.357603,0.0381063,1.5412772,0.83011085,0.039999634,0.04,-0.0342633620951549,-0.05326767728419807,-0.014587915706809618,-0.010395241906087233,0.13032634919241168,0.044842929468416406,0.9991749873084371,-0.0024674661441436885,-0.038257074192272235,0.01340345560887415
974.9166666661087,0.04322083,-0.7397302,0.011784704,-2.3576467,0.03937044,1.54029,0.8315776,0.039999634,0.04,-0.0344324172780075,-0.05320101374579611,-0.014978953540523143,-0.010581812875911728,0.13320240232605737,0.045284758439032353,0.9991196765205881,-0.0025526412242025615,-0.039536181385136523,0.013792982768695748
974.9333333327753,0.0446325,-0.738264,0.012169888,-2.357692,0.04065792,1.5392847,0.83307153,0.039999627,0.04,-0.03384313125223137,-0.053149555570999873,-0.01531210891061452,-0.01076574218154909,0.1360813797609265,0.04570360592345313,0.9990614767789002,-0.0026390610861757786,-0.040840647343852156,0.01418599652762159
974.949999999442,0.04606975,-0.73677135,0.012562055,-2.357737,0.041968714,1.5382612,0.83459264,0.03999962,0.04,-0.03036284358097774,-0.053126846059615984,-0.015022370363260151,-0.010950189046395234,0.13896117538918853,0.04609943937832511,0.9990003251221515,-0.0027267336117804126,-0.04216955035692024,0.014582330140991605
974.9666666661086,0.047532573,-0.7352524,0.012961202,-2.3577826,0.04330281,1.5372195,0.8361407,0.03999961,0.04,-0.03108623688443668,-0.05300058459335871,-0.015987517227489256,-0.01113549926381209,0.141852150876887,0.046471707580797626,0.9989361119199092,-0.0028157514884122486,-0.043523126780898716,0.014981764952897976
974.9833333327753,0.04902092,-0.7337068,0.013367321,-2.3578284,0.044660203,1.5361596,0.8377156,0.039999608,0.04,-0.03094981379181405,-0.052866610985126405,-0.01632966859292928,-0.011320218378553362,0.14475113354102734,0.04681820970204628,0.99886872752968,-0.002906102193170132,-0.0449015546835412,0.015384086592375114
974.9999999994419,0.050534807,-0.7321347,0.013780412,-2.3578746,0.04604085,1.5350815,0.83931774,0.039999604,0.04,-0.03097313642743682,-0.05276298808815083,-0.0171214561152766,-0.011504778603025262,0.14765618353115983,0.04713920890161521,0.9987980646723243,-0.002997630130048625,-0.04630492503558381,0.015789051202393628
975.0166666661086,0.052074157,-0.730536,0.014200459,-2.3579216,0.047444735,1.5339853,0.84094673,0.039999586,0.04,-0.03135581656481534,-0.05255281478332846,-0.01764335357052893,-0.011690173369283893,0.1505661703388136,0.04743403843091841,0.9987240075643756,-0.003090418427030051,-0.047733442710652656,0.016196434036163273
975.0333333327752,0.053638935,-0.7289112,0.014627452,-2.3579688,0.048871793,1.5328708,0.84260267,0.039999582,0.04,-0.02976347220144948,-0.05237254609116726,-0.018347807921981207,-0.011875475069846056,0.15347837772101908,0.04770232557249496,0.9986464686973753,-0.003184415434694046,-0.04918669011743845,0.016606010113583595
975.0499999994419,0.055229105,-0.72725964,0.015061376,-2.3580177,0.050321985,1.531738,0.84428537,0.039999582,0.04,-0.03278099792414224,-0.052132778150465464,-0.0193490058355561,-0.012061010031318015,0.1563967293107874,0.04794376420664813,0.9985652826850213,-0.00327964266900744,-0.05066582248304383,0.017017479021988097
975.0666666661085,0.056844592,-0.725582,0.015502214,-2.3580687,0.05179527,1.5305874,0.845995,0.039999574,0.04,-0.03242518851440668,-0.05186258863440485,-0.02031914852533845,-0.012245905019558634,0.1593101930032275,0.048156869354780286,0.9984803496074449,-0.0033759475234253007,-0.05217057060643879,0.017430604943955076
975.0833333327752,0.05848534,-0.7238782,0.015949953,-2.3581207,0.05329156,1.5294191,0.84773123,0.039999567,0.04,-0.030380802948370977,-0.05167884096215214,-0.020108123441531234,-0.012432245730241029,0.1622192911998417,0.04834212906733934,0.9983915830241618,-0.0034734744387248167,-0.05370039216845203,0.017845161887365114
975.0999999994418,0.060151283,-0.7221482,0.016404577,-2.358173,0.054810826,1.5282327,0.8494942,0.039999567,0.04,-0.029137318255756384,-0.051488402513191756,-0.02046669681972091,-0.012618339221989072,0.16512876115867034,0.0484984597553309,0.9982988775537178,-0.003572092055020347,-0.055255136998640576,0.01826091642275962
975.1166666661085,0.061842352,-0.72039217,0.016866056,-2.3582253,0.056352977,1.5270284,0.8512837,0.039999563,0.04,-0.028649804038560767,-0.051196006149245576,-0.021090939962498112,-0.01280534117887179,0.16803927506220884,0.04862524301015647,0.998202125645896,-0.0036718618257133117,-0.05683467804549264,0.01867761114845489
975.1333333327751,0.06355844,-0.7186101,0.01733437,-2.3582778,0.05791795,1.5258063,0.8530997,0.03999956,0.04,-0.02812661366153879,-0.05089656888918326,-0.02152874310363817,-0.012992504672421357,0.1709503832337538,0.048720539757174025,0.998101214067573,-0.0037727375467240883,-0.05843897870455391,0.01909499139065355
975.1499999994418,0.06529946,-0.71680206,0.017809505,-2.3583307,0.059505653,1.5245665,0.85494196,0.039999556,0.04,-0.028581019994700085,-0.050582865006512656,-0.022255402553650327,-0.013180007578846895,0.17386417247374125,0.04878665583297301,0.9979960181224808,-0.003874738673230409,-0.06006817738111338,0.01951277217614895
975.1666666661084,0.06706533,-0.71496844,0.018291423,-2.3583844,0.06111601,1.5233088,0.8568108,0.039999552,0.04,-0.028380404187733355,-0.05020530209342844,-0.023481647174095066,-0.01336773282621749,0.17677424908040446,0.04882185334544294,0.9978864115397249,-0.003977647044072816,-0.061722416402400726,0.01993066235256764
975.1833333327751,0.06885597,-0.71310896,0.018780109,-2.3584387,0.06274893,1.5220337,0.85870546,0.039999545,0.04,-0.028335212411612076,-0.049941092196867376,-0.02340888653418194,-0.013557078017359156,0.17968197030485838,0.048826565442601194,0.9977722822411089,-0.00408177730426832,-0.06340152954008774,0.02034841363312468
975.1999999994417,0.07067123,-0.71122396,0.019275522,-2.358495,0.0644043,1.5207407,0.8606265,0.039999552,0.04,-0.029790646286431688,-0.049368210964040316,-0.02534638992430782,-0.01374544574676112,0.18258531323105648,0.04879772370037191,0.9976534625809123,-0.004186711863223765,-0.0651062798260079,0.020765653645095774
975.2166666661084,0.072511025,-0.70931345,0.019777628,-2.3585534,0.06608202,1.5194305,0.8625734,0.039999537,0.04,-0.029816663416282196,-0.04901910892603778,-0.025659725368498698,-0.01393576574165889,0.1854776214192695,0.04873866079680157,0.9975298337802999,-0.004292663614035158,-0.06683652878668062,0.021182119277616186
975.233333332775,0.07437523,-0.70737755,0.020286407,-2.3586118,0.067781955,1.5181031,0.86454606,0.039999537,0.04,-0.025961119389839027,-0.04874905212998715,-0.024991447338384987,-0.014126621712605814,0.1883573767284515,0.04864628185455102,0.9974013456779428,-0.0043995872355798975,-0.06859113351967801,0.021597584922187822
975.2499999994417,0.0762637,-0.70541656,0.020801818,-2.3586707,0.06950407,1.5167581,0.86654437,0.039999526,0.04,-0.026279802093864824,-0.04829992776171632,-0.026401701508227404,-0.01431845347354807,0.19123458691597503,0.04852209663846582,0.9972678489478275,-0.004507473465545905,-0.0703704633566191,0.022011770144752797
975.2666666661083,0.078176305,-0.70343053,0.021323828,-2.3587296,0.07124815,1.5153962,0.86856824,0.03999953,0.04,-0.025044142191466,-0.047856611745944466,-0.026105778608043195,-0.014510615503480193,0.19410406813626288,0.048364059298366756,0.9971292641095758,-0.004616249888140021,-0.0721738729649309,0.02242438303517212
975.283333332775,0.08011291,-0.70141935,0.0218524,-2.3587885,0.07301413,1.5140173,0.8706175,0.039999515,0.04,-0.024998446001434083,-0.047448987519271846,-0.02685812833296275,-0.01470452063325553,0.19697063078182525,0.048172021633641475,0.9969854506685335,-0.004725917770453422,-0.07400157889679826,0.02283513033177574
975.2999999994416,0.082073405,-0.69938326,0.022387493,-2.3588483,0.07480185,1.512621,0.87269217,0.039999515,0.04,-0.02611334632669493,-0.04686227802373488,-0.028437287278570977,-0.014899006574817908,0.1998313325471356,0.04794652862739611,0.9968362410064614,-0.004836374179955766,-0.07585414831193472,0.023243628907089676
975.3166666661083,0.084057614,-0.6973227,0.022929067,-2.3589084,0.076611154,1.511208,0.8747918,0.03999951,0.04,-0.02405349149678937,-0.04641785403360077,-0.028277595943815292,-0.015095342914178966,0.20267818503154944,0.04768675439801945,0.9966815729581692,-0.00494772236593193,-0.07773066278423583,0.02364965606816491
975.3333333327749,0.08606539,-0.6952377,0.023477083,-2.3589692,0.07844195,1.5097781,0.87691635,0.039999504,0.04,-0.0246937874412545,-0.04588909401675445,-0.029343313450658215,-0.015292580681151774,0.2055181575928831,0.04739199640949792,0.9965212867242431,-0.0050598790554655625,-0.07963153929154088,0.024052872582351177
975.3499999994416,0.08809659,-0.6931286,0.024031498,-2.3590329,0.080294065,1.5083318,0.87906575,0.039999496,0.04,-0.02733132531036464,-0.04517983385879942,-0.03108733758576676,-0.0154906518018528,0.2083464825546844,0.047062453895075004,0.9963552008235095,-0.005172717418640214,-0.08155742496859249,0.024452877518674414
975.3666666661082,0.09015098,-0.6909952,0.024592258,-2.359098,0.082167365,1.5068693,0.8812396,0.039999492,0.04,-0.02491281425753833,-0.044704017398591867,-0.03046534525532607,-0.015690564448111538,0.21115390901231226,0.04669978579355058,0.996183241274111,-0.005286317065685696,-0.08350754314272645,0.024849444556230792
975.3833333327749,0.09222847,-0.68883795,0.025159333,-2.3591628,0.08406166,1.5053886,0.8834381,0.039999485,0.04,-0.02201577297327173,-0.04420295772503968,-0.03190021072876359,-0.015892342304711038,0.21394647436301373,0.04630142433848367,0.9960052693642303,-0.005400564562064018,-0.08548197912254417,0.02524219773297757
975.3999999994415,0.094328865,-0.6866568,0.025732666,-2.359228,0.08597681,1.5038924,0.88566047,0.03999948,0.04,-0.022002842342305762,-0.043745426269942156,-0.03063942802992159,-0.01609580070893013,0.21672231876004494,0.04586841750440593,0.9958212422300767,-0.005515685845407811,-0.08747962249525017,0.02563096527816031
975.4166666661082,0.09645195,-0.6844521,0.02631221,-2.359293,0.08791268,1.5023806,0.8879071,0.039999474,0.04,-0.020942755609909547,-0.043142124622477795,-0.031355595440296646,-0.01629967541906327,0.2194873506035409,0.04540047562575712,0.995631052735768,-0.0056313495014935185,-0.08950023349379448,0.026015436487105033
975.4333333327749,0.0985976,-0.68222415,0.026897911,-2.3593583,0.08986905,1.5008528,0.8901775,0.039999463,0.04,-0.020946974159019582,-0.04249118887834635,-0.032455503048889334,-0.016506713342876206,0.22224410058131205,0.04489568521747559,0.9954345513606652,-0.005747694314959117,-0.09154402730398879,0.026395246398161147
975.4499999994415,0.10076557,-0.67997295,0.027489722,-2.3594244,0.091845766,1.4993092,0.89247143,0.03999947,0.04,-0.021362821829318257,-0.041774982709125164,-0.03326428189998065,-0.016715190216975512,0.22498758265505525,0.044355047474474135,0.9952315913250726,-0.005864672035147945,-0.09361116117837766,0.026770053293181315
975.4666666661082,0.102955684,-0.6776987,0.02808759,-2.3594906,0.09384266,1.4977497,0.8947888,0.03999945,0.04,-0.020152056329059143,-0.04120285375124044,-0.03362510809810093,-0.016925332624490447,0.22771451465495618,0.04377940552473139,0.9950220671451444,-0.00598223335956143,-0.09570132111064389,0.027139563664747863
975.4833333327748,0.10516773,-0.6754015,0.02869146,-2.3595572,0.09585953,1.4961746,0.8971294,0.039999455,0.04,-0.019658664083599398,-0.040513324829505315,-0.03407983080319088,-0.01713796750036517,0.23042336547988912,0.04316740589751428,0.9948058646656073,-0.006100326151398361,-0.09781430389827686,0.02750344706860452
975.4999999994415,0.10740151,-0.673082,0.02930128,-2.3596268,0.09789618,1.494584,0.89949304,0.03999945,0.04,-0.023300702478668,-0.039511023174906845,-0.03662017847700927,-0.01735249341341047,0.23311524023218883,0.0425200968401442,0.9945827445358745,-0.006218858273416281,-0.09995119769580438,0.027861230275004322
975.5166666661081,0.109656826,-0.67074007,0.029916981,-2.359698,0.09995245,1.4929779,0.9018794,0.03999944,0.04,-0.02082849451712221,-0.038969361372021005,-0.03625505569000431,-0.017569433953407876,0.23577750133789643,0.04183754458261885,0.9943526307669361,-0.006337872833460007,-0.10211132336000979,0.028212669077697997
975.5333333327748,0.11193346,-0.6683762,0.030538516,-2.359769,0.10202813,1.4913567,0.90428823,0.039999433,0.04,-0.016958454280446844,-0.03849971242291528,-0.035400544233210596,-0.017788717968447554,0.23841482336234154,0.0411207947937869,0.9941155274896428,-0.006457377947517223,-0.10429326375018229,0.0285575806112282
975.5499999994414,0.11423116,-0.66599065,0.031165818,-2.3598404,0.10412301,1.4897207,0.90671945,0.03999943,0.04,-0.017168365833186705,-0.037658690920999716,-0.036236704815184595,-0.018010420173883768,0.24103612413320294,0.04036805867527786,0.9938712980258201,-0.0065772812451526256,-0.10649706901382203,0.028895615988569358
975.5666666661081,0.11654973,-0.6635833,0.031798836,-2.3599114,0.1062369,1.4880699,0.9091728,0.03999942,0.04,-0.01627164604836029,-0.037044589930190774,-0.036319222226688375,-0.018235351468829708,0.24363914716621993,0.039578770148306235,0.993619834356809,-0.006697581129692258,-0.10872249388351941,0.029226469227515137
975.5833333327747,0.118888944,-0.6611543,0.032437492,-2.3599827,0.1083696,1.4864042,0.91164786,0.039999418,0.04,-0.01651060099499002,-0.036207983226577145,-0.03734118620752902,-0.01846294485164049,0.24622256916062157,0.038754389300957766,0.9933609850110731,-0.006818292928277729,-0.11096969849445522,0.029549794507315572
975.5999999994414,0.121248566,-0.6587042,0.03308173,-2.3600547,0.11052083,1.4847239,0.91414446,0.03999941,0.04,-0.016480350064829175,-0.035338005142854234,-0.03804815686154761,-0.01869320752913803,0.24878327986074922,0.037893693139396514,0.9930946342081519,-0.006939366342413965,-0.11323851190476313,0.029865232685142684
975.616666666108,0.12362836,-0.65623313,0.03373149,-2.360127,0.11269044,1.4830292,0.9166625,0.039999414,0.04,-0.015251607379829224,-0.03466998671358135,-0.03821959655478935,-0.018925744801306432,0.2513195636534615,0.03699881599274561,0.9928206906282676,-0.007060696631225559,-0.115528536367278,0.03017250583438393
975.6333333327747,0.12602809,-0.6537413,0.034386702,-2.3601997,0.11487821,1.4813204,0.9192016,0.0399994,0.04,-0.015058287374625223,-0.03383732845528842,-0.03877177355171568,-0.019161946530525442,0.25383245646346375,0.036068753758685485,0.9925390352803983,-0.007182318439039559,-0.1178396260372294,0.030471302596090433
975.6499999994413,0.12844753,-0.651229,0.0350473,-2.3602731,0.11708387,1.4795978,0.9217614,0.03999939,0.04,-0.01476910250497454,-0.03302812778411823,-0.039156951003849194,-0.019401351150173496,0.25631980321876485,0.035104169871430044,0.9922495678053065,-0.0073042512672625536,-0.12017148315459796,0.03076130263872785
975.666666666108,0.1308864,-0.6486967,0.03571321,-2.3603506,0.11930721,1.477861,0.92434174,0.039999384,0.04,-0.01926738834658881,-0.03161880642005843,-0.042424779192495876,-0.019643020544484024,0.2587810697370755,0.03410438309439006,0.9919519610532206,-0.007426272331365779,-0.12252574020902389,0.031041914054405782
975.6833333327746,0.13334438,-0.64614445,0.03638439,-2.3604279,0.121548,1.4761108,0.9269425,0.039999392,0.04,-0.0121816404637487,-0.03138046380841142,-0.039427314975859495,-0.01988815582793016,0.2611979678225004,0.03307227988054359,0.9916463735163147,-0.007548380767663727,-0.12489987490341584,0.03131314562351098
975.6999999994413,0.13582125,-0.6435727,0.037060745,-2.3605049,0.12380604,1.4743471,0.9295634,0.039999373,0.04,-0.011394106084039457,-0.03057790190752474,-0.040057600670495574,-0.02013796366993828,0.263590906408592,0.032007080904346896,0.9913327058097068,-0.007670615351196619,-0.12729361590508873,0.03157472726639403
975.7166666661079,0.13831685,-0.6409815,0.037742205,-2.360582,0.12608102,1.4725702,0.93220377,0.03999937,0.04,-0.01177475391569427,-0.02971126755589304,-0.04065847577936488,-0.020391531049609918,0.2659610881935879,0.030908053949295078,0.9910108219398767,-0.0077931286157335465,-0.12970699728963353,0.031826290995587786
975.7333333327746,0.14083079,-0.63837117,0.038428705,-2.3606591,0.1283728,1.4707799,0.9348637,0.039999355,0.04,-0.01045890468911459,-0.02882150167666797,-0.04092198173981654,-0.02064734054685985,0.26830147981165425,0.029774887341118828,0.9906806357869827,-0.00791568207441629,-0.13213966008698802,0.03206758622178798
975.7499999994412,0.14336284,-0.635742,0.039120164,-2.3607361,0.130681,1.4689771,0.9375426,0.039999347,0.04,-0.010148208429794359,-0.027917350395922913,-0.04092792534542422,-0.02090735125590365,0.27061402037966753,0.028609901225221196,0.9903420826224987,-0.008038374438522658,-0.1345911002284485,0.03229829194576373
975.7666666661079,0.14591274,-0.63309443,0.039816525,-2.3608134,0.13300541,1.4671615,0.9402405,0.03999934,0.04,-0.009821249017050171,-0.02701301669025269,-0.04183329880942388,-0.021171024064681493,0.2729004758035539,0.027409661460069512,0.9899950360494002,-0.008161075352063623,-0.1370612987471668,0.03251808469735686
975.7833333327745,0.14848022,-0.6304286,0.040517688,-2.360891,0.13534582,1.4653333,0.942957,0.039999336,0.04,-0.009708195301860734,-0.02605950928437073,-0.04233658599734902,-0.02143844110643245,0.27515636308378366,0.026178612568073682,0.9896393766412236,-0.00828377137205179,-0.1395501668146737,0.03272666000408177
975.7999999994412,0.15106498,-0.6277449,0.041223604,-2.3609693,0.13770196,1.4634929,0.9456917,0.039999325,0.04,-0.00901611268904201,-0.02515536808835872,-0.04253556743167852,-0.02170976966804941,0.2773784567508236,0.024915255914815415,0.9892750301590718,-0.008406453487532993,-0.14205728850313468,0.03292374563543358
975.8166666661078,0.15366681,-0.6250436,0.041934166,-2.3610473,0.14007354,1.4616404,0.94844437,0.039999325,0.04,-0.007384654744702068,-0.024393806170380783,-0.04227689093525555,-0.021985604388455954,0.2795692379632961,0.023620364302753133,0.9889019576604866,-0.008529151397011998,-0.144582014643963,0.03310910378123824
975.8333333327745,0.15628527,-0.62232494,0.042649303,-2.361128,0.14246036,1.4597758,0.95121485,0.03999933,0.04,-0.011423230148999153,-0.022784232567280016,-0.04489381969754458,-0.02226472661428891,0.2817285232176497,0.02229399109574274,0.9885198534225996,-0.008651542912864666,-0.1471256103570489,0.03328220202533029
975.8499999994411,0.15892017,-0.6195893,0.043368958,-2.3612106,0.14486207,1.4578996,0.9540025,0.039999317,0.04,-0.008989063711384304,-0.022104563626751395,-0.044215274602232846,-0.022548927179422307,0.2838429104035075,0.020939007929388916,0.9881287223983063,-0.00877386976356295,-0.1496870861144897,0.03344283826795061
975.8666666661078,0.16157122,-0.61683685,0.044093043,-2.3612936,0.1472785,1.4560118,0.9568072,0.039999314,0.04,-0.006771546513117954,-0.021438329773265652,-0.04361815847229167,-0.02283644842616922,0.28591629331351387,0.019555551183691823,0.987728544229372,-0.008896054525534207,-0.1522656793441354,0.03359086218413365
975.8833333327744,0.16423804,-0.6140679,0.04482146,-2.3613765,0.1497093,1.4541129,0.9596287,0.039999302,0.04,-0.005308924537184012,-0.0204185994762629,-0.04326485904797561,-0.02312823435499875,0.2879533866248567,0.01814358087698635,0.9873193068610038,-0.009017996974497995,-0.15486063355776594,0.03372604637609188
975.8999999994411,0.1669204,-0.611283,0.04555414,-2.3614595,0.15215422,1.4522029,0.9624667,0.03999929,0.04,-0.004541093651910799,-0.019539172763910484,-0.04371143201398198,-0.023425121621151623,0.28995627141430697,0.01670219826981554,0.986900934237862,-0.009139710983677324,-0.1574716345993596,0.03384813111792012
975.9166666661077,0.16961801,-0.60848236,0.046291,-2.3615422,0.15461297,1.4502825,0.9653207,0.0399993,0.04,-0.0036341140458917565,-0.018681085928523578,-0.04338038190665472,-0.023726920217475633,0.29192414141389045,0.015232874363187446,0.9864733981546701,-0.009261283167672366,-0.16009806724323772,0.03395691729597712
975.9333333327744,0.17233054,-0.6056662,0.04703195,-2.361625,0.15708527,1.448351,0.96819055,0.0399993,0.04,-0.003527088768251474,-0.01751871843151953,-0.04420791034822624,-0.024032415749085684,0.2938590081514383,0.0137355257511654,0.9860365582578945,-0.00938256950136745,-0.1627400714737421,0.03405205287789729
975.949999999441,0.17505766,-0.60283494,0.04777691,-2.3617072,0.15957087,1.4464095,0.97107565,0.039999288,0.04,-0.002122371389035038,-0.01673878728220557,-0.043509533962104996,-0.024342320184748772,0.2957557625327475,0.012211740113008199,0.9855904353810316,-0.009503672504770138,-0.16539674123501472,0.034133442299129624
975.9666666661077,0.17779917,-0.59998876,0.048525814,-2.3617902,0.16206944,1.4444578,0.97397596,0.03999929,0.04,-0.0034086127120858123,-0.015565590992938638,-0.04467794577160955,-0.024657012875974105,0.297617656986655,0.010659258988605397,0.985134857520017,-0.00962443528988517,-0.16806843548297526,0.034200639448286003
975.9833333327744,0.18055458,-0.59712815,0.049278546,-2.3618731,0.16458072,1.4424961,0.97689104,0.039999288,0.04,-0.0015777639337022364,-0.01453889025760935,-0.044314216446750265,-0.024975474711580792,0.2994382471551496,0.009083249400596557,0.9846698246480634,-0.009744830689219724,-0.1707544159169419,0.034253527515493085
975.999999999441,0.18332368,-0.59425324,0.050035033,-2.3619568,0.16710438,1.4405246,0.97982043,0.039999288,0.04,-0.002261849547857686,-0.013469396859766558,-0.04486333857292024,-0.025299205004203518,0.30122051603656513,0.00748127746381734,0.9841952098375198,-0.009864901667970381,-0.17345474037343986,0.034291772919231384
976.0166666661077,0.18610604,-0.5913647,0.050795186,-2.3620408,0.16964014,1.4385437,0.9827641,0.03999928,0.04,-0.0005938109683967241,-0.012469266045250782,-0.04452153042153739,-0.025626924021345948,0.3029596250841703,0.005856530320914766,0.9837110382533677,-0.009984434179606011,-0.17616858272849498,0.03431522624182811
976.0333333327743,0.18890151,-0.5884625,0.05155892,-2.362129,0.17218775,1.4365534,0.98572135,0.039999276,0.04,-0.006310598900438613,-0.010763799326801715,-0.0477530559792827,-0.025959707336217858,0.304658167855529,0.0042080015364767895,0.983216874998857,-0.010103488298327115,-0.17889776901452514,0.034323235327006076
976.049999999441,0.19170958,-0.5855472,0.052326143,-2.362217,0.1747469,1.4345542,0.9886919,0.039999276,0.04,0.0012639504592959483,-0.010563138845171016,-0.044080054869422014,-0.02629650678960041,0.3062958550520939,0.0025400877086327253,0.9827130964568811,-0.010222081212512207,-0.18163943128416113,0.034316120272842726
976.0666666661076,0.1945301,-0.5826191,0.053096775,-2.362305,0.17731726,1.4325459,0.9916759,0.039999276,0.04,0.0013005469113647194,-0.009592983799872057,-0.044728637579960484,-0.02663829596679873,0.30789425500952733,0.0008506107863754733,0.9821995819024695,-0.010340088650338822,-0.18439365402158797,0.034293501336031595
976.0833333327743,0.1973626,-0.5796786,0.053870715,-2.3623927,0.17989853,1.4305294,0.99467224,0.039999276,0.04,0.002480392907866502,-0.008578236066680844,-0.043932809783098214,-0.02698532638166229,0.3094483124273579,-0.000858814749810706,0.9816763911910461,-0.01045775795254589,-0.1871594684904611,0.03425538835129999
976.0999999994409,0.20020679,-0.5767259,0.05464787,-2.3624806,0.18249036,1.4285047,0.9976814,0.03999928,0.04,0.002118102311543524,-0.007455158633179471,-0.04426213850639016,-0.027336127907034213,0.3109641448366203,-0.00259051944714183,0.9811434273326889,-0.010574643796286306,-0.18993687192185316,0.03420141217827016
976.1166666661076,0.20306233,-0.5737614,0.055428166,-2.3625684,0.18509254,1.4264717,1.0007019,0.039999273,0.04,0.003462062001080568,-0.0065586240632464765,-0.04423291648159022,-0.02769274022397461,0.31243664004929517,-0.004339024181634336,0.9806006581682188,-0.010691302190960728,-0.1927254096073763,0.03413153599219575
976.1333333327742,0.20592895,-0.57078576,0.05621149,-2.3626559,0.18770473,1.424431,1.0037341,0.039999273,0.04,0.004380329088848889,-0.00561872134084429,-0.043949652377417436,-0.028052009148673535,0.31386367219580097,-0.006108169724953802,0.980048122690209,-0.010807412196472688,-0.1955243596319745,0.03404558478744243
976.1499999994409,0.20880625,-0.567799,0.056997757,-2.3627434,0.19032662,1.4223827,1.0067778,0.03999928,0.04,0.004231335539151004,-0.004494519799935759,-0.04386880825701933,-0.028415604302573227,0.31525143036045283,-0.00789549196694185,0.9794857481621425,-0.010922828590259675,-0.19833358666607992,0.03394332575049374
976.1666666661075,0.21169387,-0.56480134,0.05778689,-2.3628309,0.1929579,1.4203271,1.0098324,0.039999276,0.04,0.004739505406936573,-0.003475373103151158,-0.04380390278282409,-0.028783774309040056,0.31659345482538326,-0.009698447323691399,0.9789134998479933,-0.01103759079975021,-0.20115274963457663,0.03382458749400481
976.1833333327742,0.21459143,-0.5617937,0.05857878,-2.3629184,0.19559823,1.4182642,1.0128981,0.03999928,0.04,0.0058179089354126745,-0.0023441014433023266,-0.04384093541038858,-0.02915700712439967,0.317889271076662,-0.011518247251591097,0.978331400867905,-0.011151436626957466,-0.2039812566064737,0.03368920435749667
976.1999999994408,0.21749867,-0.55877584,0.059373334,-2.3630064,0.19824728,1.4161948,1.0159731,0.03999928,0.04,0.0051307555730017995,-0.0014078926117933044,-0.043430066829230896,-0.029537293839235756,0.3191403486526315,-0.013351693998656981,0.9777393943209538,-0.011265010021312086,-0.20681885331835767,0.03353711755941067
976.2166666661075,0.2204152,-0.55574834,0.06017046,-2.3630946,0.20090479,1.4141185,1.0190585,0.039999273,0.04,0.006220228986286713,-0.000308318247332906,-0.04363884251417094,-0.02991773331865727,0.32034499950092393,-0.015201230178356305,0.9771374496048049,-0.011377606858898742,-0.20966527859588763,0.03336803250553702
976.2333333327741,0.22334072,-0.5527117,0.06097007,-2.3631828,0.20357034,1.4120358,1.022153,0.03999928,0.04,0.00729325530608449,0.0006168927173089145,-0.04308988628169974,-0.030306001661112247,0.3214997415986828,-0.0170635369220972,0.9765256250701254,-0.011489647060190535,-0.21251976588965407,0.03318193330774476
976.2499999994408,0.22627483,-0.5496661,0.061772056,-2.3632715,0.20624371,1.4099472,1.0252566,0.03999928,0.04,0.006920025696266485,0.0016755660613487766,-0.04295104984015641,-0.030695269498727196,0.3226080896395089,-0.01893572737273721,0.9759038720205759,-0.01160091102046075,-0.21538212178685018,0.03297867573655933
976.2666666661074,0.22921717,-0.54661214,0.06257634,-2.3633606,0.2089245,1.4078528,1.028369,0.039999284,0.04,0.007762273997968805,0.0027619227690900416,-0.04274495961127389,-0.031089824266679195,0.3236665045392354,-0.020819788994061464,0.9752722280123158,-0.011711379755082286,-0.21825175742509031,0.03275813231833013
976.2833333327741,0.23216742,-0.5435499,0.063382804,-2.3634536,0.21161246,1.4057528,1.03149,0.039999284,0.04,0.003295896711752455,0.004641842446917455,-0.04515361301480336,-0.03148813509341855,0.3246775698383022,-0.022715543167845298,0.9746303186604746,-0.011820643129713076,-0.22113001206841953,0.03251971873190634
976.2999999994407,0.23512523,-0.5404799,0.06419137,-2.3635461,0.21430722,1.4036473,1.0346186,0.03999929,0.04,0.010062665421117778,0.004509292762089334,-0.04156122424894271,-0.03189275228306743,0.3256215710731615,-0.02461345518354744,0.9739785859667627,-0.011929301428634886,-0.2240143846645065,0.03226393201382676
976.3166666661074,0.23809019,-0.5374024,0.065001935,-2.3636386,0.21700852,1.4015368,1.0377549,0.039999295,0.04,0.009781576551537441,0.0055762023068006705,-0.04136823085048036,-0.032298177291060826,0.32651980175282536,-0.02651983703316018,0.9733170099699878,-0.012037078888223434,-0.22690461779615037,0.03199064328368686
976.333333332774,0.24106199,-0.53431803,0.065814376,-2.363731,0.21971595,1.3994215,1.0408982,0.0399993,0.039999995,0.010926510621089847,0.006565286548509963,-0.04098214973240477,-0.03270870012329069,0.3273687763004118,-0.028434123877713595,0.9726456566428546,-0.012144110087219752,-0.22980006303342163,0.03169981441294483
976.3499999994407,0.24404022,-0.53122675,0.066628635,-2.363823,0.2224292,1.3973014,1.0440484,0.039999306,0.04,0.010971442884200044,0.007518849575349762,-0.0404839454323902,-0.03312252552773626,0.32816958405509034,-0.03035627992075205,0.9719645086698834,-0.012250224196295508,-0.23270047827451718,0.031391293443622854
976.3666666661073,0.24702458,-0.52812916,0.067444585,-2.3639152,0.22514795,1.3951774,1.047205,0.03999931,0.04,0.011040966746267422,0.008545345898092194,-0.040260026200633625,-0.03353964439212426,0.3289220641789664,-0.03228254890489424,0.9712736055899516,-0.012355481405942842,-0.23560536257962544,0.031065065382928882
976.383333332774,0.25001466,-0.5250257,0.068262145,-2.3640072,0.22787187,1.3930492,1.0503674,0.03999932,0.04,0.01230943734742418,0.009441754736350116,-0.03965254523550232,-0.033959337737046597,0.32962413170414523,-0.03421227044006585,0.9705730182982693,-0.012459942122497809,-0.23851410378745375,0.030721137481530186
976.3999999994406,0.2530101,-0.5219171,0.06908122,-2.3640993,0.23060067,1.3909173,1.0535356,0.039999325,0.03999999,0.012767676952085694,0.010461217130153244,-0.03947707194400518,-0.034381749733290556,0.3302776201468931,-0.03614594627781771,0.9698627921792963,-0.012563394310175433,-0.2414262401533256,0.03035944721194131
976.4166666661073,0.2560106,-0.51880324,0.0699017,-2.3641906,0.23333393,1.3887818,1.056709,0.039999332,0.04,0.013753564652763117,0.011159676855110323,-0.03833935235606489,-0.03480876864391544,0.33088214567792507,-0.03808362398001977,0.9691430036744404,-0.012665993222214676,-0.2443411789080871,0.02997998222788978
976.4333333327739,0.2590157,-0.51568466,0.07072347,-2.3642817,0.23607136,1.3866429,1.0598875,0.039999336,0.039999995,0.013742043412401372,0.012317474423328978,-0.03824151206439641,-0.03523773815478176,0.3314386688086838,-0.040022095886140835,0.9684136655618583,-0.012767578269372115,-0.24725862053266182,0.02958269545639979
976.4499999994406,0.26202515,-0.51256156,0.07154648,-2.3643727,0.23881263,1.3845007,1.0630702,0.039999343,0.04,0.01367386286279526,0.013256471707856488,-0.03813263947365364,-0.0356704798526945,0.33194535412043413,-0.0419610969068709,0.9676747499536507,-0.012868389371166708,-0.2501784151421569,0.029167506819920523
976.4666666661072,0.26503834,-0.5094346,0.07237058,-2.3644636,0.24155737,1.3823562,1.0662569,0.039999347,0.039999988,0.014709900247478203,0.014214459527828183,-0.036789362725619945,-0.03610238310149183,0.3323993855181707,-0.04389744680315632,0.9669264572844242,-0.012968159317327733,-0.25309953902624377,0.028734585293957577
976.4833333327739,0.26805505,-0.5063039,0.07319569,-2.3645546,0.2443053,1.3802092,1.0694474,0.03999935,0.039999988,0.014309022691327833,0.015167931093129638,-0.036861532701415456,-0.03653879624992967,0.3328052566218569,-0.045834570524198356,0.9661687419147346,-0.013066837081650785,-0.2560219672749838,0.02828377959586729
976.4999999994405,0.2710751,-0.50317,0.074021704,-2.3646455,0.24705608,1.3780596,1.072641,0.03999936,0.039999984,0.015530021204024358,0.01582865639719877,-0.036408645218699576,-0.03697760578921122,0.33316009937468516,-0.047767321208891586,0.9654016730920482,-0.01316472021961957,-0.2589452017871837,0.027815143429578193
976.5166666661072,0.2740978,-0.500033,0.07484856,-2.3647366,0.24980932,1.3759081,1.075838,0.039999362,0.039999984,0.014996304502190583,0.017079957728849404,-0.035630942629971685,-0.037416618606745,0.3334611539362385,-0.04969734997859286,0.9646252982156355,-0.01326128170797356,-0.26186890068982166,0.02732858030272164
976.5333333327739,0.27712306,-0.49689364,0.075676106,-2.3648279,0.25256473,1.3737549,1.0790375,0.039999366,0.039999984,0.015791647122354036,0.01777710180391745,-0.03533643616695503,-0.03785991073754019,0.33371050117328466,-0.05162100370332155,0.9638397082224793,-0.013356800371045278,-0.26479251451351127,0.026824186754977514
976.5499999994405,0.28015038,-0.4937523,0.07650426,-2.3649187,0.25532192,1.3716006,1.0822389,0.03999937,0.039999984,0.017140047196151365,0.01839470097692031,-0.033603596311149175,-0.03830453392465105,0.333906591697549,-0.05353756842466308,0.9630451445615931,-0.013451446053303123,-0.26771495945800405,0.026302254994860587
976.5666666661072,0.28317934,-0.49060923,0.07733293,-2.36501,0.25808057,1.369445,1.0854423,0.039999377,0.039999984,0.016173821075837758,0.01978049065233245,-0.0342675843293172,-0.03874919602572757,0.33405619279444687,-0.05544868767408458,0.9622414723964083,-0.01354483972049922,-0.27063661989528587,0.025762493842653205
976.5833333327738,0.28620973,-0.48746487,0.078162014,-2.365101,0.26084036,1.3672885,1.0886469,0.03999938,0.039999984,0.01756028790977915,0.020137552185373053,-0.03285295132877675,-0.03919596617441387,0.3341493235757834,-0.05734969862746062,0.9614289119652296,-0.013637300623580755,-0.2735565215921199,0.02520517334748565
976.5999999994405,0.2892409,-0.48431954,0.0789914,-2.3651922,0.2636009,1.3651313,1.0918524,0.03999939,0.039999988,0.017541748525351508,0.0213977547688593,-0.03227866433661575,-0.03964278589884304,0.33419371684826815,-0.05924300704668578,0.9606075039497196,-0.013728585384240847,-0.2764744069991098,0.024630297873302627
976.6166666661071,0.29227272,-0.48117372,0.07982099,-2.3652842,0.26636198,1.3629737,1.0950583,0.03999939,0.039999984,0.016802520984371405,0.022197278435032164,-0.032519295908683965,-0.04009109772517483,0.3341848092635602,-0.06112520483262209,0.95977724206288,-0.01381882727241695,-0.27939016681614637,0.02403789336512015
976.6333333327738,0.2953048,-0.4780277,0.08065067,-2.3653793,0.26912308,1.360816,1.0982646,0.0399994,0.039999988,0.014207932231324882,0.02402764704181326,-0.033552242040912894,-0.040538081522008745,0.33412132972249187,-0.06299612836673324,0.9589379484314321,-0.013907641227181904,-0.28230433835521235,0.02342752909373945
976.6499999994404,0.2983368,-0.474882,0.08148038,-2.3654745,0.27188402,1.3586584,1.1014704,0.039999392,0.039999977,0.018844967996289874,0.02351037294775482,-0.03032218841134693,-0.04098678506253231,0.333991285294767,-0.06484812688369027,0.9580901198690797,-0.01399549230197903,-0.2852150256081346,0.02279994675057506
976.6666666661071,0.30136827,-0.47173697,0.08230999,-2.365569,0.27464435,1.3565012,1.1046758,0.039999407,0.039999984,0.019731308830217564,0.02428980399795666,-0.029094264492601773,-0.04143293513215793,0.3338111778830361,-0.06668759938817014,0.9572339296764166,-0.014082125771609933,-0.28812157993055,0.022155197772117035
976.6833333327737,0.30439872,-0.46859285,0.0831394,-2.3656635,0.27740383,1.354345,1.1078805,0.03999941,0.03999998,0.019614602458450925,0.025064703651800357,-0.028209105767385,-0.04188027099261815,0.33358103665484135,-0.06851172882950309,0.9563694857061443,-0.014167411622408884,-0.2910235759080139,0.02149347630791122
976.6999999994404,0.30742782,-0.46545017,0.083968535,-2.365758,0.28016204,1.3521895,1.1110831,0.03999941,0.039999977,0.019770889842485317,0.026014537962104622,-0.027971678253235766,-0.04232897912287556,0.3333012412026741,-0.0703213993626658,0.9554968420016532,-0.014251827884667162,-0.2939207557912312,0.02081488990903231
976.716666666107,0.31045544,-0.4623092,0.084797256,-2.365852,0.2829187,1.3500354,1.1142845,0.03999942,0.03999998,0.020295574289375118,0.02638886715644606,-0.026917998521269748,-0.04277458491586311,0.33296933510878646,-0.07211478203954232,0.9546161722539594,-0.014334926073738806,-0.29681253281126835,0.020119491340963167
976.7333333327737,0.31348106,-0.45917052,0.085625485,-2.365946,0.28567332,1.3478825,1.1174834,0.039999425,0.03999998,0.02077211518252131,0.027417330119638983,-0.026330557252940423,-0.043219861124490694,0.33258857946349585,-0.07389121793305459,0.9537275771382037,-0.01441705998416521,-0.2996985283692143,0.019407449106778656
976.7499999994403,0.31650433,-0.45603436,0.08645314,-2.3660398,0.28842574,1.3457314,1.12068,0.03999943,0.039999977,0.020926727581205284,0.027882767412246157,-0.025289435541098193,-0.04366219251374587,0.3321558182387038,-0.0756483078030957,0.952831214410479,-0.014497905023045203,-0.3025782299798794,0.018678927625471797
976.766666666107,0.31952474,-0.45290115,0.087280065,-2.3661332,0.29117557,1.3435823,1.1238734,0.03999944,0.03999998,0.021241804200000658,0.028784727061414994,-0.02435181154075705,-0.0441034975314985,0.3316740941207894,-0.07738641894632002,0.9519272210226044,-0.014577642149575175,-0.3054511794095648,0.01793419144669283
976.7833333327736,0.32254207,-0.4497713,0.088106215,-2.3662262,0.29392242,1.3414357,1.1270634,0.03999945,0.039999984,0.021799859962001733,0.02914942630561912,-0.023266310701541837,-0.04454279862630514,0.33114339947774685,-0.07910485097387673,0.9510158110207654,-0.01465624439216423,-0.3083167145605232,0.01717338672008986
976.7999999994403,0.32555592,-0.44664514,0.08893145,-2.3663192,0.2966661,1.3392915,1.1302496,0.039999455,0.039999984,0.021447686246012232,0.030085167644233746,-0.02306536238955159,-0.04497927949924199,0.33056409658366104,-0.08080238481595317,0.950096988945502,-0.01473368250635482,-0.3111748394310256,0.01639663079928905
976.8166666661069,0.3285658,-0.44352296,0.08975571,-2.366412,0.29940608,1.33715,1.1334318,0.039999463,0.039999984,0.02189946216308858,0.03076228566059047,-0.021832640241492562,-0.045413361409501946,0.3299350698769945,-0.08247821941064605,0.9491709525036031,-0.014809859218459913,-0.3140249732863573,0.015604074654877438
976.8333333327736,0.33157152,-0.44040528,0.09057886,-2.3665044,0.30214217,1.3350117,1.1366094,0.039999474,0.03999998,0.02225394625376964,0.031149237131455898,-0.020921910210303096,-0.04584403575555293,0.32925548296365753,-0.08412956736066124,0.9482378955401876,-0.014884869014796619,-0.31686655257263635,0.01479601286365702
976.8499999994402,0.3345727,-0.43729258,0.09140082,-2.3665965,0.304874,1.3328768,1.1397823,0.039999485,0.039999984,0.02289363005310019,0.03170516160221348,-0.019951179875987712,-0.046272362938646006,0.3285289814851269,-0.08575850002502944,0.9472980051887557,-0.014958679009045754,-0.3196990654357051,0.013972646393760654
976.8666666661069,0.33756885,-0.43418494,0.09222147,-2.3666883,0.3076012,1.3307456,1.1429496,0.039999496,0.039999984,0.022493036420434542,0.03249686755081305,-0.019037452967451962,-0.04669685646318866,0.327754853602362,-0.08736279208099482,0.9463513787429977,-0.015031386132915558,-0.32252227528256494,0.013134204532743827
976.8833333327735,0.34055978,-0.43108305,0.09304074,-2.36678,0.31032348,1.328618,1.1461111,0.03999951,0.039999984,0.022755061102586183,0.033087076706361795,-0.018718295530872897,-0.04711667147651949,0.3269325807581047,-0.08894168689378266,0.9453981534621938,-0.015102970943454164,-0.3253358479331941,0.01228078778194491
976.8999999994402,0.34354496,-0.42798716,0.09385851,-2.3668716,0.31304052,1.3264947,1.1492666,0.03999952,0.039999977,0.023087780513209033,0.033595078480708196,-0.017295931525196373,-0.047531649283500094,0.32606129588025384,-0.09049407849864201,0.9444385396324818,-0.01517332405254359,-0.32813924529867955,0.011412746771683663
976.9166666661068,0.34652415,-0.4248976,0.09467472,-2.366963,0.315752,1.3243753,1.1524154,0.03999953,0.03999999,0.0233298531437498,0.034155522726020404,-0.016839348723229897,-0.04794464530165948,0.32514206134243484,-0.0920216567218019,0.9434726298972373,-0.015242651327245211,-0.33093227827370364,0.01053021423725936
976.9333333327735,0.34949684,-0.42181477,0.09548923,-2.3670537,0.3184575,1.3222609,1.1555575,0.039999545,0.03999999,0.023631627504450137,0.0345416841571522,-0.014955080180734104,-0.04834869173258369,0.32417449195645365,-0.09351913910458665,0.9425007621305637,-0.015310654997785497,-0.333714086546799,0.009633569799463565
976.9499999994401,0.3524629,-0.418739,0.096301936,-2.3671443,0.32115677,1.3201512,1.1586925,0.039999552,0.03999999,0.02357670165378245,0.03509336880102021,-0.014740489927267397,-0.04875066173683121,0.32316209874794294,-0.09498948289152162,0.9415229973588314,-0.015377490335741774,-0.3364846041897507,0.008722922599845393
976.9666666661068,0.35542175,-0.41567084,0.09711277,-2.3672347,0.32384947,1.3180467,1.1618198,0.039999537,0.03999999,0.023911759820194334,0.03567933137678114,-0.013648811287481077,-0.049148903601602706,0.3221021954826243,-0.09643231358055629,0.9405395618239859,-0.015443129695219158,-0.33924331049192696,0.007798632933990249
976.9833333327734,0.35837305,-0.41261053,0.09792162,-2.367325,0.3265353,1.3159477,1.164939,0.03999955,0.039999995,0.02358790647924991,0.03623531741159258,-0.012788385333495356,-0.0495401940096481,0.3209971237080724,-0.09784296777299349,0.9395505922571068,-0.015507562622528457,-0.34198995223823137,0.00686095175032922
976.9999999994401,0.36131656,-0.40955842,0.0987284,-2.3674152,0.32921383,1.3138542,1.1680499,0.039999533,0.039999988,0.023993231025776218,0.036599151350269477,-0.011794889022676003,-0.049926194306964045,0.31984518653796423,-0.09922438811464955,0.9385562995709683,-0.015570835444898228,-0.34472408239010627,0.005910045642608528
977.0166666661067,0.3642519,-0.4065149,0.09953302,-2.367505,0.3318848,1.3117667,1.1711522,0.03999951,0.03999999,0.024169875730639667,0.0369599242294405,-0.010767453601334687,-0.05030743933687762,0.31864701928247874,-0.10057565971355814,0.9375568928587316,-0.015632859355694164,-0.347445277560147,0.004946257433486404
977.0333333327734,0.36717874,-0.40348035,0.10033536,-2.3675947,0.33454785,1.3096852,1.1742455,0.039999496,0.039999984,0.02428399791234437,0.03752174645618167,-0.009950189275520493,-0.050680694018182565,0.3174045116996713,-0.10189151023434334,0.9365525230337136,-0.015693693788451576,-0.3501532809492794,0.00396981295712937
977.04999999944,0.37009665,-0.40045518,0.10113535,-2.367683,0.33720273,1.3076104,1.1773288,0.03999949,0.039999988,0.025815029275833012,0.037151704696647414,-0.0076286453583152,-0.051047796094731285,0.3161173784734271,-0.10317451449303502,0.9355436538642339,-0.015753639515322285,-0.3528470001382705,0.0029814509560191697
977.0666666661067,0.37300524,-0.39743972,0.10193288,-2.367771,0.33984908,1.3055419,1.1804028,0.039999474,0.039999984,0.02455560155572023,0.03839474892719519,-0.008064249131267687,-0.05140626714083196,0.3147927135898475,-0.1044275294480186,0.9345302067380558,-0.015812190507377283,-0.3555268528169222,0.0019809723823390633
977.0833333327733,0.37590432,-0.3944344,0.10272788,-2.3678582,0.34248656,1.3034804,1.1834661,0.039999463,0.039999984,0.025151515539079128,0.03826628743655025,-0.006467482061300878,-0.051758285378167346,0.31342240680166666,-0.10564401297248441,0.933512540815847,-0.015869842583721025,-0.35819205093008216,0.0009689615117210081
977.09999999944,0.37879348,-0.3914393,0.10352021,-2.367945,0.34511498,1.3014262,1.1865187,0.03999945,0.039999984,0.024703700618333713,0.03871702311153413,-0.005624296154205233,-0.052100581143792846,0.31201213442639175,-0.10682772607400873,0.9324907712938089,-0.015926387713663077,-0.3608424984340347,-5.4315331040339676e-05
977.1166666661067,0.38167232,-0.38845503,0.10430983,-2.3680315,0.34773389,1.2993793,1.1895608,0.039999437,0.039999984,0.024740650880983317,0.039308124724490856,-0.004962827212684484,-0.05243534976716083,0.3105602920999939,-0.10797812558421524,0.9314651081878438,-0.015981560134389297,-0.3634778625725556,-0.0010887533997733106
977.1333333327733,0.3845406,-0.38548195,0.10509657,-2.368117,0.3503431,1.29734,1.1925914,0.039999425,0.03999998,0.025678443856058664,0.03920708310991561,-0.003474793053692693,-0.052762760645325785,0.3090665341695725,-0.10908875445385205,0.9304358366723193,-0.016035721628544376,-0.36609760533903596,-0.002133736805800871
977.14999999944,0.38739786,-0.38252035,0.1058804,-2.368203,0.35294208,1.2953085,1.1956105,0.039999403,0.039999977,0.024200375662419837,0.04032127791403495,-0.0034562051760556045,-0.05308161792654981,0.30753291274297667,-0.11016640095694097,0.9294029887648212,-0.016088634730037736,-0.368701869163023,-0.003189354673626283
977.1666666661066,0.3902439,-0.3795706,0.10666122,-2.368288,0.35553056,1.293285,1.1986176,0.039999392,0.03999998,0.025381350753739262,0.03995944144095098,-0.001649080565402361,-0.053392736363278764,0.30595622165801506,-0.11120628288957006,0.928366954249391,-0.01614049455998758,-0.371289883389125,-0.00425501891398584
977.1833333327733,0.39307824,-0.37663305,0.10743894,-2.3683727,0.35810846,1.2912703,1.2016119,0.03999937,0.03999997,0.02506685335041947,0.040165498320909876,-0.0006000825870211557,-0.05368920026538326,0.30434156085527625,-0.11220373562805883,0.9273279529684494,-0.01619136093837311,-0.37386133335991645,-0.0053301869248874
977.1999999994399,0.39590058,-0.37370804,0.10821346,-2.368457,0.3606753,1.2892637,1.2045928,0.03999936,0.03999996,0.02494956733471998,0.040890396353909786,-0.0003019440932283679,-0.05397942759411495,0.30268857956781214,-0.11316907520255073,0.9262860557440495,-0.016241393012864862,-0.37641627382359716,-0.00641473989277027
977.2166666661066,0.39871064,-0.3707959,0.1089847,-2.368541,0.36323085,1.287266,1.2075614,0.039999343,0.039999954,0.025147134657221848,0.0407955776720037,0.0010785205242891394,-0.05425600933205818,0.30099534002967027,-0.11409546265474316,0.9252415884239621,-0.01629001567753611,-0.3789541683712852,-0.007508442844996288
977.2333333327732,0.40150812,-0.36789694,0.109752566,-2.3686244,0.36577478,1.2852776,1.2105159,0.039999332,0.03999995,0.02503355674075003,0.04093011891664888,0.0022074508021496797,-0.05452478691983684,0.29926378971528933,-0.11498112768543961,0.9241948014407841,-0.016337842287193056,-0.3814746389481476,-0.008610675850878591
977.2499999994399,0.4042926,-0.3650116,0.110516965,-2.3687074,0.36830676,1.2832983,1.2134576,0.03999932,0.039999954,0.025241552056121108,0.04138634546209108,0.002913418607364271,-0.05478209210074564,0.29749584956757263,-0.11583106870692142,0.9231458744212542,-0.016384116955073472,-0.38397753609339486,-0.009721472433028755
977.2666666661065,0.40706384,-0.3621402,0.11127782,-2.3687901,0.3708266,1.2813287,1.2163845,0.039999306,0.03999995,0.024842992560714094,0.04141185317473317,0.003929289346893405,-0.05503043077087827,0.29568974842937157,-0.11663600337040775,0.9220950560244513,-0.01642958706829316,-0.38646250686628636,-0.010840069679435089
977.2833333327732,0.40982154,-0.35928297,0.112035036,-2.3688726,0.37333378,1.2793689,1.2192967,0.039999302,0.03999996,0.024696967579607154,0.04179574426774746,0.004772372382377821,-0.05526680298295453,0.2938491495529352,-0.1174046856134369,0.92104253327224,-0.01647414472653941,-0.3889293775271085,-0.011966359319349034
977.2999999994398,0.4125653,-0.3564403,0.11278853,-2.368955,0.3758283,1.277419,1.222194,0.039999284,0.03999995,0.02484683801666776,0.041861961905220735,0.005647302515821018,-0.05548974002881116,0.2919701793190854,-0.11813184906160695,0.9199885135200889,-0.016517654597586733,-0.3913779443715302,-0.013099875465341198
977.3166666661065,0.41529483,-0.3536126,0.11353819,-2.369037,0.37830964,1.2754793,1.2250762,0.03999927,0.039999958,0.02477997925933728,0.04210062432664641,0.0067213174970714995,-0.05570256963939102,0.29005573409564356,-0.11881980627505284,0.9189332809537799,-0.01656004485412647,-0.3938078239843769,-0.014240359498291836
977.3333333327731,0.41800988,-0.3508,0.11428396,-2.3691185,0.38077766,1.2735502,1.2279432,0.03999925,0.039999954,0.024852377909212464,0.04193841681912058,0.007825358002389038,-0.05590273304002044,0.2881066016461217,-0.11946515446531955,0.9178770716331552,-0.01660131669426987,-0.3962187600619023,-0.015387391889758784
977.3499999994398,0.42071006,-0.34800294,0.115025744,-2.3691998,0.38323206,1.2716318,1.2307944,0.03999924,0.039999954,0.024576710268098267,0.0422079488933802,0.008702267890892124,-0.05609105324860025,0.2861223641759076,-0.12006756759278142,0.9168201219175665,-0.01664148440880568,-0.3986105048161028,-0.016540571150404804
977.3666666661064,0.42339513,-0.34522188,0.11576349,-2.3692806,0.38567254,1.2697242,1.2336292,0.039999228,0.039999958,0.02501997681396695,0.0422424700929791,0.00953843243969299,-0.05626851826984805,0.2841062698282082,-0.1206298260633552,0.9157626750724244,-0.016680842759900626,-0.40098279437452583,-0.01769946452900865
977.3833333327731,0.42606467,-0.34245703,0.11649711,-2.369361,0.3880988,1.2678277,1.2364476,0.03999921,0.039999954,0.024799298357258692,0.042378206004989316,0.010681279937529986,-0.05643164321707905,0.28205627036221936,-0.12115006865661523,0.9147049793255452,-0.016719180073143713,-0.4033353808379183,-0.018863731843599605
977.3999999994397,0.42871845,-0.3397085,0.117226474,-2.369441,0.39051056,1.2659423,1.2392492,0.039999194,0.039999958,0.02432742187856718,0.04264383692035301,0.011252786636195555,-0.05658253857965509,0.279974974518746,-0.12162927080791575,0.9136471551873866,-0.016756465362772036,-0.405668299641606,-0.020033156327202123
977.4166666661064,0.4313562,-0.33697692,0.11795153,-2.3695204,0.3929076,1.2640685,1.2420337,0.039999187,0.03999996,0.024985629896057127,0.042268666173284064,0.012688903274005181,-0.05671983692998622,0.2778605477087308,-0.12206511352648919,0.9125896229796133,-0.016792854595805904,-0.4079809298422599,-0.021207096677677156
977.433333332773,0.4339776,-0.33426234,0.11867222,-2.3695996,0.39528966,1.2622064,1.2448008,0.039999176,0.03999996,0.02414721737304948,0.042521957692243095,0.013186785621654984,-0.05684357537174903,0.275715825212946,-0.12245825332266985,0.9115325000599486,-0.016828263402749278,-0.41027333356983287,-0.022385322128673436
977.4499999994397,0.43658236,-0.33156517,0.11938843,-2.3696785,0.39765638,1.2603562,1.2475501,0.039999153,0.03999996,0.024170379035837186,0.04277568442406787,0.01404172519878788,-0.056955175966523997,0.2735414698173773,-0.12281081299794668,0.910476011215823,-0.01686272005110147,-0.4125453364361185,-0.023567500033148205
977.4666666661063,0.43917015,-0.32888576,0.120100096,-2.3697572,0.4000076,1.2585183,1.2502812,0.039999142,0.039999966,0.02403011654701359,0.04256773248969559,0.015152323360523301,-0.057052348671505104,0.2713348855434071,-0.12311911511375548,0.9094204714389525,-0.01689628499386909,-0.4147965852426038,-0.024753071571716845
977.483333332773,0.44174078,-0.32622427,0.12080714,-2.3698354,0.402343,1.2566928,1.2529943,0.03999913,0.03999996,0.0241171021617248,0.042532471896150614,0.016004110214173917,-0.057134248478668215,0.26910127473295253,-0.12338509886532775,0.9083660845397554,-0.01692880618671576,-0.4170269682239841,-0.025941853305397698
977.4999999994396,0.44429398,-0.32358122,0.121509485,-2.369913,0.40466225,1.2548796,1.2556885,0.039999116,0.03999997,0.024242602306201455,0.04260786051469845,0.01681973387958058,-0.057204604302288825,0.2668377874791621,-0.12360797020543467,0.9073131239137798,-0.01696057322786526,-0.4192362284766348,-0.02713335331813919
977.5166666661063,0.44682935,-0.3209567,0.122207046,-2.3699906,0.40696523,1.2530794,1.258364,0.0399991,0.039999973,0.023578337600560495,0.04255883842541053,0.017813395748067506,-0.05725942547367385,0.2645475341611186,-0.12378857648237483,0.9062618169314132,-0.016991331505200873,-0.42142423441234705,-0.028327168510482788
977.5333333327729,0.44934672,-0.31835106,0.12289977,-2.3700678,0.40925157,1.251292,1.2610201,0.039999086,0.039999973,0.023598003458302763,0.04268173375852058,0.018320528178017437,-0.05730026669435742,0.2622307605582985,-0.12392639220197325,0.9052123350302257,-0.01702127404653983,-0.4235909526697474,-0.0295230343172008
977.5499999994396,0.45184574,-0.31576455,0.12358756,-2.370145,0.41152135,1.2495176,1.2636567,0.03999907,0.039999977,0.023265867520549932,0.04262178988745369,0.018996672983762064,-0.05732594391385047,0.2598858567937098,-0.12402072003132723,0.9041648559700752,-0.01705024414986897,-0.4257363669507529,-0.0307204859762466
977.5666666661062,0.4543262,-0.3131975,0.12427037,-2.3702216,0.4137739,1.2477568,1.2662737,0.03999906,0.039999984,0.023665374197490152,0.04215910226303965,0.020823616258724975,-0.05733799174333923,0.25751278224256996,-0.12407165357994844,0.903119900343743,-0.01707834540210029,-0.42785973010239936,-0.03191907075928326
977.5833333327729,0.45678782,-0.31065005,0.12494809,-2.370298,0.41600916,1.2460095,1.2688705,0.039999045,0.039999988,0.02311624309709881,0.04251186398017692,0.020921134812856845,-0.05733579677593317,0.2551180836334,-0.12408092916816874,0.9020774695722109,-0.01710566533769267,-0.4299613951516181,-0.03311848098609027
977.5999999994395,0.45923036,-0.30812263,0.1256207,-2.3703737,0.4182268,1.2442757,1.271447,0.039999027,0.039999984,0.02331750034916258,0.04227634390803203,0.021922544906805008,-0.05731743078539822,0.2526964091340661,-0.12404562468091389,0.9010378976649879,-0.01713217192039417,-0.43204102318427406,-0.034318361596007624
977.6166666661062,0.46165356,-0.30561545,0.1262881,-2.3704493,0.42042676,1.2425559,1.2740029,0.03999901,0.03999999,0.022835887867467264,0.042175567245117396,0.02261184739229538,-0.05728441280303895,0.25025256618969727,-0.12396920966240453,0.9000013898317849,-0.01715780293114192,-0.4340985587964727,-0.03551829599314829
977.6333333327728,0.46405715,-0.30312875,0.12695017,-2.370525,0.42260876,1.2408497,1.2765378,0.039998993,0.039999984,0.02255443170509075,0.04244529233098371,0.02301125059900322,-0.057235371252968986,0.24778534946635333,-0.12384906583250233,0.8989680463922167,-0.017182691999627457,-0.4361341515989713,-0.03671795841890891
977.6499999994395,0.4664409,-0.30066273,0.12760693,-2.3705955,0.4247725,1.239158,1.2790517,0.039998975,0.039999984,0.027389898986873717,0.03899028461865628,0.028471424833154124,-0.05717154882212311,0.24529259674751724,-0.12368613482694699,0.8979391771661108,-0.01720728417844152,-0.4381455602559677,-0.037915847734611784
977.6666666661062,0.46880457,-0.29821783,0.12825829,-2.3706658,0.4269178,1.2374806,1.281544,0.03999896,0.03999998,0.022478296522931984,0.041915404545034285,0.024837210802042264,-0.05709113818218413,0.24279676914627496,-0.12349199597425681,0.8969140826848218,-0.017231218479056298,-0.44013454267671376,-0.03911262883176865
977.6833333327728,0.47114792,-0.29579422,0.12890416,-2.3707356,0.4290445,1.2358179,1.2840146,0.039998945,0.039999984,0.02242883406220475,0.04152395861346525,0.025946713163227386,-0.05699552183471897,0.24027931761956717,-0.12325702890837742,0.8958930538481698,-0.017254427847503303,-0.4421008941925,-0.04030781736149434
977.6999999994395,0.47347075,-0.29339203,0.12954445,-2.3708048,0.43115234,1.23417,1.2864635,0.03999893,0.039999984,0.022403025937567378,0.04133383380606759,0.026920970174892922,-0.05688428543449023,0.23774206756415295,-0.12298179171613643,0.8948763526237967,-0.017276844024989392,-0.4440444597313578,-0.04150110790271917
977.7166666661061,0.4757728,-0.29101157,0.13017921,-2.3708735,0.43324104,1.232537,1.2888902,0.039998908,0.03999998,0.021980237558660853,0.04125683749094389,0.02740295753751454,-0.05675844160994882,0.2351855830092603,-0.12266443625536969,0.8938641951227527,-0.01729859818013144,-0.44596517706900346,-0.042692154084423437
977.7333333327728,0.4780539,-0.28865308,0.13080823,-2.370942,0.4353105,1.2309192,1.2912946,0.0399989,0.039999984,0.021374358943382354,0.041401914908723025,0.02772961371931837,-0.05661562699858014,0.23261202064872602,-0.12230603957069078,0.8928566981361754,-0.017319610796486723,-0.44786319238817024,-0.043880617350963574
977.7499999994394,0.4803136,-0.2863167,0.13143156,-2.37101,0.43736053,1.2293165,1.2936763,0.039998885,0.039999988,0.02192933982443357,0.04097881352489452,0.029011270062073713,-0.05645858414605717,0.23001765343381445,-0.1219075080148335,0.8918541631357992,-0.01733994603579912,-0.4497382909125044,-0.045066036612047194
977.7666666661061,0.4825519,-0.2840028,0.13204913,-2.3710778,0.43939084,1.2277292,1.2960352,0.039998874,0.039999984,0.02127931904802871,0.040896650273192225,0.02931897061790867,-0.05628482061262527,0.22740638122478996,-0.12146757527331614,0.8908568266594754,-0.017359588020235853,-0.4515903769320013,-0.04624814115605098
977.7833333327727,0.48476857,-0.28171152,0.13266084,-2.3711452,0.44140136,1.2261574,1.2983708,0.03999885,0.039999984,0.021053978221630132,0.04073096393644171,0.029935117893908902,-0.05609695804054722,0.2247781164545508,-0.12098875849272711,0.8898648432990275,-0.01737863860648866,-0.45341952953314535,-0.04742650965993047
977.7999999994394,0.48696336,-0.27944311,0.13326661,-2.3712125,0.44339174,1.2246013,1.3006834,0.039998833,0.03999998,0.020908288161813893,0.040704309981998144,0.03066998134410026,-0.055892123374976066,0.22213277994958258,-0.12046994658717533,0.888878465192306,-0.01739695922969203,-0.45522562695979335,-0.048600910341206845
977.816666666106,0.48913613,-0.27719766,0.13386644,-2.3712792,0.44536188,1.223061,1.3029723,0.039998822,0.039999988,0.020801411190540797,0.0401832055739737,0.03149086472546969,-0.055672668755241975,0.2194717330178811,-0.11991161239725694,0.887897938080738,-0.01741472538926572,-0.45700857772089526,-0.04977086277245507
977.8333333327727,0.49128664,-0.27497545,0.13446033,-2.3713458,0.4473118,1.2215368,1.3052373,0.039998807,0.03999999,0.020455361059390498,0.03996612908508945,0.03191357447727139,-0.05543757147367172,0.21679500297302012,-0.11931369746528331,0.8869234573676023,-0.01743197983969356,-0.4587683928073674,-0.05093592652453304
977.8499999994393,0.49341464,-0.2727768,0.13504812,-2.371412,0.44924125,1.2200285,1.3074785,0.039998796,0.039999984,0.020476699276184007,0.03996800019905322,0.03250565404404604,-0.05518407984214266,0.21410354062785725,-0.11867783660181709,0.8859552182125224,-0.017448521770040186,-0.4605050725852269,-0.05209585908032276
977.866666666106,0.49551988,-0.2706018,0.13562976,-2.371478,0.4511496,1.2185361,1.3096957,0.039998777,0.03999999,0.02011348732566809,0.040238251658664126,0.03319168699819075,-0.054918995255379854,0.21139788643806284,-0.11800494224174993,0.8849933939703605,-0.017464433551067568,-0.4622186329548792,-0.0532505543528449
977.8833333327726,0.4976024,-0.2684506,0.13620523,-2.3715436,0.4530371,1.21706,1.3118886,0.039998766,0.03999999,0.020136436098150412,0.039312674670310965,0.033778487124380696,-0.05463632482778179,0.20867652811262216,-0.11729079352974311,0.8840382452011634,-0.017479858401913767,-0.4639089731399414,-0.05439945047647104
977.8999999994393,0.4996619,-0.2663235,0.13677451,-2.3716042,0.4549035,1.2156008,1.3140571,0.03999875,0.039999988,0.024327548672142818,0.03586778716645478,0.038802881878130524,-0.05433726338970882,0.20594374506908367,-0.11653945469393456,0.8830911042285847,-0.017495220307130677,-0.46557407701701686,-0.05554095523572554
977.9166666661059,0.50169826,-0.26422057,0.13733746,-2.3716638,0.45674863,1.214159,1.316201,0.039998733,0.03999999,0.019828387143006054,0.03831490928929426,0.03595921161226867,-0.0540250162967373,0.2032194309368243,-0.11576529032416395,0.8821513437904714,-0.017510060182476594,-0.4672154438590475,-0.056675686680132016
977.9333333327726,0.50371116,-0.26214203,0.13789414,-2.3717232,0.4585724,1.2127327,1.31832,0.039998714,0.039999988,0.019734154765305156,0.03930370653107973,0.034793700109758685,-0.05369745270753931,0.200487310824518,-0.1149564644364528,0.8812186284375053,-0.01752442680991467,-0.46883401427155513,-0.05780389625038284
977.9499999994392,0.5057006,-0.260088,0.1384445,-2.371782,0.4603746,1.211324,1.320414,0.039998706,0.039999995,0.01889689128995453,0.038029351177937265,0.03663170998006171,-0.05335352223861761,0.19774045442464894,-0.11411021267898225,0.8802936285875859,-0.01753831123282924,-0.4704289626952535,-0.05892475001787803
977.9666666661059,0.5076664,-0.2580586,0.13898842,-2.371841,0.4621552,1.2099317,1.322483,0.039998688,0.039999995,0.018743725009495726,0.03858640106095823,0.03598520152688911,-0.052995672480325676,0.19498723297063536,-0.11323096943656605,0.8793761521382611,-0.017551593736415818,-0.47200097000854674,-0.06003839537170039
977.9833333327725,0.50960845,-0.256054,0.13952589,-2.3718994,0.46391392,1.2085568,1.3245264,0.03999867,0.039999988,0.01867567978344198,0.037804810749786366,0.037366940249528025,-0.05262163179326365,0.19222106748702855,-0.11231399007063064,0.8784666560851506,-0.017564479100656873,-0.4735495868032162,-0.061144190721601696
977.9999999994392,0.5115265,-0.25407442,0.14005686,-2.3719575,0.4656507,1.2071985,1.3265445,0.039998654,0.03999999,0.018581931071648405,0.03795958099770402,0.03725477215781314,-0.05223348071947813,0.18944743854866142,-0.11136445513111261,0.8775651372650353,-0.017576882673247116,-0.47507516116503495,-0.06224206211644103
978.0166666661058,0.5134206,-0.25212,0.14058137,-2.3720155,0.46736547,1.2058579,1.3285369,0.039998636,0.03999999,0.018039206769149274,0.037240193219356676,0.03808353277464649,-0.051830666526308466,0.18666406139746267,-0.1103807639585127,0.8766719656223765,-0.017588888894641677,-0.47657740082985667,-0.06333148267259281
978.0333333327725,0.5152904,-0.25019085,0.14109929,-2.372073,0.46905807,1.2045343,1.3305037,0.03999862,0.03999999,0.018349277280615972,0.03720680453563885,0.03851784861943486,-0.051412642304701744,0.1838744831917808,-0.10936392535452326,0.8757872302731344,-0.01760037054035277,-0.47805649148924473,-0.06441230621820475
978.0499999994391,0.5171359,-0.24828713,0.14161056,-2.3721302,0.47072834,1.2032281,1.3324447,0.03999861,0.03999999,0.01776551531844639,0.036953043703291666,0.038828573971583236,-0.050979519794480885,0.1810778554536493,-0.10831427727765638,0.874911113092731,-0.017611428907680308,-0.4795124581344154,-0.065484229036913
978.0666666661058,0.51895684,-0.24640885,0.14211525,-2.372187,0.47237626,1.2019396,1.3343595,0.0399986,0.039999995,0.01766045186910592,0.03646612338342736,0.039654600583394206,-0.05053307323683702,0.1782740608689558,-0.10723161828619329,0.874043850114636,-0.017622064192036303,-0.4809452507883418,-0.06654680063334642
978.0833333327724,0.5207531,-0.24455628,0.14261323,-2.3722434,0.47400165,1.2006687,1.3362483,0.039998576,0.039999995,0.017362084718119952,0.03645352672890789,0.03985379178902404,-0.05007333973769579,0.17546583189486908,-0.10612009497170562,0.8731855814532526,-0.017632221613234654,-0.48235495938740736,-0.06759983918249649
978.0999999994391,0.52252465,-0.24272949,0.14310455,-2.3722968,0.47560441,1.1994153,1.3381106,0.03999856,0.039999988,0.01995245598640505,0.03411747175104951,0.04241044099576596,-0.049599040756725346,0.17265244284105144,-0.10497667462638971,0.8723370242572147,-0.017642502319839104,-0.4837407158556225,-0.06864239248053622
978.1166666661057,0.5242715,-0.24092855,0.14358908,-2.3723476,0.47718424,1.1981797,1.3399465,0.039998554,0.039999988,0.01910702504814843,0.034274581357374156,0.04259062202895958,-0.04910959591776981,0.16984556917258942,-0.10381171781066757,0.8714982977920316,-0.017652732415860323,-0.4851026433485764,-0.06967440993700022
978.1333333327724,0.5259933,-0.2391536,0.14406684,-2.3723981,0.47874153,1.196962,1.341756,0.039998535,0.039999995,0.01673628679743633,0.035366019909810475,0.040924934097474885,-0.048607914548210604,0.16704346995376174,-0.10262508557585866,0.8706690321656332,-0.017662515369865836,-0.4864417260356788,-0.0706959627560032
978.149999999439,0.5276902,-0.2374047,0.14453785,-2.3724482,0.48027593,1.1957623,1.343539,0.039998516,0.03999999,0.016628643284133382,0.03493342059024407,0.04135817559944854,-0.04809312348367037,0.16423832434863658,-0.10140975229276772,0.8698494668733233,-0.01767196942641807,-0.4877578518953056,-0.07170693405287899
978.1666666661057,0.52936196,-0.23568195,0.14500208,-2.372498,0.48178744,1.1945804,1.3452954,0.039998498,0.039999988,0.01627459012294441,0.034878546834904434,0.04144986770825421,-0.047565835275046195,0.1614310697259842,-0.10016697425671618,0.8690396519785107,-0.017681058349370834,-0.4890512635867112,-0.07270711828257348
978.1833333327723,0.5310085,-0.23398536,0.14545943,-2.3725476,0.48327595,1.1934165,1.347025,0.03999849,0.039999984,0.016037717114136818,0.03473033626928412,0.04191091176508621,-0.04702348922930917,0.15862300689958608,-0.09889732848639209,0.8682397124004627,-0.01768979301727415,-0.49032207634661784,-0.0736962311173998
978.199999999439,0.5326297,-0.23231511,0.14590989,-2.3725967,0.48474145,1.1922704,1.3487278,0.039998475,0.039999984,0.01617679239462877,0.034184240553836176,0.04227388981020708,-0.04647078163508267,0.15581161379994954,-0.0976009976672886,0.8674498440879532,-0.017698236136656175,-0.4915702758545935,-0.07467398694107463
978.2166666661057,0.53422564,-0.23067121,0.14635348,-2.3726451,0.4861837,1.1911427,1.3504037,0.039998453,0.039999988,0.015919664019836688,0.03363037398822488,0.04301066670520104,-0.0459067517376225,0.15300069289917706,-0.0962814316443232,0.8666703425571738,-0.017706434205490597,-0.4927956755108423,-0.07564008009891476
978.2333333327723,0.53579617,-0.22905375,0.14679018,-2.3726933,0.48760283,1.190033,1.3520527,0.03999844,0.039999988,0.015491436318537666,0.03371726427958688,0.042607189562904324,-0.04532972891380925,0.1501913448083637,-0.09493682947530915,0.8659011354371605,-0.01771428319214356,-0.49399869897041593,-0.07659447261494158
978.249999999439,0.5373412,-0.22746272,0.14721991,-2.3727415,0.48899865,1.1889414,1.3536745,0.03999843,0.039999988,0.014942403125828285,0.033694691880437055,0.042838099251074624,-0.04474066357918925,0.1473836648432193,-0.09356872245291248,0.8651423152304953,-0.017721842194524672,-0.49517949381215876,-0.07753695644520008
978.2666666661056,0.5388608,-0.22589828,0.1476427,-2.3727896,0.4903712,1.1878679,1.3552694,0.039998423,0.039999988,0.014863435758383226,0.033250856277367014,0.04284818977139393,-0.04413988778890353,0.14457599534874363,-0.0921771482825608,0.8643940155298511,-0.01772909087282643,-0.4963381224046204,-0.07846740406601141
978.2833333327723,0.5403549,-0.22436038,0.1480586,-2.3728364,0.4917205,1.1868128,1.3568372,0.039998405,0.03999998,0.015848713785948654,0.03177566253440567,0.04438861003024375,-0.043528644183793166,0.14176804002181337,-0.09076126298323826,0.8636566873683088,-0.01773628187678751,-0.4974741705357867,-0.07938513915662933
978.2999999994389,0.5418233,-0.22284909,0.14846751,-2.3728793,0.4930465,1.185776,1.358379,0.039998382,0.039999984,0.017918030937380536,0.0298535998420002,0.04677604859798512,-0.042907265992977936,0.13896803059626234,-0.08932955646929662,0.862930985167701,-0.017743105388646603,-0.4985868735651164,-0.08028964165588957
978.3166666661056,0.54326606,-0.2213644,0.14886941,-2.3729208,0.49434918,1.1847574,1.359894,0.039998375,0.039999988,0.015547869182519491,0.03135922525174806,0.04480429002886588,-0.04227704864677307,0.13618601917499767,-0.08788201465502085,0.862216421830989,-0.01774965993165482,-0.49967730539175886,-0.08118116760497923
978.3333333327722,0.5446832,-0.2199063,0.1492643,-2.3729622,0.4956284,1.183757,1.36138,0.039998364,0.039999988,0.013891097142160191,0.032072685452466665,0.04372069388884903,-0.04163768247091253,0.13341100706753184,-0.08641663330715095,0.8615128040672922,-0.017756786979037285,-0.500746076798335,-0.08205943891697261
978.3499999994389,0.54607475,-0.21847484,0.14965226,-2.3730035,0.49688432,1.1827749,1.362839,0.039998356,0.039999988,0.013941013583540496,0.03137596609965598,0.04404641368028761,-0.0409838462708351,0.130638594816544,-0.08493961680680984,0.8608203107442629,-0.017763583083512828,-0.5017931346850014,-0.08292465079326962
978.3666666661055,0.5474406,-0.21707001,0.15003324,-2.3730445,0.49811688,1.1818111,1.3642713,0.039998345,0.03999999,0.013783861852512125,0.03120986517823887,0.04420844537474933,-0.04032169391057173,0.12787167501991845,-0.08344384051642792,0.8601390192404365,-0.01776993986976258,-0.5028186089524133,-0.08377674682323959
978.3833333327722,0.5487807,-0.21569183,0.15040718,-2.3730848,0.4993261,1.1808656,1.365676,0.03999833,0.039999995,0.013993488581887092,0.030528641620075625,0.04488668379017957,-0.03965156244538616,0.12511021279005066,-0.08192930384359537,0.8594691405748561,-0.017776235196925626,-0.503822464459503,-0.08461516511651238
978.3999999994388,0.550095,-0.21434027,0.15077414,-2.3731246,0.5005119,1.1799383,1.3670536,0.03999832,0.039999988,0.013616107459135662,0.030550310288135485,0.044665074281335926,-0.038971386469814406,0.12235733348329036,-0.08040017276404837,0.858810662377887,-0.017782337925912512,-0.5048049470952868,-0.08544003764084307
978.4166666661055,0.55138385,-0.21301532,0.15113406,-2.3731642,0.5016745,1.1790291,1.3684045,0.039998304,0.039999984,0.013293375468004243,0.030139045636001782,0.04431175361521156,-0.03828333493784368,0.11961154565780492,-0.0788568168118956,0.8581635923566665,-0.017788092904838685,-0.5057662897992052,-0.08625133394363399
978.4333333327721,0.55264705,-0.2117169,0.15148701,-2.3732038,0.5028135,1.1781384,1.3697281,0.039998297,0.03999999,0.01254956181333533,0.030142477661265765,0.044568410308010176,-0.0375886166677076,0.11687275783504628,-0.07729742182736168,0.8575280590430221,-0.017793679037879612,-0.5067065254938345,-0.08704889408929951
978.4499999994388,0.55388457,-0.21044505,0.15183297,-2.3732429,0.5039293,1.1772656,1.3710247,0.03999829,0.039999995,0.013127863354789326,0.02952761064816123,0.04479320636467943,-0.03688511319760249,0.11414324083902071,-0.07572446972208358,0.8569041148779644,-0.0177990263485521,-0.5076258290111114,-0.0878325126991008
978.4666666661054,0.5550965,-0.20919968,0.15217192,-2.3732803,0.50502187,1.1764112,1.3722944,0.039998274,0.039999995,0.01388753496200934,0.028196538502256452,0.04591303858203499,-0.03617510666061209,0.11142229866673561,-0.07413863903363867,0.8562921450618293,-0.017804333324588164,-0.508523846796132,-0.08860172266915675
978.4833333327721,0.5562828,-0.20798072,0.15250392,-2.3733149,0.50609124,1.1755749,1.373537,0.039998263,0.039999995,0.0147337147458515,0.026982545879827846,0.046994402481659314,-0.03545811279251152,0.10871711222575914,-0.07254428700988134,0.855692465794056,-0.017809865415979974,-0.5094003493272699,-0.089356011450872
978.4999999994387,0.5574439,-0.20678817,0.15282895,-2.373348,0.5071375,1.1747566,1.3747525,0.03999825,0.03999999,0.013373124694426863,0.027634849745949985,0.045365323542012614,-0.03473358592631734,0.10603143641773596,-0.07094868019489847,0.8551047728610595,-0.01781552064049867,-0.510255992473404,-0.09009582010018682
978.5166666661054,0.55857927,-0.20562193,0.15314701,-2.373381,0.5081607,1.1739565,1.3759415,0.039998244,0.03999999,0.012017193892988054,0.028377726092587707,0.04497030797665502,-0.03400217432309684,0.1033608340530664,-0.06934601830871363,0.854528878270495,-0.017820733023849195,-0.5110913036287518,-0.09082123667582176
978.533333332772,0.5596895,-0.2044819,0.15345806,-2.3734133,0.5091609,1.1731744,1.3771037,0.03999823,0.039999988,0.012025378179036927,0.027739247424851676,0.04465040824405131,-0.033267196935791166,0.10070204181862011,-0.0677344755261048,0.8539648511652911,-0.01782591295142635,-0.5119063570860807,-0.09153224227860186
978.5499999994387,0.56077427,-0.20336796,0.15376224,-2.3734455,0.5101381,1.1724102,1.3782392,0.039998222,0.03999999,0.011566527664652604,0.02771014943903083,0.04474975975586881,-0.03252686607193124,0.09805675643743095,-0.06611572442161515,0.8534126741665145,-0.017830843409146983,-0.5127014041776771,-0.09222873060774195
