rsonawane2002/My_IMU/logs_2/traj_339/imu_400hz_339.csv
time,j1,j2,j3,j4,j5,j6,j7,gripper1,gripper2,imu_ax,imu_ay,imu_az,imu_gx,imu_gy,imu_gz
0.0,0.00016700293,-0.785875,4.0107683e-05,-2.3551247,9.29385e-05,1.570997,0.786,0.04,0.04,-9.518758,-0.0608570985496044,0.07363588,-2.079976e-07,-0.0011641271412372,1.0800978e-06
0.0025,0.000167004772,-0.7858577739999998,4.010911055000002e-05,-2.3551391900000005,9.29451765000001e-05,1.570996565,0.786,0.04,0.04,-9.566103400000689,-0.051630190110747536,0.06395393979985911,-2.1213122800006015e-07,-0.001325070962777777,1.129230885000715e-06
0.005,0.00016700661400000005,-0.7858405479999995,4.0110538100000045e-05,-2.355153680000001,9.29518530000002e-05,1.57099613,0.786,0.04,0.04,-9.613448800001377,-0.04240328167189067,0.05427199959971822,-2.1626485600012032e-07,-0.001486014784318354,1.17836397000143e-06
0.0075,0.00016700845600000006,-0.7858233219999993,4.011196565000006e-05,-2.3551681700000007,9.29585295000003e-05,1.570995695,0.786,0.04,0.04,-9.660794200002067,-0.03317637323303381,0.04459005939957733,-2.2039848400018047e-07,-0.0016469586058589312,1.2274970550021448e-06
0.01,0.0001670102980000001,-0.7858060959999991,4.011339320000009e-05,-2.355182660000001,9.296520600000038e-05,1.57099526,0.786,0.04,0.04,-9.708139600002756,-0.023949464794176943,0.034908119199436434,-2.245321120002406e-07,-0.0018079024273995083,1.2766301400028598e-06
0.0125,0.0001670121400000001,-0.7857888699999988,4.0114820750000104e-05,-2.3551971500000013,9.297188250000049e-05,1.570994825,0.786,0.04,0.04,-9.755485000003445,-0.014722556355320077,0.025226178999295537,-2.2866574000030078e-07,-0.0019688462489400854,1.3257632250035749e-06
0.015,0.00016701398200000015,-0.7857716439999985,4.011624830000013e-05,-2.3552116400000016,9.297855900000059e-05,1.57099439,0.786,0.04,0.04,-9.802830400004133,-0.005495647916463217,0.015544238799154654,-2.3279936800036092e-07,-0.0021297900704806624,1.37489631000429e-06
0.0175,0.0001670191120000011,-0.7857548569999985,4.011855700000039e-05,-2.355225735000001,9.298820650000148e-05,1.57099396,0.786,0.04,0.04,-9.83429239999997,0.0006606946612023857,0.00901652130997916,-2.705929440099903e-07,-0.002286190411555526,1.5724817500469979e-06
0.02,0.00016703081800000102,-0.7857389479999987,4.0122628000000364e-05,-2.355239040000001,9.300379600000139e-05,1.57099354,0.786,0.04,0.04,-9.833987599999972,0.0006759055191664158,0.008797249239980456,-3.7570641600936886e-07,-0.0024335037917029303,2.0669719000440745e-06
0.0225,0.00016704252400000097,-0.7857230389999987,4.012669900000034e-05,-2.355252345000001,9.301938550000129e-05,1.57099312,0.786,0.04,0.04,-9.833682799999975,0.0006911163771304458,0.008577977169981753,-4.808198880087474e-07,-0.0025808171718503343,2.5614620500411507e-06
0.025,0.0001670542300000009,-0.7857071299999988,4.0130770000000315e-05,-2.355265650000001,9.30349750000012e-05,1.5709927,0.786,0.04,0.04,-9.833377999999977,0.0007063272350944759,0.008358705099983049,-5.859333600081261e-07,-0.002728130551997739,3.0559522000382277e-06
0.0275,0.00016706593600000083,-0.7856912209999989,4.013484100000029e-05,-2.355278955000001,9.30505645000011e-05,1.57099228,0.786,0.04,0.04,-9.833073199999978,0.000721538093058506,0.008139433029984345,-6.910468320075046e-07,-0.0028754439321451424,3.5504423500353048e-06
0.03,0.00016707764200000075,-0.785675311999999,4.013891200000027e-05,-2.3552922600000006,9.306615400000102e-05,1.57099186,0.786,0.04,0.04,-9.83276839999998,0.0007367489510225361,0.007920160959985642,-7.961603040068833e-07,-0.003022757312292547,4.044932500032381e-06
0.0325,0.00016708934800000068,-0.785659402999999,4.014298300000024e-05,-2.3553055650000005,9.308174350000092e-05,1.57099144,0.786,0.04,0.04,-9.832463599999981,0.0007519598089865662,0.007700888889986938,-9.012737760062618e-07,-0.003170070692439951,4.539422650029458e-06
0.035,0.0001671186640000022,-0.7856443399999992,4.015183640000065e-05,-2.3553181000000003,9.311371900000233e-05,1.57099101,0.786,0.04,0.04,-9.832168699999983,0.0007771314121799852,0.00749906180998876,-1.0482956100097777e-06,-0.0033085024915713497,5.497969730069302e-06
0.0375,0.00016715678500000224,-0.7856296999999991,4.016308100000066e-05,-2.3553302500000006,9.315388750000237e-05,1.570990575,0.786,0.04,0.04,-9.831878749999984,0.0008072833879868075,0.007305957224988584,-1.2162716250099302e-06,-0.0034424935001958964,6.688545275070383e-06
0.04,0.00016719490600000227,-0.7856150599999991,4.0174325600000675e-05,-2.3553424000000005,9.319405600000241e-05,1.57099014,0.786,0.04,0.04,-9.831588799999983,0.00083743536379363,0.007112852639988409,-1.3842476400100831e-06,-0.0035764845088204432,7.879120820071467e-06
0.0425,0.0001672330270000023,-0.7856004199999991,4.018557020000068e-05,-2.355354550000001,9.323422450000245e-05,1.570989705,0.786,0.04,0.04,-9.831298849999982,0.0008675873396004524,0.006919748054988233,-1.552223655010236e-06,-0.00371047551744499,9.06969636507255e-06
0.045,0.00016727114800000234,-0.7855857799999991,4.01968148000007e-05,-2.3553667000000007,9.327439300000248e-05,1.57098927,0.786,0.04,0.04,-9.831008899999983,0.0008977393154072748,0.006726643469988058,-1.7201996700103884e-06,-0.003844466526069537,1.0260271910073632e-05
0.0475,0.0001673092690000024,-0.7855711399999991,4.0208059400000704e-05,-2.3553788500000006,9.331456150000252e-05,1.570988835,0.786,0.04,0.04,-9.830718949999982,0.0009278912912140972,0.006533538884987882,-1.8881756850105415e-06,-0.003978457534694084,1.1450847455074716e-05
0.05,0.00016734739000000563,-0.7855564999999991,4.0219304000001586e-05,-2.355391000000001,9.335473000000561e-05,1.5709884,0.786,0.04,0.04,-9.830428999999981,0.0009580432670218368,0.006340434299989278,-2.0561517000155503e-06,-0.004112448543317744,1.264142300014666e-05
0.0525,0.00016743585550000632,-0.7855429444999991,4.024425485000178e-05,-2.3554021300000008,9.34429255000063e-05,1.57098798,0.786,0.04,0.03999999925,-9.83013289999998,0.0010026013595083063,0.006172011614987976,-2.3003974500174378e-06,-0.004232517071076793,1.4945033600164465e-05
0.055,0.000167524321000007,-0.7855293889999989,4.026920570000198e-05,-2.3554132600000006,9.353112100000698e-05,1.57098756,0.786,0.04,0.0399999985,-9.829836799999978,0.0010471594519947758,0.006003588929986673,-2.544643200019326e-06,-0.004352585598835841,1.7248644200182274e-05
0.0575,0.00016761278650000768,-0.7855158334999988,4.0294156550002166e-05,-2.355424390000001,9.361931650000765e-05,1.57098714,0.786,0.04,0.03999999775,-9.829540699999974,0.001091717544481245,0.0058351662449853715,-2.7888889500212144e-06,-0.004472654126594889,1.9552254800200086e-05
0.06,0.00016770125200000837,-0.7855022779999987,4.031910740000236e-05,-2.355435520000001,9.370751200000834e-05,1.57098672,0.786,0.04,0.039999997,-9.829244599999972,0.0011362756369677146,0.00566674355998407,-3.0331347000231023e-06,-0.004592722654353937,2.185586540021789e-05
0.0625,0.00016778971750000906,-0.7854887224999986,4.034405825000255e-05,-2.355446650000001,9.379570750000902e-05,1.5709863,0.786,0.04,0.03999999625,-9.828948499999969,0.001180833729454184,0.005498320874982767,-3.277380450024991e-06,-0.004712791182112985,2.41594760002357e-05
0.065,0.00016787818300000975,-0.7854751669999985,4.0369009100002747e-05,-2.355457780000001,9.388390300000971e-05,1.5709858799999998,0.786,0.04,0.0399999955,-9.828652399999967,0.0012253918219406535,0.005329898189981465,-3.5216262000268794e-06,-0.004832859709872034,2.6463086600253512e-05
0.0675,0.0001679936355000188,-0.7854619434999985,4.040132160000522e-05,-2.355468540000001,9.399653430001791e-05,1.570985455,0.786000095,0.04,0.03999999525,-9.82836349999997,0.0012732169416327566,0.005166994329983149,-3.764827840026754e-06,-0.004948458378214975,2.9112208750370622e-05
0.07,0.00016816306200001665,-0.7854493839999988,4.044835740000462e-05,-2.3554785600000008,9.415803720001586e-05,1.57098502,0.78600038,0.04,0.039999996,-9.828088999999974,0.0013275761157327396,0.005015128119985082,-4.005941260023684e-06,-0.005055117327730336,3.2452354000328095e-05
0.0725,0.0001683324885000145,-0.785436824499999,4.049539320000402e-05,-2.3554885800000007,9.43195401000138e-05,1.570984585,0.7860006650000001,0.04,0.03999999675,-9.827814499999976,0.0013819352898327222,0.004863261909987017,-4.247054680020613e-06,-0.0051617762772456985,3.579249925028555e-05
0.075,0.00016850191500001233,-0.7854242649999991,4.054242900000342e-05,-2.3554986000000007,9.448104300001175e-05,1.57098415,0.78600095,0.04,0.0399999975,-9.82753999999998,0.001436294463932705,0.004711395699988951,-4.488168100017543e-06,-0.005268435226761061,3.913264450024303e-05
0.0775,0.00016867134150001017,-0.7854117054999993,4.058946480000282e-05,-2.3555086200000006,9.464254590000969e-05,1.5709837150000001,0.7860012350000001,0.04,0.03999999825,-9.827265499999983,0.001490653638032688,0.004559529489990884,-4.729281520014473e-06,-0.005375094176276422,4.2472789750200494e-05
0.08,0.000168840768000008,-0.7853991459999994,4.063650060000222e-05,-2.3555186400000006,9.480404880000764e-05,1.57098328,0.78600152,0.04,0.039999999,-9.826990999999987,0.001545012812132671,0.004407663279992818,-4.970394940011403e-06,-0.005481753125791784,4.5812935000157974e-05
0.0825,0.00016901019450000585,-0.7853865864999996,4.068353640000162e-05,-2.3555286600000005,9.496555170000558e-05,1.570982845,0.786001805,0.04,0.03999999975,-9.826716499999991,0.0015993719862326537,0.004255797069994752,-5.211508360008333e-06,-0.005588412075307146,4.915308025011544e-05
0.085,0.0001692579560000102,-0.7853745999999996,4.0751940900002804e-05,-2.3555384000000004,9.519924480000956e-05,1.5709824000000001,0.78600209,0.04,0.04,-9.82643379999999,0.0016624161042296305,0.00411626877999527,-6.271751350052138e-06,-0.005685717239979175,5.358565380017661e-05
0.08750000000000001,0.0001695448850000124,-0.7853628999999995,4.0831029750003414e-05,-2.3555480000000006,9.546903300001165e-05,1.57098195,0.786002375,0.04,0.04,-9.826146999999988,0.0017298026941745114,0.003982909449994239,-7.741559125063502e-06,-0.0057783455122301765,5.856444150021511e-05
0.09,0.00016983181400001462,-0.7853511999999995,4.0910118600004024e-05,-2.3555576000000005,9.573882120001374e-05,1.5709815,0.7860026600000001,0.04,0.04,-9.825860199999985,0.0017971892841193921,0.003849550119993208,-9.211366900074857e-06,-0.005870973784481178,6.354322920025357e-05
0.0925,0.00017011874300001684,-0.7853394999999993,4.098920745000464e-05,-2.3555672000000007,9.600860940001582e-05,1.57098105,0.786002945,0.04,0.04,-9.825573399999982,0.001864575874064273,0.003716190789992177,-1.0681174675086222e-05,-0.005963602056732179,6.852201690029207e-05
0.095,0.00017040567200001905,-0.7853277999999992,4.106829630000525e-05,-2.3555768000000006,9.627839760001791e-05,1.5709806,0.78600323,0.04,0.04,-9.82528659999998,0.0019319624640091542,0.0035828314599911457,-1.2150982450097586e-05,-0.00605623032898318,7.350080460033056e-05
0.0975,0.00017069260100002127,-0.7853160999999992,4.114738515000586e-05,-2.3555864000000004,9.654818580002e-05,1.57098015,0.7860035150000001,0.04,0.04,-9.824999799999977,0.001999349053954035,0.0034494721299901145,-1.362079022510895e-05,-0.0061488586012341815,7.847959230036905e-05
0.1,0.00017097953000003654,-0.7853043999999991,4.1226474000010034e-05,-2.3555960000000007,9.68179740000341e-05,1.5709797,0.7860038,0.04,0.04,-9.824712999999983,0.002066735643899729,0.00331611279999017,-1.509059800009939e-05,-0.006241486873484271,8.345838000054954e-05
0.10250000000000001,0.00017142586550003693,-0.7852934799999991,4.1349051150010144e-05,-2.3556047300000005,9.723455565003449e-05,1.570979235,0.7860043760000001,0.04,0.04,-9.824514849999982,0.0021440545097056746,0.0031960277199900608,-1.6304786500100495e-05,-0.00632297685370514,9.017178300055564e-05
0.105,0.00017187220100003736,-0.7852825599999991,4.1471628300010255e-05,-2.3556134600000007,9.765113730003486e-05,1.57097877,0.7860049520000001,0.04,0.04,-9.824316699999983,0.0022213733755116196,0.003075942639989952,-1.7518975000101594e-05,-0.006404466833926008,9.688518600056172e-05
0.1075,0.00017231853650003775,-0.785271639999999,4.1594205450010366e-05,-2.3556221900000005,9.806771895003524e-05,1.5709783050000001,0.7860055280000001,0.04,0.04,-9.824118549999984,0.002298692241317565,0.002955857559989843,-1.87331635001027e-05,-0.006485956814146878,0.00010359858900056783
0.11,0.00017276487200003815,-0.7852607199999991,4.171678260001048e-05,-2.3556309200000007,9.848430060003561e-05,1.57097784,0.786006104,0.04,0.04,-9.823920399999983,0.0023760111071235105,0.0028357724799897336,-1.9947352000103806e-05,-0.006567446794367747,0.00011031199200057395
0.1125,0.00017321120750003857,-0.7852497999999991,4.1839359750010594e-05,-2.3556396500000005,9.8900882250036e-05,1.570977375,0.7860066800000001,0.04,0.04,-9.823722249999983,0.0024533299729294555,0.0027156873999896244,-2.1161540500104908e-05,-0.006648936774588616,0.00011702539500058005
0.115,0.00017365754300003897,-0.7852388799999991,4.1961936900010705e-05,-2.3556483800000008,9.931746390003637e-05,1.57097691,0.7860072560000001,0.04,0.04,-9.823524099999982,0.002530648838735401,0.0025956023199895147,-2.2375729000106017e-05,-0.006730426754809485,0.00012373879800058616
0.11750000000000001,0.00017417256650005607,-0.7852281574999992,4.210324510001537e-05,-2.355656775000001,9.979692125005202e-05,1.570976415,0.786007848,0.04,0.04,-9.823303549999977,0.0026106927311121283,0.002479297699990653,-2.3915078250188204e-05,-0.006807306897832216,0.0001310548010007324
0.12,0.0001748249660000522,-0.7852178299999992,4.228201540001431e-05,-2.3556645000000005,0.00010040213000004844,1.57097586,0.786008472,0.04,0.04,-9.82303819999998,0.0026961866766282627,0.002370553999991297,-2.610474900017525e-05,-0.0068749673664623145,0.00013957600400068198
0.1225,0.00017547736550004836,-0.7852075024999993,4.246078570001325e-05,-2.3556722250000006,0.00010100733875004486,1.570975305,0.786009096,0.04,0.04,-9.82277284999998,0.002781680622144397,0.0022618102999919397,-2.8294419750162305e-05,-0.006942627835092415,0.00014809720700063162
0.125,0.0001761297650000445,-0.7851971749999993,4.2639556000012194e-05,-2.3556799500000007,0.00010161254750004129,1.57097475,0.78600972,0.04,0.04,-9.822507499999983,0.002867174567660532,0.0021530665999925824,-3.048409050014936e-05,-0.007010288303722515,0.00015661841000058125
0.1275,0.00017678216450004065,-0.7851868474999993,4.2818326300011136e-05,-2.3556876750000004,0.0001022177562500377,1.570974195,0.786010344,0.04,0.04,-9.822242149999983,0.0029526685131766664,0.0020443228999932252,-3.267376125013642e-05,-0.007077948772352615,0.0001651396130005309
0.13,0.00017743456400003677,-0.7851765199999995,4.299709660001008e-05,-2.3556954000000006,0.00010282296500003413,1.5709736399999998,0.786010968,0.04,0.04,-9.821976799999986,0.0030381624586928013,0.0019355791999938678,-3.486343200012348e-05,-0.007145609240982715,0.00017366081600048052
0.1325,0.00017808696350003292,-0.7851661924999995,4.3175866900009025e-05,-2.3557031250000007,0.00010342817375003056,1.5709730849999999,0.786011592,0.04,0.04,-9.821711449999988,0.0031236564042089357,0.0018268354999945106,-3.7053102750110536e-05,-0.007213269709612815,0.00018218201900043016
0.135,0.00017891064400005292,-0.7851562249999995,4.3401348500014484e-05,-2.3557107100000003,0.00010419115300004901,1.5709722299999997,0.7860124150000001,0.04,0.04,-9.821444099999985,0.0032171665923726167,0.0017243782899942187,-3.899015330010541e-05,-0.007271778862926479,0.00019227103800063293
0.1375,0.00017981996500006616,-0.7851464374999994,4.3650185750018106e-05,-2.3557182250000004,0.00010503301750006126,1.5709712249999999,0.7860133375000001,0.04,0.04,-9.82117574999998,0.003314684901859196,0.0016250643249927734,-4.080089375013176e-05,-0.0073257123585829245,0.00020314396500079114
0.14,0.00018072928600007938,-0.7851366499999992,4.389902300002173e-05,-2.3557257400000005,0.00010587488200007352,1.5709702199999998,0.7860142600000001,0.04,0.04,-9.820907399999976,0.003412203211345775,0.0015257503599913282,-4.261163420015811e-05,-0.007379645854239369,0.00021401689200094937
0.14250000000000002,0.00018163860700009263,-0.785126862499999,4.4147860250025344e-05,-2.3557332550000005,0.00010671674650008576,1.5709692149999999,0.7860151825000001,0.04,0.04,-9.820639049999974,0.003509721520832354,0.001426436394989883,-4.442237465018446e-05,-0.007433579349895814,0.0002248898190011076
0.145,0.00018254792800010585,-0.7851170749999988,4.4396697500028966e-05,-2.3557407700000006,0.00010755861100009801,1.5709682099999998,0.7860161050000001,0.04,0.04,-9.82037069999997,0.003607239830318932,0.0013271224299884388,-4.623311510021079e-05,-0.007487512845552258,0.0002357627460012657
0.1475,0.00018345724900011907,-0.7851072874999987,4.464553475003259e-05,-2.3557482850000007,0.00010840047550011027,1.5709672049999999,0.7860170275000001,0.04,0.04,-9.820102349999965,0.003704758139805511,0.0012278084649869933,-4.804385555023714e-05,-0.007541446341208703,0.00024663567300142394
0.15,0.00018436657000017766,-0.7850974999999987,4.489437200004857e-05,-2.3557558000000007,0.00010924234000016394,1.5709661999999998,0.7860179500000002,0.04,0.04,-9.819833999999975,0.0038022764492928332,0.0011284944999884504,-4.985459600034163e-05,-0.00759537983686378,0.00025750860000187527
0.1525,0.00018558747250017044,-0.7850880739999987,4.52281832000466e-05,-2.355762340000001,0.00011036884390015727,1.5709651799999997,0.7860193075000002,0.04,0.04,-9.819661799999976,0.003904900245848382,0.0010491253149889196,-5.220233210032776e-05,-0.007639909395954241,0.0002703958320017991
0.155,0.00018680837500016322,-0.7850786479999987,4.556199440004463e-05,-2.3557688800000007,0.00011149534780015061,1.57096416,0.7860206650000001,0.04,0.04,-9.819489599999978,0.00400752404240393,0.0009697561299893887,-5.4550068200313884e-05,-0.007684438955044703,0.0002832830640017229
0.1575,0.000188029277500156,-0.7850692219999988,4.5895805600042655e-05,-2.355775420000001,0.00011262185170014396,1.57096314,0.7860220225000002,0.04,0.04,-9.819317399999978,0.004110147838959479,0.0008903869449898579,-5.689780430030001e-05,-0.007728968514135165,0.0002961702960016468
0.16,0.00018925018000014878,-0.7850597959999989,4.622961680004068e-05,-2.3557819600000007,0.00011374835560013729,1.57096212,0.7860233800000002,0.04,0.04,-9.819145199999978,0.004212771635515027,0.000811017759990327,-5.924554040028613e-05,-0.007773498073225626,0.00030905752800157064
0.1625,0.00019047108250014156,-0.7850503699999989,4.656342800003871e-05,-2.3557885000000005,0.00011487485950013063,1.5709610999999999,0.7860247375000001,0.04,0.04,-9.81897299999998,0.004315395432070575,0.0007316485749907962,-6.159327650027225e-05,-0.007818027632316088,0.00032194476000149447
0.165,0.00019169198500013437,-0.7850409439999989,4.689723920003674e-05,-2.3557950400000007,0.00011600136340012397,1.5709600799999999,0.7860260950000002,0.04,0.04,-9.81880079999998,0.004418019228626124,0.0006522793899912654,-6.394101260025838e-05,-0.00786255719140655,0.0003348319920014183
0.1675,0.00019303605900016925,-0.785031604999999,4.7264636750046245e-05,-2.355801525000001,0.00011724074670015591,1.5709589949999998,0.7860275730000003,0.03999999975,0.04,-9.818597099999971,0.004524030629557422,0.0005684335944401249,-6.661176180035296e-05,-0.007902259472760702,0.0003485588960016395
0.17,0.0001946264760001707,-0.785022439999999,4.769920700004664e-05,-2.3558079000000007,0.00011870588880015725,1.5709577799999999,0.7860292920000002,0.039999999,0.04,-9.81833039999997,0.004636817239236985,0.0004756345777900404,-6.992853720035597e-05,-0.007932307198646845,0.0003639651440016535
0.17250000000000001,0.00019621689300017213,-0.785013274999999,4.813377725004703e-05,-2.3558142750000006,0.00012017103090015858,1.570956565,0.7860310110000002,0.03999999825,0.04,-9.818063699999971,0.004749603848916547,0.0003828355611399559,-7.3245312600359e-05,-0.007962354924532986,0.00037937139200166755
0.17500000000000002,0.00019780731000017357,-0.7850041099999989,4.8568347500047434e-05,-2.355820650000001,0.00012163617300015992,1.5709553499999998,0.7860327300000002,0.0399999975,0.04,-9.81779699999997,0.00486239045859611,0.00029003654448987135,-7.656208800036202e-05,-0.00799240265041913,0.00039477764000168155
0.1775,0.00019939772700017501,-0.784994944999999,4.900291775004782e-05,-2.355827025000001,0.00012310131510016124,1.5709541349999998,0.7860344490000002,0.03999999675,0.04,-9.817530299999971,0.0049751770682756715,0.0001972375278397879,-7.9878863400365e-05,-0.008022450376305272,0.0004101838880016954
0.18,0.00020098814400017646,-0.784985779999999,4.9437488000048216e-05,-2.3558334000000007,0.00012456645720016258,1.5709529199999999,0.7860361680000002,0.039999996,0.04,-9.81726359999997,0.005087963677955234,0.0001044385111897034,-8.319563880036802e-05,-0.008052498102191413,0.0004255901360017094
0.1825,0.0002025785610001779,-0.7849766149999989,4.987205825004861e-05,-2.355839775000001,0.0001260315993001639,1.5709517049999997,0.7860378870000002,0.03999999525,0.04,-9.81699689999997,0.005200750287634797,1.163949453961892e-05,-8.651241420037104e-05,-0.008082545828077556,0.00044099638400172346
0.185,0.00020445589500023707,-0.7849675639999989,5.0384867500064754e-05,-2.355845710000001,0.0001277592120002181,1.5709502399999997,0.7860399040000002,0.039999994500000004,0.04,-9.81679779999998,0.005317946104346778,-7.287959390943039e-05,-9.008726040043455e-05,-0.00810568910092344,0.0004579925660020873
0.1875,0.0002064766875002527,-0.7849585699999988,5.093679625006902e-05,-2.355851425000001,0.00012961806000023245,1.5709486499999998,0.7860420700000003,0.039999993750000004,0.04,-9.81663249999998,0.005437346524573857,-0.00015325871826005186,-9.37911420004632e-05,-0.008125380147250937,0.0004757837150022249
0.19,0.00020849748000026833,-0.7849495759999988,5.148872500007329e-05,-2.355857140000001,0.00013147690800024682,1.5709470599999997,0.7860442360000003,0.039999993000000005,0.04,-9.816467199999979,0.005556746944800935,-0.00023363784261067332,-9.749502360049183e-05,-0.008145071193578435,0.0004935748640023624
0.1925,0.00021051827250028395,-0.7849405819999987,5.2040653750077554e-05,-2.3558628550000007,0.0001333357560002612,1.5709454699999996,0.7860464020000003,0.03999999225,0.04,-9.816301899999976,0.0056761473650280125,-0.00031401696696129475,-0.00010119890520052046,-0.008164762239905931,0.0005113660130025
0.195,0.00021253906500029958,-0.7849315879999986,5.259258250008182e-05,-2.355868570000001,0.00013519460400027557,1.5709438799999997,0.7860485680000003,0.0399999915,0.04,-9.816136599999975,0.005795547785255091,-0.00039439609131191624,-0.0001049027868005491,-0.008184453286233429,0.0005291571620026376
0.1975,0.0002145598575003152,-0.7849225939999985,5.314451125008609e-05,-2.355874285000001,0.00013705345200028994,1.5709422899999996,0.7860507340000004,0.03999999075,0.04,-9.815971299999974,0.005914948205482169,-0.00047477521566253767,-0.00010860666840057773,-0.008204144332560927,0.0005469483110027751
0.2,0.00021658065000041167,-0.7849135999999985,5.36964400001124e-05,-2.355880000000001,0.00013891230000037829,1.5709406999999995,0.7860529000000005,0.03999999,0.04,-9.815805999999963,0.006034348625710607,-0.0005551543400127819,-0.00011231055000067779,-0.008223835378886435,0.000564739460003362
0.2025,0.00021909518850037965,-0.7849046509999986,5.438300080010366e-05,-2.3558852950000007,0.00014122295100034887,1.5709385999999996,0.7860555700000005,0.0399999897,0.03999999925,-9.815582799999966,0.006162053416502336,-0.0006332287790117878,-0.00011645068200062508,-0.008231374900789139,0.0005852750810031005
0.20500000000000002,0.00022160972700034764,-0.7848957019999987,5.506956160009492e-05,-2.355890590000001,0.00014353360200031946,1.5709364999999997,0.7860582400000005,0.0399999894,0.0399999985,-9.815359599999969,0.006289758207294065,-0.0007113032180107938,-0.00012059081400057237,-0.008238914422691842,0.000605810702002839
0.20750000000000002,0.00022412426550031563,-0.7848867529999989,5.575612240008617e-05,-2.3558958850000007,0.00014584425300029002,1.5709343999999996,0.7860609100000003,0.0399999891,0.03999999775,-9.815136399999972,0.006417462998085794,-0.0007893776570097997,-0.00012473094600051965,-0.008246453944594546,0.0006263463230025775
0.21,0.00022663880400028357,-0.784877803999999,5.644268320007743e-05,-2.3559011800000005,0.00014815490400026059,1.5709322999999997,0.7860635800000003,0.0399999888,0.039999997,-9.814913199999975,0.006545167788877522,-0.0008674520960088047,-0.0001288710780004669,-0.00825399346649725,0.000646881944002316
0.2125,0.00022915334250025156,-0.784868854999999,5.7129244000068686e-05,-2.3559064750000003,0.00015046555500023117,1.5709301999999998,0.7860662500000003,0.0399999885,0.03999999625,-9.814689999999977,0.006672872579669251,-0.0009455265350078108,-0.00013301121000041418,-0.008261532988399954,0.0006674175650020545
0.215,0.00023166788100021954,-0.7848599059999992,5.781580480005994e-05,-2.3559117700000005,0.00015277620600020176,1.5709280999999997,0.7860689200000003,0.0399999882,0.0399999955,-9.81446679999998,0.00680057737046098,-0.0010236009740068168,-0.00013715134200036148,-0.008269072510302658,0.000687953186001793
0.2175,0.00023436884300025022,-0.7848509209999992,5.85531944000683e-05,-2.355917015,0.00015525733000022973,1.5709259599999998,0.7860717900000003,0.0399999878,0.039999994750000004,-9.814252149999984,0.006929629878151639,-0.0011010310150061978,-0.00014144568550037467,-0.008273030631243855,0.0007093902270018917
0.22,0.00023744265200027398,-0.7848418639999992,5.939224160007479e-05,-2.3559221600000004,0.00015807940000025155,1.5709237399999998,0.7860750600000003,0.0399999872,0.039999994000000004,-9.814054599999983,0.007061377819639203,-0.0011771722600067865,-0.00014604845200041027,-0.008269825950264575,0.0007326301080020714
0.2225,0.00024051646100029775,-0.7848328069999991,6.0231288800081275e-05,-2.3559273050000007,0.00016090147000027337,1.5709215199999997,0.7860783300000003,0.0399999866,0.039999993250000004,-9.813857049999982,0.0071931257611267665,-0.0012533135050073752,-0.00015065121850044584,-0.008266621269285295,0.0007558699890022511
0.225,0.00024359027000032152,-0.784823749999999,6.107033600008776e-05,-2.3559324500000005,0.00016372354000029516,1.5709192999999997,0.7860816000000004,0.039999986,0.0399999925,-9.813659499999979,0.0073248737026143295,-0.001329454750007964,-0.00015525398500048143,-0.008263416588306016,0.0007791098700024308
0.2275,0.0002466640790003453,-0.784814692999999,6.190938320009425e-05,-2.3559375950000008,0.00016654561000031698,1.5709170799999999,0.7860848700000004,0.0399999854,0.03999999175,-9.813461949999978,0.007456621644101893,-0.0014055959950085527,-0.000159856751500517,-0.008260211907326736,0.0008023497510026105
0.23,0.000249737888000369,-0.7848056359999989,6.274843040010073e-05,-2.3559427400000006,0.0001693676800003388,1.5709148599999998,0.7860881400000004,0.0399999848,0.039999991,-9.813264399999976,0.007588369585589457,-0.0014817372400091414,-0.0001644595180005526,-0.008257007226347457,0.0008255896320027902
0.2325,0.0002528116970003928,-0.7847965789999989,6.358747760010722e-05,-2.355947885000001,0.00017218975000036062,1.5709126399999997,0.7860914100000004,0.039999984200000005,0.03999999025,-9.813066849999975,0.00772011752707702,-0.00155787848500973,-0.0001690622845005882,-0.008253802545368177,0.0008488295130029699
0.23500000000000001,0.0002563033100004847,-0.7847874139999989,6.454044200013227e-05,-2.355952560000001,0.00017539370000044463,1.5709100599999997,0.7860951250000004,0.0399999833,0.039999989799999996,-9.81289879999998,0.00786064458081532,-0.0016441713700119669,-0.00017408756600068584,-0.00824331268667981,0.0008738365460033911
0.23750000000000002,0.00026000382500048803,-0.7847781949999988,6.55503650001332e-05,-2.355957000000001,0.00017878859000044773,1.5709072999999996,0.7860990625000005,0.03999998225,0.0399999895,-9.812745499999979,0.008005561190676412,-0.00173554007501205,-0.00017932410500069062,-0.008229180239139038,0.0008997271550034146
0.24,0.0002637043400004914,-0.7847689759999988,6.65602880001341e-05,-2.3559614400000006,0.00018218348000045078,1.5709045399999997,0.7861030000000006,0.0399999812,0.0399999892,-9.81259219999998,0.008150477800537502,-0.0018269087800121323,-0.0001845606440006953,-0.008215047791598264,0.0009256177640034379
0.2425,0.0002674048550004947,-0.7847597569999988,6.757021100013501e-05,-2.3559658800000007,0.00018557837000045388,1.5709017799999996,0.7861069375000005,0.03999998015,0.0399999889,-9.812438899999979,0.008295394410398595,-0.0019182774850122154,-0.00018979718300070008,-0.00820091534405749,0.0009515083730034614
0.245,0.0002711053700004981,-0.7847505379999988,6.858013400013594e-05,-2.355970320000001,0.00018897326000045698,1.5708990199999997,0.7861108750000005,0.0399999791,0.0399999886,-9.812285599999978,0.008440311020259685,-0.0020096461900122988,-0.00019503372200070486,-0.008186782896516719,0.000977398982003485
0.2475,0.00027480588500050147,-0.7847413189999988,6.959005700013686e-05,-2.355974760000001,0.00019236815000046005,1.5708962599999996,0.7861148125000005,0.03999997805,0.0399999883,-9.812132299999979,0.008585227630120778,-0.002101014895012382,-0.00020027026100070963,-0.008172650448975945,0.0010032895910035086
0.25,0.00027850640000059973,-0.7847320999999987,7.059998000016364e-05,-2.3559792000000006,0.00019576304000054989,1.5708934999999995,0.7861187500000006,0.039999977,0.039999988,-9.811978999999967,0.008730144239982533,-0.002192383600011406,-0.0002055068000007815,-0.008158518001433468,0.0010291802000039374
0.2525,0.00028290260000057377,-0.7847225959999988,7.179957290015656e-05,-2.3559833550000007,0.00019979371250052606,1.5708901999999996,0.7861234435000006,0.03999997595,0.0399999868,-9.811744999999968,0.008879924099911913,-0.002275989760010912,-0.00021123518750074761,-0.008131887717168945,0.0010580408450037667
0.255,0.00028729880000054775,-0.7847130919999988,7.299916580014947e-05,-2.3559875100000007,0.00020382438500050223,1.5708868999999996,0.7861281370000006,0.0399999749,0.039999985599999996,-9.81151099999997,0.009029703959841293,-0.0023595959200104176,-0.00021696357500071377,-0.008105257432904422,0.0010869014900035962
0.2575,0.0002916950000005218,-0.7847035879999988,7.419875870014238e-05,-2.355991665000001,0.00020785505750047843,1.5708835999999995,0.7861328305000005,0.03999997385,0.0399999844,-9.811276999999972,0.009179483819770672,-0.0024432020800099234,-0.00022269196250067992,-0.008078627148639899,0.0011157621350034255
0.26,0.0002960912000004958,-0.784694083999999,7.539835160013529e-05,-2.3559958200000004,0.0002118857300004546,1.5708802999999996,0.7861375240000005,0.0399999728,0.0399999832,-9.811042999999973,0.009329263679700052,-0.002526808240009429,-0.00022842035000064604,-0.008051996864375377,0.001144622780003255
0.2625,0.0003004874000004698,-0.784684579999999,7.65979445001282e-05,-2.3559999750000005,0.00021591640250043077,1.5708769999999996,0.7861422175000005,0.03999997175,0.039999981999999996,-9.810808999999974,0.009479043539629433,-0.002610414400008935,-0.0002341487375006122,-0.008025366580110854,0.0011734834250030843
0.265,0.0003048836000004438,-0.784675075999999,7.779753740012111e-05,-2.3560041300000005,0.00021994707500040694,1.5708736999999997,0.7861469110000004,0.039999970700000005,0.039999980799999994,-9.810574999999975,0.009628823399558811,-0.0026940205600084408,-0.00023987712500057832,-0.007998736295846331,0.0012023440700029138
0.2675,0.00030953512300052583,-0.7846654279999989,7.906674500014348e-05,-2.3560082350000005,0.00022421098050048188,1.5708702049999996,0.7861518755000005,0.0399999694,0.039999979649999996,-9.810360699999983,0.009780685044840894,-0.002779897500009211,-0.0002458413405006556,-0.007968603773038718,0.0012321261800032216
0.27,0.00031469729200060096,-0.7846554919999988,8.047518200016398e-05,-2.3560122400000005,0.00022894135200055073,1.5708663199999995,0.7861573820000006,0.039999967600000005,0.0399999786,-9.81018579999998,0.009936710260826565,-0.0028703160000105267,-0.0002522772120007493,-0.007931466773147976,0.0012637512200036817
0.2725,0.0003198594610006761,-0.7846455559999986,8.188361900018447e-05,-2.3560162450000006,0.00023367172350061957,1.5708624349999996,0.7861628885000007,0.0399999658,0.039999977549999996,-9.810010899999977,0.010092735476812236,-0.0029607345000118427,-0.00025871308350084295,-0.007894329773257236,0.0012953762600041421
0.275,0.0003250216300007512,-0.7846356199999985,8.329205600020496e-05,-2.3560202500000007,0.0002384020950006884,1.5708585499999994,0.7861683950000008,0.039999964,0.0399999765,-9.809835999999974,0.010248760692797907,-0.0030511530000131583,-0.0002651489550009366,-0.007857192773366495,0.0013270013000046023
0.2775,0.0003301837990008264,-0.7846256839999984,8.470049300022547e-05,-2.356024255000001,0.00024313246650075726,1.5708546649999993,0.7861739015000009,0.0399999622,0.03999997545,-9.809661099999971,0.010404785908783576,-0.0031415715000144744,-0.0002715848265010303,-0.007820055773475755,0.0013586263400050627
0.28,0.00033534596800090146,-0.7846157479999982,8.610893000024596e-05,-2.356028260000001,0.00024786283800082607,1.5708507799999993,0.786179408000001,0.0399999604,0.0399999744,-9.80948619999997,0.010560811124769247,-0.00323199000001579,-0.00027802069800112394,-0.007782918773585014,0.0013902513800055228
0.28250000000000003,0.00034050813700097664,-0.7846058119999981,8.751736700026646e-05,-2.3560322650000005,0.00025259320950089494,1.5708468949999992,0.786184914500001,0.0399999586,0.03999997335,-9.809311299999967,0.010716836340754918,-0.0033224085000171056,-0.0002844565695012176,-0.007745781773694274,0.001421876420005983
0.28500000000000003,0.0003462285380011405,-0.784595559999998,8.907800440031115e-05,-2.356036080000001,0.00025783348300104466,1.5708426299999991,0.7861910050000013,0.0399999572,0.0399999723,-9.809156499999972,0.010878604277999677,-0.003420113800019266,-0.00029130223700134033,-0.0077023232355625075,0.001455542910006594
0.28750000000000003,0.000352228055001105,-0.7845851499999981,9.071474200030146e-05,-2.356039800000001,0.00026332870750101216,1.5708381749999991,0.7861973875000012,0.039999956,0.03999997125,-9.809011749999973,0.011043243575871473,-0.003521462500018667,-0.00029835280250129864,-0.007655703928312988,0.0014902301250063889
0.29,0.00035822757200106947,-0.7845747399999982,9.235147960029176e-05,-2.3560435200000005,0.00026882393200097955,1.570833719999999,0.7862037700000012,0.0399999548,0.0399999702,-9.808866999999974,0.011207882873743268,-0.0036228112000180656,-0.0003054033680012568,-0.00760908462106347,0.0015249173400061831
0.2925,0.000364227089001034,-0.7845643299999981,9.398821720028209e-05,-2.3560472400000005,0.00027431915650094705,1.570829264999999,0.7862101525000011,0.0399999536,0.03999996915,-9.808722249999974,0.011372522171615064,-0.0037241599000174667,-0.0003124539335012151,-0.0075624653138139505,0.001559604555005978
0.295,0.00037022660600099854,-0.7845539199999982,9.56249548002724e-05,-2.3560509600000006,0.0002798143810009146,1.5708248099999993,0.7862165350000011,0.0399999524,0.0399999681,-9.808577499999975,0.011537161469486861,-0.003825508600016868,-0.0003195044990011734,-0.007515846006564431,0.001594291770005773
0.2975,0.00037622612300096305,-0.7845435099999983,9.726169240026274e-05,-2.3560546800000006,0.0002853096055008821,1.5708203549999993,0.7862229175000011,0.0399999512,0.03999996705,-9.808432749999977,0.011701800767358658,-0.0039268573000162685,-0.0003265550645011317,-0.007469226699314912,0.0016289789850055679
0.3,0.00038222564000106824,-0.7845330999999983,9.88984300002914e-05,-2.3560584000000007,0.000290804830000978,1.570815899999999,0.7862293000000011,0.03999995,0.039999966,-9.80828799999997,0.011866440065231429,-0.004028206000017308,-0.00033360563000116875,-0.00742260739206369,0.001663666200005821
0.3025,0.00038913471650107453,-0.7845220449999982,0.00010078316560029312,-2.3560616850000007,0.0002971305700009838,1.5708108449999991,0.7862366425000011,0.03999994955,0.0399999651,-9.80810799999997,0.012037371797513628,-0.004140145450017409,-0.0003411652760011757,-0.007364976569069827,0.0017013167100058554
0.305,0.0003960437930010808,-0.7845109899999982,0.00010266790120029483,-2.3560649700000007,0.0003034563100009895,1.5708057899999992,0.7862439850000011,0.0399999491,0.0399999642,-9.807927999999972,0.012208303529795829,-0.004252084900017511,-0.00034872492200118256,-0.007307345746075966,0.0017389672200058895
0.3075,0.0004029528695010871,-0.7844999349999983,0.00010455263680029655,-2.3560682550000007,0.0003097820500009953,1.5708007349999993,0.7862513275000012,0.03999994865,0.0399999633,-9.807747999999972,0.01237923526207803,-0.004364024350017613,-0.00035628456800118944,-0.007249714923082103,0.0017766177300059238
0.31,0.0004098619460010934,-0.7844888799999983,0.00010643737240029826,-2.3560715400000007,0.0003161077900010011,1.5707956799999991,0.7862586700000012,0.0399999482,0.0399999624,-9.807567999999971,0.012550166994360231,-0.004475963800017715,-0.0003638442140011963,-0.00719208410008824,0.0018142682400059582
0.3125,0.00041677102250109964,-0.7844778249999983,0.00010832210800029997,-2.3560748250000003,0.0003224335300010068,1.5707906249999992,0.7862660125000012,0.03999994775,0.0399999615,-9.807387999999971,0.012721098726642432,-0.004587903250017816,-0.0003714038600012032,-0.007134453277094378,0.0018519187500059923
0.315,0.00042368009900110593,-0.7844667699999982,0.00011020684360030168,-2.3560781100000003,0.00032875927000101257,1.5707855699999993,0.7862733550000012,0.0399999473,0.0399999606,-9.80720799999997,0.012892030458924631,-0.004699842700017918,-0.00037896350600121007,-0.007076822454100515,0.0018895692600060267
0.3175,0.00043091664000128834,-0.7844554949999981,0.00011218085630035141,-2.3560813000000005,0.0003353839615011791,1.5707802999999991,0.7862810425000013,0.039999947,0.0399999603,-9.80702629999997,0.013065548380865937,-0.004815409335020051,-0.00038672097000133106,-0.007015477167431168,0.001928171995006613
0.32,0.00043880811000134934,-0.784443779999998,0.00011433342320036806,-2.3560843000000005,0.000342606556001235,1.5707745999999991,0.7862894200000015,0.039999947,0.0399999612,-9.806841199999969,0.013244238682121713,-0.004938230340021001,-0.0003948740700013941,-0.006946702953416221,0.001968679180006926
0.3225,0.00044669958000141034,-0.784432064999998,0.0001164859901003847,-2.3560873000000004,0.0003498291505012908,1.570768899999999,0.7862977975000015,0.039999947,0.0399999621,-9.806656099999968,0.013422928983377491,-0.005061051345021951,-0.0004030271700014571,-0.006877928739401274,0.0020091863650072393
0.325,0.00045459105000147135,-0.7844203499999978,0.00011863855700040135,-2.3560903000000004,0.00035705174500134663,1.570763199999999,0.7863061750000016,0.039999947,0.039999963,-9.806470999999966,0.013601619284633267,-0.0051838723500229,-0.00041118027000152014,-0.006809154525386328,0.0020496935500075525
0.3275,0.0004624825200015324,-0.7844086349999977,0.00012079112390041799,-2.3560933000000004,0.0003642743395014025,1.570757499999999,0.7863145525000016,0.039999947,0.0399999639,-9.806285899999963,0.013780309585889043,-0.005306693355023849,-0.0004193333700015832,-0.006740380311371381,0.0020902007350078657
0.33,0.0004703739900015934,-0.7843969199999976,0.00012294369080043463,-2.356096300000001,0.00037149693400145834,1.570751799999999,0.7863229300000018,0.039999947,0.039999964799999996,-9.806100799999962,0.013958999887144819,-0.005429514360024799,-0.00042748647000164625,-0.006671606097356434,0.002130707920008179
0.3325,0.0004782654600016544,-0.7843852049999975,0.00012509625770045128,-2.356099300000001,0.0003787195285015142,1.570746099999999,0.7863313075000018,0.039999947,0.0399999657,-9.80591569999996,0.014137690188400595,-0.005552335365025749,-0.0004356395700017093,-0.006602831883341487,0.002171215105008492
0.335,0.00048686074500186357,-0.7843729299999973,0.0001274407040005083,-2.3561022600000006,0.0003865846240017051,1.5707399199999987,0.786340430000002,0.039999947,0.039999966,-9.805739999999965,0.014322006888726525,-0.00568155306002758,-0.00044415377300181097,-0.0065268504898828746,0.0022138056800090878
0.3375,0.0004958079375018107,-0.7843603749999974,0.00012988109000049386,-2.3561052000000005,0.0003947709700016567,1.5707334999999987,0.786349925000002,0.039999947,0.039999966,-9.805568999999966,0.014509136788584844,-0.005813969100026797,-0.00045284852750175956,-0.00644726550670587,0.0022574379500088296
0.34,0.0005047551300017578,-0.7843478199999975,0.00013232147600047945,-2.356108140000001,0.0004029573160016083,1.5707270799999988,0.7863594200000019,0.039999947,0.039999966,-9.805397999999967,0.014696266688443163,-0.005946385140026014,-0.0004615432820017082,-0.006367680523528865,0.002301070220008572
0.3425,0.0005137023225017049,-0.7843352649999976,0.00013476186200046502,-2.3561110800000007,0.0004111436620015599,1.5707206599999988,0.7863689150000018,0.039999947,0.039999966,-9.805226999999968,0.014883396588301482,-0.006078801180025232,-0.0004702380365016568,-0.00628809554035186,0.002344702490008314
0.34500000000000003,0.000522649515001652,-0.7843227099999976,0.00013720224800045058,-2.3561140200000006,0.00041933000800151155,1.5707142399999987,0.7863784100000017,0.039999947,0.039999966,-9.805055999999968,0.015070526488159802,-0.006211217220024449,-0.00047893279100160536,-0.006208510557174856,0.0023883347600080563
0.34750000000000003,0.000531596707501599,-0.7843101549999978,0.00013964263400043615,-2.3561169600000005,0.00042751635400146314,1.5707078199999989,0.7863879050000018,0.039999947,0.039999966,-9.80488499999997,0.015257656388018119,-0.006343633260023666,-0.000487627545501554,-0.006128925573997851,0.002431967030007798
0.35000000000000003,0.0005405439000017413,-0.7842975999999977,0.00014208302000047495,-2.3561199000000004,0.0004357027000015929,1.5707013999999986,0.7863974000000019,0.039999947,0.039999966,-9.804713999999976,0.015444786287877474,-0.006476049300026022,-0.0004963223000016137,-0.006049340590819197,0.002475599300008037
0.3525,0.0005506203750017503,-0.7842841449999977,0.0001448313200004774,-2.3561227950000005,0.0004449196555016011,1.5706941099999987,0.7864081010000019,0.039999947,0.0399999666,-9.804571199999975,0.015637910226393437,-0.006626624460026155,-0.000505660184001622,-0.005960209248571988,0.002522104400008078
0.355,0.0005606968500017595,-0.7842706899999977,0.0001475796200004799,-2.3561256900000003,0.00045413661100160945,1.5706868199999986,0.7864188020000019,0.039999947,0.0399999672,-9.804428399999976,0.015831034164909403,-0.006777199620026293,-0.0005149980680016305,-0.005871077906324776,0.0025686095000081203
0.3575,0.0005707733250017687,-0.7842572349999977,0.00015032792000048238,-2.3561285850000004,0.00046335356650161787,1.5706795299999987,0.7864295030000019,0.039999947,0.0399999678,-9.804285599999975,0.01602415810342537,-0.00692777478002643,-0.000524335952001639,-0.0057819465640775655,0.002615114600008163
0.36,0.0005808498000017779,-0.7842437799999976,0.00015307622000048488,-2.3561314800000006,0.00047257052200162623,1.5706722399999986,0.7864402040000019,0.039999947,0.0399999684,-9.804142799999976,0.016217282041941332,-0.007078349940026567,-0.0005336738360016475,-0.005692815221830354,0.002661619700008205
0.3625,0.000590926275001787,-0.7842303249999976,0.0001558245200004874,-2.3561343750000003,0.00048178747750163465,1.5706649499999987,0.7864509050000019,0.039999947,0.039999969,-9.803999999999975,0.016410405980457298,-0.0072289251000267046,-0.000543011720001656,-0.005603683879583143,0.0027081248000082477
0.365,0.0006010027500017962,-0.7842168699999975,0.0001585728200004899,-2.3561372700000005,0.0004910044330016431,1.5706576599999986,0.7864616060000019,0.039999947,0.039999969600000004,-9.803857199999975,0.016603529918973264,-0.007379500260026841,-0.0005523496040016645,-0.005514552537335932,0.00275462990000829
0.3675,0.0006114802220020209,-0.7842030679999974,0.00016143045100055117,-2.3561401300000004,0.0005005873615018481,1.5706501099999985,0.7864727280000021,0.039999947,0.03999997,-9.803718749999977,0.01680014003071853,-0.007534539565029378,-0.0005619047470017897,-0.005422466574219163,0.0028021773500088924
0.37,0.0006227596880020312,-0.7841885719999974,0.00016450674400055398,-2.3561429200000004,0.0005109022360018575,1.5706420399999985,0.7864846920000022,0.039999947,0.03999997,-9.803588999999977,0.01700372248891678,-0.007698507160029527,-0.0005718944080017989,-0.0053244713693680334,0.0028518095000089378
0.3725,0.0006340391540020415,-0.7841740759999973,0.00016758303700055676,-2.3561457100000003,0.0005212171105018669,1.5706339699999985,0.7864966560000022,0.039999947,0.03999997,-9.803459249999976,0.017207304947115032,-0.007862474755029677,-0.000581884069001808,-0.005226476164516904,0.002901441650008983
0.375,0.0006453186200020517,-0.7841595799999973,0.00017065933000055957,-2.3561485000000006,0.0005315319850018763,1.5706258999999985,0.7865086200000022,0.039999947,0.03999997,-9.803329499999977,0.017410887405313283,-0.008026442350029826,-0.0005918737300018171,-0.005128480959665774,0.002951073800009028
0.3775,0.000656598086002062,-0.7841450839999973,0.00017373562300056238,-2.3561512900000006,0.0005418468595018857,1.5706178299999987,0.7865205840000021,0.039999947,0.03999997,-9.803199749999976,0.017614469863511534,-0.008190409945029975,-0.0006018633910018262,-0.005030485754814645,0.0030007059500090734
0.38,0.0006678775520020723,-0.7841305879999974,0.0001768119160005652,-2.3561540800000005,0.0005521617340018951,1.5706097599999986,0.7865325480000022,0.039999947,0.03999997,-9.803069999999977,0.01781805232170978,-0.008354377540030124,-0.0006118530520018353,-0.004932490549963516,0.0030503381000091183
0.3825,0.0006791570180020826,-0.7841160919999973,0.000179888209000568,-2.3561568700000004,0.0005624766085019045,1.5706016899999986,0.7865445120000022,0.039999947,0.03999997,-9.802940249999976,0.018021634779908032,-0.008518345135030274,-0.0006218427130018444,-0.004834495345112387,0.0030999702500091636
0.385,0.0006912876020022725,-0.7841008769999972,0.0001831965760006198,-2.3561594900000005,0.0005735680700020778,1.5705929599999984,0.7865573800000024,0.0399999473,0.039999970700000005,-9.802803699999975,0.018229789473154418,-0.008699081400034229,-0.0006321836100019034,-0.004730157833526862,0.003151509350009501
0.3875,0.0007038437450021984,-0.7840853024999972,0.00018662098000059955,-2.3561620250000006,0.00058504782500201,1.5705838999999984,0.7865707000000023,0.03999994775,0.03999997175,-9.802663749999976,0.01844023028392297,-0.008888202000033112,-0.0006427001250018413,-0.004622649168576777,0.0032040019250091905
0.39,0.0007163998880021241,-0.7840697279999973,0.00019004538400057931,-2.3561645600000003,0.000596527580001942,1.5705748399999984,0.7865840200000023,0.0399999482,0.0399999728,-9.802523799999976,0.018650671094691523,-0.009077322600031993,-0.0006532166400017791,-0.004515140503626692,0.00325649450000888
0.3925,0.0007289560310020499,-0.7840541534999974,0.00019346978800055908,-2.3561670950000004,0.0006080073350018741,1.5705657799999986,0.7865973400000021,0.03999994865,0.03999997385,-9.802383849999977,0.01886111190546007,-0.009266443200030876,-0.0006637331550017169,-0.004407631838676608,0.00330898707500857
0.395,0.0007415121740019757,-0.7840385789999975,0.00019689419200053882,-2.3561696300000006,0.0006194870900018063,1.5705567199999986,0.7866106600000021,0.0399999491,0.0399999749,-9.802243899999977,0.019071552716228624,-0.009455563800029758,-0.0006742496700016548,-0.004300123173726524,0.0033614796500082596
0.3975,0.0007540683170019015,-0.7840230044999976,0.00020031859600051858,-2.3561721650000003,0.0006309668450017385,1.5705476599999986,0.786623980000002,0.03999994955,0.03999997595,-9.802103949999978,0.019281993526997172,-0.00964468440002864,-0.0006847661850015926,-0.004192614508776439,0.0034139722250079497
0.4,0.0007666244600020238,-0.7840074299999975,0.0002037430000005519,-2.3561747000000004,0.0006424466000018498,1.5705385999999983,0.7866373000000021,0.03999995,0.039999977,-9.801963999999977,0.01949243433776706,-0.009833805000029259,-0.0006952827000016235,-0.004085105843824914,0.0034664648000080713
0.4025,0.0007805308610021313,-0.7839906254999974,0.00020753554600058124,-2.3561770250000005,0.0006551583500019482,1.5705286699999983,0.7866520600000022,0.0399999512,0.03999997865,-9.801803049999975,0.01971205109733722,-0.010034857800030814,-0.0007064383350017097,-0.003967697522584951,0.0035219279900085003
0.405,0.0007944372620022389,-0.7839738209999972,0.00021132809200061057,-2.35617935,0.0006678701000020465,1.5705187399999985,0.7866668200000024,0.039999952400000004,0.0399999803,-9.801642099999974,0.019931667856907375,-0.010235910600032367,-0.000717593970001796,-0.0038502892013449882,0.0035773911800089293
0.40750000000000003,0.0008083436630023464,-0.7839570164999972,0.00021512063800063988,-2.356181675,0.0006805818500021447,1.5705088099999984,0.7866815800000025,0.0399999536,0.03999998195,-9.801481149999972,0.020151284616477534,-0.010436963400033921,-0.0007287496050018822,-0.003732880880105026,0.003632854370009358
0.41000000000000003,0.0008222500640024539,-0.783940211999997,0.00021891318400066922,-2.3561840000000003,0.000693293600002243,1.5704988799999984,0.7866963400000027,0.0399999548,0.0399999836,-9.80132019999997,0.020370901376047693,-0.010638016200035476,-0.0007399052400019685,-0.003615472558865063,0.003688317560009787
0.41250000000000003,0.0008361564650025614,-0.7839234074999969,0.00022270573000069852,-2.3561863250000004,0.0007060053500023412,1.5704889499999983,0.7867111000000028,0.039999956,0.03999998525,-9.801159249999971,0.020590518135617852,-0.010839069000037031,-0.0007510608750020548,-0.0034980642376251,0.0037437807500102153
0.41500000000000004,0.0008500628660026689,-0.7839066029999968,0.00022649827600072786,-2.3561886500000004,0.0007187171000024396,1.5704790199999983,0.7867258600000029,0.039999957200000005,0.0399999869,-9.80099829999997,0.020810134895188008,-0.011040121800038586,-0.000762216510002141,-0.0033806559163851377,0.0037992439400106443
0.4175,0.0008644437650030254,-0.7838893874999965,0.00023042019300082507,-2.3561909250000004,0.000731861747502765,1.570468729999998,0.7867411215000032,0.039999958,0.0399999881,-9.80084119999997,0.021032752189830334,-0.01125131040004568,-0.0007735919820023318,-0.0032599897938529153,0.0038556899450115276
0.42,0.0008797736600030395,-0.7838713499999964,0.00023460085200082887,-2.3561931000000005,0.0007458721900027777,1.5704577199999978,0.7867573860000032,0.039999958,0.0399999884,-9.80069179999997,0.021261370554611688,-0.011482770600045891,-0.0007854071280023426,-0.003132808068741945,0.003914101580011581
0.4225,0.0008951035550030533,-0.7838533124999965,0.00023878151100083266,-2.3561952750000006,0.0007598826325027905,1.570446709999998,0.7867736505000033,0.039999958,0.0399999887,-9.80054239999997,0.02148998891939304,-0.011714230800046101,-0.0007972222740023534,-0.003005626343630974,0.003972513215011634
0.425,0.0009104334500030674,-0.7838352749999964,0.00024296217000083648,-2.3561974500000002,0.0007738930750028032,1.570435699999998,0.7867899150000033,0.039999958,0.039999989,-9.80039299999997,0.021718607284174393,-0.011945691000046312,-0.000809037420002364,-0.002878444618520003,0.004030924850011687
0.4275,0.0009257633450030812,-0.7838172374999963,0.0002471428290008403,-2.3561996250000004,0.0007879035175028159,1.5704246899999978,0.7868061795000033,0.039999958,0.0399999893,-9.80024359999997,0.021947225648955748,-0.012177151200046523,-0.0008208525660023748,-0.002751262893409032,0.00408933648501174
0.43,0.0009410932400030952,-0.7837991999999964,0.00025132348800084407,-2.3562018000000005,0.0008019139600028288,1.570413679999998,0.7868224440000032,0.039999958,0.0399999896,-9.80009419999997,0.0221758440137371,-0.012408611400046734,-0.0008326677120023856,-0.0026240811682980616,0.004147748120011794
0.4325,0.0009564231350031091,-0.7837811624999963,0.0002555041470008479,-2.3562039750000006,0.0008159244025028415,1.5704026699999978,0.7868387085000033,0.039999958,0.0399999899,-9.799944799999968,0.022404462378518453,-0.012640071600046944,-0.0008444828580023964,-0.0024968994431870907,0.0042061597550118466
0.435,0.0009727506300033514,-0.7837621799999961,0.00025995682800091397,-2.3562061100000005,0.0008308449480030625,1.5703909799999978,0.7868560270000036,0.039999958,0.0399999905,-9.79979799999997,0.022639642469632425,-0.012877573600047907,-0.0008566667400024636,-0.0023635275428842786,0.004266517370012215
0.4375,0.000989576925003252,-0.7837427249999962,0.00026454552000088684,-2.3562082250000005,0.0008462205450029715,1.5703789499999978,0.7868738725000034,0.039999958,0.03999999125,-9.799652499999972,0.022878103423909713,-0.013118096500046486,-0.0008690349900023904,-0.0022270605549883755,0.0043278479750118535
0.44,0.0010064032200031525,-0.7837232699999963,0.0002691342120008597,-2.3562103400000005,0.0008615961420028807,1.5703669199999977,0.7868917180000033,0.039999958,0.039999992,-9.799506999999972,0.023116564378186998,-0.013358619400045063,-0.0008814032400023173,-0.002090593567092472,0.004389178580011491
0.4425,0.001023229515003053,-0.7837038149999964,0.0002737229040008326,-2.3562124550000005,0.0008769717390027898,1.5703548899999977,0.7869095635000033,0.039999958,0.039999992750000005,-9.799361499999973,0.023355025332464283,-0.013599142300043643,-0.0008937714900022442,-0.001954126579196569,0.004450509185011128
0.445,0.0010400558100029536,-0.7836843599999965,0.00027831159600080546,-2.3562145700000006,0.0008923473360026989,1.5703428599999978,0.7869274090000031,0.039999958,0.039999993500000004,-9.799215999999975,0.02359348628674157,-0.01383966520004222,-0.0009061397400021711,-0.0018176595913006652,0.004511839790010765
0.4475,0.0010568821050028542,-0.7836649049999966,0.0002829002880007784,-2.3562166850000006,0.000907722933002608,1.5703308299999978,0.7869452545000031,0.039999958,0.039999994250000004,-9.799070499999976,0.023831947241018853,-0.014080188100040799,-0.0009185079900020979,-0.0016811926034047621,0.004573170395010403
0.45,0.0010737084000030114,-0.7836454499999965,0.0002874889800008213,-2.3562188000000006,0.0009230985300027514,1.5703187999999977,0.7869631000000032,0.039999958,0.039999995,-9.79892499999998,0.024070408195297713,-0.014320711000045437,-0.0009308762400021166,-0.001544725615507406,0.004634501000010534
0.4525,0.0010921035900032792,-0.7836245474999962,0.0002925054435008943,-2.3562208100000004,0.000939905290502996,1.5703056599999976,0.7869826150000035,0.039999958,0.039999995,-9.798797199999978,0.024318475090011386,-0.014598258850049478,-0.0009438045540023047,-0.001399386147360476,0.00469884350001147
0.455,0.001110498780003547,-0.7836036449999959,0.00029752190700096725,-2.3562228200000006,0.0009567120510032407,1.5702925199999973,0.7870021300000037,0.039999958,0.039999995,-9.798669399999977,0.024566541984725063,-0.014875806700053517,-0.0009567328680024928,-0.0012540466792135458,0.004763186000012407
0.4575,0.0011288939700038146,-0.7835827424999956,0.00030253837050104026,-2.3562248300000004,0.0009735188115034852,1.5702793799999972,0.787021645000004,0.039999958,0.039999995,-9.798541599999973,0.024814608879438736,-0.015153354550057556,-0.000969661182002681,-0.0011087072110666156,0.0048275285000133426
0.46,0.0011472891600040824,-0.7835618399999953,0.00030755483400111326,-2.3562268400000006,0.0009903255720037298,1.5702662399999971,0.7870411600000043,0.039999958,0.039999995,-9.798413799999972,0.025062675774152412,-0.015430902400061595,-0.000982589496002869,-0.0009633677429196856,0.004891871000014279
0.4625,0.00116568435000435,-0.783540937499995,0.00031257129750118627,-2.3562288500000004,0.0010071323325039744,1.5702530999999968,0.7870606750000047,0.039999958,0.039999995,-9.79828599999997,0.025310742668866088,-0.015708450250065634,-0.0009955178100030573,-0.0008180282747727555,0.004956213500015216
0.465,0.0011840795400046178,-0.7835200349999948,0.0003175877610012593,-2.3562308600000006,0.001023939093004219,1.5702399599999968,0.787080190000005,0.039999958,0.039999995,-9.798158199999968,0.02555880956357976,-0.015985998100069673,-0.0010084461240032453,-0.0006726888066258253,0.005020556000016152
0.4675,0.0012030216050051847,-0.7834986149999942,0.00032275335300141386,-2.3562328300000006,0.0010412446900047363,1.5702264249999964,0.7871002800000055,0.0399999578,0.039999995,-9.798030149999967,0.025806409958813756,-0.016270886800077516,-0.0010216022300035222,-0.0005243415696496018,0.005085803970017353
0.47000000000000003,0.0012230574200050661,-0.7834761599999943,0.00032821720200138156,-2.3562347200000002,0.001059547960004628,1.5702120999999964,0.7871215200000055,0.0399999572,0.039999995,-9.797901599999967,0.02605307735508949,-0.016570457200075744,-0.0010352139200034416,-0.0003699787950218492,0.005152862880016956
0.47250000000000003,0.0012430932350049476,-0.7834537049999944,0.00033368105100134925,-2.3562366100000003,0.0010778512300045199,1.5701977749999965,0.7871427600000053,0.0399999566,0.039999995,-9.797773049999968,0.02629974475136522,-0.016870027600073976,-0.0010488256100033612,-0.00021561602039409659,0.00521992179001656
0.47500000000000003,0.0012631290500048293,-0.7834312499999946,0.00033914490000131695,-2.3562385000000003,0.0010961545000044118,1.5701834499999965,0.7871640000000052,0.039999955999999996,0.039999995,-9.79764449999997,0.026546412147640953,-0.017169598000072204,-0.0010624373000032807,-6.125324576634395e-05,0.005286980700016163
0.47750000000000004,0.0012831648650047107,-0.7834087949999947,0.00034460874900128465,-2.3562403900000004,0.0011144577700043035,1.5701691249999967,0.787185240000005,0.0399999554,0.039999995,-9.79751594999997,0.026793079543916683,-0.017469168400070435,-0.0010760489900032003,9.310952886140862e-05,0.005354039610015767
0.48,0.001303200680004592,-0.7833863399999949,0.00035007259800125224,-2.3562422800000005,0.001132761040004195,1.5701547999999967,0.7872064800000049,0.0399999548,0.039999995,-9.797387399999971,0.02703974694019241,-0.017768738800068656,-0.0010896606800031195,0.00024747230348915784,0.0054210985200153685
0.4825,0.0013232364950044734,-0.783363884999995,0.00035553644700121994,-2.35624417,0.0011510643100040867,1.5701404749999968,0.7872277200000047,0.0399999542,0.039999995,-9.797258849999972,0.027286414336468143,-0.018068309200066884,-0.001103272370003039,0.0004018350781169104,0.005488157430014972
0.485,0.001344413620004826,-0.7833403099999946,0.0003613115070013161,-2.3562460200000004,0.0011704085400044083,1.5701253399999966,0.7872501700000051,0.0399999536,0.039999995,-9.797120999999969,0.027553742192747144,-0.018382509700071346,-0.0011171990000031255,0.000562083823060434,0.005557083060015502
0.4875,0.0013661614000048457,-0.7833161749999946,0.0003672421725013215,-2.3562478500000004,0.0011902732500044264,1.5701097999999964,0.7872732250000052,0.039999953,0.039999995,-9.796978499999968,0.027831400279017492,-0.01870402525007164,-0.0011312831000031382,0.0007252755531589126,0.005626942050015566
0.49,0.0013879091800048657,-0.7832920399999946,0.00037317283800132687,-2.3562496800000003,0.0012101379600044444,1.5700942599999965,0.7872962800000052,0.0399999524,0.039999995,-9.796835999999969,0.02810905836528784,-0.019025540800071933,-0.001145367200003151,0.0008884672832573913,0.005696801040015629
0.4925,0.0014096569600048855,-0.7832679049999945,0.00037910350350133225,-2.3562515100000003,0.0012300026700044625,1.5700787199999964,0.7873193350000052,0.039999951799999996,0.039999995,-9.796693499999968,0.02838671645155819,-0.019347056350072226,-0.0011594513000031637,0.0010516590133558697,0.005766660030015693
0.495,0.0014314047400049053,-0.7832437699999946,0.0003850341690013377,-2.3562533400000003,0.0012498673800044806,1.5700631799999964,0.7873423900000053,0.0399999512,0.039999995,-9.796550999999967,0.028664374537828538,-0.01966857190007252,-0.0011735354000031767,0.0012148507434543484,0.0058365190200157565
0.4975,0.001453152520004925,-0.7832196349999946,0.0003909648345013431,-2.3562551700000003,0.0012697320900044986,1.5700476399999965,0.7873654450000053,0.0399999506,0.039999995,-9.796408499999966,0.028942032624098887,-0.019990087450072812,-0.0011876195000031895,0.0013780424735528268,0.00590637801001582
0.5,0.0014749003000053501,-0.7831954999999942,0.000396895500001459,-2.3562570000000003,0.0012895968000048862,1.5700320999999962,0.7873885000000057,0.03999995,0.039999995,-9.796265999999973,0.029219690710369575,-0.020311603000081366,-0.0012017036000033455,0.0015412342036531601,0.005976237000016509
0.5025000000000001,0.0014984305000055327,-0.783169633999994,0.00040331218950150874,-2.3562588000000004,0.001311087240005053,1.570015254999996,0.7874134450000059,0.03999994895,0.039999994250000004,-9.796149449999971,0.02949885278946758,-0.02066944555008414,-0.0012164180300034597,0.0017125823244388836,0.006048846330017072
0.505,0.001521960700005714,-0.7831437679999937,0.00040972887900155816,-2.3562606,0.0013325776800052185,1.569998409999996,0.787438390000006,0.0399999479,0.039999993500000004,-9.796032899999972,0.029778014868565572,-0.0210272881000869,-0.0012311324600035732,0.0018839304452245996,0.006121455660017632
0.5075000000000001,0.0015454909000058965,-0.7831179019999935,0.00041614556850160797,-2.3562624000000003,0.0013540681200053853,1.5699815649999957,0.7874633350000063,0.03999994685,0.039999992750000005,-9.79591634999997,0.030057176947663578,-0.021385130650089672,-0.0012458468900036872,0.0020552785660103235,0.006194064990018195
0.51,0.0015690211000060777,-0.7830920359999933,0.0004225622580016574,-2.3562642000000005,0.0013755585600055509,1.5699647199999958,0.7874882800000065,0.0399999458,0.039999992,-9.795799799999969,0.03033633902676157,-0.02174297320009243,-0.0012605613200038007,0.002226626686796039,0.006266674320018755
0.5125,0.0015925513000062592,-0.7830661699999931,0.00042897894750170687,-2.3562660000000006,0.0013970490000057166,1.5699478749999956,0.7875132250000066,0.03999994475,0.03999999125,-9.79568324999997,0.03061550110585956,-0.02210081575009519,-0.0012752757500039142,0.002397974807581755,0.006339283650019315
0.515,0.0016160815000064415,-0.7830403039999929,0.0004353956370017566,-2.356267800000001,0.0014185394400058832,1.5699310299999956,0.7875381700000068,0.039999943700000005,0.0399999905,-9.795566699999968,0.030894663184957566,-0.022458658300097967,-0.0012899901800040281,0.002569322928367479,0.0064118929800198775
0.5175,0.0016402290700069711,-0.7830138419999924,0.000441980673501901,-2.3562695900000006,0.0014405929800063663,1.569913759999995,0.7875637675000073,0.039999943,0.03999999,-9.795448099999966,0.03117757719018084,-0.02282547920010568,-0.001304881325004187,0.0027434121468597195,0.006485443590020718
0.52,0.0016656113800066485,-0.7829861879999928,0.00044890240400181306,-2.3562713600000005,0.0014637727200060718,1.5698956399999953,0.787590670000007,0.039999943,0.03999999,-9.795325399999967,0.031467995047645275,-0.02321025680010079,-0.001320125900003993,0.002922983560758137,0.006560876760019759
0.5225,0.0016909936900063249,-0.7829585339999932,0.00045582413450172477,-2.3562731300000004,0.001486952460005776,1.5698775199999955,0.7876175725000067,0.039999943,0.03999999,-9.795202699999969,0.031758412905109695,-0.02359503440009588,-0.0013353704750037987,0.003102554974656547,0.006636309930018797
0.525,0.0017163760000060023,-0.7829308799999934,0.0004627458650016368,-2.3562749000000003,0.0015101322000054815,1.5698593999999957,0.7876444750000063,0.039999943,0.03999999,-9.79507999999997,0.03204883076257413,-0.02397981200009099,-0.001350615050003605,0.0032821263885549645,0.006711743100017839
0.5275,0.0017417583100056786,-0.7829032259999938,0.0004696675955015485,-2.3562766700000006,0.001533311940005186,1.569841279999996,0.787671377500006,0.039999943,0.03999999,-9.794957299999972,0.03233924862003855,-0.024364589600086084,-0.0013658596250034107,0.0034616978024533743,0.006787176270016876
0.53,0.001767140620005356,-0.7828755719999941,0.00047658932600146055,-2.3562784400000005,0.0015564916800048913,1.569823159999996,0.7876982800000057,0.039999943,0.03999999,-9.794834599999973,0.03262966647750298,-0.024749367200081192,-0.0013811042000032169,0.003641269216351792,0.006862609440015917
0.5325,0.0017925229300050321,-0.7828479179999945,0.0004835110565013723,-2.3562802100000004,0.0015796714200045957,1.5698050399999963,0.7877251825000053,0.039999943,0.03999999,-9.794711899999974,0.0329200843349674,-0.025134144800076284,-0.0013963487750030224,0.0038208406302502017,0.006938042610014955
0.535,0.0018191858600054385,-0.7828190069999941,0.0004907820400014831,-2.3562819900000003,0.001604019030004966,1.569785989999996,0.7877534380000057,0.0399999427,0.03999999,-9.794591799999976,0.03321642726665728,-0.025540951100083226,-0.0014119883000031546,0.004005922609977525,0.007015054200015497
0.5375,0.001846489100005649,-0.7827894674999939,0.0004982276500015405,-2.3562837750000005,0.0016289505750051584,1.569766474999996,0.787782370000006,0.039999942250000003,0.03999999,-9.794472999999975,0.03351573273545728,-0.025958771750086446,-0.0014278253000032767,0.0041937598726168885,0.007092855000016097
0.54,0.0018737923400058607,-0.7827599279999936,0.0005056732600015983,-2.3562855600000003,0.0016538821200053518,1.5697469599999958,0.7878113020000063,0.0399999418,0.03999999,-9.794354199999974,0.03381503820425729,-0.026376592400089688,-0.0014436623000033996,0.00438159713525626,0.0071706558000167
0.5425,0.0019010955800060712,-0.7827303884999934,0.0005131188700016557,-2.3562873450000006,0.0016788136650055438,1.5697274449999956,0.7878402340000065,0.03999994135,0.03999999,-9.794235399999973,0.03411434367305729,-0.02679441305009291,-0.0014594993000035215,0.004569434397895623,0.0072484566000173
0.545,0.001928398820006283,-0.7827008489999933,0.0005205644800017133,-2.3562891300000004,0.0017037452100057372,1.5697079299999954,0.7878691660000067,0.039999940899999996,0.03999999,-9.794116599999972,0.034413649141857294,-0.027212233700096147,-0.0014753363000036444,0.004757271660534995,0.007326257400017903
0.5475,0.0019557020600064934,-0.782671309499993,0.0005280100900017708,-2.3562909150000007,0.0017286767550059293,1.5696884149999952,0.7878980980000069,0.03999994045,0.03999999,-9.793997799999971,0.03471295461065729,-0.027630054350099367,-0.0014911733000037663,0.004945108923174358,0.007404058200018503
0.55,0.0019830053000071935,-0.7826417699999922,0.0005354557000019617,-2.3562927000000005,0.0017536083000065682,1.5696688999999948,0.7879270300000076,0.03999994,0.03999999,-9.793878999999974,0.03501226007946067,-0.028047875000110144,-0.0015070103000040102,0.005132946185815642,0.007481859000019745
0.5525,0.0020122972550072195,-0.7826102534999922,0.0005434436500019688,-2.3562944850000003,0.001780353855006592,1.5696480349999948,0.7879580605000076,0.0399999394,0.0399999915,-9.793767249999974,0.03532527051873764,-0.028496375450110543,-0.0015233402750040247,0.005328569677706551,0.007562259600019817
0.555,0.0020415892100072467,-0.7825787369999923,0.0005514316000019763,-2.3562962700000005,0.001807099410006617,1.5696271699999949,0.7879890910000077,0.039999938799999996,0.039999993,-9.793655499999973,0.03563828095801462,-0.02894487590011096,-0.00153967025000404,0.005524193169597468,0.007642660200019891
0.5575,0.0020708811650072727,-0.7825472204999921,0.0005594195500019833,-2.3562980550000003,0.0018338449650066406,1.5696063049999949,0.7880201215000077,0.0399999382,0.039999994500000004,-9.793543749999973,0.03595129139729159,-0.02939337635011136,-0.0015560002250040545,0.005719816661488377,0.007723060800019963
0.56,0.0021001731200073,-0.7825157039999922,0.0005674075000019908,-2.3562998400000006,0.0018605905200066656,1.5695854399999947,0.7880511520000077,0.0399999376,0.039999996,-9.793431999999973,0.03626430183656857,-0.02984187680011178,-0.0015723302000040698,0.005915440153379294,0.007803461400020038
0.5625,0.002129465075007326,-0.782484187499992,0.0005753954500019978,-2.3563016250000004,0.0018873360750066893,1.5695645749999947,0.7880821825000078,0.039999937,0.0399999975,-9.793320249999972,0.03657731227584554,-0.030290377250112174,-0.0015886601750040843,0.006111063645270203,0.007883862000020109
0.5650000000000001,0.0021587570300073532,-0.782452670999992,0.0005833834000020053,-2.3563034100000007,0.0019140816300067143,1.5695437099999947,0.7881132130000078,0.0399999364,0.039999999,-9.793208499999972,0.03689032271512252,-0.030738877700112594,-0.0016049901500040996,0.00630668713716112,0.007964262600020184
0.5675,0.002188734325007826,-0.7824204694999916,0.0005915582300021343,-2.3563052000000004,0.0019414525750071456,1.5695223349999945,0.7881449750000084,0.0399999358,0.03999999975,-9.793097649999973,0.037207726389251045,-0.031200642100121908,-0.0016215013950042127,0.006504938472113147,0.00804557990002076
0.5700000000000001,0.0022200823000076415,-0.7823868979999918,0.0006001068200020839,-2.3563070000000006,0.001970074300006977,1.5694999399999945,0.7881782000000082,0.0399999352,0.039999999,-9.792988599999974,0.03753391653307276,-0.03168893440011903,-0.0016383751800041135,0.006708445493181469,0.00812873060002027
0.5725,0.0022514302750074556,-0.782353326499992,0.0006086554100020331,-2.3563088000000003,0.0019986960250068073,1.5694775449999947,0.788211425000008,0.0399999346,0.03999999825,-9.792879549999974,0.037860106676894455,-0.032177226700116135,-0.0016552489650040131,0.0069119525142497815,0.008211881300019775
0.5750000000000001,0.002282778250007271,-0.7823197549999922,0.0006172040000019828,-2.3563106000000005,0.0020273177500066387,1.569455149999995,0.7882446500000078,0.039999934,0.0399999975,-9.792770499999975,0.03818629682071616,-0.03266551900011326,-0.0016721227500039139,0.007115459535318103,0.008295032000019286
0.5775,0.002314126225007085,-0.7822861834999925,0.0006257525900019321,-2.3563124000000006,0.002055939475006469,1.569432754999995,0.7882778750000076,0.0399999334,0.03999999675,-9.792661449999976,0.03851248696453786,-0.033153811300110365,-0.0016889965350038137,0.007318966556386416,0.008378182700018793
0.58,0.0023454742000068992,-0.7822526119999926,0.0006343011800018814,-2.3563142000000004,0.0020845612000062992,1.5694103599999951,0.7883111000000074,0.0399999328,0.039999996,-9.792552399999977,0.03883867710835955,-0.03364210360010747,-0.0017058703200037136,0.007522473577454728,0.0084613334000183
0.5825,0.0023768221750067146,-0.7822190404999928,0.0006428497700018311,-2.3563160000000005,0.0021131829250061306,1.5693879649999953,0.7883443250000072,0.039999932200000005,0.03999999525,-9.792443349999978,0.03916486725218126,-0.03413039590010459,-0.001722744105003614,0.00772598059852305,0.00854448410001781
0.585,0.002409584710007427,-0.7821840649999922,0.0006517841300020254,-2.3563177900000003,0.0021430936500067806,1.5693645599999948,0.7883790400000079,0.039999932,0.0399999955,-9.792333999999977,0.039497256279066105,-0.03464042220011559,-0.0017400159300038768,0.007934419857384821,0.008629094500018936
0.5875,0.002443054525007915,-0.7821483874999916,0.0006609113750021584,-2.3563195750000006,0.0021736488750072258,1.5693406499999945,0.7884145000000085,0.039999932,0.03999999625,-9.792224499999975,0.03983274474747959,-0.035161315500123184,-0.0017574867750041313,0.008145325235140975,0.008714434750020181
0.59,0.002476524340008401,-0.782112709999991,0.000670038620002291,-2.3563213600000004,0.0022042041000076697,1.569316739999994,0.7884499600000089,0.039999932,0.039999997,-9.792114999999972,0.04016823321589305,-0.035682208800130746,-0.0017749576200043853,0.00835623061289712,0.008799775000021421
0.5925,0.002509994155008889,-0.7820770324999906,0.000679165865002424,-2.3563231450000006,0.002234759325008115,1.5692928299999938,0.7884854200000094,0.039999932,0.03999999775,-9.792005499999972,0.04050372168430653,-0.03620310210013834,-0.00179242846500464,0.008567135990653273,0.008885115250022665
0.595,0.0025434639700093755,-0.7820413549999901,0.0006882931100025566,-2.3563249300000004,0.002265314550008559,1.5692689199999934,0.7885208800000099,0.039999932,0.0399999985,-9.79189599999997,0.04083921015272,-0.03672399540014591,-0.001809899310004894,0.008778041368409418,0.008970455500023905
0.5975,0.002576933785009863,-0.7820056774999895,0.0006974203550026897,-2.3563267150000007,0.0022958697750090043,1.569245009999993,0.7885563400000104,0.039999932,0.03999999925,-9.791786499999969,0.041174698621133474,-0.0372448887001535,-0.0018273701550051485,0.008988946746165571,0.009055795750025148
0.6,0.0026104036000110255,-0.7819699999999884,0.0007065476000030067,-2.3563285000000005,0.0023264250000100653,1.5692210999999923,0.7885918000000116,0.039999932,0.04,-9.791676999999964,0.04151018708955176,-0.03776578200017225,-0.0018448410000055382,0.009199852123924055,0.009141136000027196
0.6025,0.002646060115010816,-0.7819321309999886,0.0007162711895029495,-2.3563302850000007,0.0023589760050098736,1.5691956749999922,0.7886295700000114,0.03999993095,0.03999999925,-9.791564649999966,0.04186125136922517,-0.03832282830016897,-0.0018627512550054327,0.009418321261248653,0.00922909150002668
0.605,0.0026817166300106042,-0.7818942619999888,0.0007259947790028917,-2.3563320700000006,0.0023915270100096806,1.5691702499999924,0.7886673400000112,0.0399999299,0.0399999985,-9.791452299999966,0.042212315648898574,-0.03887987460016566,-0.0018806615100053264,0.009636790398573241,0.009317047000026158
0.6075,0.0027173731450103942,-0.781856392999989,0.0007357183685028345,-2.356333855000001,0.002424078015009489,1.5691448249999926,0.788705110000011,0.03999992885,0.03999999775,-9.791339949999967,0.042563379928571995,-0.03943692090016238,-0.001898571765005221,0.00985525953589784,0.00940500250002564
0.61,0.0027530296600101825,-0.7818185239999892,0.0007454419580027768,-2.3563356400000006,0.0024566290200092955,1.5691193999999928,0.7887428800000108,0.0399999278,0.039999997,-9.791227599999967,0.042914444208245396,-0.039993967200159075,-0.0019164820200051147,0.01007372867322243,0.009492958000025118
0.6125,0.0027886861750099725,-0.7817806549999895,0.0007551655475027196,-2.3563374250000004,0.002489180025009104,1.569093974999993,0.7887806500000105,0.03999992675,0.03999999625,-9.791115249999969,0.04326550848791881,-0.040551013500155796,-0.0019343922750050093,0.010292197810547028,0.0095809135000246
0.615,0.0028243426900097612,-0.7817427859999897,0.0007648891370026619,-2.3563392100000007,0.002521731030008911,1.5690685499999932,0.7888184200000103,0.0399999257,0.0399999955,-9.791002899999969,0.04361657276759221,-0.041108059800152495,-0.001952302530004903,0.010510666947871616,0.009668869000024078
0.6175,0.0028607493800102404,-0.7817041579999892,0.0007748173215027925,-2.3563409950000005,0.002554965525009347,1.5690425949999929,0.7888569850000108,0.0399999246,0.039999994750000004,-9.79089319999997,0.043971289321878,-0.04167909600016182,-0.0019703724900049678,0.010731619224013288,0.009757544600024344
0.62,0.002898656420010274,-0.7816640119999891,0.0007851546960028018,-2.3563427800000007,0.002589567000009378,1.5690155799999927,0.7888971400000109,0.0399999234,0.039999994000000004,-9.790788799999971,0.044333310425379635,-0.04227811200016235,-0.001988761860004984,0.01095753777778307,0.009847660400024424
0.6225,0.0029365634600103095,-0.7816238659999891,0.0007954920705028113,-2.3563445650000006,0.0026241684750094104,1.5689885649999926,0.7889372950000109,0.0399999222,0.039999993250000004,-9.790684399999972,0.04469533152888129,-0.04287712800016291,-0.002007151230005001,0.011183456331552861,0.009937776200024508
0.625,0.002974470500010343,-0.7815837199999891,0.0008058294450028205,-2.356346350000001,0.002658769950009441,1.5689615499999927,0.788977450000011,0.039999921,0.0399999925,-9.79057999999997,0.045057352632382926,-0.04347614400016344,-0.0020255406000050176,0.011409374885322641,0.010027892000024588
0.6275000000000001,0.0030123775400103785,-0.7815435739999891,0.0008161668195028302,-2.3563481350000006,0.0026933714250094733,1.5689345349999926,0.789017605000011,0.0399999198,0.03999999175,-9.79047559999997,0.04541937373588458,-0.044075160000164,-0.0020439299700050345,0.011635293439092432,0.010118007800024672
0.63,0.003050284580010412,-0.781503427999989,0.0008265041940028393,-2.356349920000001,0.002727972900009504,1.5689075199999927,0.789057760000011,0.0399999186,0.039999991,-9.79037119999997,0.045781394839386216,-0.04467417600016453,-0.002062319340005051,0.011861211992862213,0.010208123600024752
0.6325000000000001,0.003088191620010447,-0.7814632819999889,0.000836841568502849,-2.3563517050000007,0.0027625743750095363,1.5688805049999925,0.789097915000011,0.0399999174,0.03999999025,-9.790266799999971,0.04614341594288787,-0.045273192000165094,-0.002080708710005068,0.012087130546632003,0.010298239400024835
0.635,0.0031276408500113036,-0.7814215899999881,0.0008475995640030825,-2.356353500000001,0.0027985823300103172,1.568852389999992,0.7891397030000119,0.0399999163,0.0399999894,-9.79015969999997,0.04651566520343892,-0.04589859060017947,-0.002099484650005331,0.012317997869169638,0.01038993020002599
0.6375000000000001,0.0031678611750116156,-0.7813791249999877,0.0008585678700031676,-2.3563553000000006,0.002835293525010602,1.5688237249999917,0.7891823075000123,0.039999915250000004,0.0399999885,-9.79005124999997,0.046893028542508354,-0.04653718050018442,-0.002118453875005478,0.012551339576088137,0.010482408500026706
0.64,0.0032080815000119253,-0.7813366599999875,0.0008695361760032521,-2.3563571000000008,0.0028720047200108847,1.5687950599999916,0.7892249120000125,0.0399999142,0.0399999876,-9.789942799999968,0.04727039188157777,-0.047175770400189346,-0.0021374231000056243,0.012784681283006626,0.01057488680002742
0.6425,0.0032483018250122355,-0.7812941949999871,0.0008805044820033367,-2.3563589000000005,0.0029087159150111676,1.5687663949999913,0.7892675165000129,0.039999913150000004,0.039999986700000004,-9.789834349999968,0.04764775522064718,-0.047814360300194265,-0.0021563923250057706,0.013018022989925115,0.010667365100028133
0.645,0.0032885221500125474,-0.7812517299999868,0.0008914727880034218,-2.3563607000000006,0.0029454271100114527,1.5687377299999912,0.7893101210000133,0.0399999121,0.0399999858,-9.789725899999967,0.04802511855971661,-0.04845295020019921,-0.0021753615500059178,0.013251364696843614,0.010759843400028848
0.6475,0.003328742475012857,-0.7812092649999864,0.0009024410940035063,-2.356362500000001,0.0029821383050117355,1.5687090649999909,0.7893527255000136,0.03999991105,0.0399999849,-9.789617449999966,0.04840248189878603,-0.04909154010020414,-0.002194330775006064,0.013484706403762103,0.010852321700029562
0.65,0.0033689628000139467,-0.7811667999999854,0.0009134094000038034,-2.3563643000000005,0.0030188495000127292,1.56868039999999,0.7893953300000147,0.03999991,0.039999984,-9.789508999999967,0.04877984523785909,-0.04973013000022165,-0.0022133000000063587,0.0137180481106829,0.01094480000003089
0.6525,0.0034115579550134034,-0.7811218899999859,0.0009250253850036553,-2.3563661150000006,0.003057726200012233,1.5686500549999904,0.7894404455000141,0.0399999088,0.039999984,-9.789406699999969,0.04916830174637141,-0.050407083750213015,-0.002232720125006111,0.013958408124820439,0.011039141600029686
0.655,0.0034541531100128623,-0.7810769799999865,0.0009366413700035076,-2.3563679300000007,0.003096602900011739,1.568619709999991,0.7894855610000135,0.039999907599999995,0.039999984,-9.789304399999969,0.04955675825488374,-0.05108403750020441,-0.0022521402500058642,0.01419876813895799,0.011133483200028488
0.6575,0.003496748265012319,-0.7810320699999871,0.0009482573550033594,-2.3563697450000003,0.0031354796000112434,1.5685893649999914,0.7895306765000131,0.0399999064,0.039999984,-9.78920209999997,0.049945214763396056,-0.05176099125019578,-0.0022715603750056166,0.014439128153095528,0.011227824800027285
0.66,0.0035393434200117774,-0.7809871599999876,0.0009598733400032118,-2.3563715600000004,0.0031743563000107495,1.5685590199999917,0.7895757920000125,0.0399999052,0.039999984,-9.789099799999972,0.05033367127190839,-0.052437945000187176,-0.0022909805000053698,0.014679488167233079,0.011322166400026085
0.6625,0.003581938575011234,-0.7809422499999882,0.0009714893250030636,-2.3563733750000004,0.0032132330000102533,1.568528674999992,0.7896209075000119,0.039999903999999996,0.039999984,-9.788997499999972,0.050722127780420706,-0.053114898750178545,-0.002310400625005122,0.01491984818137062,0.011416508000024882
0.665,0.003624533730010693,-0.7808973399999887,0.0009831053100029159,-2.3563751900000005,0.0032521097000097593,1.5684983299999924,0.7896660230000113,0.039999902799999994,0.039999984,-9.788895199999974,0.05111058428893304,-0.05379185250016994,-0.0023298207500048753,0.015160208195508168,0.011510849600023684
0.6675,0.003667940625011037,-0.7808516049999884,0.0009949426900030098,-2.3563770200000005,0.003291726685010073,1.5684673899999921,0.7897120000000117,0.039999901649999996,0.0399999838,-9.788792549999974,0.05150441583255909,-0.054483873950177,-0.00234940360500488,0.01540287621325346,0.011605914750023656
0.67,0.0037129710000113865,-0.780804219999988,0.001007222860003105,-2.3563788800000003,0.0033328242400103916,1.568435259999992,0.789759700000012,0.0399999006,0.0399999832,-9.788689199999974,0.05190899744640088,-0.055206030800182604,-0.002369311920005034,0.015650160238209226,0.011702427000024404
0.6725,0.0037580013750117334,-0.7807568349999876,0.0010195030300031997,-2.3563807400000005,0.0033739217950107085,1.5684031299999917,0.7898074000000125,0.039999899549999995,0.0399999826,-9.788585849999972,0.052313579060242664,-0.05592818765018817,-0.0023892202350051877,0.015897444263164983,0.011798939250025148
0.675,0.0038030317500120825,-0.7807094499999873,0.0010317832000032948,-2.3563826000000003,0.003415019350011027,1.5683709999999915,0.7898551000000128,0.0399998985,0.039999981999999996,-9.788482499999972,0.05271816067408446,-0.05665034450019377,-0.002409128550005342,0.01614472828812075,0.011895451500025897
0.6775,0.00384806212501243,-0.7806620649999869,0.0010440633700033897,-2.3563844600000006,0.003456116905011344,1.5683388699999912,0.7899028000000132,0.03999989745,0.0399999814,-9.78837914999997,0.05312274228792624,-0.057372501350199334,-0.0024290368650054955,0.016392012313076507,0.01199196375002664
0.68,0.003893092500012779,-0.7806146799999865,0.0010563435400034848,-2.3563863200000004,0.0034972144600116627,1.568306739999991,0.7899505000000135,0.0399998964,0.0399999808,-9.78827579999997,0.05352732390176804,-0.058094658200204936,-0.00244894518000565,0.016639296338032274,0.012088476000027389
0.6825,0.003938122875013126,-0.7805672949999861,0.0010686237100035795,-2.3563881800000006,0.0035383120150119796,1.5682746099999907,0.789998200000014,0.03999989535,0.0399999802,-9.78817244999997,0.053931905515609814,-0.058816815050210504,-0.0024688534950058033,0.01688658036298803,0.012184988250028133
0.685,0.0039848162500140056,-0.7805182299999852,0.0010813574500038194,-2.3563900900000005,0.0035809259500127815,1.5682413099999901,0.7900476500000149,0.039999895,0.039999980399999996,-9.788075899999972,0.05434570759547159,-0.059566242600224875,-0.002489053320005996,0.01713817548014247,0.012282795900029014
0.6875,0.004032341125014048,-0.7804683249999852,0.001094317975003831,-2.356392025000001,0.0036242980750128204,1.56820742499999,0.7900979750000149,0.039999895,0.039999981,-9.787982749999973,0.05476411990833723,-0.060329305500225555,-0.002509398900006014,0.01739192614339338,0.012381251250029103
0.6900000000000001,0.004079866000014093,-0.7804184199999852,0.001107278500003843,-2.3563939600000006,0.0036676702000128605,1.56817353999999,0.7901483000000149,0.039999895,0.0399999816,-9.787889599999971,0.05518253222120289,-0.06109236840022626,-0.0025297444800060328,0.017645676806644302,0.012479706600029193
0.6925,0.004127390875014135,-0.7803685149999852,0.0011202390250038545,-2.356395895000001,0.0037110423250128993,1.56813965499999,0.790198625000015,0.039999895,0.0399999822,-9.787796449999972,0.05560094453406853,-0.06185543130022694,-0.002550090060006051,0.017899427469895212,0.012578161950029282
0.6950000000000001,0.004174915750014179,-0.780318609999985,0.0011331995500038666,-2.3563978300000006,0.00375441445001294,1.5681057699999899,0.790248950000015,0.039999895,0.0399999828,-9.787703299999972,0.05601935684693419,-0.06261849420022765,-0.00257043564000607,0.018153178133146132,0.012676617300029374
0.6975,0.004222440625014221,-0.780268704999985,0.0011461600750038781,-2.356399765000001,0.0037977865750129782,1.56807188499999,0.7902992750000151,0.039999895,0.0399999834,-9.787610149999972,0.05643776915979983,-0.06338155710022833,-0.002590781220006088,0.018406928796397045,0.012775072650029461
0.7000000000000001,0.004269965500015032,-0.7802187999999842,0.0011591206000040992,-2.3564017000000006,0.0038411587000137175,1.5680379999999894,0.7903496000000159,0.039999895,0.039999984,-9.787516999999971,0.056856181472670006,-0.06414462000024206,-0.002611126800006241,0.01866067945964995,0.01287352800003012
0.7025,0.004320042925014735,-0.7801662849999845,0.0011727773500040182,-2.356403695000001,0.003886858555013446,1.5680022999999896,0.7904026250000156,0.0399998938,0.0399999834,-9.787420999999972,0.057289629243441796,-0.06495106290023728,-0.0026319191550061177,0.0189210437238982,0.012973875750029526
0.705,0.0043701203500144375,-0.7801137699999848,0.001186434100003937,-2.3564056900000008,0.003932558410013175,1.5679665999999897,0.7904556500000153,0.039999892599999996,0.0399999828,-9.787324999999973,0.05772307701421358,-0.06575750580023249,-0.0026527115100059943,0.01918140798814645,0.01307422350002893
0.7075,0.004420197775014142,-0.7800612549999851,0.0012000908500038568,-2.3564076850000006,0.003978258265012906,1.56793089999999,0.790508675000015,0.0399998914,0.0399999822,-9.787228999999973,0.05815652478498539,-0.06656394870022773,-0.002673503865005872,0.019441772252394712,0.01317457125002834
0.71,0.004470275200013845,-0.7800087399999854,0.0012137476000037757,-2.3564096800000005,0.004023958120012635,1.5678951999999902,0.7905617000000147,0.0399998902,0.0399999816,-9.787132999999974,0.058589972555757174,-0.06737039160022296,-0.0026942962200057485,0.019702136516642963,0.013274919000027745
0.7125,0.00452035262501355,-0.7799562249999857,0.0012274043500036952,-2.356411675000001,0.004069657975012366,1.5678594999999904,0.7906147250000143,0.039999889,0.039999981,-9.787036999999975,0.059023420326528984,-0.0681768345002182,-0.002715088575005626,0.019962500780891224,0.013375266750027153
0.715,0.0045704300500132525,-0.779903709999986,0.0012410611000036142,-2.3564136700000007,0.004115357830012095,1.5678237999999907,0.790667750000014,0.039999887799999995,0.039999980399999996,-9.786940999999976,0.05945686809730077,-0.06898327740021341,-0.0027358809300055027,0.020222865045139475,0.013475614500026559
0.7175,0.004621377100013992,-0.7798503069999854,0.001254955075003816,-2.356415680000001,0.004161850715012769,1.5677874899999902,0.7907216975000149,0.03999988685,0.0399999802,-9.78685189999998,0.05988937579106797,-0.06980794270022869,-0.0027568055100056273,0.020485328044813084,0.013576506250027084
0.72,0.004674063400014758,-0.7797951279999845,0.0012693235000040247,-2.3564177200000005,0.004209929660013468,1.5677499599999896,0.7907774900000156,0.0399998864,0.0399999808,-9.78677659999998,0.06032000333082814,-0.0706690528002412,-0.0027779945400059356,0.020751988515332456,0.013678486000028568
0.7225,0.004726749700015526,-0.7797399489999837,0.0012836919250042342,-2.3564197600000005,0.004258008605014169,1.567712429999989,0.7908332825000164,0.03999988595,0.0399999814,-9.786701299999978,0.06075063087058833,-0.07153016290025375,-0.0027991835700062443,0.02101864898585184,0.013780465750030052
0.725,0.004779436000016291,-0.7796847699999829,0.001298060350004443,-2.3564218000000006,0.004306087550014867,1.5676748999999885,0.7908890750000173,0.0399998855,0.039999982,-9.786625999999977,0.06118125841034851,-0.07239127300026627,-0.002820372600006552,0.021285309456371207,0.013882445500031535
0.7275,0.004832122300017059,-0.7796295909999821,0.0013124287750046525,-2.3564238400000006,0.004354166495015568,1.567637369999988,0.790944867500018,0.039999885049999996,0.0399999826,-9.786550699999976,0.0616118859501087,-0.07325238310027882,-0.0028415616300068607,0.02155196992689059,0.013984425250033022
0.73,0.0048848086000178245,-0.7795744119999813,0.0013267972000048612,-2.3564258800000006,0.004402245440016266,1.5675998399999873,0.7910006600000189,0.0399998846,0.0399999832,-9.786475399999974,0.06204251348986887,-0.07411349320029134,-0.0028627506600071686,0.021818630397409958,0.014086405000034503
0.7325,0.004937494900018592,-0.7795192329999805,0.0013411656250050708,-2.3564279200000007,0.0044503243850169665,1.567562309999987,0.7910564525000197,0.03999988415,0.0399999838,-9.786400099999973,0.06247314102962906,-0.0749746033003039,-0.0028839396900074777,0.02208529086792934,0.01418838475003599
0.735,0.004991957870019582,-0.7794622219999795,0.0013560186300053405,-2.356430010000001,0.004500023130017869,1.5675234799999862,0.7911141250000208,0.039999884,0.0399999844,-9.786298199999958,0.06293707117455316,-0.07585871960031687,-0.0029054075800076444,0.022356374561883288,0.014291566900036717
0.7375,0.005047309175019257,-0.7794042949999798,0.0013711139250052516,-2.356432125000001,0.004550531775017572,1.5674839999999863,0.7911727375000204,0.039999884,0.039999985,-9.78618299999996,0.06341765262203244,-0.07675433900031159,-0.002927014900007517,0.02262966986755098,0.014395350250036108
0.74,0.005102660480018928,-0.7793463679999801,0.001386209220005162,-2.356434240000001,0.0046010404200172725,1.5674445199999867,0.7912313500000201,0.039999884,0.0399999856,-9.78606779999996,0.0638982340695117,-0.07764995840030628,-0.002948622220007389,0.02290296517321866,0.014499133600035491
0.7425,0.005158011785018602,-0.7792884409999805,0.0014013045150050732,-2.356436355000001,0.004651549065016975,1.5674050399999868,0.7912899625000197,0.039999884,0.039999986200000004,-9.78595259999996,0.06437881551699098,-0.078545577800301,-0.002970229540007262,0.023176260478886348,0.01460291695003488
0.745,0.005213363090018274,-0.7792305139999809,0.0014163998100049835,-2.356438470000001,0.004702057710016676,1.567365559999987,0.7913485750000193,0.039999884,0.0399999868,-9.785837399999963,0.06485939696447024,-0.07944119720029569,-0.0029918368600071335,0.023449555784554026,0.014706700300034264
0.7475,0.005268714395017948,-0.7791725869999812,0.0014314951050048946,-2.356440585000001,0.004752566355016378,1.5673260799999873,0.791407187500019,0.039999884,0.0399999874,-9.785722199999963,0.06533997841194952,-0.08033681660029042,-0.0030134441800070064,0.02372285109022172,0.014810483650033653
0.75,0.005324065700018485,-0.7791146599999806,0.0014465904000050412,-2.356442700000001,0.004803075000016868,1.567286599999987,0.7914658000000195,0.039999884,0.039999988,-9.785606999999972,0.06582055985942777,-0.08123243600030253,-0.0030350515000070275,0.023996146395891222,0.014914267000033416
0.7525000000000001,0.005382135800018539,-0.7790539714999806,0.001462427280005056,-2.356444920000001,0.0048560641500169175,1.5672451999999868,0.7915273000000196,0.039999884,0.0399999898,-9.785518949999972,0.06629795171335677,-0.08218278860030341,-0.003057127615007048,0.02427517101177531,0.015019241200033513
0.755,0.005440205900018591,-0.7789932829999805,0.00147826416000507,-2.3564471400000007,0.004909053300016964,1.5672037999999868,0.7915888000000197,0.039999884,0.0399999916,-9.785430899999971,0.06677534356728575,-0.08313314120030425,-0.003079203730007068,0.024554195627659387,0.015124215400033607
0.7575000000000001,0.005498276000018645,-0.7789325944999805,0.0014941010400050848,-2.356449360000001,0.004962042450017014,1.5671623999999866,0.7916503000000198,0.039999884,0.0399999934,-9.785342849999973,0.06725273542121474,-0.08408349380030514,-0.0031012798450070884,0.02483322024354348,0.015229189600033704
0.76,0.005556346100018697,-0.7788719059999805,0.0015099379200050988,-2.3564515800000008,0.005015031600017061,1.5671209999999867,0.7917118000000198,0.039999884,0.0399999952,-9.785254799999972,0.06773012727514371,-0.08503384640030598,-0.003123355960007108,0.025112244859427556,0.015334163800033798
0.7625000000000001,0.00561441620001875,-0.7788112174999804,0.0015257748000051135,-2.3564538000000006,0.00506802075001711,1.5670795999999867,0.7917733000000199,0.039999884,0.039999997,-9.785166749999972,0.06820751912907272,-0.08598419900030686,-0.0031454320750071286,0.025391269475311645,0.015439138000033896
0.765,0.005672486300018802,-0.7787505289999804,0.0015416116800051278,-2.3564560200000004,0.005121009900017157,1.5670381999999865,0.7918348000000199,0.039999884,0.0399999988,-9.785078699999971,0.0686849109830017,-0.0869345516003077,-0.003167508190007148,0.025670294091195724,0.015544112200033988
0.7675000000000001,0.005731480365019895,-0.7786888834999792,0.0015577005950054258,-2.3564582500000006,0.005174841100018153,1.5669961399999857,0.791897275000021,0.0399998834,0.03999999975,-9.784992199999973,0.06916837431506617,-0.08790053600032609,-0.0031897044500073368,0.025951286126021253,0.015649665450034895
0.77,0.005792322360020364,-0.7786253239999787,0.0015742935800055536,-2.3564605000000007,0.005230356400018581,1.5669527599999855,0.7919617000000215,0.0399998816,0.039999999,-9.784908799999972,0.06966398060338387,-0.08889778400033378,-0.0032121410000075096,0.026236212998723904,0.015756376800035717
0.7725,0.005853164355020833,-0.7785617644999783,0.0015908865650056815,-2.356462750000001,0.005285871700019009,1.5669093799999851,0.7920261250000221,0.0399998798,0.03999999825,-9.78482539999997,0.07015958689170157,-0.08989503200034146,-0.0032345775500076824,0.026521139871426555,0.01586308815003654
0.775,0.005914006350021305,-0.7784982049999778,0.0016074795500058102,-2.356465000000001,0.00534138700001944,1.5668659999999848,0.7920905500000226,0.039999877999999996,0.0399999975,-9.784741999999971,0.0706551931800193,-0.0908922800003492,-0.0032570141000078565,0.02680606674412922,0.015969799500037365
0.7775,0.005974848345021774,-0.7784346454999772,0.0016240725350059383,-2.356467250000001,0.005396902300019868,1.5668226199999844,0.7921549750000231,0.0399998762,0.03999999675,-9.78465859999997,0.071150799468337,-0.0918895280003569,-0.0032794506500080293,0.02709099361683187,0.01607651085003819
0.78,0.006035690340022245,-0.7783710859999767,0.0016406655200060668,-2.356469500000001,0.0054524176000202975,1.5667792399999843,0.7922194000000236,0.039999874399999996,0.039999996,-9.784575199999969,0.07164640575665471,-0.09288677600036462,-0.0033018872000082035,0.027375920489534536,0.016183222200039017
0.7825,0.006096532335022714,-0.7783075264999763,0.0016572585050061948,-2.356471750000001,0.005507932900020726,1.5667358599999839,0.792283825000024,0.0399998726,0.03999999525,-9.78449179999997,0.0721420120449724,-0.09388402400037231,-0.0033243237500083763,0.027660847362237187,0.01628993355003984
0.785,0.006159256600023393,-0.7782420419999756,0.0016743649700063801,-2.356474050000001,0.005565164700021345,1.5666911399999834,0.7923502350000248,0.039999871299999996,0.0399999943,-9.784398299999964,0.07264858037252166,-0.09491665340038594,-0.0033470235400083893,0.027949800901221795,0.016397739000039813
0.7875,0.006222922000022581,-0.7781755949999763,0.0016917281750061586,-2.356476375000001,0.005623254750020604,1.566645749999984,0.7924176375000239,0.03999987025,0.039999993250000004,-9.784299749999965,0.07316062971967738,-0.09596697350037255,-0.003369854950008098,0.028240767773343955,0.016506091500038435
0.79,0.006286587400021772,-0.7781091479999772,0.001709091380005938,-2.356478700000001,0.005681344800019866,1.5666003599999845,0.7924850400000231,0.0399998692,0.0399999922,-9.784201199999966,0.07367267906683311,-0.0970172936003592,-0.0033926863600078076,0.028531734645466125,0.016614444000037056
0.7925,0.00635025280002096,-0.7780427009999781,0.0017264545850057165,-2.356481025000001,0.005739434850019125,1.566554969999985,0.7925524425000222,0.03999986815,0.039999991150000004,-9.784102649999967,0.07418472841398883,-0.0980676137003458,-0.003415517770007517,0.028822701517588284,0.016722796500035674
0.795,0.006413918200020151,-0.7779762539999789,0.0017438177900054959,-2.356483350000001,0.005797524900018386,1.5665095799999855,0.7926198450000214,0.0399998671,0.0399999901,-9.784004099999969,0.07469677776114458,-0.09911793380033246,-0.0034383491800072264,0.029113668389710457,0.016831149000034296
0.7975,0.006477583600019339,-0.7779098069999798,0.0017611809950052743,-2.356485675000001,0.005855614950017646,1.566464189999986,0.7926872475000205,0.03999986605,0.039999989050000004,-9.78390554999997,0.0752088271083003,-0.10016825390031905,-0.003461180590006935,0.029404635261832616,0.016939501500032914
0.8,0.006541249000019366,-0.7778433599999798,0.0017785442000052818,-2.356488000000001,0.00591370500001767,1.5664187999999861,0.7927546500000205,0.039999865,0.039999988,-9.783806999999973,0.07572087645545945,-0.10121857400031987,-0.003484012000006737,0.029695602133956445,0.017047854000031764
0.8025,0.006607788445019879,-0.7777739699999793,0.0017966912750054216,-2.356490430000001,0.0059744157750181385,1.5663713849999858,0.7928251020000211,0.03999986395,0.039999989050000004,-9.783717299999973,0.07624466270224006,-0.10231756490032834,-0.0035071588450069154,0.02999225808316389,0.017156986050032606
0.805,0.006674327890020396,-0.7777045799999788,0.0018148383500055623,-2.356492860000001,0.006035126550018609,1.5663239699999854,0.7928955540000217,0.0399998629,0.0399999901,-9.783627599999972,0.0767684489490207,-0.10341655580033687,-0.003530305690007095,0.03028891403237135,0.01726611810003345
0.8075,0.006740867335020908,-0.7776351899999782,0.0018329854250057024,-2.3564952900000007,0.0060958373250190765,1.566276554999985,0.7929660060000222,0.03999986185,0.039999991150000004,-9.78353789999997,0.0772922351958013,-0.10451554670034534,-0.003553452535007273,0.030585569981578797,0.017375250150034292
0.81,0.006807406780021424,-0.7775657999999777,0.001851132500005843,-2.3564977200000006,0.006156548100019548,1.5662291399999848,0.7930364580000228,0.0399998608,0.0399999922,-9.78344819999997,0.07781602144258193,-0.10561453760035386,-0.0035765993800074528,0.030882225930786256,0.017484382200035137
0.8125,0.006873946225021937,-0.7774964099999772,0.0018692795750059829,-2.356500150000001,0.0062172588750200155,1.5661817249999843,0.7931069100000232,0.03999985975,0.039999993250000004,-9.78335849999997,0.07833980768936254,-0.10671352850036234,-0.0035997462250076315,0.031178881879993705,0.01759351425003598
0.8150000000000001,0.006940485670022453,-0.7774270199999765,0.0018874266500061236,-2.356502580000001,0.006277969650020487,1.566134309999984,0.7931773620000238,0.0399998587,0.0399999943,-9.78326879999997,0.07886359393614317,-0.10781251940037086,-0.003622893070007811,0.031475537829201164,0.017702646300036824
0.8175,0.007007999335023817,-0.7773566219999751,0.0019058395150064957,-2.3565050700000008,0.00633956880502173,1.566086204999983,0.7932488435000252,0.0399998578,0.039999994750000004,-9.783181199999971,0.07939482703823687,-0.10892874000039456,-0.0036461745450080754,0.03177408296625248,0.017812333650037992
0.8200000000000001,0.007077461440023882,-0.7772842079999751,0.0019247839600065133,-2.356507680000001,0.006402944720021789,1.566036719999983,0.7933223840000253,0.0399998572,0.039999994000000004,-9.78309779999997,0.07994095385093385,-0.11007942000039563,-0.0036697252800080974,0.03207640647898574,0.017923131600038094
0.8225,0.007146923545023943,-0.7772117939999751,0.00194372840500653,-2.356510290000001,0.006466320635021845,1.565987234999983,0.7933959245000254,0.0399998566,0.039999993250000004,-9.78301439999997,0.08048708066363079,-0.11123010000039664,-0.003693276015008118,0.03237872999171899,0.018033929550038193
0.8250000000000001,0.007216385650024008,-0.777139379999975,0.0019626728500065477,-2.356512900000001,0.0065296965500219045,1.565937749999983,0.7934694650000255,0.039999856,0.0399999925,-9.782930999999971,0.08103320747632776,-0.11238078000039771,-0.00371682675000814,0.032681053504452245,0.018144727500038295
0.8275,0.00728584775502407,-0.7770669659999749,0.001981617295006565,-2.356515510000001,0.006593072465021961,1.5658882649999828,0.7935430055000255,0.0399998554,0.03999999175,-9.78284759999997,0.08157933428902471,-0.11353146000039874,-0.003740377485008161,0.03298337701718548,0.018255525450038394
0.8300000000000001,0.007355309860024134,-0.7769945519999748,0.0020005617400065826,-2.356518120000001,0.00665644838002202,1.5658387799999829,0.7936165460000256,0.0399998548,0.039999991,-9.78276419999997,0.08212546110172167,-0.11468214000039981,-0.003763928220008183,0.03328570052991874,0.018366323400038496
