rsonawane2002/My_IMU/logs_2/traj_458/clean_458.csv
time,j1,j2,j3,j4,j5,j6,j7,gripper1,gripper2,imu_ax,imu_ay,imu_az,imu_gx,imu_gy,imu_gz,quat_x,quat_y,quat_z,quat_w
2288.3833333348603,0.00016700293,-0.785875,4.0107683e-05,-2.3551247,9.29385e-05,1.570997,0.786,0.04,0.04,0.0,-0.0,0.0,2.875329272945135e-08,-0.0011641195053377316,4.421952117202833e-08,0.9999995971961153,0.00020320632366974898,0.0008736418299892524,3.263050917662294e-05
2288.400000001527,0.00016700441,-0.78576016,4.0115203e-05,-2.3552213,9.296581e-05,1.5709941,0.786,0.04,0.04,-0.29199846046821243,-2.8372744659580992e-05,0.020128409799324842,1.0880417787380838e-07,-0.0022383914566687655,-4.1586164986086734e-07,0.9999996850588209,0.0002032076694912548,0.0007665025205176214,3.260043449699045e-05
2288.416666668194,0.00016699653,-0.78565425,4.0126466e-05,-2.35531,9.293377e-05,1.5709913,0.786,0.04,0.04,0.02326284701410497,4.9954510254529225e-05,-0.001636565403395629,1.6046153988723283e-06,-0.003226392456429787,-3.821698092802291e-06,0.9999997558662056,0.00020321200693424485,0.0006677674671130411,3.254257749711483e-05
2288.433333334861,0.0001669641,-0.78555685,4.01484e-05,-2.355391,9.27495e-05,1.5709884,0.786,0.04,0.04,0.0223948601866919,0.00012771230263609033,-0.0014910517172950222,5.630295136371956e-06,-0.004133153122937112,-1.287393633448456e-05,0.9999998122974265,0.00020322449181582185,0.0005771088666487926,3.240792738433043e-05
2288.4500000015278,0.0001668851,-0.7854671,4.0190862e-05,-2.3554654,9.228985e-05,1.5709856,0.786,0.04,0.039999995,0.01978431054463492,0.0002322301302850802,-0.001396383339158369,1.2995569793848841e-05,-0.004962829424457148,-2.9249247781648932e-05,0.9999998570060568,0.0002032527046273036,0.0004936028755053098,3.213106569761999e-05
2288.4666666681946,0.00016673199,-0.7853842,4.0266645e-05,-2.3555331,9.136398e-05,1.5709857,0.786,0.04,0.04,0.01987273305374959,0.0003892888795586848,0.0012741645846414684,2.5034074136732094e-05,-0.005720602003168989,-5.746176185728305e-05,0.9999998913243758,0.00020330594006379575,0.0004183522209388773,3.1612505083749545e-05
2288.4833333348615,0.00016647126,-0.78530777,4.0390536e-05,-2.3555984,8.9792644e-05,1.5709863,0.786,0.04,0.039999995,0.011387311845867387,0.000543267785069895,-0.0022976310324329674,4.304770677425514e-05,-0.006397058115578449,-9.63540713744222e-05,0.999999918366415,0.000203395779858201,0.00034778066397404253,3.075597167100798e-05
2288.5000000015284,0.00016606523,-0.78523713,4.057985e-05,-2.3556576,8.7322616e-05,1.5709871,0.786,0.04,0.04,0.01700391728260975,0.0007525922012826148,-0.00035697703233417144,6.777453889237452e-05,-0.007022406040189526,-0.00015081646016467618,0.9999999387189868,0.0002035347938499949,0.00028331876951960696,2.942932251722783e-05
2288.5166666681953,0.00016547137,-0.78517187,4.085364e-05,-2.3557153,8.370944e-05,1.570988,0.7860019,0.04,0.04,0.008400411223430382,0.0009598686242812072,-0.002336852514894794,0.00010020180707076138,-0.0075832222985238035,-0.000220053909266153,0.9999999539607499,0.00020469125964894347,0.00022231415672418865,2.7502762831702447e-05
2288.533333334862,0.00016464361,-0.7851112,4.123265e-05,-2.3557682,7.8673904e-05,1.570992,0.7860038,0.04,0.04,0.014123344145189343,0.001193427204058446,0.0017327101103914444,0.00013252303915995076,-0.008101802806424556,-0.0003062795006859015,0.9999999644641597,0.0002059270572758373,0.00016747892626282435,2.483013827470372e-05
2288.550000001529,0.00016353242,-0.7850547,4.1739117e-05,-2.355819,7.1916045e-05,1.5709966,0.78600574,0.04,0.04,0.008486245234529122,0.0014460421865898165,-0.000888489458805708,0.00017446482115066107,-0.008552847314770264,-0.00041073816439207613,0.9999999715493524,0.00020725902967581414,0.00011616073618845567,2.1252585067338915e-05
2288.566666668196,0.00016208534,-0.78500193,4.2396703e-05,-2.3558693,6.3117506e-05,1.5710014,0.7860092,0.04,0.04,0.004999858321763639,0.0017135208546514738,-0.0018412971517500765,0.00022696074405169714,-0.008960205052539883,-0.0005345196132110314,0.9999999756755537,0.00020947977953739166,6.701853712385597e-05,1.660210453026627e-05
2288.583333334863,0.00016024736,-0.7849525,4.323019e-05,-2.355919,5.1936735e-05,1.5710099,0.786013,0.039999995,0.04,0.006076965800771994,0.0019990319040979025,0.0011687820565375873,0.0002835276451615561,-0.00933367446590346,-0.0006794062010791864,0.9999999772316864,0.0002120118602673414,2.175115331251987e-05,1.0699759298817496e-05
2288.6000000015297,0.00015796105,-0.78490597,4.4265293e-05,-2.3559685,3.8033086e-05,1.5710206,0.7860168,0.03999999,0.039999995,0.003880706748349283,0.0022861715938497125,5.39278653732822e-05,0.000350828938924256,-0.009658399533783456,-0.0008445514297154541,0.9999999767276752,0.00021469585111828394,-2.095263880168249e-05,3.3656354041986065e-06
2288.6166666681966,0.00015516694,-0.7848619,4.552873e-05,-2.356018,2.1046597e-05,1.571033,0.78602254,0.039999988,0.039999988,0.003296391726381742,0.0025885952721857422,-0.00018649396087422332,0.0004314031128481806,-0.009944048927782948,-0.001030675761140267,0.9999999742166534,0.00021850544721903602,-6.156959330812544e-05,-5.589898483185061e-06
2288.6333333348634,0.00015180414,-0.7848199,4.7047895e-05,-2.356068,6.0719964e-07,1.5710492,0.78602916,0.039999984,0.03999998,0.003043573408101352,0.002898931057912762,0.0015766024971552994,0.0005168063039498437,-0.010193719839676901,-0.001239255643587907,0.9999999700731872,0.00022295444277205297,-9.93843538246769e-05,-1.6361279479144036e-05
2288.6500000015303,0.00014781018,-0.7847796,4.8850896e-05,-2.3561184,-2.3664246e-05,1.5710691,0.7860368,0.039999977,0.039999973,0.0018658240484636934,0.0032172782742537352,0.0014432014093790357,0.0006125708464339195,-0.010401727088954808,-0.0014716750587693696,0.9999999644636285,0.0002281233441568743,-0.00013484385277304066,-2.9148194600128217e-05
2288.666666668197,0.0001431214,-0.7847405,5.096637e-05,-2.3561695,-5.2153024e-05,1.5710926,0.7860463,0.039999973,0.03999997,0.0016400074948075272,0.003540741293032601,0.001765456489999373,0.0007190061259884562,-0.010570995378569287,-0.0017275088688443365,0.9999999573963813,0.0002344804137001634,-0.00016815657851374457,-4.4153556256766745e-05
2288.683333334864,0.00013767336,-0.7847025,5.3423322e-05,-2.356224,-8.525046e-05,1.5711195,0.78605735,0.03999997,0.039999966,-0.003795919324867114,0.0038696674380161145,0.0003518064429774981,0.0008328438926598603,-0.010699701028751089,-0.0020071116757769234,0.9999999486620311,0.00024183844382689532,-0.00020099133661730358,-6.15839648415244e-05
2288.700000001531,0.00013140048,-0.7846652,5.6250952e-05,-2.3562822,-0.00012335212,1.5711505,0.7860696,0.039999966,0.039999958,-0.003936544973592859,0.004202134910387548,0.0009635619664161155,0.0009562925242753886,-0.0108056804519373,-0.002309909042618247,0.9999999382084191,0.0002500701585735558,-0.00023319899071805263,-8.16474398256218e-05
2288.716666668198,0.000124237,-0.7846283,5.947907e-05,-2.3563411,-0.00016685859,1.5711858,0.78608346,0.03999997,0.03999996,0.0004730700499333551,0.0045374415071936245,0.0026960860608049586,0.0010918322070712816,-0.010883929151793698,-0.0026378239800616044,0.9999999261730766,0.00025943556097335097,-0.00026346807730637034,-0.00010455430735087293
2288.7333333348647,0.000116116535,-0.78459144,6.3137406e-05,-2.356407,-0.00021617171,1.5712252,0.7860993,0.03999997,0.03999996,-0.010332197667839438,0.00487587931562959,-0.0001688127911458892,0.0012375258133777065,-0.010924541518240677,-0.0029901618768415923,0.9999999114602556,0.0002701052479407708,-0.0002951064726137427,-0.00013051745427877502
2288.7500000015316,0.00010697246,-0.7845543,6.72558e-05,-2.3564754,-0.00027169482,1.5712701,0.7861172,0.03999997,0.03999996,-0.00301115267320462,0.00521357556199866,0.00314994675763014,0.0013928252870448556,-0.010954178838881147,-0.003367003928506975,0.9999998944982071,0.00028213067484797916,-0.0003254019749039923,-0.00015974796282857448
2288.7666666681985,9.673809e-05,-0.7845169,7.186441e-05,-2.3565493,-0.0003338323,1.5713204,0.7861373,0.03999997,0.03999996,-0.007947242165151636,0.00555313449284657,0.0016831449414222988,0.0015579783742723913,-0.010948371645159497,-0.0037684063072030726,0.9999998744494917,0.0002956225046035716,-0.0003559040839859716,-0.0001924593945268015
2288.7833333348653,8.5346765e-05,-0.78447884,7.6993114e-05,-2.3566303,-0.0004029884,1.5713767,0.78615963,0.03999997,0.03999996,-0.010923188711342569,0.0058924958010247675,0.0015413443713363506,0.0017326772063295706,-0.010920503973200496,-0.00419435736632365,0.9999998505645885,0.00031063152864375525,-0.00038729801754010696,-0.00022886480630198436
2288.800000001532,7.273187e-05,-0.7844397,8.2671766e-05,-2.356718,-0.00047956593,1.5714388,0.7861843,0.03999997,0.039999958,-0.01074308719224426,0.006230480921489523,0.001965993048758108,0.0019174341693481273,-0.010874882831651726,-0.0046439558172912745,0.9999998221767035,0.0003272084406923051,-0.00041967292428809696,-0.0002691762143033689
2288.816666668199,5.882717e-05,-0.78439945,8.8930195e-05,-2.3568087,-0.00056396815,1.5715073,0.78621167,0.039999973,0.03999996,-0.004006710290549442,0.006567665963188702,0.00409164037751264,0.0021122236507184547,-0.010813756984667898,-0.005118829029490023,0.9999997895152518,0.00034555293847263045,-0.000450793300727521,-0.00031360487697876585
2288.833333334866,4.3566783e-05,-0.78435785,9.5798176e-05,-2.3569067,-0.0006565941,1.5715829,0.7862415,0.039999973,0.03999996,-0.011843299485514436,0.006902593770461048,0.0026592167236216824,0.002315887977802746,-0.010714959334320373,-0.005617987837977902,0.999999750992174,0.0003655652903670234,-0.00048277483478240926,-0.00036236179084836396
2288.850000001533,2.6885045e-05,-0.7843146,0.00010330506,-2.3570123,-0.0007578409,1.5716658,0.7862743,0.039999973,0.03999996,-0.012501427491007355,0.007235637690863311,0.0028920024265355337,0.0025302777125297427,-0.010596205029823471,-0.006141292474343845,0.999999705505039,0.00038756310673271365,-0.0005157660878664368,-0.0004156561270898016
2288.8666666681997,8.716939e-06,-0.7842695,0.000111480134,-2.3571255,-0.0008681031,1.5717559,0.7863098,0.039999973,0.039999958,-0.012631951485420068,0.007566072538975027,0.002953017649809375,0.002752886130826817,-0.010460148455166015,-0.006687685378026768,0.999999652044504,0.00041135682185206127,-0.000549826362250341,-0.0004736954795173295
2288.8833333348666,-1.1001971e-05,-0.7842225,0.000120352255,-2.3572466,-0.0009877714,1.5718536,0.7863485,0.039999977,0.03999996,-0.013120233417907023,0.007893377486810575,0.0032060386165877475,0.0029860844783248775,-0.010303907062669402,-0.007258681141520446,0.9999995892680626,0.0004372926791643618,-0.0005849848907080297,-0.0005366856587257902
2288.9000000015335,-3.2335396e-05,-0.7841732,0.00012995019,-2.3573778,-0.0011172331,1.5719595,0.7863903,0.039999977,0.03999996,-0.016943065186847406,0.008217495722274249,0.002752274831041568,0.003227607407533562,-0.010129611774537507,-0.007853184045355318,0.9999995152704305,0.0004652685556430069,-0.0006222247343907624,-0.0006048309310512248
2288.9166666682004,-5.5346547e-05,-0.78412145,0.0001403023,-2.35752,-0.0012568693,1.5720735,0.78643537,0.039999977,0.03999996,-0.019164235603641444,0.00853703100250472,0.0023039079414255426,0.00347870415713295,-0.009944109310292755,-0.00847100553343649,0.999999427936894,0.0004954203591282917,-0.00066223076777509,-0.0006783324868215901
2288.9333333348673,-8.009759e-05,-0.784067,0.00015143656,-2.3576708,-0.001407058,1.5721962,0.7864838,0.039999977,0.039999958,-0.01440496211353448,0.008852165936204144,0.004287690830584445,0.003738502545727179,-0.009753207509123599,-0.00911171364649746,0.999999326521942,0.0005278244000403909,-0.000703363258378622,-0.0007573884022834492
2288.950000001534,-0.00010665011,-0.78401,0.00016338055,-2.35783,-0.001568171,1.572328,0.7865358,0.03999998,0.03999996,-0.014506366600142151,0.009163185486915715,0.004124346490930186,0.00400713082154339,-0.009542584013296738,-0.009774209909061126,0.9999992091880345,0.000562555979890872,-0.0007455619376540052,-0.0008421944383322113
2288.966666668201,-0.00013506437,-0.7839499,0.00017616172,-2.358,-0.0017405804,1.5724686,0.7865914,0.03999998,0.039999984,-0.018808517807422653,0.00947355179046306,0.0034761229342983313,0.004283935840211139,-0.009308967251049561,-0.010466884007494244,0.9999990727856569,0.0005996882178729397,-0.0007901969823394588,-0.0009329472636535806
2288.983333334868,-0.00016540055,-0.7838869,0.00018980667,-2.3581817,-0.001924643,1.5726192,0.7866508,0.03999998,0.03999998,-0.01992709841656115,0.009772195777067935,0.0036399902658024175,0.00456944647648355,-0.009065883146554243,-0.011173735934772291,0.9999989149375811,0.0006392939799679707,-0.0008371781921533547,-0.0010298347158830146
2289.0000000015348,-0.00019771741,-0.78382075,0.0002043419,-2.358373,-0.0021207144,1.5727797,0.786714,0.039999984,0.03999997,-0.01654201782412823,0.010068607727882397,0.0047318663807249806,0.0048627308053764105,-0.008810264439296889,-0.011898819134315088,0.9999987338202805,0.0006814464391608582,-0.0008855510266722013,-0.0011330436733230772
2289.0166666682017,-0.0002320723,-0.7837511,0.00021979351,-2.3585773,-0.002329149,1.57295,0.78678125,0.039999984,0.039999973,-0.023010126909261963,0.01036374336274258,0.003292897114182125,0.005164038141730025,-0.00853570523255267,-0.01265123679556347,0.9999985248281144,0.0007262147763334548,-0.0009372814916749312,-0.001242761883533553
2289.0333333348685,-0.00026852213,-0.7836779,0.00023618691,-2.3587916,-0.0025502888,1.573131,0.78685266,0.039999984,0.03999998,-0.017514790217565412,0.010647842583699479,0.005215484474296872,0.005472546592489988,-0.008257103463937382,-0.013424579133789891,0.9999982865165082,0.0007737003701410058,-0.0009904611757997695,-0.0013591682913002019
2289.0500000015354,-0.00030712268,-0.783601,0.00025354724,-2.3590193,-0.0027844713,1.5733225,0.78692824,0.039999984,0.039999988,-0.023379454272554057,0.010929549880434042,0.0037786447918630728,0.005788357704025726,-0.007957148135378853,-0.01421841439021901,0.9999980138218532,0.0008239107767082304,-0.0010468473795819863,-0.0014824418857342493
2289.0666666682023,-0.0003479286,-0.78352034,0.0002718991,-2.3592594,-0.0030320294,1.5735252,0.7870081,0.039999984,0.039999977,-0.02167027124084786,0.011205546160845655,0.004578976842894988,0.006111195843368624,-0.00765153732646333,-0.015028277413274508,0.9999977036693138,0.0008769140764832824,-0.0011057534580528887,-0.0016127576047942007
2289.083333334869,-0.00039099337,-0.7834359,0.00029126657,-2.3595116,-0.0032932858,1.5737392,0.78709245,0.039999988,0.039999988,-0.021251125728749543,0.01147326971013057,0.0048756833496588214,0.006440975327220129,-0.00733320424939133,-0.015862136528459345,0.9999973522738749,0.0009328067808996632,-0.0011669694569803343,-0.0017502854154864476
2289.100000001536,-0.00043636977,-0.7833474,0.00031167307,-2.3597772,-0.0035685515,1.5739645,0.78718126,0.039999988,0.04,-0.023469077704030283,0.011732561150285415,0.004406963126624142,0.006776832077722851,-0.007001312265176896,-0.01671448147478068,0.9999969545924701,0.00099159406982043,-0.001231179544412339,-0.0018951896779935305
2289.116666668203,-0.00048410887,-0.78325474,0.00033314177,-2.3600564,-0.0038581346,1.5742016,0.7872747,0.03999999,0.04,-0.0239821221131864,0.011987393357034293,0.004759203810844603,0.007119436870080526,-0.006659060401147458,-0.017585057452952618,0.9999965059022357,0.001053368948575585,-0.0012983821805196449,-0.0020476329973099076
2289.13333333487,-0.00053426105,-0.7831577,0.0003556953,-2.3603494,-0.0041623386,1.5744506,0.7873729,0.039999988,0.039999995,-0.024475533400414307,0.012238503479058364,0.004775765285436329,0.00746780417026531,-0.006307850236641068,-0.018474245358728426,0.9999960010474039,0.001118164100893739,-0.001368695036995073,-0.0022077753824974867
2289.1500000015367,-0.00058687513,-0.78305626,0.00037935592,-2.3606572,-0.0044814786,1.5747119,0.7874759,0.039999984,0.039999995,-0.02604267805006444,0.012496704987874276,0.004606753754865522,0.007821746737598261,-0.0059485221842204734,-0.019382415852220263,0.9999954341500336,0.001186039344831237,-0.0014424442247544828,-0.002375782906082957
2289.1666666682036,-0.00064199907,-0.7829507,0.00040414502,-2.3609788,-0.004815843,1.5749857,0.78758377,0.03999998,0.039999995,-0.02401041019846062,0.012734053771148567,0.005021447760000797,0.008181120653576237,-0.0055824597925442886,-0.020308268599036366,0.9999948005672501,0.0012570261150967935,-0.0015188829389700845,-0.0025518068949529167
2289.1833333348704,-0.0006996795,-0.7828402,0.00043008383,-2.361315,-0.005165719,1.5752722,0.7876967,0.03999998,0.04,-0.026104495066769928,0.012970077419166646,0.005211186380216226,0.008545479450776428,-0.005203388140811152,-0.021251347976682978,0.999994093115289,0.0013312108238602825,-0.001598724412038125,-0.002735999365425505
2289.2000000015373,-0.00075996225,-0.7827251,0.00045719274,-2.361666,-0.0055313837,1.5755718,0.78781474,0.039999977,0.04,-0.025955796751908622,0.013197244200997393,0.005219679607137984,0.008914368415863967,-0.004817300313871925,-0.022211279150815565,0.9999933058350179,0.001408590747590829,-0.0016816687119265996,-0.0029285060357580298
2289.216666668204,-0.00082289195,-0.7826051,0.0004854918,-2.362032,-0.005913098,1.5758842,0.78793794,0.039999973,0.04,-0.026757427495094355,0.013412192780074689,0.0050567637253529085,0.009287885993120235,-0.004420487812133528,-0.02318759362949153,0.9999924312150045,0.0014892212764300394,-0.0017681010838472354,-0.0031294650104606433
2289.233333334871,-0.00088851125,-0.7824803,0.00051500037,-2.3624134,-0.0063111223,1.57621,0.78806645,0.039999973,0.04,-0.02734279514005067,0.013624285864191968,0.005116079483258318,0.00966529858432685,-0.004016249501557656,-0.024179049502758086,0.999991461986253,0.0015731550169273238,-0.0018579893974662927,-0.003339013819658724
2289.250000001538,-0.0009568626,-0.7823501,0.0005457374,-2.3628106,-0.006725711,1.5765495,0.78820026,0.03999997,0.04,-0.02822036656198179,0.013831400131285743,0.005523604321533426,0.010046393405329482,-0.0036041768099196667,-0.025186916717812223,0.9999903901203463,0.0016603831831844998,-0.0019515400054119759,-0.0035572863603974365
2289.266666668205,-0.0010279863,-0.7822155,0.0005777214,-2.3632238,-0.007157119,1.5769029,0.78833944,0.03999997,0.04,-0.027587623926894622,0.014037258926272774,0.004958372160457358,0.010431290968837107,-0.0031869964969458084,-0.026209017499771597,0.9999892082667906,0.00175092746344304,-0.0020483629999200675,-0.003784416995469964
2289.2833333348717,-0.0011019225,-0.78207535,0.0006109699,-2.3636527,-0.007605578,1.5772698,0.7884842,0.039999966,0.04,-0.02836930080192257,0.014226860273961264,0.005400308164249523,0.010819520848280598,-0.0027599158799868836,-0.027246671174898294,0.9999879067634888,0.0018448961897867874,-0.0021489620595710654,-0.004020528185660389
2289.3000000015386,-0.0011787092,-0.7819298,0.00064550043,-2.3640983,-0.008071329,1.5776513,0.78863454,0.039999966,0.04,-0.029613492082125603,0.014419583602861587,0.0055819310323945714,0.011209754263551228,-0.002325984550200024,-0.028297651210111997,0.9999864767620895,0.0019422437196128886,-0.002253304829515659,-0.004265747252461481
2289.3166666682055,-0.001258384,-0.78177935,0.0006813296,-2.364561,-0.008554582,1.5780469,0.7887905,0.03999996,0.039999995,-0.029929790158056413,0.014588844053235912,0.004739296580980046,0.011602909881705066,-0.0018870306676994526,-0.02936249095347649,0.9999849084637515,0.002043016984151081,-0.002361537301589687,-0.00452018450044091
2289.3333333348723,-0.0013409829,-0.7816235,0.00071847404,-2.3650403,-0.009055588,1.5784572,0.78895223,0.039999954,0.039999995,-0.02914702545939729,0.014788888351738652,0.005663992314564048,0.011998235071948062,-0.0014421720668172273,-0.030442294441009557,0.9999831926881563,0.0021472291912052227,-0.0024733285703240765,-0.004783972594539563
2289.3500000015392,-0.0014265407,-0.781462,0.00075694884,-2.3655367,-0.00957453,1.5788822,0.7891197,0.039999958,0.039999995,-0.030547970084704446,0.014935163182934648,0.005365546215330141,0.012395271048925849,-0.0009900114877595331,-0.03153241458064187,0.9999813181070715,0.0022548913367580734,-0.0025891224814728643,-0.005057207399258313
2289.366666668206,-0.0015150909,-0.7812949,0.0007967696,-2.3660507,-0.010111615,1.5793221,0.78929293,0.039999958,0.04,-0.03133621248265772,0.015100236979224621,0.005286075517307864,0.01279374893062922,-0.0005319160746786455,-0.03263677853667156,0.9999792736066236,0.0023659523981670056,-0.0027090650029002314,-0.0053399993660206285
2289.383333334873,-0.0016066663,-0.7811221,0.0008379508,-2.3665817,-0.010667048,1.579777,0.7894722,0.039999958,0.04,-0.030069501740759286,0.015260463947194651,0.005641105515308276,0.01319382452171374,-7.199837275310289e-05,-0.03375228816510804,0.9999770486482923,0.0024805717241566196,-0.002832734608995798,-0.005632455522002935
2289.40000000154,-0.0017012977,-0.78094375,0.0008805068,-2.36713,-0.011241012,1.580247,0.78965735,0.039999954,0.04,-0.030695538507585773,0.015403315174807204,0.005369975095592672,0.013594117129920888,0.00039577396402592363,-0.034880239414430005,0.9999746316018043,0.0025986063092350354,-0.0029602476531039074,-0.005934672014301968
2289.4166666682067,-0.0017990158,-0.7807597,0.00092445104,-2.367697,-0.011833703,1.5807325,0.7898486,0.039999958,0.04,-0.03282943559461682,0.015556736591100344,0.00500846290740764,0.013995250026864463,0.0008700330585121839,-0.036018509993599894,0.9999720082220744,0.002720176459730157,-0.0030921658439814217,-0.006246752975159388
2289.4333333348736,-0.0018998489,-0.78057,0.0009697963,-2.3682814,-0.012445277,1.5812335,0.790046,0.039999958,0.04,-0.030647458248811432,0.015675859068687084,0.005638060758461627,0.014396191330603632,0.0013453385517818682,-0.03716833518045907,0.9999691682763489,0.002845228609779498,-0.003227740500856742,-0.0065687793481374775
2289.4500000015405,-0.0020038253,-0.7803743,0.0010165551,-2.368884,-0.013075892,1.5817499,0.79024947,0.039999954,0.04,-0.032656396163832646,0.015800537507991083,0.005089980514871861,0.014796743287415856,0.0018295052197368558,-0.03832759317997098,0.9999660962818894,0.0029737618238236323,-0.00336771251744078,-0.006900836164859081
2289.4666666682074,-0.0021109716,-0.78017265,0.00106474,-2.369505,-0.013725749,1.5822822,0.7904592,0.03999995,0.04,-0.032084843898516624,0.015949944891139288,0.005474174838027146,0.015196909047204114,0.0023141040241873023,-0.039498373582246685,0.9999627794872399,0.0031058043293997867,-0.0035117196952551694,-0.007243027295483441
2289.4833333348743,-0.002221313,-0.7799651,0.0011143619,-2.3701448,-0.014394998,1.5828302,0.79067516,0.039999947,0.04,-0.0336583022491288,0.0160635387006558,0.004810501283714075,0.015595675911495192,0.002805855849315024,-0.04067842612389946,0.9999592021221209,0.0032412919224980644,-0.0036602645794913766,-0.007595431598853874
2289.500000001541,-0.002334874,-0.77975166,0.0011654323,-2.3708029,-0.015083771,1.5833942,0.79089737,0.039999943,0.04,-0.03194486422186671,0.016161425723441696,0.005351964741184823,0.0159934103730461,0.003297057200795428,-0.04186658460887841,0.9999553517052117,0.0033802227694416627,-0.003812746500822772,-0.007958118763612243
2289.516666668208,-0.0024516769,-0.7795321,0.0012179611,-2.3714797,-0.015792204,1.5839744,0.791126,0.03999994,0.04,-0.03333147748287857,0.0162600101436065,0.005223251517305627,0.01638955828750378,0.003793878509121884,-0.04306328144895708,0.9999512116447467,0.003522646261818886,-0.003969517754392816,-0.008331159722072311
2289.533333334875,-0.0025717446,-0.7793064,0.0012719582,-2.3721757,-0.016520435,1.5845705,0.79136103,0.03999994,0.04,-0.03372431737129755,0.016362597084106784,0.004800014348593784,0.016783405423631714,0.004293962761014368,-0.04426722915287107,0.9999467656092178,0.0036684954521194516,-0.004130782378823133,-0.008714627113114647
2289.550000001542,-0.0026950974,-0.7790746,0.0013274334,-2.3728907,-0.017268596,1.5851833,0.7916023,0.03999994,0.04,-0.03358443668766142,0.016453718831143695,0.005176042222831967,0.017174661605484032,0.004796196674163707,-0.04548043785435373,0.9999419988701768,0.003817667827127222,-0.004296267763553202,-0.009108588868801292
2289.5666666682087,-0.002821756,-0.77883667,0.0013843951,-2.3736246,-0.018036794,1.5858123,0.79185015,0.039999936,0.04,-0.0332320019864385,0.016530304019633096,0.00500872110487105,0.01756431516195367,0.005301212616921069,-0.04669928118079103,0.9999368944949109,0.003970273772352651,-0.004465967507627796,-0.009513100875468347
2289.5833333348755,-0.002951737,-0.7785926,0.001442852,-2.3743777,-0.018825155,1.5864578,0.7921045,0.039999936,0.04,-0.0339827226710554,0.016614861184228308,0.004760286058536067,0.01795015853112178,0.005810364736046875,-0.04792568272189668,0.9999314348160894,0.004126236217741517,-0.004640055354248344,-0.009928228826017224
2289.6000000015424,-0.0030850596,-0.7783421,0.0015028121,-2.3751504,-0.019633774,1.58712,0.7923654,0.039999932,0.04,-0.034556197831814295,0.01667897158597817,0.004838417572594622,0.01833274194316307,0.006320818239708745,-0.049158487329126165,0.9999256017616528,0.00428553710324522,-0.004818644775101553,-0.010354022207080385
2289.6166666682093,-0.003221739,-0.7780853,0.0015642829,-2.3759425,-0.020462751,1.5877992,0.7926329,0.03999993,0.04,-0.034053751724894,0.01674198773621051,0.005017830560460901,0.018711661815200155,0.006833260742542563,-0.05039734096369289,0.9999193784437961,0.0044481581182251395,-0.00500149140768202,-0.010790532221656815
2289.633333334876,-0.0033617916,-0.7778222,0.0016272708,-2.376754,-0.021312205,1.5884948,0.792907,0.039999936,0.04,-0.03444896549180676,0.016822435400062896,0.0043638790884870104,0.019085863302408662,0.0073485080692107865,-0.051642357956540305,0.9999127448860143,0.004614052346262856,-0.005188887405960313,-0.011237819314734618
2289.650000001543,-0.00350523,-0.7775527,0.0016917824,-2.3775854,-0.022182178,1.5892074,0.79318774,0.039999936,0.04,-0.03477797290332152,0.016837878574805024,0.00463509715469268,0.019455898305359785,0.007864133919465492,-0.05289085471713447,0.9999056831200788,0.004783163288898616,-0.005380707644324745,-0.011695905196551493
2289.66666666821,-0.003652069,-0.777277,0.001757823,-2.3784363,-0.023072766,1.5899367,0.7934751,0.039999925,0.04,-0.034324447731703955,0.016900568057662962,0.004297456905133501,0.019821069872869218,0.008381183138060293,-0.05414579115812738,0.9998981737962672,0.004955442765981924,-0.005576945982775559,-0.012164838650300928
2289.683333334877,-0.00380232,-0.7769948,0.0018253993,-2.3793073,-0.02398405,1.5906835,0.7937692,0.03999992,0.04,-0.03508638906193351,0.016939312341740856,0.0045646304064561605,0.020181377873370997,0.008900571778702578,-0.05540410292700074,0.9998901971272431,0.005130886585726116,-0.005777565570505788,-0.012644660049428798
2289.7000000015437,-0.003955993,-0.7767063,0.0018945156,-2.3801975,-0.024916103,1.5914469,0.79406995,0.039999917,0.04,-0.033997683405306844,0.01698036447637316,0.004221574592699895,0.02053591980749065,0.009421582714196103,-0.05666619488281134,0.9998817332848159,0.005309416640705568,-0.0059825304578305484,-0.01313540511780736
2289.7166666682106,-0.0041130995,-0.77641124,0.0019651768,-2.3811073,-0.02586899,1.5922272,0.7943774,0.03999991,0.04,-0.03443373932128235,0.01701163984553014,0.004212581754425848,0.020884900441178505,0.009944298490030819,-0.05793249337729812,0.999872761418065,0.005490971746333742,-0.006191893609465602,-0.013637105888833977
2289.7333333348774,-0.004273647,-0.7761097,0.002037386,-2.3820376,-0.026842738,1.593025,0.7946917,0.03999991,0.04,-0.0358793799315027,0.017009963114245075,0.003957266676546389,0.021227850808960173,0.010468746387100075,-0.0592009818120005,0.9998632588320235,0.00567557144793372,-0.0064058853989343145,-0.014149775927585883
2289.7500000015443,-0.004437644,-0.77580196,0.0021111479,-2.382988,-0.027837407,1.5938395,0.7950126,0.03999991,0.04,-0.03489030927452674,0.017036340050652007,0.0034530353970163574,0.02156381849035138,0.010992167288878245,-0.060472038764072415,0.9998532052060446,0.0058630431935365185,-0.006624411061444091,-0.014673443419974615
2289.766666668211,-0.0046050963,-0.7754875,0.0021864648,-2.3839576,-0.028853027,1.5946711,0.7953403,0.039999902,0.04,-0.03416939721687662,0.017034758979905806,0.004127483717808467,0.02189363006751047,0.011516022569295577,-0.06174617851482776,0.9998425798070673,0.00605341154419725,-0.006847253595025141,-0.015208120581792554
2289.783333334878,-0.0047760103,-0.77516663,0.0022633383,-2.3849478,-0.029889653,1.59552,0.79567486,0.0399999,0.04,-0.03569183352489791,0.01705194553329563,0.003375545989325879,0.022216279905673257,0.012041560016256635,-0.06302128084431068,0.9998313582248313,0.0062466338127379435,-0.007074703140769201,-0.015753832923095085
2289.800000001545,-0.0049503907,-0.77483934,0.0023417722,-2.385958,-0.0309473,1.5963864,0.7960162,0.0399999,0.04,-0.034843752499691405,0.0170346227024009,0.003676586008838356,0.02253130014482478,0.01256580767010878,-0.06429769240595047,0.9998195205647193,0.0064426127780530746,-0.007306424840275712,-0.016310585347564573
2289.816666668212,-0.0051282397,-0.77450544,0.0024217672,-2.3869882,-0.032025997,1.5972698,0.7963643,0.03999989,0.04,-0.03519293269744761,0.017033585265854856,0.003169993995499887,0.022838530753127157,0.013091222600624931,-0.06557674121487178,0.9998070413468577,0.0066412520906310515,-0.007542798863341929,-0.016878389414237572
2289.8333333348787,-0.0053095627,-0.77416503,0.0025033252,-2.3880382,-0.03312576,1.5981703,0.79671925,0.039999884,0.04,-0.034548784877364014,0.017015903798349094,0.0032555454817950746,0.023138015901925664,0.01361565635664281,-0.06685542887986913,0.9997938992246843,0.00684254223725914,-0.007783518416744425,-0.01745724863457013
2289.8500000015456,-0.0054943585,-0.77381814,0.0025864472,-2.389109,-0.03424659,1.5990883,0.7970809,0.03999988,0.04,-0.036026354806972805,0.016984987907152013,0.0028779773156628607,0.023429033859763256,0.014141967960105743,-0.06813259987068289,0.9997800691374549,0.007046309029431878,-0.008028875024153758,-0.018047161838197733
2289.8666666682125,-0.0056826323,-0.77346474,0.0026711326,-2.3902001,-0.035388507,1.6000235,0.79744923,0.039999872,0.04,-0.035695490972043054,0.01697340276838183,0.002568889926579665,0.023712241394359044,0.014664732335919625,-0.06941124951689791,0.9997655263533559,0.007252514586514336,-0.008278919676777345,-0.018648132253789355
2289.8833333348794,-0.005874378,-0.77310485,0.0027573823,-2.391311,-0.03655151,1.6009761,0.7978245,0.039999872,0.04,-0.03396748578909925,0.016929306914594683,0.0030777524594904904,0.023986629270801783,0.015184323178229653,-0.07068828318290671,0.9997502510486116,0.007461174545808311,-0.008533046382721189,-0.019260153739401178
2289.9000000015462,-0.006069598,-0.7727382,0.002845195,-2.3924417,-0.03773557,1.6019461,0.79820657,0.03999987,0.04,-0.03500886410308102,0.016881400170398048,0.0027871566848469698,0.024251477354476365,0.015707746069986317,-0.07196601620320084,0.9997342166175632,0.007672147468768658,-0.008791605373769955,-0.01988320779543572
2289.916666668213,-0.0062682875,-0.77236533,0.0029345697,-2.3935928,-0.03894069,1.6029327,0.7985954,0.03999986,0.04,-0.035097165154551746,0.01685057017862604,0.0016294195157140479,0.024507015404139305,0.016229602184780034,-0.07324065878397037,0.9997173954976033,0.00788536364616415,-0.009054885905236017,-0.020517290778744177
2289.93333333488,-0.006470444,-0.7719859,0.003025505,-2.3947635,-0.04016685,1.6039371,0.79899114,0.039999858,0.04,-0.03378053139373449,0.016785544005217673,0.0029680547016130987,0.02475252182706296,0.01674808162523595,-0.07451421409042445,0.9996997705619908,0.008100762584094574,-0.009322014490319665,-0.021162382420264345
2289.950000001547,-0.0066760667,-0.77160007,0.0031179998,-2.3959548,-0.041414015,1.6049588,0.79939365,0.039999858,0.04,-0.03578505998844683,0.016729690748379378,0.001543745887322423,0.024988141402660854,0.01727076047574133,-0.07578551111329933,0.9996813091630838,0.008318231274323606,-0.009593846881542686,-0.021818461001250424
2289.9666666682137,-0.006885148,-0.7712076,0.0032120512,-2.3971663,-0.04268216,1.6059974,0.7998029,0.039999854,0.04,-0.03490057759512055,0.016672071746684503,0.0018011831436348658,0.025213551981194494,0.01778843743790643,-0.07705344495468516,0.9996619873781052,0.00853765974813831,-0.009870225600679,-0.022485506529182006
2289.9833333348806,-0.0070976797,-0.7708087,0.0033076564,-2.398397,-0.04397126,1.6070533,0.80021894,0.03999984,0.04,-0.03327702860267401,0.016603991007375918,0.001947230612753259,0.025428604589361414,0.018303473442706504,-0.07832081269701208,0.9996417849426449,0.008759000315916175,-0.010150574600069039,-0.023163495967515595
2290.0000000015475,-0.007313658,-0.7704031,0.0034048134,-2.3996484,-0.04528125,1.6081264,0.8006417,0.039999843,0.04,-0.03603233712701215,0.016517433029240858,0.0012718138384437694,0.02563270964775099,0.018820450915472353,-0.07958133609680162,0.9996206684147959,0.008982117847145822,-0.010435719480092087,-0.023852391827016633
2290.0166666682144,-0.007533074,-0.76999116,0.0035035184,-2.4009197,-0.046612117,1.6092163,0.8010711,0.03999983,0.04,-0.03404768871999586,0.016462114675405704,0.0010342818185904434,0.025826133796596738,0.019331357787162454,-0.08084160775156053,0.9995986164116384,0.009206883414958967,-0.010725205153121196,-0.024552175873943212
2290.0333333348813,-0.0077559194,-0.769573,0.0036037676,-2.4022105,-0.0479638,1.6103235,0.80150735,0.039999828,0.04,-0.03339217445892384,0.016364807562656986,0.0013109685411238914,0.026008583513708883,0.01984079511559246,-0.08209754816898962,0.9995756062853022,0.00943332521614094,-0.011018631796411837,-0.025262807604701912
2290.050000001548,-0.007982184,-0.7691484,0.0037055556,-2.403521,-0.04933621,1.6114476,0.80195034,0.03999983,0.04,-0.034033632846330875,0.016254612565273774,0.0006984851119495872,0.026179323592738685,0.020350649359483566,-0.08334907220623138,0.9995516084716772,0.009661295811581668,-0.011316408191968021,-0.025984231190412484
2290.066666668215,-0.008211858,-0.7687174,0.0038088788,-2.4048522,-0.050729323,1.6125884,0.80239993,0.03999983,0.04,-0.03527127193994062,0.016189581301880723,0.00014994955317426673,0.026337894933001652,0.020858300434230995,-0.08459921538640364,0.9995265923109103,0.009890632692798173,-0.011618913090305343,-0.026716427659313247
2290.083333334882,-0.0084449295,-0.7682798,0.003913732,-2.406202,-0.052143056,1.6137463,0.8028562,0.039999824,0.04,-0.03252491093612697,0.016070638772480023,0.00113395213638956,0.026485265841492953,0.02136003072649749,-0.08583868247156771,0.9995005413513018,0.010121287877924101,-0.011925271785297533,-0.027459338356809353
2290.100000001549,-0.0086813895,-0.76783603,0.00402011,-2.4075718,-0.05357732,1.6149207,0.803319,0.039999824,0.04,-0.0337099741644753,0.015958472409913216,-0.00016188479476930695,0.02662066108737162,0.021861349058355017,-0.0870716410496758,0.9994734248302484,0.010353080417040864,-0.012235953316522462,-0.028212908932048763
2290.1166666682157,-0.008921221,-0.76738596,0.0041280054,-2.4089606,-0.055032022,1.6161121,0.8037884,0.039999817,0.04,-0.03254670714456509,0.015828819384740983,0.0003956280786976407,0.02674413331434558,0.02235944949093882,-0.0882994528810585,0.9994452212863791,0.010586005211287079,-0.012550498106228877,-0.02897707954181701
2290.1333333348825,-0.009164411,-0.76692945,0.004237413,-2.4103692,-0.056507118,1.6173203,0.8042644,0.03999981,0.04,-0.03388545785925068,0.01573890888620713,-0.00022566867274864677,0.02685491244229734,0.022858663749958305,-0.08952165062916653,0.9994158987254673,0.0108198960266856,-0.012869373956119288,-0.0297518140407553
2290.1500000015494,-0.009410946,-0.7664668,0.0043483265,-2.4117973,-0.058002498,1.618545,0.804747,0.039999805,0.04,-0.0331738412612026,0.015603748386558425,-0.000609645096805167,0.026953389588117313,0.023352148175711754,-0.0907362580358951,0.9993854327790879,0.01105466737970246,-0.01319242149265992,-0.030537044605521518
2290.1666666682163,-0.009660807,-0.7659979,0.004460738,-2.4132447,-0.05951807,1.6197863,0.80523604,0.039999798,0.04,-0.03289364039669174,0.015474208089050895,-0.0007066662063515139,0.027038980522288668,0.02384376675271402,-0.09194375499894357,0.9993537974357739,0.011290193201612064,-0.01351963095923011,-0.031332709217277266
2290.183333334883,-0.009913985,-0.7655226,0.0045746416,-2.414712,-0.061053738,1.6210439,0.80573165,0.039999787,0.04,-0.03379172767083993,0.015349003145800205,-0.0011186898823289937,0.027111728631655167,0.024330266137111617,-0.09314377926964959,0.9993209618807406,0.011526397111035433,-0.013851288596389264,-0.03213874794713823
2290.20000000155,-0.010170454,-0.76504123,0.004690032,-2.4161975,-0.06260943,1.6223181,0.8062335,0.03999978,0.04,-0.030947701637162872,0.015211518987710837,-0.0005579295673463491,0.02717120805324684,0.024809918074814655,-0.09433675957563929,0.9992869138930395,0.011763048663061897,-0.01418646481128561,-0.03295510012780779
2290.216666668217,-0.010430203,-0.76455384,0.004806897,-2.4177027,-0.064184986,1.6236086,0.80674195,0.039999776,0.04,-0.032965923383088125,0.015054646896056623,-0.001727102221438237,0.02721824110882507,0.02529292782426064,-0.09552044898525014,0.999251616014203,0.012000190531587546,-0.014525888816854819,-0.03378167956585325
2290.233333334884,-0.010693209,-0.7640601,0.0049252287,-2.4192264,-0.06578031,1.6249151,0.80725676,0.03999977,0.04,-0.031738333325681545,0.014910007359446309,-0.0013116929402645638,0.027251441028060045,0.025768163325987373,-0.09669581159824753,0.9992150464595024,0.012237640465058526,-0.014869314142595914,-0.03461841391097156
2290.2500000015507,-0.010959456,-0.7635604,0.00504502,-2.4207692,-0.06739531,1.6262378,0.8077779,0.03999976,0.04,-0.03196436232939526,0.014767864199116687,-0.0020018239757835232,0.0272711295918275,0.02624007028009917,-0.09786382885558832,0.9991771793534879,0.012475266701231615,-0.015216730710130785,-0.03546523771859255
2290.2666666682176,-0.01122892,-0.76305485,0.005166261,-2.42233,-0.069029845,1.6275766,0.8083054,0.039999753,0.04,-0.02986111188838514,0.014598764280111809,-0.001423415558821084,0.027277153123919307,0.02670776400588966,-0.09902073288239509,0.9991379988390764,0.012713012905348839,-0.015567471100427286,-0.036322065225585155
2290.2833333348844,-0.0115015805,-0.7625431,0.005288942,-2.4239094,-0.070683755,1.628931,0.808839,0.039999742,0.04,-0.03194469067389072,0.014416250355894084,-0.0024895777813283004,0.02726939283526475,0.027177346208793737,-0.10016897426574375,0.9990974676006178,0.012950648229304786,-0.01592245181685245,-0.037188794987380265
2290.3000000015513,-0.0117774205,-0.7620255,0.0054130536,-2.425507,-0.07235698,1.6303012,0.80937904,0.039999735,0.04,-0.030243703615084883,0.014297513054933875,-0.002345774346168561,0.027248304745441876,0.02763895566801322,-0.10130728228497955,0.9990555667424407,0.0131882039903404,-0.016281061365409633,-0.03806537635786039
2290.316666668218,-0.012056414,-0.7615018,0.0055385856,-2.4271243,-0.074049346,1.6316873,0.80992526,0.039999723,0.04,-0.03285842793314675,0.01410007566050031,-0.0031914631547502736,0.02721236251786819,0.02809906132001637,-0.10243594302245121,0.9990122605203979,0.01342545429926611,-0.016644066008960744,-0.03895170822277307
2290.333333334885,-0.012338537,-0.76097226,0.0056655286,-2.4287581,-0.07576071,1.6330888,0.81047744,0.03999972,0.04,-0.027796328440965468,0.01390776164638674,-0.0020877696985222016,0.02716274645214237,0.0285484608553363,-0.10355224294467892,0.9989675481678839,0.01366223649371038,-0.017010089217800207,-0.03984768332336181
2290.350000001552,-0.012623765,-0.76043683,0.0057938714,-2.4304106,-0.07749093,1.6345057,0.8110358,0.039999716,0.04,-0.031084832897909642,0.013742975257827195,-0.00347547301697837,0.027099563895386,0.02900071942039359,-0.10465834581949628,0.9989213861546739,0.013898531823900447,-0.017380157104291007,-0.04075322361476702
2290.366666668219,-0.012912076,-0.7598958,0.005923604,-2.432081,-0.07923986,1.6359384,0.81160015,0.03999971,0.04,-0.02938716047946599,0.0135341432721231,-0.0031141374591037163,0.027021799302551282,0.0294454386737079,-0.1057514269430081,0.9988737640127092,0.014134129312275126,-0.01775357827963757,-0.041668218271665496
2290.3833333348857,-0.013203446,-0.759349,0.006054714,-2.4337692,-0.08100734,1.6373866,0.81217057,0.039999694,0.04,-0.029611247350325165,0.01335160516179601,-0.0034183767534612386,0.026930215446120377,0.029888749030464318,-0.10683632951322942,0.9988246535054316,0.01436898442787992,-0.018130547234637796,-0.042592570869088124
2290.4000000015526,-0.013497845,-0.7587965,0.0061871894,-2.4354749,-0.0827932,1.6388502,0.8127468,0.039999686,0.04,-0.02862365527580568,0.013137610362690122,-0.00338385142206743,0.026824308149970815,0.030328299455572055,-0.10790655304504061,0.9987740386593789,0.014602882874578175,-0.01851075977243507,-0.043526167812386544
2290.4166666682195,-0.013795252,-0.75823843,0.006321017,-2.4371977,-0.0845973,1.640327,0.8133289,0.03999967,0.04,-0.02878856486618897,0.01301490029675667,-0.005268300168115303,0.026704517119110836,0.03076536560788351,-0.10896552396401019,0.9987218751224978,0.014835779056884497,-0.018895246280117402,-0.04446892712435339
2290.4333333348864,-0.014095633,-0.75767475,0.0064561856,-2.438938,-0.08641947,1.6418182,0.81391686,0.03999966,0.04,-0.028768019751979068,0.012772356384577188,-0.004619943583294983,0.02656997198696951,0.031191182003768636,-0.11001266356154821,0.9986681503710264,0.015067533042953937,-0.01928345927358918,-0.0454207340424634
2290.4500000015532,-0.014398961,-0.7571056,0.0065926844,-2.4406953,-0.08825955,1.6433246,0.81451064,0.03999966,0.04,-0.027944909298982523,0.012534825103682756,-0.004092602176752891,0.02642115034795596,0.03161036003099511,-0.11104584155109636,0.9986128539514566,0.015298027612746986,-0.019674791807101768,-0.04638147088475819
2290.46666666822,-0.014705209,-0.7565309,0.0067305,-2.4424696,-0.09011733,1.6448463,0.81511027,0.03999965,0.04,-0.02756561113390621,0.012301046370498392,-0.0041197713928298185,0.026257622001023346,0.032026587073771276,-0.11206596773188275,0.9985559667282687,0.015527162610479704,-0.020069143131772913,-0.047351008717836617
2290.483333334887,-0.015014346,-0.75595075,0.0068696174,-2.4442601,-0.09199269,1.6463821,0.8157155,0.039999638,0.04,-0.026510097165077795,0.012154003284053916,-0.00482570191027154,0.026079592278694705,0.032441766516786166,-0.11307249820553462,0.9984974635774445,0.01575475702411375,-0.020466685443588546,-0.048329262848447054
2290.500000001554,-0.015326345,-0.75536525,0.007010023,-2.446067,-0.093885414,1.6479323,0.81632614,0.039999634,0.04,-0.02670268615383442,0.011894519967457773,-0.004920052944656916,0.025887479482531672,0.03285286751571026,-0.11406500759923227,0.9984373281812189,0.015980609142453223,-0.020867322760156595,-0.049316089328014005
2290.5166666682208,-0.015641177,-0.75477463,0.007151706,-2.447891,-0.09579531,1.6494968,0.81694233,0.039999615,0.04,-0.027229737530776177,0.011665564459729938,-0.005601037022584521,0.02568207316510787,0.033261555518202285,-0.11504424258496222,0.9983755355213778,0.016204671093326753,-0.02127121939038306,-0.050311369816428586
2290.5333333348876,-0.015958806,-0.75417864,0.0072946507,-2.4497316,-0.09772222,1.6510746,0.8175641,0.039999608,0.04,-0.02731773035820062,0.011479370478459372,-0.006276713489761221,0.025462370174729652,0.03366339733347229,-0.11600826557599846,0.998312053991545,0.016426859291791072,-0.021678839643644678,-0.0513149983990585
2290.5500000015545,-0.01627921,-0.7535774,0.0074388417,-2.451588,-0.099665895,1.6526666,0.81819123,0.0399996,0.04,-0.025326288545746145,0.011197385787661829,-0.005375371486726621,0.025227709929100155,0.03405558575826324,-0.11695650695593235,0.9982468855653107,0.016647024353582993,-0.02208928274297049,-0.05232681556553927
2290.5666666682214,-0.016602345,-0.7529711,0.007584265,-2.45346,-0.101626195,1.6542722,0.81882375,0.03999959,0.04,-0.025178165304473588,0.010991557768458282,-0.005905781079373895,0.02497925782107646,0.034445999577644285,-0.1178925253239114,0.9981800087579086,0.01686504079675047,-0.02250262762165582,-0.05334671747264753
2290.5833333348883,-0.016928183,-0.75235975,0.0077309078,-2.4553475,-0.10360288,1.6558908,0.81946164,0.039999582,0.04,-0.02493463765702586,0.010744690502516308,-0.006484420893637655,0.024716464106243542,0.03483187620902918,-0.11881051844478038,0.9981114002122148,0.017080834169272575,-0.02291910109409877,-0.054374559083564235
2290.600000001555,-0.017256686,-0.7517434,0.007878754,-2.4572508,-0.10559578,1.6575233,0.8201048,0.03999956,0.04,-0.024991766569426588,0.010496571702273139,-0.00621500442170575,0.02443916371008257,0.03521122595132482,-0.1197157200050101,0.9980410505354306,0.017294213316476563,-0.02333836751669812,-0.0554102177721214
2290.616666668222,-0.017587828,-0.751122,0.00802779,-2.4591691,-0.10760471,1.6591682,0.820753,0.03999955,0.04,-0.024104514037581737,0.010303519465276745,-0.006936299737381191,0.02414790642109235,0.0355876859434157,-0.12060389487946811,0.9979689354322272,0.017505043513997804,-0.023760717994329675,-0.056453570695166315
2290.633333334889,-0.017921565,-0.750496,0.0081779985,-2.4611025,-0.10962944,1.6608263,0.82140636,0.039999545,0.04,-0.02349402957819713,0.01000799246622941,-0.006802565935548621,0.023843181696654427,0.035955080544355714,-0.1214741161453059,0.9978950496543879,0.017713277077295968,-0.02418566210042645,-0.05750446451549523
2290.650000001556,-0.018257868,-0.74986494,0.008329362,-2.4630506,-0.11166971,1.6624972,0.8220647,0.03999953,0.04,-0.023557284751496432,0.009748634650692811,-0.006963686268424141,0.023524276480608407,0.03632049373734739,-0.12232976216632678,0.9978193745490647,0.017918706304502808,-0.024613433809323976,-0.05856274084262311
2290.6666666682227,-0.0185967,-0.74922913,0.008481865,-2.4650135,-0.11372536,1.6641809,0.82272804,0.039999522,0.04,-0.023211753579222005,0.009508938099697661,-0.007144416256599229,0.023191799591188986,0.03668051627293585,-0.12316961378922307,0.9977418978005459,0.01812126360308035,-0.02504384171899177,-0.0596282749268073
2290.6833333348895,-0.018938022,-0.74858874,0.00863549,-2.4669912,-0.115796134,1.6658769,0.82339615,0.03999951,0.04,-0.02313587755116142,0.009251053694829536,-0.007844766767184375,0.02284586295002054,0.03703492409551819,-0.123990048968573,0.9976626016950545,0.018320755414511287,-0.02547709022313546,-0.06070091411056958
2290.7000000015564,-0.019281806,-0.7479437,0.008790228,-2.4689827,-0.117881835,1.6675849,0.8240691,0.039999492,0.04,-0.021617790734307363,0.009006633766982242,-0.007546214119780181,0.02248655858556449,0.03738274822355486,-0.12479678469434895,0.9975814790152313,0.01851714846252586,-0.02591283953030848,-0.06178052028007577
2290.7166666682233,-0.019628,-0.74729407,0.008946055,-2.4709888,-0.11998224,1.6693051,0.82474685,0.039999485,0.04,-0.022687240330387937,0.008728450172285074,-0.008128105994664736,0.022113967167290485,0.03772526463370561,-0.12558333476011832,0.9974985099769125,0.018710319161099654,-0.02635134614053248,-0.06286694765384387
2290.73333333489,-0.019976577,-0.7466402,0.009102956,-2.4730082,-0.12209709,1.6710372,0.82542926,0.039999478,0.04,-0.020301406065237337,0.008446925540316064,-0.007811166719640106,0.021728006914376825,0.03805998543754907,-0.1263514963988504,0.997413701221165,0.0189001454526916,-0.026791951276963398,-0.06396002239630919
2290.750000001557,-0.0203275,-0.74598175,0.009260916,-2.4750412,-0.124226205,1.672781,0.82611626,0.03999946,0.04,-0.021133421313934697,0.008226027705766914,-0.008189426914206877,0.021328596057297436,0.03839301396094695,-0.12710630297808367,0.9973270289837677,0.01908649021316466,-0.027235062206100457,-0.06505962293453386
2290.766666668224,-0.02068072,-0.74531907,0.009419916,-2.4770877,-0.12636925,1.6745362,0.8268076,0.039999444,0.04,-0.020767104056007568,0.007876874838710912,-0.00866635567828844,0.020916843967103586,0.038719454475084875,-0.12783904529410248,0.9972384888186246,0.01926916524465966,-0.027680617411480212,-0.066165543217291
2290.783333334891,-0.021036213,-0.7446523,0.009579937,-2.4791474,-0.12852614,1.6763026,0.8275037,0.039999437,0.04,-0.01987738436048936,0.0077265457840189344,-0.008819331295861765,0.020492906819218094,0.03903942010223804,-0.12855298170712934,0.9971480651435108,0.019448287036492123,-0.02812847524876627,-0.06727770204219577
2290.8000000015577,-0.021393929,-0.7439812,0.0097409645,-2.4812198,-0.13069652,1.6780801,0.82820404,0.03999942,0.04,-0.019219995632635545,0.007357877431160564,-0.008495410941122827,0.02005474665364132,0.03935395146637012,-0.1292535467992906,0.9970557616168901,0.019623563818586126,-0.02857843154329275,-0.06839588598845932
2290.8166666682246,-0.021753829,-0.743306,0.009902976,-2.483305,-0.1328802,1.6798687,0.8289085,0.039999407,0.04,-0.019417253092401943,0.00710945144535291,-0.008971108470090527,0.01960491685691434,0.039663181854722965,-0.12993096017831712,0.9969615677840089,0.01979482281921583,-0.02903057180640091,-0.06951994858887611
2290.8333333348914,-0.022115873,-0.7426267,0.010065955,-2.4854028,-0.13507684,1.6816679,0.8296177,0.039999407,0.04,-0.019053231667198745,0.0067842186889266465,-0.009346962355505362,0.019143822805352442,0.039966013309794726,-0.13058842315251865,0.9968654691681677,0.019962306682752586,-0.029484955109341446,-0.07064970002932018
2290.8500000015583,-0.022480022,-0.7419436,0.01022988,-2.487512,-0.13728628,1.6834773,0.8303308,0.039999392,0.04,-0.016932062020669214,0.006577893733381024,-0.009086345602127288,0.018668393510580236,0.0402631235576065,-0.13122883798587442,0.9967674754429481,0.02012560300961811,-0.02994115213464512,-0.07178500826385244
2290.866666668225,-0.02284623,-0.7412567,0.010394739,-2.4896336,-0.13950823,1.6852968,0.83104783,0.039999377,0.04,-0.017976246883044666,0.006252829888364619,-0.009772316340939113,0.01818165179025314,0.04055600758978013,-0.1318516640354728,0.9966675729394444,0.020284609576422048,-0.03039945093032579,-0.07292569539239237
2290.883333334892,-0.023214458,-0.74056596,0.010560509,-2.4917674,-0.14174247,1.6871265,0.8317687,0.03999937,0.04,-0.018452940976843024,0.005976519196088104,-0.009961045801798463,0.017684015669484764,0.04084228650812474,-0.1324512879604076,0.9965657536630118,0.0204391726634154,-0.03085996581032672,-0.07407159615597587
2290.900000001559,-0.02358467,-0.7398715,0.010727171,-2.493912,-0.14398876,1.6889662,0.83249336,0.039999355,0.04,-0.0155072229201636,0.0057233014810670335,-0.00924853902002365,0.01717573293683557,0.041118437358996035,-0.13303347792405634,0.996462033296915,0.02058928912588443,-0.0313219446635062,-0.07522255747822573
2290.916666668226,-0.023956815,-0.7391734,0.01089471,-2.496068,-0.14624678,1.6908151,0.8332219,0.039999336,0.04,-0.01678330191643429,0.005394748203157995,-0.010369451352776338,0.016656525114068794,0.041393863393127325,-0.13359634936973544,0.9963563898963429,0.020734912644226645,-0.03178600046718008,-0.07637838624024156
2290.9333333348927,-0.02433086,-0.73847175,0.0110631045,-2.4982347,-0.14851631,1.6926739,0.8339542,0.03999932,0.04,-0.015328548099224903,0.005117379884994611,-0.009554664691435732,0.016125756881418526,0.041660968250819594,-0.13413930521703252,0.9962488423145096,0.020875916006309114,-0.032251445750954656,-0.07753892290243691
2290.9500000015596,-0.024706744,-0.7377667,0.011232333,-2.5004125,-0.1507971,1.6945415,0.8346903,0.039999317,0.04,-0.01581788223803393,0.004852611487562997,-0.010824996475400361,0.01558464195640992,0.041923263548297424,-0.13466100278713608,0.9961393667019943,0.021012262044557323,-0.03271889477906943,-0.07870400799677715
2290.9666666682265,-0.025084434,-0.73705816,0.011402378,-2.502601,-0.15308887,1.6964185,0.8354301,0.039999295,0.04,-0.01524752996142631,0.004521129959786374,-0.010127075774968297,0.0150318812841762,0.042177760863302716,-0.13516364716093873,0.996027979709228,0.021143859987027145,-0.033187834695025245,-0.0798734527202785
2290.9833333348934,-0.025463887,-0.7363464,0.011573219,-2.5047991,-0.15539135,1.698304,0.83617276,0.039999276,0.04,-0.013635736738537574,0.004269716864044315,-0.01044784067381066,0.01446876291531308,0.04242685333039521,-0.13564477141809686,0.9959146898545304,0.02127028146280395,-0.0336582333747359,-0.0810470788155844
2291.0000000015602,-0.02584506,-0.7356314,0.011744837,-2.5070078,-0.1577043,1.7001979,0.8369189,0.03999926,0.04,-0.014916370809725521,0.003988342450400584,-0.011168747875744955,0.01389818346409235,0.04267164077891743,-0.13610430506507096,0.9957994758771959,0.02139173343740237,-0.034130504873336215,-0.08222472998031836
2291.016666668227,-0.026227899,-0.7349133,0.011917209,-2.509226,-0.16002741,1.7021006,0.8376685,0.039999247,0.04,-0.012975805053438982,0.0036405036145659153,-0.010271164687769563,0.01331748102918918,0.04290471331756779,-0.1365449385723862,0.9956823673749409,0.021508171961375826,-0.0346038394361468,-0.0834062116019587
2291.033333334894,-0.026612366,-0.7341921,0.012090316,-2.5114534,-0.16236037,1.7040113,0.838421,0.039999228,0.04,-0.01238574654078839,0.003339507017169341,-0.010667390345453498,0.012726992081294653,0.04313601544875473,-0.1369655675604542,0.995563367228136,0.02161932924286466,-0.03507843078185047,-0.08459131238104443
2291.050000001561,-0.026998412,-0.73346806,0.01226414,-2.51369,-0.16470298,1.7059298,0.83917683,0.039999213,0.04,-0.012485079843971292,0.0031053027523875176,-0.011222787213549523,0.012128608551530272,0.04336253626328722,-0.13736488327406873,0.9954424666112159,0.02172535661450324,-0.03555434221635881,-0.08577991196377478
2291.0666666682278,-0.027385999,-0.7327411,0.012438659,-2.5159361,-0.1670549,1.7078557,0.83993566,0.03999921,0.04,-0.013077722067866837,0.0027780423455386893,-0.011662201075046674,0.01152047724252244,0.04358118847368113,-0.13773994261539496,0.9953196650002764,0.021826023627818342,-0.036031879600224734,-0.08697179317922797
2291.0833333348946,-0.027775066,-0.7320115,0.012613849,-2.5181909,-0.16941597,1.709789,0.8406973,0.03999919,0.04,-0.011217746682756768,0.002531923850979112,-0.011203669154014051,0.010903739193612373,0.04379065283338622,-0.1380979398372734,0.995194983256392,0.021921224472571017,-0.036510508146124776,-0.08816681923402124
2291.1000000015615,-0.02816558,-0.731279,0.0127896955,-2.5204537,-0.17178582,1.7117298,0.8414619,0.039999176,0.04,-0.010623043873558835,0.0021915756104634587,-0.010888344681481144,0.01027918788578116,0.04399424651663407,-0.13843433145828152,0.9950684329807731,0.02201101643841874,-0.03699006615401658,-0.08936477967554045
2291.1166666682284,-0.028557492,-0.7305442,0.012966177,-2.5227244,-0.17416413,1.7136773,0.84222925,0.039999165,0.04,-0.009765662073002446,0.0018801240285887255,-0.0114045836562493,0.009646886489164758,0.044192359117146585,-0.1387465416588671,0.9949400267229489,0.022095293332116028,-0.037470469110418056,-0.09056547455708816
2291.1333333348953,-0.028950758,-0.7298065,0.013143271,-2.525003,-0.17655063,1.7156316,0.84299916,0.03999915,0.04,-0.0104405418138942,0.0015846663927066018,-0.011330332939074594,0.009006855605460818,0.0443868843611436,-0.13903761953861954,0.994809763805451,0.022173894496925712,-0.03795201615476853,-0.09176871313236418
2291.150000001562,-0.029345326,-0.72906643,0.01332095,-2.527289,-0.1789451,1.7175926,0.84377164,0.039999127,0.04,-0.008985276137529752,0.0013315728586260622,-0.011301953537246057,0.008359885058320235,0.0445733761980453,-0.1393101185501029,0.9946776662900435,0.02224681956517405,-0.03843422622416553,-0.09297434838479426
2291.166666668229,-0.029741148,-0.7283242,0.013499196,-2.5295823,-0.18134719,1.7195597,0.8445467,0.039999105,0.04,-0.00900557550171932,0.0010167708364511308,-0.011872850131244839,0.007706110646369975,0.044754962465840084,-0.1395610407919675,0.9945437351443571,0.022314062012427936,-0.038917331436570675,-0.09418217896965642
2291.183333334896,-0.030138185,-0.72757965,0.01367799,-2.5318828,-0.18375671,1.7215326,0.8453241,0.039999105,0.04,-0.008725196739911567,0.0007879912048619486,-0.011933287209386911,0.007045276570235754,0.04492926559491994,-0.13978943461730303,0.9944079768309105,0.0223755078514895,-0.03940136398430541,-0.09539205826283255
2291.200000001563,-0.030536376,-0.72683287,0.013857311,-2.5341902,-0.18617325,1.7235115,0.8461037,0.03999909,0.04,-0.00831585545464364,0.0003798357669143604,-0.011731058037178776,0.006378162792687263,0.045096157879095766,-0.13999423011019388,0.9942704166174539,0.02243103865956834,-0.03988615024988356,-0.09660373782753581
2291.2166666682297,-0.030935675,-0.72608393,0.014037135,-2.5365043,-0.18859655,1.7254957,0.8468855,0.03999907,0.04,-0.007929811646123497,0.00014074918315842844,-0.012105605143308829,0.005705565761486151,0.04525632129150528,-0.14017954347533526,0.994131058535829,0.0224806320364791,-0.04037180672233368,-0.09781705812202315
2291.2333333348965,-0.031336036,-0.72533315,0.014217442,-2.538824,-0.1910263,1.7274852,0.8476693,0.03999905,0.04,-0.006039335472518559,-0.00017158273991624284,-0.01157983144173258,0.005027446020966204,0.04540884497224362,-0.1403431203160511,0.9939899387878967,0.022524262624359852,-0.040857771904513784,-0.09903182143463353
2291.2500000015634,-0.03173741,-0.72458035,0.014398208,-2.5411496,-0.1934623,1.7294801,0.848455,0.039999034,0.04,-0.006184826012933797,-0.0004342166149140514,-0.01140869093896324,0.004344351649757343,0.04555568528986345,-0.14048711489333957,0.9938470711676751,0.022561813723167925,-0.041344017565463756,-0.10024787231907524
2291.2666666682303,-0.03213976,-0.7238259,0.014579415,-2.5434809,-0.19590415,1.7314799,0.8492428,0.03999903,0.04,-0.005976649983119309,-0.0007479371000040924,-0.012107709864905836,0.003657651658331939,0.04569939540267051,-0.14060536930596917,0.9937024623217735,0.02259341348391914,-0.041830710229896574,-0.10146499753339207
2291.283333334897,-0.032543026,-0.72306955,0.014761036,-2.5458176,-0.19835164,1.7334839,0.8500324,0.039999016,0.04,-0.005901650834427841,-0.0009750210911152468,-0.01229267590698857,0.002965080298979272,0.04583614857619267,-0.14070324194249464,0.9935561175493439,0.022618904567710926,-0.04231806733033583,-0.10268304443215712
2291.300000001564,-0.032947153,-0.7223117,0.014943054,-2.5481586,-0.20080441,1.7354925,0.8508235,0.039998986,0.04,-0.00354249489082914,-0.0013402825422503817,-0.011257192564118057,0.0022683277251100142,0.04596314133836195,-0.14078218825368638,0.9934080934630141,0.02263820652673117,-0.04280523886660303,-0.10390179484977956
2291.316666668231,-0.033352107,-0.72155225,0.015125448,-2.550505,-0.20326218,1.7375051,0.8516164,0.039998975,0.04,-0.005262777687842224,-0.0015943750352465091,-0.012449775641809602,0.0015688696993514245,0.046089426570152955,-0.1408373367928675,0.9932583740205004,0.02265137610235195,-0.04329292485268321,-0.1051210742740074
2291.333333334898,-0.03375783,-0.72079164,0.0153081855,-2.5528562,-0.20572461,1.7395215,0.85241085,0.03999896,0.04,-0.0045399806841928125,-0.001901767002301935,-0.012567639017868615,0.000865605436668259,0.046206286859539716,-0.14086914442598922,0.9931069859935515,0.02265838215586259,-0.043780951266664085,-0.10634068080969106
2291.3500000015647,-0.034164272,-0.7200295,0.015491254,-2.5552108,-0.20819147,1.7415413,0.8532068,0.039998952,0.04,-0.0022970090052032432,-0.0021240824646162615,-0.011510269807080142,0.00015868094168961996,0.046314358270843375,-0.1408805183581076,0.9929539614913483,0.022659231754825385,-0.0442689058342387,-0.10756046462877757
2291.3666666682316,-0.034571383,-0.71926606,0.015674626,-2.5575697,-0.21066245,1.7435646,0.85400397,0.03999893,0.04,-0.0035113637129935427,-0.002446757904159269,-0.012215656788505669,-0.0005516495528229068,0.046419308798115635,-0.14087202492962725,0.9927993156044769,0.022653722273399624,-0.04475701047839428,-0.1087802271347093
2291.3833333348985,-0.034979116,-0.7185016,0.015858283,-2.559932,-0.21313722,1.745591,0.8548023,0.039998915,0.04,-0.0018005547916644105,-0.002732346857520218,-0.01187068939805247,-0.0012633004818588499,0.04651687450535165,-0.1408409565670639,0.9926430833282058,0.022641938155250164,-0.04524490885179571,-0.10999977263721492
2291.4000000015653,-0.035387415,-0.71773607,0.016042203,-2.5622983,-0.21561548,1.7476203,0.85560185,0.039998896,0.04,-0.0032058102880316852,-0.00301589838852534,-0.012655876410061495,-0.001976709004778844,0.04660893201289808,-0.1407876273696157,0.9924852614546332,0.022623841377765262,-0.04573313237201067,-0.11121892015339103
2291.416666668232,-0.035796236,-0.7169695,0.016226357,-2.5646667,-0.21809696,1.7496524,0.8564025,0.039998878,0.04,4.0232933784523084e-05,-0.0032641014426099124,-0.01118661850512126,-0.002692251025814371,0.0466904922547698,-0.14071490058276648,0.9923259113525662,0.022599511179922652,-0.04622073558582239,-0.11243749977046288
2291.433333334899,-0.03620552,-0.716202,0.016410727,-2.5670385,-0.22058128,1.7516867,0.85720396,0.039998863,0.04,-0.0019537839562211445,-0.0035829165862200085,-0.012604975668240037,-0.003409001554700957,0.0467705762246684,-0.14061967636782652,0.9921650269965152,0.02256874521244549,-0.04670850802009913,-0.11365529562266909
2291.450000001566,-0.036615234,-0.7154338,0.016595291,-2.5694127,-0.22306821,1.7537233,0.85800636,0.039998844,0.04,-0.0002618505512419489,-0.003806824739463477,-0.011835422149331087,-0.004126134773529598,0.04684100655477519,-0.14050457147833473,0.9920026494300387,0.022531694796718155,-0.0471959067963716,-0.11487215778873325
2291.466666668233,-0.037025325,-0.7146651,0.016780028,-2.5717883,-0.2255574,1.7557615,0.8588094,0.039998833,0.04,0.0015438643091947313,-0.004080559975966347,-0.011552289205241095,-0.004843811997960055,0.04690574773167605,-0.1403650856614083,0.9918388207986322,0.022488324850565566,-0.047682593637422846,-0.1160878937107672
2291.4833333348997,-0.037435737,-0.7138956,0.016964912,-2.5741663,-0.22804858,1.7578014,0.8596131,0.039998807,0.04,-0.0005433507244134717,-0.004355681683756996,-0.012294542890756155,-0.005561686469469123,0.04696818590976694,-0.1402076605052235,0.9916735344893082,0.0224385669870439,-0.04816924937325929,-0.11730232359108532
2291.5000000015666,-0.037846405,-0.71312565,0.017149922,-2.5765462,-0.23054145,1.7598426,0.8604174,0.039998796,0.04,0.0005347375838127277,-0.0046123716871848686,-0.012231710230881099,-0.0062790496627952025,0.04702017675394553,-0.1400272723270478,0.9915068237308938,0.022382461390298425,-0.04865564011445236,-0.11851528425582485
2291.5166666682335,-0.03825731,-0.7123554,0.017335033,-2.5789275,-0.23303567,1.7618847,0.861222,0.03999878,0.04,0.0013692833299217,-0.004856299021815946,-0.012225216439376574,-0.006996132319442034,0.0470635765002969,-0.13982597104373237,0.9913387214291625,0.02231995997220787,-0.04914169779288846,-0.1197265731576117
2291.5333333349004,-0.038668368,-0.7115848,0.017520228,-2.581309,-0.23553091,1.763928,0.86202693,0.03999876,0.04,0.003399342536858363,-0.005214437450704046,-0.01079817139004735,-0.00771227779819237,0.04709983727469717,-0.13960691310766796,0.9911692965943387,0.02225110542242228,-0.049626594639294586,-0.1209359950580099
2291.5500000015672,-0.039079558,-0.71081406,0.01770548,-2.5836911,-0.23802696,1.7659719,0.8628322,0.03999874,0.04,0.0029186402828562663,-0.00533443310226922,-0.011659462286450761,-0.008425668614060505,0.04713420436106139,-0.13936451091397048,0.9909985446141127,0.022175995997973017,-0.05011080191522195,-0.12214342923637582
2291.566666668234,-0.039490815,-0.710043,0.017890766,-2.586074,-0.24052344,1.7680161,0.86363757,0.039998725,0.04,0.0019129151310970371,-0.00565993343175919,-0.012139416491430133,-0.009138195612647865,0.047163325860523825,-0.13910132763062902,0.9908264823548214,0.02209451195775224,-0.05059469107768088,-0.12334865885153908
2291.583333334901,-0.039902072,-0.7092719,0.018076068,-2.588457,-0.24302003,1.7700604,0.864443,0.039998706,0.04,0.003650179565606315,-0.0059441274381621945,-0.011501716369921589,-0.009848671348067311,0.04718204283739266,-0.1388198411682067,0.9906531612963102,0.022006727077929278,-0.05107779409268382,-0.1245515031124463
2291.600000001568,-0.040313307,-0.708501,0.018261354,-2.5908399,-0.24551646,1.7721046,0.86524826,0.03999869,0.04,0.004216295565684369,-0.006120173312440524,-0.011494338355722,-0.010556607348816305,0.047193924557636074,-0.13851750788299755,0.9904786144275676,0.021912606349775713,-0.051560011561111035,-0.12575180814773065
2291.6166666682348,-0.04072446,-0.70773023,0.018446606,-2.5932224,-0.24801241,1.7741483,0.86605346,0.039998677,0.04,0.0040788619629861245,-0.006390221389490636,-0.011744635499733036,-0.011260960339365862,0.04720171039290809,-0.13819397221378582,0.9903028615270331,0.021812262910041354,-0.0520415160842566,-0.12694939244346568
2291.6333333349016,-0.04113548,-0.70695966,0.018631801,-2.595604,-0.25050756,1.7761916,0.86685854,0.03999865,0.04,0.00520132024111053,-0.00665062444348552,-0.011070758208564513,-0.011962884612385722,0.047200324604452296,-0.1378526752565583,0.9901259507155757,0.021705741778817098,-0.05252195970346707,-0.12814408391461535
2291.6500000015685,-0.041546308,-0.7061894,0.01881692,-2.5979846,-0.25300166,1.7782339,0.86766315,0.039998643,0.04,0.005181690971900466,-0.0068514687996568124,-0.0114223888329823,-0.012661026893391537,0.04719383840773718,-0.13748858600976754,0.9899479027175458,0.021592933029501698,-0.05300154480043341,-0.12933573132388215
2291.6666666682354,-0.041956898,-0.7054198,0.019001933,-2.600364,-0.25549433,1.7802747,0.8684673,0.039998617,0.04,0.0058056101927883574,-0.007098175608963309,-0.011596510472688948,-0.013355373752182858,0.04718020357410946,-0.13710923976172062,0.9897687524090262,0.021473957830840655,-0.05348021757115703,-0.13052414419677683
2291.6833333349023,-0.042367212,-0.70465076,0.019186826,-2.6027412,-0.25798532,1.7823144,0.8692709,0.039998602,0.04,0.00730508057724677,-0.0073231078887653345,-0.010486161093448132,-0.01404515388250814,0.04715792146976129,-0.13670842678017614,0.9895885576618294,0.021348893083639346,-0.053957420828632315,-0.13170917981069236
2291.700000001569,-0.04277718,-0.7038822,0.019371567,-2.6051164,-0.2604743,1.7843524,0.87007385,0.039998587,0.04,0.006994160127260507,-0.007573594303800224,-0.010789298360935895,-0.014730391995741464,0.04713361200672142,-0.13628816434302987,0.9894073394595418,0.021217691158503523,-0.05443346971127622,-0.13289064519628493
2291.716666668236,-0.04318677,-0.70311433,0.019556139,-2.60749,-0.26296097,1.7863885,0.870876,0.03999857,0.04,0.005916601178390657,-0.007766867088951357,-0.011616323323448974,-0.015410378766794706,0.04710228513046119,-0.13584829881653054,0.9892251071842072,0.021080356588590598,-0.05490875738091654,-0.13406839390913602
2291.733333334903,-0.043595918,-0.7023476,0.019740516,-2.6098614,-0.2654451,1.7884226,0.87167746,0.03999855,0.04,0.00793919128418974,-0.007965599463458095,-0.010838860911399628,-0.016085548067929084,0.047059367507136685,-0.13539265980455947,0.98904192191785,0.020937055687775333,-0.055382633944454064,-0.13524230198257936
2291.75000000157,-0.044004574,-0.7015815,0.01992468,-2.6122296,-0.26792634,1.7904543,0.8724778,0.03999854,0.04,0.008413069108570426,-0.008221858238108282,-0.010333434717901824,-0.01675446812737241,0.04701236623445057,-0.13491293620385744,0.9888578214271151,0.020787711083961515,-0.0558551884686676,-0.13641216218299262
2291.7666666682367,-0.0444127,-0.7008166,0.020108603,-2.6145945,-0.2704043,1.7924832,0.8732773,0.039998516,0.04,0.009259748186618566,-0.00842650767575448,-0.010398280960277617,-0.017416981063280372,0.046959220861174836,-0.1344202176977187,0.9886728475306285,0.020632553788808797,-0.056326209301039,-0.1375778195262814
2291.7833333349035,-0.044820234,-0.70005256,0.020292263,-2.6169555,-0.27287868,1.7945093,0.8740754,0.039998498,0.04,0.009595203521328699,-0.008685628169965987,-0.009940742289327176,-0.018073990797212867,0.04689944847955124,-0.13390612987961917,0.9884870447960609,0.02047143095027113,-0.056795706206451003,-0.1387390735939555
2291.8000000015704,-0.04522714,-0.6992901,0.020475645,-2.6193135,-0.27534923,1.796532,0.87487245,0.039998487,0.04,0.009013658370093935,-0.00881001725252517,-0.010995987330875145,-0.018723070120172217,0.04683479185331289,-0.13337494761776875,0.9883004206176385,0.020304574299111155,-0.05726392951306883,-0.1398958371298199
2291.8166666682373,-0.045633357,-0.6985287,0.020658722,-2.6216676,-0.27781558,1.7985517,0.8756681,0.039998468,0.04,0.009602028100830218,-0.009120630925132933,-0.01001451483779725,-0.019366182009110687,0.046762043192572225,-0.13282647899056285,0.9881130344419429,0.02013190564124447,-0.05773067167480137,-0.14104788934671852
2291.833333334904,-0.04603883,-0.6977687,0.020841468,-2.6240175,-0.2802776,1.8005675,0.8764622,0.039998446,0.04,0.010525849313158808,-0.009152776081819414,-0.010070840776510437,-0.02000199180168234,0.046682341424934715,-0.13226231988931186,0.9879249082545292,0.01995347689479823,-0.05819591863009652,-0.14219518087786284
2291.850000001571,-0.046443522,-0.6970104,0.02102387,-2.6263623,-0.28273487,1.8025795,0.87725484,0.03999844,0.04,0.011991095096064441,-0.009453021666763761,-0.009354053276355856,-0.020628880768028525,0.04659459379849777,-0.13167856795001395,0.987736115360747,0.01976948678108266,-0.05865914655131991,-0.14333749799108583
2291.866666668238,-0.046847384,-0.69625354,0.021205893,-2.6287029,-0.28518713,1.8045875,0.878046,0.03999842,0.04,0.010372251670554,-0.009601594840577543,-0.010114411003137036,-0.021248520945020024,0.04650388290195419,-0.13107890276535417,0.9875466535716455,0.019579949477006503,-0.05912098114899778,-0.14447471123315017
2291.883333334905,-0.047250364,-0.6954983,0.021387523,-2.6310377,-0.28763413,1.8065907,0.8788354,0.039998397,0.04,0.012689692497191984,-0.009695881556837094,-0.009222271027242712,-0.021860060481631232,0.04640462269511708,-0.13046266849562663,0.987356576036657,0.01938496629777857,-0.05958100216357646,-0.14560672724838938
2291.9000000015717,-0.047652405,-0.69474477,0.02156874,-2.6333673,-0.29007536,1.8085896,0.87962294,0.039998375,0.04,0.012017339341241495,-0.010121802075291342,-0.009247533756151505,-0.02246373768650299,0.04629838000972372,-0.1298302825635492,0.9871659443042686,0.01918453221658777,-0.06003917284400754,-0.14673326089779207
2291.9166666682386,-0.04805346,-0.6939931,0.021749519,-2.6356912,-0.29251066,1.8105835,0.88040864,0.03999836,0.04,0.012727492821662523,-0.010146453924253507,-0.0092568584823427,-0.02305780967082088,0.04618649440219291,-0.1291804731393488,0.9869747767724604,0.018978796737502898,-0.060495556861858604,-0.14785426233058765
2291.9333333349055,-0.048453487,-0.69324356,0.021929827,-2.6380095,-0.2949398,1.812572,0.8811922,0.039998345,0.04,0.012531630356016343,-0.010249492162670015,-0.009706854411262178,-0.02364332604653054,0.04606861671678693,-0.1285169189253128,0.9867830985017354,0.018767727489650488,-0.06095033239023441,-0.14896961400805425
2291.9500000015723,-0.048852436,-0.69249594,0.02210966,-2.640321,-0.29736236,1.8145556,0.8819736,0.039998323,0.04,0.014573527493189076,-0.01057350679352087,-0.007816320729259196,-0.02421920581893825,0.04594096538788539,-0.127836451327269,0.9865910049646155,0.018551458711228118,-0.06140268492276031,-0.15007912108908347
2291.966666668239,-0.049250256,-0.69175047,0.022288986,-2.6426263,-0.29977816,1.8165334,0.882753,0.039998315,0.04,0.013423990034566735,-0.010598195623226503,-0.009180959446886128,-0.02478410385861089,0.04581105603640055,-0.12713898682131444,0.986398478592078,0.018330163260104237,-0.061853319139010994,-0.1511827154723029
2291.983333334906,-0.049646895,-0.69100714,0.022467786,-2.6449249,-0.30218682,1.8185054,0.8835301,0.039998297,0.04,0.01409104247065418,-0.010848969003662834,-0.008615999884553638,-0.02534053875845746,0.04567209555280756,-0.12642723469885686,0.9862055803919536,0.018103827397155544,-0.06230203275399083,-0.15228020669825962
2292.000000001573,-0.050042313,-0.69026613,0.022646043,-2.6472163,-0.3045882,1.8204713,0.8843045,0.039998278,0.04,0.01496032690089244,-0.010890569146443374,-0.008231253703638863,-0.02588640347311327,0.04552611693881921,-0.12570306978587859,0.9860123492321529,0.017872434371392746,-0.06274864911160383,-0.15337154327318994
2292.01666666824,-0.050436463,-0.6895274,0.022823736,-2.6495004,-0.3069819,1.8224311,0.88507646,0.039998267,0.04,0.015163128908879386,-0.011145736890577629,-0.007891037079965635,-0.026420978547769355,0.04537284540934762,-0.12496262207420679,0.9858188368398985,0.01763616884722337,-0.06319308389859425,-0.1544565331328105
2292.0333333349067,-0.0508293,-0.6887913,0.02300084,-2.6517763,-0.3093675,1.8243842,0.8858461,0.039998252,0.04,0.01649488064436877,-0.011301339113534148,-0.007556827499155538,-0.026943519172780577,0.045213681777541384,-0.1242056616795588,0.9856250953654752,0.01739535307824761,-0.06363509918260282,-0.1555350353749962
2292.0500000015736,-0.051220775,-0.6880578,0.02317733,-2.6540442,-0.31174487,1.8263303,0.8866129,0.039998233,0.04,0.016353166206983794,-0.011354187779277769,-0.007715312131173491,-0.02745719921992284,0.0450513206431183,-0.12343760689357766,0.985431146896709,0.017149861810484758,-0.0640749166845111,-0.15660696669558133
2292.0666666682405,-0.05161083,-0.6873268,0.023353178,-2.6563041,-0.31411368,1.8282698,0.8873769,0.039998215,0.04,0.015826005078634076,-0.011603465265830337,-0.007465345622481578,-0.02795938187384039,0.04488157401129411,-0.1226560730586623,0.9852370404531294,0.016899728781051098,-0.06451248938754199,-0.15767216621619629
2292.0833333349074,-0.051999424,-0.6865986,0.023528371,-2.6585557,-0.31647375,1.830202,0.8881382,0.039998192,0.04,0.016699820412724442,-0.011596014713655123,-0.007528774834164587,-0.028449331499905244,0.04470439438716642,-0.12186277470544865,0.985042796309207,0.0166451853269977,-0.06494784900458639,-0.15873060245096246
2292.1000000015742,-0.052386507,-0.6858734,0.023702892,-2.6607993,-0.3188247,1.8321267,0.88889635,0.03999819,0.04,0.016401850628477987,-0.011824785258762738,-0.007672096904975945,-0.028927936154422143,0.04452069723711513,-0.12105153449017116,0.9848484617898409,0.01638617064184964,-0.06538106697176072,-0.1597820916232937
2292.116666668241,-0.05277205,-0.685151,0.023876725,-2.6630342,-0.3211662,1.8340439,0.88965166,0.039998166,0.04,0.01681480839246241,-0.011981763308172022,-0.007253751890545779,-0.029394126839716057,0.044328517095303596,-0.12023128704911717,0.9846540788863448,0.016122960628501447,-0.06581210783709701,-0.16082649512780506
2292.133333334908,-0.053155992,-0.6844316,0.024049843,-2.6652594,-0.32349807,1.8359528,0.89040387,0.039998144,0.04,0.018821507982957897,-0.01194884942160579,-0.006372283382161115,-0.029849438531239714,0.044128069933375494,-0.11940090574385705,0.9844596962846535,0.01585566745340241,-0.0662405854130908,-0.16186379782046992
2292.150000001575,-0.053538296,-0.6837152,0.024222218,-2.6674745,-0.32582,1.8378538,0.8911528,0.03999813,0.04,0.01908442963001189,-0.01217790999676338,-0.005723110375810414,-0.030292066563892304,0.04392286817804508,-0.11855398944361362,0.9842653814626029,0.015584314516474315,-0.06666626507548236,-0.16289382154094725
2292.1666666682418,-0.053918917,-0.68300205,0.02439384,-2.6696808,-0.3281317,1.8397465,0.89189845,0.03999811,0.04,0.017256798414844177,-0.01227554659931629,-0.007210017117342815,-0.03072161181068119,0.04371391402234587,-0.11769636502678828,0.9840711235469558,0.015308972239791318,-0.06708986307307968,-0.1639164709320834
2292.1833333349086,-0.0542978,-0.68229216,0.024564689,-2.6718762,-0.33043295,1.8416303,0.89264077,0.0399981,0.04,0.020584752818497698,-0.012310145636651448,-0.005223299195766806,-0.031139104728248542,0.04349327247284898,-0.11682870227290462,0.9838770074378081,0.015029915423068089,-0.06751054130927288,-0.1649316909806224
2292.2000000015755,-0.054674916,-0.68158543,0.024734743,-2.6740618,-0.3327234,1.8435055,0.8933797,0.039998088,0.04,0.018450298011996047,-0.012493845721395225,-0.0062431372285898235,-0.03154383265980444,0.043271159812219476,-0.11594953852551301,0.9836830419334226,0.014747132659690241,-0.06792890754504327,-0.16593932207485584
2292.2166666682424,-0.055050213,-0.6808822,0.024903983,-2.676237,-0.33500296,1.8453716,0.8941149,0.03999807,0.04,0.019480021603190956,-0.012484983418703521,-0.0058946201042298085,-0.03193625848978822,0.04304028427384725,-0.11505977107194136,0.9834892672610112,0.014460655294368815,-0.06834475976282382,-0.16693934360664875
2292.2333333349093,-0.055423636,-0.68018264,0.025072373,-2.678401,-0.33727124,1.8472284,0.8948465,0.03999806,0.04,0.021354795149397532,-0.01261560729152178,-0.004699955675047107,-0.03231393514467313,0.04280105435503316,-0.11415612447683265,0.9832957602056426,0.014170762708477266,-0.06875757834224538,-0.16793163152419371
2292.250000001576,-0.05579515,-0.6794865,0.02523991,-2.6805542,-0.33952788,1.8490758,0.89557433,0.039998043,0.04,0.01986598364451808,-0.012803807562988823,-0.005411672674582313,-0.0326786636517777,0.04255932769409672,-0.11324412438520177,0.9831025362628188,0.01387747135191023,-0.06916788787224906,-0.16891602135316156
2292.266666668243,-0.05616473,-0.67879415,0.025406571,-2.6826959,-0.3417727,1.8509136,0.89629835,0.03999802,0.04,0.021238447747484734,-0.012808183798412864,-0.004613738727066163,-0.03303027772907621,0.0423091300982333,-0.11232381135131758,0.9829096527577074,0.013580946915464439,-0.06957526500029694,-0.1698924804008133
2292.28333333491,-0.056532335,-0.67810565,0.025572343,-2.6848264,-0.34400553,1.8527414,0.89701843,0.039998002,0.04,0.020797809019179603,-0.012807427664107696,-0.005188897960506367,-0.03336790707720722,0.04205475677060791,-0.11139383087811194,0.9827171147927782,0.013281278223991777,-0.06998008264847927,-0.17086096094370593
2292.300000001577,-0.05689787,-0.6774208,0.025737198,-2.6869445,-0.346226,1.8545591,0.8977346,0.039997987,0.04,0.022332154187498787,-0.013005850155595189,-0.0036753523590560278,-0.03369177454525496,0.041791821144314845,-0.11045143450818035,0.9825250031267367,0.012978637691056304,-0.07038182348625442,-0.17182133778212724
2292.3166666682437,-0.05726134,-0.6767398,0.025901124,-2.6890512,-0.34843394,1.8563668,0.89844656,0.03999797,0.04,0.02098520750091204,-0.013054366818632257,-0.004560445346957209,-0.03400176831705937,0.04152552720137574,-0.10950212619876012,0.982333330428533,0.012672982543670226,-0.07078087653105697,-0.17277352505557592
2292.3333333349105,-0.05762269,-0.6760627,0.026064098,-2.6911452,-0.350629,1.8581638,0.8991545,0.039997954,0.04,0.022661756599062777,-0.013101273945714809,-0.0036069926567572352,-0.034297113939231016,0.041250715357343384,-0.10854330650935191,0.9821421518997852,0.012364644040197766,-0.07117695055015083,-0.1737174451510268
2292.3500000015774,-0.057981882,-0.6753897,0.026226103,-2.6932263,-0.3528111,1.8599502,0.8998582,0.039997943,0.04,0.02321320346962974,-0.013077136341099749,-0.0032832372151014866,-0.034578322215096643,0.040970409883374345,-0.10757451275469462,0.981951503923782,0.01205367748646013,-0.07156989529403451,-0.1746530929828498
2292.3666666682443,-0.058338877,-0.67472094,0.026387122,-2.6952953,-0.35497975,1.8617256,0.9005577,0.039997913,0.04,0.022020021201241136,-0.013275993581274292,-0.004110228956588635,-0.034846513107421324,0.04068677163206194,-0.10660319493524278,0.9817614112757099,0.011740248439368309,-0.07196013475344698,-0.17558028620199345
2292.383333334911,-0.05869364,-0.6740565,0.02654713,-2.6973515,-0.35713494,1.8634899,0.9012529,0.039997894,0.04,0.023141186115149814,-0.013196735142462224,-0.0032695489094125563,-0.03510055965540286,0.04039364757836314,-0.10562163683365791,0.9815719153942927,0.011424458476244308,-0.07234736595330331,-0.17649905183122916
2292.400000001578,-0.059046116,-0.6733963,0.026706113,-2.699394,-0.35927635,1.8652428,0.90194386,0.039997883,0.04,0.02411925315490837,-0.01328255625298036,-0.0025256560764796987,-0.035340518669277926,0.04009506512884256,-0.10463121779827181,0.9813830705917029,0.011106510347160179,-0.07273136709433078,-0.17740930760390905
2292.416666668245,-0.05939628,-0.67274016,0.026864057,-2.7014234,-0.3614036,1.8669844,0.90263,0.039997876,0.04,0.022945790300221702,-0.01342213602846809,-0.00300560517574322,-0.03556633724807633,0.03979264432591545,-0.10363241514940907,0.9811948994904693,0.010786247087677468,-0.07311261416688805,-0.1783108850780994
2292.433333334912,-0.05974409,-0.67208856,0.02702094,-2.7034397,-0.36351657,1.8687142,0.90331143,0.039997857,0.04,0.023351005750416043,-0.013412002500901021,-0.003030075822452183,-0.035777039566381896,0.039481967443449076,-0.10262894144228826,0.9810074349240276,0.010463924512078107,-0.07349098570438033,-0.17920377766047205
2292.4500000015787,-0.060089506,-0.6714415,0.02717675,-2.7054415,-0.365615,1.8704323,0.9039884,0.039997835,0.04,0.025493759126549165,-0.013425274987360902,-0.0013968988535895122,-0.03597323343573293,0.03916312387387666,-0.10162029488636885,0.9808207522416436,0.010139878163505917,-0.07386583405258096,-0.18008796018246828
2292.4666666682456,-0.060432486,-0.67079884,0.027331471,-2.7074294,-0.36769867,1.8721378,0.90466034,0.039997824,0.04,0.02400695655109253,-0.01341676995193497,-0.002589296058563839,-0.03615569511995402,0.038842642991998425,-0.10060415891189585,0.9806348321869199,0.009813934788865091,-0.07423798627767493,-0.18096334982290557
2292.4833333349125,-0.06077299,-0.67016107,0.027485078,-2.7094033,-0.36976743,1.8738314,0.9053277,0.039997812,0.04,0.024923099623297418,-0.013503626798949675,-0.0016900149679699439,-0.03632287681685871,0.038511559496431605,-0.09958267154700709,0.9804497511043148,0.00948644613877875,-0.07460676980870505,-0.18182992822374988
2292.5000000015793,-0.061110992,-0.6695279,0.027637552,-2.7113624,-0.37182102,1.8755127,0.9059898,0.0399978,0.04,0.025550741780544506,-0.013500016389977887,-0.001035574987762189,-0.036475886821004416,0.0381767897699551,-0.09855534530615086,0.9802655486842339,0.009157323733213289,-0.07497222437418853,-0.18268761057397748
2292.516666668246,-0.061446454,-0.6688994,0.027788885,-2.713307,-0.37385923,1.877181,0.9066474,0.039997783,0.04,0.025097058232614877,-0.013443583562267047,-0.0016938815454281553,-0.036612778043373574,0.03783687993954357,-0.09752221699386816,0.9800822171053764,0.008827030056216812,-0.07533471611078527,-0.1835364045706028
2292.533333334913,-0.061779346,-0.66827595,0.027939066,-2.7152364,-0.37588173,1.8788368,0.90729946,0.039997768,0.04,0.02610666205915546,-0.013603501443104626,-0.0007260200298953023,-0.03673766524288173,0.03748997357437936,-0.09648574471036458,0.9798998465324511,0.008495311334919426,-0.07569378983619529,-0.184376166114917
2292.55000000158,-0.062109623,-0.6676573,0.02808807,-2.7171507,-0.3778886,1.8804792,0.9079469,0.039997753,0.04,0.026146412167160626,-0.013390782293259962,-0.0007483422417742247,-0.03684613210238001,0.03713761968891574,-0.09544642213192157,0.97971841936236,0.008162702477108316,-0.0760496367367872,-0.1852070241718485
2292.566666668247,-0.06243725,-0.66704357,0.028235883,-2.7190497,-0.37987936,1.882109,0.90858895,0.03999774,0.04,0.026149887489190782,-0.013664726917395065,-0.0001437959719297055,-0.036941672033854886,0.03677951373141032,-0.09440056332620608,0.9795380228665325,0.007828977779989463,-0.07640202382052629,-0.1860287602006003
2292.5833333349137,-0.062762216,-0.666435,0.028382495,-2.7209334,-0.3818537,1.883725,0.9092256,0.03999773,0.04,0.026174649433685637,-0.013554578838587128,-0.0009149746450498597,-0.03702138731210478,0.03641791352540387,-0.09335052066981742,0.9793586510337915,0.007494395788552143,-0.07675140996653933,-0.18684134377911343
2292.6000000015806,-0.063084446,-0.6658313,0.028527878,-2.722801,-0.38381174,1.8853278,0.90985715,0.039997727,0.04,0.02739511656104643,-0.013515144992698458,0.0008042708886879524,-0.03708665972384266,0.03604725497785999,-0.09229597399042565,0.9791803626267214,0.0071591811264587624,-0.07709715289407769,-0.1876448576098696
2292.6166666682475,-0.063403934,-0.66523296,0.028672025,-2.724652,-0.3857531,1.8869171,0.91048324,0.0399977,0.04,0.028051520123750784,-0.013582446340343335,0.0010520015155002227,-0.03713838651772566,0.03567378795151434,-0.09124179195961232,0.9790032170432668,0.006823382479242212,-0.07743910777417262,-0.1884391866295763
2292.6333333349144,-0.063720636,-0.6646398,0.028814925,-2.7264876,-0.3876775,1.8884922,0.9111038,0.03999769,0.04,0.02620815802938381,-0.013560432677950374,-0.0004344762633667898,-0.037174001715929855,0.035299112085619644,-0.09017950352048218,0.9788271793514903,0.00648707025566589,-0.07777816918776825,-0.18922427772382264
2292.6500000015812,-0.064034544,-0.66405183,0.028956559,-2.7283075,-0.38958484,1.8900535,0.91171885,0.03999767,0.04,0.02662331305094412,-0.013547821715775843,0.0002728416842456838,-0.03719673665565438,0.03491335037299255,-0.08911990778737848,0.9786523006233969,0.006150384964855302,-0.07811402573848947,-0.19000012166375893
2292.666666668248,-0.06434558,-0.6634693,0.029096914,-2.7301102,-0.39147502,1.8916007,0.91232884,0.039997652,0.04,0.028937360739411666,-0.013505737898295012,0.0019092862429070934,-0.037204693207297315,0.03452175156629761,-0.08805595237690747,0.9784786490625516,0.005813781285196464,-0.07844597235575308,-0.19076677566351108
2292.683333334915,-0.06465376,-0.66289216,0.02923598,-2.7318962,-0.3933478,1.8931335,0.91293293,0.03999765,0.04,0.027965618912806356,-0.013454839347470937,0.0012309537015697813,-0.03719964155263418,0.034129782202558634,-0.08698581974357808,0.9783062253348154,0.005476987074669146,-0.07877454434862348,-0.19152415838842898
2292.700000001582,-0.06495904,-0.6623205,0.029373733,-2.7336655,-0.39520296,1.894653,0.91353124,0.039997634,0.04,0.028144250179784613,-0.013671116727775878,0.0022304643638060284,-0.03717987665305797,0.03373005222595994,-0.08591602456651186,0.97813512104107,0.005140101893220697,-0.0790991660966439,-0.19227216715196785
2292.7166666682488,-0.065261394,-0.6617542,0.029510168,-2.7354178,-0.39704034,1.8961571,0.91412383,0.039997634,0.04,0.028019969591164262,-0.013342466862753533,0.0011736585023847113,-0.03714352598990681,0.03333053770879538,-0.08484516442003685,0.9779652720624171,0.004803455065759834,-0.07942071293160552,-0.19301089040970987
2292.7333333349156,-0.065560795,-0.6611935,0.029645273,-2.7371533,-0.39885968,1.8976461,0.9147106,0.039997622,0.04,0.02817540556985243,-0.013372308820658318,0.001341101842378123,-0.03709452669828309,0.03292190457541842,-0.0837707221102003,0.977796720649343,0.004467148554091164,-0.07973909590580971,-0.19374027525352241
2292.7500000015825,-0.0658572,-0.66063833,0.029779032,-2.738871,-0.40066087,1.89912,0.91529155,0.0399976,0.04,0.029173141319072116,-0.013384528991383648,0.0025175334810834116,-0.03703334223129484,0.03250557994000251,-0.0827005333037898,0.9776295269997242,0.004131351071046821,-0.08005388308890085,-0.1944603190345315
2292.7666666682494,-0.06615058,-0.66008884,0.029911434,-2.740572,-0.40244383,1.9005792,0.91586673,0.039997578,0.04,0.028164956428899934,-0.013421330223695183,0.0021418112131854627,-0.03695894958744291,0.03208508637779847,-0.08162784779965547,0.9774637095581524,0.003796078273979314,-0.08036520475573194,-0.195171002331604
2292.7833333349163,-0.066440925,-0.6595451,0.030042468,-2.7422545,-0.40420833,1.9020236,0.9164359,0.03999757,0.04,0.03038160480215435,-0.013353004486027498,0.0037804683375775028,-0.036870097914685256,0.03165909587635339,-0.08055255310843898,0.9772993436146091,0.00346150982255448,-0.08067245677727215,-0.19587231973334468
2292.800000001583,-0.0667282,-0.6590071,0.030172119,-2.7439191,-0.40595424,1.9034528,0.91699916,0.039997563,0.04,0.029386849312573737,-0.01330736423794665,0.0031940298068411366,-0.03676698749534507,0.031232489234764876,-0.07947623068174302,0.9771364217902475,0.0031277848931797734,-0.08097604815249139,-0.1965642637872377
2292.81666666825,-0.06701237,-0.65847486,0.030300375,-2.7455661,-0.4076814,1.9048665,0.9175561,0.039997555,0.04,0.029075652640342398,-0.013232398916745991,0.0028110006748294225,-0.036650595666522,0.030802692636868245,-0.07839949150521534,0.9769749493233686,0.0027948422461685917,-0.0812762358634026,-0.19724682693340606
2292.833333334917,-0.06729345,-0.6579487,0.030427229,-2.7471955,-0.40938962,1.9062648,0.91810673,0.03999754,0.04,0.029187099705119124,-0.013236667676841396,0.0030603969328746317,-0.036520278273814044,0.030365171096872964,-0.07732411314551949,0.9768149691623743,0.002462830564423808,-0.0815728931590464,-0.1979199676323322
2292.850000001584,-0.067571364,-0.6574282,0.030552672,-2.7488065,-0.41107878,1.9076475,0.91865134,0.039997533,0.04,0.02986213975677554,-0.013184116394465706,0.003865170356376346,-0.03637586424649927,0.02992336848612144,-0.07624953948520433,0.9766565044165291,0.002132028698030412,-0.08186590763990902,-0.19858373548911537
2292.8666666682507,-0.06784609,-0.65691364,0.030676687,-2.7503982,-0.4127486,1.9090142,0.9191899,0.039997514,0.04,0.031362435739423766,-0.013149070001527985,0.004868635382448971,-0.036219151404453344,0.029476783230047043,-0.07517660589465622,0.9764996160222904,0.0018026963821890097,-0.08215492217270566,-0.19923809614847685
2292.8833333349176,-0.06811764,-0.6564051,0.030799266,-2.7519732,-0.41439927,1.9103651,0.91972226,0.039997507,0.04,0.02743945225276434,-0.01299071302005017,0.002052728713008989,-0.03605033202277514,0.029030623214895662,-0.07410339648077956,0.9763442145406028,0.0014746256975367625,-0.08244111871933218,-0.1998831212395148
2292.9000000015844,-0.06838601,-0.6559024,0.030920409,-2.7535288,-0.41603035,1.9117002,0.92024815,0.039997492,0.04,0.031167964007705606,-0.013074170210358727,0.005348767035884272,-0.035869017611267616,0.028572168262016792,-0.07302897806837602,0.9761904447846373,0.0011480283879592075,-0.08272330001836782,-0.20051871028924828
2292.9166666682513,-0.068651155,-0.6554059,0.031040091,-2.7550652,-0.41764188,1.9130193,0.9207678,0.03999748,0.04,0.03145905154058326,-0.012898055972165867,0.005283915231557579,-0.0356745581247641,0.028112343925717945,-0.07195853780880734,0.9760383096979611,0.0008231606021781215,-0.08300144821933689,-0.20114497259952235
2292.933333334918,-0.06891304,-0.65491545,0.031158311,-2.7565832,-0.4192338,1.9143221,0.9212813,0.039997466,0.04,0.02977638934240634,-0.012843125129891053,0.004212699610750548,-0.03546788146108095,0.02765116148261293,-0.07088828343910783,0.9758877795921715,0.0005000772586484674,-0.0832761430956143,-0.20176192791633252
2292.950000001585,-0.06917166,-0.65443134,0.03127506,-2.7580824,-0.42080575,1.9156089,0.92178833,0.03999746,0.04,0.030654736841939645,-0.01293905158576969,0.005022724232728315,-0.035249607710018005,0.027185824893147928,-0.0698193043591565,0.9757389299194223,0.00017885057257497158,-0.08354702713047503,-0.2023694712891072
2292.966666668252,-0.069427006,-0.65395325,0.031390324,-2.7595627,-0.4223577,1.9168793,0.9222886,0.039997455,0.04,0.030239705255641347,-0.01278385789047487,0.004958840792590458,-0.03501920783398341,0.026717867325943945,-0.0687518230700529,0.9755917511402075,-0.00014060514743162206,-0.08381440908095068,-0.20296763330094536
2292.983333334919,-0.069679044,-0.65348125,0.031504106,-2.761023,-0.42388967,1.9181333,0.9227826,0.039997455,0.04,0.0320714259107957,-0.012656139889299922,0.006468004566340113,-0.03477584077393733,0.02624280172877108,-0.06768726610653811,0.9754462932505137,-0.0004578326064289924,-0.08407768660267535,-0.20355653266028972
2293.0000000015857,-0.06992775,-0.65301555,0.031616386,-2.7624645,-0.42540142,1.9193709,0.9232702,0.039997444,0.04,0.030412123351641895,-0.01271189021610497,0.00529882699358275,-0.03452197607171535,0.025768112561633277,-0.06662668265138398,0.9753025565056214,-0.0007728629587644603,-0.08433729620823954,-0.2041360977993117
2293.0166666682526,-0.07017314,-0.6525562,0.031727165,-2.7638872,-0.42689297,1.9205917,0.9237512,0.039997417,0.04,0.03030370005909777,-0.012494936387752453,0.0050790502959419115,-0.03425747898631924,0.02529031413343595,-0.06557011471890972,0.9751605238328418,-0.0010857096442814644,-0.08459350942261264,-0.20470640477569882
2293.0333333349195,-0.07041517,-0.6521028,0.031836428,-2.7652903,-0.42836416,1.9217961,0.92422575,0.03999741,0.04,0.03103767084924325,-0.012535436398097843,0.0063248730071352455,-0.03398098968798204,0.024806721073917307,-0.06451395742095256,0.9750202555464785,-0.0013961195387572423,-0.084845930329126,-0.2052674358754897
2293.0500000015863,-0.07065381,-0.65165615,0.031944174,-2.766674,-0.42981496,1.9229835,0.9246935,0.03999739,0.04,0.03126932419474926,-0.012383098350121635,0.0059036176153659525,-0.0336948284490372,0.02431940139344789,-0.06346325824311494,0.9748817505341164,-0.0017041344954935073,-0.08509463656135773,-0.20581926836340772
2293.066666668253,-0.070889086,-0.6512156,0.032050397,-2.7680376,-0.43124518,1.9241543,0.92515486,0.039997384,0.04,0.03208080408363401,-0.012379200407502955,0.007299952185135794,-0.033396641376032134,0.02382979724004612,-0.062413210415654646,0.9747450681122796,-0.0020094287117614954,-0.08533928950888225,-0.20636186676117993
2293.08333333492,-0.07112098,-0.6507814,0.032155093,-2.7693813,-0.4326547,1.9253082,0.9256094,0.03999738,0.04,0.03145964695570047,-0.01231351928531188,0.0067974347137012,-0.03308811230344317,0.023339760290238015,-0.061364874446055116,0.9746102067845395,-0.0023120982428014893,-0.08558014071071925,-0.2068952356847453
2293.100000001587,-0.07134945,-0.65035367,0.03225825,-2.770706,-0.43404347,1.9264449,0.9260573,0.03999737,0.04,0.030433302395360684,-0.012200861584793499,0.005727619248285798,-0.032769531114450766,0.022846853041932083,-0.06032167723358191,0.9744771360557615,-0.0026120044775023205,-0.08581767945730114,-0.20741941719553264
2293.116666668254,-0.071574494,-0.64993227,0.03235987,-2.7720103,-0.4354116,1.9275647,0.9264984,0.03999736,0.04,0.03210568403873015,-0.012084225200492682,0.007685372977817018,-0.032442267654126465,0.022348270544112203,-0.059284481809842846,0.9743459167501206,-0.0029090870307474145,-0.08605119057835922,-0.2079345193205338
2293.1333333349207,-0.07179613,-0.6495173,0.032459963,-2.7732954,-0.43675882,1.9286675,0.9269329,0.03999735,0.04,0.03063794514550633,-0.012104231427118028,0.006466771413360384,-0.03210361671090346,0.02184910553316717,-0.058248982871013086,0.9742165375862234,-0.003203228595998543,-0.08628120946966855,-0.20844047138817248
2293.1500000015876,-0.0720143,-0.64910895,0.032558504,-2.7745602,-0.43808535,1.9297533,0.92736065,0.039997347,0.04,0.032290940014290115,-0.011865861986481985,0.00782516626256502,-0.0317560266386532,0.021344522369013574,-0.057218022194934055,0.974089029425269,-0.0034943077183359457,-0.08650718264438505,-0.20893745455958335
2293.1666666682545,-0.07222905,-0.64870685,0.03265547,-2.775805,-0.4393908,1.9308219,0.9277816,0.039997336,0.04,0.03139095701316652,-0.011900286231936175,0.007481595686376075,-0.031399254869393954,0.020841856752896966,-0.05619175719484924,0.9739634080537001,-0.0037822777740379484,-0.08672950125201702,-0.2094253274077378
2293.1833333349214,-0.07244032,-0.6483114,0.032750867,-2.7770298,-0.44067532,1.9318732,0.9281958,0.039997328,0.04,0.03174640069385504,-0.011762735219755793,0.007604570082042628,-0.031033623469295602,0.02033585714165681,-0.055169511538517034,0.973839675563472,-0.004067013029616559,-0.08694803602511024,-0.20990422752966345
2293.2000000015883,-0.07264815,-0.6479223,0.032844726,-2.7782347,-0.44193882,1.9329075,0.9286032,0.039997324,0.04,0.031099440545401258,-0.011721312077489499,0.007588314874862334,-0.03065929807266332,0.019827672891375714,-0.05415211245153888,0.9737178388427313,-0.004348519130433702,-0.08716292383637,-0.21037415575376212
2293.216666668255,-0.072852515,-0.6475396,0.032937005,-2.7794192,-0.44318122,1.9339243,0.92900383,0.039997313,0.04,0.03214343269253295,-0.011578750758090006,0.008322894433843153,-0.030276604062786823,0.019316780737928467,-0.053140869849829346,0.973597925027259,-0.004626568819748268,-0.08737396228085131,-0.2108351630039837
2293.233333334922,-0.0730534,-0.64716357,0.03302773,-2.7805834,-0.44440255,1.9349239,0.9293977,0.0399973,0.04,0.031953584042732075,-0.011516109308412625,0.008292401031040342,-0.02988658432509246,0.01880555082325102,-0.0521355722758248,0.9734799405812443,-0.004901157540587141,-0.08758113496162132,-0.2112873132479412
2293.250000001589,-0.073250815,-0.6467939,0.0331169,-2.7817283,-0.4456029,1.9359064,0.9297848,0.039997287,0.04,0.03025015609623427,-0.011426405164449704,0.007402742732010026,-0.029488615554747896,0.01829357185881937,-0.05113538637721633,0.9733638526153809,-0.005172372336408448,-0.08778491563842312,-0.21173064391464763
2293.2666666682558,-0.07344473,-0.6464308,0.033204485,-2.7828522,-0.44678196,1.9368715,0.93016505,0.039997276,0.04,0.03282903594969966,-0.011380873318206364,0.009308269364893818,-0.029082401547113154,0.017776497427036707,-0.05013857353713154,0.973249747252276,-0.005439869353843311,-0.08798458978449163,-0.21216514618393095
2293.2833333349226,-0.07363519,-0.64607424,0.033290513,-2.7839558,-0.44794002,1.9378192,0.9305384,0.039997272,0.04,0.031763525653505376,-0.011131900583427612,0.008575838967361804,-0.028669286303291856,0.01726327114713757,-0.04914742230590698,0.9731375761876581,-0.005703760564073875,-0.08818052217515206,-0.2125909697893004
2293.3000000015895,-0.07382214,-0.64572424,0.033374965,-2.7850397,-0.44907692,1.9387498,0.93090504,0.03999727,0.04,0.030990310820944167,-0.011217069058050422,0.008288755201801834,-0.028249094681047034,0.01674774906421614,-0.04816267649921646,0.9730273565080393,-0.005963950166422178,-0.0883728196433511,-0.2130080738696851
2293.3166666682564,-0.074005626,-0.6453808,0.033457845,-2.7861042,-0.45019263,1.939663,0.931265,0.03999726,0.04,0.030209513647627695,-0.011080771736821093,0.007707828476877232,-0.027821886887745815,0.01623084030572245,-0.047182897432696165,0.9729190713461408,-0.006220355029166391,-0.08856177873704354,-0.21341649219590553
2293.3333333349233,-0.074185625,-0.6450438,0.033539154,-2.7871478,-0.45128715,1.940559,0.931618,0.039997265,0.04,0.03257404953531662,-0.010964244319655592,0.009885459972003297,-0.027388875460122787,0.015709585799406532,-0.04620829449960141,0.9728127864479426,-0.00647291802553956,-0.08874667994335875,-0.21381630119019324
2293.35000000159,-0.07436215,-0.64471334,0.033618897,-2.7881713,-0.45236066,1.9414377,0.9319643,0.03999726,0.04,0.03125892636854921,-0.010793007014869849,0.008854415828740692,-0.026949753624915685,0.015191588624212223,-0.0452424871689133,0.972708458193272,-0.0067215522926116,-0.08892790186713564,-0.2142076197607227
2293.366666668257,-0.074535206,-0.64438945,0.033697076,-2.7891748,-0.45341298,1.942299,0.9323036,0.03999725,0.04,0.031169438034206465,-0.010769953638611884,0.00885593393677997,-0.026505248170414733,0.014672296292873664,-0.044283480600808375,0.9726061006516565,-0.006966291057401978,-0.08910554625953958,-0.21459041308938326
2293.383333334924,-0.07470479,-0.6440722,0.033773694,-2.790158,-0.45444414,1.943143,0.9326361,0.039997242,0.04,0.03157823657702341,-0.010685156101819526,0.009370657776130997,-0.026055080816906065,0.014152621503840182,-0.04333118431733884,0.9725057350599157,-0.007207008822715493,-0.0892794037895539,-0.21496474678045271
2293.400000001591,-0.0748709,-0.64376134,0.033848733,-2.7911205,-0.45545438,1.94397,0.9329618,0.039997242,0.04,0.032147294105722146,-0.010498189720042905,0.010256497450344959,-0.02559900785499347,0.013633375293374383,-0.0423824438227209,0.9724073723785639,-0.007443636267098471,-0.08944920197203902,-0.21533075648756173
2293.4166666682577,-0.07503354,-0.64345694,0.033922218,-2.7920632,-0.45644346,1.9447795,0.93328077,0.03999724,0.04,0.03058206419224163,-0.010506795808384872,0.008875898958216055,-0.025137945446002126,0.013117693245925585,-0.041442446699133585,0.9723109789705695,-0.00767616118004648,-0.08961559636988352,-0.2156883900679422
2293.4333333349246,-0.07519274,-0.643159,0.033994146,-2.7929864,-0.45741156,1.9455719,0.93359303,0.03999723,0.04,0.030253622923459567,-0.01034543592492998,0.008872895849054707,-0.024673118062009024,0.012600003696609165,-0.04050961901650359,0.9722165483966532,-0.007904542416703698,-0.08977858098303194,-0.21603774584445593
2293.4500000015914,-0.07534849,-0.64286757,0.034064524,-2.793889,-0.45835876,1.9463471,0.9338984,0.039997224,0.04,0.031810350768490814,-0.010216257237932735,0.010206973926463192,-0.024204495577652557,0.012080999494382426,-0.039584007753378475,0.9721241173036693,-0.008128769908827252,-0.08993765959255963,-0.21637892929613955
