rsonawane2002/My_IMU/logs_2/traj_458/imu_458.csv
time,j1,j2,j3,j4,j5,j6,j7,gripper1,gripper2,imu_ax,imu_ay,imu_az,imu_gx,imu_gy,imu_gz
2288.3833333348603,0.00016700293,-0.785875,4.0107683e-05,-2.3551247,9.29385e-05,1.570997,0.786,0.04,0.04,-9.496002,0.03164941817522049,0.10384679,2.1544969e-07,-0.0011641276068985462,2.2371186e-08
2288.400000001527,0.00016700441,-0.78576016,4.0115203e-05,-2.3552213,9.296581e-05,1.5709941,0.786,0.04,0.04,-9.834498,0.0006355562945827842,0.00906944,-3.6984137e-08,-0.002238460350781679,4.9264617e-07
2288.416666668194,0.00016699653,-0.78565425,4.0126466e-05,-2.35531,9.293377e-05,1.5709913,0.786,0.04,0.04,-9.832446,0.0006085988716222346,0.00757627,1.390555e-06,-0.0032263449393212795,-2.514012e-06
2288.433333334861,0.0001669641,-0.78555685,4.01484e-05,-2.355391,9.27495e-05,1.5709884,0.786,0.04,0.04,-9.830176,0.0005666314391419291,0.0063788733,5.3485487e-06,-0.004133241251111031,-1.1202736e-05
2288.4500000015278,0.0001668851,-0.7854671,4.0190862e-05,-2.3554654,9.228985e-05,1.5709856,0.786,0.04,0.039999995,-9.8285265,0.0005101566202938557,0.0051247464,1.26478435e-05,-0.004962841048836708,-2.7247974e-05
2288.4666666681946,0.00016673199,-0.7853842,4.0266645e-05,-2.3555331,9.136398e-05,1.5709857,0.786,0.04,0.04,-9.826666,0.00041815947042778134,0.0040877685,2.4622746e-05,-0.005720603745430708,-5.516019e-05
2288.4833333348615,0.00016647126,-0.78530777,4.0390536e-05,-2.3555984,8.9792644e-05,1.5709863,0.786,0.04,0.039999995,-9.824765,0.00032783817732706666,0.0030938466,4.2585016e-05,-0.006397102493792772,-9.3785304e-05
2288.5000000015284,0.00016606523,-0.78523713,4.057985e-05,-2.3556576,8.7322616e-05,1.5709871,0.786,0.04,0.04,-9.82321,0.00020280745229683816,0.0023455475,6.727076e-05,-0.007022507023066282,-0.00014799894
2288.5166666681953,0.00016547137,-0.78517187,4.085364e-05,-2.3557153,8.370944e-05,1.570988,0.7860019,0.04,0.04,-9.821556,6.391189526766539e-05,0.0015505031,9.967727e-05,-0.007583276834338903,-0.00021701075
2288.533333334862,0.00016464361,-0.7851112,4.123265e-05,-2.3557682,7.8673904e-05,1.570992,0.7860038,0.04,0.04,-9.820286,-0.00010057131294161081,0.00090156356,0.00013200668,-0.008101961575448513,-0.00030300298
2288.550000001529,0.00016353242,-0.7850547,4.1739117e-05,-2.355819,7.1916045e-05,1.5709966,0.78600574,0.04,0.04,-9.818385,-0.0002724896476138383,0.00029199175,0.00017398638,-0.00855307001620531,-0.00040724853
2288.566666668196,0.00016208534,-0.78500193,4.2396703e-05,-2.3558693,6.3117506e-05,1.5710014,0.7860092,0.04,0.04,-9.817126,-0.0004948542336933315,-0.000270057,0.00022656738,-0.008960479870438576,-0.0005308245
2288.583333334863,0.00016024736,-0.7849525,4.323019e-05,-2.355919,5.1936735e-05,1.5710099,0.786013,0.039999995,0.04,-9.8158865,-0.0007424058858305216,-0.000721834,0.00028327154,-0.009334003552794456,-0.0006754915
2288.6000000015297,0.00015796105,-0.78490597,4.4265293e-05,-2.3559685,3.8033086e-05,1.5710206,0.7860168,0.03999999,0.039999995,-9.814563,-0.0010100726503878832,-0.0012140142,0.00035076795,-0.009658780880272388,-0.0008404206
2288.6166666681966,0.00015516694,-0.7848619,4.552873e-05,-2.356018,2.1046597e-05,1.571033,0.78602254,0.039999988,0.039999988,-9.813256,-0.0012909671058878303,-0.0016069107,0.00043160582,-0.009944475255906582,-0.001026325
2288.6333333348634,0.00015180414,-0.7848199,4.7047895e-05,-2.356068,6.0719964e-07,1.5710492,0.78602916,0.039999984,0.03999998,-9.812,-0.001646990654990077,-0.0019777021,0.00051734305,-0.010194242000579834,-0.0012346577
2288.6500000015303,0.00014781018,-0.7847796,4.8850896e-05,-2.3561184,-2.3664246e-05,1.5710691,0.7860368,0.039999977,0.039999973,-9.810718,-0.0020358958281576633,-0.0023566512,0.00061352947,-0.010402408428490162,-0.0014668214
2288.666666668197,0.0001431214,-0.7847405,5.096637e-05,-2.3561695,-5.2153024e-05,1.5710926,0.7860463,0.039999973,0.03999997,-9.809454,-0.0024560713209211826,-0.0026834663,0.0007204708,-0.010571753606200218,-0.0017223813
2288.683333334864,0.00013767336,-0.7847025,5.3423322e-05,-2.356224,-8.525046e-05,1.5711195,0.78605735,0.03999997,0.039999966,-9.808106,-0.00289862765930593,-0.0030051847,0.0008349175,-0.010700579732656479,-0.0020016863
2288.700000001531,0.00013140048,-0.7846652,5.6250952e-05,-2.3562822,-0.00012335212,1.5711505,0.7860696,0.039999966,0.039999958,-9.80715,-0.003439350752159953,-0.003250607,0.0009590811,-0.010806621052324772,-0.0023041458
2288.716666668198,0.000124237,-0.7846283,5.947907e-05,-2.3563411,-0.00016685859,1.5711858,0.78608346,0.03999997,0.03999996,-9.806107,-0.004017628729343414,-0.0035310406,0.0010954438,-0.010884991846978664,-0.002631704
2288.7333333348647,0.000116116535,-0.78459144,6.3137406e-05,-2.356407,-0.00021617171,1.5712252,0.7860993,0.03999997,0.03999996,-9.804727,-0.004643951542675495,-0.0038001197,0.001242087,-0.010925818234682083,-0.0029836458
2288.7500000015316,0.00010697246,-0.7845543,6.72558e-05,-2.3564754,-0.00027169482,1.5712701,0.7861172,0.03999997,0.03999996,-9.804157,-0.005296953488141298,-0.004080908,0.0013984673,-0.010955577716231346,-0.0033600423
2288.7666666681985,9.673809e-05,-0.7845169,7.186441e-05,-2.3565493,-0.0003338323,1.5713204,0.7861373,0.03999997,0.03999996,-9.802827,-0.006087800487875938,-0.0043663234,0.00156483,-0.010949989780783653,-0.0037609662
2288.7833333348653,8.5346765e-05,-0.78447884,7.6993114e-05,-2.3566303,-0.0004029884,1.5713767,0.78615963,0.03999997,0.03999996,-9.801895,-0.006910502910614014,-0.0046381922,0.0017408867,-0.010922263376414776,-0.0041863886
2288.800000001532,7.273187e-05,-0.7844397,8.2671766e-05,-2.356718,-0.00047956593,1.5714388,0.7861843,0.03999997,0.039999958,-9.801253,-0.0077505046501755714,-0.004980863,0.001927157,-0.0108767906203866,-0.004635402
2288.816666668199,5.882717e-05,-0.78439945,8.8930195e-05,-2.3568087,-0.00056396815,1.5715073,0.78621167,0.039999973,0.03999996,-9.800343,-0.008771765977144241,-0.0052883867,0.0021236022,-0.010815930552780628,-0.005109636
2288.833333334866,4.3566783e-05,-0.78435785,9.5798176e-05,-2.3569067,-0.0006565941,1.5715829,0.7862415,0.039999973,0.03999996,-9.798969,-0.009820491075515747,-0.0056295674,0.0023290757,-0.01071739662438631,-0.005608119
2288.850000001533,2.6885045e-05,-0.7843146,0.00010330506,-2.3570123,-0.0007578409,1.5716658,0.7862743,0.039999973,0.03999996,-9.798119,-0.010953856632113457,-0.005991466,0.0025454399,-0.010598798282444477,-0.00613069
2288.8666666681997,8.716939e-06,-0.7842695,0.000111480134,-2.3571255,-0.0008681031,1.5717559,0.7863098,0.039999973,0.039999958,-9.797517,-0.012108168564736843,-0.0064317854,0.0027701873,-0.010462922044098377,-0.006676289
2288.8833333348666,-1.1001971e-05,-0.7842225,0.000120352255,-2.3572466,-0.0009877714,1.5718536,0.7863485,0.039999977,0.03999996,-9.7964325,-0.01347877737134695,-0.006780423,0.0030056946,-0.010307016782462597,-0.0072464272
2288.9000000015335,-3.2335396e-05,-0.7841732,0.00012995019,-2.3573778,-0.0011172331,1.5719595,0.7863903,0.039999977,0.03999996,-9.795601,-0.01488732174038887,-0.007219197,0.00324972,-0.010132943280041218,-0.007840011
2288.9166666682004,-5.5346547e-05,-0.78412145,0.0001403023,-2.35752,-0.0012568693,1.5720735,0.78643537,0.039999977,0.03999996,-9.79497,-0.016386836767196655,-0.0077015045,0.0035035298,-0.009947728365659714,-0.008456836
2288.9333333348673,-8.009759e-05,-0.784067,0.00015143656,-2.3576708,-0.001407058,1.5721962,0.7864838,0.039999977,0.039999958,-9.794698,-0.017925534397363663,-0.008305587,0.0037662415,-0.0097570288926363,-0.009096471
2288.950000001534,-0.00010665011,-0.78401,0.00016338055,-2.35783,-0.001568171,1.572328,0.7865358,0.03999998,0.03999996,-9.793609,-0.01969996653497219,-0.008834213,0.0040379665,-0.009546695277094841,-0.009757829
2288.966666668201,-0.00013506437,-0.7839499,0.00017616172,-2.358,-0.0017405804,1.5724686,0.7865914,0.03999998,0.039999984,-9.792657,-0.021568119525909424,-0.009430515,0.004318076,-0.00931344460695982,-0.010449294
2288.983333334868,-0.00016540055,-0.7838869,0.00018980667,-2.3581817,-0.001924643,1.5726192,0.7866508,0.03999998,0.03999998,-9.79203,-0.02345290780067444,-0.010091664,0.004607107,-0.00907067209482193,-0.011154863
2289.0000000015348,-0.00019771741,-0.78382075,0.0002043419,-2.358373,-0.0021207144,1.5727797,0.786714,0.039999984,0.03999997,-9.791688,-0.025404375046491623,-0.010879133,0.0049040937,-0.008815275505185127,-0.01187858
2289.0166666682017,-0.0002320723,-0.7837511,0.00021979351,-2.3585773,-0.002329149,1.57295,0.78678125,0.039999984,0.039999973,-9.790562,-0.027685489505529404,-0.011554649,0.005209348,-0.00854108203202486,-0.012629562
2289.0333333348685,-0.00026852213,-0.7836779,0.00023618691,-2.3587916,-0.0025502888,1.573131,0.78685266,0.039999984,0.03999998,-9.790124,-0.02998143807053566,-0.012362124,0.005522021,-0.008262851275503635,-0.013401378
2289.0500000015354,-0.00030712268,-0.783601,0.00025354724,-2.3590193,-0.0027844713,1.5733225,0.78692824,0.039999984,0.039999988,-9.789536,-0.03231723606586456,-0.013322893,0.0058422196,-0.007963236421346664,-0.014193622
2289.0666666682023,-0.0003479286,-0.78352034,0.0002718991,-2.3592594,-0.0030320294,1.5735252,0.7870081,0.039999984,0.039999977,-9.788763,-0.034933414310216904,-0.014146923,0.0061696796,-0.007657917682081461,-0.015001795
2289.083333334869,-0.00039099337,-0.7834359,0.00029126657,-2.3595116,-0.0032932858,1.5737392,0.78709245,0.039999988,0.039999988,-9.788123,-0.037642303854227066,-0.015129576,0.0065043108,-0.00733995670452714,-0.015833898
2289.100000001536,-0.00043636977,-0.7833474,0.00031167307,-2.3597772,-0.0035685515,1.5739645,0.78718126,0.039999988,0.04,-9.787449,-0.040453679859638214,-0.016151538,0.00684525,-0.007008502259850502,-0.016684404
2289.116666668203,-0.00048410887,-0.78325474,0.00033314177,-2.3600564,-0.0038581346,1.5742016,0.7872747,0.03999999,0.04,-9.787186,-0.04332524910569191,-0.017331995,0.0071931756,-0.0066666388884186745,-0.017553046
2289.13333333487,-0.00053426105,-0.7831577,0.0003556953,-2.3603494,-0.0041623386,1.5744506,0.7873729,0.039999988,0.039999995,-9.786321,-0.04651840403676033,-0.01840282,0.0075471187,-0.006315837148576975,-0.018440213
2289.1500000015367,-0.00058687513,-0.78305626,0.00037935592,-2.3606572,-0.0044814786,1.5747119,0.7874759,0.039999984,0.039999995,-9.785791,-0.049776118248701096,-0.0196305,0.007906908,-0.00595691567286849,-0.019346278
2289.1666666682036,-0.00064199907,-0.7829507,0.00040414502,-2.3609788,-0.004815843,1.5749857,0.78758377,0.03999998,0.039999995,-9.785321,-0.053177736699581146,-0.020918805,0.008272383,-0.005591303110122681,-0.020269936
2289.1833333348704,-0.0006996795,-0.7828402,0.00043008383,-2.361315,-0.005165719,1.5752722,0.7876967,0.03999998,0.04,-9.785053,-0.05663757026195526,-0.022358632,0.008643081,-0.005212722346186638,-0.02121074
2289.2000000015373,-0.00075996225,-0.7827251,0.00045719274,-2.361666,-0.0055313837,1.5755718,0.78781474,0.039999977,0.04,-9.784181,-0.060443419963121414,-0.023698876,0.009018574,-0.004827054683119059,-0.022168292
2289.216666668204,-0.00082289195,-0.7826051,0.0004854918,-2.362032,-0.005913098,1.5758842,0.78793794,0.039999973,0.04,-9.783632,-0.0643051341176033,-0.025189161,0.009398949,-0.004430701490491629,-0.023142166
2289.233333334871,-0.00088851125,-0.7824803,0.00051500037,-2.3624134,-0.0063111223,1.57621,0.78806645,0.039999973,0.04,-9.783127,-0.06833206117153168,-0.026756827,0.00978348,-0.004027052782475948,-0.024131091
2289.250000001538,-0.0009568626,-0.7823501,0.0005457374,-2.3628106,-0.006725711,1.5765495,0.78820026,0.03999997,0.04,-9.783012,-0.07242424041032791,-0.028503794,0.010171987,-0.003615486668422818,-0.025136339
2289.266666668205,-0.0010279863,-0.7822155,0.0005777214,-2.3632238,-0.007157119,1.5769029,0.78833944,0.03999997,0.04,-9.782204,-0.0768786296248436,-0.03013361,0.010564568,-0.0031989701092243195,-0.026155723
2289.2833333348717,-0.0011019225,-0.78207535,0.0006109699,-2.3636527,-0.007605578,1.5772698,0.7884842,0.039999966,0.04,-9.78169,-0.08140887320041656,-0.031873457,0.010960716,-0.0027724276296794415,-0.027190592
2289.3000000015386,-0.0011787092,-0.7819298,0.00064550043,-2.3640983,-0.008071329,1.5776513,0.78863454,0.039999966,0.04,-9.781592,-0.08599812537431717,-0.033871032,0.011359167,-0.0023392539005726576,-0.0282387
2289.3166666682055,-0.001258384,-0.78177935,0.0006813296,-2.364561,-0.008554582,1.5780469,0.7887905,0.03999996,0.039999995,-9.780789,-0.09097225219011307,-0.03571553,0.011760843,-0.0019009611569344997,-0.02930058
2289.3333333348723,-0.0013409829,-0.7816235,0.00071847404,-2.3650403,-0.009055588,1.5784572,0.78895223,0.039999954,0.039999995,-9.780363,-0.09602978080511093,-0.037697576,0.012164965,-0.001456773024983704,-0.03037733
2289.3500000015392,-0.0014265407,-0.781462,0.00075694884,-2.3655367,-0.00957453,1.5788822,0.7891197,0.039999958,0.039999995,-9.779917,-0.10123960673809052,-0.03980264,0.0125710545,-0.001005483791232109,-0.03146436
2289.366666668206,-0.0015150909,-0.7812949,0.0007967696,-2.3660507,-0.010111615,1.5793221,0.78929293,0.039999958,0.04,-9.779896,-0.10654771327972412,-0.042108256,0.0129789235,-0.0005482279811985791,-0.032565523
2289.383333334873,-0.0016066663,-0.7811221,0.0008379508,-2.3665817,-0.010667048,1.579777,0.7894722,0.039999958,0.04,-9.77915,-0.11223521828651428,-0.04425189,0.013388681,-8.915167563827708e-05,-0.033677742
2289.40000000154,-0.0017012977,-0.78094375,0.0008805068,-2.36713,-0.011241012,1.580247,0.78965735,0.039999954,0.04,-9.778647,-0.11800878494977951,-0.046598423,0.013798932,0.00037763177533634007,-0.034802355
2289.4166666682067,-0.0017990158,-0.7807597,0.00092445104,-2.367697,-0.011833703,1.5807325,0.7898486,0.039999958,0.04,-9.778208,-0.12396390736103058,-0.04901677,0.014210319,0.0008509999024681747,-0.035937224
2289.4333333348736,-0.0018998489,-0.78057,0.0009697963,-2.3682814,-0.012445277,1.5812335,0.790046,0.039999958,0.04,-9.778355,-0.13000749051570892,-0.051635094,0.014621816,0.0013251749332994223,-0.037083533
2289.4500000015405,-0.0020038253,-0.7803743,0.0010165551,-2.368884,-0.013075892,1.5817499,0.79024947,0.039999954,0.04,-9.777415,-0.13644400238990784,-0.054098263,0.015033199,0.0018082333263009787,-0.038239263
2289.4666666682074,-0.0021109716,-0.78017265,0.00106474,-2.369505,-0.013725749,1.5822822,0.7904592,0.03999995,0.04,-9.777085,-0.1429802030324936,-0.056764543,0.015444558,0.002291556913405657,-0.039406415
2289.4833333348743,-0.002221313,-0.7799651,0.0011143619,-2.3701448,-0.014394998,1.5828302,0.79067516,0.039999947,0.04,-9.776625,-0.1497032195329666,-0.05952552,0.015854774,0.0027819720562547445,-0.04058283
2289.500000001541,-0.002334874,-0.77975166,0.0011654323,-2.3708029,-0.015083771,1.5833942,0.79089737,0.039999943,0.04,-9.776823,-0.15650741755962372,-0.062496852,0.016264318,0.0032716584391891956,-0.041767254
2289.516666668208,-0.0024516769,-0.7795321,0.0012179611,-2.3714797,-0.015792204,1.5839744,0.791126,0.03999994,0.04,-9.775904,-0.16372627019882202,-0.065285236,0.016672596,0.0037668817676603794,-0.042960167
2289.533333334875,-0.0025717446,-0.7793064,0.0012719582,-2.3721757,-0.016520435,1.5845705,0.79136103,0.03999994,0.04,-9.775526,-0.17103204131126404,-0.068303384,0.017078847,0.004265326075255871,-0.04416028
2289.550000001542,-0.0026950974,-0.7790746,0.0013274334,-2.3728907,-0.017268596,1.5851833,0.7916023,0.03999994,0.04,-9.775636,-0.17844916880130768,-0.07153378,0.017482884,0.0047656879760324955,-0.045369636
2289.5666666682087,-0.002821756,-0.77883667,0.0013843951,-2.3736246,-0.018036794,1.5858123,0.79185015,0.039999936,0.04,-9.774811,-0.18625912070274353,-0.07459719,0.017885594,0.005268702283501625,-0.046584535
2289.5833333348755,-0.002951737,-0.7785926,0.001442852,-2.3743777,-0.018825155,1.5864578,0.7921045,0.039999936,0.04,-9.774365,-0.1941770613193512,-0.07786723,0.018284803,0.005775857716798782,-0.047807027
2289.6000000015424,-0.0030850596,-0.7783421,0.0015028121,-2.3751504,-0.019633774,1.58712,0.7923654,0.039999932,0.04,-9.774013,-0.20229560136795044,-0.08121218,0.018681122,0.006284086965024471,-0.049035896
2289.6166666682093,-0.003221739,-0.7780853,0.0015642829,-2.3759425,-0.020462751,1.5877992,0.7926329,0.03999993,0.04,-9.774141,-0.21051684021949768,-0.08480423,0.019074107,0.006793987937271595,-0.05027074
2289.633333334876,-0.0033617916,-0.7778222,0.0016272708,-2.376754,-0.021312205,1.5884948,0.792907,0.039999936,0.04,-9.773252,-0.2191549837589264,-0.08821733,0.019462658,0.00730649009346962,-0.051511794
2289.650000001543,-0.00350523,-0.7775527,0.0016917824,-2.3775854,-0.022182178,1.5892074,0.79318774,0.039999936,0.04,-9.772883,-0.22788096964359283,-0.09183552,0.019847434,0.007819256745278835,-0.05275628
2289.66666666821,-0.003652069,-0.777277,0.001757823,-2.3784363,-0.023072766,1.5899367,0.7934751,0.039999925,0.04,-9.772517,-0.2368350327014923,-0.09554803,0.020227684,0.008333242498338223,-0.054007225
2289.683333334877,-0.00380232,-0.7769948,0.0018253993,-2.3793073,-0.02398405,1.5906835,0.7937692,0.03999992,0.04,-9.772573,-0.24588236212730408,-0.09946543,0.020603366,0.008849364705383778,-0.05526153
2289.7000000015437,-0.003955993,-0.7767063,0.0018945156,-2.3801975,-0.024916103,1.5914469,0.79406995,0.039999917,0.04,-9.771706,-0.2553454637527466,-0.10323282,0.0209736,0.009366781450808048,-0.056519665
2289.7166666682106,-0.0041130995,-0.77641124,0.0019651768,-2.3811073,-0.02586899,1.5922272,0.7943774,0.03999991,0.04,-9.771246,-0.2649194002151489,-0.107196935,0.021338569,0.009885678999125957,-0.057782058
2289.7333333348774,-0.004273647,-0.7761097,0.002037386,-2.3820376,-0.026842738,1.593025,0.7946917,0.03999991,0.04,-9.770794,-0.27469947934150696,-0.11125305,0.021697858,0.010405980981886387,-0.05904666
2289.7500000015443,-0.004437644,-0.77580196,0.0021111479,-2.382988,-0.027837407,1.5938395,0.7950126,0.03999991,0.04,-9.770944,-0.28460419178009033,-0.11552486,0.022050552,0.010925013571977615,-0.060313884
2289.766666668211,-0.0046050963,-0.7754875,0.0021864648,-2.3839576,-0.028853027,1.5946711,0.7953403,0.039999902,0.04,-9.769992,-0.29490500688552856,-0.11961096,0.02239741,0.011444104835391045,-0.06158421
2289.783333334878,-0.0047760103,-0.77516663,0.0022633383,-2.3849478,-0.029889653,1.59552,0.79567486,0.0399999,0.04,-9.769479,-0.30531978607177734,-0.12395491,0.02273743,0.011964498087763786,-0.06285559
2289.800000001545,-0.0049503907,-0.77483934,0.0023417722,-2.385958,-0.0309473,1.5963864,0.7960162,0.0399999,0.04,-9.769592,-0.31586524844169617,-0.12846942,0.023070188,0.012483219616115093,-0.06412829
2289.816666668212,-0.0051282397,-0.77450544,0.0024217672,-2.3869882,-0.032025997,1.5972698,0.7963643,0.03999989,0.04,-9.768612,-0.3268088698387146,-0.13284034,0.023395495,0.013002868741750717,-0.06540379
2289.8333333348787,-0.0053095627,-0.77416503,0.0025033252,-2.3880382,-0.03312576,1.5981703,0.79671925,0.039999884,0.04,-9.76811,-0.3378663957118988,-0.13740954,0.023713367,0.013521024025976658,-0.06667898
2289.8500000015456,-0.0054943585,-0.77381814,0.0025864472,-2.389109,-0.03424659,1.5990883,0.7970809,0.03999988,0.04,-9.767563,-0.3491274118423462,-0.14207006,0.024023095,0.014040648005902767,-0.067952804
2289.8666666682125,-0.0056826323,-0.77346474,0.0026711326,-2.3902001,-0.035388507,1.6000235,0.79744923,0.039999872,0.04,-9.7676735,-0.3605504333972931,-0.1469443,0.024325456,0.014556276611983776,-0.06922815
2289.8833333348794,-0.005874378,-0.77310485,0.0027573823,-2.391311,-0.03655151,1.6009761,0.7978245,0.039999872,0.04,-9.766695,-0.3723282516002655,-0.15164866,0.024619449,0.015068350359797478,-0.070502065
2289.9000000015462,-0.006069598,-0.7727382,0.002845195,-2.3924417,-0.03773557,1.6019461,0.79820657,0.03999987,0.04,-9.766041,-0.3842507302761078,-0.15657143,0.024904087,0.015583614818751812,-0.07177675
2289.916666668213,-0.0062682875,-0.77236533,0.0029345697,-2.3935928,-0.03894069,1.6029327,0.7985954,0.03999986,0.04,-9.765514,-0.3963738679885864,-0.16159394,0.0251797,0.016096781939268112,-0.07304858
2289.93333333488,-0.006470444,-0.7719859,0.003025505,-2.3947635,-0.04016685,1.6039371,0.79899114,0.039999858,0.04,-9.765439,-0.40864914655685425,-0.1667503,0.02544583,0.01660614088177681,-0.07431941
2289.950000001547,-0.0066760667,-0.77160007,0.0031179998,-2.3959548,-0.041414015,1.6049588,0.79939365,0.039999858,0.04,-9.76426,-0.42127689719200134,-0.17183962,0.025702134,0.017118975520133972,-0.07558831
2289.9666666682137,-0.006885148,-0.7712076,0.0032120512,-2.3971663,-0.04268216,1.6059974,0.7998029,0.039999854,0.04,-9.763735,-0.43404945731163025,-0.17705329,0.025948726,0.01762622781097889,-0.07685394
2289.9833333348806,-0.0070976797,-0.7708087,0.0033076564,-2.398397,-0.04397126,1.6070533,0.80021894,0.03999984,0.04,-9.763103,-0.44704893231391907,-0.18240172,0.026185349,0.01813017576932907,-0.078119256
2290.0000000015475,-0.007313658,-0.7704031,0.0034048134,-2.3996484,-0.04528125,1.6081264,0.8006417,0.039999843,0.04,-9.762868,-0.4601636826992035,-0.18791275,0.02641121,0.018635567277669907,-0.07937801
2290.0166666682144,-0.007533074,-0.76999116,0.0035035184,-2.4009197,-0.046612117,1.6092163,0.8010711,0.03999983,0.04,-9.761783,-0.4736582636833191,-0.19331582,0.026627045,0.01913396641612053,-0.08063655
2290.0333333348813,-0.0077559194,-0.769573,0.0036037676,-2.4022105,-0.0479638,1.6103235,0.80150735,0.039999828,0.04,-9.761047,-0.4872816205024719,-0.1988764,0.02683213,0.01963031478226185,-0.08189115
2290.050000001548,-0.007982184,-0.7691484,0.0037055556,-2.403521,-0.04933621,1.6114476,0.80195034,0.03999983,0.04,-9.760767,-0.5010568499565125,-0.20461713,0.027025761,0.020126277580857277,-0.083141625
2290.066666668215,-0.008211858,-0.7687174,0.0038088788,-2.4048522,-0.050729323,1.6125884,0.80239993,0.03999983,0.04,-9.759499,-0.5151749849319458,-0.21024023,0.027207779,0.020619073882699013,-0.084390976
2290.083333334882,-0.0084449295,-0.7682798,0.003913732,-2.406202,-0.052143056,1.6137463,0.8028562,0.039999824,0.04,-9.758796,-0.529400646686554,-0.21604502,0.027378835,0.021105270832777023,-0.08562986
2290.100000001549,-0.0086813895,-0.76783603,0.00402011,-2.4075718,-0.05357732,1.6149207,0.803319,0.039999824,0.04,-9.757909,-0.5438575744628906,-0.22195269,0.027538223,0.02159031294286251,-0.08686264
2290.1166666682157,-0.008921221,-0.76738596,0.0041280054,-2.4089606,-0.055032022,1.6161121,0.8037884,0.039999817,0.04,-9.75755,-0.5584893822669983,-0.22797838,0.027686004,0.022071171551942825,-0.08809057
2290.1333333348825,-0.009164411,-0.76692945,0.004237413,-2.4103692,-0.056507118,1.6173203,0.8042644,0.03999981,0.04,-9.756096,-0.5734128355979919,-0.23393014,0.027821276,0.022552164271473885,-0.08931336
2290.1500000015494,-0.009410946,-0.7664668,0.0043483265,-2.4117973,-0.058002498,1.618545,0.804747,0.039999805,0.04,-9.755273,-0.5884945392608643,-0.2400352,0.02794477,0.02302641235291958,-0.09052882
2290.1666666682163,-0.009660807,-0.7659979,0.004460738,-2.4132447,-0.05951807,1.6197863,0.80523604,0.039999798,0.04,-9.754293,-0.6037830114364624,-0.24621366,0.028055612,0.023497996851801872,-0.091737576
2290.183333334883,-0.009913985,-0.7655226,0.0045746416,-2.414712,-0.061053738,1.6210439,0.80573165,0.039999787,0.04,-9.753845,-0.6192492246627808,-0.25254244,0.028154155,0.02396329678595066,-0.09293926
2290.20000000155,-0.010170454,-0.76504123,0.004690032,-2.4161975,-0.06260943,1.6223181,0.8062335,0.03999978,0.04,-9.752438,-0.6349874138832092,-0.25879762,0.02823998,0.02442069724202156,-0.094134174
2290.216666668217,-0.010430203,-0.76455384,0.004806897,-2.4177027,-0.064184986,1.6236086,0.80674195,0.039999776,0.04,-9.751229,-0.6508705615997314,-0.265205,0.028313233,0.02488044463098049,-0.09532047
2290.233333334884,-0.010693209,-0.7640601,0.0049252287,-2.4192264,-0.06578031,1.6249151,0.80725676,0.03999977,0.04,-9.750242,-0.6669769287109375,-0.2716611,0.0283733,0.025331299751996994,-0.09649865
2290.2500000015507,-0.010959456,-0.7635604,0.00504502,-2.4207692,-0.06739531,1.6262378,0.8077779,0.03999976,0.04,-9.7495775,-0.6832691431045532,-0.27828693,0.028420242,0.025777556002140045,-0.0976701
2290.2666666682176,-0.01122892,-0.76305485,0.005166261,-2.42233,-0.069029845,1.6275766,0.8083054,0.039999753,0.04,-9.747948,-0.6997706890106201,-0.28480133,0.028453784,0.026218587532639503,-0.098830886
2290.2833333348844,-0.0115015805,-0.7625431,0.005288942,-2.4239094,-0.070683755,1.628931,0.808839,0.039999742,0.04,-9.74661,-0.7164533138275146,-0.2914756,0.028473498,0.026660053059458733,-0.099983625
2290.3000000015513,-0.0117774205,-0.7620255,0.0054130536,-2.425507,-0.07235698,1.6303012,0.80937904,0.039999735,0.04,-9.745901,-0.7333430647850037,-0.2982863,0.028480493,0.027092352509498596,-0.101126894
2290.316666668218,-0.012056414,-0.7615018,0.0055385856,-2.4271243,-0.074049346,1.6316873,0.80992526,0.039999723,0.04,-9.744067,-0.7504215240478516,-0.30502167,0.028472984,0.027521712705492973,-0.102261096
2290.333333334885,-0.012338537,-0.76097226,0.0056655286,-2.4287581,-0.07576071,1.6330888,0.81047744,0.03999972,0.04,-9.742919,-0.7676925659179688,-0.31188878,0.028452389,0.027939120307564735,-0.10338334
2290.350000001552,-0.012623765,-0.76043683,0.0057938714,-2.4304106,-0.07749093,1.6345057,0.8110358,0.039999716,0.04,-9.741343,-0.7851405739784241,-0.31884557,0.028418122,0.028358036652207375,-0.104496166
2290.366666668219,-0.012912076,-0.7598958,0.005923604,-2.432081,-0.07923986,1.6359384,0.81160015,0.03999971,0.04,-9.740449,-0.8027938008308411,-0.32588574,0.028369667,0.02876797504723072,-0.105596416
2290.3833333348857,-0.013203446,-0.759349,0.006054714,-2.4337692,-0.08100734,1.6373866,0.81217057,0.039999694,0.04,-9.738489,-0.8206382393836975,-0.33288756,0.028307686,0.02917499840259552,-0.106689245
2290.4000000015526,-0.013497845,-0.7587965,0.0061871894,-2.4354749,-0.0827932,1.6388502,0.8127468,0.039999686,0.04,-9.736964,-0.8386361598968506,-0.34001708,0.028231425,0.029576824977993965,-0.10776811
2290.4166666682195,-0.013795252,-0.75823843,0.006321017,-2.4371977,-0.0845973,1.640327,0.8133289,0.03999967,0.04,-9.735376,-0.856836199760437,-0.34719834,0.028141428,0.029974669218063354,-0.10883635
2290.4333333348864,-0.014095633,-0.75767475,0.0064561856,-2.438938,-0.08641947,1.6418182,0.81391686,0.03999966,0.04,-9.734186,-0.8752355575561523,-0.35442352,0.028037775,0.030359575524926186,-0.109893225
2290.4500000015532,-0.014398961,-0.7571056,0.0065926844,-2.4406953,-0.08825955,1.6433246,0.81451064,0.03999966,0.04,-9.732087,-0.8937633037567139,-0.3616744,0.027920237,0.030736245214939117,-0.110936806
2290.46666666822,-0.014705209,-0.7565309,0.0067305,-2.4424696,-0.09011733,1.6448463,0.81511027,0.03999965,0.04,-9.730371,-0.9124933481216431,-0.36903957,0.027788091,0.031108353286981583,-0.111968115
2290.483333334887,-0.015014346,-0.75595075,0.0068696174,-2.4442601,-0.09199269,1.6463821,0.8157155,0.039999638,0.04,-9.728547,-0.9313971996307373,-0.3764722,0.02764128,0.03147774562239647,-0.1129867
2290.500000001554,-0.015326345,-0.75536525,0.007010023,-2.446067,-0.093885414,1.6479323,0.81632614,0.039999634,0.04,-9.727072,-0.9505002498626709,-0.38395932,0.027480602,0.031841471791267395,-0.11399196
2290.5166666682208,-0.015641177,-0.75477463,0.007151706,-2.447891,-0.09579531,1.6494968,0.81694233,0.039999615,0.04,-9.724702,-0.9697030782699585,-0.39145133,0.02730666,0.032200977206230164,-0.11498487
2290.5333333348876,-0.015958806,-0.75417864,0.0072946507,-2.4497316,-0.09772222,1.6510746,0.8175641,0.039999608,0.04,-9.722834,-0.9891123175621033,-0.39899445,0.02711886,0.03255203738808632,-0.115963176
2290.5500000015545,-0.01627921,-0.7535774,0.0074388417,-2.451588,-0.099665895,1.6526666,0.81819123,0.0399996,0.04,-9.721296,-1.0087331533432007,-0.40662566,0.026916789,0.03289153799414635,-0.11692639
2290.5666666682214,-0.016602345,-0.7529711,0.007584265,-2.45346,-0.101626195,1.6542722,0.81882375,0.03999959,0.04,-9.718757,-1.0284255743026733,-0.4142989,0.026700955,0.03322736173868179,-0.11787838
2290.5833333348883,-0.016928183,-0.75235975,0.0077309078,-2.4553475,-0.10360288,1.6558908,0.81946164,0.039999582,0.04,-9.716616,-1.048292636871338,-0.42200276,0.026470702,0.033556804060935974,-0.118813135
2290.600000001555,-0.017256686,-0.7517434,0.007878754,-2.4572508,-0.10559578,1.6575233,0.8201048,0.03999956,0.04,-9.71443,-1.068352222442627,-0.42975125,0.02622656,0.03387779742479324,-0.119735934
2290.616666668222,-0.017587828,-0.751122,0.00802779,-2.4591691,-0.10760471,1.6591682,0.820753,0.03999955,0.04,-9.7125435,-1.0886046886444092,-0.4375914,0.025968239,0.03419402986764908,-0.12064264
2290.633333334889,-0.017921565,-0.750496,0.0081779985,-2.4611025,-0.10962944,1.6608263,0.82140636,0.039999545,0.04,-9.709875,-1.1088813543319702,-0.44543168,0.025697099,0.03449934720993042,-0.12153212
2290.650000001556,-0.018257868,-0.74986494,0.008329362,-2.4630506,-0.11166971,1.6624972,0.8220647,0.03999953,0.04,-9.707445,-1.1293814182281494,-0.45332837,0.025411637,0.03480064123868942,-0.12240811
2290.6666666682227,-0.0185967,-0.74922913,0.008481865,-2.4650135,-0.11372536,1.6641809,0.82272804,0.039999522,0.04,-9.704996,-1.1500221490859985,-0.46129063,0.025112743,0.03509455919265747,-0.12326926
2290.6833333348895,-0.018938022,-0.74858874,0.00863549,-2.4669912,-0.115796134,1.6658769,0.82339615,0.03999951,0.04,-9.702888,-1.17086923122406,-0.46927255,0.024800438,0.03538079932332039,-0.124111734
2290.7000000015564,-0.019281806,-0.7479437,0.008790228,-2.4689827,-0.117881835,1.6675849,0.8240691,0.039999492,0.04,-9.699965,-1.1917327642440796,-0.47729504,0.024475258,0.03565850481390953,-0.12494139
2290.7166666682233,-0.019628,-0.74729407,0.008946055,-2.4709888,-0.11998224,1.6693051,0.82474685,0.039999485,0.04,-9.697302,-1.212764859199524,-0.48537713,0.024136832,0.035929009318351746,-0.125752
2290.73333333489,-0.019976577,-0.7466402,0.009102956,-2.4730082,-0.12209709,1.6710372,0.82542926,0.039999478,0.04,-9.694674,-1.233957290649414,-0.49348456,0.02378535,0.03618958592414856,-0.12654497
2290.750000001557,-0.0203275,-0.74598175,0.009260916,-2.4750412,-0.124226205,1.672781,0.82611626,0.03999946,0.04,-9.692151,-1.255374789237976,-0.501617,0.023420352,0.03644606098532677,-0.12732577
2290.766666668224,-0.02068072,-0.74531907,0.009419916,-2.4770877,-0.12636925,1.6745362,0.8268076,0.039999444,0.04,-9.688985,-1.2767051458358765,-0.5098318,0.023042899,0.03669421747326851,-0.12808543
2290.783333334891,-0.021036213,-0.7446523,0.009579937,-2.4791474,-0.12852614,1.6763026,0.8275037,0.039999437,0.04,-9.686102,-1.298265814781189,-0.51804394,0.022653487,0.03693387284874916,-0.12882723
2290.8000000015577,-0.021393929,-0.7439812,0.0097409645,-2.4812198,-0.13069652,1.6780801,0.82820404,0.03999942,0.04,-9.683446,-1.3200796842575073,-0.5262681,0.022250136,0.03716544434428215,-0.1295567
2290.8166666682246,-0.021753829,-0.743306,0.009902976,-2.483305,-0.1328802,1.6798687,0.8289085,0.039999407,0.04,-9.680045,-1.3417538404464722,-0.5346034,0.021834917,0.03738989681005478,-0.13026409
2290.8333333348914,-0.022115873,-0.7426267,0.010065955,-2.4854028,-0.13507684,1.6816679,0.8296177,0.039999407,0.04,-9.676979,-1.3636670112609863,-0.5429392,0.021408474,0.03760601207613945,-0.1309524
2290.8500000015583,-0.022480022,-0.7419436,0.01022988,-2.487512,-0.13728628,1.6834773,0.8303308,0.039999392,0.04,-9.673781,-1.3857014179229736,-0.551298,0.020967772,0.03781374916434288,-0.1316249
2290.866666668225,-0.02284623,-0.7412567,0.010394739,-2.4896336,-0.13950823,1.6852968,0.83104783,0.039999377,0.04,-9.670746,-1.4079376459121704,-0.55965185,0.020515837,0.03801506385207176,-0.13228081
2290.883333334892,-0.023214458,-0.74056596,0.010560509,-2.4917674,-0.14174247,1.6871265,0.8317687,0.03999937,0.04,-9.66712,-1.4300358295440674,-0.56810015,0.020052811,0.03820791840553284,-0.13291462
2290.900000001559,-0.02358467,-0.7398715,0.010727171,-2.493912,-0.14398876,1.6889662,0.83249336,0.039999355,0.04,-9.663852,-1.452399730682373,-0.5765579,0.019579824,0.03838853910565376,-0.13353159
2290.916666668226,-0.023956815,-0.7391734,0.01089471,-2.496068,-0.14624678,1.6908151,0.8332219,0.039999336,0.04,-9.660244,-1.4748132228851318,-0.58505833,0.019095194,0.0385662317276001,-0.13413064
2290.9333333348927,-0.02433086,-0.73847175,0.0110631045,-2.4982347,-0.14851631,1.6926739,0.8339542,0.03999932,0.04,-9.656992,-1.497459888458252,-0.59351337,0.018599309,0.03873339295387268,-0.13471083
2290.9500000015596,-0.024706744,-0.7377667,0.011232333,-2.5004125,-0.1507971,1.6945415,0.8346903,0.039999317,0.04,-9.65311,-1.519938349723816,-0.6021101,0.018092854,0.03889351338148117,-0.13527076
2290.9666666682265,-0.025084434,-0.73705816,0.011402378,-2.502601,-0.15308887,1.6964185,0.8354301,0.039999295,0.04,-9.649417,-1.5426383018493652,-0.610664,0.01757508,0.039043694734573364,-0.13581267
2290.9833333348934,-0.025463887,-0.7363464,0.011573219,-2.5047991,-0.15539135,1.698304,0.83617276,0.039999276,0.04,-9.645692,-1.5654140710830688,-0.61927587,0.01704655,0.039186254143714905,-0.13633412
2291.0000000015602,-0.02584506,-0.7356314,0.011744837,-2.5070078,-0.1577043,1.7001979,0.8369189,0.03999926,0.04,-9.642022,-1.5883839130401611,-0.6278262,0.016510213,0.03932271897792816,-0.13683501
2291.016666668227,-0.026227899,-0.7349133,0.011917209,-2.509226,-0.16002741,1.7021006,0.8376685,0.039999247,0.04,-9.637983,-1.6112021207809448,-0.6365151,0.015964776,0.039445195347070694,-0.13731784
2291.033333334894,-0.026612366,-0.7341921,0.012090316,-2.5114534,-0.16236037,1.7040113,0.838421,0.039999228,0.04,-9.633926,-1.634198784828186,-0.64520556,0.0154086,0.039563655853271484,-0.13778205
2291.050000001561,-0.026998412,-0.73346806,0.01226414,-2.51369,-0.16470298,1.7059298,0.83917683,0.039999213,0.04,-9.630038,-1.657390832901001,-0.6538268,0.01484415,0.039675578474998474,-0.13822587
2291.0666666682278,-0.027385999,-0.7327411,0.012438659,-2.5159361,-0.1670549,1.7078557,0.83993566,0.03999921,0.04,-9.625716,-1.6803627014160156,-0.6625785,0.014269891,0.03977746516466141,-0.13864647
2291.0833333348946,-0.027775066,-0.7320115,0.012613849,-2.5181909,-0.16941597,1.709789,0.8406973,0.03999919,0.04,-9.6215925,-1.703581690788269,-0.6712994,0.013687754,0.03986787423491478,-0.13905087
2291.1000000015615,-0.02816558,-0.731279,0.0127896955,-2.5204537,-0.17178582,1.7117298,0.8414619,0.039999176,0.04,-9.617284,-1.7268134355545044,-0.68004227,0.013097581,0.03995048999786377,-0.1394347
2291.1166666682284,-0.028557492,-0.7305442,0.012966177,-2.5227244,-0.17416413,1.7136773,0.84222925,0.039999165,0.04,-9.613126,-1.7502455711364746,-0.6887505,0.012498937,0.040025848895311356,-0.13979551
2291.1333333348953,-0.028950758,-0.7298065,0.013143271,-2.525003,-0.17655063,1.7156316,0.84299916,0.03999915,0.04,-9.608412,-1.7734148502349854,-0.6975951,0.011891975,0.04009539261460304,-0.14013618
2291.150000001562,-0.029345326,-0.72906643,0.01332095,-2.527289,-0.1789451,1.7175926,0.84377164,0.039999127,0.04,-9.603957,-1.7968244552612305,-0.70641446,0.011278398,0.04015505313873291,-0.14045927
2291.166666668229,-0.029741148,-0.7283242,0.013499196,-2.5295823,-0.18134719,1.7195597,0.8445467,0.039999105,0.04,-9.599356,-1.8202427625656128,-0.7152339,0.010657332,0.04020782187581062,-0.14076181
2291.183333334896,-0.030138185,-0.72757965,0.01367799,-2.5318828,-0.18375671,1.7215326,0.8453241,0.039999105,0.04,-9.594891,-1.8438612222671509,-0.7239526,0.010029287,0.04025150462985039,-0.14104277
2291.200000001563,-0.030536376,-0.72683287,0.013857311,-2.5341902,-0.18617325,1.7235115,0.8461037,0.03999909,0.04,-9.590018,-1.8671767711639404,-0.73288023,0.009394762,0.040285952389240265,-0.1413011
2291.2166666682297,-0.030935675,-0.72608393,0.014037135,-2.5365043,-0.18859655,1.7254957,0.8468855,0.03999907,0.04,-9.585242,-1.890714406967163,-0.741751,0.008754629,0.04031188786029816,-0.14154069
2291.2333333348965,-0.031336036,-0.72533315,0.014217442,-2.538824,-0.1910263,1.7274852,0.8476693,0.03999905,0.04,-9.580399,-1.91426420211792,-0.7506189,0.008108891,0.04032832011580467,-0.14175956
2291.2500000015634,-0.03173741,-0.72458035,0.014398208,-2.5411496,-0.1934623,1.7294801,0.848455,0.039999034,0.04,-9.575566,-1.9380030632019043,-0.75940853,0.0074580675,0.040337543934583664,-0.14195971
2291.2666666682303,-0.03213976,-0.7238259,0.014579415,-2.5434809,-0.19590415,1.7314799,0.8492428,0.03999903,0.04,-9.57037,-1.9613802433013916,-0.76842934,0.0068020285,0.0403423085808754,-0.14213523
2291.283333334897,-0.032543026,-0.72306955,0.014761036,-2.5458176,-0.19835164,1.7334839,0.8500324,0.039999016,0.04,-9.565318,-1.9849896430969238,-0.77731246,0.0061401,0.0403379462659359,-0.14229123
2291.300000001564,-0.032947153,-0.7223117,0.014943054,-2.5481586,-0.20080441,1.7354925,0.8508235,0.039998986,0.04,-9.560336,-2.0087859630584717,-0.78612065,0.005474614,0.04032231494784355,-0.14242896
2291.316666668231,-0.033352107,-0.72155225,0.015125448,-2.550505,-0.20326218,1.7375051,0.8516164,0.039998975,0.04,-9.55487,-2.032184362411499,-0.7951658,0.004804535,0.040304601192474365,-0.14254388
2291.333333334898,-0.03375783,-0.72079164,0.0153081855,-2.5528562,-0.20572461,1.7395215,0.85241085,0.03999896,0.04,-9.549651,-2.0558013916015625,-0.8040849,0.0041307933,0.04027632251381874,-0.1426363
2291.3500000015647,-0.034164272,-0.7200295,0.015491254,-2.5552108,-0.20819147,1.7415413,0.8532068,0.039998952,0.04,-9.544375,-2.0794248580932617,-0.8129942,0.003453563,0.040237486362457275,-0.14270893
2291.3666666682316,-0.034571383,-0.71926606,0.015674626,-2.5575697,-0.21066245,1.7435646,0.85400397,0.03999893,0.04,-9.538921,-2.10318922996521,-0.8218624,0.0027721128,0.040193941444158554,-0.14276275
2291.3833333348985,-0.034979116,-0.7185016,0.015858283,-2.559932,-0.21313722,1.745591,0.8548023,0.039998915,0.04,-9.533381,-2.1266019344329834,-0.8309221,0.0020888674,0.040141962468624115,-0.14279452
2291.4000000015653,-0.035387415,-0.71773607,0.016042203,-2.5622983,-0.21561548,1.7476203,0.85560185,0.039998896,0.04,-9.52781,-2.150167465209961,-0.8398669,0.0014031271,0.04008324816823006,-0.14280486
2291.416666668232,-0.035796236,-0.7169695,0.016226357,-2.5646667,-0.21809696,1.7496524,0.8564025,0.039998878,0.04,-9.522287,-2.1737568378448486,-0.84881836,0.0007158874,0.04001307114958763,-0.14279626
2291.433333334899,-0.03620552,-0.716202,0.016410727,-2.5670385,-0.22058128,1.7516867,0.85720396,0.039998863,0.04,-9.516546,-2.197443723678589,-0.85769004,2.5705613e-05,0.03994007408618927,-0.14276622
2291.450000001566,-0.036615234,-0.7154338,0.016595291,-2.5694127,-0.22306821,1.7537233,0.85800636,0.039998844,0.04,-9.510812,-2.220792531967163,-0.8667657,-0.0006644477,0.039856549352407455,-0.14271651
2291.466666668233,-0.037025325,-0.7146651,0.016780028,-2.5717883,-0.2255574,1.7557615,0.8588094,0.039998833,0.04,-9.504992,-2.2442514896392822,-0.8757377,-0.0013562599,0.03976651653647423,-0.14264323
2291.4833333348997,-0.037435737,-0.7138956,0.016964912,-2.5741663,-0.22804858,1.7578014,0.8596131,0.039998807,0.04,-9.498997,-2.267683744430542,-0.88470167,-0.0020492906,0.039672981947660446,-0.14255276
2291.5000000015666,-0.037846405,-0.71312565,0.017149922,-2.5765462,-0.23054145,1.7598426,0.8604174,0.039998796,0.04,-9.493191,-2.291285514831543,-0.89355457,-0.0027416747,0.039568476378917694,-0.14243974
2291.5166666682335,-0.03825731,-0.7123554,0.017335033,-2.5789275,-0.23303567,1.7618847,0.861222,0.03999878,0.04,-9.487229,-2.314483642578125,-0.902633,-0.0034337249,0.03945481777191162,-0.1423061
2291.5333333349004,-0.038668368,-0.7115848,0.017520228,-2.581309,-0.23553091,1.763928,0.86202693,0.03999876,0.04,-9.481171,-2.3378169536590576,-0.91159964,-0.004125042,0.03933314234018326,-0.14215522
2291.5500000015672,-0.039079558,-0.71081406,0.01770548,-2.5836911,-0.23802696,1.7659719,0.8628322,0.03999874,0.04,-9.474968,-2.361241102218628,-0.9204706,-0.004815742,0.03920939937233925,-0.14198145
2291.566666668234,-0.039490815,-0.710043,0.017890766,-2.586074,-0.24052344,1.7680161,0.86363757,0.039998725,0.04,-9.468773,-2.384272575378418,-0.9295586,-0.005506319,0.039079729467630386,-0.14178766
2291.583333334901,-0.039902072,-0.7092719,0.018076068,-2.588457,-0.24302003,1.7700604,0.864443,0.039998706,0.04,-9.462647,-2.4074747562408447,-0.9385138,-0.0061942325,0.03893931955099106,-0.14157557
2291.600000001568,-0.040313307,-0.708501,0.018261354,-2.5908399,-0.24551646,1.7721046,0.86524826,0.03999869,0.04,-9.456372,-2.4305787086486816,-0.9474791,-0.0068802643,0.03879173845052719,-0.14134286
2291.6166666682348,-0.04072446,-0.70773023,0.018446606,-2.5932224,-0.24801241,1.7741483,0.86605346,0.039998677,0.04,-9.449953,-2.4537813663482666,-0.9563215,-0.0075639766,0.03864008188247681,-0.14108938
2291.6333333349016,-0.04113548,-0.70695966,0.018631801,-2.595604,-0.25050756,1.7761916,0.86685854,0.03999865,0.04,-9.443667,-2.4766011238098145,-0.96538603,-0.008244898,0.03847891464829445,-0.14081833
2291.6500000015685,-0.041546308,-0.7061894,0.01881692,-2.5979846,-0.25300166,1.7782339,0.86766315,0.039998643,0.04,-9.437231,-2.4995007514953613,-0.9743463,-0.008923487,0.03831259533762932,-0.14052476
2291.6666666682354,-0.041956898,-0.7054198,0.019001933,-2.600364,-0.25549433,1.7802747,0.8684673,0.039998617,0.04,-9.430746,-2.522357940673828,-0.98328745,-0.0095982,0.03813926503062248,-0.14021601
2291.6833333349023,-0.042367212,-0.70465076,0.019186826,-2.6027412,-0.25798532,1.7823144,0.8692709,0.039998602,0.04,-9.424199,-2.545290946960449,-0.99207866,-0.010268658,0.037957653403282166,-0.13988581
2291.700000001569,-0.04277718,-0.7038822,0.019371567,-2.6051164,-0.2604743,1.7843524,0.87007385,0.039998587,0.04,-9.417582,-2.567768096923828,-1.0011514,-0.010936406,0.03777395561337471,-0.1395365
2291.716666668236,-0.04318677,-0.70311433,0.019556139,-2.60749,-0.26296097,1.7863885,0.870876,0.03999857,0.04,-9.410972,-2.590362548828125,-1.0100853,-0.0115993535,0.03758392110466957,-0.13916756
2291.733333334903,-0.043595918,-0.7023476,0.019740516,-2.6098614,-0.2654451,1.7884226,0.87167746,0.03999855,0.04,-9.404443,-2.6129190921783447,-1.0189735,-0.012256528,0.03738255053758621,-0.1387827
2291.75000000157,-0.044004574,-0.7015815,0.01992468,-2.6122296,-0.26792634,1.7904543,0.8724778,0.03999854,0.04,-9.397597,-2.6354730129241943,-1.0277438,-0.012909287,0.037178002297878265,-0.13837387
2291.7666666682367,-0.0444127,-0.7008166,0.020108603,-2.6145945,-0.2704043,1.7924832,0.8732773,0.039998516,0.04,-9.39094,-2.6576547622680664,-1.0367869,-0.013555913,0.03696780279278755,-0.13795166
2291.7833333349035,-0.044820234,-0.70005256,0.020292263,-2.6169555,-0.27287868,1.7945093,0.8740754,0.039998498,0.04,-9.384142,-2.6798644065856934,-1.0456558,-0.014197932,0.036751605570316315,-0.13750823
2291.8000000015704,-0.04522714,-0.6992901,0.020475645,-2.6193135,-0.27534923,1.796532,0.87487245,0.039998487,0.04,-9.377153,-2.7021543979644775,-1.0544195,-0.014833118,0.036531634628772736,-0.13704742
2291.8166666682373,-0.045633357,-0.6985287,0.020658722,-2.6216676,-0.27781558,1.7985517,0.8756681,0.039998468,0.04,-9.370453,-2.7240278720855713,-1.0633694,-0.015462384,0.03630419075489044,-0.1365691
2291.833333334904,-0.04603883,-0.6977687,0.020841468,-2.6240175,-0.2802776,1.8005675,0.8764622,0.039998446,0.04,-9.363604,-2.745971441268921,-1.0722263,-0.016084546,0.0360710434615612,-0.13607486
2291.850000001571,-0.046443522,-0.6970104,0.02102387,-2.6263623,-0.28273487,1.8025795,0.87725484,0.03999844,0.04,-9.356682,-2.7677764892578125,-1.0810566,-0.016698599,0.03583139553666115,-0.13556044
2291.866666668238,-0.046847384,-0.69625354,0.021205893,-2.6287029,-0.28518713,1.8045875,0.878046,0.03999842,0.04,-9.349497,-2.7896244525909424,-1.0897483,-0.017306723,0.03558965027332306,-0.13503003
2291.883333334905,-0.047250364,-0.6954983,0.021387523,-2.6310377,-0.28763413,1.8065907,0.8788354,0.039998397,0.04,-9.342732,-2.811075210571289,-1.0986664,-0.017906817,0.035340722650289536,-0.13448247
2291.9000000015717,-0.047652405,-0.69474477,0.02156874,-2.6333673,-0.29007536,1.8085896,0.87962294,0.039998375,0.04,-9.33568,-2.832538366317749,-1.1074548,-0.0184995,0.035086192190647125,-0.1339184
2291.9166666682386,-0.04805346,-0.6939931,0.021749519,-2.6356912,-0.29251066,1.8105835,0.88040864,0.03999836,0.04,-9.328638,-2.853886604309082,-1.1162325,-0.019083701,0.03482774645090103,-0.13333644
2291.9333333349055,-0.048453487,-0.69324356,0.021929827,-2.6380095,-0.2949398,1.812572,0.8811922,0.039998345,0.04,-9.321376,-2.8752810955047607,-1.1248635,-0.019659612,0.03456466272473335,-0.13274029
2291.9500000015723,-0.048852436,-0.69249594,0.02210966,-2.640321,-0.29736236,1.8145556,0.8819736,0.039998323,0.04,-9.314526,-2.8962385654449463,-1.1336826,-0.020225745,0.034293994307518005,-0.13212636
2291.966666668239,-0.049250256,-0.69175047,0.022288986,-2.6426263,-0.29977816,1.8165334,0.882753,0.039998315,0.04,-9.307334,-2.9171886444091797,-1.1424351,-0.02078322,0.03402312844991684,-0.1314948
2291.983333334906,-0.049646895,-0.69100714,0.022467786,-2.6449249,-0.30218682,1.8185054,0.8835301,0.039998297,0.04,-9.300253,-2.938056230545044,-1.151101,-0.021331722,0.03374463692307472,-0.1308484
2292.000000001573,-0.050042313,-0.69026613,0.022646043,-2.6472163,-0.3045882,1.8204713,0.8843045,0.039998278,0.04,-9.29291,-2.958933115005493,-1.1596606,-0.021869872,0.033461399376392365,-0.13018869
2292.01666666824,-0.050436463,-0.6895274,0.022823736,-2.6495004,-0.3069819,1.8224311,0.88507646,0.039998267,0.04,-9.28594,-2.9793601036071777,-1.168436,-0.022397272,0.03317352384328842,-0.12951179
2292.0333333349067,-0.0508293,-0.6887913,0.02300084,-2.6517763,-0.3093675,1.8243842,0.8858461,0.039998252,0.04,-9.278778,-2.9997994899749756,-1.177076,-0.022913767,0.032882314175367355,-0.12881745
2292.0500000015736,-0.051220775,-0.6880578,0.02317733,-2.6540442,-0.31174487,1.8263303,0.8866129,0.039998233,0.04,-9.271252,-3.0202219486236572,-1.1855767,-0.023422502,0.032589565962553024,-0.12811144
2292.0666666682405,-0.05161083,-0.6873268,0.023353178,-2.6563041,-0.31411368,1.8282698,0.8873769,0.039998215,0.04,-9.26427,-3.0402402877807617,-1.194264,-0.023920005,0.03229181841015816,-0.12739116
2292.0833333349074,-0.051999424,-0.6865986,0.023528371,-2.6585557,-0.31647375,1.830202,0.8881382,0.039998192,0.04,-9.2571125,-3.0602903366088867,-1.2028289,-0.024405338,0.03198965638875961,-0.12665775
2292.1000000015742,-0.052386507,-0.6858734,0.023702892,-2.6607993,-0.3188247,1.8321267,0.88889635,0.03999819,0.04,-9.249879,-3.0801303386688232,-1.2113483,-0.024880325,0.03168370574712753,-0.1259057
2292.116666668241,-0.05277205,-0.685151,0.023876725,-2.6630342,-0.3211662,1.8340439,0.88965166,0.039998166,0.04,-9.242448,-3.100013494491577,-1.2197286,-0.025342368,0.03137210011482239,-0.12514323
2292.133333334908,-0.053155992,-0.6844316,0.024049843,-2.6652594,-0.32349807,1.8359528,0.89040387,0.039998144,0.04,-9.23553,-3.1194961071014404,-1.2283196,-0.025792956,0.031054947525262833,-0.12436951
2292.150000001575,-0.053538296,-0.6837152,0.024222218,-2.6674745,-0.32582,1.8378538,0.8911528,0.03999813,0.04,-9.228212,-3.138866662979126,-1.2367855,-0.026232563,0.030735956504940987,-0.1235783
2292.1666666682418,-0.053918917,-0.68300205,0.02439384,-2.6696808,-0.3281317,1.8397465,0.89189845,0.03999811,0.04,-9.220917,-3.1581170558929443,-1.2452416,-0.026660172,0.030416520312428474,-0.12277522
2292.1833333349086,-0.0542978,-0.68229216,0.024564689,-2.6718762,-0.33043295,1.8416303,0.89264077,0.0399981,0.04,-9.213536,-3.177387237548828,-1.2534884,-0.027074387,0.030088525265455246,-0.12196058
2292.2000000015755,-0.054674916,-0.68158543,0.024734743,-2.6740618,-0.3327234,1.8435055,0.8933797,0.039998088,0.04,-9.20643,-3.1961846351623535,-1.2619987,-0.027477738,0.029761910438537598,-0.12113348
2292.2166666682424,-0.055050213,-0.6808822,0.024903983,-2.676237,-0.33500296,1.8453716,0.8941149,0.03999807,0.04,-9.199257,-3.214993476867676,-1.270335,-0.027868288,0.029429912567138672,-0.12029436
2292.2333333349093,-0.055423636,-0.68018264,0.025072373,-2.678401,-0.33727124,1.8472284,0.8948465,0.03999806,0.04,-9.192071,-3.233623504638672,-1.278626,-0.028244497,0.029093680903315544,-0.119439736
2292.250000001576,-0.05579515,-0.6794865,0.02523991,-2.6805542,-0.33952788,1.8490758,0.89557433,0.039998043,0.04,-9.184444,-3.2521603107452393,-1.2868167,-0.028608918,0.028757907450199127,-0.1185756
2292.266666668243,-0.05616473,-0.67879415,0.025406571,-2.6826959,-0.3417727,1.8509136,0.89629835,0.03999802,0.04,-9.177587,-3.2703917026519775,-1.2951467,-0.028959813,0.028417417779564857,-0.1177016
2292.28333333491,-0.056532335,-0.67810565,0.025572343,-2.6848264,-0.34400553,1.8527414,0.89701843,0.039998002,0.04,-9.170345,-3.288518190383911,-1.303365,-0.029297728,0.028076406568288803,-0.11681663
2292.300000001577,-0.05689787,-0.6774208,0.025737198,-2.6869445,-0.346226,1.8545591,0.8977346,0.039997987,0.04,-9.1628685,-3.306565046310425,-1.3114113,-0.029621724,0.027730723842978477,-0.11591746
2292.3166666682437,-0.05726134,-0.6767398,0.025901124,-2.6890512,-0.34843394,1.8563668,0.89844656,0.03999797,0.04,-9.155924,-3.3242595195770264,-1.3196762,-0.029932907,0.02738538756966591,-0.1150101
2292.3333333349105,-0.05762269,-0.6760627,0.026064098,-2.6911452,-0.350629,1.8581638,0.8991545,0.039997954,0.04,-9.148841,-3.341913938522339,-1.3277632,-0.030229134,0.027035851031541824,-0.11409129
2292.3500000015774,-0.057981882,-0.6753897,0.026226103,-2.6932263,-0.3528111,1.8599502,0.8998582,0.039997943,0.04,-9.141676,-3.3593602180480957,-1.3358352,-0.030511905,0.026684705168008804,-0.11316093
2292.3666666682443,-0.058338877,-0.67472094,0.026387122,-2.6952953,-0.35497975,1.8617256,0.9005577,0.039997913,0.04,-9.134109,-3.3767106533050537,-1.3437831,-0.030781955,0.02633388340473175,-0.112226725
2292.383333334911,-0.05869364,-0.6740565,0.02654713,-2.6973515,-0.35713494,1.8634899,0.9012529,0.039997894,0.04,-9.127443,-3.3937721252441406,-1.3518125,-0.031037424,0.025977792218327522,-0.11128031
2292.400000001578,-0.059046116,-0.6733963,0.026706113,-2.699394,-0.35927635,1.8652428,0.90194386,0.039997883,0.04,-9.120341,-3.410696029663086,-1.359756,-0.031279314,0.025620177388191223,-0.11032345
2292.416666668245,-0.05939628,-0.67274016,0.026864057,-2.7014234,-0.3614036,1.8669844,0.90263,0.039997876,0.04,-9.113219,-3.4274349212646484,-1.3676678,-0.031508114,0.025262920185923576,-0.1093566
2292.433333334912,-0.05974409,-0.67208856,0.02702094,-2.7034397,-0.36351657,1.8687142,0.90331143,0.039997857,0.04,-9.1058655,-3.444106340408325,-1.3754425,-0.03172077,0.024902043864130974,-0.10838316
2292.4500000015787,-0.060089506,-0.6714415,0.02717675,-2.7054415,-0.365615,1.8704323,0.9039884,0.039997835,0.04,-9.099275,-3.460480213165283,-1.3833219,-0.031918284,0.02453751116991043,-0.107402466
2292.4666666682456,-0.060432486,-0.67079884,0.027331471,-2.7074294,-0.36769867,1.8721378,0.90466034,0.039997824,0.04,-9.092175,-3.4766628742218018,-1.3911303,-0.03210367,0.02417529933154583,-0.10641286
2292.4833333349125,-0.06077299,-0.67016107,0.027485078,-2.7094033,-0.36976743,1.8738314,0.9053277,0.039997812,0.04,-9.085288,-3.4927351474761963,-1.3988411,-0.032272223,0.02380756475031376,-0.105415754
2292.5000000015793,-0.061110992,-0.6695279,0.027637552,-2.7113624,-0.37182102,1.8755127,0.9059898,0.0399978,0.04,-9.077969,-3.5086488723754883,-1.4064372,-0.032427493,0.023440225049853325,-0.10441098
2292.516666668246,-0.061446454,-0.6688994,0.027788885,-2.713307,-0.37385923,1.877181,0.9066474,0.039997783,0.04,-9.071427,-3.524280071258545,-1.4141711,-0.032567043,0.023073120042681694,-0.10339828
2292.533333334913,-0.061779346,-0.66827595,0.027939066,-2.7152364,-0.37588173,1.8788368,0.90729946,0.039997768,0.04,-9.064578,-3.5397984981536865,-1.4217569,-0.03269373,0.02270248346030712,-0.10238064
2292.55000000158,-0.062109623,-0.6676573,0.02808807,-2.7171507,-0.3778886,1.8804792,0.9079469,0.039997753,0.04,-9.057346,-3.5551609992980957,-1.4292206,-0.032803927,0.022331800311803818,-0.10135794
2292.566666668247,-0.06243725,-0.66704357,0.028235883,-2.7190497,-0.37987936,1.882109,0.90858895,0.03999774,0.04,-9.050938,-3.570258617401123,-1.4367875,-0.03290135,0.02195943519473076,-0.10032708
2292.5833333349137,-0.062762216,-0.666435,0.028382495,-2.7209334,-0.3818537,1.883725,0.9092256,0.03999773,0.04,-9.044164,-3.585219144821167,-1.44425,-0.032983854,0.02158876694738865,-0.09928979
2292.6000000015806,-0.063084446,-0.6658313,0.028527878,-2.722801,-0.38381174,1.8853278,0.90985715,0.039997727,0.04,-9.037492,-3.600003957748413,-1.4516065,-0.033050522,0.02121393382549286,-0.09824595
2292.6166666682475,-0.063403934,-0.66523296,0.028672025,-2.724652,-0.3857531,1.8869171,0.91048324,0.0399977,0.04,-9.030354,-3.614617347717285,-1.4589223,-0.033104002,0.020840652287006378,-0.09720065
2292.6333333349144,-0.063720636,-0.6646398,0.028814925,-2.7264876,-0.3876775,1.8884922,0.9111038,0.03999769,0.04,-9.024033,-3.6289520263671875,-1.4662914,-0.033143703,0.020471088588237762,-0.09614509
2292.6500000015812,-0.064034544,-0.66405183,0.028956559,-2.7283075,-0.38958484,1.8900535,0.91171885,0.03999767,0.04,-9.01754,-3.6432418823242188,-1.4734775,-0.03316718,0.02009528875350952,-0.095090255
2292.666666668248,-0.06434558,-0.6634693,0.029096914,-2.7301102,-0.39147502,1.8916007,0.91232884,0.039997652,0.04,-9.0110235,-3.6572940349578857,-1.4806643,-0.033175904,0.019718710333108902,-0.09402892
2292.683333334915,-0.06465376,-0.66289216,0.02923598,-2.7318962,-0.3933478,1.8931335,0.91293293,0.03999765,0.04,-9.003994,-3.6711037158966064,-1.4877623,-0.033173792,0.019345596432685852,-0.092959724
2292.700000001582,-0.06495904,-0.6623205,0.029373733,-2.7336655,-0.39520296,1.894653,0.91353124,0.039997634,0.04,-8.997986,-3.6847946643829346,-1.4948665,-0.03315541,0.018970267847180367,-0.09188862
2292.7166666682488,-0.065261394,-0.6617542,0.029510168,-2.7354178,-0.39704034,1.8961571,0.91412383,0.039997634,0.04,-8.991544,-3.698282480239868,-1.5019081,-0.03312236,0.018600445240736008,-0.090814136
2292.7333333349156,-0.065560795,-0.6611935,0.029645273,-2.7371533,-0.39885968,1.8976461,0.9147106,0.039997622,0.04,-8.985216,-3.7115864753723145,-1.5088456,-0.033075087,0.018226178362965584,-0.0897341
2292.7500000015825,-0.0658572,-0.66063833,0.029779032,-2.738871,-0.40066087,1.89912,0.91529155,0.0399976,0.04,-8.978484,-3.724719762802124,-1.5156779,-0.033013288,0.017848804593086243,-0.088656254
2292.7666666682494,-0.06615058,-0.66008884,0.029911434,-2.740572,-0.40244383,1.9005792,0.91586673,0.039997578,0.04,-8.972616,-3.7376513481140137,-1.5225657,-0.03293843,0.017471732571721077,-0.087574154
2292.7833333349163,-0.066440925,-0.6595451,0.030042468,-2.7422545,-0.40420833,1.9020236,0.9164359,0.03999757,0.04,-8.966458,-3.7504217624664307,-1.5293462,-0.032849003,0.017094356939196587,-0.08648709
2292.800000001583,-0.0667282,-0.6590071,0.030172119,-2.7439191,-0.40595424,1.9034528,0.91699916,0.039997563,0.04,-8.959772,-3.7629354000091553,-1.5360489,-0.0327468,0.016721386462450027,-0.085396975
2292.81666666825,-0.06701237,-0.65847486,0.030300375,-2.7455661,-0.4076814,1.9048665,0.9175561,0.039997555,0.04,-8.954073,-3.775329351425171,-1.5427593,-0.032631435,0.016349703073501587,-0.084304474
2292.833333334917,-0.06729345,-0.6579487,0.030427229,-2.7471955,-0.40938962,1.9062648,0.91810673,0.03999754,0.04,-8.948084,-3.7875635623931885,-1.5493194,-0.03250043,0.01597561687231064,-0.08321098
2292.850000001584,-0.067571364,-0.6574282,0.030552672,-2.7488065,-0.41107878,1.9076475,0.91865134,0.039997533,0.04,-8.942093,-3.7995874881744385,-1.5558488,-0.03235504,0.015602652914822102,-0.08211617
2292.8666666682507,-0.06784609,-0.65691364,0.030676687,-2.7503982,-0.4127486,1.9090142,0.9191899,0.039997514,0.04,-8.935696,-3.8113937377929688,-1.5622939,-0.03219667,0.015229307115077972,-0.081020884
2292.8833333349176,-0.06811764,-0.6564051,0.030799266,-2.7519732,-0.41439927,1.9103651,0.91972226,0.039997507,0.04,-8.930139,-3.823030710220337,-1.5687617,-0.032027602,0.014860567636787891,-0.079923734
2292.9000000015844,-0.06838601,-0.6559024,0.030920409,-2.7535288,-0.41603035,1.9117002,0.92024815,0.039997492,0.04,-8.924525,-3.8345768451690674,-1.5750271,-0.03184293,0.014484926126897335,-0.07882303
2292.9166666682513,-0.068651155,-0.6554059,0.031040091,-2.7550652,-0.41764188,1.9130193,0.9207678,0.03999748,0.04,-8.918688,-3.8458542823791504,-1.5813355,-0.031645343,0.014112577773630619,-0.07772419
2292.933333334918,-0.06891304,-0.65491545,0.031158311,-2.7565832,-0.4192338,1.9143221,0.9212813,0.039997466,0.04,-8.912447,-3.856874942779541,-1.5875436,-0.031436287,0.013743321411311626,-0.076623745
2292.950000001585,-0.06917166,-0.65443134,0.03127506,-2.7580824,-0.42080575,1.9156089,0.92178833,0.03999746,0.04,-8.907287,-3.8678700923919678,-1.5936885,-0.03121524,0.013374226167798042,-0.075522624
2292.966666668252,-0.069427006,-0.65395325,0.031390324,-2.7595627,-0.4223577,1.9168793,0.9222886,0.039997455,0.04,-8.901689,-3.878619909286499,-1.5997524,-0.030982066,0.013007208704948425,-0.074421085
2292.983333334919,-0.069679044,-0.65348125,0.031504106,-2.761023,-0.42388967,1.9181333,0.9227826,0.039997455,0.04,-8.896223,-3.8892123699188232,-1.6057469,-0.030734126,0.01263830903917551,-0.073320106
2293.0000000015857,-0.06992775,-0.65301555,0.031616386,-2.7624645,-0.42540142,1.9193709,0.9232702,0.039997444,0.04,-8.890199,-3.8995118141174316,-1.6116999,-0.030476388,0.012273582629859447,-0.07222151
2293.0166666682526,-0.07017314,-0.6525562,0.031727165,-2.7638872,-0.42689297,1.9205917,0.9237512,0.039997417,0.04,-8.885287,-3.9098076820373535,-1.6175616,-0.030207379,0.011909888125956059,-0.071125105
2293.0333333349195,-0.07041517,-0.6521028,0.031836428,-2.7652903,-0.42836416,1.9217961,0.92422575,0.03999741,0.04,-8.879989,-3.9198501110076904,-1.6233319,-0.029925382,0.011545312590897083,-0.070027076
2293.0500000015863,-0.07065381,-0.65165615,0.031944174,-2.766674,-0.42981496,1.9229835,0.9246935,0.03999739,0.04,-8.8742695,-3.9296607971191406,-1.6290561,-0.029632475,0.011180815286934376,-0.06893268
2293.066666668253,-0.070889086,-0.6512156,0.032050397,-2.7680376,-0.43124518,1.9241543,0.92515486,0.039997384,0.04,-8.869523,-3.9394121170043945,-1.6346914,-0.029327886,0.01081884279847145,-0.06783709
2293.08333333492,-0.07112098,-0.6507814,0.032155093,-2.7693813,-0.4326547,1.9253082,0.9256094,0.03999738,0.04,-8.864314,-3.948888063430786,-1.6403077,-0.029013896,0.010460133664309978,-0.066741385
2293.100000001587,-0.07134945,-0.65035367,0.03225825,-2.770706,-0.43404347,1.9264449,0.9260573,0.03999737,0.04,-8.859243,-3.958235740661621,-1.6458033,-0.028688926,0.010102774016559124,-0.06564908
2293.116666668254,-0.071574494,-0.64993227,0.03235987,-2.7720103,-0.4354116,1.9275647,0.9264984,0.03999736,0.04,-8.853796,-3.967341899871826,-1.6512035,-0.028353116,0.009743556380271912,-0.064561166
2293.1333333349207,-0.07179613,-0.6495173,0.032459963,-2.7732954,-0.43675882,1.9286675,0.9269329,0.03999735,0.04,-8.849292,-3.9764041900634766,-1.6565844,-0.028006691,0.009388145990669727,-0.063473046
2293.1500000015876,-0.0720143,-0.64910895,0.032558504,-2.7745602,-0.43808535,1.9297533,0.92736065,0.039997347,0.04,-8.844501,-3.9852662086486816,-1.6618388,-0.027649526,0.009031113237142563,-0.062387705
2293.1666666682545,-0.07222905,-0.64870685,0.03265547,-2.775805,-0.4393908,1.9308219,0.9277816,0.039997336,0.04,-8.839591,-3.9938836097717285,-1.6670711,-0.027284322,0.008679545484483242,-0.061305575
2293.1833333349214,-0.07244032,-0.6483114,0.032750867,-2.7770298,-0.44067532,1.9318732,0.9281958,0.039997328,0.04,-8.834379,-4.002262592315674,-1.6722198,-0.026909325,0.008328364230692387,-0.060225826
2293.2000000015883,-0.07264815,-0.6479223,0.032844726,-2.7782347,-0.44193882,1.9329075,0.9286032,0.039997324,0.04,-8.830192,-4.010685920715332,-1.6772538,-0.026525,0.007978584617376328,-0.059149336
2293.216666668255,-0.072852515,-0.6475396,0.032937005,-2.7794192,-0.44318122,1.9339243,0.92900383,0.039997313,0.04,-8.825619,-4.018857002258301,-1.6822258,-0.026131291,0.007629683241248131,-0.05807746
2293.233333334922,-0.0730534,-0.64716357,0.03302773,-2.7805834,-0.44440255,1.9349239,0.9293977,0.0399973,0.04,-8.821017,-4.026813507080078,-1.6871496,-0.025730103,0.007283437997102737,-0.057010192
2293.250000001589,-0.073250815,-0.6467939,0.0331169,-2.7817283,-0.4456029,1.9359064,0.9297848,0.039997287,0.04,-8.816051,-4.034521579742432,-1.6919997,-0.025320703,0.006939951330423355,-0.055946577
2293.2666666682558,-0.07344473,-0.6464308,0.033204485,-2.7828522,-0.44678196,1.9368715,0.93016505,0.039997276,0.04,-8.812239,-4.0423264503479,-1.6966999,-0.024901638,0.006594895385205746,-0.054884665
2293.2833333349226,-0.07363519,-0.64607424,0.033290513,-2.7839558,-0.44794002,1.9378192,0.9305384,0.039997272,0.04,-8.807766,-4.0497565269470215,-1.7014169,-0.024477094,0.006256145425140858,-0.05382733
2293.3000000015895,-0.07382214,-0.64572424,0.033374965,-2.7850397,-0.44907692,1.9387498,0.93090504,0.03999727,0.04,-8.803043,-4.056984901428223,-1.7060217,-0.024044422,0.005918282084167004,-0.05277499
2293.3166666682564,-0.074005626,-0.6453808,0.033457845,-2.7861042,-0.45019263,1.939663,0.931265,0.03999726,0.04,-8.799359,-4.0642876625061035,-1.7105047,-0.023604298,0.005582218058407307,-0.051726293
2293.3333333349233,-0.074185625,-0.6450438,0.033539154,-2.7871478,-0.45128715,1.940559,0.931618,0.039997265,0.04,-8.795323,-4.07133150100708,-1.7149078,-0.023156473,0.005244510248303413,-0.050681572
2293.35000000159,-0.07436215,-0.64471334,0.033618897,-2.7881713,-0.45236066,1.9414377,0.9319643,0.03999726,0.04,-8.791165,-4.078152656555176,-1.719318,-0.022703243,0.0049124532379209995,-0.0496445
2293.366666668257,-0.074535206,-0.64438945,0.033697076,-2.7891748,-0.45341298,1.942299,0.9323036,0.03999725,0.04,-8.786722,-4.084735870361328,-1.7236155,-0.022243708,0.0045815929770469666,-0.048613135
2293.383333334924,-0.07470479,-0.6440722,0.033773694,-2.790158,-0.45444414,1.943143,0.9326361,0.039997242,0.04,-8.783271,-4.091400623321533,-1.7277873,-0.021778006,0.004252843093127012,-0.047587316
2293.400000001591,-0.0748709,-0.64376134,0.033848733,-2.7911205,-0.45545438,1.94397,0.9329618,0.039997242,0.04,-8.779395,-4.097757816314697,-1.7319119,-0.021306893,0.003926956094801426,-0.046564013
2293.4166666682577,-0.07503354,-0.64345694,0.033922218,-2.7920632,-0.45644346,1.9447795,0.93328077,0.03999724,0.04,-8.77554,-4.103972911834717,-1.7359942,-0.020831486,0.0036067019682377577,-0.04554844
2293.4333333349246,-0.07519274,-0.643159,0.033994146,-2.7929864,-0.45741156,1.9455719,0.93359303,0.03999723,0.04,-8.771397,-4.109939098358154,-1.7399657,-0.020350782,0.003286330495029688,-0.044539228
2293.4500000015914,-0.07534849,-0.64286757,0.034064524,-2.793889,-0.45835876,1.9463471,0.9338984,0.039997224,0.04,-8.768274,-4.116030216217041,-1.7438031,-0.019865159,0.0029666065238416195,-0.04353633
2293.4666666682583,-0.075500794,-0.64258265,0.034133345,-2.7947717,-0.45928502,1.9471058,0.934197,0.039997216,0.04,-8.764627,-4.121764659881592,-1.7476293,-0.01937531,0.002651436720043421,-0.042537045
2293.483333334925,-0.075649686,-0.642304,0.034200616,-2.795635,-0.46019045,1.9478468,0.93448895,0.039997213,0.04,-8.76107,-4.1273932456970215,-1.75138,-0.018882282,0.0023423766251653433,-0.041546363
2293.500000001592,-0.075795144,-0.6420318,0.034266345,-2.7964778,-0.46107522,1.9485707,0.9347743,0.039997205,0.04,-8.7572565,-4.132774829864502,-1.7550228,-0.01838463,0.0020301423501223326,-0.040562227
2293.516666668259,-0.0759372,-0.64176595,0.034330543,-2.7973008,-0.46193922,1.9492778,0.935053,0.0399972,0.04,-8.754269,-4.138221263885498,-1.758581,-0.017885169,0.001722830580547452,-0.03958446
2293.533333334926,-0.076075874,-0.6415065,0.03439321,-2.7981048,-0.4627827,1.9499681,0.9353249,0.03999719,0.04,-8.750956,-4.143421173095703,-1.7620693,-0.01738309,0.0014178778510540724,-0.03861544
2293.5500000015927,-0.076211184,-0.6412534,0.034454357,-2.7988896,-0.4636056,1.9506415,0.93559027,0.039997183,0.04,-8.747326,-4.148372650146484,-1.7654996,-0.01687636,0.0011140293208882213,-0.037654694
2293.5666666682596,-0.07634312,-0.6410066,0.034513984,-2.7996542,-0.46440804,1.9512984,0.935849,0.039997187,0.04,-8.744632,-4.15342378616333,-1.7687783,-0.016367842,0.0008114208467304707,-0.036698543
2293.5833333349265,-0.076471694,-0.64076585,0.034572102,-2.8003995,-0.46519026,1.9519385,0.9361014,0.039997187,0.04,-8.741444,-4.158173561096191,-1.772074,-0.015858289,0.0005148095660842955,-0.035751794
2293.6000000015933,-0.076596946,-0.64053136,0.034628723,-2.8011258,-0.46595204,1.952562,0.936347,0.039997183,0.04,-8.738415,-4.162816047668457,-1.7752439,-0.015347299,0.00021994773123878986,-0.03481234
2293.61666666826,-0.07671888,-0.64030313,0.03468387,-2.8018324,-0.4666939,1.9531691,0.936586,0.03999718,0.04,-8.735016,-4.167189598083496,-1.7783808,-0.014834355,-7.375948916887864e-05,-0.033881977
2293.633333334927,-0.076837525,-0.640081,0.03473749,-2.8025205,-0.46741572,1.9537599,0.9368187,0.039997175,0.04,-8.732471,-4.171656131744385,-1.7813843,-0.014320478,-0.0003614269953686744,-0.032958087
2293.650000001594,-0.07695292,-0.63986504,0.034789648,-2.8031895,-0.46811762,1.9543345,0.937045,0.039997175,0.04,-8.729691,-4.175922393798828,-1.7843158,-0.013806114,-0.0006485776975750923,-0.032043632
2293.666666668261,-0.07706509,-0.6396553,0.034840364,-2.80384,-0.4687999,1.9548929,0.937265,0.03999717,0.04,-8.726887,-4.180016040802002,-1.7871847,-0.013291445,-0.0009324580896645784,-0.031139143
2293.6833333349277,-0.07717401,-0.6394514,0.03488961,-2.8044717,-0.4694626,1.9554353,0.9374788,0.039997164,0.04,-8.723726,-4.18384313583374,-1.7900208,-0.012777667,-0.0012129778042435646,-0.03024358
2293.7000000015946,-0.07727973,-0.6392536,0.034937415,-2.8050847,-0.4701059,1.955962,0.937686,0.039997157,0.04,-8.721539,-4.187848091125488,-1.7926838,-0.012264189,-0.0014923997223377228,-0.029357161
2293.7166666682615,-0.0773823,-0.6390617,0.03498378,-2.8056796,-0.47072995,1.9564725,0.9378873,0.03999715,0.04,-8.718861,-4.191525936126709,-1.7953418,-0.011751405,-0.0017655374249443412,-0.028481493
2293.7333333349284,-0.077481695,-0.6388756,0.03502874,-2.806256,-0.47133476,1.9569675,0.93808246,0.03999714,0.04,-8.716361,-4.195126056671143,-1.7979025,-0.011240563,-0.002038112375885248,-0.02761409
2293.7500000015953,-0.07757798,-0.63869554,0.035072297,-2.8068144,-0.47192076,1.9574469,0.9382712,0.03999714,0.04,-8.713455,-4.198450088500977,-1.8004439,-0.010731571,-0.002307278336957097,-0.026757322
2293.766666668262,-0.077671185,-0.63852125,0.03511446,-2.8073547,-0.47248793,1.957911,0.9384541,0.039997134,0.04,-8.711397,-4.201903820037842,-1.8028297,-0.010224271,-0.002570938551798463,-0.025910206
2293.783333334929,-0.07776132,-0.63835263,0.035155237,-2.8078775,-0.47303656,1.9583598,0.93863106,0.039997127,0.04,-8.709044,-4.205134868621826,-1.8051691,-0.0097197965,-0.002832415048032999,-0.025074907
2293.800000001596,-0.07784845,-0.6381897,0.035194658,-2.8083832,-0.47356683,1.9587938,0.93880206,0.039997127,0.04,-8.706358,-4.208098411560059,-1.8074812,-0.009218224,-0.0030909439083188772,-0.024248058
2293.8166666682628,-0.077932626,-0.6380324,0.035232723,-2.8088713,-0.47407898,1.9592129,0.9389672,0.039997127,0.04,-8.704527,-4.2112321853637695,-1.8096315,-0.008719041,-0.003346351208165288,-0.023433082
2293.8333333349296,-0.07801383,-0.6378805,0.035269458,-2.809342,-0.47457325,1.9596171,0.9391266,0.039997127,0.04,-8.702287,-4.214068412780762,-1.8117816,-0.008224297,-0.0035959556698799133,-0.022628225
2293.8500000015965,-0.07809212,-0.6377341,0.035304874,-2.8097959,-0.47504964,1.960007,0.9392802,0.039997127,0.04,-8.700158,-4.216818332672119,-1.8138356,-0.007733274,-0.003843365702778101,-0.021834327
2293.8666666682634,-0.0781675,-0.6375932,0.035338983,-2.810233,-0.47550854,1.9603825,0.9394281,0.039997123,0.04,-8.69769,-4.219330310821533,-1.8158698,-0.0072464054,-0.004086819477379322,-0.021052586
2293.8833333349303,-0.078240044,-0.63745755,0.035371814,-2.8106542,-0.4759502,1.9607439,0.93957037,0.039997123,0.04,-8.696017,-4.22198486328125,-1.8177567,-0.0067637954,-0.004325295332819223,-0.02028275
2293.900000001597,-0.07830979,-0.637327,0.035403382,-2.8110583,-0.47637483,1.9610914,0.9397072,0.03999712,0.04,-8.694105,-4.2244343757629395,-1.8195852,-0.0062849605,-0.004562698304653168,-0.019525982
2293.916666668264,-0.07837679,-0.63720196,0.035433702,-2.8114471,-0.47678262,1.9614252,0.93983865,0.039997116,0.04,-8.69208,-4.226708889007568,-1.8214209,-0.005812757,-0.0047927661798894405,-0.018781556
2293.933333334931,-0.07844105,-0.6370815,0.035462797,-2.8118198,-0.4771738,1.9617453,0.93996483,0.039997116,0.04,-8.689927,-4.228817462921143,-1.8231277,-0.0053454433,-0.005021134857088327,-0.01804896
2293.950000001598,-0.07850264,-0.63696647,0.03549068,-2.812177,-0.4775489,1.9620522,0.94008565,0.039997116,0.04,-8.6884165,-4.2310309410095215,-1.824781,-0.004884925,-0.005245286505669355,-0.017329643
2293.9666666682647,-0.07856162,-0.6368557,0.03551738,-2.8125188,-0.47790787,1.962346,0.9402017,0.039997116,0.04,-8.686621,-4.233025074005127,-1.8263578,-0.0044302857,-0.005463614594191313,-0.01662275
2293.9833333349316,-0.07861798,-0.6367504,0.035542913,-2.812846,-0.47825107,1.9626268,0.94031227,0.039997116,0.04,-8.684944,-4.234954357147217,-1.8278995,-0.003983187,-0.005681540351361036,-0.01593006
2294.0000000015984,-0.078671806,-0.63664925,0.0355673,-2.8131583,-0.47857895,1.962895,0.94041795,0.039997112,0.04,-8.68288,-4.236627578735352,-1.8293862,-0.0035421273,-0.005892473738640547,-0.015252111
2294.0166666682653,-0.078723155,-0.6365535,0.03559056,-2.8134565,-0.4788916,1.9631511,0.94051886,0.039997112,0.04,-8.681611,-4.238474369049072,-1.8307651,-0.0031075529,-0.00610190536826849,-0.014587976
2294.033333334932,-0.07877205,-0.636462,0.035612725,-2.8137405,-0.47918954,1.9633949,0.94061494,0.039997112,0.04,-8.67999,-4.240083694458008,-1.8320881,-0.0026822826,-0.006304169073700905,-0.0139385965
2294.050000001599,-0.07881859,-0.63637507,0.03563381,-2.8140104,-0.47947297,1.9636269,0.9407063,0.039997112,0.04,-8.678134,-4.2414960861206055,-1.8334247,-0.0022640433,-0.006502941250801086,-0.013302394
2294.066666668266,-0.07886278,-0.63629276,0.035653844,-2.8142667,-0.47974226,1.963847,0.9407931,0.03999711,0.04,-8.676868,-4.243014335632324,-1.8346359,-0.001855304,-0.006695226766169071,-0.01268216
2294.083333334933,-0.0789047,-0.6362146,0.03567285,-2.8145099,-0.4799976,1.964056,0.94087553,0.039997112,0.04,-8.675365,-4.244339942932129,-1.8357972,-0.0014559582,-0.0068818083964288235,-0.012074554
2294.1000000015997,-0.07894441,-0.63614035,0.035690844,-2.81474,-0.48023948,1.9642539,0.94095355,0.03999711,0.04,-8.673955,-4.245629787445068,-1.8369046,-0.0010656228,-0.007064268924295902,-0.011485359
2294.1166666682666,-0.078981936,-0.63607013,0.035707865,-2.8149579,-0.48046824,1.9644411,0.94102734,0.03999711,0.04,-8.672254,-4.246688365936279,-1.8380256,-0.00068457087,-0.007241679355502129,-0.010910536
2294.1333333349335,-0.07901737,-0.636004,0.035723936,-2.8151631,-0.48068425,1.964618,0.94109684,0.03999711,0.04,-8.671217,-4.247913360595703,-1.8389862,-0.00031212327,-0.007415727712213993,-0.010351928
2294.1500000016003,-0.07905076,-0.6359417,0.035739083,-2.815357,-0.48088783,1.9647845,0.94116247,0.0399971,0.04,-8.669824,-4.248912334442139,-1.8399607,4.9770988e-05,-0.007581835146993399,-0.009811864
2294.166666668267,-0.079082154,-0.635883,0.03575334,-2.8155384,-0.48107937,1.9649411,0.9412242,0.0399971,0.04,-8.668577,-4.2498698234558105,-1.8408464,0.00040138117,-0.00774523476138711,-0.009286405
2294.183333334934,-0.07911163,-0.63582796,0.03576673,-2.8157108,-0.48125914,1.9650884,0.9412822,0.0399971,0.04,-8.66693,-4.250582218170166,-1.8417932,0.0007402056,-0.007898618467152119,-0.008777719
2294.200000001601,-0.07913927,-0.6357763,0.035779282,-2.81587,-0.48142773,1.9652262,0.9413366,0.0399971,0.04,-8.6662035,-4.251598834991455,-1.8424718,0.001072264,-0.008055593818426132,-0.00828754
2294.216666668268,-0.0791651,-0.63572824,0.035791036,-2.8160203,-0.48158532,1.9653552,0.9413873,0.039997097,0.04,-8.664698,-4.252179145812988,-1.8433663,0.0013881342,-0.00819733552634716,-0.007814162
2294.2333333349347,-0.07918923,-0.6356833,0.035801996,-2.8161616,-0.4817326,1.9654757,0.9414346,0.039997097,0.04,-8.663675,-4.252920150756836,-1.8440161,0.001695216,-0.008338678628206253,-0.007359719
2294.2500000016016,-0.07921171,-0.63564146,0.03581221,-2.8162916,-0.4818698,1.9655881,0.94147885,0.039997097,0.04,-8.662417,-4.253489971160889,-1.8447005,0.001992808,-0.008478226140141487,-0.006923466
2294.2666666682685,-0.0792326,-0.6356026,0.035821714,-2.8164115,-0.4819973,1.9656926,0.94152,0.039997093,0.04,-8.66128,-4.253992080688477,-1.8454083,0.0022735787,-0.008603501133620739,-0.0065052267
2294.2833333349354,-0.079252005,-0.6355664,0.035830535,-2.8165233,-0.48211578,1.9657896,0.9415582,0.039997097,0.04,-8.66005,-4.254420757293701,-1.8460492,0.0025398023,-0.008719156496226788,-0.006108368
2294.3000000016023,-0.079269946,-0.63553303,0.035838734,-2.816627,-0.48222548,1.9658792,0.94159365,0.039997097,0.04,-8.658853,-4.254787921905518,-1.8466109,0.00279415,-0.008832034654915333,-0.005729504
2294.316666668269,-0.07928654,-0.6355021,0.035846308,-2.8167229,-0.48232695,1.9659622,0.9416263,0.039997093,0.04,-8.658009,-4.255244731903076,-1.8470907,0.0030356802,-0.008940446190536022,-0.005369682
2294.333333334936,-0.07930184,-0.6354735,0.035853297,-2.816811,-0.48242062,1.9660386,0.9416564,0.039997093,0.04,-8.656938,-4.255549907684326,-1.8476064,0.0032645392,-0.009042403660714626,-0.005031285
2294.350000001603,-0.07931597,-0.6354472,0.035859708,-2.8168924,-0.4825069,1.9661093,0.9416843,0.039997093,0.04,-8.655867,-4.255796432495117,-1.8480854,0.0034788449,-0.009138014167547226,-0.0047136666
2294.3666666682698,-0.07932895,-0.63542306,0.035865627,-2.8169668,-0.4825863,1.9661741,0.9417099,0.039997093,0.04,-8.654682,-4.255951881408691,-1.8485501,0.003678011,-0.009225421585142612,-0.004417702
2294.3833333349367,-0.079340905,-0.6354009,0.035871074,-2.8170383,-0.48265937,1.9662343,0.9417334,0.0399971,0.04,-8.653745,-4.256145000457764,-1.8489691,0.0038623775,-0.00930462870746851,-0.0041431584
2294.4000000016035,-0.0793519,-0.63538057,0.035876084,-2.8171024,-0.48272657,1.966289,0.94175506,0.0399971,0.04,-8.653114,-4.256464004516602,-1.8492278,0.0040382566,-0.009388687089085579,-0.003891256
2294.4166666682704,-0.07936202,-0.6353618,0.03588071,-2.8171601,-0.48278856,1.9663388,0.9417751,0.0399971,0.04,-8.651975,-4.256466388702393,-1.8496648,0.004196745,-0.0094617223367095,-0.0036587634
2294.4333333349373,-0.079371326,-0.63534445,0.035884965,-2.8172162,-0.48284546,1.9663845,0.94179344,0.039997097,0.04,-8.650878,-4.256451606750488,-1.8500645,0.004339958,-0.009526416659355164,-0.0034424653
2294.450000001604,-0.07937988,-0.6353285,0.035888884,-2.8172655,-0.48289785,1.9664265,0.94181037,0.039997097,0.04,-8.650545,-4.256772994995117,-1.850242,0.0044778665,-0.009598562493920326,-0.0032455758
2294.466666668271,-0.07938774,-0.6353139,0.035892483,-2.8173127,-0.482946,1.9664648,0.9418258,0.039997097,0.04,-8.649541,-4.2567291259765625,-1.8506448,0.00460038,-0.009656327776610851,-0.003063791
2294.483333334938,-0.07939496,-0.6353006,0.035895795,-2.8173542,-0.48299035,1.9665028,0.9418403,0.039997093,0.04,-8.649078,-4.25692081451416,-1.8508253,0.0047169705,-0.009718046523630619,-0.002897954
2294.500000001605,-0.079401635,-0.6352883,0.03589885,-2.817395,-0.48303124,1.966537,0.94185346,0.039997093,0.04,-8.64808,-4.256849765777588,-1.8512415,0.0048191897,-0.009753808379173279,-0.002745795
2294.5166666682717,-0.07940777,-0.635277,0.035901666,-2.8174293,-0.4830688,1.9665674,0.9418654,0.039997093,0.04,-8.647922,-4.257090091705322,-1.8513067,0.0049191583,-0.009800906293094158,-0.0026054387
2294.5333333349386,-0.079413384,-0.6352666,0.035904247,-2.8174624,-0.48310333,1.9665945,0.94187665,0.039997097,0.04,-8.647038,-4.256956577301025,-1.8516464,0.005005754,-0.009835849516093731,-0.0024740298
2294.5500000016054,-0.07941858,-0.63525707,0.035906617,-2.8174934,-0.4831351,1.966621,0.9418868,0.039997097,0.04,-8.646709,-4.257091045379639,-1.8517388,0.005087096,-0.009878485463559628,-0.0023538822
2294.5666666682723,-0.079423346,-0.6352483,0.03590881,-2.81752,-0.48316443,1.9666439,0.9418962,0.039997097,0.04,-8.646343,-4.257200241088867,-1.8519365,0.005163878,-0.009912237524986267,-0.0022447202
2294.583333334939,-0.07942771,-0.63524014,0.035910826,-2.8175454,-0.48319128,1.9666667,0.94190496,0.039997097,0.04,-8.645728,-4.257119178771973,-1.8521532,0.0052302424,-0.0099417045712471,-0.0021423837
2294.600000001606,-0.07943176,-0.63523257,0.03591268,-2.817571,-0.48321608,1.9666858,0.94191295,0.039997097,0.04,-8.645469,-4.257254123687744,-1.8522825,0.005293219,-0.009966330602765083,-0.0020502384
2294.616666668273,-0.07943545,-0.6352258,0.03591438,-2.817592,-0.48323894,1.9667047,0.9419204,0.039997097,0.04,-8.645367,-4.25738525390625,-1.8522936,0.0053557768,-0.010006350465118885,-0.0019640992
2294.63333333494,-0.07943885,-0.63521945,0.03591594,-2.8176105,-0.48325992,1.9667228,0.9419272,0.039997097,0.04,-8.644736,-4.257287502288818,-1.8525767,0.005407661,-0.010025432333350182,-0.0018852267
2294.6500000016067,-0.079441994,-0.6352137,0.035917383,-2.8176284,-0.4832793,1.966738,0.9419333,0.039997097,0.04,-8.644365,-4.2573041915893555,-1.8527237,0.0054543903,-0.010037596337497234,-0.0018155171
2294.6666666682736,-0.079444885,-0.63520825,0.035918705,-2.8176463,-0.48329702,1.9667531,0.94193894,0.039997097,0.04,-8.6442375,-4.257359504699707,-1.8527378,0.0054996787,-0.010058407671749592,-0.001745781
2294.6833333349405,-0.079447545,-0.6352034,0.035919916,-2.817663,-0.48331338,1.9667671,0.9419443,0.039997097,0.04,-8.64411,-4.257477283477783,-1.852805,0.0055439495,-0.010078675113618374,-0.0016851786
2294.7000000016073,-0.07944998,-0.63519895,0.035921037,-2.8176768,-0.4833284,1.9667784,0.9419491,0.039997097,0.04,-8.643922,-4.257518768310547,-1.8528868,0.0055842004,-0.010097505524754524,-0.0016293318
2294.7166666682742,-0.07945221,-0.6351949,0.035922088,-2.8176894,-0.4833422,1.9667897,0.94195354,0.039997097,0.04,-8.6435585,-4.257447242736816,-1.8530121,0.0056187175,-0.010115477256476879,-0.0015766621
2294.733333334941,-0.07945426,-0.635191,0.03592304,-2.8177001,-0.48335487,1.966801,0.94195765,0.039997097,0.04,-8.6433325,-4.25748348236084,-1.8531088,0.0056503895,-0.010127409361302853,-0.0015311977
2294.750000001608,-0.07945618,-0.6351874,0.03592391,-2.8177104,-0.48336652,1.9668112,0.9419614,0.039997097,0.04,-8.643034,-4.2574462890625,-1.8532332,0.005677719,-0.010131013579666615,-0.001487906
2294.766666668275,-0.07945792,-0.63518417,0.03592473,-2.8177207,-0.48337728,1.9668196,0.941965,0.039997093,0.04,-8.642967,-4.2574944496154785,-1.8532498,0.0057037617,-0.010137470439076424,-0.0014468475
2294.7833333349417,-0.07945951,-0.63518125,0.035925467,-2.817731,-0.48338714,1.9668272,0.9419681,0.039997093,0.04,-8.64293,-4.257569789886475,-1.8532388,0.005728757,-0.010150452144443989,-0.0014116965
2294.8000000016086,-0.07946101,-0.63517857,0.035926163,-2.8177412,-0.4833964,1.9668347,0.94197106,0.039997093,0.04,-8.42815,-4.128019332885742,-1.8772194,0.0,-0.0,0.0
2294.8166666682755,-0.07946101,-0.63517857,0.035926163,-2.8177412,-0.4833964,1.9668347,0.94197106,0.039997093,0.04,-8.641619,-4.257134914398193,-1.8534671,0.0,-0.0,0.0
2294.8333333349424,-0.07946101,-0.63517857,0.035926163,-2.8177412,-0.4833964,1.9668347,0.94197106,0.039997093,0.04,-8.641619,-4.257134914398193,-1.8534671,0.0,-0.0,0.0
2294.8500000016093,-0.07946101,-0.63517857,0.035926163,-2.8177412,-0.4833964,1.9668347,0.94197106,0.039997093,0.04,-8.641619,-4.257134914398193,-1.8534671,0.0,-0.0,0.0
2294.866666668276,-0.07946101,-0.63517857,0.035926163,-2.8177412,-0.4833964,1.9668347,0.94197106,0.039997093,0.04,-8.641619,-4.257134914398193,-1.8534671,0.0,-0.0,0.0
2294.883333334943,-0.07946101,-0.63517857,0.035926163,-2.8177412,-0.4833964,1.9668347,0.94197106,0.039997093,0.04,-8.641619,-4.257134914398193,-1.8534671,0.0,-0.0,0.0
2294.90000000161,-0.07946101,-0.63517857,0.035926163,-2.8177412,-0.4833964,1.9668347,0.94197106,0.039997093,0.04,-8.641619,-4.257134914398193,-1.8534671,0.0,-0.0,0.0
2294.916666668277,-0.07946101,-0.63517857,0.035926163,-2.8177412,-0.4833964,1.9668347,0.94197106,0.039997093,0.04,-8.641619,-4.257134914398193,-1.8534671,0.0,-0.0,0.0
2294.9333333349437,-0.07946101,-0.63517857,0.035926163,-2.8177412,-0.4833964,1.9668347,0.94197106,0.039997093,0.04,-8.641619,-4.257134914398193,-1.8534671,0.0,-0.0,0.0
2294.9500000016105,-0.07946101,-0.63517857,0.035926163,-2.8177412,-0.4833964,1.9668347,0.94197106,0.039997093,0.04,-8.641619,-4.257134914398193,-1.8534671,0.0,-0.0,0.0
2294.9666666682774,-0.07946101,-0.63517857,0.035926163,-2.8177412,-0.4833964,1.9668347,0.94197106,0.039997093,0.04,-8.641619,-4.257134914398193,-1.8534671,0.0,-0.0,0.0
2294.9833333349443,-0.07946101,-0.63517857,0.035926163,-2.8177412,-0.4833964,1.9668347,0.94197106,0.039997093,0.04,-8.641619,-4.257134914398193,-1.8534671,0.0,-0.0,0.0
2295.000000001611,-0.07946101,-0.63517857,0.035926163,-2.8177412,-0.4833964,1.9668347,0.94197106,0.039997093,0.04,-8.641619,-4.257134914398193,-1.8534671,0.0,-0.0,0.0
2295.016666668278,-0.07946101,-0.63517857,0.035926163,-2.8177412,-0.4833964,1.9668347,0.94197106,0.039997093,0.04,-8.641619,-4.257134914398193,-1.8534671,0.0,-0.0,0.0
2295.033333334945,-0.07946101,-0.63517857,0.035926163,-2.8177412,-0.4833964,1.9668347,0.94197106,0.039997093,0.04,-8.641619,-4.257134914398193,-1.8534671,0.0,-0.0,0.0
2295.050000001612,-0.07946101,-0.63517857,0.035926163,-2.8177412,-0.4833964,1.9668347,0.94197106,0.039997093,0.04,-8.641619,-4.257134914398193,-1.8534671,0.0,-0.0,0.0
2295.0666666682787,-0.07946101,-0.63517857,0.035926163,-2.8177412,-0.4833964,1.9668347,0.94197106,0.039997093,0.04,-8.641619,-4.257134914398193,-1.8534671,0.0,-0.0,0.0
2295.0833333349456,-0.07946101,-0.63517857,0.035926163,-2.8177412,-0.4833964,1.9668347,0.94197106,0.039997093,0.04,-8.641619,-4.257134914398193,-1.8534671,0.0,-0.0,0.0
2295.1000000016124,-0.07946101,-0.63517857,0.035926163,-2.8177412,-0.4833964,1.9668347,0.94197106,0.039997093,0.04,-8.641619,-4.257134914398193,-1.8534671,0.0,-0.0,0.0
2295.1166666682793,-0.07946101,-0.63517857,0.035926163,-2.8177412,-0.4833964,1.9668347,0.94197106,0.039997093,0.04,-8.641619,-4.257134914398193,-1.8534671,0.0,-0.0,0.0
2295.133333334946,-0.07946101,-0.63517857,0.035926163,-2.8177412,-0.4833964,1.9668347,0.94197106,0.039997093,0.04,-8.641619,-4.257134914398193,-1.8534671,0.0,-0.0,0.0
2295.150000001613,-0.07946101,-0.63517857,0.035926163,-2.8177412,-0.4833964,1.9668347,0.94197106,0.039997093,0.04,-8.641619,-4.257134914398193,-1.8534671,0.0,-0.0,0.0
2295.16666666828,-0.07946101,-0.63517857,0.035926163,-2.8177412,-0.4833964,1.9668347,0.94197106,0.039997093,0.04,-8.641619,-4.257134914398193,-1.8534671,0.0,-0.0,0.0
2295.183333334947,-0.07946101,-0.63517857,0.035926163,-2.8177412,-0.4833964,1.9668347,0.94197106,0.039997093,0.04,-8.641619,-4.257134914398193,-1.8534671,0.0,-0.0,0.0
2295.2000000016137,-0.07946101,-0.63517857,0.035926163,-2.8177412,-0.4833964,1.9668347,0.94197106,0.039997093,0.04,-8.641619,-4.257134914398193,-1.8534671,0.0,-0.0,0.0
2295.2166666682806,-0.07946101,-0.63517857,0.035926163,-2.8177412,-0.4833964,1.9668347,0.94197106,0.039997093,0.04,-8.641619,-4.257134914398193,-1.8534671,0.0,-0.0,0.0
2295.2333333349475,-0.07946101,-0.63517857,0.035926163,-2.8177412,-0.4833964,1.9668347,0.94197106,0.039997093,0.04,-8.641619,-4.257134914398193,-1.8534671,0.0,-0.0,0.0
2295.2500000016144,-0.07946101,-0.63517857,0.035926163,-2.8177412,-0.4833964,1.9668347,0.94197106,0.039997093,0.04,-8.641619,-4.257134914398193,-1.8534671,0.0,-0.0,0.0
2295.2666666682812,-0.07946101,-0.63517857,0.035926163,-2.8177412,-0.4833964,1.9668347,0.94197106,0.039997093,0.04,-8.641619,-4.257134914398193,-1.8534671,0.0,-0.0,0.0
2295.283333334948,-0.07946101,-0.63517857,0.035926163,-2.8177412,-0.4833964,1.9668347,0.94197106,0.039997093,0.04,-8.641619,-4.257134914398193,-1.8534671,0.0,-0.0,0.0
2295.300000001615,-0.07946101,-0.63517857,0.035926163,-2.8177412,-0.4833964,1.9668347,0.94197106,0.039997093,0.04,-8.641619,-4.257134914398193,-1.8534671,0.0,-0.0,0.0
2295.316666668282,-0.07946101,-0.63517857,0.035926163,-2.8177412,-0.4833964,1.9668347,0.94197106,0.039997093,0.04,-8.641619,-4.257134914398193,-1.8534671,0.0,-0.0,0.0
2295.3333333349487,-0.07946101,-0.63517857,0.035926163,-2.8177412,-0.4833964,1.9668347,0.94197106,0.039997093,0.04,-8.641619,-4.257134914398193,-1.8534671,0.0,-0.0,0.0
2295.3500000016156,-0.07946101,-0.63517857,0.035926163,-2.8177412,-0.4833964,1.9668347,0.94197106,0.039997093,0.04,-8.641619,-4.257134914398193,-1.8534671,0.0,-0.0,0.0
2295.3666666682825,-0.07946101,-0.63517857,0.035926163,-2.8177412,-0.4833964,1.9668347,0.94197106,0.039997093,0.04,-8.641619,-4.257134914398193,-1.8534671,0.0,-0.0,0.0
2295.3833333349494,-0.07946101,-0.63517857,0.035926163,-2.8177412,-0.4833964,1.9668347,0.94197106,0.039997093,0.04,-8.641619,-4.257134914398193,-1.8534671,0.0,-0.0,0.0
2295.4000000016163,-0.07946101,-0.63517857,0.035926163,-2.8177412,-0.4833964,1.9668347,0.94197106,0.039997093,0.04,-8.641619,-4.257134914398193,-1.8534671,0.0,-0.0,0.0
2295.416666668283,-0.07946101,-0.63517857,0.035926163,-2.8177412,-0.4833964,1.9668347,0.94197106,0.039997093,0.04,-8.641619,-4.257134914398193,-1.8534671,0.0,-0.0,0.0
2295.43333333495,-0.07946101,-0.63517857,0.035926163,-2.8177412,-0.4833964,1.9668347,0.94197106,0.039997093,0.04,-8.641619,-4.257134914398193,-1.8534671,0.0,-0.0,0.0
2295.450000001617,-0.07946101,-0.63517857,0.035926163,-2.8177412,-0.4833964,1.9668347,0.94197106,0.039997093,0.04,-8.641619,-4.257134914398193,-1.8534671,0.0,-0.0,0.0
2295.466666668284,-0.07946101,-0.63517857,0.035926163,-2.8177412,-0.4833964,1.9668347,0.94197106,0.039997093,0.04,-8.641619,-4.257134914398193,-1.8534671,0.0,-0.0,0.0
2295.4833333349507,-0.07946101,-0.63517857,0.035926163,-2.8177412,-0.4833964,1.9668347,0.94197106,0.039997093,0.04,-8.641619,-4.257134914398193,-1.8534671,0.0,-0.0,0.0
2295.5000000016175,-0.07946101,-0.63517857,0.035926163,-2.8177412,-0.4833964,1.9668347,0.94197106,0.039997093,0.04,-8.641619,-4.257134914398193,-1.8534671,0.0,-0.0,0.0
2295.5166666682844,-0.07946101,-0.63517857,0.035926163,-2.8177412,-0.4833964,1.9668347,0.94197106,0.039997093,0.04,-8.641619,-4.257134914398193,-1.8534671,0.0,-0.0,0.0
2295.5333333349513,-0.07946101,-0.63517857,0.035926163,-2.8177412,-0.4833964,1.9668347,0.94197106,0.039997093,0.04,-8.641619,-4.257134914398193,-1.8534671,0.0,-0.0,0.0
2295.550000001618,-0.07946101,-0.63517857,0.035926163,-2.8177412,-0.4833964,1.9668347,0.94197106,0.039997093,0.04,-8.641619,-4.257134914398193,-1.8534671,0.0,-0.0,0.0
2295.566666668285,-0.07946101,-0.63517857,0.035926163,-2.8177412,-0.4833964,1.9668347,0.94197106,0.039997093,0.04,-8.641619,-4.257134914398193,-1.8534671,0.0,-0.0,0.0
2295.583333334952,-0.07946101,-0.63517857,0.035926163,-2.8177412,-0.4833964,1.9668347,0.94197106,0.039997093,0.04,-8.641619,-4.257134914398193,-1.8534671,0.0,-0.0,0.0
2295.600000001619,-0.07946101,-0.63517857,0.035926163,-2.8177412,-0.4833964,1.9668347,0.94197106,0.039997093,0.04,-8.641619,-4.257134914398193,-1.8534671,0.0,-0.0,0.0
2295.6166666682857,-0.07946101,-0.63517857,0.035926163,-2.8177412,-0.4833964,1.9668347,0.94197106,0.039997093,0.04,-8.641619,-4.257134914398193,-1.8534671,0.0,-0.0,0.0
2295.6333333349526,-0.07946101,-0.63517857,0.035926163,-2.8177412,-0.4833964,1.9668347,0.94197106,0.039997093,0.04,-8.641619,-4.257134914398193,-1.8534671,0.0,-0.0,0.0
2295.6500000016194,-0.07946101,-0.63517857,0.035926163,-2.8177412,-0.4833964,1.9668347,0.94197106,0.039997093,0.04,-8.641619,-4.257134914398193,-1.8534671,0.0,-0.0,0.0
2295.6666666682863,-0.07946101,-0.63517857,0.035926163,-2.8177412,-0.4833964,1.9668347,0.94197106,0.039997093,0.04,-8.641619,-4.257134914398193,-1.8534671,0.0,-0.0,0.0
2295.683333334953,-0.07946101,-0.63517857,0.035926163,-2.8177412,-0.4833964,1.9668347,0.94197106,0.039997093,0.04,-8.641619,-4.257134914398193,-1.8534671,0.0,-0.0,0.0
2295.70000000162,-0.07946101,-0.63517857,0.035926163,-2.8177412,-0.4833964,1.9668347,0.94197106,0.039997093,0.04,-8.641619,-4.257134914398193,-1.8534671,0.0,-0.0,0.0
2295.716666668287,-0.07946101,-0.63517857,0.035926163,-2.8177412,-0.4833964,1.9668347,0.94197106,0.039997093,0.04,-8.641619,-4.257134914398193,-1.8534671,0.0,-0.0,0.0
2295.733333334954,-0.07946101,-0.63517857,0.035926163,-2.8177412,-0.4833964,1.9668347,0.94197106,0.039997093,0.04,-8.641619,-4.257134914398193,-1.8534671,0.0,-0.0,0.0
2295.7500000016207,-0.07946101,-0.63517857,0.035926163,-2.8177412,-0.4833964,1.9668347,0.94197106,0.039997093,0.04,-8.641619,-4.257134914398193,-1.8534671,0.0,-0.0,0.0
2295.7666666682876,-0.07946101,-0.63517857,0.035926163,-2.8177412,-0.4833964,1.9668347,0.94197106,0.039997093,0.04,-8.641619,-4.257134914398193,-1.8534671,0.0,-0.0,0.0
2295.7833333349545,-0.07946101,-0.63517857,0.035926163,-2.8177412,-0.4833964,1.9668347,0.94197106,0.039997093,0.04,-8.641619,-4.257134914398193,-1.8534671,0.0,-0.0,0.0
2295.8000000016214,-0.07946101,-0.63517857,0.035926163,-2.8177412,-0.4833964,1.9668347,0.94197106,0.039997093,0.04,-8.641619,-4.257134914398193,-1.8534671,0.0,-0.0,0.0
2295.8166666682882,-0.07946101,-0.63517857,0.035926163,-2.8177412,-0.4833964,1.9668347,0.94197106,0.039997093,0.04,-8.641619,-4.257134914398193,-1.8534671,0.0,-0.0,0.0
2295.833333334955,-0.07946101,-0.63517857,0.035926163,-2.8177412,-0.4833964,1.9668347,0.94197106,0.039997093,0.04,-8.641619,-4.257134914398193,-1.8534671,0.0,-0.0,0.0
2295.850000001622,-0.07946101,-0.63517857,0.035926163,-2.8177412,-0.4833964,1.9668347,0.94197106,0.039997093,0.04,-8.641619,-4.257134914398193,-1.8534671,0.0,-0.0,0.0
2295.866666668289,-0.07946101,-0.63517857,0.035926163,-2.8177412,-0.4833964,1.9668347,0.94197106,0.039997093,0.04,-8.641619,-4.257134914398193,-1.8534671,0.0,-0.0,0.0
2295.8833333349558,-0.07946101,-0.63517857,0.035926163,-2.8177412,-0.4833964,1.9668347,0.94197106,0.039997093,0.04,-8.641619,-4.257134914398193,-1.8534671,0.0,-0.0,0.0
2295.9000000016226,-0.07946101,-0.63517857,0.035926163,-2.8177412,-0.4833964,1.9668347,0.94197106,0.039997093,0.04,-8.641619,-4.257134914398193,-1.8534671,0.0,-0.0,0.0
2295.9166666682895,-0.07946101,-0.63517857,0.035926163,-2.8177412,-0.4833964,1.9668347,0.94197106,0.039997093,0.04,-8.641619,-4.257134914398193,-1.8534671,0.0,-0.0,0.0
2295.9333333349564,-0.07946101,-0.63517857,0.035926163,-2.8177412,-0.4833964,1.9668347,0.94197106,0.039997093,0.04,-8.641619,-4.257134914398193,-1.8534671,0.0,-0.0,0.0
2295.9500000016233,-0.07946101,-0.63517857,0.035926163,-2.8177412,-0.4833964,1.9668347,0.94197106,0.039997093,0.04,-8.641619,-4.257134914398193,-1.8534671,0.0,-0.0,0.0
2295.96666666829,-0.07946101,-0.63517857,0.035926163,-2.8177412,-0.4833964,1.9668347,0.94197106,0.039997093,0.04,-8.641619,-4.257134914398193,-1.8534671,0.0,-0.0,0.0
2295.983333334957,-0.07946101,-0.63517857,0.035926163,-2.8177412,-0.4833964,1.9668347,0.94197106,0.039997093,0.04,-8.641619,-4.257134914398193,-1.8534671,0.0,-0.0,0.0
2296.000000001624,-0.07946101,-0.63517857,0.035926163,-2.8177412,-0.4833964,1.9668347,0.94197106,0.039997093,0.04,-8.641619,-4.257134914398193,-1.8534671,0.0,-0.0,0.0
2296.016666668291,-0.07946101,-0.63517857,0.035926163,-2.8177412,-0.4833964,1.9668347,0.94197106,0.039997093,0.04,-8.641619,-4.257134914398193,-1.8534671,0.0,-0.0,0.0
2296.0333333349577,-0.07946101,-0.63517857,0.035926163,-2.8177412,-0.4833964,1.9668347,0.94197106,0.039997093,0.04,-8.641619,-4.257134914398193,-1.8534671,0.0,-0.0,0.0
2296.0500000016245,-0.07946101,-0.63517857,0.035926163,-2.8177412,-0.4833964,1.9668347,0.94197106,0.039997093,0.04,-8.641619,-4.257134914398193,-1.8534671,0.0,-0.0,0.0
2296.0666666682914,-0.07946101,-0.63517857,0.035926163,-2.8177412,-0.4833964,1.9668347,0.94197106,0.039997093,0.04,-8.641619,-4.257134914398193,-1.8534671,0.0,-0.0,0.0
2296.0833333349583,-0.07946101,-0.63517857,0.035926163,-2.8177412,-0.4833964,1.9668347,0.94197106,0.039997093,0.04,-8.641619,-4.257134914398193,-1.8534671,0.0,-0.0,0.0
2296.100000001625,-0.07946101,-0.63517857,0.035926163,-2.8177412,-0.4833964,1.9668347,0.94197106,0.039997093,0.04,-8.641619,-4.257134914398193,-1.8534671,0.0,-0.0,0.0
2296.116666668292,-0.07946101,-0.63517857,0.035926163,-2.8177412,-0.4833964,1.9668347,0.94197106,0.039997093,0.04,-8.641619,-4.257134914398193,-1.8534671,0.0,-0.0,0.0
2296.133333334959,-0.07946101,-0.63517857,0.035926163,-2.8177412,-0.4833964,1.9668347,0.94197106,0.039997093,0.04,-8.641619,-4.257134914398193,-1.8534671,0.0,-0.0,0.0
2296.150000001626,-0.07946101,-0.63517857,0.035926163,-2.8177412,-0.4833964,1.9668347,0.94197106,0.039997093,0.04,-8.641619,-4.257134914398193,-1.8534671,0.0,-0.0,0.0
2296.1666666682927,-0.07946101,-0.63517857,0.035926163,-2.8177412,-0.4833964,1.9668347,0.94197106,0.039997093,0.04,-8.641619,-4.257134914398193,-1.8534671,0.0,-0.0,0.0
2296.1833333349596,-0.07946101,-0.63517857,0.035926163,-2.8177412,-0.4833964,1.9668347,0.94197106,0.039997093,0.04,-8.641619,-4.257134914398193,-1.8534671,0.0,-0.0,0.0
2296.2000000016264,-0.07946101,-0.63517857,0.035926163,-2.8177412,-0.4833964,1.9668347,0.94197106,0.039997093,0.04,-8.641619,-4.257134914398193,-1.8534671,0.0,-0.0,0.0
2296.2166666682933,-0.07946101,-0.63517857,0.035926163,-2.8177412,-0.4833964,1.9668347,0.94197106,0.039997093,0.04,-8.641619,-4.257134914398193,-1.8534671,0.0,-0.0,0.0
2296.23333333496,-0.07946101,-0.63517857,0.035926163,-2.8177412,-0.4833964,1.9668347,0.94197106,0.039997093,0.04,-8.641619,-4.257134914398193,-1.8534671,0.0,-0.0,0.0
2296.250000001627,-0.07946101,-0.63517857,0.035926163,-2.8177412,-0.4833964,1.9668347,0.94197106,0.039997093,0.04,-8.641619,-4.257134914398193,-1.8534671,0.0,-0.0,0.0
2296.266666668294,-0.07946101,-0.63517857,0.035926163,-2.8177412,-0.4833964,1.9668347,0.94197106,0.039997093,0.04,-8.641619,-4.257134914398193,-1.8534671,0.0,-0.0,0.0
2296.283333334961,-0.07946101,-0.63517857,0.035926163,-2.8177412,-0.4833964,1.9668347,0.94197106,0.039997093,0.04,-8.641619,-4.257134914398193,-1.8534671,0.0,-0.0,0.0
2296.3000000016277,-0.07946101,-0.63517857,0.035926163,-2.8177412,-0.4833964,1.9668347,0.94197106,0.039997093,0.04,-8.641619,-4.257134914398193,-1.8534671,0.0,-0.0,0.0
2296.3166666682946,-0.07946101,-0.63517857,0.035926163,-2.8177412,-0.4833964,1.9668347,0.94197106,0.039997093,0.04,-8.641619,-4.257134914398193,-1.8534671,0.0,-0.0,0.0
2296.3333333349615,-0.07946101,-0.63517857,0.035926163,-2.8177412,-0.4833964,1.9668347,0.94197106,0.039997093,0.04,-8.641619,-4.257134914398193,-1.8534671,0.0,-0.0,0.0
2296.3500000016284,-0.07946101,-0.63517857,0.035926163,-2.8177412,-0.4833964,1.9668347,0.94197106,0.039997093,0.04,-8.641619,-4.257134914398193,-1.8534671,0.0,-0.0,0.0
2296.3666666682952,-0.07946101,-0.63517857,0.035926163,-2.8177412,-0.4833964,1.9668347,0.94197106,0.039997093,0.04,-8.641619,-4.257134914398193,-1.8534671,0.0,-0.0,0.0
2296.383333334962,-0.07946101,-0.63517857,0.035926163,-2.8177412,-0.4833964,1.9668347,0.94197106,0.039997093,0.04,-8.641619,-4.257134914398193,-1.8534671,0.0,-0.0,0.0
2296.400000001629,-0.07946101,-0.63517857,0.035926163,-2.8177412,-0.4833964,1.9668347,0.94197106,0.039997093,0.04,-8.641619,-4.257134914398193,-1.8534671,0.0,-0.0,0.0
