rsonawane2002/My_IMU/logs_2/traj_458/imu_400hz_458.csv
time,j1,j2,j3,j4,j5,j6,j7,gripper1,gripper2,imu_ax,imu_ay,imu_az,imu_gx,imu_gy,imu_gz
0.0,0.00016700293,-0.785875,4.0107683e-05,-2.3551247,9.29385e-05,1.570997,0.786,0.04,0.04,-9.496002,0.0316494181752204,0.10384679,2.1544969e-07,-0.0011641276068985,2.2371186e-08
0.0025,0.000167003152,-0.7858577740000002,4.010881099999999e-05,-2.35513919,9.294259649999995e-05,1.570996565,0.786,0.04,0.04,-9.546776399999354,0.02699733889318398,0.08963018750018101,1.7758461595048213e-07,-0.0013252775184789132,9.29124335991018e-08
0.005,0.00016700337399999998,-0.7858405480000005,4.010993899999997e-05,-2.35515368,9.29466929999999e-05,1.57099613,0.786,0.04,0.04,-9.597550799998707,0.02234525961114756,0.07541358500036204,1.3971954190096426e-07,-0.001486427430059326,1.634536811982036e-07
0.0075,0.000167003596,-0.7858233220000007,4.011106699999996e-05,-2.35516817,9.295078949999985e-05,1.5709956950000001,0.786,0.04,0.04,-9.64832519999806,0.017693180329111137,0.061196982500543055,1.018544678514464e-07,-0.0016475773416397392,2.3399492879730542e-07
0.01,0.00016700381799999997,-0.785806096000001,4.0112194999999944e-05,-2.3551826599999997,9.29548859999998e-05,1.5709952600000001,0.786,0.04,0.04,-9.699099599997414,0.013041101047074719,0.046980380000724076,6.398939380192852e-08,-0.0018087272532201523,3.0453617639640724e-07
0.0125,0.00016700403999999998,-0.7857888700000011,4.011332299999993e-05,-2.355197149999999,9.295898249999975e-05,1.570994825,0.786,0.04,0.04,-9.749873999996767,0.008389021765038297,0.03276377750090509,2.6124319752410654e-08,-0.001969877164800565,3.7507742399550905e-07
0.015,0.00016700426199999999,-0.7857716440000013,4.0114450999999915e-05,-2.355211639999999,9.29630789999997e-05,1.57099439,0.786,0.04,0.04,-9.80064839999612,0.003736942483001878,0.018547175001086116,-1.1740754297107189e-08,-0.002131027076380978,4.4561867159461087e-07
0.0175,0.0001670040160000001,-0.7857548645000014,4.011576614999985e-05,-2.355225734999999,9.296420800000043e-05,1.57099396,0.786,0.04,0.04,-9.834395400000027,0.0006342084234350354,0.008994781500019963,3.4392819830914546e-08,-0.0022878545801953724,3.4231326154019746e-07
0.02,0.0001670028340000001,-0.7857389780000017,4.011745559999983e-05,-2.355239039999999,9.29594020000005e-05,1.5709935400000001,0.786,0.04,0.04,-9.83408760000003,0.0006301648099910119,0.008770806000022814,2.485236903781879e-07,-0.0024360372684744257,-1.086854639540598e-07
0.0225,0.00016700165200000014,-0.7857230915000019,4.011914504999981e-05,-2.3552523449999985,9.295459600000055e-05,1.57099312,0.786,0.04,0.04,-9.833779800000036,0.0006261211965469884,0.008546830500025667,4.6265456092546137e-07,-0.0025842199567534785,-5.596841894483171e-07
0.025,0.00016700047000000015,-0.785707205000002,4.0120834499999785e-05,-2.3552656499999984,9.294979000000062e-05,1.5709927000000001,0.786,0.04,0.04,-9.83347200000004,0.0006220775831029649,0.00832285500002852,6.76785431472735e-07,-0.002732402645032532,-1.0106829149425749e-06
0.0275,0.00016699928800000016,-0.7856913185000023,4.012252394999977e-05,-2.355278954999998,9.294498400000067e-05,1.57099228,0.786,0.04,0.04,-9.833164200000043,0.0006180339696589414,0.00809887950003137,8.909163020200084e-07,-0.002880585333311585,-1.461681640436832e-06
0.03,0.0001669981060000002,-0.7856754320000024,4.012421339999974e-05,-2.355292259999998,9.294017800000074e-05,1.5709918600000001,0.786,0.04,0.04,-9.832856400000047,0.0006139903562149178,0.007874904000034223,1.1050471725672817e-06,-0.0030287680215906384,-1.9126803659310893e-06
0.0325,0.0001669969240000002,-0.7856595455000026,4.0125902849999724e-05,-2.3553055649999974,9.29353720000008e-05,1.57099144,0.786,0.04,0.04,-9.83254860000005,0.0006099467427708944,0.007650928500037075,1.3191780431145554e-06,-0.0031769507098696917,-2.3636790914253473e-06
0.035,0.00016699328700000088,-0.7856445100000026,4.012865939999942e-05,-2.3553180999999976,9.291534300000493e-05,1.57099101,0.786,0.04,0.04,-9.83221900000006,0.0006044021283752921,0.007456530330032018,1.7863543698941675e-06,-0.0033170345704759308,-3.382884399767673e-06
0.0375,0.00016698842250000094,-0.7856299000000028,4.0131949499999376e-05,-2.3553302499999975,9.288770250000528e-05,1.5709905750000002,0.786,0.04,0.04,-9.831878500000064,0.0005981070135033273,0.007276920825034305,2.380053424886607e-06,-0.0034530690172426682,-4.686192999751076e-06
0.04,0.000166983558000001,-0.785615290000003,4.013523959999933e-05,-2.3553423999999974,9.286006200000564e-05,1.5709901400000001,0.786,0.04,0.04,-9.83153800000007,0.0005918118986313625,0.007097311320036591,2.9737524798790477e-06,-0.003589103464009406,-5.989501599734482e-06
0.0425,0.00016697869350000105,-0.7856006800000032,4.0138529699999284e-05,-2.3553545499999973,9.283242150000598e-05,1.5709897050000001,0.786,0.04,0.04,-9.831197500000073,0.0005855167837593977,0.0069177018150388785,3.567451534871489e-06,-0.0037251379107761445,-7.2928101997178885e-06
0.045,0.0001669738290000011,-0.7855860700000034,4.014181979999924e-05,-2.355366699999997,9.280478100000633e-05,1.57098927,0.786,0.04,0.04,-9.830857000000078,0.0005792216688874327,0.006738092310041166,4.161150589863927e-06,-0.003861172357542882,-8.596118799701291e-06
0.0475,0.0001669689645000012,-0.7855714600000036,4.01451098999992e-05,-2.355378849999997,9.277714050000669e-05,1.570988835,0.786,0.04,0.04,-9.830516500000082,0.0005729265540154679,0.006558482805043452,4.754849644856369e-06,-0.00399720680430962,-9.899427399684698e-06
0.05,0.00016696410000000125,-0.7855568500000037,4.0148399999999156e-05,-2.355390999999997,9.274950000000703e-05,1.5709884,0.786,0.04,0.04,-9.830176000000087,0.0005666314391435031,0.0063788733000457384,5.3485486998488095e-06,-0.004133241251076358,-1.1202735999668104e-05
0.0525,0.0001669522500000035,-0.785543387500004,4.015476929999812e-05,-2.3554021599999966,9.268055250002032e-05,1.5709879800000002,0.786,0.04,0.03999999925,-9.829928575000073,0.0005581602163171812,0.006190754265055434,6.44344291967736e-06,-0.004257681220733185,-1.3609521699290775e-05
0.055,0.00016694040000000398,-0.7855299250000045,4.016113859999786e-05,-2.3554133199999963,9.261160500002307e-05,1.5709875600000003,0.786,0.04,0.0399999985,-9.829681150000082,0.0005496889934903053,0.006002635230062962,7.5383371396335455e-06,-0.004382121190387061,-1.601630739919446e-05
0.0575,0.00016692855000000444,-0.7855164625000051,4.016750789999761e-05,-2.355424479999996,9.254265750002583e-05,1.5709871400000002,0.786,0.04,0.03999999775,-9.829433725000094,0.0005412177706634293,0.00581451619507049,8.63323135958973e-06,-0.004506561160040936,-1.842309309909815e-05
0.06,0.00016691670000000493,-0.7855030000000055,4.0173877199997356e-05,-2.355435639999995,9.24737100000286e-05,1.5709867200000003,0.786,0.04,0.039999997,-9.829186300000103,0.0005327465478365533,0.0056263971600780185,9.728125579545913e-06,-0.004631001129694811,-2.082987879900183e-05
0.0625,0.00016690485000000539,-0.785489537500006,4.01802464999971e-05,-2.355446799999995,9.240476250003135e-05,1.5709863000000002,0.786,0.04,0.03999999625,-9.828938875000112,0.0005242753250096773,0.0054382781250855465,1.08230197995021e-05,-0.004755441099348686,-2.323666449890552e-05
0.065,0.00016689300000000587,-0.7854760750000066,4.018661579999685e-05,-2.3554579599999945,9.233581500003411e-05,1.5709858800000003,0.786,0.04,0.0399999955,-9.828691450000123,0.0005158041021828013,0.005250159090093074,1.1917914019458286e-05,-0.0048798810690025615,-2.5643450198809206e-05
0.0675,0.00016687744450001165,-0.7854629550000063,4.019465114999423e-05,-2.355468784999995,9.224355650007049e-05,1.570985605,0.786,0.04,0.03999999525,-9.828433475000143,0.0005055567628074983,0.0050728975050789386,1.3246588624088417e-05,-0.005000729183608716,-2.8643584797875198e-05
0.07,0.0001668544780000107,-0.7854505200000058,4.020601859999471e-05,-2.3554789399999954,9.210467600006467e-05,1.57098562,0.786,0.04,0.039999996,-9.82815440000013,0.0004917571903270059,0.004917350820072431,1.5042823999163567e-05,-0.005114393588102571,-3.283041719805037e-05
0.0725,0.00016683151150000974,-0.7854380850000052,4.021738604999518e-05,-2.355489094999996,9.196579550005886e-05,1.570985635,0.786,0.04,0.03999999675,-9.827875325000118,0.00047795761784651363,0.004761804135065924,1.6839059374238706e-05,-0.005228057992596426,-3.701724959822551e-05
0.075,0.00016680854500000878,-0.7854256500000047,4.0228753499995656e-05,-2.3554992499999963,9.182691500005305e-05,1.57098565,0.786,0.04,0.0399999975,-9.827596250000108,0.0004641580453660213,0.004606257450059417,1.8635294749313857e-05,-0.005341722397090282,-4.120408199840068e-05
0.0775,0.0001667855785000078,-0.7854132150000042,4.0240120949996134e-05,-2.3555094049999967,9.168803450004724e-05,1.570985665,0.786,0.04,0.03999999825,-9.827317175000095,0.00045035847288552895,0.004450710765052909,2.043153012438901e-05,-0.005455386801584137,-4.5390914398575844e-05
0.08,0.00016676261200000684,-0.7854007800000037,4.025148839999661e-05,-2.355519559999997,9.154915400004143e-05,1.57098568,0.786,0.04,0.039999999,-9.827038100000083,0.0004365589004050366,0.0042951640800464016,2.222776549946416e-05,-0.0055690512060779926,-4.9577746798751016e-05
0.0825,0.00016673964550000588,-0.7853883450000032,4.026285584999709e-05,-2.3555297149999976,9.141027350003561e-05,1.570985695,0.786,0.04,0.03999999975,-9.82675902500007,0.00042275932792454427,0.004139617395039894,2.4024000874539308e-05,-0.005682715610571848,-5.3764579198926175e-05
0.085,0.00016670591700000982,-0.7853765570000029,4.0279034099995334e-05,-2.3555396299999978,9.120684640005916e-05,1.57098576,0.786,0.04,0.0399999995,-9.826475900000071,0.0004091273411210308,0.003988376310037424,2.641897299932367e-05,-0.005788253620241428,-5.902270139854566e-05
0.08750000000000001,0.00016666680750001032,-0.785365092500003,4.0297617749995096e-05,-2.3555494249999973,9.097114600006217e-05,1.57098585,0.786,0.04,0.03999999875,-9.826190750000075,0.0003955791471560983,0.003839288025039322,2.9113313499289365e-05,-0.005889728432494436,-6.48164684984719e-05
0.09,0.00016662769800001082,-0.7853536280000032,4.0316201399994865e-05,-2.3555592199999973,9.073544560006517e-05,1.57098594,0.786,0.04,0.039999998,-9.825905600000079,0.00038203095319116586,0.003690199740041221,3.180765399925505e-05,-0.005991203244747443,-7.06102355983981e-05
0.0925,0.00016658858850001132,-0.7853421635000033,4.033478504999463e-05,-2.3555690149999973,9.049974520006817e-05,1.57098603,0.786,0.04,0.03999999725,-9.825620450000082,0.00036848275922623337,0.0035411114550431195,3.450199449922074e-05,-0.006092678057000452,-7.640400269832433e-05
0.095,0.0001665494790000118,-0.7853306990000034,4.035336869999439e-05,-2.355578809999997,9.026404480007117e-05,1.57098612,0.786,0.04,0.0399999965,-9.825335300000086,0.0003549345652613009,0.0033920231700450176,3.719633499918643e-05,-0.00619415286925346,-8.219776979825056e-05
0.0975,0.0001665103695000123,-0.7853192345000035,4.037195234999415e-05,-2.355588604999997,9.002834440007417e-05,1.5709862099999998,0.786,0.04,0.03999999575,-9.82505015000009,0.0003413863712963684,0.003242934885046916,3.989067549915213e-05,-0.006295627681506467,-8.79915368981768e-05
0.1,0.0001664712600000128,-0.7853077700000037,4.039053599999391e-05,-2.3555983999999968,8.979264400007717e-05,1.5709863,0.786,0.04,0.039999995,-9.824765000000093,0.0003278381773314359,0.003093846600048814,4.258501599911783e-05,-0.006397102493759476,-9.378530399810304e-05
0.10250000000000001,0.00016641035550002238,-0.7852971740000039,4.041893309998957e-05,-2.3556072799999965,8.942213980013613e-05,1.5709864199999999,0.786,0.04,0.03999999575,-9.824531750000085,0.00030908356857936104,0.0029816017350412427,4.628787759863944e-05,-0.006490913173149256,-0.00010191734939701202
0.105,0.0001663494510000248,-0.7852865780000042,4.0447330199988426e-05,-2.3556161599999963,8.905163560015096e-05,1.5709865399999998,0.786,0.04,0.0399999965,-9.824298500000095,0.00029032895982558166,0.002869356870045735,4.999073919849125e-05,-0.006584723852536526,-0.00011004939479668656
0.1075,0.00016628854650002726,-0.7852759820000047,4.047572729998729e-05,-2.355625039999996,8.868113140016579e-05,1.57098666,0.786,0.04,0.03999999725,-9.824065250000103,0.0002715743510718022,0.0027571120050502267,5.369360079834307e-05,-0.006678534531923797,-0.00011818144019636113
0.11,0.00016622764200002968,-0.7852653860000052,4.050412439998615e-05,-2.3556339199999954,8.831062720018061e-05,1.57098678,0.786,0.04,0.039999998,-9.823832000000113,0.00025281974231802264,0.0026448671400547182,5.739646239819489e-05,-0.006772345211311068,-0.00012631348559603573
0.1125,0.00016616673750003213,-0.7852547900000055,4.053252149998502e-05,-2.355642799999995,8.794012300019544e-05,1.5709868999999999,0.786,0.04,0.03999999875,-9.823598750000123,0.00023406513356424315,0.0025326222750592098,6.109932399804671e-05,-0.006866155890698339,-0.0001344455309957103
0.115,0.00016610583300003456,-0.785244194000006,4.0560918599983885e-05,-2.355651679999995,8.756961880021027e-05,1.5709870199999998,0.786,0.04,0.0399999995,-9.823365500000133,0.00021531052481046367,0.0024203774100637018,6.480218559789855e-05,-0.00695996657008561,-0.00014257757639538489
0.11750000000000001,0.0001660355370000541,-0.7852338670000059,4.0593539499975045e-05,-2.3556604849999947,8.714195720032926e-05,1.570987145,0.7860000949999999,0.04,0.04,-9.82312730000015,0.00019586267445800094,0.0023057952800724533,6.889108549704677e-05,-0.007050545513578732,-0.0001514495304937109
0.12,0.00016594645800005768,-0.7852240780000063,4.0634607999973404e-05,-2.355669139999994,8.659998080035096e-05,1.57098728,0.7860003799999998,0.04,0.04,-9.82287920000016,0.0001750283409044646,0.002186538620077226,7.375206199685221e-05,-0.00713466098526627,-0.00016180130199329657
0.1225,0.00016585737900006126,-0.7852142890000067,4.067567649997176e-05,-2.355677794999994,8.605800440037265e-05,1.5709874149999998,0.7860006649999999,0.04,0.04,-9.82263110000017,0.00015419400735092813,0.0020672819600819985,7.86130384966577e-05,-0.007218776456953809,-0.00017215307349288233
0.125,0.0001657683000000648,-0.7852045000000071,4.0716744999970116e-05,-2.3556864499999937,8.551602800039433e-05,1.57098755,0.7860009499999998,0.04,0.04,-9.82238300000018,0.00013335967379739168,0.0019480253000867707,8.347401499646317e-05,-0.007302891928641348,-0.00018250484499246809
0.1275,0.00016567922100006838,-0.7851947110000075,4.0757813499968475e-05,-2.3556951049999935,8.497405160041603e-05,1.570987685,0.7860012349999999,0.04,0.04,-9.82213490000019,0.0001125253402438552,0.0018287686400915429,8.833499149626866e-05,-0.0073870074003288865,-0.00019285661649205384
0.13,0.00016559014200007193,-0.7851849220000079,4.0798881999966834e-05,-2.355703759999993,8.443207520043771e-05,1.57098782,0.7860015199999998,0.04,0.04,-9.8218868000002,9.169100669031872e-05,0.0017095119800963152,9.319596799607413e-05,-0.007471122872016425,-0.0002032083879916396
0.1325,0.0001655010630000755,-0.7851751330000083,4.083995049996519e-05,-2.3557124149999926,8.38900988004594e-05,1.5709879549999999,0.7860018049999998,0.04,0.04,-9.821638700000209,7.085667313678226e-05,0.0015902553201010874,9.805694449587962e-05,-0.007555238343703965,-0.00021356015949122536
0.135,0.0001653885940001057,-0.7851658030000077,4.08915409999516e-05,-2.355720589999993,8.3205886400643e-05,1.5709883999999996,0.7860020899999998,0.04,0.04,-9.821429000000162,4.746357446774212e-05,0.0014856091460828647,0.00010291021099587178,-0.007635145308383628,-0.00022560997298901942
0.1375,0.0001652644300001039,-0.7851567025000076,4.094839249995243e-05,-2.3557285249999933,8.245055600063201e-05,1.5709889999999995,0.7860023749999998,0.04,0.04,-9.821238500000158,2.2791093235993266e-05,0.001388268215081448,0.00010775962249594235,-0.0077129480195512,-0.00023850880748920713
0.14,0.00016514026600010208,-0.7851476020000074,4.1005243999953256e-05,-2.3557364599999935,8.169522560062101e-05,1.5709895999999994,0.7860026599999997,0.04,0.04,-9.821048000000156,-1.8813879957556051e-06,0.0012909272840800315,0.00011260903399601292,-0.007790750730718772,-0.00025140764198939485
0.14250000000000002,0.00016501610200010027,-0.7851385015000073,4.106209549995408e-05,-2.3557443949999937,8.093989520061003e-05,1.5709901999999996,0.7860029449999998,0.04,0.04,-9.820857500000153,-2.6553869227504456e-05,0.001193586353078615,0.00011745844549608349,-0.007868553441886344,-0.00026430647648958256
0.145,0.00016489193800009846,-0.7851294010000073,4.111894699995491e-05,-2.355752329999994,8.018456480059905e-05,1.5709907999999995,0.7860032299999998,0.04,0.04,-9.820667000000151,-5.122635045925305e-05,0.0010962454220771994,0.000122307856996154,-0.007946356153053915,-0.00027720531098977016
0.1475,0.00016476777400009667,-0.7851203005000071,4.1175798499955736e-05,-2.3557602649999936,7.942923440058805e-05,1.5709913999999996,0.7860035149999998,0.04,0.04,-9.820476500000147,-7.58988316910019e-05,0.000998904491075783,0.00012715726849622458,-0.008024158864221488,-0.0002901041454899579
0.15,0.00016464361000009486,-0.785111200000007,4.123264999995656e-05,-2.3557681999999938,7.867390400057706e-05,1.5709919999999995,0.7860037999999998,0.04,0.04,-9.820286000000145,-0.00010057131292275076,0.0009015635600743663,0.00013200667999629516,-0.008101961575389059,-0.0003030029799901456
0.1525,0.00016447693150012946,-0.7851027250000066,4.1308620049940996e-05,-2.355775819999994,7.766022515078734e-05,1.5709926899999993,0.7860040909999998,0.04,0.04,-9.820000850000222,-0.0001263590631224004,0.0008101277885710191,0.0001383036349951091,-0.008169627841509462,-0.00031863981248785473
0.155,0.0001643102530001316,-0.7850942500000067,4.1384590099940024e-05,-2.355783439999994,7.664654630080025e-05,1.5709933799999993,0.7860043819999998,0.04,0.04,-9.819715700000225,-0.00015214681332290206,0.0007186920170721832,0.00014460058999502892,-0.00823729410762212,-0.0003342766449876556
0.1575,0.0001641435745001337,-0.7850857750000068,4.146056014993906e-05,-2.355791059999994,7.563286745081315e-05,1.5709940699999994,0.7860046729999998,0.04,0.04,-9.819430550000227,-0.00017793456352340373,0.0006272562455733474,0.00015089754499494874,-0.00830496037373478,-0.00034991347748745657
0.16,0.00016397689600013582,-0.7850773000000069,4.1536530199938095e-05,-2.3557986799999937,7.461918860082606e-05,1.5709947599999994,0.7860049639999998,0.04,0.04,-9.819145400000231,-0.0002037223137239054,0.0005358204740745116,0.00015719449999486857,-0.008372626639847438,-0.00036555030998725746
0.1625,0.00016381021750013795,-0.785068825000007,4.1612500249937124e-05,-2.3558062999999936,7.360550975083896e-05,1.5709954499999994,0.7860052549999997,0.04,0.04,-9.818860250000235,-0.00022951006392440707,0.0004443847025756758,0.0001634914549947884,-0.008440292905960097,-0.0003811871424870584
0.165,0.00016364353900014009,-0.7850603500000071,4.168847029993616e-05,-2.3558139199999935,7.259183090085186e-05,1.5709961399999994,0.7860055459999997,0.04,0.04,-9.818575100000238,-0.00025529781412490874,0.00035294893107683993,0.00016978840999470822,-0.008507959172072756,-0.0003968239749868593
0.1675,0.00016346006600018517,-0.7850520615000067,4.1771996299915855e-05,-2.3558215149999935,7.147611805112591e-05,1.5709968399999994,0.7860059129999996,0.04,0.04,-9.81832205000016,-0.00028360787688932006,0.0002638893125719227,0.00017661542999327146,-0.008573440508864827,-0.0004134273284841866
0.17,0.00016324300400018794,-0.7850441460000068,4.18706341999146e-05,-2.3558290599999934,7.015633720114271e-05,1.5709975599999995,0.7860064319999995,0.04,0.04,-9.818133200000164,-0.0003169625648008204,0.00017958200007299615,0.00018450257999317105,-0.008634551986999028,-0.0004319637239839506
0.17250000000000001,0.0001630259420001907,-0.7850362305000069,4.1969272099913345e-05,-2.3558366049999933,6.883655635115952e-05,1.5709982799999993,0.7860069509999995,0.04,0.04,-9.817944350000165,-0.0003503172527123207,9.52746875740696e-05,0.0001923897299930706,-0.00869566346513323,-0.0004505001194837146
0.17500000000000002,0.00016280888000019347,-0.785028315000007,4.206790999991208e-05,-2.355844149999993,6.751677550117632e-05,1.5709989999999994,0.7860074699999995,0.04,0.04,-9.817755500000168,-0.00038367194062382105,1.0967375075143001e-05,0.0002002768799929702,-0.008756774943267431,-0.00046903651498347854
0.1775,0.00016259181800019624,-0.7850203995000071,4.216654789991083e-05,-2.355851694999993,6.619699465119313e-05,1.5709997199999994,0.7860079889999995,0.04,0.04,-9.81756665000017,-0.000417026628535321,-7.333993742378265e-05,0.0002081640299928697,-0.008817886421401633,-0.0004875729104832423
0.18,0.00016237475600019898,-0.7850124840000072,4.226518579990957e-05,-2.3558592399999934,6.487721380120994e-05,1.5710004399999995,0.7860085079999996,0.04,0.04,-9.817377800000173,-0.00045038131644682135,-0.00015764724992270923,0.00021605117999276926,-0.008878997899535834,-0.0005061093059830063
0.1825,0.00016215769400020175,-0.7850045685000073,4.236382369990832e-05,-2.3558667849999932,6.355743295122674e-05,1.5710011599999993,0.7860090269999995,0.04,0.04,-9.817188950000176,-0.00048373600435832166,-0.00024195456242163575,0.00022393832999266885,-0.008940109377670036,-0.0005246457014827703
0.185,0.00016190154200025977,-0.784996987000007,4.24800516998822e-05,-2.355874269999993,6.199942890158024e-05,1.571002249999999,0.7860095799999994,0.0399999995,0.04,-9.817002050000175,-0.0005196093988720322,-0.0003152346999361478,0.0002322377959919857,-0.008997832238621297,-0.0005452911999795534
0.1875,0.00016162584500026327,-0.7849895725000071,4.2605074749880605e-05,-2.355881724999993,6.0322313251601595e-05,1.571003524999999,0.7860101499999994,0.03999999875,0.04,-9.816816125000177,-0.0005567421466921394,-0.000383001249935285,0.0002407434199918774,-0.009053860790973969,-0.0005669912499792772
0.19,0.0001613501480002668,-0.7849821580000071,4.2730097799879014e-05,-2.355889179999993,5.864519760162295e-05,1.5710047999999988,0.7860107199999994,0.039999998,0.04,-9.81663020000018,-0.0005938748945122466,-0.0004507677999344222,0.0002492490439917691,-0.009109889343326641,-0.0005886912999790009
0.1925,0.0001610744510002703,-0.7849747435000073,4.285512084987742e-05,-2.355896634999993,5.6968081951644304e-05,1.5710060749999988,0.7860112899999994,0.03999999725,0.04,-9.816444275000181,-0.0006310076423323538,-0.0005185343499335593,0.0002577546679916608,-0.009165917895679313,-0.0006103913499787246
0.195,0.0001607987540002738,-0.7849673290000074,4.298014389987583e-05,-2.3559040899999926,5.529096630166566e-05,1.5710073499999988,0.7860118599999995,0.0399999965,0.04,-9.816258350000185,-0.000668140390152461,-0.0005863008999326966,0.0002662602919915525,-0.009221946448031983,-0.0006320913999784482
0.1975,0.0001605230570002773,-0.7849599145000075,4.3105166949874235e-05,-2.3559115449999926,5.3613850651687005e-05,1.5710086249999986,0.7860124299999994,0.03999999575,0.04,-9.816072425000186,-0.0007052731379725682,-0.0006540674499318338,0.0002747659159914442,-0.009277975000384655,-0.000653791449978172
0.2,0.00016024736000028083,-0.7849525000000076,4.3230189999872644e-05,-2.3559189999999925,5.1936735001708367e-05,1.5710098999999986,0.7860129999999994,0.039999995,0.04,-9.81588650000019,-0.0007424058857926756,-0.000721833999930971,0.0002832715399913359,-0.009334003552737327,-0.0006754914999778957
0.2025,0.0001599044135003537,-0.7849455205000072,4.338545544983986e-05,-2.3559264249999923,4.985118765215095e-05,1.5710115049999982,0.7860135699999994,0.039999994250000004,0.03999999925,-9.815687975000204,-0.0007825559004726858,-0.0007956610299238576,0.000293396001489558,-0.00938272015186584,-0.0007002308649744848
0.20500000000000002,0.00015956146700035807,-0.7849385410000073,4.3540720899837885e-05,-2.3559338499999924,4.776564030217751e-05,1.5710131099999982,0.7860141399999994,0.039999993500000004,0.0399999985,-9.815489450000207,-0.0008227059151557696,-0.0008694880599229176,0.00030352046298942907,-0.009431436750986904,-0.0007249702299741698
0.20750000000000002,0.00015921852050036243,-0.7849315615000074,4.369598634983591e-05,-2.355941274999992,4.568009295220406e-05,1.5710147149999982,0.7860147099999993,0.039999992750000005,0.03999999775,-9.815290925000209,-0.0008628559298388534,-0.0009433150899219778,0.0003136449244893002,-0.00948015335010797,-0.0007497095949738548
0.21,0.0001588755740003668,-0.7849245820000075,4.385125179983393e-05,-2.355948699999992,4.359454560223064e-05,1.5710163199999982,0.7860152799999993,0.039999992000000005,0.039999997,-9.815092400000212,-0.0009030059445219367,-0.001017142119921037,0.0003237693859891712,-0.009528869949229034,-0.0007744489599735395
0.2125,0.00015853262750037116,-0.7849176025000075,4.4006517249831954e-05,-2.355956124999992,4.150899825225719e-05,1.5710179249999983,0.7860158499999993,0.03999999125,0.03999999625,-9.814893875000214,-0.0009431559592050205,-0.001090969149920097,0.00033389384748904225,-0.009577586548350099,-0.0007991883249732246
0.215,0.00015818968100037552,-0.7849106230000076,4.416178269982998e-05,-2.355963549999992,3.9423450902283744e-05,1.5710195299999983,0.7860164199999994,0.0399999905,0.0399999955,-9.814695350000218,-0.0009833059738881043,-0.0011647961799191569,0.00034401830898891337,-0.009626303147471163,-0.0008239276899729097
0.2175,0.00015782134450046808,-0.7849037665000074,4.4328464849788334e-05,-2.3559709749999915,3.7183761552845734e-05,1.571021219999998,0.786017086999999,0.0399999899,0.03999999465,-9.814497650000218,-0.001024117373115742,-0.0012336590249341784,0.0003548098434864573,-0.009673065599006148,-0.0008497158199688556
0.22,0.00015740222800048485,-0.7848971560000076,4.4517980399780755e-05,-2.3559783999999913,3.463578820294769e-05,1.5710230799999978,0.786017947999999,0.0399999896,0.039999993600000006,-9.814301600000226,-0.001066251541439056,-0.0012925934999318202,0.00036693552398597205,-0.009715919755349562,-0.0008776014799677398
0.2225,0.00015698311150050162,-0.7848905455000079,4.470749594977317e-05,-2.355985824999991,3.208781485304965e-05,1.5710249399999978,0.786018808999999,0.0399999893,0.03999999255,-9.814105550000235,-0.00110838570976237,-0.0013515279749294618,0.00037906120448548685,-0.009758773911692978,-0.0009054871399666239
0.225,0.0001565639950005184,-0.7848839350000082,4.4897011499765584e-05,-2.3559932499999907,2.9539841503151615e-05,1.5710267999999976,0.786019669999999,0.039999989,0.039999991500000005,-9.813909500000243,-0.0011505198780856836,-0.0014104624499271033,0.0003911868849850016,-0.009801628068036394,-0.0009333727999655079
0.2275,0.00015614487850053516,-0.7848773245000085,4.5086527049758e-05,-2.3560006749999904,2.6991868153253577e-05,1.5710286599999976,0.7860205309999989,0.0399999887,0.03999999045,-9.81371345000025,-0.0011926540464089975,-0.001469396924924745,0.0004033125654845164,-0.009844482224379808,-0.0009612584599643921
0.23,0.00015572576200055194,-0.7848707140000087,4.527604259975042e-05,-2.35600809999999,2.444389480335554e-05,1.5710305199999974,0.7860213919999989,0.0399999884,0.039999989400000005,-9.81351740000026,-0.0012347882147323115,-0.0015283313999223866,0.0004154382459840311,-0.009887336380723224,-0.0009891441199632763
0.2325,0.0001553066455005687,-0.784864103500009,4.5465558149742834e-05,-2.35601552499999,2.18959214534575e-05,1.5710323799999975,0.7860222529999988,0.0399999881,0.03999998835,-9.813321350000267,-0.0012769223830556254,-0.0015872658749200284,0.0004275639264835459,-0.00993019053706664,-0.0010170297799621602
0.23500000000000001,0.0001548306600006863,-0.7848577000000085,4.5680646499689954e-05,-2.3560229999999898,1.9002657268171474e-05,1.5710346199999967,0.7860232019999986,0.0399999876,0.0399999872,-9.813130400000258,-0.0013265694607253592,-0.0016439898399243254,0.0004401795429825019,-0.009969451930322856,-0.0010471582699574814
0.23750000000000002,0.00015432624000067896,-0.7848514000000085,4.590852124969327e-05,-2.35603049999999,1.5936747664126856e-05,1.5710370499999966,0.7860241949999986,0.039999987,0.039999986,-9.812942000000254,-0.0013799729930914664,-0.0016996085499251347,0.00045304012748268905,-0.010006916942024395,-0.0010784081749579363
0.24,0.00015382182000067164,-0.7848451000000084,4.613639599969658e-05,-2.35603799999999,1.287083806008227e-05,1.5710394799999967,0.7860251879999987,0.0399999864,0.0399999848,-9.812753600000251,-0.001433376525457573,-0.0017552272599259434,0.0004659007119828761,-0.010044381953725935,-0.0011096580799583905
0.2425,0.0001533174000006643,-0.7848388000000083,4.63642707496999e-05,-2.3560454999999902,9.804928456037653e-06,1.5710419099999968,0.7860261809999988,0.039999985800000006,0.0399999836,-9.812565200000249,-0.0014867800578236801,-0.001810845969926753,0.0004787612964830632,-0.010081846965427476,-0.0011409079849588454
0.245,0.00015281298000065696,-0.7848325000000083,4.659214549970322e-05,-2.3560529999999904,6.739018851993035e-06,1.571044339999997,0.7860271739999988,0.039999985200000004,0.0399999824,-9.812376800000246,-0.0015401835901897873,-0.0018664646799275624,0.0004916218809832504,-0.010119311977129015,-0.0011721578899593
0.2475,0.00015230856000064962,-0.7848262000000081,4.682002024970653e-05,-2.3560604999999906,3.673109247948419e-06,1.5710467699999968,0.7860281669999988,0.0399999846,0.0399999812,-9.812188400000242,-0.0015935871225558945,-0.0019220833899283717,0.0005044824654834375,-0.010156776988830555,-0.0012034077949597548
0.25,0.00015180414000064228,-0.784819900000008,4.704789499970985e-05,-2.3560679999999903,6.071996439038015e-07,1.571049199999997,0.7860291599999988,0.039999984,0.03999998,-9.81200000000024,-0.0016469906549220017,-0.0019777020999291813,0.0005173430499836247,-0.010194242000532096,-0.0012346576999602097
0.2525,0.00015120504600077045,-0.7848138550000078,4.7318345149652196e-05,-2.3560755599999905,-3.0335172013179485e-06,1.571052184999996,0.7860303059999986,0.039999982950000006,0.03999997895,-9.811807700000246,-0.0017053264308901188,-0.002034544464926899,0.0005317710129814452,-0.010225466964726189,-0.0012694822549552147
0.255,0.00015060595200077807,-0.7848078100000079,4.758879529964875e-05,-2.3560831199999903,-6.674234047271594e-06,1.5710551699999962,0.7860314519999985,0.0399999819,0.0399999779,-9.81161540000025,-0.001763662206864516,-0.0020913868299261757,0.0005461989759812615,-0.010256691928912336,-0.0013043068099547713
0.2575,0.0001500068580007857,-0.784801765000008,4.7859245449645306e-05,-2.35609067999999,-1.031495089322524e-05,1.5710581549999962,0.7860325979999985,0.039999980850000005,0.03999997685,-9.811423100000251,-0.0018219979828389132,-0.002148229194925452,0.0005606269389810778,-0.010287916893098483,-0.001339131364954328
0.26,0.00014940776400079332,-0.7847957200000081,4.8129695599641865e-05,-2.35609823999999,-1.3955667739178887e-05,1.571061139999996,0.7860337439999985,0.0399999798,0.039999975800000004,-9.811230800000255,-0.0018803337588133107,-0.0022050715599247284,0.0005750549019808941,-0.01031914185728463,-0.0013739559199538846
0.2625,0.00014880867000080096,-0.7847896750000081,4.840014574963842e-05,-2.35610579999999,-1.759638458513253e-05,1.5710641249999961,0.7860348899999985,0.03999997875,0.03999997475,-9.811038500000256,-0.001938669534787708,-0.0022619139249240045,0.0005894828649807104,-0.010350366821470778,-0.0014087804749534413
0.265,0.00014820957600080858,-0.7847836300000082,4.8670595899634975e-05,-2.35611335999999,-2.123710143108618e-05,1.571067109999996,0.7860360359999984,0.0399999777,0.039999973700000004,-9.81084620000026,-0.001997005310762105,-0.0023187562899232806,0.0006039108279805268,-0.010381591785656926,-0.001443605029952998
0.2675,0.0001475757410009582,-0.784777645000008,4.8956669699567676e-05,-2.3561209549999895,-2.508868489417796e-05,1.5710702749999954,0.7860372749999981,0.0399999768,0.03999997285,-9.810654800000258,-0.0020569046027099067,-0.002372991954933211,0.0006188765364781452,-0.010410875687340997,-0.0014795993949477731
0.27,0.00014687242400096716,-0.784771780000008,4.927399079956364e-05,-2.3561286199999896,-2.9362001594123553e-05,1.5710737999999953,0.786038699999998,0.0399999762,0.0399999724,-9.81046520000026,-0.0021199309266236293,-0.002422014219932587,0.000634917735977941,-0.010436277463997189,-0.001517933379947285
0.2725,0.00014616910700097612,-0.7847659150000081,4.959131189955959e-05,-2.3561362849999896,-3.363531829406915e-05,1.5710773249999952,0.786040124999998,0.0399999756,0.039999971950000004,-9.810275600000264,-0.002182957250537352,-0.002471036484931963,0.0006509589354777367,-0.01046167924065338,-0.001556267364946797
0.275,0.00014546579000098507,-0.7847600500000081,4.9908632999555554e-05,-2.356143949999989,-3.790863499401474e-05,1.571080849999995,0.786041549999998,0.039999975,0.0399999715,-9.810086000000265,-0.0022459835744510744,-0.0025200587499313387,0.0006670001349775325,-0.010487081017309573,-0.0015946013499463089
0.2775,0.00014476247300099402,-0.7847541850000083,5.0225954099551515e-05,-2.3561516149999893,-4.218195169396033e-05,1.5710843749999952,0.786042974999998,0.0399999744,0.03999997105,-9.809896400000268,-0.002309009898364797,-0.0025690810149307146,0.0006830413344773282,-0.010512482793965765,-0.0016329353349458207
0.28,0.00014405915600100298,-0.7847483200000084,5.054327519954748e-05,-2.3561592799999893,-4.6455268393905924e-05,1.571087899999995,0.786044399999998,0.039999973800000005,0.039999970600000004,-9.80970680000027,-0.0023720362222785195,-0.0026181032799300905,0.000699082533977124,-0.010537884570621955,-0.0016712693199453328
0.28250000000000003,0.00014335583900101193,-0.7847424550000084,5.086059629954343e-05,-2.356166944999989,-5.0728585093851515e-05,1.571091424999995,0.786045824999998,0.039999973200000004,0.03999997015,-9.809517200000274,-0.002435062546192242,-0.0026671255449294664,0.0007151237334769198,-0.010563286347278147,-0.0017096033049448446
0.28500000000000003,0.0001425765960011862,-0.7847367000000083,5.1212065199465046e-05,-2.356174949999988,-5.5462767592793653e-05,1.5710952899999941,0.7860474049999976,0.039999972700000004,0.039999969600000004,-9.809319200000294,-0.0025003269546632215,-0.002715638139929952,0.0007319154699750814,-0.010584636218817771,-0.0017503117999391866
0.28750000000000003,0.0001417593900011966,-0.7847310000000083,5.158060799946035e-05,-2.3561831249999883,-6.042738299273045e-05,1.571099324999994,0.7860490624999975,0.03999997225,0.039999969,-9.809117000000297,-0.0025667104054200966,-0.0027638958999293374,0.0007490824749748628,-0.010603960137785955,-0.001792207549938653
0.29,0.00014094218400120703,-0.7847253000000084,5.194915079945565e-05,-2.356191299999988,-6.539199839266714e-05,1.5711033599999942,0.7860507199999975,0.0399999718,0.0399999684,-9.808914800000299,-0.00263309385617697,-0.002812153659928722,0.0007662494799746439,-0.010623284056754138,-0.0018341032999381187
0.2925,0.00014012497800121743,-0.7847196000000084,5.231769359945096e-05,-2.356199474999988,-7.035661379260392e-05,1.571107394999994,0.7860523774999976,0.03999997135,0.0399999678,-9.808712600000302,-0.0026994773069338447,-0.0028604114199281077,0.0007834164849744253,-0.010642607975722322,-0.0018759990499375855
0.295,0.00013930777200122784,-0.7847139000000085,5.2686236399446266e-05,-2.356207649999988,-7.532122919254071e-05,1.571111429999994,0.7860540349999975,0.0399999709,0.0399999672,-9.808510400000305,-0.0027658607576907194,-0.002908669179927493,0.0008005834899742067,-0.010661931894690507,-0.001917894799937052
0.2975,0.00013849056600123824,-0.7847082000000086,5.305477919944157e-05,-2.3562158249999876,-8.028584459247751e-05,1.5711154649999939,0.7860556924999975,0.039999970450000005,0.0399999666,-9.808308200000306,-0.0028322442084475945,-0.002956926939926879,0.0008177504949739881,-0.010681255813658691,-0.0019597905499365185
0.3,0.00013767336000124864,-0.7847025000000086,5.3423321999436887e-05,-2.3562239999999877,-8.525045999241429e-05,1.5711194999999938,0.7860573499999974,0.03999997,0.039999966,-9.80810600000031,-0.002898627659204469,-0.0030051846999262642,0.0008349174999737695,-0.010700579732626874,-0.0020016862999359853
0.3025,0.0001367324280014497,-0.7846969050000085,5.3847466499346525e-05,-2.3562327299999866,-9.096570899119459e-05,1.5711241499999928,0.7860591874999971,0.0399999694,0.0399999648,-9.807962600000222,-0.0029797361231090375,-0.003041998044943282,0.0008535420399713053,-0.010716485930582139,-0.0020470552249301005
0.305,0.00013579149600146165,-0.7846913100000087,5.4271610999341124e-05,-2.3562414599999864,-9.668095799112182e-05,1.5711287999999928,0.7860610249999972,0.0399999688,0.0399999636,-9.807819200000223,-0.0030608445870361047,-0.0030788113899428136,0.0008721665799710683,-0.010732392128532182,-0.002092424149929523
0.3075,0.00013485056400147364,-0.7846857150000087,5.469575549933573e-05,-2.356250189999986,-0.00010239620699104906,1.5711334499999927,0.7860628624999971,0.0399999682,0.0399999624,-9.807675800000224,-0.003141953050963172,-0.003115624734942345,0.0008907911199708312,-0.010748298326482225,-0.0021377930749289452
0.31,0.00013390963200148563,-0.7846801200000088,5.511989999933033e-05,-2.3562589199999864,-0.0001081114559909763,1.5711380999999927,0.7860646999999971,0.0399999676,0.0399999612,-9.807532400000227,-0.0032230615148902395,-0.003152438079941876,0.000909415659970594,-0.010764204524432266,-0.002183161999928368
0.3125,0.0001329687000014976,-0.7846745250000089,5.554404449932493e-05,-2.356267649999986,-0.00011382670499090352,1.5711427499999926,0.7860665374999971,0.039999967,0.03999996,-9.807389000000228,-0.0033041699788173068,-0.0031892514249414073,0.0009280401999703569,-0.01078011072238231,-0.00222853092492779
0.315,0.00013202776800150958,-0.7846689300000089,5.596818899931953e-05,-2.356276379999986,-0.00011954195399083075,1.5711473999999925,0.786068374999997,0.039999966399999996,0.039999958800000006,-9.80724560000023,-0.003385278442744374,-0.0032260647699409385,0.0009466647399701197,-0.010796016920332352,-0.002273899849927212
0.3175,0.0001310423060017376,-0.7846633550000089,5.6412357899216985e-05,-2.3562851449999855,-0.000125527443489447,1.5711522649999914,0.7860702929999966,0.0399999662,0.0399999581,-9.807097850000254,-0.003468264650878807,-0.0032646286799319774,0.0009658992349669236,-0.010810539592038386,-0.002320523709920547
0.32,0.00012996778400175128,-0.7846578200000089,5.689657559921082e-05,-2.3562939799999856,-0.0001320534139893639,1.5711575599999914,0.7860723719999966,0.039999966799999995,0.0399999584,-9.806941400000255,-0.0035550063474552277,-0.003306693719931442,0.0009863536399666631,-0.010822295211236321,-0.002369657439919921
0.3225,0.00012889326200176494,-0.784652285000009,5.738079329920466e-05,-2.356302814999985,-0.0001385793844892808,1.5711628549999912,0.7860744509999966,0.039999967399999996,0.039999958700000005,-9.806784950000257,-0.0036417480440316483,-0.0033487587599309063,0.0010068080449664027,-0.010834050830434256,-0.0024187911699192956
0.325,0.00012781874000177863,-0.7846467500000092,5.786501099919849e-05,-2.356311649999985,-0.00014510535498919773,1.5711681499999912,0.7860765299999966,0.039999968,0.039999959,-9.80662850000026,-0.003728489740608069,-0.0033908237999303705,0.0010272624499661424,-0.010845806449632192,-0.00246792489991867
0.3275,0.00012674421800179232,-0.7846412150000092,5.834922869919232e-05,-2.3563204849999853,-0.00015163132548911464,1.5711734449999912,0.7860786089999965,0.0399999686,0.0399999593,-9.806472050000261,-0.0038152314371844897,-0.003432888839929835,0.001047716854965882,-0.010857562068830127,-0.0025170586299180443
0.33,0.00012566969600180599,-0.7846356800000093,5.883344639918616e-05,-2.356329319999985,-0.00015815729598903154,1.5711787399999912,0.7860806879999965,0.0399999692,0.0399999596,-9.806315600000264,-0.0039019731337609103,-0.0034749538799292994,0.0010681712599656214,-0.010869317688028061,-0.002566192359917419
0.3325,0.00012459517400181968,-0.7846301450000093,5.9317664099179994e-05,-2.356338154999985,-0.00016468326648894847,1.571184034999991,0.7860827669999965,0.0399999698,0.0399999599,-9.806159150000266,-0.003988714830337331,-0.003517018919928764,0.0010886256649653612,-0.010881073307225998,-0.0026153260899167935
0.335,0.00012342495350207828,-0.7846246140000094,5.984490359906372e-05,-2.356347689999983,-0.00017178990198737928,1.57118973999999,0.7860850439999959,0.03999997,0.03999996,-9.805969000000355,-0.004080261010516305,-0.0035579485099311342,0.0011101081199624695,-0.010889074485738491,-0.0026668981799099272
0.3375,0.00012220688375209378,-0.7846190850000094,6.0393653999056736e-05,-2.3563575749999828,-0.00017918686998728508,1.57119564999999,0.7860874199999959,0.03999997,0.03999996,-9.805762000000357,-0.004174209432514909,-0.0035983103749306204,0.0011321045999621894,-0.010895198443893923,-0.002719689449909255
0.34,0.00012098881400210929,-0.7846135560000096,6.094240439904975e-05,-2.3563674599999826,-0.0001865838379871909,1.5712015599999898,0.7860897959999958,0.03999997,0.03999996,-9.805555000000359,-0.004268157854513513,-0.0036386722399301065,0.0011541010799619095,-0.010901322402049355,-0.0027724807199085827
0.3425,0.0001197707442521248,-0.7846080270000096,6.149115479904276e-05,-2.3563773449999825,-0.00019398080598709673,1.5712074699999896,0.7860921719999958,0.03999997,0.03999996,-9.805348000000361,-0.004362106276512116,-0.0036790341049295927,0.0011760975599616294,-0.010907446360204787,-0.0028252719899079107
0.34500000000000003,0.00011855267450214031,-0.7846024980000097,6.203990519903578e-05,-2.3563872299999824,-0.00020137777398700256,1.5712133799999897,0.7860945479999958,0.03999997,0.03999996,-9.805141000000363,-0.00445605469851072,-0.003719395969929079,0.0011980940399613494,-0.01091357031836022,-0.0028780632599072387
0.34750000000000003,0.00011733460475215582,-0.7845969690000097,6.258865559902879e-05,-2.3563971149999823,-0.0002087747419869084,1.5712192899999895,0.7860969239999958,0.03999997,0.03999996,-9.804934000000367,-0.004550003120509324,-0.003759757834928565,0.0012200905199610693,-0.010919694276515651,-0.0029308545299065666
0.35000000000000003,0.00011611653500217133,-0.7845914400000099,6.313740599902181e-05,-2.356406999999982,-0.00021617170998681421,1.5712251999999896,0.7860992999999957,0.03999997,0.03999996,-9.80472700000037,-0.004643951542507928,-0.003800119699928051,0.0012420869999607892,-0.010925818234671083,-0.002983645799905894
0.3525,0.00011474492375249995,-0.7845858690000101,6.375516509887405e-05,-2.356417259999981,-0.00022450017648482026,1.5712319349999877,0.7861019849999951,0.03999997,0.03999996,-9.804641500000155,-0.004741901834316742,-0.003842237944923234,0.0012655440449572464,-0.010930282156906258,-0.0030401052748970946
0.355,0.00011337331250255484,-0.7845802980000104,6.437292419884933e-05,-2.356427519999981,-0.00023282864298448697,1.5712386699999874,0.786104669999995,0.03999997,0.03999996,-9.80455600000016,-0.004839852126132692,-0.0038843561899215484,0.0012890010899563077,-0.010934746079138476,-0.0030965647498948355
0.3575,0.00011200170125260972,-0.7845747270000106,6.499068329882461e-05,-2.3564377799999803,-0.00024115710948415369,1.571245404999987,0.7861073549999948,0.03999997,0.03999996,-9.804470500000162,-0.0049378024179486425,-0.003926474434919863,0.001312458134955369,-0.010939210001370691,-0.0031530242248925763
0.36,0.00011063009000266461,-0.7845691560000109,6.560844239879988e-05,-2.35644803999998,-0.0002494855759838204,1.5712521399999868,0.7861100399999947,0.03999997,0.03999996,-9.804385000000167,-0.0050357527097645936,-0.003968592679918177,0.0013359151799544303,-0.010943673923602907,-0.0032094836998903167
0.3625,0.00010925847875271949,-0.7845635850000111,6.622620149877517e-05,-2.3564582999999795,-0.0002578140424834871,1.5712588749999867,0.7861127249999946,0.03999997,0.03999996,-9.80429950000017,-0.005133703001580544,-0.004010710924916492,0.0013593722249534916,-0.010948137845835124,-0.0032659431748880575
0.365,0.00010788686750277439,-0.7845580140000114,6.684396059875044e-05,-2.3564685599999793,-0.00026614250898315383,1.5712656099999864,0.7861154099999945,0.03999997,0.03999996,-9.804214000000172,-0.005231653293396494,-0.004052829169914807,0.0013828292699525528,-0.01095260176806734,-0.0033224026498857983
0.3675,0.0001064607415031387,-0.7845524300000115,6.748623049858662e-05,-2.3564790949999774,-0.00027480169398094354,1.5712726149999845,0.7861182049999939,0.03999997,0.03999996,-9.804090500000408,-0.005336495837885397,-0.0040951787699124685,0.0014067854349489794,-0.010955298319460629,-0.0033800884948770437
0.37,0.00010492558600311635,-0.7845468200000114,6.817752199859667e-05,-2.3564901799999776,-0.0002841223159810792,1.5712801599999846,0.7861212199999938,0.03999997,0.03999996,-9.803891000000405,-0.005455122887847328,-0.0041379910799130915,0.0014317398399493425,-0.01095446012914346,-0.003440227079877919
0.3725,0.00010339043050309401,-0.7845412100000113,6.886881349860674e-05,-2.3565012649999777,-0.0002934429379812148,1.5712877049999847,0.786124234999994,0.03999997,0.03999996,-9.803691500000403,-0.005573749937809259,-0.0041808033899137145,0.0014566942449497058,-0.010953621938826293,-0.003500365664878794
0.375,0.00010185527500307167,-0.7845356000000112,6.956010499861681e-05,-2.356512349999978,-0.00030276355998135046,1.571295249999985,0.786127249999994,0.03999997,0.03999996,-9.8034920000004,-0.005692376987771191,-0.004223615699914337,0.001481648649950069,-0.010952783748509127,-0.0035605042498796694
0.3775,0.00010032011950304933,-0.7845299900000111,7.025139649862686e-05,-2.356523434999978,-0.0003120841819814861,1.5713027949999852,0.786130264999994,0.03999997,0.03999996,-9.803292500000397,-0.005811004037733122,-0.00426642800991496,0.001506603054950432,-0.010951945558191959,-0.0036206428348805448
0.38,9.878496400302699e-05,-0.784524380000011,7.094268799863693e-05,-2.356534519999978,-0.00032140480398162174,1.5713103399999853,0.786133279999994,0.03999997,0.03999996,-9.803093000000393,-0.005929631087695054,-0.004309240319915583,0.0015315574599507951,-0.010951107367874793,-0.0036807814198814197
0.3825,9.724980850300465e-05,-0.7845187700000109,7.163397949864698e-05,-2.3565456049999787,-0.0003307254259817574,1.5713178849999854,0.7861362949999942,0.03999997,0.03999996,-9.80289350000039,-0.006048258137656985,-0.004352052629916206,0.0015565118649511584,-0.010950269177557625,-0.003740920004882295
0.385,9.559895750335053e-05,-0.7845130940000111,7.23772803984915e-05,-2.3565573999999763,-0.0003407479099796591,1.5713260299999836,0.7861395329999935,0.03999997,0.03999996,-9.802733800000274,-0.006170070729907729,-0.004393510279920036,0.0015824356699482164,-0.010947217140354865,-0.0038035084398748706
0.3875,9.389025875337228e-05,-0.7845073850000113,7.314658599848171e-05,-2.356569549999976,-0.00035112132497952704,1.5713344749999834,0.7861428824999934,0.03999997,0.03999996,-9.802594000000276,-0.0062934760933168726,-0.004434290599919516,0.00160884417494788,-0.010943058179699582,-0.0038673217998740584
0.39,9.218156000339404e-05,-0.7845016760000113,7.39158915984719e-05,-2.356581699999976,-0.00036149473997939494,1.5713429199999833,0.7861462319999933,0.03999997,0.03999996,-9.802454200000279,-0.0064168814567260165,-0.004475070919918997,0.001635252679947544,-0.0109388992190443,-0.003931135159873245
0.3925,9.047286125341579e-05,-0.7844959670000115,7.468519719846212e-05,-2.356593849999976,-0.0003718681549792629,1.5713513649999833,0.7861495814999934,0.03999997,0.03999996,-9.802314400000279,-0.00654028682013516,-0.004515851239918478,0.0016616611849472078,-0.010934740258389019,-0.003994948519872433
0.395,8.876416250343755e-05,-0.7844902580000115,7.545450279845231e-05,-2.3566059999999758,-0.0003822415699791308,1.571359809999983,0.7861529309999933,0.03999997,0.03999996,-9.802174600000281,-0.006663692183544304,-0.004556631559917959,0.0016880696899468715,-0.010930581297733737,-0.004058761879871621
0.3975,8.70554637534593e-05,-0.7844845490000115,7.622380839844253e-05,-2.356618149999975,-0.0003926149849789987,1.571368254999983,0.7861562804999932,0.03999997,0.03999996,-9.802034800000284,-0.0067870975469534476,-0.004597411879917439,0.0017144781949465352,-0.010926422337078455,-0.004122575239870809
0.4,8.534676500348106e-05,-0.7844788400000117,7.699311399843274e-05,-2.356630299999975,-0.00040298839997886666,1.571376699999983,0.7861596299999932,0.03999997,0.03999996,-9.801895000000284,-0.0069105029103625915,-0.00463819219991692,0.0017408866999461992,-0.010922263376423172,-0.004186388599869996
0.4025,8.345453075387906e-05,-0.7844729690000121,7.784491179825382e-05,-2.356643454999973,-0.0004144750294764525,1.571386014999981,0.7861633304999924,0.03999997,0.039999959700000004,-9.801798700000198,-0.007036503171289925,-0.00468959281989463,0.0017688272449427223,-0.010915442463024467,-0.004253740609861929
0.405,8.156229650390315e-05,-0.7844670980000121,7.869670959824298e-05,-2.356656609999973,-0.00042596165897630623,1.5713953299999808,0.7861670309999923,0.03999997,0.0399999594,-9.801702400000199,-0.007162503432222547,-0.004740993439893975,0.0017967677899423664,-0.010908621549620339,-0.004321092619861072
0.40750000000000003,7.967006225392725e-05,-0.7844612270000122,7.954850739823213e-05,-2.356669764999973,-0.00043744828847616,1.5714046449999806,0.7861707314999923,0.03999997,0.0399999591,-9.8016061000002,-0.007288503693155167,-0.0047923940598933205,0.0018247083349420107,-0.010901800636216211,-0.004388444629860214
0.41000000000000003,7.777782800395134e-05,-0.7844553560000123,8.040030519822129e-05,-2.3566829199999724,-0.0004489349179760138,1.5714139599999806,0.7861744319999923,0.03999997,0.0399999588,-9.801509800000202,-0.007414503954087788,-0.004843794679892666,0.001852648879941655,-0.010894979722812084,-0.004455796639859357
0.41250000000000003,7.588559375397543e-05,-0.7844494850000123,8.125210299821044e-05,-2.3566960749999724,-0.0004604215474758675,1.5714232749999804,0.7861781324999921,0.03999997,0.0399999585,-9.801413500000203,-0.0075405042150204086,-0.004895195299892012,0.0018805894249412994,-0.010888158809407956,-0.004523148649858499
0.41500000000000004,7.399335950399952e-05,-0.7844436140000124,8.210390079819959e-05,-2.356709229999972,-0.0004719081769757213,1.5714325899999801,0.7861818329999921,0.03999997,0.039999958200000005,-9.801317200000204,-0.00766650447595303,-0.004946595919891357,0.0019085299699409435,-0.010881337896003828,-0.004590500659857642
0.4175,7.203663500443505e-05,-0.7844376875000127,8.29846874480038e-05,-2.356722534999971,-0.00048378604097307903,1.571442224999978,0.7861856684999913,0.03999997015,0.0399999581,-9.801207500000292,-0.007801567716198193,-0.004996239184901912,0.0019369792599373417,-0.010873747617025713,-0.004659113699848738
0.42,6.99509300044616e-05,-0.7844316500000129,8.392345179799186e-05,-2.356736139999971,-0.0004964463739729178,1.571452499999978,0.7861897739999911,0.039999970600000004,0.0399999584,-9.801071000000293,-0.007954756915241548,-0.005042367739901325,0.0019664460399369667,-0.010864618606884929,-0.004730248799847832
0.4225,6.786522500448816e-05,-0.784425612500013,8.48622161479799e-05,-2.356749744999971,-0.0005091067069727567,1.5714627749999779,0.7861938794999911,0.03999997105,0.039999958700000005,-9.800934500000293,-0.008107946114284902,-0.005088496294900737,0.0019959128199365916,-0.010855489596744145,-0.004801383899846926
0.425,6.577952000451472e-05,-0.784419575000013,8.580098049796794e-05,-2.3567633499999707,-0.0005217670399725955,1.5714730499999776,0.786197984999991,0.0399999715,0.039999959,-9.800798000000295,-0.008261135313328257,-0.00513462484990015,0.002025379599936216,-0.01084636058660336,-0.004872518999846021
0.4275,6.369381500454127e-05,-0.7844135375000131,8.673974484795599e-05,-2.3567769549999706,-0.0005344273729724343,1.5714833249999776,0.786202090499991,0.03999997195,0.0399999593,-9.800661500000297,-0.008414324512371611,-0.005180753404899562,0.002054846379935841,-0.010837231576462577,-0.004943654099845115
0.43,6.160811000456783e-05,-0.7844075000000132,8.767850919794405e-05,-2.3567905599999706,-0.0005470877059722731,1.5714935999999775,0.786206195999991,0.0399999724,0.0399999596,-9.800525000000299,-0.008567513711414966,-0.0052268819598989755,0.002084313159935466,-0.010828102566321794,-0.005014789199844209
0.4325,5.9522405004594386e-05,-0.7844014625000133,8.861727354793209e-05,-2.35680416499997,-0.0005597480389721119,1.5715038749999772,0.7862103014999909,0.03999997285,0.0399999599,-9.8003885000003,-0.00872070291045832,-0.005273010514898388,0.002113779939935091,-0.01081897355618101,-0.005085924299843303
0.435,5.7301131305071477e-05,-0.7843952900000138,8.961699309771756e-05,-2.3568184999999677,-0.0005732307449692177,1.5715148599999749,0.7862146529999902,0.039999973,0.03999996,-9.800205600000456,-0.008876638486632827,-0.005322504769886615,0.0021441495499317153,-0.010806077159973917,-0.005159484299834339
0.4375,5.501207325510062e-05,-0.7843890500000139,9.064719024770445e-05,-2.356833199999967,-0.0005871246374690407,1.5715261999999746,0.78621912749999,0.039999973,0.03999996,-9.799999500000458,-0.00903394725138655,-0.005373681874885964,0.0021749705749313226,-0.01079129707071496,-0.005234256749833388
0.44,5.272301520512977e-05,-0.784382810000014,9.167738739769133e-05,-2.356847899999967,-0.0006010185299688639,1.5715375399999745,0.78622360199999,0.039999973,0.03999996,-9.799793400000462,-0.009191256016140271,-0.005424858979885312,0.0022057915999309304,-0.010776516981456003,-0.005309029199832435
0.4425,5.043395715515891e-05,-0.784376570000014,9.270758454767821e-05,-2.356862599999967,-0.000614912422468687,1.5715488799999744,0.7862280764999899,0.039999973,0.03999996,-9.799587300000464,-0.009348564780893994,-0.005476036084884661,0.002236612624930538,-0.010761736892197046,-0.0053838016498314835
0.445,4.814489910518805e-05,-0.7843703300000141,9.37377816976651e-05,-2.356877299999967,-0.00062880631496851,1.5715602199999743,0.7862325509999899,0.039999973,0.03999996,-9.799381200000466,-0.009505873545647716,-0.005527213189884009,0.0022674336499301454,-0.01074695680293809,-0.005458574099830532
0.4475,4.58558410552172e-05,-0.7843640900000143,9.476797884765198e-05,-2.3568919999999665,-0.0006427002074683332,1.571571559999974,0.7862370254999899,0.039999973,0.03999996,-9.79917510000047,-0.009663182310401438,-0.005578390294883358,0.002298254674929753,-0.010732176713679133,-0.005533346549829579
0.45,4.3566783005246344e-05,-0.7843578500000143,9.579817599763886e-05,-2.3569066999999664,-0.0006565940999681563,1.571582899999974,0.7862414999999898,0.039999973,0.03999996,-9.798969000000472,-0.00982049107515516,-0.005629567399882706,0.002329075699929361,-0.010717396624420176,-0.0056081189998286275
0.4525,4.1064522305766846e-05,-0.7843513625000149,9.692420859740488e-05,-2.356922539999964,-0.0006717811199649992,1.5715953349999712,0.7862464199999887,0.039999973,0.03999996,-9.798841500000293,-0.009990495908613553,-0.005683852189874892,0.002361530329925203,-0.010699606873136015,-0.005686504649819348
0.455,3.8562261605798704e-05,-0.784344875000015,9.805024119739055e-05,-2.3569383799999635,-0.0006869681399648057,1.571607769999971,0.7862513399999886,0.039999973,0.03999996,-9.798714000000295,-0.010160500742101043,-0.005738136979874201,0.0023939849599247903,-0.010681817121844956,-0.005764890299818351
0.4575,3.606000090583056e-05,-0.7843383875000152,9.917627379737621e-05,-2.356954219999963,-0.0007021551599646124,1.571620204999971,0.7862562599999885,0.039999973,0.03999996,-9.798586500000297,-0.010330505575588534,-0.00579242176987351,0.002426439589924377,-0.010664027370553898,-0.005843275949817353
0.46,3.355774020586242e-05,-0.7843319000000152,0.00010030230639736187,-2.356970059999963,-0.0007173421799644191,1.5716326399999707,0.7862611799999885,0.039999973,0.03999996,-9.798459000000298,-0.010500510409076024,-0.005846706559872819,0.0024588942199239637,-0.01064623761926284,-0.0059216615998163545
0.4625,3.105547950589428e-05,-0.7843254125000153,0.00010142833899734755,-2.356985899999963,-0.0007325291999642257,1.5716450749999706,0.7862660999999884,0.039999973,0.03999996,-9.7983315000003,-0.010670515242563515,-0.005900991349872128,0.0024913488499235504,-0.01062844786797178,-0.0060000472498153564
0.465,2.855321880592614e-05,-0.7843189250000153,0.00010255437159733321,-2.3570017399999625,-0.0007477162199640323,1.5716575099999703,0.7862710199999884,0.039999973,0.03999996,-9.798204000000302,-0.010840520076051005,-0.005955276139871436,0.002523803479923137,-0.010610658116680723,-0.006078432899814358
0.4675,2.5976639706513652e-05,-0.7843123450000161,0.00010371381369706906,-2.3570179599999594,-0.0007633540099604686,1.5716703049999676,0.7862760749999873,0.039999973,0.0399999599,-9.798088900000216,-0.011011572228330725,-0.0060134819698421365,0.002556677269919423,-0.01059200447057581,-0.0061579699498043915
0.47000000000000003,2.3251423806622708e-05,-0.7843055800000164,0.00010494007479702,-2.357034939999959,-0.0007798933399598068,1.571683819999967,0.786281399999987,0.039999973,0.0399999596,-9.79799860000022,-0.011184719018217305,-0.006079529879839493,0.0025903893799180742,-0.010571623034824711,-0.006239809799801117
0.47250000000000003,2.052620790673176e-05,-0.7842988150000166,0.00010616633589697092,-2.3570519199999582,-0.0007964326699591449,1.5716973349999666,0.7862867249999869,0.039999973,0.039999959300000006,-9.797908300000223,-0.011357865808103886,-0.00614557778983685,0.002624101489916725,-0.010551241599073611,-0.006321649649797842
0.47500000000000003,1.7800992006840814e-05,-0.7842920500000169,0.00010739259699692186,-2.3570688999999576,-0.0008129719999584831,1.5717108499999661,0.7862920499999866,0.039999973,0.039999959,-9.797818000000227,-0.011531012597990468,-0.006211625699834207,0.0026578135999153762,-0.010530860163322511,-0.006403489499794567
0.47750000000000004,1.507577610694987e-05,-0.7842852850000173,0.00010861885809687278,-2.3570858799999566,-0.0008295113299578213,1.5717243649999655,0.7862973749999864,0.039999973,0.039999958700000005,-9.79772770000023,-0.011704159387877049,-0.006277673609831564,0.002691525709914027,-0.010510478727571411,-0.006485329349791291
0.48,1.2350560207058985e-05,-0.7842785200000175,0.00010984511919682368,-2.357102859999956,-0.000846050659957159,1.571737879999965,0.7863026999999861,0.039999973,0.0399999584,-9.797637400000234,-0.011877306177763627,-0.00634372151982892,0.0027252378199126774,-0.010490097291820313,-0.0065671691997880146
0.4825,9.62534430716804e-06,-0.7842717550000178,0.00011107138029677462,-2.3571198399999553,-0.0008625899899564972,1.5717513949999646,0.786308024999986,0.039999973,0.0399999581,-9.797547100000237,-0.012050452967650208,-0.006409769429826276,0.002758949929911328,-0.010469715856069213,-0.00664900904978474
0.485,6.745048007790651e-06,-0.7842648000000185,0.00011236734609649476,-2.357137609999952,-0.0008800699299527208,1.5717656699999616,0.7863136699999846,0.0399999734,0.0399999582,-9.797408550000428,-0.012245229444856303,-0.0064666491598622585,0.0027937380299069546,-0.010447331517996315,-0.006733302819774747
0.4875,3.787211507747606e-06,-0.7842577500000184,0.00011369816424651413,-2.3571557749999523,-0.000898020174952982,1.5717803249999618,0.7863194749999848,0.039999974,0.0399999585,-9.797245875000426,-0.01245082076585081,-0.006518944799863019,0.0028290641249074685,-0.010423945728750605,-0.006818823549775991
0.49,8.293750077045617e-07,-0.7842507000000184,0.00011502898239653349,-2.3571739399999525,-0.0009159704199532433,1.571794979999962,0.7863252799999848,0.0399999746,0.0399999588,-9.797083200000424,-0.012656412086845316,-0.006571240439863781,0.0028643902199079825,-0.010400559939504894,-0.006904344279777236
0.4925,-2.1284614923384834e-06,-0.7842436500000183,0.00011635980054655286,-2.3571921049999527,-0.0009339206649535046,1.5718096349999622,0.7863310849999849,0.039999975199999996,0.0399999591,-9.79692052500042,-0.012862003407839823,-0.006623536079864541,0.002899716314908497,-0.010377174150259185,-0.006989865009778481
0.495,-5.0862979923815284e-06,-0.7842366000000182,0.00011769061869657223,-2.3572102699999533,-0.0009518709099537657,1.5718242899999624,0.7863368899999851,0.0399999758,0.0399999594,-9.796757850000418,-0.01306759472883433,-0.006675831719865303,0.002935042409909011,-0.010353788361013474,-0.007075385739779725
0.4975,-8.044134492424574e-06,-0.784229550000018,0.00011902143684659159,-2.3572284349999535,-0.000969821154954027,1.5718389449999626,0.7863426949999851,0.0399999764,0.0399999597,-9.796595175000416,-0.013273186049828838,-0.006728127359866064,0.002970368504909525,-0.010330402571767764,-0.007160906469780969
0.5,-1.1001970992467617e-05,-0.784222500000018,0.00012035225499661096,-2.3572465999999537,-0.0009877713999542881,1.5718535999999628,0.7863484999999852,0.039999977,0.03999996,-9.796432500000414,-0.013478777370823345,-0.006780422999866824,0.003005694599910039,-0.010307016782522053,-0.007246427199782214
0.5025000000000001,-1.4201984741897532e-05,-0.7842151050000188,0.00012179194524635469,-2.35726627999995,-0.0010071906549508304,1.57186948499996,0.7863547699999841,0.039999977,0.03999996,-9.796307775000315,-0.013690059026168218,-0.006846239099833353,0.0030422984099073187,-0.010280905757165419,-0.007335464769774556
0.505,-1.7401998491944032e-05,-0.7842077100000187,0.00012323163549637562,-2.3572859599999503,-0.0010266099099511124,1.57188536999996,0.7863610399999842,0.039999977,0.03999996,-9.796183050000314,-0.013901340681527574,-0.006912055199834309,0.0030789022199078507,-0.010254794731801844,-0.007424502339775849
0.5075000000000001,-2.060201224199067e-05,-0.7842003150000185,0.0001246713257463966,-2.3573056399999506,-0.0010460291649513956,1.5719012549999603,0.7863673099999843,0.039999977,0.03999996,-9.796058325000311,-0.014112622336886937,-0.006977871299835269,0.003115506029908384,-0.010228683706438268,-0.007513539909777147
0.51,-2.380202599203717e-05,-0.7841929200000184,0.0001261110159964175,-2.357325319999951,-0.0010654484199516777,1.5719171399999605,0.7863735799999844,0.039999977,0.03999996,-9.79593360000031,-0.014323903992246293,-0.007043687399836225,0.003152109839908916,-0.010202572681074695,-0.007602577479778441
0.5125,-2.7002039742083664e-05,-0.7841855250000184,0.00012755070624643843,-2.357344999999951,-0.0010848676749519598,1.5719330249999608,0.7863798499999844,0.039999977,0.03999996,-9.795808875000308,-0.014535185647605649,-0.007109503499837182,0.003188713649909448,-0.01017646165571112,-0.007691615049779735
0.515,-3.0202053492130308e-05,-0.7841781300000182,0.00012899039649645941,-2.3573646799999515,-0.001104286929952243,1.5719489099999608,0.7863861199999845,0.039999977,0.03999996,-9.795684150000307,-0.014746467302965012,-0.00717531959983814,0.0032253174599099817,-0.010150350630347544,-0.007780652619781032
0.5175,-3.348595354149878e-05,-0.7841706125000192,0.00013046779549617552,-2.3573849099999475,-0.001124214909948413,1.5719651999999578,0.7863925534999834,0.039999977,0.03999996,-9.795569450000233,-0.014962297491175211,-0.007243312374821817,0.003262410489906233,-0.010123682534390551,-0.00787085224977212
0.52,-3.693762619136073e-05,-0.7841628500000194,0.0001320206119961134,-2.3574062399999467,-0.0011451603399475752,1.571982299999957,0.7863993139999831,0.039999977,0.03999996,-9.795474800000237,-0.015187224745187385,-0.007315658499818923,0.00330048195990471,-0.010095900297234436,-0.007963375999768419
0.5225,-4.038929884122253e-05,-0.7841550875000197,0.00013357342849605123,-2.357427569999946,-0.0011661057699467365,1.5719993999999564,0.7864060744999828,0.039999977,0.03999996,-9.79538015000024,-0.015412151999199548,-0.007388004624816027,0.0033385534299031857,-0.010068118060078325,-0.008055899749764716
0.525,-4.384097149108448e-05,-0.78414732500002,0.00013512624499598913,-2.357448899999945,-0.001187051199945899,1.5720164999999557,0.7864128349999825,0.039999977,0.03999996,-9.795285500000244,-0.015637079253211724,-0.007460350749813134,0.003376624899901663,-0.01004033582292221,-0.008148423499761016
0.5275,-4.729264414094628e-05,-0.7841395625000204,0.00013667906149592696,-2.357470229999944,-0.0012079966299450603,1.572033599999955,0.7864195954999822,0.039999977,0.03999996,-9.795190850000248,-0.015862006507223886,-0.007532696874810237,0.0034146963699001388,-0.010012553585766098,-0.00824094724975731
0.53,-5.074431679080823e-05,-0.7841318000000207,0.00013823187799586487,-2.3574915599999433,-0.0012289420599442226,1.5720506999999544,0.786426355999982,0.039999977,0.03999996,-9.795096200000252,-0.01608693376123606,-0.007605042999807343,0.003452767839898616,-0.009984771348609985,-0.00833347099975361
0.5325,-5.4195989440670027e-05,-0.784124037500021,0.0001397846944958027,-2.3575128899999425,-0.001249887489943384,1.5720677999999537,0.7864331164999817,0.039999977,0.03999996,-9.795001550000254,-0.016311861015248223,-0.007677389124804447,0.0034908393098970914,-0.009956989111453872,-0.008425994749749905
0.535,-5.782165128981609e-05,-0.7841160050000224,0.00014141572599541877,-2.357535079999938,-0.0012718881699382042,1.5720857699999495,0.78644021299998,0.039999977,0.039999959800000005,-9.794942800000111,-0.016540706529580198,-0.007761912749751449,0.0035298009698919064,-0.009928658418435824,-0.00852079949973682
0.5375,-6.153430773966745e-05,-0.7841078375000227,0.0001430858649953519,-2.357557699999937,-0.0012944164749373022,1.5721041749999487,0.7864474774999798,0.039999977,0.0399999595,-9.794902000000112,-0.016771511174096004,-0.00785252512474782,0.0035692077248903283,-0.00990005349748346,-0.00861674474973298
0.54,-6.524696418951896e-05,-0.784099670000023,0.0001447560039952851,-2.3575803199999363,-0.0013169447799364013,1.572122579999948,0.7864547419999794,0.039999977,0.039999959200000004,-9.794861200000115,-0.017002315818611825,-0.007943137499744197,0.0036086144798887524,-0.009871448576531093,-0.00871268999972914
0.5425,-6.89596206393703e-05,-0.7840915025000234,0.00014642614299521824,-2.357602939999935,-0.0013394730849354993,1.5721409849999473,0.7864620064999792,0.039999977,0.0399999589,-9.794820400000116,-0.017233120463127635,-0.008033749874740568,0.003648021234887175,-0.009842843655578729,-0.0088086352497253
0.545,-7.267227708922182e-05,-0.7840833350000237,0.00014809628199515145,-2.3576255599999345,-0.0013620013899345983,1.5721593899999466,0.7864692709999789,0.039999977,0.0399999586,-9.794779600000119,-0.017463925107643455,-0.008124362249736944,0.003687427989885599,-0.009814238734626363,-0.008904580499721463
0.5475,-7.638493353907317e-05,-0.784075167500024,0.00014976642099508457,-2.3576481799999334,-0.0013845296949336963,1.5721777949999458,0.7864765354999785,0.039999977,0.039999958300000006,-9.79473880000012,-0.01769472975215926,-0.008214974624733315,0.003726834744884021,-0.009785633813673996,-0.00900052574971762
0.55,-8.009758998892469e-05,-0.7840670000000243,0.00015143655999501777,-2.3576707999999327,-0.0014070579999327954,1.5721961999999452,0.7864837999999783,0.039999977,0.039999958,-9.794698000000123,-0.01792553439667508,-0.008305586999729692,0.003766241499882445,-0.009757028892721632,-0.009096470999713783
0.5525,-8.408046798817646e-05,-0.7840584500000254,0.00015322815849468148,-2.357694679999929,-0.0014312249499282583,1.5722159699999414,0.7864915999999768,0.039999977449999995,0.0399999583,-9.794534650000486,-0.01819169921721474,-0.008384880899764609,0.003807000249879004,-0.009725478850398733,-0.009195674699705505
0.555,-8.80633459882345e-05,-0.7840499000000252,0.0001550197569947076,-2.3577185599999297,-0.0014553918999286105,1.5722357399999416,0.786499399999977,0.0399999779,0.0399999586,-9.794371300000483,-0.018457864037859893,-0.008464174799765764,0.003847758999879598,-0.009693928808067048,-0.009294878399706951
0.5575,-9.204622398829237e-05,-0.7840413500000251,0.0001568113554947336,-2.35774243999993,-0.0014795588499289616,1.5722555099999418,0.7865071999999771,0.03999997835,0.0399999589,-9.79420795000048,-0.018724028858505038,-0.008543468699766917,0.0038885177498801902,-0.009662378765735365,-0.009394082099708392
0.56,-9.602910198835042e-05,-0.784032800000025,0.00015860295399475972,-2.3577663199999304,-0.0015037257999293138,1.5722752799999422,0.7865149999999772,0.039999978799999995,0.0399999592,-9.794044600000477,-0.01899019367915019,-0.008622762599768073,0.003929276499880784,-0.00963082872340368,-0.009493285799709839
0.5625,-0.0001000119799884083,-0.7840242500000248,0.00016039455249478577,-2.3577901999999304,-0.001527892749929665,1.5722950499999424,0.7865227999999773,0.03999997925,0.0399999595,-9.793881250000476,-0.019256358499795335,-0.008702056499769224,0.003970035249881376,-0.009599278681071997,-0.00959248949971128
0.5650000000000001,-0.00010399485798846635,-0.7840157000000247,0.00016218615099481188,-2.3578140799999305,-0.001552059699930017,1.5723148199999426,0.7865305999999774,0.039999979699999993,0.0399999598,-9.793717900000473,-0.01952252332044049,-0.00878135039977038,0.004010793999881971,-0.009567728638740312,-0.009691693199712727
0.5675,-0.00010807082298768083,-0.784006995000026,0.00016401960849445865,-2.357838499999926,-0.0015767914699252508,1.572335029999939,0.7865385799999759,0.03999998,0.03999996119999999,-9.793561400000414,-0.019793374183709016,-0.00886402809974147,0.004051971974878557,-0.009535032743689177,-0.009792402249700212
0.5700000000000001,-0.00011233296198762665,-0.7839979800000262,0.00016593678399443428,-2.357863999999926,-0.0016026528799249222,1.5723561199999387,0.7865469199999758,0.03999998,0.03999996479999999,-9.793418600000415,-0.02007359713234605,-0.008953473399740333,0.004093988399878023,-0.00950004514316937,-0.009896121999698894
0.5725,-0.0001165951009875723,-0.7839889650000262,0.00016785395949440982,-2.3578894999999256,-0.0016285142899245923,1.5723772099999385,0.7865552599999757,0.03999998,0.03999996839999999,-9.793275800000416,-0.020353820080983073,-0.009042918699739192,0.004136004824877487,-0.009465057542649568,-0.00999984174969757
0.5750000000000001,-0.00012085723998751812,-0.7839799500000264,0.00016977113499438547,-2.357914999999925,-0.0016543756999242635,1.5723982999999382,0.7865635999999756,0.03999998,0.03999997199999999,-9.793133000000418,-0.020634043029620103,-0.009132363999738055,0.004178021249876953,-0.009430069942129762,-0.010103561499696252
0.5775,-0.00012511937898746376,-0.7839709350000265,0.00017168831049436102,-2.357940499999925,-0.0016802371099239337,1.572419389999938,0.7865719399999755,0.03999998,0.039999975599999994,-9.79299020000042,-0.020914265978257126,-0.009221809299736915,0.004220037674876417,-0.00939508234160996,-0.010207281249694928
0.58,-0.0001293815179874094,-0.7839619200000266,0.00017360548599433656,-2.3579659999999247,-0.0017060985199236038,1.5724404799999379,0.7865802799999754,0.03999998,0.039999979199999994,-9.792847400000422,-0.021194488926894146,-0.009311254599735775,0.004262054099875881,-0.009360094741090156,-0.010311000999693606
0.5825,-0.00013364365698735522,-0.7839529050000267,0.00017552266149431218,-2.3579914999999243,-0.0017319599299232752,1.5724615699999376,0.7865886199999753,0.03999998,0.03999998279999999,-9.792704600000423,-0.02147471187553118,-0.009400699899734638,0.004304070524875346,-0.009325107140570351,-0.010414720749692288
0.585,-0.0001380979879864419,-0.7839436000000282,0.0001775262149939017,-2.358018169999919,-0.0017589866599177374,1.5724836599999328,0.7865973399999735,0.03999998,0.039999983600000004,-9.79259430000028,-0.021756598352543535,-0.009496629899704515,0.004346979099870823,-0.009289167355854512,-0.01051985089968466
0.5875,-0.0001426484149863841,-0.7839341500000283,0.00017957295749387568,-2.3580454249999185,-0.0017865960499173863,1.5725062499999325,0.7866062499999734,0.03999998,0.039999983,-9.792500250000282,-0.02203931659375469,-0.009595802249703253,0.004390333749870272,-0.00925275147903429,-0.010625686249683316
0.59,-0.00014719884198632603,-0.7839247000000285,0.00018161969999384958,-2.358072679999918,-0.0018142054399170342,1.5725288399999322,0.7866151599999732,0.03999998,0.0399999824,-9.792406200000283,-0.022322034834965837,-0.00969497459970199,0.00443368839986972,-0.00921633560221407,-0.010731521599681966
0.5925,-0.00015174926898626822,-0.7839152500000285,0.00018366644249382356,-2.3580999349999177,-0.0018418148299166833,1.572551429999932,0.7866240699999731,0.03999998,0.0399999818,-9.792312150000285,-0.022604753076176994,-0.009794146949700728,0.004477043049869169,-0.009179919725393847,-0.010837356949680622
0.595,-0.00015629969598621017,-0.7839058000000286,0.00018571318499379746,-2.358127189999917,-0.0018694242199163312,1.5725740199999316,0.786632979999973,0.03999998,0.0399999812,-9.792218100000285,-0.022887471317388136,-0.009893319299699464,0.004520397699868616,-0.009143503848573627,-0.010943192299679272
0.5975,-0.00016085012298615233,-0.7838963500000288,0.00018775992749377144,-2.3581544449999168,-0.0018970336099159804,1.5725966099999313,0.7866418899999729,0.03999998,0.0399999806,-9.792124050000286,-0.023170189558599293,-0.009992491649698202,0.004563752349868065,-0.009107087971753405,-0.011049027649677925
0.6,-0.0001654005499860943,-0.7838869000000289,0.00018980666999374534,-2.3581816999999163,-0.0019246429999156282,1.572619199999931,0.7866507999999728,0.03999998,0.03999998,-9.792030000000288,-0.02345290779981044,-0.010091663999696939,0.004607106999867512,-0.009070672094933185,-0.011154862999676576
0.6025,-0.00017024807898512477,-0.7838769775000305,0.00019198695449330953,-2.3582103949999116,-0.0019540537099097498,1.5726432749999262,0.7866602799999709,0.0399999806,0.039999978500000005,-9.791978700000158,-0.023745627886648732,-0.010209784349637534,0.004651655004863299,-0.009032362606493937,-0.011263420549666878
0.605,-0.00017509560798506296,-0.7838670550000306,0.00019416723899328173,-2.3582390899999113,-0.0019834644199093745,1.572667349999926,0.7866697599999708,0.0399999812,0.039999977000000006,-9.791927400000159,-0.02403834797351758,-0.010327904699636027,0.004696203009862731,-0.008994053118048906,-0.011371978099665492
0.6075,-0.00017994313698500134,-0.7838571325000308,0.00019634752349325402,-2.358267784999911,-0.0020128751299090006,1.5726914249999255,0.7866792399999707,0.0399999818,0.03999997550000001,-9.79187610000016,-0.02433106806038644,-0.010446025049634525,0.004740751014862165,-0.008955743629603873,-0.011480535649664112
0.61,-0.0001847906659849395,-0.7838472100000308,0.00019852780799322622,-2.3582964799999107,-0.0020422858399086257,1.572715499999925,0.7866887199999706,0.0399999824,0.03999997400000001,-9.79182480000016,-0.024623788147255285,-0.010564145399633018,0.0047852990198615965,-0.008917434141158842,-0.011589093199662729
0.6125,-0.00018963819498487788,-0.7838372875000309,0.0002007080924931985,-2.3583251749999103,-0.002071696549908252,1.572739574999925,0.7866981999999705,0.039999982999999996,0.03999997250000001,-9.791773500000161,-0.024916508234124144,-0.010682265749631516,0.00482984702486103,-0.008879124652713809,-0.011697650749661349
0.615,-0.00019448572398481607,-0.783827365000031,0.0002028883769931707,-2.35835386999991,-0.0021011072599078765,1.5727636499999245,0.7867076799999704,0.0399999836,0.03999997100000001,-9.79172220000016,-0.02520922832099299,-0.010800386099630011,0.004874395029860462,-0.008840815164268776,-0.011806208299659964
0.6175,-0.000199435154483793,-0.7838172675000328,0.00020511448049271067,-2.3583832149999036,-0.00213113612990167,1.5727882149999195,0.7867173624999683,0.039999984,0.03999997015,-9.791631700000531,-0.025518430768367368,-0.010912908799681324,0.004919356414855996,-0.008801565831656435,-0.011916129099645723
0.62,-0.00020458838798372727,-0.783806820000033,0.00020743222199268112,-2.358413859999903,-0.0021624013199012717,1.5728137599999192,0.7867274499999681,0.039999984,0.039999970600000004,-9.791462800000534,-0.025860597937218673,-0.011014236199680031,0.0049651445598554115,-0.008760436810682915,-0.012028776399644286
0.6225,-0.00020974162148366178,-0.7837963725000331,0.00020974996349265167,-2.3584445049999028,-0.0021936665099008745,1.572839304999919,0.786737537499968,0.039999984,0.03999997105,-9.791293900000536,-0.026202765106069996,-0.011115563599678743,0.00501093270485483,-0.008719307789709392,-0.012141423699642854
0.625,-0.00021489485498359605,-0.7837859250000333,0.0002120677049926221,-2.358475149999902,-0.0022249316999004756,1.5728648499999187,0.7867476249999679,0.039999984,0.0399999715,-9.791125000000537,-0.0265449322749213,-0.01121689099967745,0.005056720849854246,-0.008678178768735874,-0.012254070999641417
0.6275000000000001,-0.00022004808848353057,-0.7837754775000334,0.00021438544649259264,-2.358505794999902,-0.0022561968899000783,1.5728903949999185,0.7867577124999677,0.039999984,0.03999997195,-9.790956100000539,-0.026887099443772624,-0.011318218399676163,0.005102508994853663,-0.008637049747762351,-0.012366718299639985
0.63,-0.00022520132198346483,-0.7837650300000335,0.00021670318799256306,-2.3585364399999014,-0.0022874620798996794,1.572915939999918,0.7867677999999676,0.039999984,0.0399999724,-9.790787200000542,-0.02722926661262393,-0.011419545799674871,0.00514829713985308,-0.00859592072678883,-0.01247936559963855
0.6325000000000001,-0.00023035455548339935,-0.7837545825000337,0.00021902092949253361,-2.358567084999901,-0.002318727269899282,1.5729414849999177,0.7867778874999675,0.039999984,0.03999997285,-9.790618300000544,-0.027571433781475252,-0.011520873199673584,0.005194085284852498,-0.008554791705815308,-0.012592012899637118
0.635,-0.0002357172829823173,-0.7837437800000355,0.00022143284999204716,-2.358598729999896,-0.0023512629798927197,1.5729680999999123,0.7867883909999653,0.039999984,0.0399999737,-9.790518200000212,-0.0279150843609162,-0.011635396499608274,0.005240615299848315,-0.008513258956507655,-0.012706743599625574
0.6375000000000001,-0.00024118475748224782,-0.7837328000000356,0.0002238918599920159,-2.3586308749998954,-0.002384433949892298,1.5729952499999118,0.7867991024999652,0.039999984,0.03999997475,-9.790452500000214,-0.028259476645662755,-0.011756517749606735,0.005287516249847719,-0.008471524343030007,-0.012822515999624102
0.64,-0.0002466522319821781,-0.7837218200000359,0.00022635086999198454,-2.358663019999895,-0.002417604919891875,1.5730223999999116,0.7868098139999651,0.039999984,0.0399999758,-9.790386800000213,-0.028603868930409292,-0.011877638999605191,0.005334417199847121,-0.00842978972955236,-0.012938288399622626
0.6425,-0.00025211970648210836,-0.783710840000036,0.00022880987999195318,-2.3586951649998946,-0.002450775889891452,1.5730495499999113,0.786820525499965,0.039999984,0.039999976849999994,-9.790321100000215,-0.02894826121515583,-0.011998760249603646,0.005381318149846523,-0.008388055116074713,-0.01305406079962115
0.645,-0.00025758718098203886,-0.7836998600000361,0.00023126888999192192,-2.358727309999894,-0.0024839468598910302,1.5730766999999108,0.7868312369999648,0.039999984,0.0399999779,-9.790255400000216,-0.029292653499902382,-0.012119881499602107,0.005428219099845926,-0.008346320502597062,-0.013169833199619677
0.6475,-0.00026305465548196914,-0.7836888800000362,0.00023372789999189056,-2.358759454999894,-0.0025171178298906073,1.5731038499999106,0.7868419484999647,0.039999984,0.039999978949999994,-9.790189700000218,-0.02963704578464892,-0.012241002749600561,0.005475120049845328,-0.008304585889119415,-0.013285605599618201
0.65,-0.00026852212998189963,-0.7836779000000363,0.0002361869099918593,-2.3587915999998934,-0.0025502887998901857,1.5731309999999101,0.7868526599999646,0.039999984,0.03999997999999999,-9.790124000000217,-0.02998143806939547,-0.012362123999599023,0.005522020999844732,-0.008262851275641764,-0.01340137799961673
0.6525,-0.0002743122124807578,-0.7836663650000384,0.00023879095949134592,-2.3588257549998866,-0.0025854161748832608,1.5731597249999045,0.7868639969999623,0.039999984,0.03999998119999999,-9.790035800000293,-0.03033180776867055,-0.01250623934952106,0.005570050789840382,-0.008217909047529408,-0.01352021459960507
0.655,-0.0002801022949806842,-0.7836548300000385,0.00024139500899131284,-2.358859909999886,-0.002620543549882814,1.5731884499999043,0.7868753339999621,0.039999984,0.039999982399999995,-9.789947600000295,-0.030682177467965432,-0.01265035469951923,0.005618080579839772,-0.008172966819406428,-0.013639051199603559
0.6575,-0.00028589237748061035,-0.7836432950000386,0.00024399905849127962,-2.3588940649998857,-0.002655670924882366,1.5732171749999038,0.786886670999962,0.039999984,0.0399999836,-9.789859400000296,-0.031032547167260296,-0.01279447004951739,0.0056661103698391595,-0.008128024591283452,-0.013757887799602044
0.66,-0.00029168245998053676,-0.7836317600000388,0.0002466031079912465,-2.358928219999885,-0.00269079829988192,1.5732458999999035,0.7868980079999619,0.039999984,0.03999998479999999,-9.789771200000297,-0.03138291686655518,-0.01293858539951556,0.005714140159838549,-0.008083082363160472,-0.013876724399600533
0.6625,-0.0002974725424804629,-0.7836202250000389,0.0002492071574912133,-2.3589623749998845,-0.002725925674881472,1.573274624999903,0.7869093449999617,0.039999984,0.039999985999999994,-9.789683000000299,-0.03173328656585005,-0.013082700749513721,0.005762169949837937,-0.008038140135037496,-0.013995560999599017
0.665,-0.0003032626249803893,-0.7836086900000391,0.0002518112069911802,-2.3589965299998843,-0.0027610530498810254,1.5733033499999027,0.7869206819999616,0.039999984,0.039999987199999996,-9.789594800000298,-0.03208365626514493,-0.01322681609951189,0.005810199739837326,-0.007993197906914516,-0.014114397599597506
0.6675,-0.00030916297597919084,-0.7835969670000411,0.00025446483299064134,-2.3590313049998777,-0.0027968492048737565,1.5733326349998966,0.7869322329999592,0.039999984,0.03999998745,-9.789497350000394,-0.03244804497674799,-0.013364094499579782,0.005858592599833011,-0.00794797048453904,-0.014234030649587868
0.67,-0.00031528386397911305,-0.7835848680000412,0.00025721761199060637,-2.359067319999877,-0.0028339829198732844,1.5733630399998961,0.7869442119999591,0.039999984,0.039999985800000006,-9.789381400000396,-0.03284047171339586,-0.013487698999578211,0.005907711599832386,-0.007902172673649841,-0.014355256599586327
0.6725,-0.00032140475197903494,-0.7835727690000415,0.0002599703909905713,-2.3591033349998765,-0.002871116634872811,1.5733934449998959,0.786956190999959,0.039999984,0.03999998415000001,-9.789265450000396,-0.033232898450043714,-0.013611303499576635,0.0059568305998317595,-0.007856374862760645,-0.014476482549584781
0.675,-0.00032752563997895715,-0.7835606700000416,0.00026272316999053627,-2.359139349999876,-0.002908250349872339,1.5734238499998954,0.7869681699999588,0.039999984,0.0399999825,-9.789149500000399,-0.03362532518669158,-0.013734907999575064,0.006005949599831135,-0.007810577051871447,-0.01459770849958324
0.6775,-0.0003336465279788791,-0.7835485710000417,0.0002654759489905012,-2.3591753649998757,-0.0029453840648718654,1.573454254999895,0.7869801489999586,0.039999984,0.039999980850000005,-9.789033550000399,-0.03401775192333944,-0.013858512499573487,0.0060550685998305084,-0.007764779240982251,-0.014718934449581694
0.68,-0.0003397674159788013,-0.783536472000042,0.0002682287279904662,-2.3592113799998753,-0.0029825177798713937,1.5734846599998946,0.7869921279999585,0.039999984,0.03999997920000001,-9.788917600000401,-0.034410178659987314,-0.013982116999571916,0.006104187599829884,-0.007718981430093054,-0.014840160399580153
0.6825,-0.00034588830397872325,-0.7835243730000421,0.0002709815069904311,-2.359247394999875,-0.0030196514948709198,1.5735150649998944,0.7870041069999584,0.039999984,0.03999997755,-9.788801650000403,-0.03480260539663517,-0.01410572149957034,0.006153306599829258,-0.0076731836192038575,-0.014961386349578608
0.685,-0.00035223507697746336,-0.7835118960000442,0.00027383584698986463,-2.359284619999868,-0.0030581550398632792,1.5735465999998879,0.7870165349999558,0.0399999844,0.03999997809999999,-9.788699000000335,-0.03520430326320029,-0.014245188299485758,0.006203142719824881,-0.0076261215844923656,-0.015085005299564544
0.6875,-0.0003586947924773809,-0.7834992300000444,0.00027674096748982755,-2.3593224499998673,-0.0030973434998627794,1.5735786999998875,0.7870291874999557,0.039999985,0.03999997974999999,-9.788603000000336,-0.035610636694796624,-0.014392586249483879,0.006253337399824241,-0.007578427437859829,-0.015209820749562952
0.6900000000000001,-0.00036515450797729886,-0.7834865640000446,0.0002796460879897906,-2.359360279999867,-0.0031365319598622814,1.5736107999998872,0.7870418399999556,0.039999985599999996,0.039999981399999995,-9.788507000000337,-0.036016970126392975,-0.014539984199482004,0.006303532079823603,-0.00753073329122729,-0.015334636199561364
0.6925,-0.0003716142234772165,-0.7834738980000446,0.0002825512084897536,-2.3593981099998667,-0.0031757204198617816,1.5736428999998866,0.7870544924999554,0.0399999862,0.03999998304999999,-9.78841100000034,-0.036423303557989305,-0.014687382149480125,0.006353726759822963,-0.007483039144594753,-0.015459451649559773
0.6950000000000001,-0.00037807393897713436,-0.7834612320000448,0.00028545632898971667,-2.359435939999866,-0.0032149088798612835,1.5736749999998862,0.7870671449999552,0.0399999868,0.03999998469999999,-9.78831500000034,-0.036829636989585655,-0.01483478009947825,0.006403921439822325,-0.007435344997962215,-0.015584267099558187
0.6975,-0.000384533654477052,-0.783448566000045,0.0002883614494896796,-2.3594737699998656,-0.0032540973398607837,1.573707099999886,0.787079797499955,0.0399999874,0.039999986349999996,-9.78821900000034,-0.037235970421181985,-0.014982178049476371,0.006454116119821685,-0.007387650851329678,-0.015709082549556594
0.7000000000000001,-0.00039099336997696987,-0.7834359000000451,0.00029126656998964266,-2.359511599999865,-0.0032932857998602856,1.5737391999998855,0.787092449999955,0.039999988,0.03999998799999999,-9.788123000000343,-0.037642303852778336,-0.015129575999474499,0.006504310799821046,-0.007339956704697138,-0.015833897999555008
0.7025,-0.00039779982997564686,-0.7834226250000474,0.00029432754498904797,-2.359551439999857,-0.003334575654852267,1.5737729949998789,0.7871057714999524,0.039999988,0.039999989799999996,-9.788021900000363,-0.03806401025352983,-0.015282870299451521,0.006555451679817021,-0.007290238538003499,-0.01596147389954354
0.705,-0.00040460628997556,-0.7834093500000476,0.00029738851998900893,-2.3595912799998566,-0.0033758655098517403,1.5738067899998787,0.7871190929999522,0.039999988,0.03999999159999999,-9.787920800000364,-0.03848571665433614,-0.015436164599449567,0.006606592559816368,-0.0072405203713026434,-0.016089049799541913
0.7075,-0.00041141274997547354,-0.7833960750000478,0.00030044949498897006,-2.359631119999856,-0.0034171553648512155,1.5738405849998782,0.787132414499952,0.039999988,0.039999993399999996,-9.787819700000364,-0.03890742305514246,-0.015589458899447618,0.0066577334398157184,-0.007190802204601785,-0.016216625699540292
0.71,-0.00041821920997538674,-0.783382800000048,0.000303510469988931,-2.359670959999856,-0.003458445219850689,1.5738743799998778,0.7871457359999519,0.039999988,0.03999999519999999,-9.787718600000366,-0.03932912945594876,-0.015742753199445663,0.006708874319815066,-0.00714108403790093,-0.016344201599538664
0.7125,-0.0004250256699753002,-0.7833695250000482,0.0003065714449888921,-2.3597107999998554,-0.003499735074850164,1.5739081749998773,0.7871590574999516,0.039999988,0.039999996999999995,-9.787617500000367,-0.03975083585675508,-0.015896047499443716,0.006760015199814416,-0.007091365871200071,-0.016471777499537044
0.715,-0.00043183212997521337,-0.7833562500000484,0.00030963241998885305,-2.359750639999855,-0.0035410249298496376,1.573941969999877,0.7871723789999515,0.039999988,0.03999999879999999,-9.787516400000369,-0.04017254225756138,-0.016049341799441758,0.006811156079813764,-0.007041647704499216,-0.016599353399535416
0.7175,-0.0004387567249738318,-0.7833427670000508,0.0003127465049882319,-2.3597911599998467,-0.0035830306548412646,1.57397635499987,0.7871859319999488,0.0399999881,0.04,-9.787435850000145,-0.040597258320366834,-0.01621056084935293,0.006862646279809284,-0.006991409091466298,-0.016727836099523854
0.72,-0.00044591758997374043,-0.783328868000051,0.0003159668099881908,-2.359833039999846,-0.0036264681198407106,1.5740119199998697,0.7871999479999486,0.0399999884,0.04,-9.787396400000144,-0.041027993707269395,-0.01638762939935067,0.006914835119808618,-0.006940129585752167,-0.01685813239952219
0.7225,-0.00045307845497364945,-0.7833149690000512,0.0003191871149881499,-2.3598749199998457,-0.0036699055848401587,1.5740474849998691,0.7872139639999484,0.039999988699999996,0.04,-9.787356950000145,-0.041458729094171975,-0.016564697949348423,0.0069670239598079555,-0.006888850080038034,-0.016988428699520535
0.725,-0.0004602393199735581,-0.7833010700000513,0.00032240741998810883,-2.359916799999845,-0.0037133430498396047,1.5740830499998688,0.7872279799999482,0.039999989,0.04,-9.787317500000146,-0.041889464481074536,-0.016741766499346163,0.007019212799807289,-0.006837570574323903,-0.017118724999518872
0.7275,-0.0004674001849734671,-0.7832871710000515,0.0003256277249880679,-2.3599586799998447,-0.0037567805148390524,1.5741186149998683,0.787241995999948,0.0399999893,0.04,-9.787278050000147,-0.04232019986797712,-0.016918835049343914,0.007071401639806626,-0.00678629106860977,-0.017249021299517216
0.73,-0.0004745610499733758,-0.7832732720000516,0.0003288480299880268,-2.360000559999844,-0.0038002179798384984,1.5741541799998677,0.7872560119999479,0.0399999896,0.04,-9.787238600000148,-0.04275093525487968,-0.017095903599341655,0.0071235904798059605,-0.006735011562895638,-0.017379317599515554
0.7325,-0.00048172191497328475,-0.7832593730000518,0.0003320683349879859,-2.3600424399998436,-0.0038436554448379465,1.5741897449998674,0.7872700279999477,0.0399999899,0.04,-9.787199150000147,-0.04318167064178226,-0.017272972149339403,0.007175779319805297,-0.006683732057181505,-0.017509613899513898
0.735,-0.0004891240879718384,-0.7832450360000545,0.0003353971229873357,-2.3600856999998356,-0.0038885549998291823,1.5742264999998603,0.7872845199999449,0.0399999898,0.0399999995,-9.787099500000485,-0.04364456459700571,-0.017439077499398707,0.007228569909801252,-0.006631558714631413,-0.017641762699501833
0.7375,-0.0004966469149717428,-0.7832304800000546,0.00033878015248729266,-2.360129649999835,-0.003934185599828602,1.5742638499998598,0.7872992499999447,0.0399999895,0.03999999875,-9.786969750000488,-0.044123537836659885,-0.017599701249396665,0.007281661374800578,-0.006578938453655827,-0.017774837749500144
0.74,-0.0005041697419716468,-0.7832159240000548,0.0003421631819872495,-2.3601735999998343,-0.00397981619982802,1.5743011999998593,0.7873139799999445,0.0399999892,0.039999998,-9.786840000000488,-0.044602511076314036,-0.017760324999394617,0.0073347528397999006,-0.006526318192680243,-0.017907912799498448
0.7425,-0.0005116925689715512,-0.783201368000055,0.0003455462114872065,-2.3602175499998337,-0.004025446799827441,1.5743385499998588,0.7873287099999443,0.0399999889,0.03999999725,-9.78671025000049,-0.04508148431596821,-0.017920948749392575,0.007387844304799226,-0.006473697931704657,-0.018040987849496756
0.745,-0.0005192153959714552,-0.7831868120000551,0.0003489292409871634,-2.360261499999833,-0.0040710773998268585,1.5743758999998583,0.7873434399999442,0.0399999886,0.0399999965,-9.786580500000492,-0.04556045755562236,-0.018081572499390526,0.007440935769798549,-0.006421077670729073,-0.01817406289949506
0.7475,-0.0005267382229713597,-0.7831722560000554,0.00035231227048712036,-2.360305449999833,-0.004116707999826279,1.5744132499998578,0.7873581699999439,0.039999988300000004,0.03999999575,-9.786450750000494,-0.04603943079527653,-0.018242196249388484,0.007494027234797874,-0.006368457409753487,-0.018307137949493367
0.75,-0.0005342610499712637,-0.7831577000000556,0.00035569529998707723,-2.360349399999832,-0.004162338599825697,1.5744505999998573,0.7873728999999438,0.039999988,0.039999995,-9.786321000000495,-0.04651840403493068,-0.018402819999386436,0.007547118699797197,-0.0063158371487779036,-0.01844021299949167
0.7525000000000001,-0.0005421531619697528,-0.7831424840000583,0.0003592443929863978,-2.360395569999823,-0.00421020959981653,1.5744897949998498,0.7873883499999408,0.039999987400000006,0.039999995,-9.786241500000305,-0.04700706116667858,-0.01858697199929422,0.0076010870947931615,-0.006261998927426965,-0.018576122749479115
0.755,-0.0005500452739696521,-0.7831272680000585,0.00036279348598635254,-2.3604417399998225,-0.00425808059981592,1.5745289899998494,0.7874037999999406,0.039999986800000005,0.039999995,-9.786162000000305,-0.047495718298463455,-0.018771123999291872,0.007655055489792473,-0.006208160706071377,-0.01871203249947738
0.7575000000000001,-0.0005579373859695518,-0.7831120520000586,0.00036634257898630744,-2.3604879099998217,-0.004305951599815311,1.5745681849998487,0.7874192499999404,0.039999986200000004,0.039999995,-9.786082500000306,-0.047984375430248354,-0.01895527599928953,0.007709023884791787,-0.006154322484715786,-0.018847942249475655
0.76,-0.0005658294979694512,-0.7830968360000589,0.00036989167198626217,-2.3605340799998213,-0.004353822599814701,1.5746073799998483,0.7874346999999402,0.0399999856,0.039999995,-9.786003000000306,-0.048473032562033225,-0.01913942799928718,0.007762992279791099,-0.006100484263360197,-0.01898385199947392
0.7625000000000001,-0.0005737216099693509,-0.783081620000059,0.00037344076498621706,-2.3605802499998205,-0.004401693599814092,1.5746465749998477,0.78745014999994,0.039999985,0.039999995,-9.785923500000308,-0.04896168969381812,-0.019323579999284843,0.007816960674790414,-0.0060466460420046065,-0.019119761749472195
0.765,-0.0005816137219692501,-0.7830664040000592,0.0003769898579861718,-2.36062641999982,-0.0044495645998134815,1.5746857699998473,0.7874655999999398,0.03999998440000001,0.039999995,-9.78584400000031,-0.04945034682560299,-0.019507731999282494,0.007870929069789725,-0.0059928078206490185,-0.01925567149947046
0.7675000000000001,-0.000589631326967603,-0.783050982000062,0.00038059537498543117,-2.3606732799998107,-0.00449819681980349,1.5747255899998391,0.7874812934999366,0.03999998380000001,0.039999995,-9.785767500000276,-0.049946199169245836,-0.01969491524924285,0.007925181749785206,-0.005938635044945985,-0.01939246089945716
0.77,-0.0005978999179672719,-0.7830351480000627,0.0003843137399852823,-2.360721519999809,-0.004548351479801482,1.5747666599998376,0.787497473999936,0.039999983200000006,0.039999995,-9.785697000000278,-0.05045644193685742,-0.01988816099923511,0.007980002999783012,-0.005883793160536311,-0.01953100959945161
0.7725,-0.0006061685089669409,-0.7830193140000633,0.0003880321049851334,-2.360769759999807,-0.004598506139799474,1.5748077299998358,0.7875136544999353,0.039999982600000004,0.039999995,-9.785626500000282,-0.050966684704469,-0.020081406749227374,0.008034824249780817,-0.005828951276126636,-0.019669558299446062
0.775,-0.0006144370999666102,-0.7830034800000639,0.0003917504699849847,-2.360817999999805,-0.0046486607997974685,1.5748487999998342,0.7875298349999347,0.039999982,0.039999995,-9.785556000000284,-0.05147692747208061,-0.020274652499219645,0.008089645499778624,-0.00577410939171696,-0.01980810699944052
0.7775,-0.0006227056909662792,-0.7829876460000645,0.00039546883498483583,-2.3608662399998033,-0.00469881545979546,1.5748898699998326,0.787546015499934,0.0399999814,0.039999995,-9.785485500000288,-0.051987170239692196,-0.020467898249211906,0.008144466749776428,-0.005719267507307286,-0.019946655699434972
0.78,-0.0006309742819659485,-0.7829718120000652,0.0003991871999846871,-2.360914479999801,-0.004748970119793455,1.5749309399998308,0.7875621959999334,0.0399999808,0.039999995,-9.78541500000029,-0.0524974130073038,-0.020661143999204178,0.008199287999774235,-0.005664425622897609,-0.02008520439942943
0.7825,-0.0006392428729656174,-0.7829559780000659,0.0004029055649845382,-2.360962719999799,-0.004799124779791446,1.5749720099998292,0.7875783764999328,0.0399999802,0.039999995,-9.785344500000292,-0.05300765577491539,-0.020854389749196442,0.00825410924977204,-0.0056095837384879344,-0.020223753099423883
0.785,-0.0006477671129639915,-0.7829396500000689,0.000406738900983807,-2.3610124199997897,-0.004850830599781582,1.5750143499998213,0.7875950629999295,0.03999998,0.0399999955,-9.785294200000166,-0.053523720053658616,-0.02106278769910115,0.008309452799768581,-0.005553445033965339,-0.02036401639941268
0.7875,-0.0006564191774641173,-0.7829230750000687,0.00041062972248386356,-2.3610628499997905,-0.004903311999782344,1.5750573249998219,0.7876120024999298,0.03999998,0.03999999625,-9.785254000000167,-0.05404269508802228,-0.02127876174910429,0.00836505749976939,-0.005496657919374114,-0.020505136999414728
0.79,-0.0006650712419642434,-0.7829065000000685,0.0004145205439839203,-2.3611132799997914,-0.0049557933997831085,1.5751002999998225,0.78762894199993,0.03999998,0.039999997,-9.785213800000166,-0.054561670122385955,-0.021494735799107437,0.008420662199770201,-0.005439870804782886,-0.020646257599416785
0.7925,-0.0006737233064643691,-0.7828899250000683,0.0004184113654839768,-2.361163709999792,-0.005008274799783871,1.575143274999823,0.7876458814999303,0.03999998,0.03999999775,-9.785173600000165,-0.05508064515674961,-0.021710709849110575,0.008476266899771009,-0.00538308369019166,-0.020787378199418838
0.795,-0.0006823753709644952,-0.782873350000068,0.0004223021869840335,-2.361214139999793,-0.005060756199784636,1.5751862499998235,0.7876628209999305,0.03999998,0.0399999985,-9.785133400000165,-0.05559962019111329,-0.021926683899113723,0.008531871599771819,-0.005326296575600433,-0.020928498799420894
0.7975,-0.0006910274354646209,-0.7828567750000678,0.00042619300848409006,-2.3612645699997934,-0.005113237599785399,1.575229224999824,0.7876797604999307,0.03999998,0.03999999925,-9.785093200000164,-0.05611859522547694,-0.02214265794911686,0.008587476299772627,-0.005269509461009208,-0.021069619399422944
0.8,-0.000699679499964747,-0.7828402000000675,0.0004300838299841468,-2.361314999999794,-0.005165718999786163,1.5752721999998247,0.787696699999931,0.03999998,0.04,-9.785053000000163,-0.056637570259840626,-0.02235863199912001,0.008643080999773439,-0.00521272234641798,-0.021210739999425
0.8025,-0.0007087219124630412,-0.7828229350000705,0.00043415016648337977,-2.3613676499997847,-0.005220568704775814,1.5753171399998163,0.7877144059999277,0.03999997955,0.04,-9.784922200000535,-0.0572084477147968,-0.02255966859917831,0.00869940494976979,-0.005154872196962909,-0.02135437279941293
0.805,-0.0007177643249629262,-0.7828056700000707,0.00043821650298332806,-2.361420299999784,-0.005275418409775117,1.5753620799998156,0.7877321119999274,0.0399999791,0.04,-9.784791400000536,-0.05777932516996447,-0.022760705199175755,0.008755728899769073,-0.005097022047503504,-0.021498005599411108
0.8075,-0.000726806737462811,-0.782788405000071,0.00044228283948327625,-2.3614729499997833,-0.005330268114774417,1.5754070199998151,0.7877498179999272,0.03999997865,0.04,-9.784660600000537,-0.05835020262513212,-0.02296174179917319,0.008812052849768354,-0.005039171898044102,-0.021641638399409274
0.81,-0.000735849149962696,-0.7827711400000712,0.00044634917598322454,-2.3615255999997826,-0.00538511781977372,1.5754519599998147,0.7877675239999269,0.0399999782,0.04,-9.78452980000054,-0.058921080080299795,-0.023162778399170636,0.008868376799767638,-0.004981321748584697,-0.02178527119940745
0.8125,-0.0007448915624625807,-0.7827538750000714,0.00045041551248317267,-2.361578249999782,-0.005439967524773021,1.575496899999814,0.7877852299999267,0.03999997775,0.04,-9.78439900000054,-0.059491957535467446,-0.02336381499916807,0.00892470074976692,-0.004923471599125295,-0.021928903999405617
0.8150000000000001,-0.0007539339749624657,-0.7827366100000717,0.000454481848983121,-2.3616308999997813,-0.0054948172297723235,1.5755418399998136,0.7878029359999265,0.0399999773,0.04,-9.784268200000543,-0.06006283499063512,-0.023564851599165517,0.008981024699766204,-0.00486562144966589,-0.022072536799403793
0.8175,-0.0007631087349606972,-0.7827191000000749,0.00045860769298232586,-2.3616842999997716,-0.005550469414761601,1.575587419999805,0.787820899999923,0.0399999768,0.04,-9.784153550000344,-0.06063650566843366,-0.023773390249069243,0.009037592749762437,-0.004807237023735172,-0.022216985699391765
0.8200000000000001,-0.0007725481899605773,-0.7827011000000752,0.0004628525519822719,-2.361739199999771,-0.005607726559760873,1.5756342799998044,0.7878393799999228,0.0399999762,0.04,-9.784071200000344,-0.061215762791598585,-0.0239969329990664,0.009094648999761711,-0.0047477840448418174,-0.02236306679938991
0.8225,-0.0007819876449604568,-0.7826831000000753,0.00046709741098221774,-2.36179409999977,-0.005664983704760143,1.5756811399998036,0.7878578599999225,0.0399999756,0.04,-9.783988850000345,-0.06179501991476348,-0.024220475749063552,0.009151705249760984,-0.004688331065948466,-0.022509147899388047
