rsonawane2002/My_IMU/logs_incomplete/traj_384/clean_384.csv
time,j1,j2,j3,j4,j5,j6,j7,gripper1,gripper2,imu_ax,imu_ay,imu_az,imu_gx,imu_gy,imu_gz,quat_x,quat_y,quat_z,quat_w
1470.6833333323245,0.00016700293,-0.785875,4.0107683e-05,-2.3551247,9.29385e-05,1.570997,0.786,0.04,0.04,0.0,-0.0,0.0,2.875329272945135e-08,-0.0011641195053377316,4.421952117202833e-08,0.9999995971961153,0.00020320632366974898,0.0008736418299892524,3.263050917662294e-05
1470.6999999989912,0.00016701418,-0.78576016,4.0114486e-05,-2.3552213,9.2973634e-05,1.5709941,0.786,0.04,0.04,-0.2919984600329606,-4.414433925600857e-05,0.020128405918629078,-1.7652582465831326e-07,-0.002238174918278876,6.746429406187365e-08,0.9999996850596273,0.0002032030385888446,0.0007665025187138148,3.260460234821277e-05
1470.7166666656578,0.0001670839,-0.7856541,4.012001e-05,-2.35531,9.3003364e-05,1.5709913,0.786,0.04,0.04,0.023131099725226534,-5.929265618379942e-05,-0.0015688738640218247,-8.884582612862448e-07,-0.003229358303325059,-9.08781958099103e-09,0.9999997559132242,0.00020317059155691003,0.0006677078464196512,3.257966395996774e-05
1470.7333333323245,0.00016730936,-0.7855565,4.0123286e-05,-2.355391,9.30238e-05,1.5709884,0.786,0.04,0.04,0.022263111706166683,-0.00016278576895758048,-0.0014234929968770516,-2.642939898590211e-06,-0.004143666258296864,-2.759970402615382e-07,0.9999998124291714,0.000203060697962035,0.000576929989465333,3.255398762126937e-05
1470.7499999989911,0.00016783095,-0.7854663,4.0123126e-05,-2.3554652,9.303097e-05,1.5709856,0.786,0.04,0.04,0.01999192586576992,-0.00031355192910778335,-0.001188609258018225,-5.706474159464878e-06,-0.004987203528280661,-8.221057361565975e-07,0.9999998572169161,0.00020280363281993078,0.0004933344834781735,3.252570189301493e-05
1470.7666666656578,0.0001688275,-0.78538275,4.0118037e-05,-2.355532,9.3027855e-05,1.5709862,0.786,0.04,0.039999995,0.02097622788765907,-0.0005122795862760876,0.002084134924640324,-1.0099954586765895e-05,-0.005767543161590435,-9.630712052548868e-07,0.9999998914481625,0.00020231055534861118,0.0004184710468452142,3.249746595288195e-05
1470.7833333323244,0.00017051272,-0.785305,4.0106504e-05,-2.3555949,9.300441e-05,1.570987,0.7860019,0.04,0.03999999,0.013018034569922676,-0.0007384343751159139,-0.0014635978143440198,-1.5341330806351985e-05,-0.006470982207915181,-1.5687374937159388e-06,0.999999918239119,0.0002024288825212303,0.00034855475390200603,3.246361600613694e-05
1470.799999998991,0.00017313148,-0.7852324,4.0086918e-05,-2.355653,9.2931405e-05,1.5709879,0.7860038,0.04,0.039999995,0.013809943679210512,-0.000985590267509875,-0.0007140152269435873,-3.033671884916509e-05,-0.007135384250971952,-4.215370177235445e-06,0.9999999388287106,0.00020208306525114404,0.000283645242844771,3.2409657066705665e-05
1470.8166666656577,0.00017695587,-0.7851642,4.0057104e-05,-2.3557045,9.2808616e-05,1.5709922,0.78600764,0.04,0.039999995,0.017215083210952997,-0.0012844154359205134,0.002983070671080945,-4.515677343324524e-05,-0.007756839402089253,-6.575545732134352e-06,0.9999999535371774,0.0002020915026106794,0.00022591804830227218,3.233733169271441e-05
1470.8333333323244,0.00018228304,-0.78509957,4.001512e-05,-2.3557541,9.261676e-05,1.570997,0.78601146,0.04,0.04,0.0074123162669748055,-0.001595304261670441,-0.0008726003865477949,-6.861573612481795e-05,-0.008319786191824894,-1.0281622116735198e-05,0.999999964554098,0.00020135273978344999,0.0001712008763134756,3.2235649789962735e-05
1470.849999998991,0.00018943162,-0.78503805,3.9958664e-05,-2.3557973,9.2352006e-05,1.5710052,0.7860172,0.04,0.04,0.015461917925807533,-0.0019431463599807507,0.0036844267013336207,-9.072017905766732e-05,-0.008862429941083258,-1.378763746181087e-05,0.9999999717899338,0.000200661855705543,0.00012298056393050377,3.210501891950507e-05
1470.8666666656577,0.00019873977,-0.78497857,3.9885526e-05,-2.3558393,9.199822e-05,1.5710138,0.7860248,0.04,0.04,0.004379019410083451,-0.002301360110990486,-0.0003636512223348376,-0.0001194260159486145,-0.009352611762071427,-1.8774088049920352e-05,0.9999999765900724,0.00019985068253742708,7.654834395174562e-05,3.193603473970474e-05
1470.8833333323244,0.00021056224,-0.78492045,3.9793154e-05,-2.3558748,9.155249e-05,1.5710262,0.78603435,0.04,0.04,0.013662735315511654,-0.002689886127536323,0.004937000085147858,-0.00015350461893653825,-0.009833710747509758,-2.278556510744634e-05,0.9999999791019007,0.00019874264346481004,3.592752629485792e-05,3.172967646502686e-05
1470.899999998991,0.00022526857,-0.7848631,3.9679093e-05,-2.355909,9.0994254e-05,1.5710424,0.7860458,0.04,0.04,0.004089595818190794,-0.003079761153893635,0.0029253502134674036,-0.0001924251629325975,-0.01027233034286857,-2.835106926439769e-05,0.9999999800681831,0.0001971539994159057,-1.8025152054706578e-06,3.147514338824261e-05
1470.9166666656577,0.00024324094,-0.7848058,3.9540624e-05,-2.3559377,9.0308604e-05,1.5710624,0.78605956,0.04,0.04,0.010929853616170604,-0.00348918841659289,0.005397332109846609,-0.00023444619239169364,-0.010693748971796103,-3.4638888225922984e-05,0.9999999798774338,0.0001951030990599749,-3.4764240074983135e-05,3.1166651183464463e-05
1470.9333333323243,0.00026487262,-0.78474784,3.9375267e-05,-2.3559647,8.9472196e-05,1.5710865,0.78607666,0.039999995,0.04,0.003458297758163198,-0.0039036615536669214,0.004095551309490908,-0.0002807345946207962,-0.011081040685260692,-4.24474466520091e-05,0.9999999787974205,0.0001929009466962088,-6.516303113558181e-05,3.0792248227203135e-05
1470.949999998991,0.00029056577,-0.7846886,3.918018e-05,-2.3559883,8.84787e-05,1.5711167,0.78609663,0.03999999,0.039999995,0.006144436587529611,-0.004341757335980627,0.0067602041878389585,-0.000334557540706945,-0.011457316000016475,-5.017890325429453e-05,0.9999999772817787,0.00019010902968179743,-9.150876247038774e-05,3.035037285045328e-05
1470.9666666656576,0.00032073024,-0.7846274,3.8952603e-05,-2.3560083,8.730809e-05,1.571152,0.7861201,0.039999988,0.039999995,0.0055216725519890986,-0.004777708089553716,0.006528221849699811,-0.00039223713183515773,-0.011807448853780947,-5.951947793467988e-05,0.999999975544729,0.0001868512002378828,-0.00011448688928932793,2.983157244207173e-05
1470.9833333323243,0.00035578205,-0.7845636,3.8689686e-05,-2.3560274,8.594793e-05,1.5711931,0.7861475,0.039999988,0.039999995,0.0006318413042771809,-0.00522609536628498,0.0062208177319389435,-0.00045522350771962897,-0.01213981125835265,-6.876052825762978e-05,0.9999999736504337,0.0001830993347418682,-0.00013534910494958228,2.9229873039069817e-05
1470.999999998991,0.00039614234,-0.7844966,3.8388618e-05,-2.3560429,8.438113e-05,1.5712401,0.7861789,0.039999984,0.039999995,0.004362181043782165,-0.005677972487443941,0.007769244717170665,-0.000524077580586693,-0.01246548694620078,-7.961841995564191e-05,0.9999999718983805,0.00017873317786200443,-0.0001531119214673902,2.853819830599724e-05
1471.0166666656576,0.00044223559,-0.7844258,3.804653e-05,-2.3560553,8.259224e-05,1.5712941,0.78621465,0.03999998,0.03999999,0.0032690741032181947,-0.006134886236123909,0.008780292091192798,-0.0005981801018983845,-0.012776133391698266,-9.037098703121978e-05,0.9999999704664899,0.00017369052625746097,-0.0001677157207020711,2.774990713674769e-05
1471.0333333323242,0.0004944893,-0.7843505,3.7660462e-05,-2.3560667,8.056427e-05,1.5713552,0.7862554,0.039999977,0.039999988,-0.0010656429582756033,-0.006593591462249562,0.008274498939031538,-0.0006771385741054631,-0.013073259558440862,-0.00010187924750856401,0.9999999692224019,0.00016808654950804209,-0.0001805015926733538,2.6856697983374164e-05
1471.0499999989909,0.0005533323,-0.7842702,3.722757e-05,-2.3560755,7.828082e-05,1.5714242,0.7863012,0.039999977,0.039999988,0.0014018284864913966,-0.007056223991189518,0.009859553305990865,-0.0007629625479894384,-0.013367385305164816,-0.00011412550762135662,0.9999999684373228,0.00016170771440267016,-0.00019054563654255865,2.5852058112353375e-05
1471.0666666656575,0.0006191946,-0.78418434,3.6744932e-05,-2.3560815,7.572469e-05,1.5715015,0.78635246,0.039999973,0.039999988,0.0012592218256113341,-0.007519420846168693,0.010568701494562127,-0.0008535047472403531,-0.013653342558551048,-0.0001279580617977082,0.9999999681751087,0.00015457851599462913,-0.00019784782285953622,2.4728588310316646e-05
1471.0833333323242,0.0006925054,-0.78409225,3.6209698e-05,-2.3560855,7.288042e-05,1.5715882,0.7864095,0.039999966,0.03999998,-0.0006452194946326983,-0.007984261150011584,0.011363048782109253,-0.0009495722145316924,-0.013929303720698522,-0.00014164666971493357,0.9999999684528124,0.00014663429274440736,-0.00020258692668578875,2.3479681970249776e-05
1471.0999999989908,0.0007736936,-0.78399336,3.5618858e-05,-2.356089,6.9731104e-05,1.5716836,0.78647256,0.039999958,0.039999973,-0.003926324724745633,-0.008446992995171633,0.010608987985305518,-0.0010514012206695763,-0.01419966545167781,-0.0001560467382056246,0.9999999690307901,0.0001377808489467108,-0.00020607420121491275,2.2097052772719163e-05
1471.1166666656575,0.00086318667,-0.78388697,3.4969646e-05,-2.3560886,6.625979e-05,1.571789,0.7865421,0.03999995,0.03999997,0.0016963810712145033,-0.008912219264139813,0.013419205257991784,-0.00115807690323666,-0.014474126377076159,-0.00017197085995434674,0.9999999703020873,0.0001280437293306385,-0.00020634263868831384,2.0575304742088015e-05
1471.1333333323241,0.00096140924,-0.78377277,3.4259083e-05,-2.3560863,6.245113e-05,1.5719047,0.7866185,0.039999943,0.03999996,-0.002169385142525293,-0.009373688331771615,0.01288473808127577,-0.0012705614241125445,-0.014737521249052941,-0.00018770331760834598,0.9999999720376107,0.00011736062969948704,-0.00020443525290882552,1.8907345004849627e-05
1471.1499999989908,0.0010687836,-0.78365064,3.3484277e-05,-2.3560824,5.828847e-05,1.5720313,0.78670186,0.039999936,0.039999954,-0.002888532541556188,-0.009833378551804117,0.013265964040076739,-0.0013886985784390977,-0.015000471302793996,-0.00020407232856511248,0.9999999742155451,0.00010564058071665361,-0.00020029235968194677,1.7086471246719004e-05
1471.1666666656574,0.0011857287,-0.7835194,3.264251e-05,-2.3560762,5.375515e-05,1.5721692,0.7867927,0.039999936,0.039999958,-0.002477758207808378,-0.0102921271468241,0.014630520899783228,-0.0015114909482599054,-0.015260970271840323,-0.00022191287711504813,0.9999999767824914,9.288352051761603e-05,-0.00019385426387932413,1.5106045442968308e-05
1471.183333332324,0.00131266,-0.7833793,3.1730848e-05,-2.356068,4.883638e-05,1.5723189,0.7868914,0.039999932,0.039999954,-0.002406317941705538,-0.010748015662511313,0.014704589835967674,-0.0016400730680531696,-0.015519144524561788,-0.0002394767360239745,0.9999999797030437,7.90912694521157e-05,-0.00018485264168931282,1.2960870179910136e-05
1471.1999999989907,0.0014499882,-0.7832294,3.0746476e-05,-2.356057,4.351534e-05,1.572481,0.7869981,0.039999932,0.039999958,-0.0025336237943651696,-0.011200126230676713,0.015929858850616263,-0.0017742244519502338,-0.015773019199403587,-0.00025846019503012087,0.9999999828786307,6.411898785698112e-05,-0.00017325756976671386,1.0644624538268796e-05
1471.2166666656574,0.0015981197,-0.7830687,2.9686811e-05,-2.3560452,3.777728e-05,1.5726556,0.78711325,0.039999932,0.039999958,-0.006836733955761787,-0.011648919720092,0.015600545094351936,-0.0019131203736428813,-0.016024165332132863,-0.0002771319087619987,0.999999985934633,4.800262241278566e-05,-0.00016049942458410275,8.149643224654146e-06
1471.233333332324,0.0017574559,-0.7828976,2.8548962e-05,-2.3560305,3.160586e-05,1.5728433,0.7872371,0.039999936,0.03999996,-0.0021305013373495996,-0.012094956812217133,0.017088161516198852,-0.0020578461354045473,-0.016285723310840657,-0.00029712769681688745,0.9999999890328992,3.0661546883729617e-05,-0.00014478991638276615,5.472760915863689e-06
1471.2499999989907,0.0019283926,-0.782715,2.7330181e-05,-2.3560138,2.4987043e-05,1.573045,0.7873699,0.039999936,0.039999966,-0.0050591260828625195,-0.012537437614078273,0.017646281365335525,-0.0022075526553118263,-0.01654164308431333,-0.0003167372042155015,0.9999999918758874,1.201780408218265e-05,-0.00012687393406120133,2.608128700269309e-06
1471.2666666656573,0.0021113208,-0.78252065,2.6027918e-05,-2.355995,1.7905217e-05,1.5732605,0.7875121,0.039999936,0.039999966,-0.005095382078468269,-0.012974898086307116,0.017856830241269606,-0.00236192881924944,-0.016797732663578972,-0.0003367801021262638,0.9999999942581603,-7.885030193379957e-06,-0.00010687049822677159,-4.499315400314249e-07
1471.283333332324,0.0023066245,-0.7823142,2.4639423e-05,-2.355975,1.03451075e-05,1.5734906,0.7876639,0.039999932,0.039999966,-0.006828555832383287,-0.013406317947493732,0.018115738764490352,-0.0025217385538165663,-0.01705831042812525,-0.00035807463133451234,0.9999999959508866,-2.917852613994743e-05,-8.504762026110356e-05,-3.707100133794106e-06
1471.2999999989906,0.002514682,-0.7820952,2.3162207e-05,-2.355952,2.2934466e-06,1.5737361,0.7878256,0.039999936,0.03999997,-0.004198811385980328,-0.013838947840011731,0.01971524393700186,-0.002686056885303342,-0.017323236802275564,-0.00037884320175309526,0.9999999968087169,-5.1842643627877065e-05,-6.036199386876353e-05,-7.164944652596479e-06
1471.3166666656573,0.0027358658,-0.78186315,2.1593703e-05,-2.3559265,-6.2654094e-06,1.5739969,0.7879975,0.039999936,0.039999973,-0.005208608856421826,-0.014262579086684463,0.01989701631135432,-0.0028554007376043467,-0.01758587979393929,-0.0004007890756848536,0.9999999965064875,-7.594382195133047e-05,-3.3200796213105004e-05,-1.0829042311269555e-05
1471.333333332324,0.0029705414,-0.7816178,1.9931378e-05,-2.3558998,-1.5344196e-05,1.5742737,0.78817976,0.03999994,0.039999977,-0.007727050015438053,-0.014682082739048662,0.019813368831411715,-0.0030296179102538377,-0.017847954829456118,-0.0004221641533755071,0.9999999947247648,-0.00010157484836271644,-4.10019590883753e-06,-1.4704054228082469e-05
1471.3499999989906,0.0032190678,-0.78135854,1.8172836e-05,-2.3558705,-2.4957577e-05,1.5745665,0.7883728,0.039999943,0.039999984,-0.00603425041154626,-0.015098713688779693,0.02081464408132394,-0.0032078156282012854,-0.01811608190972883,-0.0004446166706457438,0.9999999911673797,-0.0001287061282226881,2.7327535563896848e-05,-1.8793049734133862e-05
1471.3666666656572,0.0034817979,-0.78108513,1.6315646e-05,-2.355839,-3.511873e-05,1.5748764,0.78857696,0.03999995,0.039999995,-0.006678533641713003,-0.015511790388953867,0.02157047623718711,-0.0033909630105282192,-0.01838790937624263,-0.00046724641798497307,0.999999985469467,-0.00015736454798999695,6.135094005962872e-05,-2.3098202002999375e-05
1471.383333332324,0.0037590761,-0.78079706,1.4357335e-05,-2.3558054,-4.5836365e-05,1.5752031,0.7887924,0.039999954,0.04,-0.007439092531180691,-0.01591914647059104,0.02149852491688531,-0.003578672270620401,-0.01865850049016637,-0.0004891961992577145,0.9999999772659498,-0.00018763252048470776,9.746371968072449e-05,-2.762173640294733e-05
1471.3999999989906,0.00405124,-0.78049403,1.2295684e-05,-2.35577,-5.7129382e-05,1.5755473,0.7890194,0.039999954,0.04,-0.008293916232204879,-0.016316771045218198,0.022139986999936134,-0.0037707940857823526,-0.018935886340102546,-0.0005120858263323412,0.9999999661712569,-0.00021949972302156344,0.00013575566706638536,-3.2369055350067894e-05
1471.4166666656572,0.0043586222,-0.78017575,1.0128385e-05,-2.3557322,-6.9011185e-05,1.5759096,0.7892582,0.039999954,0.04,-0.006905968767245696,-0.016716662948279733,0.022985339043901654,-0.0039672101332726036,-0.019218178185476203,-0.0005349950297621498,0.9999999516626066,-0.0002530723373541413,0.00017673381970895042,-3.734077609940665e-05
1471.4333333323239,0.004681544,-0.77984166,7.852908e-06,-2.3556917,-8.146169e-05,1.5762902,0.78950906,0.03999995,0.03999999,-0.007406128814624324,-0.017131607604570307,0.023530446079211842,-0.0041677631485792736,-0.019501075635173587,-0.0005546413163059349,0.9999999332602282,-0.00028833186205477605,0.00022030913089044114,-4.25225050816424e-05
1471.4499999989905,0.005020324,-0.7794916,5.4675265e-06,-2.3556492,-9.454463e-05,1.5766896,0.7897722,0.039999947,0.04,-0.008726879611353766,-0.01748320719405722,0.023546968016829872,-0.004372587299586386,-0.019785809085955917,-0.0005792229757864858,0.9999999104899973,-0.0003253484677212966,0.00026621394726219426,-4.7942740758615806e-05
1471.4666666656572,0.0053752684,-0.77912515,2.9697167e-06,-2.3556042,-0.00010824384,1.5771079,0.79004794,0.039999943,0.039999995,-0.007918715765509177,-0.017884945598060746,0.024257681868000702,-0.0045810074929845054,-0.020074720850497847,-0.00060114363153479,0.9999998827471467,-0.00036412549721600033,0.0003147169140008603,-5.3587117639698635e-05
1471.4833333323238,0.0057466803,-0.7787419,3.578426e-07,-2.3555574,-0.00012259738,1.5775455,0.79033643,0.039999936,0.04,-0.009913683036288923,-0.018245500773123903,0.0242950244893958,-0.0047936791996489175,-0.020366586951980428,-0.000625513042729493,0.9999998496037186,-0.00040472551982542813,0.00036531198206526017,-5.947225915534502e-05
1471.4999999989905,0.0061348528,-0.7783418,-2.3702921e-06,-2.355508,-0.00013759724,1.5780033,0.79063797,0.039999932,0.04,-0.008049067848836522,-0.01863698637962737,0.0253203449940953,-0.005010178305693766,-0.020665579098545297,-0.0006478467886357789,0.9999998101436951,-0.0004471458061703042,0.0004188937128367981,-6.558398531890421e-05
1471.516666665657,0.0065400694,-0.7779244,-5.2166306e-06,-2.355456,-0.0001532526,1.578481,0.7909527,0.039999932,0.039999995,-0.008746330456488316,-0.01900426883202494,0.02541161337554776,-0.005230577733908004,-0.020964736114338536,-0.0006691480914677656,0.9999997637945867,-0.0004914685626875505,0.00047507524981974604,-7.192308137261052e-05
1471.5333333323238,0.0069626137,-0.7774893,-8.1832195e-06,-2.355402,-0.0001695736,1.5789791,0.7912809,0.03999993,0.039999995,-0.009793084950771025,-0.019376353700720737,0.025803475943741994,-0.005454271199847517,-0.021266562629430802,-0.000689988882399626,0.9999997099441128,-0.000537656840378835,0.000533737996665209,-7.848925468863281e-05
1471.5499999989904,0.007402753,-0.7770363,-1.1271807e-05,-2.3553452,-0.00018657096,1.5794977,0.7916228,0.03999993,0.04,-0.009246187231259917,-0.01973277933611274,0.02599601954840214,-0.005682107176539362,-0.02157211832455149,-0.0007122856584314699,0.9999996477957293,-0.0005857848329783841,0.0005949719953176202,-8.528113391950899e-05
1471.566666665657,0.007860751,-0.77656513,-1.4484567e-05,-2.355286,-0.0002042475,1.5800376,0.7919786,0.039999925,0.04,-0.009304564667544923,-0.02009939395898816,0.026834491982485886,-0.005913121898555421,-0.021882400789748235,-0.0007324189518165325,0.9999995763686496,-0.0006358651956787824,0.000659105706615244,-9.229107146729327e-05
1471.5833333323237,0.008336862,-0.7760755,-1.7822964e-05,-2.3552244,-0.00022262377,1.5805988,0.7923486,0.039999925,0.04,-0.010479601516566461,-0.020440639307483903,0.02674136362685875,-0.006147711260681178,-0.022194806277215418,-0.0007529341307728685,0.9999994951224028,-0.000687846686637193,0.0007257524547713686,-9.952511985010092e-05
1471.5999999989904,0.008831335,-0.77556694,-2.1288877e-05,-2.3551602,-0.00024169164,1.5811818,0.79273254,0.039999917,0.03999999,-0.010052677219052342,-0.020808349973691978,0.02741620092649999,-0.00638653978195047,-0.022510900709937443,-0.000771149616647537,0.9999994028626362,-0.0007420333428147899,0.0007951214845366249,-0.00010697062175328414
1471.616666665657,0.009344407,-0.77503955,-2.4883768e-05,-2.3550935,-0.00026148828,1.5817865,0.79313105,0.039999917,0.04,-0.009981881853282637,-0.021125713440432736,0.027425635621725064,-0.006626698220078046,-0.022829972110497924,-0.0007914662829233477,0.9999992987711291,-0.0007981859373234719,0.0008673030965240184,-0.00011463768273180202
1471.6333333323237,0.009876314,-0.77449304,-2.8609362e-05,-2.3550243,-0.00028201024,1.5824134,0.7935442,0.039999917,0.04,-0.010642943936356453,-0.021479476212825886,0.02770035377595015,-0.0068707856879853466,-0.023152627852196392,-0.0008101594108648096,0.9999991818859556,-0.0008564226905676039,0.0009422086219340101,-0.00012251737493553107
1471.6499999989903,0.010427282,-0.77392703,-3.246754e-05,-2.3549528,-0.00030324006,1.5830629,0.79397213,0.039999913,0.03999999,-0.010966933971356951,-0.021841087994926844,0.02811505851529894,-0.0071178097329204285,-0.02347786390286373,-0.0008256324712402857,0.9999990512317797,-0.0009167387878762498,0.001019838762508736,-0.0001305926246226941
1471.666666665657,0.010997524,-0.7733414,-3.6459136e-05,-2.3548784,-0.0003252408,1.5837351,0.794415,0.03999991,0.04,-0.010251240886960389,-0.022129315144614817,0.028526004179596498,-0.007368140686098517,-0.023807340144846943,-0.0008453989770817385,0.9999989053861628,-0.0009792107819445307,0.0011004926269690865,-0.0001388837606078195
1471.6833333323236,0.011587247,-0.7727359,-4.0585997e-05,-2.3548014,-0.00034798164,1.5844303,0.794873,0.039999902,0.039999995,-0.010956396362171716,-0.022487330393631925,0.028703584735856325,-0.007620815111154415,-0.024139190828468066,-0.0008608638809656413,0.9999987434017897,-0.0010438245974211942,0.0011840219091926298,-0.00014736746521074918
1471.6999999989903,0.012196656,-0.7721101,-4.4849607e-05,-2.354722,-0.0003714811,1.5851486,0.79534626,0.039999902,0.04,-0.011807061728319468,-0.022804674627245093,0.02873380969239392,-0.007876512988226156,-0.024472402309659663,-0.000876120626097003,0.9999985644674264,-0.0011106229564713137,0.0012701295594572972,-0.00015604690664861994
1471.716666665657,0.012825948,-0.77146417,-4.9250804e-05,-2.3546393,-0.00039576206,1.5858897,0.795835,0.0399999,0.04,-0.010130228733062907,-0.023120050147120916,0.028959172596731975,-0.008134523366878435,-0.024812038142532584,-0.0008923934346570966,0.9999983668482818,-0.0011795863357952508,0.0013592934210545243,-0.00016491889218313524
1471.7333333323236,0.013475306,-0.77079755,-5.3791642e-05,-2.354554,-0.00042078775,1.5866553,0.7963394,0.039999895,0.039999995,-0.011504661771444269,-0.02347886536854197,0.03001586935802436,-0.008395466535500887,-0.025152401286732757,-0.0009030529036637004,0.9999981490209678,-0.001250747418343385,0.0014516631923001777,-0.00017395260773598066
1471.7499999989902,0.014144911,-0.7701102,-5.847293e-05,-2.354467,-0.00044659167,1.5874447,0.7968594,0.03999989,0.039999995,-0.013436751095374788,-0.023762988323163328,0.029093612684993886,-0.008659284441979647,-0.02549288171364727,-0.0009154649474172053,0.9999979107419854,-0.0013241978908037385,0.0015464353908198581,-0.00018316438623553068
1471.7666666656569,0.014834933,-0.7694018,-6.329598e-05,-2.3543758,-0.00047319356,1.5882581,0.79739517,0.039999887,0.04,-0.00968112612635963,-0.024080155382210852,0.030477272671980415,-0.00892489417924685,-0.025841645156274965,-0.0009275389325696275,0.9999976489145352,-0.0013999339414195395,0.00164477331100222,-0.0001925386122930832
1471.7833333323235,0.015545532,-0.7686725,-6.826194e-05,-2.3542826,-0.0005005858,1.5890957,0.797947,0.039999884,0.04,-0.012784574117752356,-0.024378992200401947,0.02941575287771503,-0.009192502909493604,-0.026186707381111597,-0.0009374681595825511,0.9999973635264179,-0.0014779181125523099,0.0017458137098777075,-0.0002020711659440545
1471.7999999989902,0.016276872,-0.767922,-7.3371746e-05,-2.3541873,-0.00052877533,1.5899577,0.7985149,0.03999988,0.04,-0.013195731131787625,-0.024695089226512215,0.029836447034226055,-0.009462489872109521,-0.026537654806222853,-0.0009460851428015933,0.999997053200006,-0.0015582034174323805,0.0018495278465471747,-0.00021175495058565918
1471.8166666656568,0.017029095,-0.76715004,-7.862645e-05,-2.3540878,-0.000557775,1.5908444,0.799099,0.03999988,0.04,-0.010055842443934537,-0.025000890896892045,0.030894453374563646,-0.009734768704007794,-0.02689372458661358,-0.0009540990339511732,0.9999967145432597,-0.0016408030172258576,0.001956930012474832,-0.00022156956326794966
1471.8333333323235,0.017802348,-0.76635665,-8.4027364e-05,-2.3539865,-0.0005875634,1.5917556,0.7996995,0.039999876,0.04,-0.013881168327589677,-0.025303100871296863,0.02975080990683665,-0.01000908462595021,-0.02724575878421474,-0.0009580826457129988,0.9999963481681234,-0.0017257312044892431,0.002066858924226666,-0.0002315089942054249
1471.8499999989901,0.018596759,-0.7655414,-8.957528e-05,-2.3538818,-0.00061817537,1.592692,0.8003164,0.03999987,0.04,-0.011781578979408458,-0.02559078112399464,0.03101235848204098,-0.010285361964189214,-0.027604540890918832,-0.0009634656435479387,0.9999959508781088,-0.0018129942472433474,0.0021801204791998766,-0.0002415656072578901
1471.8666666656568,0.019412465,-0.7647045,-9.5270974e-05,-2.3537743,-0.0006496038,1.5936532,0.8009499,0.03999986,0.039999995,-0.012434450616360948,-0.025890182749396112,0.030268472292194204,-0.010563747711943634,-0.027963466182465865,-0.0009659847147681103,0.9999955215224612,-0.0019026028254349825,0.002296447512311844,-0.0002517267026667075
1471.8833333323234,0.020249585,-0.7638458,-0.000101115074,-2.353665,-0.0006818701,1.5946397,0.8016,0.039999858,0.04,-0.014719834535470433,-0.026160305511432544,0.03013348475744415,-0.010844094055452995,-0.028325041249015137,-0.0009691847182813345,0.999995059554668,-0.001994587920370858,0.002415334743851279,-0.00026199877658442523
1471.89999999899,0.021108218,-0.7629644,-0.00010710887,-2.3535519,-0.00071494427,1.5956517,0.8022668,0.039999854,0.039999995,-0.01147996849162336,-0.026491641070515784,0.03185959030174157,-0.011125967008075395,-0.02869283246602962,-0.0009668615912719262,0.999994560873486,-0.0020889708142199743,0.002537766311901625,-0.00027233532104815005
1471.9166666656567,0.021988476,-0.7620612,-0.00011325279,-2.353436,-0.0007488644,1.5966893,0.8029503,0.039999854,0.04,-0.013149776695930981,-0.02673145471906134,0.030568084144522167,-0.011409581016707845,-0.029058773686600505,-0.0009663205730829235,0.9999940244588023,-0.0021857798699671097,0.002663356297538996,-0.0002827477331483308
1471.9333333323234,0.02289046,-0.76113594,-0.00011954776,-2.353318,-0.00078359176,1.5977523,0.8036506,0.03999985,0.039999995,-0.014208390284919936,-0.02703627606350824,0.030215970009273008,-0.011694529551020502,-0.029426109590503173,-0.0009594697129353938,0.999993449299856,-0.0022850666534301547,0.0027917478625482735,-0.00029320920457443135
1471.94999999899,0.023814261,-0.76018816,-0.00012599418,-2.353196,-0.00081915443,1.5988412,0.8043679,0.03999985,0.04,-0.011478407979903515,-0.027328245781351596,0.03166995796810568,-0.011980670129256264,-0.02979830491637031,-0.0009535503093549126,0.9999928310506536,-0.0023867595230294683,0.002923866082768728,-0.00030369953604744785
1471.9666666656567,0.024759965,-0.7592179,-0.00013259282,-2.3530717,-0.0008555483,1.5999559,0.8051024,0.039999854,0.04,-0.014745740172505961,-0.02758598385479774,0.030620443062323588,-0.012268130393876787,-0.03016659827811497,-0.0009450514900984501,0.9999921705060393,-0.0024907842548290695,0.0030587883742889724,-0.0003142198237957902
1471.9833333323234,0.02572765,-0.75822514,-0.00013934435,-2.3529444,-0.0008927694,1.6010964,0.80585366,0.03999985,0.039999995,-0.013298203281952858,-0.02787004117857303,0.030907564282922628,-0.01255793709676594,-0.030540011300305286,-0.0009337654441646367,0.9999914638441804,-0.0025974199608714563,0.003196903047358942,-0.00032474486297049576
1471.99999999899,0.026717374,-0.75720984,-0.00014624916,-2.3528135,-0.00093082857,1.6022629,0.8066222,0.039999846,0.03999999,-0.012483761578874208,-0.028126476416379803,0.031200030072908724,-0.012847682195007364,-0.030913949216950246,-0.0009213170490070054,0.999990708357935,-0.002706429370583203,0.0033385689081885505,-0.0003352543852277532
1472.0166666656567,0.027729213,-0.75617176,-0.00015330735,-2.3526812,-0.00096976344,1.6034555,0.8074081,0.039999843,0.04,-0.016432159185142403,-0.02836006667527799,0.030359550691416715,-0.01313932271462951,-0.0312857508756724,-0.000910046042379445,0.9999899054499953,-0.0028178242634197734,0.0034827149453659466,-0.00034577614023715956
1472.0333333323233,0.028763223,-0.755111,-0.00016051972,-2.3525443,-0.0010095396,1.6046741,0.8082111,0.039999835,0.039999995,-0.011257407092912786,-0.02867756382052139,0.031429302813901216,-0.01343293413401539,-0.03166548424747101,-0.0008931132308855411,0.9999890477558152,-0.002931752387152026,0.003630742071211169,-0.00035624201152753695
1472.04999999899,0.029819455,-0.7540273,-0.0001678862,-2.352405,-0.0010501774,1.605919,0.8090313,0.039999828,0.039999995,-0.015066079579106884,-0.02890721711204247,0.030724259722192393,-0.013726859190447728,-0.03203995166375546,-0.0008757250376762725,0.9999881362648229,-0.0030481826779564115,0.0037817280447569167,-0.0003666673743955259
1472.0666666656566,0.030897941,-0.7529209,-0.00017540735,-2.3522635,-0.0010916764,1.6071903,0.8098689,0.039999824,0.04,-0.014947589931013638,-0.029148235812508777,0.030495808121755452,-0.014021941854915454,-0.03241777726477601,-0.0008559801934678055,0.9999871685441781,-0.0031670744889114952,0.00393576332965961,-0.0003770320833858614
1472.0833333323233,0.031998724,-0.7517918,-0.00018308351,-2.352118,-0.0011340312,1.6084878,0.8107237,0.03999982,0.04,-0.012653645633098343,-0.02943155111735027,0.03108982361095247,-0.01431790322282097,-0.03279725268851858,-0.0008329938818759701,0.9999861393441419,-0.00328847992853424,0.00409353405770435,-0.0003872961094366301
1472.09999999899,0.033121847,-0.75063956,-0.00019091468,-2.3519707,-0.0011772406,1.6098115,0.8115959,0.039999813,0.039999995,-0.016432351479522822,-0.0296695320177863,0.030013049637167555,-0.01461468756972658,-0.03317354213838475,-0.0008080950314537727,0.999985051184873,-0.0034123946643622406,0.004253819841690683,-0.0003974747741371985
1472.1166666656566,0.034267325,-0.7494646,-0.00019890144,-2.3518195,-0.0012213044,1.6111617,0.8124855,0.03999981,0.039999995,-0.012796549511029376,-0.029938301251117988,0.030905128840474916,-0.014911873169618457,-0.033556960226134365,-0.000780198045534403,0.9999838963598129,-0.0035387980764642495,0.004417902615351105,-0.00040751159766605
1472.1333333323232,0.035435162,-0.7482666,-0.00020704353,-2.3516655,-0.001266224,1.612538,0.8133924,0.0399998,0.03999999,-0.01491575357426278,-0.03014558152114738,0.03016387540824006,-0.015210139791481482,-0.03393526157630938,-0.0007497063098015472,0.9999826753689767,-0.0036677546446272765,0.004585008808093886,-0.00041741106898270786
1472.1499999989899,0.036625385,-0.74704564,-0.00021534093,-2.3515093,-0.0013120102,1.6139408,0.81431675,0.0399998,0.04,-0.01601561918145311,-0.030393679329232537,0.02998671265896924,-0.01550870176543876,-0.034315552076923383,-0.0007176958317454717,0.999981386414644,-0.0037991912650476773,0.004755050219725853,-0.0004271620140360985
1472.1666666656565,0.037838,-0.74580175,-0.0002237941,-2.351349,-0.0013586323,1.6153702,0.81525844,0.039999798,0.03999999,-0.012879997090275985,-0.030686257324420013,0.030684526672342116,-0.01580820387722673,-0.03469878842162516,-0.000680568614464312,0.999980022394118,-0.003933172492361691,0.004928920783295268,-0.000436699801415025
1472.1833333323232,0.039072998,-0.74453473,-0.00023240282,-2.3511868,-0.0014061292,1.616826,0.8162176,0.039999798,0.04,-0.01642099485348325,-0.030853858634338066,0.02977997228954532,-0.016107819279070526,-0.03507718777525901,-0.0006445573691623208,0.9999785855378739,-0.004069637551004509,0.005105639079227337,-0.0004460554551933946
1472.1999999989898,0.040330365,-0.74324495,-0.00024116733,-2.3510215,-0.0014544703,1.6183089,0.817194,0.039999794,0.04,-0.014763075541845971,-0.031118242371647176,0.03004460723310398,-0.016408242591975188,-0.03545953833516717,-0.000602489316972587,0.9999770690857847,-0.00420870192600945,0.005285920161351755,-0.0004551689244811887
1472.2166666656565,0.041610096,-0.7419321,-0.00025008735,-2.3508523,-0.0015036685,1.6198168,0.8181878,0.03999979,0.04,-0.01378482397669245,-0.031315873555621404,0.029224830671670254,-0.016708021911790244,-0.03583855425988178,-0.0005590235951855886,0.9999754731908556,-0.004350274712448662,0.005469258724130199,-0.00046404273447764565
1472.2333333323231,0.042912174,-0.74059635,-0.00025916248,-2.3506813,-0.0015537081,1.6213512,0.81919885,0.039999787,0.039999995,-0.017272773332832614,-0.03155105390365495,0.028928261691496537,-0.017008538440972533,-0.03621896917306191,-0.000511942860894123,0.999973796716857,-0.004494412205153944,0.005655327594139823,-0.00047266098509388804
1472.2499999989898,0.044236556,-0.73923767,-0.0002683928,-2.3505065,-0.0016046126,1.6229123,0.8202273,0.039999783,0.04,-0.013762620891322186,-0.03177757240872062,0.029862476856323816,-0.01730880350543218,-0.036604565992116075,-0.0004633403987079393,0.9999720313306824,-0.004641035002995588,0.005845170205389254,-0.00048097376198491683
1472.2666666656564,0.04558322,-0.73785615,-0.00027777793,-2.3503292,-0.001656367,1.6244994,0.8212731,0.039999783,0.04,-0.01593411347287077,-0.03197272421338049,0.028679284429489194,-0.01760940053127942,-0.036983245077744996,-0.0004114056595144607,0.9999701782236685,-0.004790194667055535,0.006038012561897726,-0.0004889812660722516
1472.283333332323,0.04695214,-0.73645186,-0.00028731758,-2.350149,-0.0017089691,1.6261127,0.82233614,0.03999978,0.04,-0.015563932269380132,-0.03220782075789366,0.028591041369629977,-0.017910299588527086,-0.03736496965309537,-0.0003563221580394056,0.9999682336554929,-0.004941883007638797,0.006234004064433572,-0.0004966543836522388
1472.2999999989897,0.048343252,-0.7350249,-0.0002970119,-2.349965,-0.0017624088,1.6277522,0.82341635,0.039999772,0.039999995,-0.01426494317648963,-0.03241369572294442,0.02879967782154491,-0.018211017998978514,-0.037746673265378825,-0.00029727772893614005,0.9999661914436075,-0.0050961285154623405,0.006433621312359019,-0.0005039451651593776
1472.3166666656564,0.049756512,-0.7335753,-0.00030686014,-2.3497798,-0.0018167059,1.6294175,0.8245138,0.039999772,0.04,-0.018255565741487345,-0.032546616909745474,0.0273034530596572,-0.018510928514497815,-0.038122426925791965,-0.00023731531888244702,0.9999640569588906,-0.005252883923091151,0.006635584867466458,-0.0005108955605768145
1472.333333332323,0.05119187,-0.732103,-0.0003168621,-2.3495908,-0.0018718344,1.6311094,0.82562834,0.03999976,0.03999999,-0.01400217981881724,-0.032852011092631556,0.028731301063489312,-0.018811340278892447,-0.03850722041023167,-0.00017203470041193087,0.9999618170729271,-0.005412186195996506,0.006841412905379014,-0.0005174033705632142
1472.3499999989897,0.052649263,-0.730608,-0.0003270169,-2.3493989,-0.0019278344,1.6328272,0.82676005,0.039999753,0.04,-0.015984424984427648,-0.032978707533538876,0.027742763662153003,-0.019110939965904683,-0.03888352097650875,-0.00010735014065329455,0.9999594737299795,-0.0055739788391113414,0.007050362277523938,-0.0005234972007469313
1472.3666666656563,0.054128613,-0.7290905,-0.00033732454,-2.349204,-0.0019846621,1.6345708,0.8279087,0.039999753,0.04,-0.015858022556303197,-0.0331769631770909,0.027335342211776137,-0.01941066244039115,-0.039259960660837666,-3.6095129835724514e-05,0.9999570228999216,-0.005738343879880589,0.00726249163760705,-0.0005291293372997284
1472.383333332323,0.055629876,-0.7275505,-0.0003477841,-2.3490062,-0.002042314,1.6363403,0.82907444,0.039999757,0.04,-0.01567463616702902,-0.033404201027327496,0.027205407513775093,-0.019709325669476765,-0.03963571712202614,3.835586266276534e-05,0.999954461729827,-0.005905172918613208,0.0074778307885300325,-0.0005342715705196473
1472.3999999989896,0.057152938,-0.72598803,-0.00035839577,-2.3488061,-0.0021007855,1.6381354,0.83025724,0.03999975,0.039999995,-0.017367223949760202,-0.03352125646234744,0.026488577192274043,-0.020008105458918873,-0.04001067214868037,0.00011587524223124687,0.9999517904954299,-0.006074443530235023,0.00769593310452533,-0.0005389196902224114
1472.4166666656563,0.05869774,-0.7244035,-0.000369158,-2.3486023,-0.0021601063,1.6399559,0.83145684,0.03999975,0.04,-0.014269714545189771,-0.03372253829037747,0.02657211421837058,-0.0203068081242172,-0.04038595033121581,0.00019430412106881617,0.9999489992340173,-0.00624624852882315,0.007917602831269549,-0.0005430245020564775
1472.433333332323,0.06026418,-0.7227963,-0.00038007146,-2.3483953,-0.0022202209,1.6418018,0.83267313,0.039999742,0.03999999,-0.01625651841961062,-0.033925747748338175,0.026494445157587698,-0.020604546440027877,-0.040757725859643545,0.00027998821994480207,0.9999460886004888,-0.006420597613759451,0.008142302535225222,-0.0005465604179676214
1472.4499999989896,0.06185217,-0.72116727,-0.0003911343,-2.3481863,-0.002281176,1.6436732,0.83390623,0.03999974,0.04,-0.017138729987209445,-0.03400978678306937,0.02529609147010614,-0.02090129452596902,-0.04112742659677446,0.00036473934544553784,0.9999430571100425,-0.006597392232546531,0.008369884444466286,-0.0005495339282821486
1472.4666666656562,0.0634616,-0.7195164,-0.0004023464,-2.3479743,-0.0023429408,1.6455698,0.83515596,0.03999974,0.04,-0.015994761293836035,-0.03420792313649362,0.025336213311755174,-0.021197772004384358,-0.04149882076130784,0.00045559259428304237,0.9999398984502315,-0.006776673481442211,0.008600674639234949,-0.0005518873223873143
1472.483333332323,0.065092385,-0.7178435,-0.0004137068,-2.3477595,-0.0024055215,1.6474918,0.8364224,0.03999974,0.04,-0.016365324792921854,-0.034386921873351406,0.02533770817358949,-0.021493298720213508,-0.04186707317243753,0.0005488092779436845,0.999936610119737,-0.006958367375230838,0.008834613286224181,-0.000553600761655504
1472.4999999989896,0.06674438,-0.71614885,-0.0004252147,-2.3475423,-0.0024689154,1.6494386,0.8377053,0.03999973,0.04,-0.0170813401543235,-0.03445275845704865,0.024245912429377015,-0.02178851591645542,-0.042232842300911635,0.000644400981579721,0.9999331916720512,-0.007142497972650507,0.009071342659867216,-0.0005546689127854372
1472.5166666656562,0.06841749,-0.7144324,-0.0004368697,-2.347322,-0.0025331047,1.6514103,0.8390045,0.039999723,0.039999995,-0.016076167090939286,-0.03467004829074971,0.024551385258209102,-0.022082974462525565,-0.04259981300576633,0.0007455109524934838,0.9999296359590573,-0.00732913875523021,0.009311218477723109,-0.0005550372545016533
1472.5333333323229,0.0701116,-0.71269447,-0.00044867056,-2.347099,-0.0025981048,1.6534069,0.84032005,0.03999972,0.04,-0.016707056513243224,-0.03478077541837904,0.023835686244955134,-0.022376153831801956,-0.042963787369840606,0.0008481316961064887,0.9999259413488615,-0.007518208738030727,0.009554091657621284,-0.0005546959189647476
1472.5499999989895,0.07182659,-0.7109352,-0.0004606169,-2.3468733,-0.0026639083,1.6554284,0.8416518,0.039999712,0.04,-0.01612657495522196,-0.034937043557982383,0.02382019377105138,-0.022668510164924202,-0.04332654634464912,0.0009543774905284462,0.9999221011132954,-0.007709707527513768,0.009800288160265767,-0.0005535946067565411
1472.5666666656562,0.07356235,-0.70915467,-0.00047270695,-2.3466446,-0.0027305172,1.6574737,0.8429997,0.0399997,0.04,-0.016543693269910342,-0.03501750642364021,0.022564979696171328,-0.02295968108900065,-0.04368328735468671,0.0010627835055895037,0.9999181175569234,-0.007903612626781383,0.010049212178106186,-0.0005517458328836228
1472.5833333323228,0.075318694,-0.70735306,-0.00048494045,-2.3464131,-0.0027978786,1.6595436,0.8443636,0.0399997,0.03999999,-0.016211036056934525,-0.03518424530296882,0.02297860049338407,-0.023249817562554162,-0.04404034908276172,0.0011792606781137471,0.9999139817533121,-0.00809992990029902,0.010301396013676082,-0.0005490628530759041
1472.5999999989895,0.07709553,-0.7055304,-0.00049731607,-2.346179,-0.0028660386,1.6616375,0.84574336,0.0399997,0.04,-0.016917351648548795,-0.03526520037377828,0.022062012645762685,-0.023538754239484747,-0.04439373065275033,0.0012946621187905072,0.9999096946383014,-0.008298642666074897,0.010556393800034562,-0.0005455714235240346
1472.616666665656,0.078892685,-0.7036869,-0.00050983287,-2.3459423,-0.0029349693,1.6637557,0.84713894,0.0399997,0.04,-0.016749967768392438,-0.03537410673669361,0.02191198717391707,-0.023826613756240303,-0.044744555725291055,0.0014154236488397604,0.9999052506213013,-0.008499727801180995,0.010814411254617316,-0.0005412175849375656
1472.6333333323228,0.08071001,-0.7018225,-0.0005224906,-2.345703,-0.0030046175,1.6658974,0.84855,0.0399997,0.03999999,-0.017078900362954563,-0.035485515720581895,0.021234359138433412,-0.02411342229228848,-0.04509217067292309,0.0015435969998597449,0.999900648610129,-0.008703260994022934,0.011075147530642126,-0.0005359704169479242
1472.6499999989894,0.082547344,-0.6999376,-0.0005352875,-2.345461,-0.0030750276,1.6680628,0.84997684,0.039999697,0.03999999,-0.016805184221002634,-0.03554925013100618,0.020932729172429276,-0.02439785423297232,-0.04543917289074649,0.0016711666140141936,0.9998958843249784,-0.008909050805375846,0.01133881059221996,-0.0005298094659893769
1472.666666665656,0.08440456,-0.69803226,-0.0005482226,-2.345216,-0.003146191,1.6702517,0.8514192,0.039999694,0.03999999,-0.016381998776915374,-0.03567041075471511,0.020552570828624717,-0.02468205968681922,-0.04578309506795114,0.0018020348203577844,0.9998909528160074,-0.009117122766754084,0.011605487352412009,-0.000522697298580869
1472.6833333323227,0.08628147,-0.69610685,-0.00056129444,-2.344969,-0.0032181076,1.6724637,0.85287666,0.03999969,0.03999999,-0.017545611884184353,-0.03566590676012532,0.019419204844561833,-0.024965433308065443,-0.046123072095451204,0.0019362813332760844,0.9998858541071635,-0.00932763031328235,0.01187472994732858,-0.0005146433764084182
1472.6999999989894,0.08817791,-0.6941613,-0.00057450216,-2.3447194,-0.0032907664,1.6746986,0.8543492,0.039999686,0.03999999,-0.01692279410743236,-0.03577495402711656,0.019465524474693296,-0.025246200593231488,-0.04646252175066069,0.0020742763353106732,0.9998805828778281,-0.009540490866971073,0.012146743866834456,-0.0005055999857335177
1472.716666665656,0.09009371,-0.692196,-0.00058784446,-2.3444672,-0.0033641697,1.6769565,0.8558371,0.039999675,0.039999988,-0.01653762587372487,-0.03583198576105201,0.01900746515222096,-0.025524857684808555,-0.04679830330695302,0.0022147774653739627,0.9998751350488908,-0.009755473782659323,0.012421734951965167,-0.000495522977523645
1472.7333333323227,0.09202871,-0.6902108,-0.0006013204,-2.3442118,-0.003438294,1.679237,0.8573394,0.039999675,0.039999988,-0.016220894408669473,-0.03594299980307358,0.018762543673522813,-0.025804049735393422,-0.04713036876755414,0.0023605594064887523,0.9998695036569472,-0.009973009711708896,0.012699610401578765,-0.0004843859500841598
1472.7499999989893,0.09398269,-0.6882063,-0.00061492797,-2.3439548,-0.0035131676,1.6815399,0.8588567,0.039999668,0.039999995,-0.018137470280277235,-0.03583472377120811,0.017337881288259638,-0.026078560666252415,-0.04745771251456092,0.002505941631655583,0.9998636951407945,-0.010192669598580104,0.012979893770674353,-0.000472211342981415
1472.766666665656,0.09595551,-0.6861824,-0.00062866654,-2.3436947,-0.0035887428,1.683865,0.8603885,0.039999664,0.03999999,-0.0160097003852,-0.036037209285451344,0.017758937099077166,-0.02635290957818101,-0.04778532935225502,0.002658893528595588,0.9998576973024605,-0.01041462115631947,0.013263114850160655,-0.0004589070308948869
1472.7833333323226,0.097946964,-0.6841395,-0.0006425347,-2.3434322,-0.0036650042,1.686212,0.86193514,0.039999664,0.039999988,-0.016868387532786855,-0.035985738765892394,0.016697414438504588,-0.026625336367081337,-0.04810539173282387,0.002815712091515526,0.9998515117253395,-0.01063864077151005,0.013549032497692307,-0.0004444563696634049
1472.7999999989893,0.09995685,-0.68207777,-0.000656531,-2.3431673,-0.0037419726,1.6885808,0.86349595,0.039999664,0.039999995,-0.016888205757248365,-0.035995232798227694,0.016299515020290478,-0.02689705263790952,-0.048423445180147434,0.0029732428059345353,0.9998451324495882,-0.010864934650193137,0.013837644397200288,-0.0004288466501051511
1472.816666665656,0.101984985,-0.6799972,-0.00067065406,-2.3429008,-0.0038196326,1.690971,0.8650708,0.039999656,0.03999999,-0.018383821030676373,-0.035994385773777116,0.015377123224347145,-0.027166523459131495,-0.04873634494269691,0.0031348642456010788,0.9998385634242091,-0.011093476991171929,0.014128412438875538,-0.0004120922437709785
1472.8333333323226,0.104031175,-0.677898,-0.0006849026,-2.3426306,-0.0038979638,1.6933825,0.8666597,0.039999656,0.03999999,-0.015048485318058802,-0.03611373848186883,0.015933158933623126,-0.02743361277678437,-0.04905159654883072,0.003301436357271816,0.9998317887973688,-0.011324197591644887,0.014422252414155947,-0.00039407418271716503
1472.8499999989892,0.10609519,-0.67578053,-0.00069927535,-2.3423588,-0.0039769607,1.6958148,0.8682624,0.039999656,0.03999999,-0.018094657964384808,-0.03594356559958323,0.014133529828885827,-0.02769895478498012,-0.049355950675993174,0.003470450282927709,0.9998248180985986,-0.011557075686684263,0.014718240530116946,-0.0003748484682398491
1472.8666666656559,0.108176835,-0.6736451,-0.00071377074,-2.342085,-0.0040566246,1.6982683,0.86987895,0.039999653,0.03999999,-0.0170101593452765,-0.03601206821421399,0.014199136128478784,-0.02796214975512666,-0.049661110207503176,0.003642328295535062,0.9998176418406335,-0.011792021902654697,0.015016847968150957,-0.00035434557073943905
1472.8833333323225,0.11027592,-0.6714917,-0.00072838704,-2.3418083,-0.004136946,1.7007421,0.8715089,0.039999645,0.039999988,-0.01647239431197267,-0.03600315840060209,0.013660852494612463,-0.028223578857247245,-0.049962567647078404,0.0038175374129277087,0.9998102562421572,-0.012029146817337102,0.015317981366922548,-0.00033254575851041334
1472.8999999989892,0.11239218,-0.6693206,-0.00074312306,-2.3415296,-0.0042179287,1.7032363,0.8731522,0.03999964,0.03999999,-0.017128353161610654,-0.035903817611307454,0.013019426220117758,-0.02848246557646597,-0.050258370497843735,0.003995028274645547,0.9998026604298778,-0.01226835820724406,0.015621518270816884,-0.0003094368302441386
1472.9166666656558,0.11452541,-0.6671322,-0.00075797684,-2.3412488,-0.00429957,1.7057506,0.8748086,0.039999634,0.039999995,-0.01684476342611596,-0.03584197149300583,0.012294548866376154,-0.02873939044541622,-0.050550108910029215,0.004174743575489611,0.9997948500409948,-0.012509670769020667,0.015927484081424064,-0.0002849905109894607
1472.9333333323225,0.11667546,-0.6649265,-0.0007729472,-2.340965,-0.004381828,1.7082844,0.8764781,0.03999963,0.039999988,-0.01588227529831787,-0.03595617757027603,0.012090386145646725,-0.028994001497311336,-0.05083851031094415,0.004361501768868823,0.9997868199341298,-0.012753043764058246,0.016235990980436984,-0.000259147902150555
1472.9499999989891,0.11884201,-0.662704,-0.00078803254,-2.3406792,-0.0044647367,1.7108376,0.87816054,0.03999962,0.03999999,-0.016761996168868087,-0.035701060956541686,0.011146209327717038,-0.029245950689790634,-0.05112027006591004,0.004546514296571652,0.999778571226098,-0.012998353381312513,0.016546828659466134,-0.00023192194992756497
1472.9666666656558,0.12102487,-0.66046476,-0.0008032316,-2.3403919,-0.004548248,1.7134101,0.8798556,0.039999615,0.039999988,-0.017946072271435298,-0.03565793063128042,0.010289585540212975,-0.029496840644605338,-0.05139840270261113,0.004738401393697408,0.9997701043633425,-0.013245709375774434,0.016859664079583565,-0.00020330166607369384
1472.9833333323224,0.12322381,-0.6582089,-0.00081854203,-2.340103,-0.0046323724,1.7160017,0.88156307,0.039999615,0.039999995,-0.01765724611244579,-0.0356132685282895,0.00996429210942118,-0.029745045477769988,-0.051674079143936125,0.004931586168529423,0.9997614159821362,-0.01349506785730632,0.01717452286215071,-0.00017326678318906597
1472.999999998989,0.12543857,-0.6559369,-0.0008339622,-2.3398104,-0.0047170725,1.718612,0.8832829,0.039999615,0.03999999,-0.013991255612477715,-0.03560566767157047,0.010254123690756067,-0.029990545907781524,-0.051946737982595095,0.005130921474019183,0.9997524871503233,-0.01374635235921038,0.017492345839094408,-0.00014167076090760663
1473.0166666656557,0.12766899,-0.6536489,-0.0008494914,-2.3395162,-0.0048023574,1.7212405,0.8850149,0.03999961,0.03999999,-0.017295806349526543,-0.03546873375204207,0.008608672348375812,-0.030234033686987724,-0.05220969906234604,0.0053306163667986226,0.9997433306774095,-0.013999580531538533,0.017812150821691547,-0.00010860058167435932
1473.0333333323224,0.12991467,-0.65134513,-0.00086512667,-2.3392208,-0.0048882095,1.7238871,0.8867586,0.039999615,0.039999995,-0.018140863809534835,-0.03511789704922774,0.0077464676145666544,-0.03047514087752244,-0.052467760224150395,0.0055339035849335475,0.9997339488911796,-0.014254763328962099,0.018133606119516386,-7.406744044548514e-05
1473.049999998989,0.1321755,-0.64902574,-0.00088086753,-2.3389235,-0.004974611,1.7265515,0.88851416,0.039999615,0.03999999,-0.016815989531249187,-0.0352538812975145,0.007718601426209837,-0.030713330739795847,-0.05272748893547549,0.005741716936902437,0.9997243327330997,-0.014511819792994035,0.018457090347617663,-3.799413437419452e-05
1473.0666666656557,0.13445121,-0.6466912,-0.0008967119,-2.338623,-0.005061561,1.7292335,0.8902814,0.03999962,0.039999995,-0.014345191705111837,-0.03514648281832955,0.007698796692356957,-0.03094880420093793,-0.052982739067518866,0.0059516538957356275,0.9997144676827622,-0.01477066923770236,0.01878324881279077,-2.8025963392582855e-07
1473.0833333323224,0.13674155,-0.6443416,-0.00091265765,-2.338321,-0.0051490543,1.7319328,0.89205986,0.03999961,0.03999999,-0.01696834946292025,-0.034925263767976444,0.006392013088829529,-0.031182484791506065,-0.05322647689374174,0.006162301318397619,0.9997043635015234,-0.015031406632048666,0.019111276500760707,3.9002403997444165e-05
1473.099999998989,0.13904618,-0.64197737,-0.00092870294,-2.3380175,-0.0052370853,1.7346488,0.89384943,0.039999604,0.039999988,-0.017040433933113164,-0.03460210321668267,0.005440023049030351,-0.03141314053159512,-0.05346740596339923,0.0063758997669847925,0.9996940203086863,-0.015293952841544525,0.01944104903523972,7.986204439761944e-05
1473.1166666656557,0.14136489,-0.6395987,-0.000944846,-2.3377123,-0.0053256536,1.7373813,0.89564985,0.0399996,0.039999988,-0.01662193099700726,-0.034510981734448,0.004983944388192718,-0.031641267042782265,-0.05370509657480359,0.006592427952308003,0.9996834340002686,-0.015558325687596578,0.01977259023532411,0.00012232176943819396
1473.1333333323223,0.14369744,-0.6372059,-0.000961086,-2.3374047,-0.0054147434,1.7401303,0.8974612,0.0399996,0.03999999,-0.015162096403598113,-0.03446154892842446,0.00505720543482191,-0.031865894472090775,-0.05393936573859019,0.006811887755459239,0.9996725941139386,-0.015824377064445325,0.020106366031820266,0.00016647229601858527
1473.149999998989,0.14604357,-0.6347992,-0.0009774202,-2.3370955,-0.0055043343,1.7428954,0.899283,0.03999959,0.039999984,-0.01625496629718004,-0.03421017578464913,0.003981303281452853,-0.03208882067385235,-0.05416567432423036,0.007033289161850262,0.9996615036089079,-0.016092184454724122,0.02044198457463818,0.00021229343563117567
1473.1666666656556,0.148403,-0.6323788,-0.0009938469,-2.3367848,-0.0055944286,1.745676,0.90111524,0.03999959,0.039999988,-0.016629488871933162,-0.033964038373696104,0.0031384562193093046,-0.03230853955257637,-0.05438603329039371,0.007257057949781709,0.9996501656732222,-0.016361647083564444,0.020779203349337895,0.00025977370741623094
1473.1833333323223,0.15077554,-0.62994486,-0.0010103639,-2.3364725,-0.005685008,1.748472,0.9029573,0.039999593,0.039999995,-0.0163606550745099,-0.033870537459310124,0.0027461664080741244,-0.03252596048208145,-0.05460339462259367,0.007483428047643086,0.9996385746294906,-0.01663296018640584,0.021117985440461406,0.00030893218417126503
1473.199999998989,0.1531608,-0.6274979,-0.0010269695,-2.3361583,-0.0057760538,1.7512828,0.9048095,0.039999582,0.039999988,-0.015377447412423528,-0.033518929356751714,0.002141011869793985,-0.032739073570523164,-0.05481657026150237,0.007712335095961427,0.9996267273552993,-0.01690581886181963,0.021458559292366026,0.0003598314071029741
1473.2166666656556,0.15555851,-0.62503797,-0.0010436621,-2.3358424,-0.005867586,1.7541084,0.90667135,0.039999586,0.039999995,-0.015937278983524372,-0.03329517751784472,0.0016788039378656805,-0.03295020628627862,-0.05502513178425952,0.007943590754471683,0.9996146236038467,-0.017180273213083345,0.021800742451395638,0.00041245391460167235
1473.2333333323222,0.15796845,-0.62256557,-0.0010604389,-2.3355246,-0.005959555,1.7569485,0.9085426,0.03999957,0.039999984,-0.015025095187026771,-0.03313212931305709,0.0010811793662357516,-0.033158211313182404,-0.05522732728299795,0.008176766646381346,0.9996022547308385,-0.01745638111867166,0.022144731398500202,0.0004668688807379989
1473.2499999989889,0.16039035,-0.620081,-0.0010772997,-2.3352058,-0.0060519804,1.7598028,0.91042316,0.039999574,0.03999999,-0.016440684104912506,-0.032820654635681845,3.501459802102147e-05,-0.03336279174733302,-0.05542302017768616,0.008412100226894863,0.9995896281284643,-0.01773402155588136,0.022490136806679852,0.0005230333362146859
1473.2666666656555,0.16282378,-0.6175845,-0.0010942413,-2.3348851,-0.0061448305,1.7626706,0.9123127,0.039999567,0.039999988,-0.014826938657042099,-0.03240896602078325,-0.0002721474549716163,-0.033564979660508865,-0.05561319104208841,0.008649117098314382,0.9995767370417317,-0.018013185391804413,0.022837126723293535,0.0005809991993947634
1473.2833333323222,0.16526872,-0.6150765,-0.0011112617,-2.3345625,-0.006238115,1.7655522,0.91421115,0.03999957,0.039999995,-0.014352214667523455,-0.032521234902149754,-0.0005299001431646744,-0.03376381789076008,-0.05579895558501953,0.00888861008004125,0.9995635716989982,-0.018293861654454464,0.02318598928144427,0.0006408269266574403
1473.2999999989888,0.16772467,-0.61255705,-0.0011283599,-2.334239,-0.006331786,1.7684463,0.9161182,0.039999552,0.03999998,-0.016255749350602144,-0.03180389502784875,-0.002159953270641779,-0.03395926526712928,-0.055975009852854474,0.009128992174503671,0.9995501516190087,-0.018575982415701242,0.023535800086964823,0.0007024172368631415
1473.3166666656555,0.1701914,-0.6100266,-0.0011455322,-2.333914,-0.006425876,1.7713537,0.9180337,0.039999556,0.039999988,-0.014809645276114836,-0.03172290513882847,-0.0018123866377672826,-0.03415238595752322,-0.056149916760118435,0.009371946930900928,0.9995364582474038,-0.01885950164394839,0.023887261618982726,0.0007658748751824781
1473.3333333323221,0.1726687,-0.60748535,-0.0011627779,-2.333588,-0.0065203607,1.7742733,0.91995734,0.039999556,0.03999999,-0.015368020988981712,-0.031376970005314586,-0.0030625163191411175,-0.03434241529203089,-0.056314819726664286,0.009615756275093031,0.9995225002837005,-0.019144478313248926,0.024239834456580435,0.0008311451444018563
1473.3499999989888,0.17515615,-0.6049337,-0.001180094,-2.3332598,-0.0066152117,1.7772045,0.9218888,0.039999552,0.03999999,-0.013870438813312624,-0.03099596274297456,-0.0032887701070460906,-0.034528696470780884,-0.05647782118032259,0.009861872336078208,0.9995082693370217,-0.01943083640288937,0.024593803782673302,0.0008982978877741424
1473.3666666656554,0.17765357,-0.6023717,-0.0011974799,-2.3329308,-0.0067104246,1.7801472,0.923828,0.03999955,0.03999999,-0.015554542035989272,-0.030712684486972064,-0.004342896269604601,-0.03471172075175105,-0.056632941922679425,0.010109029024179088,0.9994937759115082,-0.019718571931819306,0.024948631810397144,0.0009672672406410129
1473.383333332322,0.18016058,-0.5997999,-0.0012149322,-2.3326006,-0.006805985,1.7831011,0.9257747,0.03999954,0.039999988,-0.014645256322665112,-0.030294764518790096,-0.004749226988876032,-0.03489135423466705,-0.05678616778491123,0.010358061545482581,0.9994790136327871,-0.020007588828293656,0.025304545650500016,0.001038107090196733
1473.3999999989887,0.18267693,-0.5972185,-0.00123245,-2.332269,-0.0069018905,1.7860663,0.9277286,0.03999953,0.03999998,-0.013847833001889853,-0.03006170789678908,-0.004833866127174069,-0.03506761223212905,-0.05693400646244827,0.010608772088776645,0.9994639713100564,-0.02029790340104849,0.02566186103720496,0.0011108819738289864
1473.4166666656554,0.18520233,-0.5946279,-0.0012500302,-2.3319364,-0.00699814,1.789043,0.92968947,0.039999533,0.039999984,-0.014309509520704644,-0.029743343899074626,-0.005379412478467849,-0.035240901556013685,-0.0570732914838243,0.010861302464387858,0.9994486470661376,-0.020589504627570275,0.026020540489028056,0.0011856009097567172
1473.433333332322,0.18773639,-0.59202844,-0.0012676712,-2.331603,-0.0070947018,1.7920293,0.9316572,0.039999526,0.039999984,-0.014942290515107537,-0.029012315375709363,-0.007127172660648107,-0.03541011473330552,-0.05720436689669514,0.011112231885336134,0.9994330629996163,-0.02088224834770152,0.026379750899117017,0.0012621527840669063
1473.4499999989887,0.1902789,-0.5894203,-0.00128537,-2.3312678,-0.00719158,1.7950252,0.93363136,0.039999526,0.039999984,-0.01257244090255849,-0.028940374113012313,-0.0066417212713609786,-0.0355764111657145,-0.05733291141480806,0.01136707054674543,0.9994171960376361,-0.02117623929165345,0.026740190422203127,0.001340660253812885
1473.4666666656553,0.19282953,-0.586804,-0.001303126,-2.3309312,-0.0072887354,1.7980309,0.93561184,0.03999952,0.03999998,-0.01290128562940751,-0.028508925566272936,-0.0072939473111377495,-0.035739041529689236,-0.05745485539923721,0.011621768101866901,0.9994010466168156,-0.02147137165088179,0.027101818299964685,0.0014211493513627772
1473.483333332322,0.19538794,-0.5841795,-0.0013209367,-2.3305936,-0.0073861806,1.801046,0.93759835,0.039999515,0.03999998,-0.01368215193982003,-0.028024930380393664,-0.007891561834805216,-0.03589773936866711,-0.05756700940353651,0.011876512156775213,0.9993846190312395,-0.021767627758817003,0.027464392717975152,0.001503581780546222
1473.4999999989886,0.1979539,-0.5815473,-0.0013387989,-2.3302555,-0.0074839084,1.80407,0.9395908,0.039999522,0.03999999,-0.014343631490754127,-0.027579160018520454,-0.009045292018394768,-0.03605335544644252,-0.05767289127211275,0.012131876215852305,0.9993679244552203,-0.022064920124586294,0.027827494430514414,0.0015878991405648625
1473.5166666656553,0.20052703,-0.5789079,-0.0013567114,-2.3299162,-0.0075818747,1.8071023,0.9415888,0.039999507,0.03999998,-0.012556012826858698,-0.027155287284158502,-0.00927790102025483,-0.03620558086128006,-0.057775641676723485,0.012388364242244449,0.9993509497662473,-0.02236327278591929,0.028191493578428227,0.001674192766517853
1473.533333332322,0.203107,-0.57626134,-0.001374672,-2.3295763,-0.007680106,1.8101425,0.94359213,0.03999951,0.039999984,-0.013540002979217647,-0.02658328922683917,-0.010086908386752746,-0.03635406164267144,-0.0578696287216974,0.012645950661670534,0.9993337064428232,-0.022662639061672565,0.028555944877866713,0.00176237627712344
1473.5499999989886,0.20569351,-0.57360804,-0.0013926782,-2.3292358,-0.0077785663,1.8131905,0.9456006,0.03999951,0.039999988,-0.013472159557337271,-0.026155743107780793,-0.01065115488987356,-0.036499175684689564,-0.05796110075575177,0.01290345517338256,0.9993161940627252,-0.022962928050473872,0.02892086696077856,0.0018524776855610187
1473.5666666656552,0.20828633,-0.5709485,-0.001410728,-2.3288941,-0.007877255,1.8162459,0.9476139,0.03999951,0.03999999,-0.011666833108203711,-0.02588895932406632,-0.010686821125038826,-0.036640878855212666,-0.05804781788441837,0.01316169304920698,0.9992983950006116,-0.023264228166884168,0.029286720890869138,0.001944586449899063
1473.583333332322,0.2108851,-0.56828266,-0.0014288193,-2.3285518,-0.007976146,1.8193086,0.94963175,0.039999504,0.039999988,-0.01264123771580472,-0.025344218900696935,-0.011287555557837337,-0.03677838664415231,-0.05812585113831695,0.01341964711713501,0.9992803196806548,-0.023566450292934145,0.029653144975111696,0.002038654606380693
1473.5999999989886,0.2134895,-0.5656112,-0.0014469498,-2.3282084,-0.00807524,1.822378,0.95165396,0.03999951,0.039999995,-0.011633283931367089,-0.024850357377770305,-0.011913917075490055,-0.03691186092563957,-0.05819709478438141,0.013678531897781798,0.9992619634594299,-0.023869564030855477,0.030020248454006075,0.002134708163113815
1473.6166666656552,0.21609922,-0.5629341,-0.001465117,-2.327864,-0.008174503,1.8254535,0.9536803,0.039999504,0.03999999,-0.011378779381132631,-0.024354802138526477,-0.012297507403191688,-0.03704161465555132,-0.05826038533589285,0.013936070535763043,0.9992433303195039,-0.024173514256725818,0.030387874319160412,0.0022327370713538393
1473.6333333323219,0.21871385,-0.56025225,-0.0014833189,-2.327519,-0.008273942,1.828535,0.95571053,0.039999496,0.039999988,-0.011542326418045867,-0.023626986734281985,-0.013287161493469313,-0.037167458574441564,-0.05831713434922137,0.0141934886921686,0.9992244210438459,-0.02447819909432644,0.03075601534807607,0.0023327405767758222
1473.6499999989885,0.22133319,-0.5575653,-0.001501554,-2.3271735,-0.008373557,1.8316219,0.9577444,0.0399995,0.03999999,-0.012255167794372746,-0.023297176241765527,-0.013600951696091101,-0.03728986103593675,-0.05836606098012448,0.01445111135118611,0.9992052458127749,-0.024783664759655356,0.03112425466572282,0.002434640182106593
1473.6666666656552,0.22395687,-0.5548739,-0.0015198196,-2.3268278,-0.008473317,1.8347138,0.95978165,0.0399995,0.039999995,-0.011863722915061992,-0.022616158380811546,-0.0144657589988606,-0.03740839462013984,-0.05841176226429573,0.014708182941242143,0.9991858044905172,-0.025089871234063737,0.031492582577408196,0.0025384461194249788
1473.6833333323218,0.22658455,-0.5521784,-0.0015381131,-2.3264818,-0.0085732,1.8378104,0.961822,0.03999949,0.039999988,-0.011594443959928036,-0.02207707432626549,-0.014915505444346167,-0.03752309599343062,-0.058452100595204226,0.014964774514161401,0.9991660981019904,-0.02539677166654408,0.031860960473677646,0.0026441615412112957
1473.6999999989885,0.22921596,-0.54947907,-0.0015564332,-2.3261354,-0.00867321,1.8409113,0.96386516,0.039999485,0.039999984,-0.01089749862848155,-0.02161075146758784,-0.015199836281620804,-0.0376337955289007,-0.05848886778656198,0.015222557276092005,0.999146123257067,-0.025704343772700283,0.032229469291490814,0.0027517995526239788
1473.716666665655,0.23185083,-0.5467764,-0.0015747771,-2.3257885,-0.008773347,1.8440164,0.96591103,0.03999948,0.039999984,-0.010232447862823513,-0.021170521661578734,-0.015465772592593297,-0.03774028564129457,-0.05851985842454631,0.015478704591811877,0.9991258721887256,-0.026012543547863,0.032598335016148144,0.0028614079513300224
1473.7333333323218,0.23448873,-0.54407054,-0.001593142,-2.325441,-0.008873587,1.8471249,0.9679592,0.03999949,0.03999999,-0.010001067168818878,-0.02042088540081255,-0.0160341840347078,-0.037842975978569726,-0.058541969732935975,0.015734474537584447,0.9991053544306551,-0.026321330020234953,0.03296725664400741,0.002972931773379646
1473.7499999989884,0.23712936,-0.5413619,-0.0016115267,-2.3250933,-0.008973917,1.8502367,0.97000957,0.03999949,0.039999995,-0.010643585874459127,-0.019809364694389764,-0.016862644361048673,-0.03794144076966113,-0.05855859590078341,0.015988671913719037,0.9990845763099765,-0.026630651524935635,0.03333605111677547,0.003086336794927921
1473.766666665655,0.23977241,-0.5386509,-0.0016299279,-2.3247454,-0.009074288,1.8533514,0.97206175,0.039999478,0.039999984,-0.009886689668747728,-0.019307017418662697,-0.01701962012883307,-0.038035810493210837,-0.058569937631809385,0.016243001095549135,0.999063532708757,-0.02694048697289415,0.03370485240124655,0.0032016710904885603
1473.7833333323217,0.24241756,-0.5359376,-0.0016483439,-2.3243966,-0.009174743,1.8564688,0.97411555,0.039999474,0.039999984,-0.008362605811029766,-0.018851263800367946,-0.016794361174943262,-0.038126092763818745,-0.058574604532989724,0.016495116542734962,0.9990422113948184,-0.027250802238491252,0.0340740071465506,0.003318985641198783
1473.7999999989884,0.24506444,-0.5332226,-0.0016667718,-2.3240476,-0.00927527,1.8595879,0.9761707,0.03999949,0.04,-0.009340909102406592,-0.017922612259602122,-0.018234988417442644,-0.03821224950737656,-0.05856978396689462,0.016746348895690627,0.9990206355071145,-0.02756152965904357,0.03444286730394561,0.003438139860115406
1473.816666665655,0.24771282,-0.5305061,-0.0016852102,-2.3236985,-0.009375798,1.862709,0.978227,0.03999947,0.039999984,-0.009376529776217168,-0.017591645904080355,-0.01827542293537654,-0.0382944514115196,-0.05855854860632491,0.016996254163257125,0.9989987995203902,-0.027872669250961008,0.034811564205577857,0.0035591941794035856
1473.8333333323217,0.25036234,-0.5277886,-0.0017036569,-2.323349,-0.0094763795,1.8658313,0.9802842,0.03999948,0.039999995,-0.00800524397250868,-0.01682026101201828,-0.018802474502166433,-0.03837227894630239,-0.05854320918738522,0.017243858430406336,0.9989767023791386,-0.028184157120748985,0.03518015531123703,0.0036821275605422466
1473.8499999989883,0.25301263,-0.5250702,-0.0017221094,-2.3229995,-0.009576954,1.8689543,0.98234195,0.03999948,0.04,-0.00885153898417812,-0.0161415965844125,-0.019317341880897843,-0.03844596468570213,-0.05851849745592745,0.017490391355725624,0.9989543553573503,-0.028495987285261058,0.035548308554187835,0.0038068858868135005
1473.866666665655,0.25566337,-0.52235126,-0.0017405654,-2.32265,-0.009677528,1.872078,0.9844001,0.039999474,0.03999999,-0.008408760117206704,-0.015511804852996747,-0.019596712558089813,-0.03851466302217127,-0.05849032990735681,0.017735957430162413,0.998931759006395,-0.028808055978503482,0.03591607674132239,0.003933470559251471
1473.8833333323216,0.25831428,-0.51963234,-0.0017590229,-2.3223,-0.009778084,1.8752017,0.9864583,0.039999478,0.03999999,-0.006935127015261777,-0.01500372454901755,-0.019778469075926175,-0.03857990958069259,-0.05845583309381169,0.017980470318234784,0.9989089022357129,-0.029120402337622045,0.03628371332084177,0.004061939141462673
1473.8999999989883,0.26096508,-0.51691353,-0.0017774798,-2.3219504,-0.009878616,1.8783251,0.9885164,0.039999485,0.04,-0.008623569696530886,-0.014210543887316351,-0.020816028846626367,-0.038640757878584495,-0.058412332065189615,0.018221369844888827,0.9988858101981312,-0.0294329684803422,0.03665057352213454,0.004192136896260956
1473.916666665655,0.26361528,-0.51419514,-0.0017959333,-2.321601,-0.009979103,1.881448,0.9905741,0.039999485,0.039999995,-0.007362331382543275,-0.013481050116526117,-0.02056329275976765,-0.03869707915054224,-0.05836706583260469,0.018462422210728514,0.9988624746771484,-0.02974563080403459,0.03701696924173432,0.0043241320596875904
1473.9333333323216,0.26626468,-0.5114778,-0.0018143817,-2.3212519,-0.010079552,1.8845701,0.99263126,0.03999948,0.039999995,-0.007355092319394352,-0.012848958753025608,-0.021385579752464245,-0.03874905660810274,-0.05831390393576433,0.018698769807252862,0.9988388984870509,-0.030058404656742713,0.03738280877800703,0.0044578903680338455
1473.9499999989882,0.2689129,-0.5087619,-0.001832822,-2.3209026,-0.0101799425,1.8876909,0.9946873,0.039999485,0.04,-0.005789354577934169,-0.012260462498547842,-0.021224849782330857,-0.038797017250693996,-0.05825570785864785,0.018934265766241028,0.9988150699514673,-0.030371343271936583,0.03774834583627714,0.004593466265099974
1473.9666666656549,0.2715596,-0.5060472,-0.0018512525,-2.3205535,-0.010280251,1.8908098,0.9967422,0.03999949,0.04,-0.007015994691617067,-0.011405012337839526,-0.021843780026986614,-0.03884009545346748,-0.058188145940830965,0.019167560097166123,0.9987910157263613,-0.030684310516281916,0.03811299393494735,0.004730717256259997
1473.9833333323215,0.27420452,-0.5033344,-0.0018696713,-2.3202047,-0.010380462,1.8939265,0.9987958,0.03999949,0.039999995,-0.006100565952604775,-0.010881044919336391,-0.022206910069821895,-0.03887896238609627,-0.058117124871767,0.019399227663208056,0.9987667307299292,-0.030997227711022098,0.0384769487546898,0.004869689498242886
1473.9999999989882,0.27684742,-0.5006239,-0.001888075,-2.319856,-0.010480591,1.897041,1.0008477,0.03999949,0.039999995,-0.005153111342437455,-0.010354218716673858,-0.022164712920647034,-0.03891346989909879,-0.05804037182498924,0.01962710950931537,0.9987422026860369,-0.03131019967191572,0.03884043919645792,0.005010414491279362
1474.0166666656548,0.27948776,-0.49791577,-0.0019064625,-2.3195078,-0.0105805965,1.9001521,1.0028977,0.03999949,0.03999999,-0.006576086230958289,-0.009095461715991071,-0.02330325606580974,-0.03894330344416114,-0.05795417966833721,0.019852636052340764,0.9987174706341659,-0.03162301185358012,0.03920266199985474,0.005152694783041644
1474.0333333323215,0.28212526,-0.4952105,-0.0019248313,-2.3191607,-0.010680496,1.9032599,1.0049454,0.03999949,0.039999995,-0.0063410742053182645,-0.008465220438275134,-0.023533436644407324,-0.03896867865335056,-0.05786762620115439,0.020074447474623745,0.9986925277195525,-0.03193580033349112,0.03956370329238952,0.005296519232669528
1474.0499999989881,0.28475976,-0.4925085,-0.0019431787,-2.3188136,-0.010780268,1.906364,1.0069909,0.039999496,0.04,-0.004058597413147957,-0.008163345760570095,-0.023163030377348903,-0.03898880984679545,-0.05777624249252626,0.020295242901705667,0.9986673609344241,-0.032248348848727744,0.03992406086745512,0.005442018435754782
1474.0666666656548,0.28739083,-0.48981,-0.0019615027,-2.318467,-0.010879885,1.9094641,1.0090336,0.0399995,0.04,-0.004643990676411747,-0.007260116786905746,-0.023585032454631616,-0.039005996915773,-0.05767865882453915,0.02051357669277431,0.9986419763265648,-0.03256080227356098,0.040283483970654406,0.005589113799242235
1474.0833333323214,0.29001817,-0.48711544,-0.0019798013,-2.3181212,-0.010979338,1.91256,1.0110732,0.039999496,0.039999995,-0.004865237320017535,-0.0064562154002467675,-0.024221310245486904,-0.039016732722820066,-0.057575011881730906,0.020729062717715636,0.9986163848394232,-0.03287306912893779,0.0406417950530456,0.005737747916353675
1474.099999998988,0.29264146,-0.48442504,-0.0019980727,-2.3177757,-0.011078616,1.9156511,1.0131098,0.0399995,0.039999995,-0.003447241716680871,-0.005871174001470525,-0.023915523939210814,-0.039023146730607194,-0.05746596469838182,0.020941403287195903,0.9985905824595737,-0.033185039471916054,0.04099919165849395,0.005887959039171909
1474.1166666656547,0.29526046,-0.4817391,-0.0020163131,-2.3174305,-0.0111777,1.918737,1.0151429,0.0399995,0.03999999,-0.003034503165344482,-0.005274909585928356,-0.024145328789959564,-0.03902494736160132,-0.05735054192538125,0.021150457491512897,0.998564568769385,-0.03349676845594649,0.041355654390544665,0.006039731066084107
1474.1333333323214,0.2978747,-0.47905806,-0.0020345217,-2.3170853,-0.0112766065,1.9218174,1.0171725,0.039999504,0.039999995,-0.002099602265848155,-0.004321148269004205,-0.024183380899223117,-0.03902122092676408,-0.05722911612204523,0.02135480578197401,0.9985383468245916,-0.03380807577569577,0.041711268981494534,0.006193058461685025
1474.149999998988,0.30048388,-0.47638217,-0.0020526957,-2.3167405,-0.0113753015,1.9248918,1.0191982,0.03999951,0.04,-0.0026237685919916487,-0.003573802933087844,-0.02471996725716963,-0.03901368263357008,-0.05709737911245985,0.02155546576924699,0.9985119301671488,-0.034118941253419396,0.04206575562551831,0.006347863047894482
1474.1666666656547,0.3030877,-0.47371185,-0.0020708337,-2.316397,-0.011473775,1.9279597,1.0212197,0.039999515,0.04,-0.00343416209309666,-0.0025909972124815717,-0.025614105466242876,-0.039001658328612784,-0.05696117630499535,0.021752862979849054,0.9984853385934839,-0.03442937746418431,0.04241868087929777,0.006504005976695841
1474.1833333323214,0.30568582,-0.47104734,-0.0020889328,-2.316054,-0.011572026,1.9310212,1.0232368,0.03999952,0.04,-0.00206483891485032,-0.0020329798971763235,-0.024945182697466706,-0.03898558246791754,-0.05682153902163213,0.021946014542986697,0.9984585533056032,-0.034739381745354805,0.042770503464871636,0.006661585411444255
1474.199999998988,0.30827802,-0.46838897,-0.0021069914,-2.315712,-0.011670021,1.934076,1.0252492,0.03999952,0.039999995,-0.0016796264433294184,-0.0014762983190919066,-0.025232056248780665,-0.03896412363462047,-0.056674775874233085,0.02213718008833318,0.9984315821218633,-0.03504885677115212,0.043121144920312306,0.00682058072525643
1474.2166666656547,0.31086394,-0.46573704,-0.0021250064,-2.315371,-0.011767767,1.9371232,1.0272568,0.039999515,0.03999999,-0.0022820664767886356,-0.00042194389372474106,-0.025927162955974303,-0.038937596964503815,-0.0565212620297057,0.022321754038934452,0.9984044463842926,-0.035357787538864524,0.04347017577157379,0.0069808394064864105
1474.2333333323213,0.31344315,-0.4630919,-0.0021429753,-2.3150315,-0.011865256,1.9401624,1.0292592,0.03999952,0.03999999,-0.0022724997609691044,0.0005759498481139325,-0.02627382526843025,-0.03890704476304932,-0.05636531468401304,0.022504365872322928,0.9983771569407133,-0.03566614125193598,0.043817424108488844,0.007142283365444031
1474.249999998988,0.31601563,-0.4604539,-0.0021608972,-2.3146927,-0.011962478,1.9431934,1.0312563,0.039999522,0.039999995,-0.0005059309255539546,0.0007141194164006492,-0.025880179995452224,-0.038870831667180014,-0.05620750259533493,0.022683110940125366,0.9983496987073386,-0.035973895632576365,0.04416327376762917,0.007305010205888812
1474.2666666656546,0.31858093,-0.45782334,-0.0021787698,-2.314355,-0.012059407,1.9462162,1.0332476,0.039999526,0.039999995,-0.00035321543709887493,0.0016393904784695046,-0.025859820894647,-0.03883028656361362,-0.05604400545119306,0.022858663738689965,0.9983220687952177,-0.03628111981752245,0.04450776609166948,0.007469006543891076
1474.2833333323213,0.3211385,-0.4552005,-0.0021965909,-2.3140173,-0.012156021,1.9492294,1.0352331,0.039999533,0.039999995,0.0008723574824509583,0.0027823934165671638,-0.02598852118786965,-0.03878348479473237,-0.05587310040003729,0.023030421056396598,0.9982942912188173,-0.03658747521533091,0.04485068397697176,0.00763419439657225
1474.299999998988,0.32368827,-0.4525857,-0.002214358,-2.3136804,-0.012252326,1.9522331,1.0372125,0.039999537,0.039999995,0.0006946147705022554,0.0032100192044470788,-0.026130424499770655,-0.03873332993163425,-0.05569744636095274,0.023196795639149052,0.9982663587349517,-0.03689315647339833,0.045192071999351546,0.00780055458896553
1474.3166666656546,0.32622993,-0.44997928,-0.0022320696,-2.3133447,-0.012348332,1.9552283,1.0391855,0.039999545,0.04,0.0007952858032123089,0.0037863664350878956,-0.025686001950808723,-0.03867716684316058,-0.055517505624296457,0.02335722354195812,0.998238257848005,-0.0371980767784535,0.045532316724980544,0.007968173330200076
1474.3333333323212,0.3287631,-0.4473816,-0.0022497228,-2.3130102,-0.0124439765,1.9582129,1.0411519,0.03999954,0.03999999,0.0005658526931018315,0.0050875556759422125,-0.027008487559032623,-0.03861621906804574,-0.05532745257299729,0.02351575421612795,0.9982100354683837,-0.03750220440119626,0.04587049910894011,0.008136772502394826
1474.3499999989879,0.33128756,-0.4447929,-0.0022673162,-2.3126776,-0.012539304,1.961186,1.0431114,0.03999954,0.039999995,-0.00044458945844816355,0.0059868212322622405,-0.02779572348048376,-0.03855043347371387,-0.05513582732951672,0.023666377628600625,0.9981817197253288,-0.03780550137883905,0.046206128283509035,0.008306153184712218
1474.3666666656545,0.33380303,-0.44221354,-0.0022848463,-2.3123465,-0.012634264,1.9641504,1.045064,0.039999545,0.03999999,0.0019721865428756757,0.005920946245496772,-0.02554797625473615,-0.038479410327104224,-0.05494760610573761,0.02381869949576758,0.9981532374531282,-0.038107930383376176,0.04654078123194425,0.008476785124967856
1474.3833333323212,0.336309,-0.4396438,-0.002302313,-2.3120155,-0.012728855,1.9671037,1.0470093,0.039999552,0.039999995,0.0037949666445324937,0.007121930603359861,-0.02579791328840564,-0.03840257708784367,-0.05474631006453699,0.02396250057085717,0.9981246162479536,-0.038409284907095484,0.04687408977289116,0.008648524773854608
1474.3999999989878,0.3388054,-0.4370839,-0.0023197138,-2.311686,-0.012823081,1.9700453,1.0489473,0.039999556,0.04,0.0018429029330579993,0.007858705397634225,-0.027014575832717824,-0.03832230866599545,-0.05453719765462965,0.024099378504379175,0.9980958915734265,-0.0387096714541558,0.04720530153893707,0.00882111482616278
1474.4166666656545,0.34129184,-0.43453434,-0.0023370453,-2.3113577,-0.012916896,1.9729748,1.0508773,0.039999567,0.04,0.00297599629699441,0.008810442525242212,-0.02689623422000853,-0.03823802254640293,-0.0543259050182059,0.02423524492771298,0.9980670573175676,-0.039009151823160386,0.04753454436841235,0.008994568537528442
1474.4333333323211,0.34376803,-0.43199527,-0.0023543062,-2.3110309,-0.013010297,1.9758916,1.0527995,0.03999957,0.039999995,0.002690684250006292,0.009618765295960063,-0.02712154272646039,-0.038146873512035856,-0.05411026336266046,0.024365460164129424,0.9980381373750198,-0.03930752953434478,0.047861550132981295,0.009168777768909415
1474.4499999989878,0.3462337,-0.42946705,-0.0023714944,-2.3107057,-0.013103317,1.9787962,1.0547134,0.039999574,0.04,0.003107592502127332,0.010235612754172507,-0.026758436155449594,-0.03805130850809681,-0.05389561695594629,0.024489305884244833,0.9980091180777249,-0.039604853591530396,0.048186611811364494,0.009343781239749502
1474.4666666656544,0.34868854,-0.42694992,-0.0023886086,-2.3103826,-0.013195906,1.9816885,1.056619,0.039999582,0.04,0.002632816872916166,0.011088852585861009,-0.02702210706355679,-0.03795048174697581,-0.05367381818462533,0.024610682034751898,0.9979800201403639,-0.039900965458389656,0.04850949875402027,0.009519500341988427
1474.483333332321,0.3511322,-0.42444438,-0.0024056463,-2.3100603,-0.013288045,1.984567,1.058516,0.03999958,0.03999999,0.005595336320873834,0.011792907659002871,-0.026497711263573365,-0.037846041831078106,-0.05345086030320348,0.024727733955159766,0.9979508292494914,-0.04019590903345964,0.048830513120486835,0.009695993276409524
1474.4999999989877,0.3535646,-0.42195034,-0.002422606,-2.309739,-0.013379778,1.9874325,1.0604041,0.039999586,0.04,0.004926252356640681,0.012182713164077263,-0.026166662274951236,-0.03773565385836182,-0.05322315893384684,0.02483661822187292,0.9979215443169756,-0.04048975260328539,0.04914967859587995,0.009873217108371258
1474.5166666656544,0.35598525,-0.4194684,-0.0024394852,-2.3094199,-0.013471056,1.9902842,1.062283,0.03999959,0.04,0.004462019764273073,0.013415358039547964,-0.02686965840705824,-0.03761997630103667,-0.05298801218259587,0.02494249866707097,0.9978921923587573,-0.040782337222160334,0.049466653786945,0.010051047868435295
1474.533333332321,0.3583939,-0.4169988,-0.002456282,-2.3091023,-0.013561877,1.9931217,1.0641525,0.039999593,0.04,0.005187570533538022,0.014152799445588116,-0.026667242242428557,-0.03749930602158824,-0.05275008468128868,0.025041560391942705,0.9978627728724846,-0.04107374665733063,0.04978144580713534,0.010229443001300088
1474.5499999989877,0.36079034,-0.4145418,-0.0024729946,-2.3087862,-0.013652228,1.9959446,1.0660129,0.039999597,0.04,0.005962386187774449,0.014749682200410064,-0.02651418983168341,-0.03737306278801246,-0.05251074395500997,0.02513740272082428,0.9978333024875194,-0.04136363124101261,0.0500940690145355,0.010408395984740013
1474.5666666656543,0.36317426,-0.41209763,-0.0024896204,-2.308472,-0.013742073,1.9987527,1.0678635,0.039999597,0.039999995,0.005497904982276758,0.015590128596187913,-0.02663467620815929,-0.03724402121393204,-0.05226439715846409,0.025228888194557778,0.9978037859485074,-0.0416521922697718,0.05040434371305281,0.010587811898770326
1474.583333332321,0.36554548,-0.40966672,-0.002506158,-2.3081589,-0.013831452,2.0015457,1.0697036,0.0399996,0.04,0.007468135211641247,0.016012394748332603,-0.02605246138620565,-0.03710881118188056,-0.05201775020590679,0.025312049439725114,0.9977741943521715,-0.041939696061229305,0.050712665733669865,0.010767753403175283
1474.5999999989876,0.36790356,-0.40724918,-0.0025226064,-2.307848,-0.013920349,2.0043237,1.071534,0.0399996,0.04,0.006147420367152989,0.01713644387471014,-0.026197399663385745,-0.036966727078560926,-0.05176498253834631,0.025390327002096688,0.9977445727712283,-0.04222550279551193,0.05101875238558687,0.01094811966702096
1474.6166666656543,0.37024832,-0.40484527,-0.0025389637,-2.307539,-0.014008717,2.0070858,1.073354,0.039999597,0.039999988,0.006646918733221874,0.017826014383404143,-0.026419650296483077,-0.036821522764795875,-0.051508212251836216,0.02546523788215036,0.9977149269469089,-0.04250992402156187,0.051322325131496586,0.011128784754061198
1474.633333332321,0.37257937,-0.4024554,-0.0025552267,-2.3072317,-0.0140966065,2.009832,1.0751634,0.039999604,0.04,0.007859366233620158,0.018617894841910232,-0.02583311949055922,-0.03667073790102164,-0.05124991285530511,0.025530969160545022,0.9976852483485088,-0.04279283134207035,0.05162370987216695,0.011309791887469809
1474.6499999989876,0.37489662,-0.4000797,-0.002571393,-2.3069258,-0.014183935,2.0125613,1.076962,0.039999604,0.03999999,0.00835698722883027,0.01904813586312004,-0.025834048949668897,-0.03651599608671821,-0.05098696527680345,0.025596592441441524,0.9976555492317967,-0.043074218757513036,0.051922745892134095,0.011491093266225114
1474.6666666656542,0.3771998,-0.3977186,-0.0025874632,-2.3066218,-0.014270736,2.0152743,1.0787494,0.039999608,0.039999995,0.008382788671612573,0.019816446700871015,-0.025732232959629897,-0.0363554861568251,-0.050720752226556476,0.0256534446396638,0.9976258233089651,-0.04335419432769311,0.05221953201426051,0.011672659402122573
1474.683333332321,0.37948868,-0.3953723,-0.0026034347,-2.3063204,-0.014357008,2.01797,1.0805256,0.03999962,0.04,0.007218454611446212,0.0208272146514088,-0.026412717389434626,-0.036189253555503745,-0.050450681329050354,0.025704724623649394,0.9975961123959173,-0.04363263801810678,0.0525134849778315,0.011854253566388157
1474.6999999989876,0.3817629,-0.393041,-0.0026193056,-2.3060203,-0.01444269,2.0206487,1.0822906,0.039999627,0.04,0.010289104162275464,0.021109982584577303,-0.02480078300806099,-0.036017667694684896,-0.05018049740992879,0.02575510031000819,0.9975663842675097,-0.043909349716612,0.052805391250056316,0.012036138992209719
1474.7166666656542,0.3840222,-0.39072508,-0.002635074,-2.3057222,-0.014527769,2.0233095,1.0840441,0.039999627,0.03999999,0.008941378101923192,0.02221009603511348,-0.02570112858115703,-0.035842442904642655,-0.049903689516939284,0.025798215618876505,0.9975366758821346,-0.04418438574123939,0.053094626692904906,0.012218058071213815
1474.7333333323209,0.38626638,-0.38842458,-0.0026507382,-2.3054261,-0.01461232,2.0259528,1.0857856,0.03999963,0.04,0.009818266593741853,0.02261809073923482,-0.024753693243573238,-0.03566116950551415,-0.04962655073263414,0.025831499431834812,0.9975069656035045,-0.04445781703863397,0.05338159182219431,0.012400069805319764
1474.7499999989875,0.38849515,-0.38613993,-0.0026662955,-2.3051324,-0.014696278,2.028578,1.0875152,0.039999627,0.039999995,0.009476063798441459,0.02359422533328992,-0.025264995358420528,-0.035475341958406445,-0.049345019060071646,0.02586214142540188,0.9974772847479186,-0.044729494254649546,0.05366592080409963,0.012582038781183358
1474.7666666656542,0.3907083,-0.38387138,-0.0026817457,-2.3048406,-0.014779664,2.0311847,1.0892324,0.039999634,0.04,0.010650691936198164,0.02412476586579615,-0.02479232293242095,-0.03528451508071166,-0.04906077898080141,0.025886110130938333,0.9974476244505945,-0.04499954796146952,0.053947741113948525,0.012763948833776902
1474.7833333323208,0.39290553,-0.38161916,-0.0026970864,-2.3045502,-0.014862448,2.0337725,1.0909375,0.039999638,0.04,0.011920448794855432,0.02469230383561616,-0.02411142954135137,-0.035088212093427745,-0.04877482709169574,0.025906190458303932,0.997417987672794,-0.04526769878487242,0.054227280166196344,0.012945864175604583
1474.7999999989875,0.39508682,-0.37938344,-0.0027123175,-2.3042617,-0.014944574,2.0363417,1.0926301,0.039999634,0.039999984,0.011568183326460257,0.025023922421107958,-0.02406773662526618,-0.03488800509041026,-0.048482422645658454,0.02592277698468449,0.997388375474931,-0.04553403824906992,0.05450450948825421,0.013127767276092987
1474.816666665654,0.39725158,-0.37716457,-0.0027274352,-2.3039765,-0.015026131,2.0388913,1.0943099,0.03999964,0.04,0.009275828290866706,0.026967379589803997,-0.025251036686002593,-0.03468213556560512,-0.048186106462188946,0.0259248246295902,0.9973588504023999,-0.04579852673752602,0.054778493721406835,0.013309211031812781
1474.8333333323208,0.3993998,-0.37496278,-0.0027424383,-2.303693,-0.015107052,2.0414214,1.0959772,0.039999645,0.04,0.012785799538916898,0.026583283191816687,-0.023591234793673976,-0.03447249687032804,-0.0478936971513647,0.02592985383415789,0.9973293725532891,-0.04606096085866772,0.055050123832795096,0.013490529761017606
1474.8499999989874,0.40153128,-0.37277812,-0.0027573246,-2.3034115,-0.015187335,2.0439312,1.097631,0.03999965,0.04,0.01228719335557571,0.027336974758773724,-0.023821310251559424,-0.03425990275406404,-0.04759548616424707,0.025926670625448234,0.9972999530322321,-0.04632172347948713,0.055318996640627324,0.013671511491860931
1474.866666665654,0.40364566,-0.37061095,-0.002772095,-2.3031325,-0.0152669465,2.0464213,1.0992717,0.039999656,0.039999995,0.011900919576013358,0.0282666045929858,-0.023620957422032518,-0.03404014535797223,-0.047296370616764005,0.025920878422124746,0.9972706098819311,-0.046580435560970745,0.055585171175870085,0.01385216351407053
1474.8833333323207,0.4057429,-0.3684615,-0.0027867465,-2.3028562,-0.01534594,2.0488908,1.1008991,0.039999656,0.04,0.012079438365164563,0.028753766275679826,-0.02376276908124808,-0.03381654293477461,-0.04699543868780261,0.02590528542047539,0.9972413588776939,-0.04683714829439053,0.055848429793822,0.014032340253291552
1474.8999999989874,0.40782264,-0.36632994,-0.002801277,-2.3025815,-0.015424263,2.05134,1.1025127,0.03999966,0.04,0.014352838892195408,0.02912202971792066,-0.022269995803458897,-0.03358870611379958,-0.0466946731450049,0.025887248475236525,0.997212159798189,-0.04709194727981959,0.056109434973755395,0.014212253830823756
1474.916666665654,0.40988478,-0.3642166,-0.0028156869,-2.3023093,-0.0155019155,2.0537682,1.1041129,0.039999664,0.04,0.013299586936144081,0.0299619361807002,-0.02316855662980455,-0.03335541952487914,-0.04638882453499389,0.025862628984468602,0.9971830655947342,-0.04734462158043695,0.056367553719281864,0.014391642929043226
1474.9333333323207,0.411929,-0.3621217,-0.0028299734,-2.30204,-0.015578883,2.0561752,1.1056986,0.039999668,0.039999995,0.01262467841887105,0.030859724925946797,-0.0231173944792884,-0.033119066156151525,-0.04608070481095118,0.025833124292856342,0.9971540724823683,-0.04759548097755403,0.05662269102742869,0.014570407789607193
1474.9499999989873,0.4139552,-0.36004534,-0.0028441353,-2.301773,-0.015655179,2.0585608,1.107271,0.039999668,0.039999995,0.014414701243437023,0.03103311593649627,-0.02220174912295203,-0.03287505364122041,-0.04577519602273228,0.025798414597181116,0.9971251965129768,-0.04784392504597575,0.056875117254911865,0.014748639001367879
1474.966666665654,0.41596314,-0.35798773,-0.0028581705,-2.301508,-0.015730783,2.0609252,1.1088288,0.039999675,0.04,0.015404900754623085,0.0314310448038535,-0.02138468975598773,-0.032630421411354874,-0.04546568480739177,0.025757879449564855,0.9970963990900528,-0.048090421167221835,0.05712516885302802,0.01492639933549177
1474.9833333323206,0.41795257,-0.3559491,-0.0028720798,-2.3012457,-0.015805699,2.0632677,1.1103724,0.039999675,0.04,0.013919847152532583,0.03256417830238556,-0.022190859627446713,-0.03237971576198234,-0.045152481594880556,0.02571025034857896,0.9970677402209956,-0.048334671260045266,0.05737218880373606,0.015103407451595482
1474.9999999989873,0.4199234,-0.35392958,-0.00288586,-2.300986,-0.015879894,2.0655885,1.1119014,0.039999675,0.03999999,0.014760703504679284,0.03271559362766352,-0.021452780776409774,-0.032125499791840345,-0.04483937322412887,0.025659907212585417,0.9970391975279378,-0.04857685880255663,0.0576164643653553,0.015279738733310056
1475.016666665654,0.42187527,-0.35192946,-0.0028995099,-2.300728,-0.015953382,2.067887,1.1134152,0.039999682,0.039999995,0.01690056016014907,0.033254817231032074,-0.02040293150968875,-0.031866622909678954,-0.0445245967043717,0.025603303312964613,0.9970107490218599,-0.048817036146270594,0.05785837581574494,0.015455473617051211
1475.0333333323206,0.42380816,-0.3499489,-0.0029130287,-2.3004735,-0.016026149,2.070163,1.1149142,0.039999686,0.039999995,0.014125537159359602,0.03425370531637828,-0.021794412852438327,-0.03160147147010649,-0.04420381908911214,0.02553956583710649,0.9969824635146667,-0.049055070060625525,0.05809701462170425,0.015630241124786764
1475.0499999989872,0.42572182,-0.34798813,-0.002926415,-2.3002207,-0.016098212,2.0724156,1.1163996,0.03999969,0.04,0.01682533727962454,0.03448513907863271,-0.020533464808059065,-0.03133172679754778,-0.04388746648491594,0.02547212031559129,0.9969543597671123,-0.04929012061396334,0.058332802828548705,0.01580419771369791
1475.0666666656539,0.427616,-0.34604722,-0.0029396669,-2.2999704,-0.01616954,2.0746462,1.1178699,0.039999694,0.04,0.01686180614195454,0.03481508931986177,-0.019516558279475404,-0.03106429570489956,-0.04356872728004904,0.025399246424676634,0.9969263724787445,-0.04952294089394625,0.05856625836784119,0.015977470462421553
1475.0833333323205,0.4294906,-0.34412637,-0.0029527838,-2.2997231,-0.01624014,2.076853,1.1193247,0.039999697,0.04,0.01522243725611272,0.03598306069078072,-0.020953297429726625,-0.030792655451647707,-0.043244970299395516,0.025319434276587872,0.9968985785025685,-0.04975354331475214,0.05879626260723021,0.016149569982111464
1475.0999999989872,0.4313454,-0.3422258,-0.0029657646,-2.2994783,-0.016309988,2.0790365,1.120764,0.0399997,0.04,0.017167335049927956,0.0360568640169312,-0.01957402386356666,-0.030516205192696627,-0.04292511426633991,0.02523685186274373,0.9968709423673379,-0.049981871713414915,0.05902347560006663,0.01632072583459123
1475.1166666656538,0.4331803,-0.34034562,-0.0029786087,-2.299236,-0.016379088,2.0811965,1.1221879,0.039999712,0.04,0.017104867696837722,0.03650899652366535,-0.019359893876824685,-0.03023550609798971,-0.04260414368011907,0.02514938788154289,0.9968434736042762,-0.05020786541197154,0.05924786904128896,0.01649088831446846
1475.1333333323205,0.4349953,-0.33848616,-0.0029913129,-2.2989967,-0.016447404,2.083333,1.1235954,0.03999971,0.039999995,0.0171984990277263,0.0368379384551587,-0.019422353543463444,-0.02995137114721974,-0.042281272241966025,0.025057324243168422,0.9968161610945699,-0.05043192993025297,0.059469372491627065,0.0166599867841093
1475.1499999989871,0.43679,-0.33664745,-0.003003879,-2.2987597,-0.016515013,2.085446,1.1249871,0.039999712,0.04,0.018219473943736908,0.03744152845993609,-0.01836157926324855,-0.029659330161486017,-0.041958832246973596,0.024956843911180186,0.9967890169249037,-0.05065358491022279,0.05968824322123962,0.016828062716450445
1475.1666666656538,0.43856445,-0.33482957,-0.0030163045,-2.2985256,-0.016581813,2.0875342,1.126363,0.03999971,0.03999999,0.01723792112631184,0.03793910305566195,-0.019093904894784686,-0.029363784298653134,-0.041632404325640485,0.024855739908723373,0.996762083241897,-0.05087289586108967,0.05990385701178705,0.016994875495035318
1475.1833333323204,0.44031847,-0.33303282,-0.003028589,-2.2982943,-0.016647872,2.0895987,1.1277231,0.039999716,0.04,0.018147100904775115,0.03825102740031561,-0.018175998602809607,-0.029064107916534562,-0.04130860463477723,0.024747861623899105,0.9967353371232021,-0.0510897704127191,0.06011670672934683,0.017160555384077382
1475.199999998987,0.44205168,-0.33125728,-0.0030407307,-2.2980652,-0.016713137,2.0916393,1.1290673,0.039999716,0.039999995,0.019695296921362626,0.03864132052233682,-0.01696600675169524,-0.02876082033090728,-0.040984309742502875,0.024636378224600203,0.9967087673837468,-0.05130401245559553,0.0603271699463129,0.01732523860143878
1475.2166666656537,0.44376415,-0.32950303,-0.003052728,-2.2978392,-0.016777607,2.0936546,1.1303955,0.03999972,0.03999999,0.01760993282555745,0.03951860770463611,-0.018386070818832145,-0.028456056123014398,-0.040653503751745715,0.024518147647252787,0.9966824458196127,-0.051515710306056936,0.06053418659373331,0.01748845448095088
1475.2333333323204,0.44545573,-0.3277703,-0.0030645812,-2.2976162,-0.016841313,2.095646,1.131707,0.03999973,0.04,0.018611150032699086,0.03956123792349109,-0.01720754454506146,-0.028148380401651074,-0.04032817621628564,0.024395759737290485,0.9966563135709215,-0.05172521061849039,0.06073844191804162,0.01765040733418282
1475.249999998987,0.4471262,-0.32605922,-0.003076289,-2.297396,-0.01690418,2.097612,1.1330025,0.039999735,0.039999995,0.01934427189491661,0.04017340142558057,-0.017074448417742083,-0.027834842123616615,-0.03999995477727529,0.02427131433107831,0.9966304236599592,-0.05193190938464241,0.060939668950930656,0.017811012637873668
1475.2666666656537,0.44877553,-0.32436976,-0.0030878508,-2.297179,-0.016966244,2.0995526,1.1342815,0.039999735,0.03999999,0.018062860427581207,0.04070484688032394,-0.017277460146769563,-0.02752055554556486,-0.039673530933307076,0.024140496437646694,0.996604786972247,-0.05213614248906202,0.061137535556564454,0.017970057774874506
1475.2833333323204,0.4504036,-0.32270223,-0.003099266,-2.296964,-0.017027548,2.101469,1.135544,0.03999974,0.039999995,0.021690467852830686,0.040132422082361785,-0.015061454916454053,-0.027202784983081985,-0.03935122360279973,0.024006385060953154,0.9965793234183306,-0.0523378648319802,0.06133331069047842,0.018128018083539355
1475.299999998987,0.45201015,-0.3210566,-0.0031105326,-2.2967515,-0.01708806,2.1033602,1.1367898,0.03999974,0.039999995,0.020068758461455616,0.041247260949484055,-0.015732252458766638,-0.026881963095694322,-0.03902146522212967,0.023864415006599197,0.9965540977857948,-0.05253693600385733,0.06152622162956135,0.018284545213302385
1475.3166666656537,0.45359525,-0.31943303,-0.003121651,-2.296543,-0.017147785,2.1052258,1.1380188,0.039999742,0.04,0.018188304207544803,0.04187220018144755,-0.016641147334128803,-0.026558937890773973,-0.038690824730914224,0.023717753768040105,0.996529146752897,-0.05273350824814402,0.061715693841017,0.01843935773034566
1475.3333333323203,0.45515883,-0.31783167,-0.0031326208,-2.2963362,-0.017206702,2.1070662,1.1392313,0.039999757,0.04,0.02207097562132443,0.04121287210021585,-0.014460378609326696,-0.026232023327494025,-0.03836466297052321,0.02357166085961302,0.9965044094023091,-0.052927414291691774,0.06190278946655229,0.018592888812942264
1475.349999998987,0.4567007,-0.3162526,-0.0031434405,-2.2961328,-0.017264772,2.1088805,1.1404266,0.039999753,0.04,0.019462394043578968,0.0424270904844537,-0.015703848504378115,-0.025903697496088812,-0.0380343130550253,0.02341770224821798,0.9964799446430065,-0.05311885724663145,0.062086576330601224,0.018744705082430566
1475.3666666656536,0.45822078,-0.31469584,-0.0031541102,-2.2959325,-0.017322037,2.1106696,1.141605,0.039999757,0.04,0.020335050333009086,0.04242546944784875,-0.014611342938564142,-0.02557110053415193,-0.03770716817272192,0.023261498711628886,0.9964557334226388,-0.05330766568743013,0.062267524158252874,0.018894960791422596
1475.3833333323203,0.4597189,-0.31316146,-0.0031646283,-2.2957346,-0.017378489,2.1124325,1.1427665,0.03999976,0.04,0.02142962650570901,0.04271845886267833,-0.014157999820718636,-0.025236166625355758,-0.03738004899717345,0.02310115643823476,0.9964317887776889,-0.053493769871417664,0.06244556391980619,0.019043593279013744
1475.399999998987,0.46119514,-0.3116496,-0.0031749944,-2.2955406,-0.017434085,2.1141696,1.143911,0.03999976,0.03999999,0.019357814910825333,0.04323940606645316,-0.01483202647500903,-0.024899061211238215,-0.03705291659373997,0.02293784852290337,0.9964081409720046,-0.05367718126561751,0.06262031664024849,0.01919043407448052
1475.4166666656536,0.46264935,-0.31016046,-0.0031852084,-2.2953482,-0.0174889,2.1158805,1.1450386,0.039999764,0.04,0.02352515143788647,0.042810416848804156,-0.012838866478759314,-0.024560188013317025,-0.036731154708208945,0.02276974625000699,0.9963847343050319,-0.05385784040169934,0.06279268423365116,0.019335797834301716
1475.4333333323202,0.46408132,-0.30869398,-0.0031952695,-2.295159,-0.01754286,2.1175659,1.1461489,0.039999764,0.03999999,0.020760586814860815,0.043690573950705414,-0.013373341754197021,-0.024220463129317103,-0.03640280158849985,0.022597915086350492,0.9963616028065171,-0.0540358132565359,0.06296219087962072,0.019479472738535224
1475.4499999989869,0.46549124,-0.30725014,-0.0032051774,-2.2949734,-0.017595999,2.1192248,1.1472418,0.039999772,0.039999995,0.02046146831908846,0.04383726821434175,-0.013764925590353805,-0.02387782869136494,-0.03607601146136636,0.022421712349773464,0.9963387727639339,-0.05421125251154099,0.06312841929752477,0.019621229966138933
1475.4666666656535,0.4668789,-0.30582914,-0.0032149318,-2.2947898,-0.017648304,2.1208572,1.1483178,0.03999978,0.04,0.023003681483269034,0.04374865506712178,-0.012260809268860307,-0.02353254902420248,-0.03575267937292278,0.022243626492343748,0.996316221863874,-0.054383802961571304,0.06329200409361752,0.019761332043825495
1475.4833333323202,0.46824434,-0.304431,-0.0032245326,-2.2946103,-0.017699748,2.1224637,1.1493763,0.039999783,0.04,0.019916228197036645,0.04442887825040209,-0.013385129390464101,-0.02318671196140188,-0.03542828034230656,0.022061226093154054,0.9962939817451171,-0.054553794609475334,0.0634523157384508,0.019899473852231047
1475.4999999989868,0.46958742,-0.3030557,-0.0032339788,-2.2944326,-0.017750354,2.1240435,1.1504174,0.039999787,0.04,0.023563840868745523,0.04409413709560717,-0.011470922726686261,-0.022838047509716394,-0.03510801255986842,0.021876933160886652,0.9962720202329302,-0.05472100886671365,0.0636100252349221,0.020035907247182322
1475.5166666656535,0.4709081,-0.30170333,-0.0032432699,-2.294258,-0.017800141,2.1255977,1.1514413,0.039999798,0.04,0.022105525954319027,0.044337286099938034,-0.01148099552727988,-0.02248777948988464,-0.03478620781920726,0.021687469321241246,0.9962503377670923,-0.05488545687584152,0.06376517233019344,0.020170620223121962
1475.5333333323201,0.4722065,-0.30037388,-0.0032524057,-2.2940872,-0.017849056,2.127125,1.1524476,0.039999794,0.04,0.020744345337497805,0.044941816863786066,-0.012558386234728935,-0.022137118979820812,-0.03446223318736857,0.02149548158394134,0.9962289896574147,-0.05504734679820048,0.06391689268603938,0.02030321664186516
1475.5499999989868,0.4734824,-0.29906747,-0.003261387,-2.2939186,-0.017897177,2.1286256,1.1534369,0.039999798,0.04,0.02327546483829046,0.04478814719349744,-0.010888982445522721,-0.021782370259405694,-0.034145401739317426,0.021299216634013136,0.9962079521700773,-0.05520622682377242,0.06406591439414526,0.02043397087756408
1475.5666666656534,0.4747359,-0.29778403,-0.003270212,-2.293753,-0.017944438,2.1300998,1.1544085,0.0399998,0.04,0.022495830142488238,0.04483115296903817,-0.01093957971729509,-0.021429639907691832,-0.03382627357109026,0.02110287193570871,0.9961872138069444,-0.055362543729493896,0.06421210785816381,0.02056280632036386
1475.58333333232,0.47596696,-0.29652366,-0.0032788822,-2.2935903,-0.017990852,2.1315482,1.155363,0.0399998,0.04,0.022600871905575914,0.044800680123091574,-0.010426523475604021,-0.021073754900819218,-0.03350979986144556,0.020903694641925513,0.9961667781322682,-0.055515943588435146,0.06435573608602478,0.02068983774435731
1475.5999999989867,0.4771755,-0.2952862,-0.0032873973,-2.2934308,-0.018036429,2.1329703,1.1562998,0.0399998,0.04,0.022223221734241072,0.0452126599732261,-0.010310081478159816,-0.02071819468541721,-0.03319148013761467,0.020698749957044245,0.9961466558006817,-0.05566666433761761,0.06449653470756937,0.020814889607112037
1475.6166666656534,0.47836152,-0.29407185,-0.0032957555,-2.2932749,-0.018081157,2.1343658,1.1572193,0.0399998,0.039999995,0.021560103390405594,0.04566930953089354,-0.010773314862810857,-0.020361572138660015,-0.032874277327126444,0.020492500691258447,0.996126882786882,-0.055814583786488216,0.06463415759155065,0.020937795931313702
1475.63333333232,0.47952515,-0.29288045,-0.0033039588,-2.2931213,-0.01812505,2.135735,1.1581212,0.0399998,0.039999995,0.02371342866009929,0.044808768867066195,-0.009229394543819325,-0.020003902362128234,-0.03256227631072694,0.02028484596898289,0.9961074033578291,-0.05595983061684775,0.06476930977937721,0.02105884241263131
1475.6499999989867,0.4806663,-0.29171202,-0.0033120075,-2.2929704,-0.018168135,2.1370773,1.1590056,0.039999805,0.04,0.023115664512118883,0.045374938435294165,-0.009531307763044339,-0.019645025465708066,-0.032248334621064474,0.020072055555244613,0.9960882536947924,-0.05610236415476323,0.06490158776808154,0.021177806607087683
