rsonawane2002/My_IMU/logs_2/traj_456/clean_456.csv
time,j1,j2,j3,j4,j5,j6,j7,gripper1,gripper2,imu_ax,imu_ay,imu_az,imu_gx,imu_gy,imu_gz,quat_x,quat_y,quat_z,quat_w
2266.283333334579,0.00016700293,-0.785875,4.0107683e-05,-2.3551247,9.29385e-05,1.570997,0.786,0.04,0.04,0.0,-0.0,0.0,2.875329272945135e-08,-0.0011641195053377316,4.421952117202833e-08,0.9999995971961153,0.00020320632366974898,0.0008736418299892524,3.263050917662294e-05
2266.3000000012457,0.00016700073,-0.78576016,4.0107876e-05,-2.3552213,9.29745e-05,1.5709941,0.786,0.04,0.04,-0.29199845944523073,-2.2107943401937676e-05,0.020128411695607973,6.615341036517501e-07,-0.002237629141037237,3.8662539066239726e-07,0.9999996850576967,0.00020321209933176304,0.0007665025179710962,3.26073662299749e-05
2266.3166666679126,0.00016696338,-0.7856541,4.0061037e-05,-2.35531,9.3011e-05,1.5709913,0.786,0.04,0.04,0.02313110378637795,9.390778141037787e-05,-0.0015688336955532733,5.141893956725185e-06,-0.0032170414922515276,2.5048275039985816e-06,0.9999997558959425,0.0002032517074218627,0.0006677078398189726,3.260428463536714e-05
2266.3333333345795,0.00016683053,-0.78555655,3.9890183e-05,-2.355391,9.3062765e-05,1.5709884,0.786,0.04,0.039999995,0.022328999105103442,0.0002406407412109085,-0.0014572312880378746,1.7297734399599843e-05,-0.004104674977855659,8.79486109473692e-06,0.9999998123432682,0.00020338255385450214,0.0005769597639853482,3.265572192056588e-05
2266.3500000012464,0.0001665147,-0.78546643,3.9485323e-05,-2.3554654,9.31151e-05,1.5709856,0.786,0.04,0.04,0.019586707819652105,0.00047838544475115627,-0.0012948972588189278,4.0091322849805896e-05,-0.004895027719427571,1.8405937539646504e-05,0.9999998570580205,0.00020368734345421565,0.0004932748074021756,3.27928193241745e-05
2266.3666666679133,0.00016590298,-0.7853829,3.8705864e-05,-2.3555336,9.318461e-05,1.5709827,0.786,0.04,0.04,0.01785282857267312,0.0007570010442768161,-0.001023841726599528,7.67302954773865e-05,-0.005588587587479821,3.444674160589554e-05,0.9999998920626124,0.00020427227935293821,0.0004159973025158955,3.307330640748175e-05
2266.38333333458,0.00016486026,-0.7853053,3.738413e-05,-2.3555992,9.32885e-05,1.5709798,0.786,0.04,0.04,0.01098318587897662,0.0010921257228207809,-0.0022087277830706853,0.00012960218743699633,-0.006187283557000177,5.90756632483546e-05,0.9999999195518503,0.0002052643495189096,0.0003429814627278828,3.356420922573893e-05
2266.400000001247,0.00016323147,-0.78523296,3.532821e-05,-2.3556583,9.343554e-05,1.5709769,0.786,0.04,0.04,0.016703496733971868,0.001483269047382053,-0.00021313550644386225,0.00020166844634643841,-0.006699903755134553,9.15533368927744e-05,0.9999999400072268,0.00020680887223491608,0.0002757471858965517,3.433835508509493e-05
2266.416666667914,0.00016084345,-0.78516513,3.2324424e-05,-2.3557165,9.364989e-05,1.5709739,0.786,0.04,0.039999995,0.006630693334797044,0.0019097611914339874,-0.002166766338951298,0.0002945609420595007,-0.007106865036824364,0.00013419628875017544,0.9999999552014994,0.00020906818042243616,0.00021125461064938432,3.548217487648255e-05
2266.4333333345808,0.00015750756,-0.78510094,2.814022e-05,-2.3557715,9.392149e-05,1.5709705,0.786,0.04,0.04,0.009175578752196323,0.0024002314273033885,-0.0009623680144787983,0.00041052406469849136,-0.007430830739675247,0.00018549383577416231,0.9999999655517666,0.00021221881566600153,0.00014995075312651952,3.7073055881911466e-05
2266.4500000012476,0.00015302081,-0.7850399,2.2525677e-05,-2.3558228,9.426505e-05,1.5709639,0.786,0.03999999,0.03999999,0.008919132726181722,0.0029090376227681775,-0.002588686156035358,0.0005510610556947547,-0.007658335731288872,0.0002488766985007067,0.9999999717140753,0.0002164506006232388,9.046468370093626e-05,3.920621444458352e-05
2266.4666666679145,0.00014716778,-0.78498113,1.5215679e-05,-2.3558736,9.470764e-05,1.5709571,0.7860019,0.039999988,0.039999988,0.003279110600451496,0.003440020006718902,-0.00117689837815238,0.0007183103037852114,-0.007796997603941902,0.00032348599091777447,0.999999973750746,0.00022291887038578957,3.2289699662512635e-05,4.198880580223476e-05
2266.4833333345814,0.00013972215,-0.78492415,5.932026e-06,-2.3559241,9.5266005e-05,1.57095,0.7860038,0.039999984,0.03999998,0.0023091508077666134,0.004006150289799911,-0.001101391551960873,0.0009046611795516211,-0.007845360754394758,0.00041138930536648727,0.9999999719982038,0.00023088153238965382,-2.499141553390622e-05,4.552734127357695e-05
2266.5000000012483,0.00013044846,-0.78486806,-5.614967e-06,-2.3559747,9.595628e-05,1.5709395,0.78600574,0.03999998,0.039999977,-0.00010344155891850448,0.004596450656729344,-0.003100143393797161,0.0011198921128267262,-0.007799049537786622,0.0005111581045782118,0.9999999663285107,0.00024055872412390695,-8.355424514764411e-05,4.993161129647472e-05
2266.516666667915,0.00011910281,-0.7848124,-1.972471e-05,-2.3560257,9.679703e-05,1.5709287,0.78600764,0.039999973,0.039999966,-0.0004585885347463403,0.005205193702572584,-0.0007344985038182372,0.0013654245404058879,-0.0076730337414531525,0.0006249473068251726,0.9999999565446942,0.0002521783881715749,-0.0001423259121701181,5.531731189675036e-05
2266.533333334582,0.00010543441,-0.78475636,-3.6705616e-05,-2.3560772,9.780547e-05,1.5709144,0.78600955,0.039999966,0.039999958,-0.002295917477135312,0.00583337110563355,-0.002606620845568841,0.0016422722136503424,-0.007451555308017407,0.0007514064935054838,0.9999999420649744,0.00026597493399561266,-0.0002032435632471463,6.180158895872538e-05
2266.550000001249,8.918636e-05,-0.78469926,-5.6873032e-05,-2.3561342,9.9000616e-05,1.5708997,0.78601223,0.039999966,0.039999958,-0.010611391997095154,0.006474490349289322,-0.0021424051175111813,0.0019513355834308342,-0.007145129888524014,0.0008917098714396896,0.9999999218500947,0.00028257594977227203,-0.00026761850991426875,6.950518194880385e-05
2266.566666667916,7.009717e-05,-0.7846407,-8.05482e-05,-2.3561924,0.00010040164,1.5708815,0.78601605,0.03999997,0.039999958,-0.004732752484715164,0.0071274896888650794,-0.0024149952967400523,0.0022895687216480847,-0.006761020616805661,0.0010469821316688567,0.999999895046907,0.00030240440677611815,-0.00033509311435750443,7.855160432730706e-05
2266.5833333345827,4.790103e-05,-0.78457993,-0.000108057495,-2.3562515,0.00010202701,1.5708605,0.78601986,0.03999997,0.039999958,-0.004985040637883742,0.00779164372802977,-0.0012167963690634664,0.002656023170279524,-0.00628953639662839,0.0012157234911056621,0.9999998609401888,0.00032514242548429634,-0.0004055480809018527,8.906604481088564e-05
2266.6000000012496,2.2329185e-05,-0.7845164,-0.00013973082,-2.3563173,0.00010389645,1.5708374,0.7860237,0.039999973,0.03999996,-0.015043321323027214,0.00846098993796056,-0.0030805213294238243,0.0030567839407975757,-0.0057236308855250885,0.0013989636949822257,0.9999998172086274,0.00035104108776137745,-0.000481784751546741,0.00010117469838056409
2266.6166666679164,-6.889511e-06,-0.78444964,-0.00017590132,-2.3563857,0.00010603002,1.5708107,0.7860294,0.039999973,0.039999958,-0.009135311716690353,0.009137189217504404,-0.00206106242732762,0.0034921031271428044,-0.005084435801341705,0.0015976947849541928,0.9999997623565017,0.00038130730993445755,-0.0005627302471968035,0.00011500584420185769
2266.6333333345833,-4.0027986e-05,-0.784379,-0.00021690401,-2.3564596,0.00010844647,1.5707803,0.7860351,0.039999977,0.03999996,-0.01475574125966439,0.00981684232903836,-0.0030743791360698935,0.003953655649477922,-0.004356254161044584,0.0018103147259402445,0.9999996938656925,0.0004152422769282494,-0.0006502022894958043,0.00013068800802634652
2266.65000000125,-7.736025e-05,-0.78430384,-0.0002630754,-2.3565407,0.00011116589,1.5707461,0.78604084,0.039999977,0.03999996,-0.018350148811263622,0.010497589027146115,-0.0035547750355302554,0.004450320957249615,-0.0035513570973633407,0.002037735966034953,0.9999996085178429,0.0004531018626631927,-0.00074542259929729,0.00014835097403292712
2266.666666667917,-0.000119160766,-0.7842236,-0.00031475254,-2.3566284,0.00011420903,1.5707079,0.7860485,0.03999998,0.03999996,-0.018167433943627742,0.011178836001958008,-0.0031383752718605606,0.004982679650231533,-0.002674268407381458,0.002280852375347892,0.9999995028516987,0.0004960959992116877,-0.0008484805244940651,0.00016812469994348917
2266.683333334584,-0.00016570388,-0.7841378,-0.00037227236,-2.3567212,0.00011759444,1.5706657,0.7860561,0.03999998,0.03999996,-0.015960031824935328,0.011861670863636296,-0.0021852908510755498,0.005542227342155834,-0.0017205289622262568,0.002537982121482836,0.999999374497425,0.000543527217509127,-0.0009588690365181167,0.00019013966801302123
2266.700000001251,-0.00021726363,-0.78404593,-0.00043597116,-2.3568196,0.000121342615,1.570619,0.7860651,0.039999984,0.03999996,-0.017782819369238645,0.012539949971312544,-0.0026426069019036547,0.006137393451221143,-0.0006830857594106081,0.0028108194710532016,0.9999992187928974,0.0005963366776011747,-0.0010773926228971676,0.00021452575091665242
2266.7166666679177,-0.0002741127,-0.7839476,-0.0005061839,-2.3569262,0.00012547207,1.5705673,0.78607464,0.039999984,0.03999996,-0.022504480281693162,0.013213918341928449,-0.0038236091369103775,0.006762310983773085,0.00043961290701139723,0.0030976331080785928,0.9999990298848829,0.000654361554816902,-0.001205719780732429,0.0002414126321895529
2266.7333333345846,-0.0003365226,-0.78384185,-0.0005832442,-2.3570452,0.00013000309,1.5705101,0.78608525,0.039999984,0.039999958,-0.030886185621481488,0.013879481408528025,-0.005549590802700344,0.007420924210671782,0.001632405293977486,0.003399134366529101,0.9999987987521558,0.0007181231810620639,-0.0013466217668191686,0.00027093017481518686
2266.7500000012515,-0.0004047631,-0.78372854,-0.0006674834,-2.3571718,0.00013495711,1.5704483,0.7860967,0.039999988,0.03999996,-0.022792574203212013,0.014547206524500103,-0.0028747224047220854,0.008110468957557248,0.0028777872604398257,0.003716374236328351,0.9999985224916076,0.0007877543572892696,-0.0014975052662568832,0.00030320892449952236
2266.7666666679183,-0.00047910167,-0.7836073,-0.00075922994,-2.3573065,0.00014035011,1.5703808,0.7861094,0.039999988,0.039999958,-0.024253386040107294,0.015206661551329381,-0.0035385393591269576,0.008831978265121802,0.004203085315491041,0.004047223457471345,0.9999981932699387,0.0008637130463942475,-0.0016592042456163734,0.00033837538786926885
2266.783333334585,-0.0005598038,-0.783478,-0.00085880974,-2.3574505,0.00014620478,1.5703076,0.78612274,0.039999995,0.03999996,-0.02643861678066628,0.015853463276755755,-0.004131039347798904,0.009583901963089126,0.005605050927946789,0.0043944394899158076,0.999997802783875,0.0009459485460057041,-0.0018324332152692628,0.00037655979892010596
2266.800000001252,-0.00064713135,-0.7833393,-0.00096654525,-2.3576074,0.00015253463,1.5702286,0.78613776,0.03999999,0.039999966,-0.034051846540883446,0.01649306410152195,-0.005109081257859138,0.010368244966389533,0.007080249818696814,0.004750856218982815,0.9999973372064646,0.001035211609977167,-0.002019724819381569,0.00041788581831947056
2266.816666667919,-0.0007413446,-0.78319114,-0.001082755,-2.3577738,0.0001593656,1.5701433,0.7861535,0.039999995,0.039999958,-0.028553807152720267,0.017125380528597474,-0.003869185964222588,0.011180534710871947,0.008612066538636692,0.005128649288149234,0.9999967898144259,0.0011312677953013084,-0.0022196177256256725,0.0004624836973345071
2266.833333334586,-0.00084269955,-0.78303343,-0.0012077545,-2.3579519,0.00016671226,1.5700517,0.78617066,0.04,0.03999996,-0.032324616619594515,0.017746825370066454,-0.005033820911704012,0.012025039712394379,0.010215287188012186,0.005518861717832056,0.9999961468864302,0.0012347131183709612,-0.0024333330374350115,0.0005104763828124285
2266.8500000012527,-0.00095144886,-0.78286546,-0.0013418546,-2.3581414,0.0001745902,1.5699534,0.786189,0.04,0.03999997,-0.03273463287094547,0.01836098147682621,-0.004663885024580594,0.012898139765761162,0.011885049907013834,0.00592055476893606,0.9999953957624664,0.0013456639007040755,-0.0026611676710962917,0.0005619867976012331
2266.8666666679196,-0.0010678425,-0.7826869,-0.0014853614,-2.3583443,0.00018302091,1.5698482,0.78620857,0.04,0.03999997,-0.036500276413731214,0.018953529701543053,-0.005745980200044798,0.013800455497708483,0.013620712227167073,0.006335347203909876,0.9999945193557948,0.0014643518899438246,-0.002904491343020063,0.0006171401411856291
2266.8833333345865,-0.0011921261,-0.78249717,-0.0016385769,-2.3585594,0.00019202339,1.5697355,0.78622955,0.04,0.039999966,-0.03516584014164881,0.019543661539223236,-0.005231782924486339,0.014732225567991879,0.015413739752226666,0.006768364857112885,0.9999935028410738,0.0015911250299895368,-0.0031631538004875492,0.0006760582908101804
2266.9000000012534,-0.0013245408,-0.7822958,-0.0018017984,-2.3587883,0.00020161382,1.5696157,0.78625184,0.04,0.03999995,-0.038430925706967045,0.020116176382993754,-0.005618939866591788,0.015691538926125747,0.01727056678238526,0.0072148785833273206,0.9999923269280219,0.0017261479892146108,-0.003438107224017794,0.0007388619057827685
2266.9166666679203,-0.0014653244,-0.7820826,-0.0019753182,-2.3590305,0.00021180818,1.5694885,0.78627557,0.04,0.03999995,-0.037940368123012824,0.020681415419180407,-0.005521416911480337,0.016679063063775014,0.01918377390702563,0.007673035577852733,0.999990973490186,0.0018697013044722834,-0.0037293500511948567,0.0008056695215621477
2266.933333334587,-0.0016147105,-0.7818572,-0.002159423,-2.3592865,0.00022262403,1.5693537,0.7863008,0.04,0.039999947,-0.03919701833390299,0.0212284634141309,-0.005800430595637174,0.017693519214021968,0.02115850800345783,0.008144824884465426,0.9999894210573678,0.002022031330116874,-0.004037416983334174,0.0008765995396797996
2266.950000001254,-0.0017729291,-0.78161913,-0.002354394,-2.3595572,0.00023407779,1.569211,0.78632736,0.04,0.039999943,-0.040921208361655026,0.021761514970186375,-0.006164257775220783,0.018734690937655625,0.023192498215805265,0.008629872343725326,0.9999876457642066,0.002183291031939791,-0.0043629914809411845,0.0009517691773194993
2266.966666667921,-0.0019402046,-0.78136796,-0.0025605094,-2.3598428,0.00024618657,1.5690601,0.78635544,0.03999999,0.039999925,-0.04234128591620312,0.022281322433227377,-0.006483738220319779,0.019802357903071114,0.025282488492705934,0.009128325540568024,0.9999856214050941,0.0023537486976712985,-0.004706727119716228,0.0010312952809944037
2266.9833333345878,-0.0021167567,-0.7811034,-0.0027780395,-2.360144,0.00025896556,1.5689008,0.7863851,0.03999999,0.03999992,-0.043487206301384695,0.0227844143167775,-0.006733489000976256,0.020896017639560522,0.027426207542921046,0.009639816210707423,0.9999833204598982,0.002533667152248592,-0.005069068684770802,0.001115291633337683
2267.0000000012546,-0.0023028029,-0.78082514,-0.0030072492,-2.3604608,0.0002724298,1.568733,0.7864165,0.039999988,0.039999917,-0.04419771859378585,0.023275519605006623,-0.007004180045755426,0.02201462101919538,0.02962305445414929,0.010163737500242041,0.999980713771026,0.0027232762042855687,-0.00545037133218087,0.0012038708593629821
2267.0166666679215,-0.0024985531,-0.7805329,-0.0032483982,-2.3607943,0.00028659505,1.5685565,0.78644955,0.039999995,0.03999992,-0.04617481358610842,0.023745134490691516,-0.007371603401695737,0.023157368826302798,0.03187015678978483,0.010700319155686231,0.9999777682941351,0.0029227999344418895,-0.00585128803044842,0.0012971454848690932
2267.0333333345884,-0.0027042138,-0.7802261,-0.0035017412,-2.3611438,0.00030147572,1.5683708,0.78648424,0.04,0.039999925,-0.04574055802619714,0.02420819840613285,-0.007410818148745335,0.024323491616780914,0.03416629130686654,0.011249405866397517,0.9999744509573026,0.0031323695619522567,-0.00627208398258926,0.001395226176586226
2267.0500000012553,-0.0029199875,-0.7799047,-0.0037675272,-2.3615105,0.00031708667,1.5681764,0.7865206,0.04,0.03999992,-0.047603044694088936,0.0246493886970163,-0.0076276992911905594,0.025513481955432273,0.036512517722808384,0.011809722540307321,0.9999707258617774,0.003352201193742801,-0.006713083864337937,0.001498222832898092
2267.066666667922,-0.003146072,-0.77956825,-0.0040459973,-2.3618937,0.00033344218,1.5679724,0.78655857,0.04,0.03999992,-0.047134325589559545,0.025078680967386552,-0.00780677300324939,0.02672632522417967,0.03890624777127454,0.012383645614358759,0.9999665551564687,0.0035824463071001955,-0.0071745822149610694,0.0016062431330593578
2267.083333334589,-0.0033826581,-0.7792165,-0.0043373895,-2.362295,0.00035055657,1.5677594,0.7865983,0.04,0.03999993,-0.049965656488693,0.025481139640266652,-0.008293007779691663,0.02796170195856062,0.041348568720329174,0.012969845636640023,0.9999618952117023,0.0038233702667026855,-0.007657260917926114,0.0017193951433916762
2267.100000001256,-0.0036299352,-0.7788492,-0.004641932,-2.3627143,0.00036844285,1.5675362,0.78663987,0.04,0.039999925,-0.05064027106349567,0.025869023390735595,-0.00907456202121626,0.029218780705191412,0.04383563513577056,0.013567515681500686,0.9999566991920389,0.004075144107547778,-0.00816183125110765,0.0018377845612559589
2267.116666667923,-0.0038880848,-0.7784659,-0.004959851,-2.3631518,0.0003871142,1.5673037,0.78668326,0.04,0.03999993,-0.050700166637995814,0.026252334490830566,-0.008557778012829864,0.030497069090153008,0.046363022605347984,0.014176972930883228,0.9999509246819868,0.004337965585120312,-0.008688080421228487,0.0019615149289072334
2267.1333333345897,-0.004157285,-0.7780667,-0.005291365,-2.3636076,0.00040658336,1.5670611,0.78672856,0.04,0.039999925,-0.051297038008124574,0.02660772110647889,-0.009277451872335973,0.03179534195667291,0.048933480672754964,0.014797547401155443,0.9999445215626127,0.0046120262218232455,-0.009236450975251663,0.0020906899407883016
2267.1500000012566,-0.0044377088,-0.777651,-0.0056366874,-2.3640826,0.00042686364,1.5668081,0.7867757,0.04,0.03999992,-0.05308227833049628,0.026941464539824607,-0.00982938058067262,0.033113438838182054,0.051548128507102386,0.0154301106296868,0.999937433670781,0.004897452960515783,-0.009807712831293693,0.0022254139863756117
2267.1666666679234,-0.0047295233,-0.77721864,-0.0059960242,-2.3645759,0.00044796677,1.5665449,0.7868248,0.04,0.03999992,-0.05203995806599693,0.027275824791469887,-0.009485418983867788,0.03445078115054276,0.054198848146671016,0.01607397272805274,0.9999296115959947,0.005194458739178617,-0.01040156294539405,0.0023657853205947222
2267.1833333345903,-0.005032893,-0.7767693,-0.0063695773,-2.3650887,0.00046990428,1.5662714,0.78687584,0.04,0.03999992,-0.0543175500999693,0.027574031503465636,-0.01011829995749558,0.03580652753446527,0.05689208380337474,0.0167293119203848,0.999920993326256,0.005503161440524171,-0.011018740761138198,0.0025119059759077856
2267.200000001257,-0.0053479746,-0.77630275,-0.00675754,-2.365621,0.0004926876,1.5659876,0.7869289,0.04,0.03999992,-0.0544822626171948,0.027861440489960164,-0.010350732589237133,0.03718036511145066,0.0596224831066017,0.01739575740770542,0.9999115191852037,0.0058237627960801225,-0.011659389572926069,0.002663873574280808
2267.216666667924,-0.005674924,-0.7758189,-0.007160101,-2.3661737,0.00051632785,1.5656929,0.7869839,0.04,0.039999925,-0.05595626905590123,0.02812145572350898,-0.011208408411800264,0.03857147365922195,0.06239157545925052,0.01807327280820545,0.9999011206083381,0.006156370390830404,-0.012324188480964067,0.0028217881008436333
2267.233333334591,-0.0060138865,-0.7753175,-0.007577443,-2.3667464,0.0005408357,1.5653875,0.78704095,0.04,0.039999932,-0.05563845118108368,0.028377287452518128,-0.011171715829028095,0.03997932747169542,0.06519195646278889,0.018761565838995995,0.9998897345052509,0.006501146651725023,-0.013013041560678873,0.0029857448939509426
2267.250000001258,-0.006365007,-0.7747982,-0.008009742,-2.3673396,0.000566223,1.5650712,0.78709996,0.04,0.03999995,-0.05679100863835718,0.028604319977599407,-0.011576249345313094,0.04140337166086193,0.06802781504662188,0.01946209015795346,0.9998772881386782,0.006858189592559095,-0.01372641850554051,0.003155841403846681
2267.2666666679247,-0.0067284224,-0.7742607,-0.008457168,-2.3679533,0.00059249677,1.5647438,0.787161,0.04,0.03999995,-0.0572053433311126,0.02881872977845701,-0.01194385830698419,0.04284317969566441,0.07089553500124576,0.02017208365237449,0.9998637062251178,0.007227651514987843,-0.014464669575003477,0.00333217067918096
2267.2833333345916,-0.007104269,-0.773705,-0.008919891,-2.3685882,0.0006196681,1.5644053,0.7872241,0.04,0.039999947,-0.058183704027769956,0.029015073500369276,-0.01244744170276757,0.04429844306644213,0.07379439713241859,0.020892290329886785,0.9998489120122223,0.007609682756365328,-0.01522799559116685,0.0035148295262277104
2267.3000000012585,-0.0074926754,-0.77313066,-0.009398062,-2.3692446,0.00064774643,1.5640554,0.7872894,0.04,0.03999995,-0.05915464036869711,0.029175218741537418,-0.012987654863372278,0.04576779020732503,0.07672212755171377,0.021623141545474393,0.9998328192678367,0.008004422811696407,-0.01601698434220283,0.003703909146084286
2267.3166666679253,-0.0078937635,-0.7725377,-0.009891839,-2.3699214,0.0006767409,1.5636941,0.7873568,0.04,0.039999947,-0.057384898563794806,0.029356904667588238,-0.012877196419580628,0.04725087665796308,0.07967605770356484,0.022364280204375708,0.9998153558682281,0.008411982612764868,-0.016831120513063756,0.003899500081485848
2267.333333334592,-0.008307654,-0.771926,-0.010401362,-2.3706198,0.00070665975,1.5633211,0.78742635,0.04,0.039999947,-0.05915115301688978,0.029472984200645813,-0.013771894507197402,0.04874699339482932,0.08266105191841576,0.023115734384752836,0.9997964275988255,0.008832462462525214,-0.01767108023424824,0.0041016936537912035
2267.350000001259,-0.008734463,-0.77129525,-0.010926775,-2.37134,0.0007375112,1.5629365,0.78749806,0.04,0.039999943,-0.06006991210250057,0.02959215667481599,-0.014147910708772748,0.050255711640512644,0.08567302879732505,0.023877932730558632,0.9997759423174131,0.009265962050577607,-0.018537151740322583,0.004310581858888987
2267.366666667926,-0.009174299,-0.7706453,-0.011468214,-2.3720822,0.00076930306,1.5625403,0.787572,0.04,0.039999947,-0.06018567404793007,0.02969624447598483,-0.014512903532537536,0.05177635938677354,0.08870875323675806,0.024649096393635345,0.9997538063352774,0.00971263563101847,-0.019429474027730348,0.004526253001061691
2267.383333334593,-0.009627263,-0.76997614,-0.012025811,-2.3728468,0.00080204377,1.5621324,0.78764814,0.04,0.039999943,-0.06093095449448693,0.02976441453973501,-0.015102512068732032,0.05330797631715718,0.0917683870349047,0.025431184119027277,0.9997299212680678,0.01017250924521781,-0.020348304232757793,0.004748798990247753
2267.4000000012597,-0.010093456,-0.76928747,-0.012599685,-2.3736331,0.0008357396,1.5617126,0.7877265,0.04,0.039999943,-0.059901727792421866,0.029844329932338445,-0.015101800056283032,0.054850695608175265,0.0948501765482214,0.026222678700089787,0.9997041931821097,0.01064572805603465,-0.021293452550922968,0.004978301590483866
2267.4166666679266,-0.010572976,-0.76857907,-0.013189953,-2.374442,0.0008703974,1.5612807,0.7878072,0.04,0.039999936,-0.06173321364599804,0.029862451563118786,-0.01613871485990348,0.05640357821086054,0.09795472976447955,0.027024439125421983,0.9996765048913151,0.011132399050602882,-0.02226568192455293,0.005214850726266495
2267.4333333345935,-0.011065913,-0.76785105,-0.013796727,-2.3752737,0.0009060233,1.5608368,0.7878901,0.04,0.039999943,-0.061429936226620185,0.029889508656119265,-0.01653184607828262,0.05796542398869744,0.10107907522105777,0.027835038692733287,0.9996467553442083,0.011632506849211117,-0.023264860235565447,0.005458533907490561
2267.4500000012604,-0.011572353,-0.76710314,-0.014420117,-2.376128,0.00094262476,1.5603807,0.78797513,0.04,0.03999994,-0.06164713549539069,0.029896898639831734,-0.016903282455937862,0.0595370745187897,0.10422392927313866,0.028655639197671112,0.9996148316974071,0.012146151714926636,-0.02429118307987384,0.005709437245695938
2267.4666666679273,-0.012092378,-0.76633507,-0.015060215,-2.377005,0.0009802066,1.5599124,0.7880625,0.04,0.039999936,-0.06215785514436245,0.029872286185956762,-0.01735181676782993,0.06111720278617336,0.10738606409388167,0.02948577835115289,0.9995806160906384,0.012673456021101911,-0.02534487543298046,0.005967640876247106
2267.483333334594,-0.012626062,-0.765547,-0.015717125,-2.3779054,0.0010187748,1.559432,0.7881522,0.04,0.03999993,-0.062269852073293386,0.029836584683162054,-0.017996988483282017,0.06270498307393435,0.11056432067122605,0.030325339107414022,0.9995439919280106,0.013214479335762449,-0.02642598253125801,0.006233232208049622
2267.500000001261,-0.0131734805,-0.76473886,-0.016390923,-2.378829,0.0010583347,1.558939,0.78824425,0.04,0.03999993,-0.06263703253752695,0.029756382264312098,-0.018957640916483776,0.06429990233153303,0.11375901841103855,0.031174207127533705,0.9995048311551953,0.013769271883342942,-0.02753484685452198,0.006506293716471893
2267.516666667928,-0.013734699,-0.7639102,-0.017081704,-2.3797755,0.0010988922,1.5584337,0.7883385,0.04,0.03999992,-0.062160827490331805,0.029717716220051954,-0.018653119501199633,0.06590152361053543,0.11696686033143586,0.03203306555231861,0.9994630162600174,0.014337830275015437,-0.028671303349537783,0.0067869076663626265
2267.5333333345948,-0.014309783,-0.7630609,-0.017789537,-2.3807452,0.0011404938,1.5579158,0.78843516,0.04,0.03999992,-0.06244872617182651,0.029575327947860275,-0.019457261478006416,0.06751075141164616,0.12018904913308918,0.032914818559567384,0.9994184131813059,0.014920315808657245,-0.029835574476949085,0.007075172503975595
2267.5500000012617,-0.014898784,-0.7621916,-0.018514497,-2.3817384,0.0011830848,1.5573856,0.7885341,0.04,0.03999993,-0.06250745529958746,0.029488280412842682,-0.020367481319305547,0.06912379864364546,0.12342377866858117,0.03378828832063685,0.9993708961704512,0.015516674730724014,-0.03102758326708387,0.007371144373458679
2267.5666666679285,-0.015501762,-0.7613012,-0.019256653,-2.3827553,0.0012267005,1.5568427,0.7886354,0.04,0.03999991,-0.06342561019729853,0.029338913205533695,-0.020602479683073938,0.07074298485627169,0.12667228928210944,0.03467769014563182,0.999320313354822,0.01612697688571502,-0.032247907571873756,0.0076749195555205554
2267.5833333345954,-0.01611877,-0.76039046,-0.020016065,-2.3837955,0.0012713228,1.556287,0.788739,0.04,0.039999913,-0.062146770477178315,0.029209476067763168,-0.021426042722838545,0.07236620487271703,0.12992683939615055,0.035572162199890726,0.9992665399161165,0.016751282962934266,-0.03349614186163987,0.007986563939072456
2267.6000000012623,-0.016749846,-0.7594588,-0.020792788,-2.38486,0.0013169632,1.5557187,0.7888452,0.04,0.03999991,-0.06411360312352787,0.028987276050171373,-0.022227043288314263,0.07399352131092617,0.133193466624767,0.03647647831454525,0.9992094097852255,0.017389672069911436,-0.03477301177490835,0.008306163618923603
2267.616666667929,-0.017395034,-0.7585065,-0.021586865,-2.385948,0.0013636242,1.5551379,0.7889536,0.04,0.039999906,-0.06189746666498408,0.028840032546006977,-0.022143537864538487,0.07562363380568268,0.13646361457510003,0.037390225283890056,0.9991488088740023,0.018042049953656356,-0.03607769200285385,0.0086337882114089
2267.633333334596,-0.018054374,-0.7575332,-0.022398353,-2.387059,0.0014113031,1.5545443,0.78906435,0.04,0.039999906,-0.06177141634240435,0.028652003121051872,-0.022680970581268056,0.07725674898005956,0.13974377967615556,0.038311445097679614,0.9990845825106333,0.01870846778732418,-0.03741040001499654,0.008969514664810612
2267.650000001263,-0.018727897,-0.7565391,-0.023227282,-2.3881938,0.0014600052,1.553938,0.7891775,0.04,0.039999902,-0.06253736993995229,0.028380779894011943,-0.023738746601442706,0.07889268799632483,0.14303356588603333,0.03924215640036623,0.9990165705721078,0.019388961478784786,-0.03877138217238523,0.009313421474496769
2267.66666666793,-0.019415619,-0.75552404,-0.024073685,-2.3893533,0.0015097318,1.5533189,0.789293,0.04,0.039999902,-0.06371235725319835,0.028077832809081382,-0.02473657719679334,0.08053013907640597,0.14632755956144378,0.04018153052247377,0.998944599364818,0.020083527571574535,-0.04016112195211997,0.009665588636600808
2267.6833333345967,-0.020117575,-0.754488,-0.024937604,-2.390537,0.0015604865,1.5526869,0.78941095,0.04,0.039999902,-0.06304284823717143,0.0278470778268404,-0.025124406820209444,0.08216934992039235,0.14962272918170444,0.04112955456348385,0.998868516640485,0.020792209894262854,-0.04157941716966011,0.01002609295694862
2267.7000000012636,-0.020833783,-0.75343096,-0.025819048,-2.3917446,0.0016122899,1.5520421,0.78953123,0.04,0.039999884,-0.06203405024642894,0.027542893682055286,-0.02556433808182934,0.08380906965154258,0.152918334049765,0.04208874318135972,0.9987881701582934,0.021514941438235742,-0.043026063902666174,0.010395011871140235
2267.7166666679304,-0.021564255,-0.7523528,-0.026718061,-2.3929758,0.0016651233,1.5513844,0.78965396,0.04,0.039999887,-0.06157904400434511,0.027288558891233605,-0.025970721300505595,0.08544926260625013,0.15621748645744044,0.04305366180614418,0.9987033962048528,0.022251783547509122,-0.044501007595214276,0.010772412026024721
2267.7333333345973,-0.022309013,-0.7512536,-0.027634628,-2.394231,0.0017189884,1.5507143,0.789779,0.04,0.039999884,-0.06181685696846628,0.02692771305164987,-0.02668132479934915,0.08708880401386512,0.1595175700066321,0.04402752548903669,0.9986140310651229,0.02300265948226971,-0.04600419143866642,0.011158359497835951
2267.750000001264,-0.023068052,-0.7501334,-0.028568769,-2.3955107,0.0017738923,1.5500311,0.78990656,0.04,0.03999989,-0.06211833694285129,0.026544065620563717,-0.027802365292384223,0.0887281296618773,0.1628180136409544,0.045009726399710584,0.998519884700312,0.02376763638091319,-0.047535975902468046,0.011552935295425646
2267.766666667931,-0.02384138,-0.74899215,-0.029520487,-2.396814,0.001829841,1.5493351,0.7900365,0.04,0.03999988,-0.060992107250945615,0.026213810371902846,-0.027997680693037097,0.09036569759705518,0.16611604640899363,0.04600083303674882,0.9984208014766782,0.024546639624114436,-0.04909597466735752,0.01195620898501923
2267.783333334598,-0.024629,-0.7478299,-0.030489786,-2.3981414,0.0018868231,1.5486262,0.7901688,0.04,0.039999876,-0.06069568146163107,0.025838317183104337,-0.028867995654735523,0.09200147586663308,0.16941319528340693,0.046999367214426366,0.9983166009904103,0.025339646113861143,-0.05068424765097444,0.012368248131122389
2267.800000001265,-0.025430903,-0.7466464,-0.031476647,-2.3994925,0.0019448323,1.5479045,0.7903036,0.04,0.039999872,-0.06066295832982682,0.025431941849077266,-0.029216743738946782,0.09363515794167762,0.17270801065665597,0.04800453552939149,0.9982071018436707,0.026146650833739737,-0.052300794724570124,0.012789110610854665
2267.8166666679317,-0.02624708,-0.7454419,-0.032481078,-2.4008684,0.0020038767,1.5471694,0.7904407,0.04,0.03999988,-0.06173368566662063,0.024934613521619686,-0.031053514527812354,0.09526582370060502,0.17599783831408014,0.04901926411370829,0.9980920890906383,0.02696755680702032,-0.053946208147123365,0.013218895607898042
2267.8333333345986,-0.027077524,-0.74421656,-0.033503048,-2.402268,0.0020639687,1.5464224,0.7905802,0.04,0.039999865,-0.059026327469391404,0.0246015367544275,-0.03007039850242421,0.09689393380366763,0.17927687359106714,0.050042164931451985,0.9979714455498002,0.027802395397098528,-0.05561914694788866,0.0136576414587044
2267.8500000012655,-0.027922211,-0.7429701,-0.03454253,-2.403692,0.0021250853,1.5456619,0.7907221,0.04,0.03999987,-0.06082430460436772,0.024024107743558787,-0.032240829220375744,0.09851795078154087,0.18255735044876353,0.051071783510414935,0.9978449164620268,0.028651045207710526,-0.05732082640305524,0.014105430155343598
2267.8666666679323,-0.02878113,-0.74170285,-0.035599522,-2.4051394,0.002187232,1.544889,0.7908665,0.04,0.039999865,-0.05802779803265601,0.02369042829928336,-0.03170645485202073,0.1001382972749314,0.18582259935368328,0.052109779841155404,0.9977123722673923,0.02951360045123992,-0.0590500531002455,0.014562308945873187
2267.8833333345992,-0.02965425,-0.7404145,-0.03667397,-2.4066107,0.0022504095,1.544103,0.7910132,0.04,0.039999858,-0.05889434148045325,0.023105584093544018,-0.032932316166478515,0.10175308403323091,0.18908525227229314,0.05315548011314044,0.9975735884628093,0.030389843180440444,-0.06080741383926496,0.01502835503580421
2267.900000001266,-0.03054154,-0.7391053,-0.037765857,-2.4081066,0.0023146248,1.5433047,0.79116213,0.04,0.03999985,-0.05931355086346013,0.022571861679442085,-0.03372026709298481,0.1033635520493551,0.19233837446555108,0.054209642448217285,0.9974283713670661,0.03127972038268441,-0.06259281175260044,0.01550364478846437
2267.916666667933,-0.031442977,-0.7377753,-0.038875137,-2.4096253,0.002379882,1.5424932,0.79131347,0.04,0.03999984,-0.05626865789789548,0.02212727951000082,-0.03401194198022761,0.10496915416206833,0.19557914071228366,0.05527150021839887,0.9972765538885922,0.03218323776630857,-0.06440567419519501,0.015988226994683184
2267.9333333346,-0.032358523,-0.7364245,-0.04000178,-2.4111676,0.0024461492,1.5416692,0.7914672,0.04,0.03999984,-0.05706139450165626,0.02158602692749756,-0.034651262973772745,0.10656846102419013,0.19881143708455185,0.05633887077014392,0.9971179284853309,0.03310033205513898,-0.06624608120665657,0.016482155069144983
2267.9500000012667,-0.033288132,-0.735053,-0.041145727,-2.4127333,0.0025134678,1.5408324,0.79162335,0.04,0.039999787,-0.056180212943535146,0.02096444902396216,-0.03556847676728925,0.10816252063456407,0.20203276500573933,0.05742168207261222,0.9969522931370115,0.03403095448469735,-0.06811396257130677,0.016985507014792345
2267.9666666679336,-0.034231767,-0.7336608,-0.042306926,-2.4143236,0.002581799,1.5399833,0.7917818,0.04,0.03999978,-0.05759305601606979,0.02034172959815006,-0.036580960458576506,0.10974828677008897,0.2052423361774113,0.058504191063458756,0.9967794246547224,0.03497493989124566,-0.07000957266679446,0.017498339910322732
2267.9833333346005,-0.035189398,-0.732248,-0.04348531,-2.4159381,0.0026511315,1.5391214,0.79194266,0.04,0.039999787,-0.05683973575609791,0.019736301287028024,-0.03756454791186137,0.11132734929583508,0.20843575877523063,0.05959313347610355,0.9965991036789156,0.03593229984036693,-0.07193295907976176,0.018020703998274303
2268.0000000012674,-0.036160957,-0.73081475,-0.044680823,-2.4175758,0.002721472,1.538247,0.79210585,0.04,0.039999787,-0.054265134498510115,0.019209875251964548,-0.03741868483184696,0.11289840898253047,0.21160916320937528,0.06068928701447363,0.9964111788653334,0.03690289525828205,-0.07388327430446524,0.018552647568582773
2268.0166666679343,-0.03714639,-0.7293609,-0.04589342,-2.419236,0.0027927987,1.5373604,0.7922714,0.04,0.039999783,-0.05282311563399311,0.01870013501458212,-0.03732951823973707,0.11446147913793639,0.21476986634056794,0.061791908603504364,0.9962154730224382,0.0378866556416754,-0.07586002777396057,0.019094209098643154
2268.033333334601,-0.038145646,-0.7278868,-0.047123,-2.4209197,0.0028651257,1.5364612,0.79243916,0.04,0.03999978,-0.05396543197830894,0.017862916212496582,-0.039359084645873565,0.11601575223724306,0.21791878919123694,0.06290237278763822,0.9960117284376752,0.0388834362085403,-0.07786379585424429,0.019645470174566228
2268.050000001268,-0.03915867,-0.72639245,-0.04836951,-2.4226263,0.002938465,1.5355496,0.79260933,0.04,0.039999776,-0.05239852643599274,0.017283991052960412,-0.039410780363380304,0.11756198772778363,0.22104954141786815,0.06402021601801296,0.9957997612135533,0.039893216482844183,-0.07989408600863164,0.020206480805139718
2268.066666667935,-0.040185403,-0.7248779,-0.049632877,-2.424356,0.0030127817,1.5346258,0.7927817,0.04,0.039999776,-0.05225231489551785,0.016627539379091005,-0.040226406405285964,0.11909823286706753,0.22416273897422045,0.06514308579916463,0.9955793558906484,0.040915815271302586,-0.08195087732515832,0.020777292669719824
2268.083333334602,-0.04122576,-0.72334343,-0.050913002,-2.4261086,0.0030880843,1.5336893,0.7929564,0.04,0.03999977,-0.05116629171892928,0.015862766978233522,-0.04118281139089408,0.12062529394646648,0.22725776206008833,0.06627385647587286,0.9953502996922301,0.04195116519119388,-0.0840340316186301,0.02135795335718781
2268.1000000012687,-0.042279687,-0.72178876,-0.0522098,-2.4278836,0.0031643715,1.532741,0.79313344,0.04,0.039999764,-0.050106282150608195,0.015272091242085617,-0.040819685326076716,0.12214220112652167,0.23033135706199903,0.06741007752559594,0.9951124151394497,0.04299918212473116,-0.0861429927090442,0.021948493776692304
2268.1166666679355,-0.04334711,-0.72021437,-0.053523183,-2.4296818,0.0032416368,1.5317807,0.79331267,0.04,0.03999977,-0.05029316510332116,0.014459150682991084,-0.04229341123658248,0.12364836717225883,0.23338648081529953,0.06855359905623533,0.9948654694961658,0.04405968682604835,-0.08827788426737944,0.022548985570065523
2268.1333333346024,-0.044427942,-0.71862036,-0.054853067,-2.4315023,0.0033198658,1.5308081,0.7934943,0.04,0.03999976,-0.048635116556261515,0.013755047378655183,-0.04294521861705203,0.12514402789468895,0.2364207147150748,0.06970157766217648,0.9946092525538144,0.04513264952277116,-0.09043847627405963,0.023159462226569442
2268.1500000012693,-0.045522112,-0.71700686,-0.056199342,-2.4333456,0.0033990634,1.5298237,0.793678,0.04,0.039999757,-0.048291925404164715,0.012993823073427502,-0.043393852978512726,0.12662810439183778,0.23943361657866707,0.07085693368901197,0.9943435694909996,0.04621780492887525,-0.0926244723854268,0.02377997970510899
2268.166666667936,-0.046629548,-0.7153738,-0.057561908,-2.435211,0.0034792128,1.5288274,0.79386395,0.04,0.03999975,-0.047104723064128606,0.012296920688652235,-0.043755701079595255,0.12810132635294083,0.24242392141488658,0.0720174994848071,0.9940682118967076,0.047315130093468646,-0.09483561045694229,0.024410562262671937
2268.183333334603,-0.047750145,-0.7137213,-0.058940664,-2.4370985,0.0035603154,1.5278194,0.79405206,0.04,0.039999746,-0.046537089247578045,0.011486453649534045,-0.0444792117151982,0.12956241677940375,0.24539046796345843,0.07318366320714174,0.9937829612395971,0.04842443059438767,-0.0970718013795833,0.025051264407002633
2268.20000000127,-0.048883818,-0.71204937,-0.0603355,-2.4390075,0.0036423665,1.5267997,0.79424244,0.04,0.039999746,-0.044751599687375965,0.010781666771138287,-0.044622392184878734,0.13101159980884955,0.24833361115167832,0.07435581739015386,0.9934876359241581,0.0495456437440908,-0.0993325131426628,0.02570210661743024
2268.216666667937,-0.050030485,-0.71035814,-0.0617463,-2.4409385,0.0037253613,1.5257682,0.7944349,0.04,0.039999735,-0.04493758412142945,0.00990578217166388,-0.04576470749961814,0.13244811261622416,0.2512523675085491,0.07553369812211184,0.9931819882420098,0.05067854374810865,-0.10161794931656576,0.02636315254129221
2268.2333333346037,-0.05119005,-0.7086482,-0.06317296,-2.4428911,0.0038092858,1.5247247,0.7946296,0.04,0.03999973,-0.04342125415164322,0.009097704807303764,-0.046576999849801126,0.13387197877847884,0.2541436924827553,0.07671586422178572,0.9928658245712786,0.05182304734436019,-0.1039276938686088,0.027034433774209863
2268.2500000012706,-0.052362405,-0.70691943,-0.06461533,-2.4448662,0.0038941319,1.5236698,0.7948264,0.04,0.039999727,-0.04404756023264067,0.008165411347721419,-0.04735267875790594,0.1352821999307467,0.2570096637120349,0.07790279868791744,0.9925389009116857,0.052978969199852,-0.10626186075018311,0.027715987253797147
2268.2666666679374,-0.053547457,-0.705172,-0.06607332,-2.4468615,0.0039798836,1.5226035,0.7950254,0.04,0.039999727,-0.03996104028280989,0.007642994809642367,-0.046534858849511807,0.13667904881446583,0.25984360300880444,0.0790938294046388,0.9922011111855088,0.05414622797739053,-0.10861923183205384,0.028407805868750545
2268.2833333346043,-0.0547451,-0.703406,-0.06754677,-2.4488778,0.004066568,1.521526,0.7952265,0.04,0.03999969,-0.04042914414048582,0.0066477517097845995,-0.047529035579252366,0.13806320391831425,0.2626532181897586,0.08029623662711019,0.9918522125141502,0.05532459984424055,-0.11099994677754049,0.02910994672345945
2268.300000001271,-0.05595523,-0.7016216,-0.06903559,-2.4509156,0.0041541713,1.5204372,0.79542965,0.04,0.039999664,-0.040360268442141134,0.0057445376218628885,-0.048611465171610746,0.1394323174502753,0.26543524767719623,0.08149957749974725,0.9914919660208746,0.05651390797352885,-0.1134040555883647,0.02982246967860253
2268.316666667938,-0.057177752,-0.6998191,-0.07053957,-2.4529746,0.0042426423,1.5193375,0.7956349,0.04,0.039999675,-0.03913269329061109,0.004878432059868265,-0.048964832841535966,0.14078643677449942,0.268186883846433,0.08270408956565414,0.9911201841282284,0.057714037488400705,-0.11583113846502889,0.030545340926387256
2268.333333334605,-0.058412537,-0.6979984,-0.07205865,-2.4550543,0.00433199,1.5182267,0.79584223,0.04,0.03999967,-0.03789537143183974,0.0040819583213308475,-0.04932521997906836,0.14212571164759344,0.2709080388363612,0.08391284870058319,0.9907366590653437,0.05892479125795873,-0.1182809754299022,0.03127862226182088
2268.350000001272,-0.059659474,-0.69615996,-0.07359266,-2.4571545,0.004422226,1.5171051,0.7960516,0.04,0.03999966,-0.036474582440182424,0.003199189262304003,-0.049699780197109966,0.14345077868938994,0.27359630577585586,0.08512743246760787,0.9903412165211458,0.06014603369722683,-0.1207530529855281,0.03202233102981927
2268.3666666679387,-0.060918458,-0.6943039,-0.07514146,-2.4592736,0.004513332,1.5159726,0.7962631,0.04,0.039999656,-0.033197454192812614,0.002562640918568615,-0.04906953212737708,0.14475985555002943,0.2762531462379809,0.08634424439757364,0.9899337420953598,0.06137762249044753,-0.12324641377206585,0.0327764429251015
2268.3833333346056,-0.06218936,-0.69243026,-0.07670491,-2.4614136,0.004605293,1.5148295,0.7964765,0.04,0.039999653,-0.0357476875992635,0.0013257538800021118,-0.05113781816241669,0.1460524495942476,0.278884104019413,0.08756537172324147,0.9895139098410678,0.06261927155801991,-0.12576186811524967,0.033541043346159156
2268.4000000012725,-0.06347204,-0.6905393,-0.078282826,-2.4635735,0.004698092,1.5136758,0.7966918,0.04,0.039999656,-0.033125265760980405,0.0005306946289168613,-0.05085681276186804,0.14732947198903396,0.28148002342856193,0.08878860947072255,0.9890815834878873,0.06387079974087156,-0.12829866365712514,0.03431610481028672
2268.4166666679394,-0.064766414,-0.6886311,-0.07987509,-2.4657524,0.0047917347,1.5125118,0.796909,0.04,0.03999964,-0.03126378899585003,-0.00017855890391271778,-0.0506246860887849,0.14859138232487668,0.2840406614463212,0.09001637944601697,0.9886366162435094,0.06513208046641396,-0.13085613369040722,0.03510164372644989
2268.4333333346062,-0.06607232,-0.68670607,-0.081481524,-2.4679513,0.004886206,1.5113375,0.79712826,0.04,0.039999645,-0.03174591341343902,-0.001364206607504248,-0.052105228463483755,0.14983662157500754,0.28657175909419463,0.09124643103497497,0.9881787385926611,0.06640297627869263,-0.13343455992046066,0.03589768172990265
2268.450000001273,-0.06738967,-0.68476427,-0.083102,-2.4701688,0.004981484,1.5101526,0.79734945,0.04,0.03999965,-0.028853584505661445,-0.002018985019319741,-0.05175250019808786,0.1510642046304302,0.28906597166268994,0.09247855389850679,0.9877078219435509,0.06768325934122037,-0.13603321249980613,0.0367042228286942
2268.46666666794,-0.06871827,-0.68280566,-0.08473631,-2.4724057,0.0050775786,1.5089574,0.79757255,0.04,0.039999638,-0.029328739225631395,-0.0031845749913606003,-0.05252418063483866,0.15227496060108475,0.29152541499131845,0.09371430958652813,0.9872236232703415,0.06897269872181269,-0.13865222035981073,0.03752127766086222
2268.483333334607,-0.07005803,-0.6808309,-0.086384304,-2.474661,0.005174479,1.5077527,0.79779756,0.04,0.039999638,-0.026876734107483813,-0.003886791493856734,-0.0520707671562759,0.15346895798108767,0.29394557427054724,0.0949513056172077,0.986726069149954,0.0702711489402089,-0.1412904718983602,0.038348828368568635
2268.5000000012737,-0.0714088,-0.67884004,-0.0880458,-2.4769351,0.005272166,1.5065379,0.79802424,0.04,0.039999634,-0.0262270789192387,-0.004944298633938193,-0.05294794938592862,0.1546446828864085,0.2963341207804876,0.09618998812825336,0.9862149283639037,0.07157827416244827,-0.14394808935557704,0.03918690228870564
2268.5166666679406,-0.07277044,-0.6768331,-0.08972067,-2.4792266,0.0053706304,1.5053133,0.79825276,0.04,0.03999963,-0.023790841773418947,-0.005624686056340811,-0.05236396931962428,0.15580385856460022,0.2986842831265642,0.09743063719722414,0.9856900756600511,0.07289400917629107,-0.14662434683053485,0.04003547287105032
2268.5333333346075,-0.074142806,-0.6748104,-0.091408685,-2.4815366,0.0054698684,1.5040793,0.79848313,0.04,0.039999627,-0.024515934648361437,-0.006828540318767895,-0.05339109916899787,0.15694473357218652,0.30100020411483847,0.09867339447461547,0.9851512870383851,0.07421812573148391,-0.14931928035169054,0.04089454700534491
2268.5500000012744,-0.07552575,-0.67277235,-0.0931097,-2.483864,0.005569846,1.5028356,0.79871523,0.04,0.03999963,-0.021766169895265364,-0.007604229435756449,-0.0533206311311929,0.15806750877975737,0.30327595428590925,0.09991613345103266,0.9845984395690751,0.075550374512062,-0.15203227555343082,0.04176411018177426
2268.5666666679413,-0.07691918,-0.670719,-0.09482351,-2.4862096,0.0056705754,1.5015829,0.79894906,0.04,0.039999627,-0.022000368619679023,-0.008638415245521003,-0.05379082657237522,0.15917205563070452,0.30551557852994443,0.10116096488006734,0.9840313358396116,0.0768905727968963,-0.15476318822445878,0.04264417277044416
2268.583333334608,-0.07832287,-0.66865057,-0.09654995,-2.488572,0.0057720505,1.5003203,0.7991847,0.04,0.039999623,-0.01915425489218414,-0.009486121574103779,-0.05358824950145724,0.16025822799543457,0.3077144521161438,0.1024066589835258,0.9834498374329494,0.07823852082577883,-0.15751152487593476,0.04353470619353597
2268.600000001275,-0.0797367,-0.6665673,-0.09828886,-2.490951,0.0058742464,1.4990494,0.79942197,0.04,0.039999627,-0.01840181050258849,-0.01028795072717803,-0.053109956275632086,0.16132501565837662,0.3098746515598329,0.10365162197374919,0.9828538705513251,0.07959399616675948,-0.16027643408283254,0.044435679292393115
2268.616666667942,-0.08116052,-0.6644692,-0.10004004,-2.4933474,0.0059771747,1.4977691,0.7996609,0.04,0.03999962,-0.01827707809518575,-0.011487456923972572,-0.0545047475960736,0.162373313774186,0.31199837338125763,0.10489838277833759,0.9822431237903456,0.08095676354296868,-0.1630585328737853,0.04534713949391231
2268.633333334609,-0.08259419,-0.66235673,-0.101803266,-2.495761,0.006080812,1.4964802,0.79990155,0.04,0.039999608,-0.016958496450314442,-0.01241177871415533,-0.0543117365019663,0.16340234268292828,0.3140770664328545,0.10614345983129632,0.9816175181417132,0.08232660881001501,-0.16585703071441885,0.04626902767232659
2268.6500000012757,-0.08403755,-0.6602302,-0.103578344,-2.4981904,0.006185116,1.4951826,0.8001437,0.04,0.03999961,-0.014321465395195077,-0.013132040354910113,-0.05376282396374332,0.16441161020886988,0.31611429759654275,0.1073859218376069,0.9809769765029676,0.08370327335701355,-0.1686711937655775,0.0472012922928217
2268.6666666679425,-0.085490435,-0.65808976,-0.10536514,-2.5006351,0.0062901042,1.4938763,0.8003875,0.04,0.039999608,-0.01250458365094076,-0.013919954554544867,-0.05346810588020556,0.16540214453390634,0.3181105864267625,0.10862969570311767,0.9803213771089734,0.08508660542919877,-0.17150052356278941,0.048143925654133946
2268.6833333346094,-0.08695268,-0.6559354,-0.107163414,-2.5030959,0.006395766,1.4925618,0.80063283,0.04,0.03999959,-0.012797852494750295,-0.015072352664358135,-0.05398826274958246,0.1663729109517614,0.3200668414374303,0.10987385578393898,0.9796505257308443,0.08647633001713226,-0.17434501931544674,0.049096904402873516
2268.7000000012763,-0.08842413,-0.6537676,-0.10897294,-2.5055716,0.0065020905,1.4912393,0.80087984,0.04,0.039999563,-0.010332998227857715,-0.01581005935719082,-0.05330138599051182,0.16732473051646765,0.3219804585982746,0.11111795845556562,0.9789643769142541,0.08787230326384396,-0.1772038052685836,0.050060148325060366
2268.716666667943,-0.08990459,-0.65158653,-0.110793576,-2.5080628,0.0066090627,1.4899085,0.8011282,0.04,0.039999556,-0.010135929754317985,-0.016948235673985845,-0.0542884119670628,0.16825488482060263,0.3238538872652982,0.11235868647992862,0.9782627129784608,0.08927413549584866,-0.18007707648283444,0.05103371094566489
2268.73333333461,-0.09139396,-0.64939255,-0.112625055,-2.5105686,0.0067166695,1.4885695,0.8013781,0.04,0.039999556,-0.007795207097216483,-0.017658494731304097,-0.05352480834692752,0.16916535514407255,0.3256824074773333,0.11359626983887436,0.9775454875651648,0.09068169249658925,-0.18296401515405156,0.052017492688961754
2268.750000001277,-0.09289203,-0.647186,-0.1144672,-2.513089,0.0068249097,1.4872227,0.8016296,0.04,0.03999954,-0.0067788257795076134,-0.01863482858381893,-0.05357872720090917,0.17005560650065496,0.327467695155187,0.11483135064920605,0.976812577812812,0.09209482283951616,-0.1858642440694118,0.05301145356763437
2268.766666667944,-0.094398625,-0.64496684,-0.1163198,-2.5156238,0.0069337487,1.4858682,0.8018824,0.04,0.039999552,-0.006110287523353186,-0.019571329720582953,-0.053564930728944304,0.17092384573487873,0.32920976746321984,0.11606337257431093,0.976063858731131,0.09351309632650466,-0.18877754646837291,0.05401557593607601
2268.7833333346107,-0.09591359,-0.64273554,-0.11818263,-2.5181723,0.0070431847,1.4845064,0.80213654,0.04,0.03999954,-0.0036889513883586744,-0.020256309033578335,-0.0527293761642067,0.17177247558379805,0.33090566268088994,0.11729178508813615,0.9752993137908237,0.094936368281212,-0.191703046987394,0.055029776234975736
2268.8000000012776,-0.09743676,-0.6404923,-0.1200555,-2.5207345,0.0071531856,1.4831372,0.80239207,0.04,0.03999955,-0.0031414403132812296,-0.021233587467406334,-0.05301851821291059,0.17259998125024797,0.3325609648597874,0.11851714849784967,0.9745187968755696,0.09636441028747443,-0.19464059704179706,0.05605401813743903
2268.8166666679444,-0.09896795,-0.6382374,-0.12193818,-2.5233107,0.007263763,1.4817609,0.80264884,0.04,0.039999545,-0.0022489942396397566,-0.022256176322998922,-0.05315182814340513,0.17340658148072588,0.3341703414814034,0.11973892044457077,0.9737221831939078,0.09779691073401063,-0.19758998567803765,0.0570882804674175
2268.8333333346113,-0.10050696,-0.6359712,-0.12383047,-2.5259001,0.007374891,1.4803777,0.80290705,0.04,0.039999545,-0.0005824669908394142,-0.022991077292253137,-0.05247512131663079,0.17419326139658564,0.3357332451952529,0.12095683561494286,0.9729094421585518,0.09923374411609694,-0.20055048726901636,0.05813246462688969
2268.850000001278,-0.102053635,-0.6336936,-0.1257321,-2.5285015,0.0074865525,1.4789878,0.8031665,0.04,0.039999545,0.0019985107974518357,-0.02353796838916178,-0.05109965586169718,0.17495744934544472,0.3372494034816982,0.12216885667306551,0.9720805898755678,0.10067461461683684,-0.20352128186048105,0.05918645612626422
2268.866666667945,-0.10360781,-0.63140494,-0.12764293,-2.5311155,0.007598747,1.4775912,0.8034272,0.04,0.03999954,0.00198173627208309,-0.024620327008842424,-0.05195552515193658,0.17570059361603338,0.33872547873853587,0.12337828464560714,0.9712354331407721,0.10211929757070444,-0.20650250790459215,0.0602502838552355
2268.883333334612,-0.10516931,-0.62910587,-0.12956269,-2.5337424,0.0077114683,1.4761873,0.8036892,0.04,0.039999537,0.0028819297378523956,-0.025755366311114303,-0.05254164234551606,0.1764224449530333,0.34015357877005364,0.12458234467371965,0.9703738370253131,0.10356750418944055,-0.20949407461873398,0.061323903923197524
2268.900000001279,-0.10673789,-0.62679625,-0.13149112,-2.53638,0.007824685,1.4747778,0.80395234,0.04,0.03999954,0.006322048731721708,-0.025849217793424972,-0.04934953179762669,0.1771226918621435,0.34152994121896807,0.12577859565673427,0.9694960376565265,0.10501903376020302,-0.21249421318917608,0.06240708996164964
2268.9166666679457,-0.10831344,-0.6244767,-0.13342807,-2.5390296,0.007938391,1.473362,0.80421656,0.04,0.039999537,0.005881401740026604,-0.02711558434614625,-0.051001786289650575,0.17780053703038856,0.34286720328339276,0.12697074299394562,0.9686017863027677,0.10647358163418394,-0.21550340545596453,0.06349990725944707
2268.9333333346126,-0.10989574,-0.6221472,-0.13537325,-2.5416903,0.0080525745,1.4719396,0.804482,0.04,0.039999537,0.007553804180560064,-0.027913212041988378,-0.050447974811773655,0.178457486347039,0.3441559989866994,0.1281569628182818,0.9676910146032575,0.10793094277303905,-0.2185213071353265,0.06460224590607873
2268.9500000012795,-0.11148464,-0.61980826,-0.1373265,-2.544362,0.008167215,1.470512,0.8047486,0.04,0.039999533,0.008825105661647292,-0.028411546122514286,-0.049069899734321965,0.17909242770494116,0.34539508832552185,0.1293352708216722,0.966763828491204,0.1093909523416635,-0.22154681565973663,0.06571398586179643
2268.9666666679464,-0.113079935,-0.61746,-0.13928752,-2.547044,0.008282314,1.4690783,0.8050162,0.04,0.03999953,0.010612927305975184,-0.02930920965996675,-0.04912940919707953,0.1797045715303245,0.34659127872144296,0.13050881319929666,0.9658201113439652,0.11085324267989634,-0.22457992476802124,0.06683508436497103
2268.9833333346132,-0.11468141,-0.61510247,-0.14125606,-2.5497375,0.008397847,1.4676397,0.8052848,0.04,0.039999537,0.009555354060397647,-0.030389254887119854,-0.049130379965145465,0.18029483606510538,0.34773871992398814,0.1316734450008663,0.9648597737767804,0.11231752519759385,-0.2276204895364149,0.06796545610904764
2269.00000000128,-0.11628889,-0.61273676,-0.14323193,-2.5524397,0.00851381,1.4661946,0.80555433,0.04,0.03999953,0.01479450883481448,-0.030616669768596116,-0.047745873101789904,0.18086379048218493,0.3488347985282034,0.13283018802297328,0.9638829642838341,0.11378358069079218,-0.23066735161070934,0.06910499858542846
2269.016666667947,-0.11790219,-0.6103619,-0.14521495,-2.5551524,0.008630176,1.4647454,0.80582494,0.04,0.039999533,0.012079254245045412,-0.03155709472020818,-0.047374916543918566,0.18141065810829818,0.3498861502177786,0.13397845972533456,0.9628895243171393,0.11525128928307277,-0.23372063285669556,0.07025361240511807
2269.033333334614,-0.11952113,-0.60797924,-0.14720477,-2.5578744,0.008746935,1.4632913,0.8060964,0.04,0.03999953,0.015604580114669808,-0.032181098487515936,-0.046667112297105184,0.1819345308876238,0.3508871155684389,0.13511810983735506,0.9618796073416962,0.11672025316236773,-0.23677931772342745,0.07141119086197484
2269.0500000012808,-0.12114552,-0.6055888,-0.14920123,-2.5606053,0.00886408,1.461831,0.8063689,0.04,0.039999522,0.016838822862874636,-0.03305190199436869,-0.047011697379673034,0.18243656349488252,0.35184120517813755,0.13624960667456695,0.9608530053491525,0.118190320289818,-0.23984376025290377,0.07257768919605527
2269.0666666679476,-0.12277513,-0.6031906,-0.15120408,-2.5633447,0.008981579,1.4603666,0.8066422,0.04,0.039999522,0.01760401560784164,-0.03336577934937579,-0.04486508052070626,0.18291529561160474,0.352742624048071,0.13736957441173608,0.9598099452469093,0.11966118295128692,-0.24291269037288826,0.07375293320017003
2269.0833333346145,-0.12440976,-0.60078514,-0.15321304,-2.5660923,0.009099418,1.4588984,0.80691624,0.04,0.03999953,0.01917603252028499,-0.03398221001538748,-0.04396286702889052,0.18337188190364173,0.3535984706732773,0.1384803177642834,0.9587505050744863,0.12113258896207718,-0.24598545448298267,0.07493678064583567
2269.1000000012814,-0.12604925,-0.5983729,-0.15522785,-2.5688481,0.009217577,1.4574262,0.8071911,0.04,0.03999954,0.01984539584425349,-0.03485412965952284,-0.04414838268352872,0.18380592773666718,0.3544097710390729,0.13958192252661988,0.9576746184960967,0.12260428379417354,-0.24906197074228115,0.07612916270158633
2269.1166666679483,-0.12769338,-0.5959536,-0.15724836,-2.5716124,0.009336066,1.45595,0.8074668,0.04,0.039999533,0.020148723402524382,-0.035579871549457076,-0.04376929029694665,0.18421780981261535,0.3551725718725564,0.1406739078886719,0.9565821931954699,0.12407610341554284,-0.2521422191996199,0.07733000400653822
2269.133333334615,-0.12934197,-0.5935281,-0.15927431,-2.5743842,0.0094548715,1.4544699,0.8077432,0.04,0.039999537,0.022336716777404675,-0.03605684028276657,-0.04276686533520868,0.18460724631834002,0.35588192229830135,0.1417538548216698,0.9554733810840224,0.12554769816483116,-0.2552253661092796,0.07853920052918172
2269.150000001282,-0.13099483,-0.5910966,-0.1613054,-2.577163,0.009573976,1.452986,0.8080203,0.04,0.03999953,0.023901787152702525,-0.03651628268434015,-0.04160815177260968,0.18497393856716818,0.35654391575164396,0.14282313921445478,0.9543482587789657,0.12701886437181856,-0.2583108526597903,0.07975658253349294
2269.166666667949,-0.1326518,-0.5886591,-0.16334136,-2.579948,0.009693354,1.4514983,0.8082981,0.04,0.03999953,0.025348659277413255,-0.0368917581116901,-0.040534045840912025,0.18531778084824438,0.35715639210404326,0.14387910493829859,0.9532068776241795,0.12848940716517734,-0.2613982315635597,0.08098200560462311
2269.183333334616,-0.1343126,-0.58621615,-0.16538201,-2.5827386,0.009812994,1.4500068,0.80857646,0.04,0.039999533,0.026822358174127814,-0.03740935517639876,-0.03956697175350188,0.18563817192138474,0.3577201560780615,0.1449235464579465,0.952049353434313,0.12995897910492973,-0.2644869103158472,0.08221536746185705
2269.2000000012827,-0.13597703,-0.58376783,-0.1674271,-2.5855353,0.009932887,1.448512,0.80885553,0.04,0.039999533,0.027060568133685514,-0.03812751723611951,-0.03923769603121352,0.18593654280169755,0.35823608527592565,0.14595595816964288,0.9508756556584724,0.1314274255357467,-0.2675767668023871,0.08345653455959551
2269.2166666679495,-0.13764493,-0.5813147,-0.16947633,-2.5883377,0.010053009,1.4470134,0.8091351,0.04,0.039999537,0.0283128489221518,-0.038711657024009805,-0.03877565722849585,0.18621147510861435,0.35870238143614364,0.14697485305930097,0.9496858417943487,0.13289438740285972,-0.2706674624940559,0.08470542154553508
2269.2333333346164,-0.13931611,-0.57885677,-0.17152955,-2.5911458,0.010173356,1.4455129,0.8094152,0.04,0.039999537,0.02856605043191074,-0.03892786802056625,-0.03699130716419141,0.18646419690754165,0.35911696874849275,0.1479795154737238,0.9484801215703436,0.13435978688296357,-0.27375804980954516,0.0859618335026981
2269.2500000012833,-0.1409903,-0.5763946,-0.17358635,-2.5939589,0.010293911,1.4440099,0.8096957,0.04,0.039999537,0.03041716810345818,-0.039516585931437254,-0.03621934720833275,0.18669402045630576,0.35948326740706416,0.14897115368096933,0.9472586012207049,0.1358231856758416,-0.2768481466348086,0.08722561751647862
2269.26666666795,-0.14266734,-0.57392853,-0.17564665,-2.596776,0.010414659,1.4425036,0.809977,0.04,0.03999953,0.032354588105687476,-0.0397444686731141,-0.0354254429706824,0.18690121904078694,0.35980296640500914,0.14994868990878055,0.9460212877964205,0.13728460124761752,-0.27993750038081566,0.08849665065315035
2269.283333334617,-0.14434697,-0.5714587,-0.17771004,-2.5995982,0.010535561,1.4409957,0.8102585,0.04,0.03999955,0.031480777192260945,-0.04046880523859153,-0.03455546548722932,0.1870835918061174,0.3600712887357307,0.15091004387547224,0.9447683660912123,0.13874351276304692,-0.28302555251533645,0.08977476662682006
2269.300000001284,-0.14602906,-0.56898534,-0.17977636,-2.6024237,0.0106566325,1.4394852,0.81054044,0.04,0.03999954,0.034241181045957525,-0.04043800535130093,-0.03313402728448711,0.18724516268684663,0.36029096712453096,0.1518580815860674,0.9434999324024588,0.14019984176331451,-0.2861118458712443,0.09105983515385281
2269.316666667951,-0.1477134,-0.5665088,-0.18184537,-2.6052532,0.010777853,1.4379731,0.81082267,0.04,0.039999545,0.03386909565006313,-0.041036726353377295,-0.032570984002788794,0.1873837012895967,0.36046141062954296,0.15279015484840974,0.9422161020276835,0.1416533160079083,-0.28919597663895596,0.09235173111296748
2269.3333333346177,-0.14939977,-0.5640296,-0.18391676,-2.6080856,0.010899201,1.436459,0.81110513,0.04,0.03999955,0.03608965808119535,-0.04118127142878625,-0.031203847792948824,0.1874985231538916,0.36058342389303,0.15370571700090552,0.9409170443601848,0.1431036653629293,-0.29227740782196243,0.09365027212487423
2269.3500000012846,-0.15108798,-0.56154776,-0.18599038,-2.6109216,0.011020681,1.4349436,0.81138813,0.04,0.03999954,0.03555226651155152,-0.04175299094251739,-0.030724078495958373,0.18759228275875545,0.36065463031677314,0.1546053720710454,0.9396028088534985,0.14455083710650185,-0.2953558975778946,0.09495530976402401
2269.3666666679514,-0.1527778,-0.55906373,-0.18806584,-2.6137593,0.011142254,1.4334259,0.8116713,0.04,0.03999955,0.03860630819509936,-0.04165363250399068,-0.028890581791096714,0.1876611850382252,0.36067707885725986,0.15548814023613358,0.9382736327653953,0.14599440750097298,-0.2984308204410471,0.09626665282719397
2269.3833333346183,-0.15446901,-0.55657786,-0.19014293,-2.6166003,0.011263909,1.4319078,0.8119547,0.04,0.03999955,0.03691507191927457,-0.0424831854006158,-0.028774164731304452,0.18770753023487277,0.36065088118864413,0.15635343471684252,0.9369296152657822,0.14743415525899917,-0.3015019015304619,0.09758416508068368
2269.400000001285,-0.15616144,-0.5540903,-0.1922214,-2.619443,0.011385645,1.4303888,0.8122383,0.04,0.03999955,0.03935256407598953,-0.042171259180912024,-0.026665467912745378,0.18773159281796206,0.3605734094846835,0.15720008993546317,0.9355710067068476,0.14886996234766506,-0.30456839149394543,0.09890763682816173
2269.416666667952,-0.15785487,-0.5516013,-0.19430102,-2.6222863,0.011507432,1.428869,0.8125221,0.04,0.039999552,0.04084661471259743,-0.042102535505911254,-0.025030503342116095,0.18773265161032532,0.3604483360049041,0.15803000744072748,0.9341980230375002,0.1503016413214538,-0.3076297157791084,0.10023686117675568
2269.433333334619,-0.15954913,-0.5491115,-0.19638152,-2.625131,0.011629265,1.4273477,0.81280595,0.04,0.039999556,0.04125708895339475,-0.04286036954318506,-0.02544924526125536,0.18770996513294036,0.36027758317206404,0.15884220938203097,0.9328106587874833,0.15172879391143465,-0.31068604040025427,0.10157180834786013
2269.450000001286,-0.16124392,-0.54662097,-0.19846268,-2.627977,0.01175114,1.4258262,0.81308985,0.04,0.039999552,0.040974793720005565,-0.043088028233184694,-0.024012134032136423,0.18766582088526484,0.36005588015499546,0.15963552070392098,0.9314091571148628,0.15315125157199014,-0.31373674564590304,0.10291224716248097
2269.4666666679527,-0.1629391,-0.54413,-0.20054422,-2.6308239,0.011873014,1.4243046,0.8133738,0.04,0.03999956,0.041965017994782805,-0.04311932872213542,-0.02288490007026356,0.18759831393221418,0.3597844885579,0.16040702359697562,0.9299936930572529,0.15456884494129805,-0.31678142945839416,0.1042579924875859
2269.4833333346196,-0.16463447,-0.5416391,-0.20262583,-2.6336706,0.011994875,1.422783,0.81365776,0.04,0.039999586,0.04380393531300264,-0.04286217536672576,-0.020802284063614618,0.18750530599026374,0.3594643721305866,0.16115648716754033,0.9285646170216734,0.155981354994384,-0.3198192503502655,0.10560878758372047
2269.5000000012865,-0.16632982,-0.5391483,-0.20470731,-2.636517,0.012116718,1.4212614,0.8139417,0.04,0.039999604,0.04405488166090432,-0.04310904582270347,-0.020177153275180437,0.18739158321712307,0.35909776200419496,0.1618884406946455,0.9271220116427379,0.15738859511457007,-0.3228501180956493,0.10696451234409637
2269.5166666679534,-0.1680249,-0.536658,-0.20678839,-2.639363,0.0122385295,1.41974,0.81422555,0.04,0.039999604,0.044773518652019284,-0.0432828037062849,-0.019131142624484454,0.18725589421267233,0.35868126606007356,0.16260074441808745,0.9256660933690274,0.15879027538476664,-0.3258736398792177,0.10832498724681543
2269.5333333346202,-0.16971952,-0.5341685,-0.20886883,-2.642208,0.012360298,1.4182187,0.8145094,0.04,0.039999604,0.045589475174168115,-0.04323981306383895,-0.017848128495445703,0.18709834602475703,0.3582171405060953,0.16329233658114337,0.9241970664036504,0.16018627783343664,-0.3288894067353746,0.10969000402046135
2269.550000001287,-0.17141351,-0.5316803,-0.21094835,-2.6450515,0.012482,1.4166993,0.8147932,0.04,0.03999961,0.04652367093451737,-0.04267870584909739,-0.015208203594763159,0.18691738859274618,0.357704291589248,0.16396196207273356,0.922715478674034,0.16157652213074955,-0.3318960951319289,0.11105924071259145
2269.566666667954,-0.17310664,-0.5291935,-0.21302669,-2.647893,0.012603613,1.4151806,0.81507677,0.04,0.039999623,0.04720091922576497,-0.04303207049723978,-0.015052194551179454,0.1867123772470774,0.3571512710916801,0.16461278629715947,0.9212213371739421,0.16296059804335322,-0.33489400643024764,0.11243262817307126
2269.583333334621,-0.17479864,-0.5267084,-0.21510358,-2.6507323,0.01272516,1.4136628,0.81536007,0.04,0.039999615,0.04765248858387139,-0.043105074247584696,-0.013890817290718172,0.18648673898359125,0.3565512182890267,0.16524352730579703,0.919714859571724,0.1643383233001814,-0.33788279849017444,0.11380996029476952
2269.6000000012878,-0.17648941,-0.5242255,-0.21717876,-2.65357,0.012846581,1.4121454,0.81564325,0.04,0.03999963,0.047712308738101505,-0.043565488152685905,-0.014184952008600149,0.18623678554781747,0.3559052231077075,0.16584926822478907,0.9181960339972257,0.16570952071569178,-0.3408627369256326,0.11519111281478474
2269.6166666679546,-0.17817862,-0.5217449,-0.21925202,-2.6564052,0.012967887,1.4106306,0.8159261,0.04,0.039999627,0.048112409596745564,-0.04284417643508065,-0.011001437581426021,0.18596628928113074,0.3552062531903548,0.16643238840223398,0.9166655363645565,0.1670740121237608,-0.3438323155243037,0.11657575955379759
2269.6333333346215,-0.17986618,-0.51926696,-0.2213231,-2.6592367,0.0130890645,1.409117,0.8162086,0.04,0.039999627,0.050170486247447243,-0.04242669168141311,-0.009738365093725498,0.18567336085475739,0.3544652131669753,0.1669933746185472,0.915123512299221,0.16843167060566558,-0.3467914160406754,0.11796373737138634
2269.6500000012884,-0.18155186,-0.5167919,-0.22339177,-2.662065,0.013210087,1.4076055,0.8164907,0.04,0.03999963,0.04932833408484161,-0.04267989984864662,-0.009162391017891736,0.1853577607045555,0.3536792160267922,0.16753148845087157,0.9135701742342326,0.1697822595775476,-0.3497398114298531,0.1193548716365899
2269.6666666679553,-0.18323545,-0.5143202,-0.22545776,-2.6648898,0.013330937,1.4060956,0.8167726,0.04,0.039999634,0.0503588642804198,-0.04263676111675996,-0.008297681535274215,0.18501913270149004,0.3528481585338395,0.1680453594514918,0.9120057086105033,0.17112564009721926,-0.3526773204743586,0.12074895604599314
2269.683333334622,-0.18491675,-0.511852,-0.22752078,-2.6677103,0.013451614,1.4045883,0.81705403,0.04,0.03999963,0.05083813773554269,-0.04203162336555155,-0.00600298312238845,0.1846589465005004,0.35196926614566243,0.16853518960475977,0.9104305947644342,0.17246164480053525,-0.3556030630194307,0.12214571118451703
2269.700000001289,-0.18659547,-0.50938785,-0.22958063,-2.6705263,0.013572074,1.4030825,0.817335,0.04,0.03999964,0.05168935786432627,-0.042227963271884716,-0.0058315614145598715,0.18427436532019253,0.3510488245463913,0.16900092212252746,0.9088448971048029,0.17378996103654432,-0.35851726520404936,0.12354502418181777
2269.716666667956,-0.18827146,-0.5069278,-0.23163699,-2.6733372,0.013692341,1.40158,0.8176155,0.04,0.039999634,0.05162565100353955,-0.04148593796768352,-0.0032168359375250866,0.18387063605588422,0.35007963319189184,0.16944193540154665,0.9072491966575609,0.17511057394809912,-0.36141879085539597,0.12494654726082395
2269.733333334623,-0.18994454,-0.50447226,-0.23368967,-2.6761436,0.013812378,1.40008,0.81789553,0.04,0.039999645,0.051573634439483484,-0.04191513368375088,-0.0036476113299821478,0.18344351753292532,0.3490713101490981,0.16985947884780508,0.9056434765851306,0.1764232301818266,-0.36430806093474044,0.12635020343860803
2269.7500000012897,-0.1916145,-0.5020216,-0.23573835,-2.6789453,0.013932172,1.3985821,0.8181751,0.04,0.03999965,0.052069168486079676,-0.04186588629303545,-0.002884747591502812,0.18299434134117165,0.3480155175051143,0.17024988905288485,0.9040279314785535,0.17772772000661333,-0.3671849847718566,0.12775579676065582
2269.7666666679565,-0.19328113,-0.49957603,-0.23778284,-2.68174,0.014051709,1.3970878,0.81845397,0.04,0.039999656,0.0537321072529684,-0.04011220083068867,0.0013095771011606416,0.18252412469931925,0.3469108986927166,0.17061307642325452,0.902403409953161,0.17902403226786143,-0.37004786147452334,0.12916292731892873
2269.7833333346234,-0.19494422,-0.4971356,-0.23982283,-2.6845288,0.014170985,1.3955972,0.8187322,0.04,0.03999966,0.052637946789535484,-0.04062360275959298,0.0009807391974536728,0.18203208608102533,0.34576958376079636,0.1709532472593443,0.9007699404521061,0.180311929331001,-0.3728970608199921,0.1305714538122804
2269.8000000012903,-0.19660358,-0.4947009,-0.24185824,-2.6873116,0.0142899845,1.3941103,0.8190099,0.04,0.039999656,0.05284220501606818,-0.040434073182510355,0.001698268519012558,0.18151863965855122,0.34458554480341835,0.17126800252794988,0.8991277673709899,0.18159134004592883,-0.37573235097151225,0.13198122440788035
2269.816666667957,-0.19825901,-0.4922722,-0.24388863,-2.690088,0.014408687,1.3926271,0.8192869,0.04,0.03999966,0.05329829484497228,-0.04011737341684807,0.0029955051547236877,0.1809826486557084,0.3433577420652018,0.17155549195717432,0.8974772304639969,0.18286198713657395,-0.3785534261064936,0.13339197143071574
2269.833333334624,-0.19991028,-0.48984975,-0.24591383,-2.6928573,0.014527094,1.3911476,0.8195632,0.04,0.039999656,0.05394200336485966,-0.03951540143118937,0.004528155200500539,0.1804260064737851,0.3420860013760968,0.1718160482894191,0.8958186735549506,0.1841237964707031,-0.3813598762919941,0.13480347339003892
2269.850000001291,-0.20155726,-0.48743385,-0.24793358,-2.695619,0.014645149,1.3896722,0.81983876,0.04,0.03999967,0.054007079930995516,-0.039049844221156205,0.005733532830709542,0.1798463434519544,0.3407737257522476,0.17204927014696278,0.8941524504783124,0.18537661371792297,-0.38415132974486205,0.1362154992846247
2269.866666667958,-0.20319968,-0.48502472,-0.24994765,-2.698373,0.014762865,1.3882008,0.82011336,0.04,0.03999967,0.05433469045410533,-0.03862239258981548,0.006997727980273538,0.17924650721775162,0.33941854170385055,0.17225520363188532,0.8924788903905821,0.1866202140724688,-0.3869275096229178,0.13762786129177484
2269.8833333346247,-0.2048374,-0.48262277,-0.25195584,-2.7011182,0.014880232,1.3867335,0.8203873,0.04,0.03999967,0.055173051187340505,-0.03771897221565568,0.008901662733329374,0.1786263619099319,0.3380220201638974,0.17243329834227525,0.8907984293966058,0.187854680255339,-0.38968780614929693,0.1390402496734403
2269.9000000012916,-0.20647015,-0.4802283,-0.25395784,-2.7038548,0.014997219,1.3852704,0.8206604,0.04,0.039999682,0.0548858444837208,-0.037737022126121955,0.009253376438189687,0.17798260416697956,0.3365884992130472,0.17258483303703948,0.8891112726446836,0.18907971313836286,-0.3924322930420909,0.1404524913036151
2269.9166666679585,-0.20809777,-0.4778415,-0.25595343,-2.7065823,0.015113824,1.3838111,0.8209325,0.04,0.03999972,0.05516639637004328,-0.0372030057311179,0.010391893503713945,0.17731645764097514,0.33511315377810513,0.17270578152853958,0.8874177247877273,0.19029513369175224,-0.3951607661653046,0.141864416643008
2269.9333333346253,-0.20972012,-0.47546273,-0.25794235,-2.7093008,0.015230037,1.3823572,0.82120377,0.04,0.039999723,0.05458010608632158,-0.03654488539254208,0.012048925069074734,0.17663302237467793,0.3335956532302262,0.17280005269504847,0.8857183167561656,0.19150099880148003,-0.3978724797257083,0.14327568076116792
2269.950000001292,-0.21133693,-0.4730922,-0.25992444,-2.7120097,0.0153458435,1.380909,0.8214741,0.04,0.03999973,0.05467137096177854,-0.035898372890258434,0.013412648563404517,0.17592831915442553,0.33204035989257286,0.17286703575293222,0.884013433247667,0.19269716699493103,-0.40056708839414473,0.14468607177346998
2269.966666667959,-0.21294802,-0.4707304,-0.2618993,-2.7147098,0.0154612055,1.3794651,0.8217434,0.04,0.039999746,0.0544376943595104,-0.03646595105977202,0.012487162266006102,0.17520051370063466,0.3304500142338017,0.17290537221377028,0.8823030167478276,0.19388330618888064,-0.4032452900610809,0.1460954696850869
2269.983333334626,-0.2145532,-0.46837735,-0.26386678,-2.7173998,0.015576137,1.3780273,0.82201177,0.04,0.03999974,0.05451587434399663,-0.03488876919945927,0.015600518500225036,0.17445614831954845,0.32881331746064013,0.17291349851414198,0.8805878361098063,0.19505951474724206,-0.40590585339159907,0.14750351448171298
2270.000000001293,-0.21615231,-0.46603346,-0.26582673,-2.7200785,0.015690614,1.3765948,0.8222791,0.04,0.03999975,0.05589921560413824,-0.03375361295460677,0.017383695180939185,0.1736897730082497,0.3271421622111795,0.17289395246504138,0.8788682945425202,0.1962257278694349,-0.40854840817496746,0.14890998202851444
2270.0166666679597,-0.21774513,-0.46369898,-0.26777887,-2.7227473,0.015804628,1.3751682,0.82254547,0.04,0.039999746,0.053928616449083755,-0.03441090478342179,0.0165136048928205,0.17290248515952633,0.32543604327445,0.17284636790452845,0.877144461546834,0.19738176421211717,-0.4111733420825609,0.15031472148423877
2270.0333333346266,-0.21933147,-0.46137425,-0.26972288,-2.7254047,0.015918177,1.3737471,0.8228106,0.04,0.039999753,0.055321837976829435,-0.03307042488199241,0.018835804832362246,0.1720950141852341,0.3236888345520477,0.17276817279447357,0.8754168980527095,0.19852743302162373,-0.413780040928785,0.15171746989252688
2270.0500000012935,-0.22091115,-0.45905948,-0.2716586,-2.7280512,0.016031237,1.3723325,0.8230746,0.04,0.039999753,0.054214857700785046,-0.0327511730420782,0.01947280308061128,0.17126875076900713,0.3219059078414829,0.17266065905948155,0.8736859411159592,0.19966272881219974,-0.41636829072582376,0.15311798554592604
2270.0666666679604,-0.22248401,-0.45675483,-0.2735857,-2.7306857,0.016143795,1.3709236,0.8233375,0.04,0.039999757,0.05489556439379761,-0.0318762435965847,0.020802671627695446,0.17042252483671674,0.3200877497586774,0.17252407447342052,0.8719519185597202,0.20078758346348355,-0.4189379474067744,0.15451600004373675
2270.0833333346272,-0.2240498,-0.4544608,-0.2755042,-2.7333083,0.016255831,1.3695211,0.8235993,0.04,0.03999976,0.0544993689045814,-0.03128011835841216,0.021716703207619314,0.1695558183725705,0.3182321921018374,0.17235700029169473,0.8702152405241619,0.20190193191329392,-0.4214886638642233,0.15591135713316878
2270.100000001294,-0.2256084,-0.4521775,-0.27741373,-2.7359183,0.016367357,1.3681257,0.8238599,0.04,0.039999757,0.05437608984861786,-0.030215901568170223,0.02359924731771823,0.16867059434624493,0.3163419830660302,0.1721619331404447,0.8684764666642171,0.2030057438816062,-0.42401985238092255,0.15730371765592047
2270.116666667961,-0.22715963,-0.44990516,-0.27931404,-2.7385166,0.016478335,1.366737,0.82411915,0.04,0.039999764,0.0533178300202497,-0.030522067529553665,0.022838320053519823,0.1677635128253272,0.31441998236281676,0.17193674951281127,0.8667356322735509,0.20409878498594614,-0.42653201720013834,0.15869299927157957
2270.133333334628,-0.22870332,-0.44764417,-0.2812049,-2.7411013,0.016588757,1.3653549,0.82437706,0.04,0.03999976,0.05466608652429095,-0.028782590167603095,0.025558247962920166,0.16683847194815918,0.3124611401738207,0.17168113470799665,0.8649934112914304,0.2051810419549965,-0.4290243519355483,0.1600788677213799
2270.1500000012948,-0.23023923,-0.44539484,-0.28308618,-2.7436724,0.016698603,1.3639797,0.82463366,0.04,0.039999772,0.05413278445238756,-0.028219550523994608,0.02632946174975226,0.1658938743975137,0.3104692775654164,0.17139514612543436,0.8632501653382263,0.20625247880649236,-0.43149667619134063,0.16146109582660265
2270.1666666679616,-0.23176722,-0.4431572,-0.2849576,-2.7462304,0.016807865,1.3626115,0.8248889,0.04,0.039999772,0.053165612172323407,-0.028095301276054307,0.026303595901588928,0.16492924040769144,0.3084478707819667,0.17108008751006087,0.8615060581698987,0.20731296306033037,-0.4339492341321962,0.16283952001829752
2270.1833333346285,-0.23328713,-0.44093168,-0.2868189,-2.748775,0.016916538,1.3612508,0.82514286,0.04,0.039999772,0.05290176017507253,-0.027358304221769547,0.0273767108248113,0.16394741836544244,0.30639104056396604,0.1707342978837329,0.8597615369696109,0.20836249767797707,-0.4363816877416225,0.16421385968553515
2270.2000000012954,-0.23479876,-0.4387184,-0.28866994,-2.7513053,0.0170246,1.3598977,0.8253953,0.04,0.039999783,0.052972575311027725,-0.026045586657919007,0.029193344105815644,0.16294643061680336,0.3042995957745446,0.17035713653503148,0.8580171676817749,0.2094010034347455,-0.4387934987760123,0.1655838915950833
2270.2166666679623,-0.23630188,-0.43651783,-0.29051057,-2.7538214,0.017132046,1.3585527,0.8256462,0.04,0.039999787,0.05252016561752004,-0.0255014634637174,0.029880204436727453,0.16192672833520236,0.3021789909057306,0.16995040489377622,0.8562733357666567,0.21042842636267256,-0.4411844903785874,0.1669493853925732
2270.233333334629,-0.23779647,-0.43433008,-0.29234043,-2.7563226,0.017238865,1.3572154,0.8258957,0.04,0.03999979,0.052447623352724904,-0.024687455490790544,0.030729483776881228,0.16088810300878775,0.30002987513566326,0.16951421394833524,0.8545303469795895,0.2114447667158598,-0.4435546269440723,0.16831009962543161
2270.250000001296,-0.23928219,-0.43215537,-0.29415944,-2.758809,0.01734503,1.3558861,0.8261439,0.04,0.039999798,0.051849057587771696,-0.024141844886543806,0.03133694711221491,0.15983084730267555,0.2978498618591488,0.16904751314959304,0.852788535648302,0.21244999106105095,-0.4459038380991846,0.16966579482441432
2270.266666667963,-0.24075897,-0.42999396,-0.29596737,-2.7612805,0.017450549,1.3545648,0.8263905,0.04,0.039999798,0.051536010939368104,-0.023422193194305718,0.032052585257258404,0.1587558208924058,0.2956400140788288,0.16855153863537886,0.851048269086167,0.2134439576765788,-0.4482320070900982,0.17101633967776267
2270.28333333463,-0.24222657,-0.42784613,-0.2977639,-2.7637358,0.017555397,1.3532517,0.8266355,0.04,0.039999817,0.05183155499459691,-0.021960320983721582,0.03410120582474363,0.15766132011394762,0.2934002359519208,0.16802350040933375,0.8493101910635527,0.21442666767994498,-0.4505385287084889,0.17236135788643617
2270.3000000012967,-0.2436849,-0.42571217,-0.299549,-2.7661755,0.017659578,1.351947,0.826879,0.04,0.03999984,0.0507369984921624,-0.021870159254089305,0.033693672232371075,0.15654927678131603,0.29113412630743696,0.1674663925401439,0.8475744263870725,0.21539816033517684,-0.4528236684200012,0.17370074719902426
2270.3166666679635,-0.2451338,-0.42359218,-0.30132234,-2.768599,0.017763065,1.350651,0.8271209,0.04,0.03999985,0.05044440869337308,-0.020677375561073408,0.03522396717783316,0.15542091432356997,0.2888389325232203,0.16688012182635686,0.8458415487947637,0.21635835052133803,-0.45508698617789556,0.17503420666738564
2270.3333333346304,-0.24657309,-0.42148647,-0.3030837,-2.7710066,0.017865844,1.3493637,0.82736117,0.04,0.03999985,0.04987178283943905,-0.020395995167288294,0.03519355719170392,0.15427415062266717,0.2865179745643828,0.16626406683959805,0.8441117584062016,0.21730715375251666,-0.45732869829098344,0.17636156601664968
2270.3500000012973,-0.24800259,-0.41939533,-0.30483302,-2.7733974,0.017967917,1.3480852,0.8275997,0.04,0.03999985,0.04974455167823244,-0.019167928873981,0.036560585421119285,0.15311220290841213,0.2841676043763135,0.1656180557809936,0.842385577022657,0.21824459555822873,-0.4595483804400604,0.1776826445344277
2270.366666667964,-0.24942218,-0.41731888,-0.3065701,-2.7757719,0.01806927,1.3468156,0.82783663,0.04,0.039999854,0.04889947866426603,-0.018771741666090414,0.03666361682362895,0.15193268834030763,0.2817927488990805,0.1649422589871631,0.8406632329592746,0.2191706760419189,-0.46174618178777405,0.17899722656566686
2270.383333334631,-0.25083163,-0.4152574,-0.30829453,-2.7781286,0.01816989,1.3455551,0.82807183,0.04,0.039999865,0.0491237562219915,-0.01732011199000183,0.03857113910206156,0.1507359788542955,0.27939068926380434,0.16423564972066085,0.8389453766505691,0.22008532802298827,-0.46392158258914096,0.1803049322498835
2270.400000001298,-0.25223088,-0.41321105,-0.31000635,-2.7804685,0.018269775,1.3443038,0.8283053,0.04,0.03999986,0.047896399645219745,-0.01715211351459578,0.03810007556598327,0.14952420268571623,0.2769640500936767,0.16350106298904146,0.8372321442900854,0.22098857745654066,-0.46607482406086614,0.18160573663238969
2270.416666667965,-0.2536198,-0.4111802,-0.31170535,-2.782791,0.018368898,1.343062,0.82853705,0.04,0.03999986,0.04764115264768165,-0.01614118925933883,0.03907833170957442,0.14829475356551963,0.27451259999586375,0.16273542311680395,0.8355240019775058,0.2218804381425559,-0.468205645777028,0.18289938915063803
2270.4333333346317,-0.25499818,-0.40916494,-0.3133913,-2.7850955,0.018467255,1.3418301,0.82876694,0.04,0.039999876,0.04706263581264469,-0.015088595034856711,0.040203662538096374,0.1470491523930787,0.27203548660132393,0.16193982939508406,0.8338214533064933,0.22276089780233457,-0.4703137489118128,0.18418562376217498
2270.4500000012986,-0.25636578,-0.40716547,-0.3150641,-2.7873816,0.018564846,1.3406076,0.82899505,0.04,0.03999987,0.04698701336354194,-0.014286454741443966,0.0407860973594687,0.14578876794399845,0.26953791300475227,0.16111708929726815,0.832124786400452,0.22362992613776383,-0.4723992006632337,0.18546425856848667
2270.4666666679655,-0.25772262,-0.40518215,-0.31672353,-2.7896507,0.018661667,1.3393949,0.8292213,0.04,0.039999865,0.045489100144679995,-0.014524578236191354,0.03983397655037413,0.14451238791002,0.2670183053291673,0.1602655194658414,0.8304341253115611,0.22448744845457905,-0.4744623324179051,0.18673522463888914
2270.4833333346323,-0.25906852,-0.403215,-0.31836942,-2.7919,0.018757686,1.3381923,0.8294457,0.04,0.03999988,0.046283967403293325,-0.011672742251828128,0.04337551370416359,0.14321965436816866,0.26447190075114374,0.15938115916912912,0.8287504094264283,0.22533372460190548,-0.4765020454537229,0.18799806411497505
2270.500000001299,-0.2604033,-0.40126422,-0.32000148,-2.7941308,0.018852888,1.3369995,0.8296683,0.04,0.039999884,0.04491355362403748,-0.012425142169722458,0.04171351163884118,0.14191093318925718,0.26190941433832743,0.15847180206320824,0.8270735353202696,0.22616850989240497,-0.47851915932513517,0.1892527053033734
2270.516666667966,-0.2617268,-0.3993303,-0.32161963,-2.7963421,0.01894728,1.3358167,0.82988894,0.04,0.039999887,0.04502869228724116,-0.010755457483635489,0.04357101047683387,0.14058821749574305,0.25932377368377646,0.15753320116609812,0.8254041917552891,0.22699190447732565,-0.48051302738621426,0.19049888725840267
2270.533333334633,-0.26303902,-0.3974131,-0.32322377,-2.798535,0.01904084,1.3346446,0.8301077,0.04,0.039999895,0.043185994778061065,-0.010923492878159302,0.04253949579556271,0.13925071686571333,0.2567196387773234,0.15656691041903215,0.8237424205551167,0.22780394078829214,-0.4824840744641586,0.1917365563156529
2270.5500000013,-0.26433966,-0.3955128,-0.3248137,-2.8007078,0.019133585,1.3334827,0.83032453,0.04,0.039999887,0.04380997189743496,-0.008908091326012557,0.044917593832705105,0.13789982798611802,0.2540935464462404,0.15557219773353623,0.8220889106723884,0.22860468363033856,-0.4844317295525057,0.19296533619934575
2270.5666666679667,-0.2656287,-0.39362982,-0.32638913,-2.8028617,0.019225486,1.3323312,0.8305394,0.04,0.03999989,0.042465165523575266,-0.0095081470538938,0.0433668200504167,0.13653273907724134,0.25145094962494163,0.15455070870479573,0.8204436523063038,0.22939396221020275,-0.48635658852801467,0.19418520099942863
2270.5833333346336,-0.2669059,-0.39176428,-0.32795006,-2.8049955,0.019316535,1.3311905,0.83075225,0.04,0.039999895,0.04217739126854969,-0.007753416649039502,0.04526238907136548,0.135152884870594,0.24878619413663527,0.1534998451331589,0.8188073326146871,0.23017192470489725,-0.4882580225412597,0.1953958560414297
2270.6000000013005,-0.26817116,-0.3899163,-0.3294964,-2.8071084,0.019406736,1.3300604,0.8309632,0.04,0.03999989,0.04216319410400571,-0.0063897535020118745,0.04638383004390012,0.1337608587152816,0.24610508267788445,0.15242272927113087,0.8171803612686236,0.23093872346058358,-0.49013584737076815,0.19659708615698507
2270.6166666679674,-0.26942444,-0.38808602,-0.33102784,-2.809202,0.019496068,1.3289409,0.8311722,0.04,0.039999895,0.04048805425567181,-0.007254973251882846,0.04450966338948037,0.1323529946011356,0.24341057242034586,0.151321245305287,0.8155626146223219,0.23169417468136955,-0.491990865065305,0.19778882612881313
2270.6333333346342,-0.27066556,-0.38627368,-0.33254433,-2.8112748,0.019584525,1.3278322,0.831379,0.04,0.039999902,0.04056369092150236,-0.005344378850019593,0.04647912095186446,0.1309328099439918,0.2406936932837656,0.15018983273148614,0.813954817072736,0.2324383243863803,-0.4938224021330053,0.19897089302741988
2270.650000001301,-0.27189443,-0.38447946,-0.33404574,-2.8133266,0.019672085,1.3267349,0.8315838,0.04,0.039999902,0.03976797981669611,-0.004393364183727377,0.04711501082826919,0.12949965949177755,0.23796201413896834,0.14903135588441588,0.8123573794016788,0.2331713897545973,-0.49563028088706007,0.20014298838420552
2270.666666667968,-0.27311096,-0.38270348,-0.33553186,-2.8153572,0.019758742,1.3256487,0.8317865,0.04,0.039999906,0.03932326862472468,-0.003679947611309742,0.04734818669758223,0.12805304889528352,0.23521751293205428,0.14784881594889632,0.8107705769429403,0.2338933275108,-0.49741460701581885,0.2013049717141533
2270.683333334635,-0.27431497,-0.38094595,-0.3370026,-2.817367,0.01984452,1.3245738,0.83198714,0.04,0.0399999,0.03826167446364659,-0.0034794935546811345,0.047011554134807065,0.12659573078101344,0.23245841098515715,0.1466420413887264,0.8091946270890225,0.23460412032115466,-0.4991755543040599,0.20245673168316636
2270.7000000013018,-0.2755065,-0.37920696,-0.33845785,-2.8193564,0.019929387,1.3235104,0.8321856,0.04,0.039999913,0.03728907116464786,-0.0029793576932557464,0.04685150508839109,0.12512468350930078,0.22968571393933404,0.14540918492413765,0.8076297625369337,0.23530382313731366,-0.5009132308992361,0.2035981645093798
2270.7166666679686,-0.27668527,-0.37748674,-0.3398975,-2.8213246,0.020013362,1.3224584,0.83238184,0.04,0.039999902,0.03717637518150241,-0.0019093384490714849,0.04769162225062851,0.12364449658891251,0.2268964896045228,0.14415089089328395,0.8060764081163438,0.2359924037903246,-0.5026275009999509,0.20472910118022347
2270.7333333346355,-0.2778512,-0.37578544,-0.34132138,-2.8232703,0.020096388,1.3214178,0.8325761,0.04,0.039999917,0.03707340947274318,-0.00022165649228578221,0.049200551017514194,0.12214909934921701,0.22409576094135342,0.14286599672915268,0.8045351229159331,0.2366701216539958,-0.5043179732194308,0.2058491471898115
2270.7500000013024,-0.27900422,-0.3741031,-0.3427294,-2.825195,0.020178474,1.3203888,0.832768,0.04,0.039999917,0.035491257173669855,-0.0008840856509123585,0.0475320729234785,0.12064404188062543,0.2212839202490789,0.14155933865155013,0.8030058287087208,0.2373367628025221,-0.5059852875396601,0.20695842306039944
2270.7666666679693,-0.2801443,-0.37243992,-0.34412137,-2.8270972,0.020259634,1.3193716,0.8329579,0.04,0.039999913,0.03560731140099804,0.0012466700129470931,0.04968536917333566,0.11912944425936672,0.21845761163561192,0.14022640304289294,0.8014892315964409,0.23799269250385924,-0.5076287695668316,0.2080565362053662
2270.783333334636,-0.28127125,-0.37079608,-0.34549707,-2.8289776,0.020339848,1.318366,0.8331457,0.04,0.039999925,0.03449385042787467,0.0008572372774628967,0.04853063911895994,0.11760220195044653,0.215623325377511,0.1388727405668594,0.7999853633836193,0.23863769819874567,-0.5092489593172573,0.20914340727040287
2270.800000001303,-0.28238505,-0.3691717,-0.34685674,-2.8308358,0.020419128,1.3173723,0.833331,0.04,0.03999992,0.03398458820768058,0.001982091330640645,0.04908439572368084,0.11606731483903425,0.21277765020320824,0.1374964120403615,0.7984945921889227,0.2392718955005814,-0.5108456516273404,0.2102190916212008
2270.81666666797,-0.2834856,-0.36756694,-0.34819993,-2.8326714,0.020497466,1.3163905,0.83351415,0.04,0.039999917,0.03349976159152668,0.002910627560870349,0.04975218324326236,0.11452189325652969,0.20992280825690143,0.13609620099588765,0.7970173220624974,0.2398954009208041,-0.5124187730859578,0.21128318896318585
2270.833333334637,-0.28457275,-0.3659818,-0.34952664,-2.8344843,0.020574832,1.315421,0.8336952,0.04,0.039999947,0.03255885103695677,0.0035751268671502245,0.04984374734681163,0.11296228215890566,0.20705975112001637,0.13467289144191347,0.7955538368600091,0.24050831266078682,-0.5139683391206763,0.21233556127015668
2270.8500000013037,-0.28564644,-0.36441645,-0.35083687,-2.8362749,0.020651216,1.3144634,0.83387387,0.04,0.039999954,0.031991450743606986,0.0038324497186770223,0.04934188422330288,0.11139612827717706,0.20418991758188879,0.13323092152022947,0.7941042519917157,0.24111055467119846,-0.5154946388625762,0.2133762280545015
2270.8666666679705,-0.28670663,-0.362871,-0.3521306,-2.8380427,0.020726627,1.313518,0.83405036,0.04,0.03999996,0.031215933459916023,0.004701226114375845,0.04972670627662601,0.10982254295267858,0.20131077311785497,0.1317670121155014,0.7926688992719018,0.24170232912785486,-0.5169975666305465,0.21440502867082004
2270.8833333346374,-0.28775313,-0.3613454,-0.35340753,-2.839788,0.020801084,1.3125849,0.83422446,0.04,0.039999954,0.030577765282113756,0.005094842243216768,0.04962210992859317,0.1082409354397902,0.19842498374289994,0.13028386421567123,0.7912479936692253,0.24228351601292897,-0.5184773363258021,0.21542182363757767
2270.9000000013043,-0.288786,-0.35984004,-0.3546676,-2.8415103,0.020874545,1.3116641,0.83439636,0.04,0.039999954,0.0299772439764312,0.005985010291814641,0.04998500947380746,0.10665034700933065,0.1955303953109212,0.1287776768113656,0.7898419060573417,0.24285431876350944,-0.5199337924412863,0.2164264188384557
2270.916666667971,-0.28980517,-0.35835487,-0.35591072,-2.843209,0.020947019,1.3107554,0.834566,0.04,0.039999966,0.029824117754329027,0.007060691030796873,0.05053922744762129,0.10505195582744052,0.1926313248985344,0.12725312951642573,0.7884509175367355,0.2434148212773435,-0.5213669369515389,0.21741870313238706
2270.933333334638,-0.2908105,-0.35689002,-0.3571369,-2.8448846,0.021018496,1.3098593,0.8347332,0.04,0.039999977,0.02859511233949119,0.0072877546816285665,0.05019146358586357,0.10344535611067227,0.18972647919940983,0.12570946249425882,0.7870752958913078,0.2439650101378096,-0.5227768130757287,0.21839861752413572
2270.950000001305,-0.29180205,-0.3554456,-0.35834616,-2.8465374,0.021088988,1.3089756,0.83489805,0.04,0.039999973,0.027964529866053578,0.007561285527027395,0.04965973134737345,0.10183466950597164,0.18681894247677777,0.12414877566539484,0.7857150792704419,0.24450501513464587,-0.5241637163188186,0.21936615572119342
2270.966666667972,-0.29277968,-0.35402164,-0.35953823,-2.848166,0.021158488,1.3081045,0.83506066,0.04,0.039999973,0.027730909755396826,0.00916328834495439,0.051114178015276845,0.10021545671937013,0.18390583518621229,0.12256821300347082,0.7843708594273288,0.24503499385651223,-0.5255272402859952,0.22032096219914857
2270.9833333346387,-0.2937433,-0.35261828,-0.36071298,-2.8497713,0.021226984,1.3072459,0.835221,0.04,0.039999973,0.02689921792129457,0.008912452636625212,0.05005273588523651,0.09858915959140842,0.18099238068543508,0.12097271603759832,0.7830426084030149,0.2455548667795464,-0.5268678800920936,0.22126300584043668
2271.0000000013056,-0.29469278,-0.35123548,-0.36187062,-2.8513534,0.021294469,1.3063998,0.8353789,0.04,0.039999977,0.02596933408706148,0.009251342084079517,0.049713712848342695,0.09695786474363263,0.17807450924551643,0.11935931294410738,0.7817304859298412,0.24606466652469292,-0.5281857614290553,0.22219232362886684
2271.0166666679725,-0.29562825,-0.3498733,-0.3630109,-2.8529122,0.021360949,1.3055664,0.83553445,0.04,0.039999977,0.025450730861498183,0.009973758955703071,0.04985462124504347,0.0953217945921597,0.17515413774207314,0.11772922583748603,0.7804347198152002,0.24656456130630877,-0.5294809215030153,0.2231087604266478
2271.0333333346393,-0.2965496,-0.34853193,-0.36413392,-2.854447,0.021426413,1.3047458,0.8356877,0.04,0.039999977,0.025113055788794636,0.011164158199880592,0.05065044238478089,0.09368061800943618,0.1722305765571601,0.11608223661398782,0.7791557374468145,0.2470547119329425,-0.530753099450948,0.22401217274660212
2271.050000001306,-0.2974568,-0.34721142,-0.36523944,-2.8559568,0.02149088,1.3039378,0.8358385,0.04,0.03999997,0.02487582359950169,0.01224520094325332,0.05131280624179335,0.09203600953940747,0.169307444997762,0.11442158923153106,0.7778939013398571,0.24753518544338476,-0.5320021758786352,0.22490241236181432
2271.066666667973,-0.29834974,-0.34591168,-0.36632764,-2.857443,0.021554323,1.3031425,0.83598685,0.04,0.039999977,0.023599296055332175,0.011614095752096598,0.04974954746002069,0.09038381824614776,0.16638936681831454,0.11274868992058598,0.7766490473036487,0.2480059474314388,-0.5332287481217017,0.22577955960965995
2271.08333333464,-0.2992284,-0.34463286,-0.36739826,-2.8589065,0.021616748,1.3023604,0.8361328,0.04,0.039999973,0.022516491082447132,0.011448587009635358,0.048982158026472655,0.08872897337170287,0.16347023691989127,0.11106081621305754,0.7754212909594425,0.24846700480091916,-0.5344330630836809,0.22664348685776564
2271.100000001307,-0.30009288,-0.34337506,-0.36845136,-2.860346,0.021678148,1.3015906,0.8362765,0.04,0.039999977,0.022844165319291232,0.012628873967579501,0.0495261993659013,0.08707104628644216,0.16055030745892468,0.10935800000935256,0.7742108058984156,0.24891852985981489,-0.5356151566024879,0.22749417034343164
2271.1166666679737,-0.30094296,-0.3421382,-0.36948693,-2.8617609,0.021738525,1.300834,0.8364176,0.04,0.039999973,0.022051604697959082,0.014170709284500038,0.05093134672307098,0.0854101158667079,0.157630010922848,0.10764105474388666,0.7730182627702069,0.24936070398883758,-0.5367744341809203,0.2283313634603787
2271.1333333346406,-0.30177873,-0.3409225,-0.37050492,-2.863152,0.021797877,1.3000894,0.83655643,0.04,0.039999973,0.021732028507548407,0.013180017014530199,0.04883639538646456,0.08374688740522898,0.15471635241398304,0.1059149602196437,0.7718432032803161,0.2497934108148088,-0.5379118940152774,0.22915522193566043
2271.1500000013075,-0.30260012,-0.33972782,-0.37150535,-2.864519,0.021856194,1.2993582,0.8366929,0.04,0.03999998,0.020535136787414032,0.014645047785102894,0.050122318617512596,0.08208036311733265,0.15180290225554927,0.1041745121999258,0.770686289933059,0.25021698789758373,-0.5390268881348635,0.22996546554716182
2271.1666666679744,-0.30340716,-0.33855402,-0.37248817,-2.8658617,0.02191349,1.2986401,0.83682704,0.04,0.03999998,0.020103405579430245,0.014689122011246614,0.04938963201372437,0.08041462039859731,0.1488962683524991,0.1024270556829257,0.7695474360094551,0.2506314279755359,-0.5401198617643047,0.23076214154389768
2271.1833333346412,-0.30419987,-0.33740148,-0.37345338,-2.8671806,0.02196976,1.2979349,0.8369586,0.04,0.03999998,0.0196321657182974,0.014867618433914154,0.04897735667195868,0.07874675250437109,0.14599395201427545,0.10066970201271008,0.7684268004080396,0.25103669863855077,-0.5411909125788246,0.23154529685014014
2271.200000001308,-0.30497816,-0.33626992,-0.37440097,-2.868476,0.022025011,1.2972425,0.8370878,0.04,0.039999977,0.018892591523911317,0.014972384603428868,0.0484377304512007,0.07707828788669124,0.14309746479423313,0.09890202885168245,0.7673243456296002,0.25143292666742395,-0.5422404001390525,0.23231483045341755
2271.216666667975,-0.30574197,-0.33515948,-0.37533092,-2.8697462,0.022079233,1.2965629,0.83721465,0.04,0.03999998,0.01904023523866538,0.016711164522026367,0.04991701822082972,0.0754092126306772,0.1402044539466873,0.0971243230170237,0.7662406087418794,0.25182029711454185,-0.5432678747427259,0.2330705553014799
2271.233333334642,-0.30649155,-0.33407003,-0.3762432,-2.8709924,0.02213243,1.2958964,0.83733904,0.04,0.039999977,0.017853643712029132,0.016317467010584785,0.048689840846660726,0.07374100468024293,0.13732132189909804,0.09534129642403733,0.7651754815684418,0.25219890646566945,-0.5442737126823166,0.23381257380010742
2271.2500000013088,-0.30722663,-0.3330017,-0.37713793,-2.872215,0.022184601,1.2952425,0.8374611,0.04,0.03999998,0.017480783175882753,0.016039853591731656,0.047801991379564646,0.07207231323771954,0.134445878614818,0.09355148033545921,0.7641288764191205,0.252568678270123,-0.5452583765839136,0.23454088288486208
2271.2666666679756,-0.30794737,-0.33195436,-0.37801504,-2.8734133,0.02223574,1.2946016,0.83758074,0.04,0.039999988,0.017053817943313287,0.017187923995076737,0.04848220524949487,0.07040445648876081,0.13157676341485872,0.09175385596590138,0.7631011193086737,0.2529298247354727,-0.5462216402781693,0.23525540410574766
2271.2833333346425,-0.30865368,-0.33092812,-0.3788745,-2.8745875,0.022285847,1.2939734,0.83769786,0.04,0.03999999,0.016496127021869977,0.017285656009458084,0.04806806329316626,0.06873892209527395,0.12871654077866496,0.08995037995986123,0.762092314982823,0.25328233130891914,-0.5471636670972735,0.23595610926505933
2271.3000000013094,-0.30934572,-0.3299228,-0.37971646,-2.875738,0.02233494,1.2933582,0.83781266,0.04,0.03999998,0.015855772851880445,0.017424223296402808,0.04751540817030109,0.06707707831592767,0.12586704508142724,0.08814317908782675,0.7611023955314195,0.25362641426568333,-0.5480847188346998,0.23664303599082503
2271.3166666679763,-0.31002334,-0.32893854,-0.3805408,-2.876864,0.022383003,1.2927557,0.8379251,0.04,0.039999995,0.01567538676641167,0.018158967350850874,0.04789806056652024,0.06541285121767842,0.1230267896582559,0.08632965771222186,0.7601316476828729,0.2539620852864128,-0.5489847268041326,0.23731604910685963
2271.333333334643,-0.31068683,-0.32797518,-0.3813476,-2.8779664,0.022430038,1.2921661,0.83803517,0.04,0.039999988,0.014805840025300387,0.017887115430276213,0.046822707104593464,0.0637571448361538,0.12019899774994447,0.08451519707147667,0.7591799015531023,0.254289515553638,-0.5498640606115098,0.2379752806598617
2271.35000000131,-0.31133592,-0.3270327,-0.38213703,-2.879045,0.022476066,1.291589,0.8381428,0.04,0.03999998,0.014649788055054458,0.018270235877543284,0.04677747362103468,0.06210340467148974,0.11738148311929913,0.08269757969297431,0.7582472449189405,0.2546086582973679,-0.5507228788600663,0.23862073965380975
2271.366666667977,-0.31197083,-0.326111,-0.3829091,-2.8800995,0.022521079,1.2910249,0.83824813,0.04,0.039999984,0.013975093943574546,0.018991329531031775,0.04702966074496828,0.06045453562572456,0.11457570024173126,0.08087725910413379,0.7573339092716959,0.2549198060433851,-0.551561020306186,0.23925234216795616
2271.383333334644,-0.31259155,-0.32521003,-0.38366386,-2.8811297,0.022565072,1.2904735,0.8383511,0.04,0.039999988,0.013824143687979351,0.01943647754453215,0.046932283518635876,0.05880797208597318,0.11178501911132996,0.07905664399088289,0.7564399370395501,0.255223015615629,-0.5523786366030521,0.23987012272523495
2271.4000000013107,-0.31319803,-0.32432976,-0.3844013,-2.8821366,0.022608053,1.2899349,0.8384516,0.04,0.03999999,0.01288907013469176,0.018806851956015835,0.045751393291881826,0.057166012593880766,0.10901025082968584,0.07723763137762517,0.7555652214006245,0.255518236020282,-0.5531761377867916,0.24047408977725068
2271.4166666679776,-0.31379047,-0.32347012,-0.38512146,-2.8831208,0.022650037,1.2894086,0.83854973,0.04,0.039999984,0.01258025736133872,0.018269288564065622,0.044432832067975436,0.05553312709914013,0.10624928476956935,0.0754194059258686,0.754709444606596,0.2558054506061479,-0.5539541011583059,0.24106447160807912
2271.4333333346444,-0.31436884,-0.32263097,-0.3858244,-2.8840818,0.022691019,1.2888949,0.83864564,0.04,0.03999999,0.012094809293894393,0.019087307230070127,0.04493037472205197,0.05390552181020135,0.10349934457092473,0.0735981880946558,0.7538728535032998,0.2560849230003633,-0.554712373247444,0.24164108907402007
2271.4500000013113,-0.31493315,-0.3218123,-0.38651034,-2.8850186,0.022731,1.2883937,0.8387392,0.04,0.039999988,0.012185237840645069,0.020525886610389676,0.04605400561952799,0.05228616475609927,0.10076500433923556,0.07177958747444567,0.7530558055357905,0.2563568632353712,-0.5554506036991742,0.24220392084189232
2271.466666667978,-0.3154835,-0.32101402,-0.38717923,-2.885932,0.02277,1.2879049,0.8388304,0.04,0.039999988,0.01159526135597888,0.01977391679787166,0.044644586382208695,0.0506734908746216,0.0980502623027595,0.06996633458147267,0.7522580239430757,0.25662120367830854,-0.5561693527991142,0.24275311376575498
