rsonawane2002/My_IMU/logs_2/traj_449/clean_449.csv
time,j1,j2,j3,j4,j5,j6,j7,gripper1,gripper2,imu_ax,imu_ay,imu_az,imu_gx,imu_gy,imu_gz,quat_x,quat_y,quat_z,quat_w
2188.933333333594,0.00016700293,-0.785875,4.0107683e-05,-2.3551247,9.29385e-05,1.570997,0.786,0.04,0.04,0.0,-0.0,0.0,2.875329272945135e-08,-0.0011641195053377316,4.421952117202833e-08,0.9999995971961153,0.00020320632366974898,0.0008736418299892524,3.263050917662294e-05
2188.950000000261,0.00016699987,-0.78576016,4.010489e-05,-2.3552213,9.297654e-05,1.5709941,0.786,0.04,0.04,-0.2919984591005065,-1.9143110448232485e-05,0.02012841249436903,5.750641921853506e-07,-0.0022390187342496855,6.261632289256839e-07,0.9999996850573277,0.00020321358444729492,0.0007665025172223537,3.2609440093849966e-05
2188.9666666669277,0.00016695535,-0.7856543,4.0034538e-05,-2.35531,9.3029135e-05,1.5709913,0.786,0.04,0.04,0.023328731607885622,0.00011471264313030432,-0.001670405754716775,5.525897926610959e-06,-0.0032315760638528634,4.396304452908151e-06,0.9999997558329232,0.00020326508923785707,0.0006677972401134916,3.2622745860970934e-05
2188.9833333335946,0.00016679794,-0.78555703,3.9785868e-05,-2.355391,9.312319e-05,1.5709884,0.786,0.04,0.04,0.022460763257292626,0.0003045817032180649,-0.0015248156503444577,1.8080054035906158e-05,-0.004151464434573749,1.4290082114440634e-05,0.9999998121926839,0.00020343572908718406,0.000577198158551595,3.272287981897099e-05
2189.0000000002615,0.00016642311,-0.78546774,3.9200135e-05,-2.3554652,9.329864e-05,1.5709856,0.786,0.04,0.04,0.020584862715988805,0.0005781218271702583,-0.0014926966544814846,4.15644426270881e-05,-0.005003761006236295,3.29473906136907e-05,0.9999998566393202,0.00020383395380331104,0.0004940495985920487,3.298564141072997e-05
2189.0166666669284,0.00016569649,-0.7853861,3.8074828e-05,-2.3555324,9.360231e-05,1.5709827,0.786,0.04,0.04,0.02018843247615365,0.0009311252145679952,-0.0012785066495490938,7.89154857370606e-05,-0.005798308391988065,6.19003065601609e-05,0.9999998910741678,0.00020459858972405746,0.0004181727169653147,3.350594667504121e-05
2189.0333333335952,0.00016445674,-0.78531164,3.6168425e-05,-2.3555973,9.4102805e-05,1.5709829,0.786,0.04,0.04,0.013010762469201076,0.0013440227452829717,-0.0007488732172378221,0.0001329850002885541,-0.0065394003703140935,0.0001058189213507957,0.9999999174354607,0.0002058959375556379,0.0003486436042254737,3.4403081494561725e-05
2189.050000000262,0.00016251885,-0.7852442,3.3204673e-05,-2.3556554,9.486423e-05,1.5709835,0.786,0.04,0.04,0.01923577385216646,0.0018270151228914943,-0.0007633934842266044,0.00020547627230197175,-0.007235576635243811,0.00016404836108654594,0.9999999368041366,0.00020791606205651622,0.0002861476743395446,3.5807016316966697e-05
2189.066666666929,0.00015967608,-0.78518337,2.88758e-05,-2.3557103,9.597404e-05,1.5709842,0.786,0.04,0.039999995,0.012959631734554833,0.002354465470455952,-0.0021569436442936407,0.000298887365787416,-0.007885158638796186,0.00023992104898012907,0.9999999509072807,0.00021087131016798907,0.0002286583246495752,3.78694766245321e-05
2189.083333333596,0.00015570331,-0.78512913,2.2846894e-05,-2.3557608,9.7479395e-05,1.5709851,0.7859981,0.039999995,0.04,0.014645882342101402,0.002963832815580089,-0.0017583782028429695,0.00041461802946602403,-0.008508602309388439,0.00033177576610823206,0.9999999606557789,0.00021403903552590566,0.00017668219744964396,4.0732455670819276e-05
2189.1000000002628,0.00015035758,-0.78508115,1.475773e-05,-2.35581,9.9488236e-05,1.570986,0.7859962,0.039999988,0.039999988,0.009388218405081972,0.003577786888329769,-0.0028323006018515784,0.0005625853667849524,-0.009105158817056248,0.00044593624821896174,0.9999999668384272,0.00021862190651674544,0.00012860989177463438,4.457692292376148e-05
2189.1166666669296,0.00014338171,-0.7850394,4.226596e-06,-2.3558536,0.00010209783,1.570987,0.7859943,0.039999984,0.03999998,0.01623793773402049,0.004240145346008124,-0.0011013373295343243,0.0007357418494027936,-0.009688281430380006,0.0005809983010257777,0.9999999697510765,0.0002248834274601799,8.640832920175203e-05,4.958720286838405e-05
2189.1333333335965,0.00013450549,-0.7850039,-9.146982e-06,-2.3558965,0.00010540521,1.5709914,0.7859924,0.03999998,0.039999977,0.009164068742251175,0.004939743575428662,-0.0006245519909242603,0.0009347876045046389,-0.010245756149477573,0.0007371414618588388,0.9999999700468947,0.0002331005909996708,4.9392036943155394e-05,5.59531135302613e-05
2189.1500000002634,0.00012344719,-0.7849747,-2.5780313e-05,-2.3559384,0.000109514454,1.570996,0.78598857,0.039999977,0.03999997,0.008680623632906226,0.005666685509334322,-0.0029812117244842895,0.0011604862058000912,-0.01078380638546904,0.0009169769127747108,0.9999999684006294,0.00024260811251552314,1.613056073732086e-05,6.38736934403545e-05
2189.1666666669303,0.00010991542,-0.7849518,-4.6104884e-05,-2.355977,0.00011453016,1.5710008,0.78598475,0.03999997,0.03999996,0.012694027293114196,0.006420305511466467,-0.001998671533276486,0.001422478539549726,-0.01131873959397234,0.0011195631768885278,0.9999999647946086,0.00025465789530107713,-1.224363474902497e-05,7.355427430383547e-05
2189.183333333597,9.361048e-05,-0.78493524,-7.056451e-05,-2.3560135,0.000120561956,1.571009,0.78598094,0.03999997,0.03999996,0.011725270902407381,0.007194099161306623,-4.373741708807444e-05,0.0017124129445238415,-0.011841957055437714,0.0013464136440965654,0.999999959438854,0.0002695569070735645,-3.465761268452083e-05,8.520688937775373e-05
2189.200000000264,7.422537e-05,-0.7849253,-9.961339e-05,-2.3560495,0.00012772164,1.5710176,0.7859752,0.03999997,0.039999958,0.008236509645920265,0.007986457751777299,-0.0032695485818745595,0.0020302824192130735,-0.012344786427854854,0.0015989491696806466,0.9999999525833461,0.00028666548519532773,-5.334636159921933e-05,9.90473174924936e-05
2189.216666666931,5.1447467e-05,-0.7849219,-0.00013371429,-2.356085,0.00013612186,1.5710292,0.7859695,0.039999973,0.03999996,0.009000862226349327,0.008794483321377854,-0.0012807885416243892,0.0023855425182025603,-0.012852167851448954,0.001875904712483429,0.9999999439034981,0.0003072573433002569,-6.702830742743137e-05,0.00011529584434748205
2189.233333333598,2.4959112e-05,-0.7849252,-0.000173337,-2.3561206,0.0001458785,1.5710416,0.78596187,0.039999973,0.03999996,0.007708140380979778,0.009613552721384547,-0.00319503321459802,0.002769415268210975,-0.013351821440989361,0.002178517401072237,0.9999999333572132,0.0003307035757342658,-7.692501607301183e-05,0.00013417621323329944
2189.2500000002647,-5.5609717e-06,-0.78493553,-0.00021895682,-2.356156,0.00015710859,1.5710567,0.7859538,0.039999973,0.039999958,0.008575093544638257,0.010442591626369908,-0.0019090720140724216,0.0031902893421771952,-0.013858986973613669,0.0025079327910537074,0.9999999203763204,0.00035807793521991176,-8.196338877316563e-05,0.00015591519602236846
2189.2666666669315,-4.043695e-05,-0.784953,-0.00027105343,-2.356192,0.0001699289,1.5710729,0.7859443,0.039999977,0.03999996,0.007433221991925976,0.01127935188049004,-0.0034692319531126614,0.00364162253675675,-0.014363841197474907,0.002862658177295294,0.9999999044826764,0.00038917537996853815,-8.312643200669285e-05,0.0001807405819496211
2189.2833333335984,-7.999517e-05,-0.78497785,-0.0003301095,-2.3562293,0.0001844588,1.5710928,0.7859331,0.03999998,0.03999996,0.007310991503195474,0.012120731538596063,-0.0019725972775219702,0.0041280376730590896,-0.01487934168596554,0.0032445561273873784,0.9999998850465663,0.000424240320154662,-7.934072809937983e-05,0.00020888287103884855
2189.3000000002653,-0.00012456308,-0.78501034,-0.00039660936,-2.3562684,0.00020081602,1.5711135,0.78592116,0.03999998,0.03999996,0.0054142487513342274,0.012964372767679816,-0.004652253302595,0.004649939053949042,-0.015396334698009643,0.0036520017702678705,0.9999998607594858,0.0004640839463905723,-7.23342797771191e-05,0.0002405719260519196
2189.316666666932,-0.00017446889,-0.7850506,-0.00047103857,-2.3563104,0.00021912095,1.5711373,0.7859078,0.039999984,0.03999996,0.004716924279368762,0.013809427480155905,-0.003285607011660474,0.005202442274135261,-0.01593230434537983,0.004086737852031245,0.9999998306440677,0.0005086842276513994,-6.127178685130052e-05,0.0002760397809480743
2189.333333333599,-0.00023004052,-0.78509915,-0.0005538825,-2.3563528,0.00023949142,1.571165,0.78589255,0.039999984,0.039999958,0.009614231668386708,0.014657871006712453,-0.0021127820347244253,0.005788843525302912,-0.01648036952482984,0.004547805184555998,0.9999997934814178,0.0005581379567056109,-4.436410952915664e-05,0.0003155169868440149
2189.350000000266,-0.00029160545,-0.785156,-0.0006456252,-2.3563957,0.00026204786,1.5711952,0.78587556,0.039999988,0.03999996,0.00916910758499423,0.015499788023453512,-0.0029729172126069514,0.006410543761499174,-0.01702737642853818,0.005034531539999687,0.999999747423957,0.0006128687317629356,-2.2235999787940848e-05,0.0003592346027762472
2189.366666666933,-0.00035948987,-0.7852214,-0.0007467492,-2.3564403,0.00028690786,1.5712279,0.785857,0.039999988,0.039999958,0.007329335157590933,0.0163393808379092,-0.0038271278422374877,0.007066404194978876,-0.017581982913629637,0.0055482855678321424,0.9999996903277127,0.0006732988935841132,4.517772473373464e-06,0.00040742197812428923
2189.3833333335997,-0.00043401832,-0.7852957,-0.000857735,-2.35649,0.0003141885,1.5712636,0.78583676,0.03999999,0.039999958,0.0023045935497956194,0.01717110397512333,-0.005124571043513271,0.007754590923713976,-0.01814811440874623,0.006088134262440014,0.999999619899043,0.0007396701034183433,3.4736470699808416e-05,0.0004603078159236084
2189.4000000002666,-0.0005155133,-0.7853794,-0.0009790597,-2.3565404,0.00034400474,1.5713029,0.78581464,0.03999999,0.039999966,0.009877095262278424,0.018008440864554446,-0.0030176846505636234,0.008475612611647669,-0.01874081048058871,0.0066494068942066845,0.9999995333786705,0.0008122520979015061,7.101468711163892e-05,0.0005181176361984214
2189.4166666669335,-0.0006042946,-0.78547245,-0.0011111965,-2.3565922,0.00037647993,1.571346,0.78579056,0.039999995,0.039999958,0.00950678346385292,0.018826085412534294,-0.0030465950098701455,0.009229070625397939,-0.019336338433614198,0.007244374765544217,0.9999994275370258,0.000891311418842543,0.00011329487862725213,0.0005810798963384633
2189.4333333336003,-0.0007006793,-0.7855752,-0.0012546146,-2.3566499,0.00041172124,1.571393,0.7857645,0.039999995,0.039999958,0.0017947445056121225,0.0196377347541461,-0.005399896508540003,0.010015250991392648,-0.01993764844563425,0.007859461349223124,0.9999992989984516,0.0009771707325731817,0.00015937398744689436,0.000649415041988922
2189.450000000267,-0.00080498116,-0.785688,-0.0014097779,-2.356709,0.00044984717,1.5714439,0.7857364,0.04,0.039999958,0.009856321616075192,0.020448588531426642,-0.003461310794583561,0.010832856865360048,-0.020565592067896182,0.008501503315924303,0.9999991434246976,0.00107009027910756,0.00021172826642984856,0.0007233448740167162
2189.466666666934,-0.0009175105,-0.7858113,-0.0015771461,-2.356774,0.00049096753,1.5714986,0.78570586,0.04,0.03999997,0.0027076711550888533,0.02123584605772621,-0.005900218799537171,0.011681966923239341,-0.021199140096034828,0.009164992737631588,0.9999989568041154,0.001170236236197192,0.00026830442850712754,0.0008030881433457346
2189.483333333601,-0.0010385738,-0.7859453,-0.0017571729,-2.3568404,0.00053519907,1.571558,0.7856729,0.04,0.03999995,0.011203311895591206,0.022031788105553365,-0.0032254374169538025,0.012563002151561118,-0.021858974690476894,0.009861675706376622,0.999998733357841,0.0012778915757942256,0.0003319668639204364,0.0008888609764502927
2189.500000000268,-0.0011684732,-0.78609014,-0.001950306,-2.356912,0.00058264413,1.5716218,0.78563774,0.04,0.039999954,0.004430679703926188,0.022799708553024496,-0.005340247296770073,0.013475684525590278,-0.02252048715420078,0.010577116480431201,0.9999984677801731,0.001393482003013431,0.0004006628164791421,0.0009808743654738494
2189.5166666669347,-0.0013075074,-0.78624624,-0.002156986,-2.356986,0.0006334159,1.5716898,0.78560024,0.04,0.03999994,0.009305258033509567,0.02356658819015615,-0.004511467961010318,0.014417760679911188,-0.023203837166761235,0.011316773471991622,0.9999981532670911,0.0015172509590738459,0.00047585675412165144,0.0010793388180941593
2189.5333333336016,-0.00145597,-0.7864139,-0.0023776486,-2.3570664,0.00068761886,1.5717624,0.7855601,0.039999995,0.039999932,0.0036239069812982194,0.02430660805021764,-0.0061277736299159,0.015389029353541455,-0.023895525378510436,0.012079575694019351,0.9999977838119454,0.0016493171026988396,0.0005560334964755349,0.0011844623434331444
2189.5500000002685,-0.0016141493,-0.78659344,-0.0026127214,-2.3571484,0.000745359,1.5718395,0.7855172,0.03999999,0.03999993,0.01160819017629322,0.025060159988738936,-0.004383235774940708,0.01639019668478609,-0.024612597496056036,0.012866021185862973,0.9999973505284976,0.0017899736793488973,0.0006435524537756062,0.001296445313748486
2189.5666666669354,-0.0017823301,-0.7867851,-0.002862625,-2.3572373,0.0008067381,1.5719221,0.7854718,0.039999984,0.039999917,0.0033907174380232163,0.025766454005411374,-0.0060401544563992715,0.01742046335471559,-0.025334673368462252,0.013674737581743892,0.9999968459814447,0.0019395674971213151,0.0007365415008663508,0.0014154899168322998
2189.5833333336022,-0.0019607912,-0.78698933,-0.0031277733,-2.357328,0.00087185844,1.5720096,0.7854236,0.039999984,0.039999913,0.01246692911704983,0.02649985677309029,-0.004460367420611178,0.018478312921293295,-0.0260797037866383,0.01450480422174891,0.9999962594225213,0.002098262456347573,0.0008374505865451219,0.0015417886187697007
2189.600000000269,-0.0021498073,-0.78720623,-0.003408571,-2.3574252,0.00094081904,1.5721018,0.78537244,0.03999998,0.039999906,0.004103759213247571,0.02716901606039778,-0.006923391261093315,0.019563916414449496,-0.026825013817333963,0.015357536448151542,0.9999955828861783,0.002266273890318969,0.0009438127682317988,0.0016755381955870622
2189.616666666936,-0.0023496465,-0.78743607,-0.0037054163,-2.3575294,0.0010137185,1.5721997,0.78531855,0.03999998,0.0399999,0.0042154965887997164,0.027848086629498267,-0.006579083642077599,0.02067698400939556,-0.027597482638597584,0.01623252526614723,0.9999948052742442,0.0024439621374245076,0.0010560522331270166,0.0018169279782363286
2189.633333333603,-0.0025605727,-0.7876793,-0.004018701,-2.3576355,0.0010906517,1.5723027,0.7852615,0.039999984,0.0399999,0.013092634544120685,0.028548099128833902,-0.005008280838447732,0.02181561835147893,-0.028392289551168508,0.017127535597164945,0.9999939127500925,0.0026313857237728047,0.0011766804253283357,0.0019661371034875017
2189.6500000002698,-0.002782844,-0.7879362,-0.0043488075,-2.3577483,0.0011717121,1.5724115,0.78520143,0.039999988,0.0399999,0.005462015411561438,0.02917144597247536,-0.006783254318842857,0.022981026335844715,-0.02918798395220778,0.01804308273618966,0.9999928944885911,0.0028288621470226646,0.0013037982125048786,0.002123351479081925
2189.6666666669366,-0.003016713,-0.78820664,-0.004696109,-2.357868,0.0012569912,1.572526,0.7851383,0.039999995,0.039999902,0.00483468717040747,0.02980167509823925,-0.007044518833465574,0.02417152536867543,-0.030002717562493324,0.018978643228536422,0.9999917375237377,0.0030366442094893653,0.0014371165025714205,0.0022887490817364254
2189.6833333336035,-0.0032624267,-0.7884914,-0.00506097,-2.3579905,0.0013465789,1.5726463,0.7850719,0.039999995,0.0399999,0.012711280165045302,0.030454679164315657,-0.005583286533505927,0.025386057728950043,-0.030841229547607252,0.01993366241005997,0.999990424003613,0.003254860838023022,0.001579208139593764,0.0024624954113740406
2189.7000000002704,-0.0035202268,-0.7887904,-0.0054437495,-2.3581195,0.0014405632,1.5727724,0.78500223,0.04,0.039999895,0.006415058726827461,0.03103224264311491,-0.00712928922057543,0.026625274539579778,-0.03168157135678826,0.02090869534039117,0.99998894093291,0.0034837523070118045,0.0017282058863414243,0.002644765803400842
2189.7166666669373,-0.0037903471,-0.7891041,-0.0058447965,-2.3582556,0.0015390291,1.5729046,0.7849293,0.04,0.039999895,0.005848912366035464,0.031610466744311574,-0.007630258642321586,0.027887602209171806,-0.032539540918307006,0.021901443128512013,0.9999872718186296,0.003723551436225459,0.0018841505264565726,0.0028357260497950975
2189.733333333604,-0.0040730196,-0.7894327,-0.006264451,-2.3583984,0.0016420599,1.573043,0.7848529,0.04,0.039999887,0.00687697567611778,0.032187304191936585,-0.007490290911915665,0.029172657226040514,-0.0334187512263724,0.02291221424663271,0.9999853986079911,0.003974427926776876,0.0020474413614777888,0.0030355357588420103
2189.750000000271,-0.0043684677,-0.7897763,-0.0067030443,-2.3585463,0.0017497384,1.5731872,0.7847732,0.04,0.039999887,0.009714686619943791,0.03275613973279627,-0.007146484308928613,0.030479654533260528,-0.03431371399256435,0.02394098121198568,0.9999833010039767,0.004236603798157942,0.0022188060954315774,0.003244349080863349
2189.766666666938,-0.00467691,-0.7901352,-0.007160904,-2.3586996,0.0018621426,1.5733382,0.78468996,0.04,0.039999876,0.009413225029053507,0.033304260782599134,-0.006942111468677403,0.03180785130277568,-0.03522124679227,0.0249869933720043,0.9999809582056786,0.00451026719981896,0.002398556053027046,0.0034623178218644974
2189.783333333605,-0.0049985573,-0.79050976,-0.007638341,-2.3588598,0.0019793499,1.5734956,0.7846031,0.04,0.03999988,0.007379063393120333,0.03380051833110839,-0.007974724286929913,0.03315671264331769,-0.036137212424967036,0.02604899823974459,0.9999783505898718,0.004795533683669937,0.0025861393123399632,0.003689592349458426
2189.8000000002717,-0.005333619,-0.7909001,-0.008135662,-2.3590274,0.0021014353,1.5736593,0.7845127,0.04,0.03999987,0.00656062290453896,0.034298874180422635,-0.008595059963356633,0.034525799213963745,-0.03706999370479742,0.027127880867656294,0.999975456659452,0.0050926364414817585,0.002781212986586403,0.0039263197932066654
2189.8166666669385,-0.005682296,-0.7913065,-0.008653165,-2.3592021,0.0022284726,1.5738297,0.7844185,0.04,0.03999986,0.007357332113344661,0.03479019033321429,-0.008349754791181496,0.03591415179311889,-0.03802229530398908,0.0282219619177849,0.9999722521437686,0.0054016819965391075,0.002984269903186499,0.004172637927315166
2189.8333333336054,-0.0060447794,-0.7917291,-0.009191141,-2.359384,0.0023605316,1.5740069,0.7843207,0.039999995,0.03999985,0.007604951185391506,0.03526493342945695,-0.00835812968655869,0.037321482812277755,-0.038989991375847105,0.029331618540441157,0.9999687112683796,0.00572291950857106,0.0031955349215270477,0.004428683000621331
2189.8500000002723,-0.006421261,-0.79216814,-0.009749868,-2.3595715,0.0024976814,1.5741912,0.7842192,0.04,0.03999985,0.010721306711225509,0.035746406734508615,-0.007757198006141941,0.038746751496067024,-0.039973396375951764,0.03045564064246708,0.9999648045684624,0.00605650367560613,0.0034160387348946765,0.004694578463085943
2189.866666666939,-0.006811923,-0.79262394,-0.010329619,-2.3597648,0.0026399875,1.5743823,0.7841139,0.04,0.039999846,0.010133208989904219,0.03617891372387841,-0.008409594432823297,0.040188921836198245,-0.040963754216970016,0.03159428738180701,0.9999605050227938,0.006402550508161608,0.0036455912047184025,0.004970453331216121
2189.883333333606,-0.007216944,-0.7930965,-0.010930655,-2.3599653,0.0027875146,1.5745806,0.7840046,0.039999995,0.039999835,0.008188194268421434,0.03658193843795211,-0.008768101381551041,0.041647445308275695,-0.04196182791138184,0.03274578340363669,0.999955785346554,0.006761169672299754,0.003883794516065989,0.005256431943413638
2189.900000000273,-0.007636494,-0.7935862,-0.01155323,-2.360173,0.0029403255,1.574786,0.7838914,0.039999995,0.039999828,0.008616384443738134,0.03698301865558695,-0.009108021333337213,0.04312249075559561,-0.04297359640931346,0.03391130877834382,0.9999506146087179,0.007132493316798788,0.004130877472759219,0.00555263307253702
2189.91666666694,-0.00807074,-0.7940932,-0.012197589,-2.360388,0.0030984806,1.5749984,0.78377426,0.039999995,0.039999824,0.008269820521578097,0.03736116548992002,-0.009476210128589457,0.04461319652761001,-0.043998106298912855,0.03508858044606529,0.9999449611195221,0.007516736825935778,0.00438674147251865,0.005859172161690609
2189.9333333336067,-0.008519839,-0.7946174,-0.012863971,-2.3606107,0.003262036,1.5752178,0.78365314,0.04,0.039999824,0.007762934872124205,0.03772658011023562,-0.009658080419616688,0.04611837411345421,-0.04503556457232859,0.036278864034529144,0.9999387929181737,0.00791399031467589,0.00465125966902458,0.006176160468809014
2189.9500000002736,-0.0089839455,-0.7951593,-0.013552604,-2.3608408,0.003431048,1.5754446,0.7835279,0.039999995,0.039999813,0.008669403650563012,0.038084241781046954,-0.00973032421276443,0.04763748471861547,-0.04609037413824427,0.03747949585847281,0.9999320740023596,0.008324337613775431,0.00492490223155435,0.006503700688168676
2189.9666666669405,-0.009463207,-0.7957191,-0.014263711,-2.3610785,0.0036055727,1.5756787,0.7833986,0.04,0.039999817,0.008591684496850327,0.03841415670005274,-0.01003726288344442,0.049170050523174316,-0.04715595867051209,0.03869289151929459,0.9999247676227787,0.008747944904737803,0.005207782121798534,0.006841897386520826
2189.9833333336073,-0.009957771,-0.7962969,-0.0149974935,-2.3613238,0.0037856596,1.5759205,0.7832652,0.04,0.03999981,0.008695186065765803,0.038732916796496014,-0.01002012325572732,0.05071524351377911,-0.04823483517360831,0.03991520060141851,0.9999168359957867,0.009184883253579305,0.005500073395506534,0.007190841705757768
2190.000000000274,-0.010467768,-0.79689264,-0.01575416,-2.3615768,0.00397136,1.5761701,0.78312755,0.04,0.039999798,0.008666300475246302,0.03903651122845256,-0.009939812049242214,0.05227271218871957,-0.0493234030461847,0.041148955010736774,0.9999082395535336,0.00963527640639248,0.005801891090079285,0.007550627874863404
2190.016666666941,-0.010993333,-0.7975062,-0.016533908,-2.3618374,0.004162719,1.5764271,0.7829858,0.04,0.039999798,0.00833782124323168,0.0393232483617615,-0.010360700407008316,0.05384161359294698,-0.05042325012102858,0.042391676873365015,0.9998989391917511,0.010099273959681937,0.00611296356844325,0.007921347430140318
2190.033333333608,-0.0115345875,-0.79813886,-0.017336912,-2.3621054,0.0043597827,1.5766917,0.78283983,0.04,0.039999787,0.010154392378947108,0.03957754742871869,-0.010935893660835028,0.05542084290859611,-0.05153628707315161,0.043644295817669765,0.999888888322697,0.010576918220976289,0.006434182987452891,0.008303077684336194
2190.050000000275,-0.01209165,-0.7987897,-0.018163355,-2.3623815,0.0045625977,1.576964,0.7826896,0.04,0.039999783,0.007904895055133032,0.03980960637151171,-0.010880593310536035,0.057009805531989456,-0.052656380498219524,0.04490551771993071,0.999878048611834,0.011068285969921652,0.006764773530541843,0.008695906448407422
2190.0666666669417,-0.012664636,-0.7994591,-0.019013403,-2.3626654,0.0047712005,1.5772439,0.7825351,0.04,0.03999978,0.008722513602599236,0.04005082157019571,-0.01116516903172382,0.05860856037421131,-0.05379057957135956,0.046174707014888274,0.9998663727633817,0.011573504363694096,0.007105092191055474,0.009099905422489875
2190.0833333336086,-0.013253654,-0.8001475,-0.019887215,-2.3629577,0.0049856342,1.5775319,0.7823762,0.04,0.039999772,0.008407923778808168,0.040253435722326786,-0.011377329873618613,0.060215764536202476,-0.054937421119413354,0.04745143362775928,0.9998538136515265,0.012092604174688888,0.007455348753414354,0.009515147173730743
2190.1000000002755,-0.01385881,-0.8008549,-0.020784954,-2.363258,0.0052059335,1.5778276,0.78221303,0.04,0.039999776,0.00914527076607552,0.04047191137599507,-0.011752046098267854,0.06183128523476195,-0.056092185633924416,0.04873512474031367,0.9998403226476719,0.012625673334363971,0.007815634277567814,0.009941702142623089
2190.1166666669424,-0.014480191,-0.8015812,-0.02170675,-2.3635657,0.005432134,1.578131,0.7820454,0.04,0.039999764,0.00927700523380981,0.040641446165264744,-0.011588158351094613,0.06345410197574619,-0.057257867612202334,0.050026241048333,0.9998258501611376,0.013172753662661435,0.008186040928446508,0.010379626410386306
2190.1333333336092,-0.015117898,-0.80232656,-0.02265275,-2.3638813,0.00566427,1.5784423,0.7818734,0.04,0.03999976,0.009155427799489857,0.04082206729905183,-0.01182111825945853,0.0650840408890368,-0.05843367401519797,0.05132353742133365,0.9998103438897349,0.013733924103286515,0.008566721322561281,0.010828982666745444
2190.150000000276,-0.01577201,-0.8030911,-0.02362308,-2.3642054,0.005902371,1.5787619,0.7816969,0.04,0.039999746,0.008493893302707889,0.04095003984019713,-0.012091340255238059,0.06672006812287734,-0.05961628893036856,0.052626170361963744,0.9997937520459262,0.014309216710524476,0.008957650431544893,0.01128982665084839
2190.166666666943,-0.016442614,-0.803875,-0.024617856,-2.364537,0.0061464673,1.5790895,0.78151613,0.04,0.03999974,0.009776102496927841,0.04110493772204321,-0.012242316885635596,0.0683616646945688,-0.060810616370180454,0.05393449967086429,0.9997760161133925,0.014898781904890445,0.009359190247170667,0.011762204729612227
2190.18333333361,-0.017129784,-0.8046782,-0.02563719,-2.3648765,0.006396587,1.5794255,0.78133065,0.04,0.039999746,0.009296757621934937,0.041223964523464524,-0.012195518610780276,0.07000741289878659,-0.06200974825273359,0.05524777536583468,0.9997570831007762,0.015502466416707527,0.009771379340716637,0.01224616146417554
2190.2000000002768,-0.017833585,-0.8055008,-0.026681183,-2.3652244,0.0066527547,1.5797694,0.78114074,0.04,0.039999735,0.008498231299669534,0.04127464510913642,-0.012952875063731994,0.07165865533800497,-0.06321592672313107,0.056565062734065835,0.9997368967155829,0.016120456584865647,0.010193925271353974,0.012741746840734147
2190.2166666669436,-0.018554078,-0.8063429,-0.027749933,-2.3655808,0.006914994,1.5801213,0.7809465,0.04,0.03999973,0.008091973565016453,0.04134606005659208,-0.013279477703065368,0.07331322175721602,-0.06443287549716827,0.05788664612232173,0.9997153987162009,0.016752822631960828,0.01062677623373774,0.013249004885191465
2190.2333333336105,-0.019291334,-0.8072049,-0.028843524,-2.3659456,0.007183322,1.5804814,0.7807477,0.04,0.03999973,0.00897048851460358,0.04143218930234005,-0.013438307901258995,0.07497008644935632,-0.06566057635563874,0.0592111530956021,0.9996925257737883,0.017399511665467497,0.011070419155067828,0.01376796010882169
2190.2500000002774,-0.020045392,-0.8080864,-0.029962035,-2.3663185,0.0074577658,1.5808501,0.78054434,0.04,0.039999723,0.008974072824852186,0.041492046769060764,-0.013033022512609627,0.07662942285725616,-0.06689474060317128,0.060539048092961956,0.9996682155524564,0.018060521825606708,0.01152498356213849,0.014298640475463895
2190.2666666669443,-0.020816311,-0.8089875,-0.03110555,-2.3667,0.0077383392,1.5812268,0.78033644,0.04,0.039999716,0.00802150136054447,0.041499916428572314,-0.013947804371472472,0.07829097406986457,-0.0681344785213208,0.06186962978099413,0.9996424095702579,0.01873590701043704,0.011990033166575095,0.01484108761949883
2190.283333333611,-0.02160413,-0.80990833,-0.032274112,-2.3670897,0.008025055,1.5816118,0.78012407,0.04,0.03999971,0.008569458146290287,0.04150795250721859,-0.013947139960746036,0.079953566669737,-0.06938539645585337,0.06320169030118243,0.9996150396995965,0.019425704782542068,0.01246590673753972,0.015395309976960385
2190.300000000278,-0.02240889,-0.8108491,-0.033467796,-2.3674877,0.0083179325,1.5820049,0.77990705,0.04,0.0399997,0.009101193241445316,0.04153829094161454,-0.014163809777634206,0.08161636755344387,-0.07064406418747066,0.06453570559421229,0.999586038734848,0.020129842598056558,0.012952856726267586,0.015961331585465293
2190.316666666945,-0.023230616,-0.81180954,-0.03468664,-2.3678935,0.008616981,1.5824063,0.7796855,0.04,0.0399997,0.009240973326152258,0.04152279022442973,-0.01417734081172739,0.08327963823001831,-0.07190793992806323,0.06587044491636396,0.9995553376812667,0.020848379214842,0.013450954987065975,0.016539159801482066
2190.333333333612,-0.024069343,-0.81278986,-0.035930697,-2.3683078,0.008922212,1.5828161,0.7794594,0.04,0.03999969,0.008150707640819377,0.041473699313406,-0.01459121580220657,0.08494217641893158,-0.07317718345801544,0.06720658504941317,0.9995228696506407,0.021581317130822703,0.013960066834740903,0.017128815785592524
2190.3500000002787,-0.02492509,-0.81379014,-0.0372,-2.3687303,0.009233634,1.5832343,0.7792287,0.04,0.039999682,0.008981324775092503,0.04144460402751293,-0.014773001789869511,0.08660307548032477,-0.07445307309438387,0.06854289267583498,0.9994885624305615,0.022328587111762246,0.014480476334032526,0.017730300990718217
2190.3666666669455,-0.025797889,-0.8148104,-0.03849456,-2.3691614,0.0095512485,1.5836606,0.7789935,0.04,0.039999682,0.00800497491433294,0.041335304932201,-0.01537374221047827,0.08826284384609115,-0.07573456467332504,0.06987859455276298,0.9994523476225808,0.023090260700251365,0.015011869898345624,0.01834362163427869
2190.3833333336124,-0.026687736,-0.81585073,-0.03981441,-2.369601,0.009875069,1.5840954,0.77875346,0.04,0.03999968,0.008175032358859191,0.04125843665529483,-0.015409428039370177,0.08991945438647105,-0.07702221747268723,0.07121420589047958,0.9994141530822055,0.023866137330272957,0.015554535403295504,0.018968777933697348
2190.4000000002793,-0.027594645,-0.81691086,-0.04115955,-2.3700492,0.010205093,1.5845385,0.778509,0.04,0.039999668,0.0077273947944433985,0.04116461114323511,-0.015557401100374513,0.09157437715906208,-0.07831691675739658,0.0725487265624069,0.9993739031014207,0.02465640228513406,0.016108307311687175,0.01960576603293038
2190.416666666946,-0.028518619,-0.817991,-0.042530004,-2.3705068,0.010541322,1.5849899,0.77826005,0.04,0.039999664,0.006675677461620566,0.041003967974242994,-0.016225192677210565,0.09322525296683642,-0.07961839502269899,0.07388108425412175,0.9993315276039832,0.025460962263059935,0.0166729961934319,0.020254592942393287
2190.433333333613,-0.029459653,-0.8190911,-0.04392576,-2.370972,0.01088376,1.5854496,0.77800643,0.04,0.039999653,0.009284496456052338,0.04098425094665736,-0.015797623195989985,0.09487202891222166,-0.08092911046946127,0.07521190748734063,0.9992869402445937,0.026279724614931405,0.01724936625757255,0.02091522159751621
2190.45000000028,-0.030417744,-0.8202112,-0.04534681,-2.3714454,0.011232397,1.5859176,0.77774817,0.04,0.039999656,0.008140424359992515,0.04080879633178297,-0.016316963012541486,0.09651433848791235,-0.08224175114840394,0.07653986539574113,0.999240066929544,0.027112646215313643,0.017837228147752945,0.021587643452878263
2190.466666666947,-0.031392884,-0.82135123,-0.04679312,-2.371927,0.0115872305,1.5863941,0.7774853,0.04,0.03999965,0.008438662778154082,0.040653855248119763,-0.0163425199575018,0.09815171716927515,-0.0835577345445524,0.0778658899225549,0.9991908255496676,0.027959704818261634,0.018436779464773415,0.022271825403785462
2190.4833333336137,-0.03238505,-0.82251126,-0.048264693,-2.3724174,0.011948258,1.5868788,0.77721786,0.04,0.03999965,0.00703768673318006,0.040431568948927354,-0.017055527444953533,0.0997838866962278,-0.08487787306239478,0.07918797499081391,0.9991391441608256,0.02882084681594189,0.019047594073637198,0.0229677720815709
2190.5000000002806,-0.033394232,-0.82369107,-0.049761493,-2.3729162,0.012315475,1.5873721,0.7769458,0.04,0.03999964,0.0076941910826633375,0.0403085315537427,-0.016746057854399865,0.10140967638149859,-0.08620432370512929,0.08050656197634633,0.9990849356990031,0.029696022945226948,0.019670050168127166,0.023675443120217226
2190.5166666669475,-0.03442041,-0.8248907,-0.051283482,-2.3734233,0.012688869,1.5878731,0.7766692,0.04,0.039999638,0.007314393155755106,0.040062604267794566,-0.017607780610151558,0.10302905959335465,-0.08753341710777723,0.0818216601121562,0.999028126253118,0.030585161376028732,0.020303782109078194,0.024394820984244205
2190.5333333336143,-0.035463523,-0.8261101,-0.052830603,-2.3739393,0.013068429,1.5883827,0.77638793,0.04,0.039999638,0.006752766610884642,0.03980536031207016,-0.01747340006406084,0.10464147176347315,-0.08887004855184105,0.08313228937378528,0.9989686305762082,0.031488149530498145,0.02094905016656922,0.0251258604023608
2190.550000000281,-0.036523562,-0.8273494,-0.054402824,-2.3744638,0.013454138,1.5889006,0.7761021,0.04,0.039999623,0.006942594505887634,0.03961878657557233,-0.017896178705756327,0.10624665528853224,-0.09021016886703359,0.08443747216978545,0.9989063637064551,0.03240498468267787,0.02160584572417417,0.025868531945316593
2190.566666666948,-0.03760049,-0.82860845,-0.056000076,-2.3749962,0.0138459895,1.5894266,0.7758118,0.04,0.03999962,0.007948033029725465,0.03942916289221693,-0.017798177042971375,0.1078436509367158,-0.09155614285341054,0.08573774637453,0.9988412346031691,0.03333558939099521,0.022274518884039484,0.02662277868398142
2190.583333333615,-0.038694255,-0.8298871,-0.057622295,-2.375537,0.014243966,1.5899607,0.7755169,0.04,0.03999962,0.0068172451296089065,0.03909477602569572,-0.018348060719763915,0.10943202265917548,-0.09290223378919751,0.08703201226541717,0.998773166662805,0.03427986628503943,0.02295470547167609,0.02738857094740402
2190.600000000282,-0.03980482,-0.8311856,-0.059269425,-2.3760853,0.014648049,1.5905032,0.7752175,0.04,0.03999961,0.00837377430935593,0.03895935710348242,-0.01812248861456922,0.1110112481941698,-0.09425401807896494,0.08832075675098541,0.9987020578276443,0.03523771376117201,0.023647174038592914,0.028165837102827024
2190.6166666669487,-0.04093212,-0.8325035,-0.060941376,-2.3766422,0.015058221,1.591054,0.7749136,0.04,0.039999615,0.006096552051793047,0.038531558047440184,-0.01868328474250447,0.11258112080129828,-0.09560372416392039,0.08960355246960998,0.9986278360308207,0.036209108598968864,0.024351171405104,0.02895455076611849
2190.6333333336156,-0.042076103,-0.833841,-0.062638074,-2.3772075,0.015474463,1.5916127,0.7746052,0.04,0.03999961,0.006515240752502649,0.03824707138090355,-0.019128847473615096,0.11414069365943554,-0.0969568734341674,0.09087962511383074,0.9985504134073601,0.037193891464653746,0.025066842494631814,0.029754658947051805
2190.6500000002825,-0.043236718,-0.8351982,-0.06435942,-2.377781,0.01589675,1.5921797,0.77429223,0.04,0.039999604,0.00697159857043772,0.037967590931557715,-0.019158848591405153,0.11568979741621221,-0.09831356519556488,0.0921475868729456,0.9984696962248489,0.038191928018423305,0.02579450979340732,0.030566086098999464
2190.6666666669494,-0.044413902,-0.83657485,-0.066105336,-2.3783624,0.016325066,1.5927546,0.7739748,0.04,0.039999623,0.006525185663197597,0.03765049276467092,-0.0194551738175619,0.11722842849432377,-0.09967036614302943,0.09341003366854701,0.99838559811148,0.03920317542606583,0.026533987918290914,0.03138878789070548
2190.6833333336162,-0.045607552,-0.8379702,-0.06787573,-2.3789523,0.016759377,1.5933378,0.773653,0.04,0.039999634,0.005319737040077044,0.037290663198552565,-0.019209825682753312,0.11875610792619401,-0.1010296623139918,0.09466123477316685,0.9982980367397724,0.040227573900647046,0.027284971089784983,0.0322227015039683
2190.700000000283,-0.04681765,-0.839385,-0.06967046,-2.3795502,0.017199667,1.593929,0.77332675,0.04,0.03999963,0.006358377401993742,0.036954591244661716,-0.01988993995085675,0.1202716053897794,-0.10239373428868145,0.09590677622393445,0.9982069119990411,0.041264978369534785,0.02804793202376331,0.033067747227333355
2190.71666666695,-0.04804409,-0.84081876,-0.071489446,-2.3801568,0.017645895,1.5945283,0.7729962,0.04,0.03999963,0.00493362306568379,0.036532686366677614,-0.020170292982446547,0.12177438820550056,-0.10375623721074737,0.0971420532251205,0.9981121457180407,0.04231528782557109,0.02882241767357198,0.03392387398010437
2190.733333333617,-0.0492868,-0.84227175,-0.073332556,-2.380771,0.018098045,1.5951353,0.77266103,0.04,0.03999963,0.00658150639467614,0.03623674127064824,-0.020345619504547052,0.12326475319928537,-0.10512439212337363,0.0983685600647501,0.9980136398204241,0.04337825512160463,0.02960893314003015,0.03479098724243107
2190.7500000002838,-0.050545685,-0.8437437,-0.07519966,-2.381393,0.018556079,1.5957501,0.77232176,0.04,0.039999627,0.005803788416058886,0.03580525185684913,-0.02055276950569951,0.12474278277202669,-0.106490638714964,0.0995850966720357,0.9979112996796239,0.04445397611305878,0.030407285915755904,0.03566901936836805
2190.7666666669506,-0.051820662,-0.8452345,-0.077090636,-2.382023,0.019019963,1.5963727,0.7719781,0.04,0.039999615,0.00526087176981882,0.035387652590282426,-0.02077929475965412,0.12620661337063666,-0.10785790501694426,0.10079182343063449,0.9978050426002072,0.04554216684043665,0.031217446123158757,0.03655788640805294
2190.7833333336175,-0.05311163,-0.8467439,-0.079005346,-2.382661,0.019489672,1.5970032,0.77163005,0.04,0.039999608,0.005178031625474588,0.035009201524596745,-0.02073357498828532,0.1276566076948738,-0.10922631064852578,0.1019890250674794,0.9976947770805265,0.04664272050291568,0.03203940733866322,0.03745750642678852
2190.8000000002844,-0.054418515,-0.8482718,-0.08094363,-2.383307,0.019965166,1.5976417,0.7712778,0.04,0.039999608,0.00511222028549696,0.03458912554169802,-0.020902928508692575,0.12909256845459102,-0.11059504123060973,0.10317493949362185,0.9975804068906238,0.04775555153443231,0.032873280513142936,0.03836777963192448
2190.8166666669513,-0.0557412,-0.84981835,-0.08290535,-2.3839605,0.020446403,1.5982878,0.7709211,0.04,0.039999604,0.00541221875876019,0.03414420105716798,-0.02139617912484404,0.13051389109322778,-0.11196265714190648,0.10435001308812582,0.9974618444423029,0.048880407195748266,0.03371912260033356,0.03928861724724529
2190.833333333618,-0.057079606,-0.85138327,-0.08489037,-2.3846219,0.020933356,1.5989419,0.7705604,0.04,0.039999604,0.004697362081906853,0.03374007349872532,-0.021305654351366776,0.13192065587368776,-0.1133293073558467,0.1055143408724244,0.9973389900727786,0.05001733733495924,0.03457689162766184,0.040219937989757704
2190.850000000285,-0.05843359,-0.8529663,-0.08689852,-2.385291,0.021425994,1.5996035,0.7701952,0.04,0.039999608,0.004158429311096334,0.03316450164814466,-0.021744473303342282,0.13331133426751285,-0.11469441265916533,0.10666778111096901,0.9972117754135912,0.05116594214989231,0.03544629163248107,0.04116165387703094
2190.866666666952,-0.059803065,-0.8545676,-0.08892964,-2.385968,0.021924265,1.6002727,0.76982605,0.04,0.03999959,0.004585434865611582,0.032766731532074544,-0.021980591645021086,0.13468746447555074,-0.11605987820245478,0.107808489272111,0.997080088646864,0.05232633959257265,0.0363275432114343,0.0421136630207579
2190.883333333619,-0.061187908,-0.8561868,-0.09098354,-2.3866522,0.02242812,1.6009493,0.7694529,0.04,0.039999593,0.004567100569330407,0.0322998909508071,-0.02195770454840318,0.1360462876131029,-0.1174251685082236,0.10893756202097174,0.9969438411393549,0.053498326655972456,0.03722066895271995,0.043075845459277944
2190.9000000002857,-0.062588,-0.8578238,-0.09306009,-2.3873441,0.022937523,1.6016333,0.76907533,0.04,0.039999582,0.003804215202252159,0.031794752192609854,-0.02226527863740113,0.1373882674310192,-0.11878699177934049,0.11005364323245664,0.9968029621899939,0.054681503368719166,0.038125464516076846,0.0440481181666563
2190.9166666669526,-0.06400323,-0.85947865,-0.09515908,-2.3880436,0.023452437,1.6023247,0.76869375,0.04,0.039999586,0.0038208776069081907,0.031256060268741725,-0.022570370159846753,0.13871519965792575,-0.12014827170836324,0.11115680425783683,0.9966573466195392,0.055875922963826624,0.0390420306698638,0.04503037312096708
2190.9333333336194,-0.06543345,-0.861151,-0.09728031,-2.3887503,0.023972813,1.6030235,0.7683082,0.04,0.03999958,0.00409022221932176,0.030780634514127048,-0.022379874889488782,0.14002469887834051,-0.12150834777855152,0.11224583645803787,0.9965069020486038,0.057081427828675306,0.03997044514372512,0.04602247583025563
2190.9500000002863,-0.06687857,-0.86284083,-0.09942362,-2.3894641,0.024498602,1.6037295,0.76791865,0.04,0.03999957,0.0039504980560822744,0.03031051623816894,-0.022828324047896587,0.14131616007125958,-0.12286592045737132,0.11332388205777144,0.9963515422834487,0.058297798854778315,0.04091067343704188,0.04702433026645383
2190.966666666953,-0.06833845,-0.86454785,-0.10158881,-2.3901856,0.025029756,1.6044427,0.767525,0.04,0.039999567,0.0026725958708118114,0.029689013430625466,-0.022915539727974554,0.14259021074787748,-0.12421832499991689,0.11438695717648761,0.9961911919132609,0.05952484135823797,0.041862408204532194,0.048035832406968564
2190.98333333362,-0.069812916,-0.866272,-0.10377568,-2.3909142,0.025566228,1.6051627,0.76712745,0.04,0.039999567,0.0031471391552795325,0.02913491193701212,-0.023269322957086835,0.14384657257784064,-0.1255709557928286,0.11543471146811538,0.9960257608265307,0.06076240529939433,0.04282566582532142,0.04905686719288707
2191.000000000287,-0.07130189,-0.8680133,-0.105984025,-2.3916502,0.026107967,1.6058902,0.7667261,0.04,0.039999556,0.002968925321988891,0.028651626810968778,-0.023225299716034264,0.14508479166481272,-0.12692164469661615,0.11646899819525906,0.995855145520797,0.062010384208420484,0.043800730048925894,0.050087298162881835
2191.016666666954,-0.07280519,-0.86977106,-0.10821361,-2.3923934,0.02665492,1.6066247,0.76632077,0.04,0.039999556,0.0022953418465920805,0.028059622853762733,-0.023011504280279205,0.14630362832435967,-0.1282659187665587,0.11748926880744177,0.9956792808106067,0.06326850755028192,0.044787233536551986,0.05112699315406016
2191.0333333336207,-0.07432269,-0.8715455,-0.11046426,-2.3931432,0.027207037,1.6073655,0.7659117,0.04,0.039999552,0.0029704505787098157,0.027496567216123147,-0.023921498189904966,0.1475043800193407,-0.12960942524580296,0.11849343250199432,0.9954980765737139,0.06453666171834437,0.04578513215392037,0.052175861333914365
2191.0500000002876,-0.07585424,-0.8733365,-0.11273575,-2.3939002,0.02776426,1.6081138,0.7654989,0.04,0.03999955,0.0023943263583792174,0.026990474311214263,-0.023285423235996916,0.14868570094456876,-0.13095054352635416,0.11948285140870467,0.9953114307670339,0.06581466078554732,0.046794826076710094,0.05323373425388953
2191.0666666669545,-0.07739968,-0.87514365,-0.11502785,-2.3946636,0.028326552,1.6088685,0.7650823,0.04,0.039999545,0.0026829651640358776,0.026382349582665388,-0.02374713294046593,0.14984716901521808,-0.1322840464440224,0.12045785182942356,0.9951192748874177,0.06710228344019675,0.04781597542302433,0.054300504592465534
2191.0833333336213,-0.07895886,-0.87696695,-0.11734032,-2.3954341,0.028893843,1.6096305,0.76466197,0.04,0.03999954,0.001644867248407067,0.02575109563125455,-0.023587174151851187,0.15098902928503505,-0.1336139105880612,0.12141605364127284,0.9949215221507075,0.06839932659637694,0.04884868235131614,0.055376015701942914
2191.100000000288,-0.08053164,-0.8788061,-0.11967297,-2.396211,0.029466081,1.6103989,0.764238,0.04,0.039999537,0.002559765136256331,0.02529067179002642,-0.023879606871690662,0.1521115160740004,-0.1349380538424032,0.12235747410606528,0.9947180866900218,0.0697056527574527,0.049892899453832726,0.05646015027866445
2191.116666666955,-0.08211781,-0.880661,-0.12202552,-2.3969948,0.030043205,1.6111734,0.7638104,0.04,0.039999537,0.0005323898326192733,0.024314087903917758,-0.024524127605274337,0.1532128509401317,-0.1362551272425852,0.12328451063953191,0.9945089240383367,0.07102098113898746,0.050947955222988714,0.05755281144098819
2191.133333333622,-0.08371726,-0.88253146,-0.124397755,-2.397785,0.030625155,1.6119549,0.7633792,0.04,0.039999533,0.0022555725343487154,0.024131033309610084,-0.023635754866502268,0.15429487868806002,-0.13757177074445148,0.12419268583141502,0.9942939063861285,0.07234519819149246,0.05201474939438935,0.05865377965217132
2191.150000000289,-0.085329816,-0.88441736,-0.1267894,-2.398582,0.031211874,1.6127427,0.7629445,0.04,0.039999533,0.0004618638623554716,0.023184308228105244,-0.02453293024589076,0.15535594317155546,-0.1388779818424843,0.12508647213000768,0.9940729933597958,0.0736780689926322,0.05309249070855951,0.05976297727334085
2191.1666666669557,-0.08695532,-0.8863184,-0.12920028,-2.3993857,0.031803295,1.6135367,0.7625063,0.04,0.03999952,0.0004953374858285287,0.022685945021827525,-0.024361670617012443,0.15639621578012713,-0.14018116502017305,0.12596133320754271,0.9938461028104278,0.07501939731471725,0.05418124828248067,0.06088026190493292
2191.1833333336226,-0.08859356,-0.8882342,-0.13163008,-2.400195,0.032399356,1.614337,0.7620647,0.04,0.03999953,0.002049354687949645,0.022228055019413162,-0.024002515255361345,0.157415672637815,-0.1414790951498437,0.1268199837383535,0.9936131382101508,0.07636900675670005,0.05528140892310335,0.06200542081663044
2191.2000000002895,-0.090244405,-0.89016485,-0.13407855,-2.4010108,0.03300001,1.6151433,0.7616196,0.04,0.03999953,-0.00011342283072757198,0.021307375784687665,-0.02464026279473952,0.15841323672285634,-0.14276736396135625,0.12766107836128385,0.9933740558705323,0.07772663009360332,0.05639239150136332,0.06313837405554204
2191.2166666669564,-0.09190766,-0.89211,-0.13654546,-2.4018328,0.03360518,1.615956,0.7611712,0.04,0.039999522,0.0003255056900020037,0.020841730520390622,-0.0242553157053349,0.15939034173682542,-0.14405179312181238,0.12848295707276994,0.993128766858606,0.0790921165802774,0.05751440381809729,0.06427894590148038
2191.2333333336232,-0.09358316,-0.8940696,-0.13903055,-2.4026606,0.034214817,1.6167744,0.76071954,0.04,0.039999522,0.000875605709538263,0.020195920317925276,-0.024576612376803197,0.16034513714373846,-0.1453270648028183,0.12928900460849282,0.9928771958574155,0.08046525334036868,0.05864747928221913,0.06542698315700671
2191.25000000029,-0.095270716,-0.8960433,-0.14153346,-2.4034946,0.034828838,1.617599,0.7602646,0.04,0.03999951,-0.000397373084837227,0.019403922141408847,-0.02441224854266011,0.16127825280357713,-0.14659369621363266,0.13007450281132685,0.9926192927919563,0.08184578743625198,0.05979132136841706,0.06658231405677587
2191.266666666957,-0.09697015,-0.8980309,-0.14405403,-2.404334,0.035447188,1.6184292,0.75980645,0.04,0.039999507,0.0003727886915161349,0.018911503441793043,-0.024555651333102446,0.16218931720292284,-0.14785387453763688,0.13084378338448321,0.9923549775162321,0.08323356442024657,0.060945989718035117,0.06774480563075187
2191.283333333624,-0.09868124,-0.9000321,-0.1465919,-2.4051793,0.036069788,1.6192652,0.7593452,0.04,0.039999496,-0.00029216435071255376,0.018145315546314045,-0.02441150700582817,0.16307839065367483,-0.14910473028584953,0.1315941628489366,0.9920841926850714,0.08462831886389653,0.06211139215963169,0.06891427453491035
2191.3000000002908,-0.100403875,-0.90204704,-0.14914683,-2.4060302,0.03669657,1.6201067,0.75888073,0.04,0.039999504,-0.00046544910685675234,0.01746667077258679,-0.024814059264954835,0.16394502918237808,-0.150345651237693,0.13232603288936004,0.9918068779728858,0.08602982534105788,0.06328741249995201,0.07009057979875284
2191.3166666669576,-0.10213782,-0.90407515,-0.15171856,-2.4068873,0.03732747,1.6209538,0.7584133,0.04,0.0399995,-0.0019121098196794861,0.016707634784624004,-0.0246279218488743,0.1647892427633454,-0.15157756454226184,0.13303903624184088,0.9915229865202342,0.08743793220438818,0.06447362688322535,0.07127360416268487
2191.3333333336245,-0.10388285,-0.9061162,-0.1543068,-2.40775,0.03796241,1.6218064,0.75794286,0.04,0.0399995,-0.0010482794108757076,0.01614047590806078,-0.024437601779370155,0.16561136683917346,-0.15280425975547807,0.13373130692431995,0.9912324505812177,0.08885235581997288,0.06567023852350538,0.07246314616590196
2191.3500000002914,-0.10563881,-0.90817,-0.15691121,-2.408617,0.03860135,1.6226643,0.75746936,0.04,0.039999496,0.0003049892914219754,0.015653467812160038,-0.024226698515117384,0.16641055179737355,-0.15402110379670875,0.13440510598983563,0.9909351905139778,0.09027286384278703,0.06687759692009648,0.07365897966196142
2191.3666666669583,-0.1074055,-0.91023654,-0.15953153,-2.4094896,0.039244194,1.6235274,0.7569931,0.04,0.039999492,-0.0015501809024431878,0.014696028504374015,-0.024728736373402782,0.16718694505688542,-0.15522460317788409,0.1350604876929672,0.9906311697985843,0.09169933255622038,0.06809512293650676,0.07486101832391753
2191.383333333625,-0.10918271,-0.91231525,-0.16216752,-2.4103682,0.03989087,1.6243958,0.75651383,0.04,0.03999949,-0.00300124756607012,0.013972105396864443,-0.024389853923501015,0.16794009871573823,-0.15641794123942657,0.13569510826643316,0.9903203691603074,0.09313138974675256,0.06932243478157316,0.07606911795193542
2191.400000000292,-0.11097024,-0.9144061,-0.16481875,-2.411251,0.040541295,1.625269,0.756032,0.04,0.039999492,-0.0003896457916319207,0.013485096612914083,-0.02438361080148166,0.16867122082620167,-0.15760450066180956,0.13631026724685205,0.9900026879500307,0.09456898246409363,0.07056006110446066,0.07728300708664865
2191.416666666959,-0.11276788,-0.916509,-0.167485,-2.4121392,0.0411954,1.6261474,0.7555473,0.04,0.039999485,-0.0021905370881203368,0.012670302923345478,-0.0243423272868748,0.16937794395762312,-0.15877678052512811,0.13690550093006007,0.9896781068223988,0.09601173205701645,0.07180764901995704,0.07850257146152
2191.433333333626,-0.11457548,-0.9186234,-0.17016599,-2.4130325,0.041853137,1.6270305,0.75505996,0.04,0.03999948,-0.0028452632042430537,0.011948009911094681,-0.02436878305864809,0.17006231932910468,-0.15993877879455912,0.1374807495191108,0.989346586271738,0.09745952484648164,0.0730648252773293,0.07972769002266257
2191.4500000002927,-0.11639277,-0.92074966,-0.17286141,-2.4139304,0.042514406,1.6279182,0.7545698,0.04,0.039999478,-0.0014136662088937157,0.011356353562280708,-0.024469033645879712,0.1707228919393792,-0.16109150104734637,0.13803566244947743,0.989008062475455,0.09891197772318079,0.07433205059623127,0.08095813285640203
2191.4666666669596,-0.11821954,-0.92288655,-0.17557088,-2.4148328,0.04317913,1.6288106,0.75407726,0.04,0.03999948,-0.002773132280209367,0.010634131886216869,-0.023694760844805707,0.17136091262925515,-0.16222921675835472,0.13857047701501024,0.9886625188887701,0.10036903224355456,0.07560869820876358,0.08219370940759818
2191.4833333336264,-0.12005562,-0.9250344,-0.17829417,-2.41574,0.04384724,1.6297077,0.75358236,0.04,0.03999948,-0.002902073763699775,0.00995802537738788,-0.024015495325380165,0.17197503421138843,-0.16335606585623347,0.1390848547919695,0.9883098943638904,0.10183051427769786,0.07689483925315442,0.08343430206220293
2191.5000000002933,-0.12190078,-0.92719316,-0.18103093,-2.4166515,0.04451866,1.6306094,0.7530849,0.04,0.03999948,-0.002192365537911911,0.009316342069698447,-0.02384907970969241,0.1725647401200817,-0.16447127862446873,0.13957942161941872,0.9879501502087003,0.10329602526819368,0.07819069551509239,0.084679672893
2191.51666666696,-0.123754784,-0.9293621,-0.18378083,-2.417568,0.045193296,1.631515,0.75258493,0.04,0.039999478,-0.00454106732297177,0.008232644527395028,-0.024027272295978896,0.17313067953994568,-0.1655708582598143,0.1400520755131403,0.9875833249207449,0.10476530207416733,0.07949520956725796,0.08592973568941563
2191.533333333627,-0.12561747,-0.93154126,-0.18654352,-2.4184883,0.04587109,1.6324252,0.7520828,0.04,0.03999947,-0.0022652516378673937,0.008026962112944735,-0.02334437202025086,0.17367422517402642,-0.1666631649426299,0.14050569120172418,0.9872092985777684,0.10623832174937047,0.08080925583003963,0.08718419561860338
2191.550000000294,-0.12748857,-0.93373007,-0.18931873,-2.419413,0.04655196,1.6333394,0.7515784,0.04,0.039999474,-0.00433294143284968,0.006994736732424123,-0.023451908016158818,0.17419310486797568,-0.16773850610040794,0.1409369923482291,0.9868281107624802,0.10771470093783526,0.08213199051145915,0.08844297114780895
2191.566666666961,-0.12936789,-0.9359285,-0.19210616,-2.4203415,0.047235817,1.6342577,0.7510716,0.04,0.039999474,-0.0027248628985176993,0.006659435758588073,-0.023224802688015522,0.17468836333390433,-0.16880192680784836,0.14134698621384084,0.9864396968037706,0.1091941903352181,0.08346389020902899,0.08970581027947125
2191.5833333336277,-0.13125516,-0.9381365,-0.1949054,-2.4212742,0.047922578,1.6351798,0.7505626,0.04,0.039999463,-0.004242082172334349,0.005514644442594641,-0.023381271136213577,0.17516037197714865,-0.16985002643170097,0.14173736049928387,0.9860440652610278,0.1106765677288335,0.08480441083250465,0.0909725817080217
2191.6000000002946,-0.13315018,-0.9403536,-0.19771616,-2.4222102,0.048612174,1.6361057,0.75005174,0.04,0.039999463,-0.0031151439787713286,0.005174145173664213,-0.022830373720728048,0.17560886864316883,-0.17088478970057544,0.14210527104507611,0.9856411567923244,0.11216173446127062,0.08615377433394777,0.09224306222011042
2191.6166666669615,-0.13505273,-0.9425795,-0.20053811,-2.4231503,0.049304526,1.6370353,0.74953884,0.04,0.03999946,-0.0046495891988573845,0.0042210943446086,-0.022889962339167624,0.17603268599613867,-0.17190179007033218,0.14245268785467555,0.9852309931250416,0.11364936277125916,0.08751148426255072,0.09351712490071701
2191.6333333336283,-0.13696258,-0.9448141,-0.2033709,-2.424094,0.049999528,1.6379684,0.74902385,0.04,0.03999946,-0.0041528395746226465,0.0036262562233491114,-0.022637412198966977,0.1764323687530765,-0.1729067852977509,0.14277933243916496,0.9848135583655541,0.11513915486406776,0.08887759247889235,0.09479453481989131
2191.650000000295,-0.13887951,-0.947057,-0.20621422,-2.4250417,0.050697114,1.6389052,0.748507,0.04,0.03999946,-0.005338849679548119,0.002787433661788352,-0.02246529764295957,0.17680867346165666,-0.1738946814751659,0.14308528232555145,0.9843888494405927,0.11663097296456366,0.09025170063644579,0.09607517772346111
2191.666666666962,-0.14080335,-0.949308,-0.20906773,-2.425992,0.05139721,1.6398451,0.74798834,0.04,0.039999466,-0.00332036469119501,0.00255668871858572,-0.022155822546410242,0.17716190410224905,-0.17486907299119075,0.14336670667853518,0.983956818421131,0.11812460730417432,0.09163418332083224,0.09735878531968352
2191.683333333629,-0.14273378,-0.95156676,-0.21193103,-2.426946,0.05209972,1.6407882,0.74746794,0.04,0.039999463,-0.005314000581968514,0.0013297383953947417,-0.02211583805589168,0.17748983664571577,-0.17582506155846644,0.1436292604711662,0.983517512941233,0.11961975862820842,0.09302436943263911,0.09864523189328793
2191.700000000296,-0.14467059,-0.9538331,-0.21480383,-2.427903,0.05280457,1.6417347,0.7469457,0.04,0.03999945,-0.004607749892038271,0.0009568760836686785,-0.02154987900926386,0.17779411937154185,-0.17676603489230058,0.14387093959761568,0.9830709011856997,0.12111616297601072,0.09442254647854481,0.09993428352878628
2191.7166666669627,-0.14661358,-0.95610654,-0.21768576,-2.428862,0.05351166,1.6426842,0.7464217,0.04,0.03999946,-0.003648786546106564,0.0005473987867987695,-0.021279418120578875,0.1780754018465443,-0.17768896105821408,0.14408947285624346,0.9826169711794709,0.12261364772163891,0.09582869188983766,0.1012257040141458
2191.7333333336296,-0.14856252,-0.9583871,-0.22057651,-2.429825,0.05422091,1.6436363,0.74589604,0.04,0.03999946,-0.00675581215610066,-0.0008664687041359809,-0.021674121124659607,0.1783320023828861,-0.17859172932004325,0.14429017451297155,0.9821558031103967,0.12411191470537253,0.09724179292518119,0.10251948475014043
2191.7500000002965,-0.15051715,-0.96067435,-0.22347571,-2.430791,0.054932248,1.6445917,0.745369,0.04,0.039999455,-0.005211522971571014,-0.0010796648306887757,-0.02074430437586372,0.1785659250646583,-0.17948045484475877,0.14446706612447213,0.9816873292994047,0.125610896252465,0.09866239628956601,0.10381532542960702
2191.7666666669634,-0.15247723,-0.9629679,-0.226383,-2.4317589,0.055645578,1.6455495,0.7448405,0.04,0.039999455,-0.004758901434920304,-0.0016761902450534993,-0.020627309454113174,0.1787753171694788,-0.1803520957537924,0.1446222675533208,0.9812115844846148,0.12711026609145176,0.10009025120906086,0.10511302650128161
2191.7833333336303,-0.15444255,-0.9652677,-0.22929806,-2.4327297,0.056360807,1.6465099,0.74431056,0.04,0.039999455,-0.005973059917074863,-0.0026243823531835186,-0.020634087543802693,0.17896052726624206,-0.18120301150320872,0.14475727189282486,0.9807285997591294,0.12860977175769248,0.10152501130126274,0.10641246310094592
2191.800000000297,-0.15641282,-0.96757334,-0.23222052,-2.4337034,0.057077847,1.6474729,0.7437793,0.04,0.03999945,-0.00647570169767242,-0.003280348371437203,-0.02003507696646256,0.17912281820096732,-0.1820374320026441,0.14487025842119403,0.9802383982190971,0.13010922123355745,0.10296643609072356,0.10771344505506773
2191.816666666964,-0.15838782,-0.9698847,-0.23514996,-2.434679,0.057796627,1.6484377,0.74324673,0.04,0.039999463,-0.005159691815004308,-0.003886677226011548,-0.020097068684021835,0.17926128275255762,-0.18285468310651898,0.1449600775301063,0.9797409930794928,0.1316083127536104,0.1044145864853894,0.10901574483918418
2191.833333333631,-0.16036734,-0.9722013,-0.23808612,-2.4356573,0.05851705,1.6494048,0.74271286,0.04,0.039999455,-0.006812782575682519,-0.004641820360085092,-0.019598643707330332,0.17937666713437428,-0.18365193559940085,0.14503027493245796,0.9792364359175354,0.1331068352782293,0.10586896796787278,0.11031923946055106
2191.8500000002978,-0.16235113,-0.9745229,-0.24102858,-2.4366374,0.059239026,1.6503744,0.74217784,0.04,0.039999455,-0.005585757360648813,-0.004923433491849094,-0.018840897879046636,0.17946853862405163,-0.18443199425522816,0.1450802553839718,0.9787246923221614,0.13460465541810898,0.1073300020263782,0.11162362672696254
2191.8666666669646,-0.1643389,-0.9768494,-0.24397701,-2.4376192,0.059962474,1.6513457,0.7416417,0.04,0.039999455,-0.005695048639875466,-0.005813445184843502,-0.019106313265915276,0.179536926686568,-0.18519145195544381,0.14510888947066558,0.9782058284200811,0.1361014445926946,0.10879724818875448,0.11292879531509666
2191.8833333336315,-0.16633053,-0.9791803,-0.24693108,-2.4386032,0.0606873,1.6523191,0.7411046,0.04,0.039999455,-0.006853886019131394,-0.006399645193827519,-0.018487112530829464,0.17958235856757296,-0.18592758263635623,0.14511458378695874,0.9776798746701283,0.13759712386498496,0.11027037426096614,0.11423457764369126
2191.9000000002984,-0.16832566,-0.98151547,-0.24989042,-2.4395885,0.061413426,1.6532938,0.74056655,0.04,0.039999455,-0.005961950054045317,-0.007066643321657073,-0.01841616056752482,0.17960330198520164,-0.18664669414077925,0.14510194660738931,0.9771468696753215,0.13909136284176632,0.11174933936778002,0.11554078508217391
2191.9166666669653,-0.17032409,-0.9838546,-0.2528546,-2.4405756,0.062140748,1.6542706,0.74002755,0.04,0.039999455,-0.006452971411219366,-0.007662740961755787,-0.01761566336120346,0.17960189388779435,-0.18734446053746873,0.14506563294756367,0.9766068490767964,0.1405839373009458,0.11323409819471311,0.11684715621394115
2191.933333333632,-0.17232554,-0.98619705,-0.25582343,-2.4415646,0.0628692,1.6552489,0.7394879,0.04,0.039999448,-0.007741510215675262,-0.008372475666112988,-0.017438515645507024,0.17957698735319638,-0.18801866055775074,0.14501019394889003,0.9760598792716055,0.14207477728617082,0.11472390363653016,0.11815369511691023
2191.950000000299,-0.1743298,-0.988543,-0.25879645,-2.442555,0.063598655,1.6562284,0.7389472,0.04,0.039999448,-0.006792807099209597,-0.008980470848662936,-0.017256554642641753,0.17952843894365397,-0.18867602329022945,0.14493202754745285,0.9755060158824707,0.14356341587275806,0.11621896149374557,0.11946008366550694
2191.966666666966,-0.1763366,-0.9908918,-0.26177308,-2.4435465,0.06432906,1.6572094,0.73840606,0.04,0.039999444,-0.00678424871880523,-0.009703065884419937,-0.016475693053452645,0.1794582734092272,-0.18931147794705683,0.14483344936303552,0.974945289940337,0.1450498216549474,0.11771909672550195,0.12076607606092084
2191.983333333633,-0.1783457,-0.9932435,-0.2647533,-2.444539,0.065060325,1.6581914,0.7378643,0.04,0.03999945,-0.006621374064641472,-0.009975082532726054,-0.016483139840839378,0.17936502733865856,-0.1899258004039609,0.14471256129220036,0.9743777290086839,0.14653377877401666,0.11922420152262996,0.1220716292239061
2192.0000000002997,-0.18035686,-0.99559754,-0.26773646,-2.4455326,0.06579233,1.6591741,0.7373219,0.04,0.03999945,-0.007270007466431139,-0.011007459929446295,-0.01606912819327455,0.1792479514482057,-0.19051750420992147,0.1445747110031054,0.9738034714759641,0.14801491758715435,0.12073372114292995,0.12337646328214394
2192.0166666669666,-0.18236984,-0.99795383,-0.2707224,-2.446527,0.066525005,1.6601577,0.7367791,0.04,0.039999455,-0.007174770287887711,-0.01131869030062127,-0.015598316112552801,0.17910958907835953,-0.19108838213824472,0.14441370754737204,0.973222512064243,0.14949318417663282,0.12224774678285791,0.124680464799462
2192.0333333336334,-0.18438439,-1.0003121,-0.2737106,-2.447522,0.06725825,1.6611425,0.7362357,0.04,0.039999444,-0.006466097927493308,-0.011733792251383823,-0.01490403893860126,0.178949096581014,-0.19163704914119156,0.1442302751592848,0.9726349059360441,0.15096824939466352,0.1237664323240141,0.12598332294108866
2192.0500000003003,-0.18640025,-1.0026717,-0.27670088,-2.448517,0.067992024,1.6621275,0.735692,0.04,0.03999945,-0.0070284874992054824,-0.012397461386981501,-0.014810585292579503,0.1787647908930484,-0.19216042229204744,0.14403242858223037,0.972040740618713,0.15244005542708625,0.12528907427731506,0.12728501854320542
2192.066666666967,-0.18841721,-1.005033,-0.27969265,-2.449514,0.06872616,1.6631135,0.735148,0.04,0.039999448,-0.008846441539311911,-0.01360210873495582,-0.014343289294083128,0.17855850226433811,-0.19266128455830114,0.143811758343362,0.9714401299298416,0.15390822635037016,0.1268154095135057,0.12858531694364378
2192.083333333634,-0.19043502,-1.007395,-0.28268567,-2.4505107,0.06946064,1.6640996,0.73460376,0.04,0.039999444,-0.0071900821904336,-0.013529295953301768,-0.013817914943059506,0.17833150705639822,-0.19313986879733688,0.14356787263100065,0.9708331178558824,0.15537267305924804,0.12834532613779276,0.12988405213587248
2192.100000000301,-0.1924534,-1.0097579,-0.28567955,-2.451508,0.0701953,1.6650858,0.73405945,0.04,0.039999448,-0.007858853015552114,-0.014385418995011001,-0.013599537752528867,0.17808148246437977,-0.19359813307534024,0.14330914818356888,0.9702197884985073,0.15683318359230952,0.12987857287887666,0.13118106127470913
2192.116666666968,-0.19447215,-1.0121211,-0.28867406,-2.4525056,0.07093011,1.6660721,0.733515,0.04,0.039999444,-0.007868248553899448,-0.01466141905336893,-0.013013049361676465,0.17781053412276593,-0.19403283086719827,0.14302658804255325,0.9696002067286478,0.15828958816218563,0.13141499006435808,0.13247620834547527
2192.1333333336347,-0.19649091,-1.0144845,-0.29166847,-2.453503,0.07166495,1.6670587,0.73297054,0.04,0.039999437,-0.006956618471276599,-0.015410944623578393,-0.01234744627103268,0.17751727781982146,-0.19444460532525032,0.14272540344437176,0.9689744600446989,0.15974154489090092,0.13295471696447209,0.1337691214512883
2192.1500000003016,-0.19850957,-1.0168477,-0.2946628,-2.4545002,0.072399765,1.668045,0.73242617,0.04,0.03999944,-0.008060807957521732,-0.015739961808225456,-0.012173965551243171,0.17720325914609955,-0.19483025927198175,0.14240433179645942,0.9683426269572921,0.16118906324599008,0.1344971296741035,0.1350598564221001
2192.1666666669685,-0.20052776,-1.0192107,-0.29765657,-2.4554973,0.07313441,1.6690314,0.73188186,0.04,0.039999444,-0.0074512341736721055,-0.016305029624463785,-0.011600563124702923,0.17686734075327964,-0.1951930884433305,0.1420626707563884,0.9677047884949139,0.1626318036288805,0.13604237916644224,0.13634812005731894
2192.1833333336353,-0.20254534,-1.0215728,-0.30064923,-2.456494,0.07386882,1.6700175,0.7313376,0.04,0.039999433,-0.00801672732198,-0.016956068571716276,-0.01099999094631432,0.1765107083051934,-0.19552831800493697,0.14170037115231454,0.9670610797888516,0.16406956693793312,0.13758999679314915,0.1376337093334352
2192.200000000302,-0.20456198,-1.0239336,-0.3036407,-2.4574902,0.07460294,1.6710035,0.7307938,0.04,0.039999437,-0.007571590586907817,-0.017003895580969264,-0.01030064109378559,0.17613308889175874,-0.19584134701542583,0.14132215336909984,0.9664115217105483,0.16550238164333061,0.1391399541445548,0.13891654162171976
2192.216666666969,-0.20657751,-1.0262935,-0.3066305,-2.4584854,0.07533661,1.6719885,0.7302501,0.04,0.039999433,-0.007081885357740347,-0.017770438631503627,-0.010660588572808383,0.17573147433983557,-0.19612824054721373,0.1409283696221188,0.9657562520022566,0.16692983042994572,0.14069208512954395,0.14019640014310214
2192.233333333636,-0.20859161,-1.0286518,-0.30961806,-2.4594796,0.076069765,1.6729732,0.7297068,0.04,0.03999943,-0.007258510252050598,-0.018289980259023064,-0.009470353706342305,0.17531165726428025,-0.19638816090293507,0.14050909237837153,0.9650953677076809,0.1683517596996451,0.14224628587192029,0.14147300233914956
2192.250000000303,-0.21060404,-1.0310082,-0.31260318,-2.4604735,0.076802336,1.6739565,0.72916406,0.04,0.03999942,-0.00921975269210229,-0.019355638600193625,-0.009464152497995482,0.17486925131133432,-0.19662093103806721,0.14007987919339734,0.9644290539284885,0.16976800618280943,0.14380150952713888,0.14274645310140002
2192.2666666669697,-0.2126146,-1.0333625,-0.31558555,-2.461467,0.077534236,1.6749392,0.7286217,0.04,0.03999943,-0.008688172996240695,-0.019403639766635283,-0.008633888537512568,0.17440918725857374,-0.1968320821646556,0.13962352027628952,0.9637573658883986,0.17117839379821617,0.14535798176092013,0.14401650714730663
2192.2833333336366,-0.21462296,-1.0357145,-0.31856468,-2.462459,0.07826535,1.6759212,0.72808,0.04,0.039999433,-0.0069573216016305395,-0.019543697319490683,-0.008030663112301717,0.17392848199000524,-0.19701826644900375,0.1391515598169068,0.9630803513709058,0.17258276396482564,0.14691605817692668,0.14528282154235592
2192.3000000003035,-0.21662895,-1.0380635,-0.32154033,-2.4634504,0.078995615,1.676902,0.72753876,0.04,0.03999943,-0.009084796386371607,-0.020392108617406368,-0.007585754858363547,0.1734272757760252,-0.19717578418917808,0.13866274731370465,0.9623982196799663,0.17398092126865164,0.14847470596303056,0.1465454451033337
2192.3166666669704,-0.21863234,-1.0404096,-0.32451203,-2.46444,0.07972492,1.6778815,0.72699845,0.04,0.03999943,-0.007406873164406136,-0.02054116498015901,-0.007310825461515069,0.17290555656726986,-0.19731214102443367,0.1381598788611648,0.9617110131815032,0.17537281364495666,0.15003416133219688,0.14780410614391706
2192.3333333336373,-0.22063285,-1.0427521,-0.3274795,-2.4654279,0.080453195,1.6788596,0.72645867,0.04,0.039999433,-0.007301575479434774,-0.0207488526772992,-0.006565484284537515,0.1723641860170537,-0.19741884083552486,0.13763541287697392,0.9610188666222049,0.17675811821171047,0.15159431473273555,0.14905861056356356
2192.350000000304,-0.22263019,-1.0450913,-0.33044237,-2.4664142,0.081180334,1.6798357,0.72591996,0.04,0.03999942,-0.008337343396869201,-0.021834754379157495,-0.006512771605915457,0.17180452558890952,-0.19749617211538734,0.13709013004754345,0.9603219329220537,0.17813676778894574,0.15315447356998035,0.15030896292656717
2192.366666666971,-0.2246242,-1.0474265,-0.3334002,-2.4673991,0.08190625,1.6808102,0.7253821,0.04,0.039999425,-0.008450507796320395,-0.022021464509314193,-0.00556972787870702,0.1712248952388648,-0.1975522974960784,0.1365316353975971,0.959620338452591,0.17950854275296843,0.15471457402622352,0.15155490652144762
2192.383333333638,-0.22661453,-1.0497575,-0.33635268,-2.4683826,0.082630865,1.6817832,0.72484535,0.04,0.039999437,-0.008572726547440013,-0.022491814101588403,-0.004970969803586023,0.17062629671372304,-0.19758109664027002,0.1359554343949278,0.9589141878662395,0.1808733595266073,0.15627439243271732,0.15279634286256308
2192.4000000003048,-0.22860107,-1.0520838,-0.3392995,-2.4693637,0.08335409,1.682754,0.7243094,0.04,0.039999437,-0.0075228851432296295,-0.02245996970157149,-0.004683186499199188,0.17000826363476954,-0.19758435625676524,0.13536280331765277,0.9582036239884996,0.1822309406719007,0.15783382883386388,0.15403305396174913
2192.4166666669717,-0.2305835,-1.0544056,-0.34224018,-2.4703422,0.08407583,1.6837231,0.7237747,0.04,0.039999444,-0.006792331446092703,-0.02277408692300531,-0.004028909828257543,0.1693724959159811,-0.19756084008806568,0.1347523838423373,0.9574887020386083,0.1835812876099963,0.15939303460375837,0.15526479584143393
2192.4333333336385,-0.23256159,-1.0567224,-0.34517443,-2.4713194,0.08479601,1.6846901,0.7232411,0.04,0.039999433,-0.009497173984840401,-0.024028263580533338,-0.0035287523467264492,0.16871503650826378,-0.19751001002656818,0.13413203263750878,0.956769675233649,0.18492409466057594,0.1609510271398348,0.1564916439618946
2192.4500000003054,-0.23453508,-1.0590336,-0.34810194,-2.472295,0.08551453,1.6856548,0.7227087,0.04,0.03999944,-0.009399747216587429,-0.024166937162251045,-0.0028802728699095503,0.1680422462852735,-0.1974315496563499,0.13348916056722962,0.9560466958165155,0.18625926526035316,0.1625074310977737,0.1577134628400464
2192.4666666669723,-0.23650376,-1.0613394,-0.35102233,-2.4732668,0.0862313,1.6866173,0.72217774,0.04,0.039999437,-0.005303732369688063,-0.02330562749945919,-0.0025401158622484488,0.16735359817521867,-0.1973289695665118,0.13282573802437234,0.9553196984613931,0.18758681396567087,0.1640633367922653,0.1589298036191748
2192.483333333639,-0.23846738,-1.0636392,-0.35393518,-2.4742367,0.08694624,1.6875772,0.72164804,0.04,0.03999944,-0.009075741092656742,-0.024943156669221533,-0.001847439966007336,0.16664258600944637,-0.19719490306105303,0.1321532463469848,0.9545890248194383,0.18890637117350295,0.165617358040396,0.1601407735089718
2192.500000000306,-0.2404257,-1.0659331,-0.35684022,-2.4752047,0.08765923,1.6885346,0.7211198,0.04,0.039999437,-0.008906734781310988,-0.025297677656288542,-0.0015993508266753942,0.16591558543216975,-0.19703676452717894,0.13146448061520635,0.9538547783938749,0.19021786850075031,0.1671693933098982,0.16134626794135531
2192.516666666973,-0.24237852,-1.0682207,-0.35973707,-2.4761686,0.08837023,1.6894891,0.720593,0.04,0.03999944,-0.0055806612139441825,-0.02452899079452564,-0.0011390593991023046,0.16517014292455146,-0.1968548230071896,0.13076355726581815,0.9531170001891855,0.1915211741623163,0.16872004720888822,0.1625458995720479
2192.53333333364,-0.24432556,-1.0705016,-0.36262533,-2.4771307,0.089079164,1.6904409,0.72006756,0.04,0.039999444,-0.009535961355355838,-0.026081689980750333,-0.00014095507331335355,0.16440912720030101,-0.19663612654619783,0.13004145250641486,0.9523759964129715,0.1928160759971219,0.17026802932390542,0.16373979505186112
2192.5500000003067,-0.24626657,-1.0727754,-0.36550474,-2.478089,0.0897859,1.69139,0.7195439,0.04,0.039999444,-0.006700605199494447,-0.025308017145853068,0.00033005341080194484,0.16363009085345387,-0.19639758871298907,0.1293125269101828,0.9516317602331189,0.1941026494493752,0.17181395652879414,0.1649276166512757
2192.5666666669736,-0.24820139,-1.0750421,-0.36837482,-2.4790444,0.09049036,1.6923358,0.7190219,0.04,0.03999944,-0.00766352794183689,-0.026321674198848122,0.00045374520980523414,0.16283497200743832,-0.19612414084770494,0.1285605734381286,0.9508845323231809,0.195380628069528,0.1733571758341385,0.1661093192764749
2192.5833333336404,-0.25012973,-1.077301,-0.37123537,-2.4799972,0.09119248,1.6932786,0.7185018,0.04,0.03999944,-0.009047563565145467,-0.026623460343622174,0.0015616279898211793,0.16202231084984084,-0.19582701230767885,0.127799342913974,0.9501344945549346,0.19664999767524716,0.1748970757938013,0.16728488739255967
2192.6000000003073,-0.25205135,-1.079552,-0.37408602,-2.480946,0.09189217,1.694218,0.7179835,0.04,0.03999945,-0.006872640784072459,-0.026346947444544355,0.001831230271120976,0.16119335174167515,-0.19550542902534684,0.12702252144339427,0.9493817214311908,0.1979105858069934,0.17643408007501332,0.16845403653805782
2192.616666666974,-0.2539661,-1.081795,-0.37692642,-2.4818919,0.09258933,1.6951541,0.7174669,0.04,0.03999946,-0.008284790512025353,-0.027115843157043962,0.0023403762006379836,0.16034776929741346,-0.19515377302766232,0.1262326888975541,0.9486264489005997,0.19916219294579732,0.17796753944489616,0.16961673340560554
2192.633333333641,-0.25587356,-1.0840299,-0.37975615,-2.4828336,0.093283914,1.6960868,0.7169522,0.04,0.03999945,-0.006276643490155109,-0.02704921875614774,0.002772011686691389,0.15948685385916245,-0.194778197311887,0.12542855656626006,0.9478687411048953,0.20040468171740902,0.1794978979445647,0.1707727080521
2192.650000000308,-0.25777376,-1.0862558,-0.38257495,-2.4837723,0.093975805,1.6970159,0.71643966,0.04,0.03999946,-0.008904914363894179,-0.027594201754577163,0.003728039687556084,0.1586097850006953,-0.19436950115865503,0.1246144708983241,0.9471088528386544,0.20163817697905295,0.18102398288393326,0.17192202907146456
2192.666666666975,-0.25966632,-1.0884728,-0.38538244,-2.4847069,0.094664924,1.6979412,0.71592903,0.04,0.039999455,-0.006968279630514829,-0.027596115767525298,0.0038574299581539684,0.15771701932800108,-0.19393820262163658,0.12378422976741836,0.946346906753668,0.20286233472422976,0.1825461667322678,0.1730644453357017
2192.6833333336417,-0.2615511,-1.0906807,-0.3881783,-2.4856374,0.095351234,1.6988627,0.7154205,0.04,0.039999463,-0.007114672272523492,-0.027810918010118257,0.004494609300842445,0.1568091622284914,-0.1934784697688793,0.12294335945945914,0.9455830501287834,0.20407714930404774,0.18406418000974656,0.1741998567118233
2192.7000000003086,-0.26342762,-1.0928795,-0.39096227,-2.486564,0.09603461,1.6997802,0.7149141,0.04,0.03999947,-0.006938196667993779,-0.02825550875333871,0.00489207309292139,0.15588602172861954,-0.19299107308099622,0.12208960599416645,0.9448174472658378,0.20528237251316292,0.18557790496383858,0.17532820670578148
2192.7166666669755,-0.26529616,-1.0950685,-0.39373395,-2.4874868,0.09671496,1.7006937,0.7144099,0.04,0.03999946,-0.008388941991066545,-0.028394501978168396,0.005602495268708374,0.1549491867080712,-0.192474528562484,0.12122421494441164,0.9440503099954318,0.20647816585643705,0.1870866010232283,0.17644937783870507
2192.7333333336423,-0.26715606,-1.0972476,-0.396493,-2.4884055,0.09739222,1.7016032,0.713908,0.04,0.039999463,-0.00686509173908334,-0.02862351634373983,0.006126759490743261,0.15399695838686647,-0.1919345845227642,0.12034599995469313,0.943281764181816,0.20766423951285506,0.18859052150672742,0.17756320617574245
2192.7500000003092,-0.26900727,-1.0994161,-0.39923915,-2.4893196,0.09806631,1.7025083,0.71340865,0.04,0.039999455,-0.007192292674629286,-0.028485413178336305,0.006809669823326647,0.15303091826767012,-0.19136453757827657,0.11945605964453866,0.9425119758389223,0.2088407141168747,0.19008917746522797,0.1786696284709787
2192.766666666976,-0.2708495,-1.1015749,-0.40197206,-2.4902296,0.09873719,1.7034093,0.71291155,0.04,0.03999946,-0.006970486334934023,-0.029240546275988155,0.006906687022101288,0.15205009406699846,-0.19077087698157902,0.11855467069282344,0.9417411082718655,0.21000718945734387,0.1915827265092138,0.1797685296997265
2192.783333333643,-0.2726826,-1.1037228,-0.4046914,-2.4911346,0.09940475,1.7043054,0.7124169,0.04,0.03999947,-0.006496571770542303,-0.028937071371482048,0.007469240644786268,0.1510553288541365,-0.19014624317023687,0.11764370338152427,0.9409693542449111,0.21116374753776693,0.19307066567393424,0.18085979142403436
2192.80000000031,-0.27450633,-1.10586,-0.40739685,-2.4920354,0.10006888,1.705197,0.71192473,0.04,0.03999947,-0.007277697445084996,-0.02949764636170915,0.008135374307016718,0.15004753627972217,-0.18949642211648232,0.11672144326629655,0.9401968955965262,0.21231024097903636,0.19455277317188888,0.18194333606154894
2192.8166666669767,-0.2763205,-1.107986,-0.41008815,-2.492931,0.10072954,1.706084,0.7114352,0.04,0.039999466,-0.005904000022871614,-0.028976090406684918,0.008662273573534218,0.1490267495491721,-0.18881888763635873,0.11578796574710068,0.9394238203367221,0.21344672390881145,0.1960291753579105,0.1830189723636626
2192.8333333336436,-0.27812484,-1.1101004,-0.41276488,-2.493822,0.10138667,1.7069663,0.7109485,0.04,0.039999463,-0.0077586019413100615,-0.029970641194609904,0.009444771975908317,0.14799161770245187,-0.18811193082498295,0.11484560727686471,0.9386504038685817,0.21457310907317118,0.1974990217011653,0.18408676380202932
2192.8500000003105,-0.2799192,-1.1122031,-0.41542685,-2.4947085,0.10204016,1.7078438,0.7104645,0.04,0.039999466,-0.006916281970337224,-0.029685518123057086,0.009773822012026923,0.1469439728337709,-0.18738232623294998,0.11389181174007296,0.9378767831934036,0.21568924824088836,0.19896241645156248,0.1851465489276769
2192.8666666669774,-0.2817034,-1.1142942,-0.41807377,-2.4955893,0.10268993,1.7087163,0.70998293,0.04,0.039999474,-0.005213985954588551,-0.029342541748555995,0.009869063692369284,0.14588387671438224,-0.1866260212508739,0.11292763169432286,0.9371030727236223,0.21679500494348358,0.20041961868386912,0.18619810248794955
2192.8833333336443,-0.28347722,-1.1163731,-0.42070538,-2.4964657,0.103335924,1.7095838,0.70950437,0.04,0.03999947,-0.007924107580503659,-0.030366055861619223,0.010885205744970428,0.144810451489255,-0.18583996841343492,0.11195673097546713,0.9363295313082384,0.21789046135925205,0.20186959525001416,0.18724161439792875
2192.900000000311,-0.28524047,-1.1184397,-0.42332125,-2.4973369,0.10397807,1.7104459,0.70902854,0.04,0.039999478,-0.006341749518723461,-0.030141550817763818,0.01104039548602831,0.14372638108276034,-0.18503116529183955,0.11097359882881207,0.9355563229720363,0.21897541164223508,0.20331250049275396,0.18827682487906117
2192.916666666978,-0.28699294,-1.1204937,-0.42592102,-2.4982016,0.1046163,1.7113029,0.7085557,0.04,0.039999485,-0.004312142338003255,-0.029431624752829233,0.011574816553328038,0.14263035694697293,-0.1841960135540845,0.1099812061518771,0.9347834993458581,0.22004995097027072,0.20474871038473394,0.18930344430168686
2192.933333333645,-0.28873438,-1.1225348,-0.42850456,-2.4990616,0.105250545,1.7121545,0.7080857,0.04,0.03999948,-0.007354332303943778,-0.030649157148132655,0.012345901201860077,0.14152085807531023,-0.18333026916235678,0.10898326962099196,0.9340113986932795,0.2211138549129788,0.20617714814396532,0.19032171147761093
2192.950000000312,-0.2904647,-1.1245629,-0.4310715,-2.499916,0.1058807,1.7130007,0.70761883,0.04,0.039999485,-0.006096469428085172,-0.030325586642343527,0.012571569333541532,0.14040086294285206,-0.1824416932441636,0.10797616614567025,0.9332401207177584,0.22216720300835643,0.2075979257994973,0.19133141977702955
2192.9666666669787,-0.2921836,-1.1265773,-0.43362164,-2.5007646,0.106506765,1.7138413,0.70715517,0.04,0.039999474,-0.005763962670757294,-0.03003196678441622,0.013349756866554152,0.13926924687987724,-0.1815273342939356,0.10696044739756447,0.9324698125198587,0.22321004079860865,0.20901082915305322,0.19233252382947683
2192.9833333336455,-0.29389095,-1.1285783,-0.43615457,-2.5016072,0.107128605,1.7146764,0.70669436,0.04,0.039999478,-0.005268401465485795,-0.030366597430708797,0.013487341410212128,0.13812614689818423,-0.1805878204951957,0.10593513960562492,0.9317006916371343,0.22424202769223336,0.2104159055401295,0.19332480677628713
2193.0000000003124,-0.29558647,-1.1305658,-0.43867007,-2.502444,0.107746184,1.7155055,0.7062368,0.04,0.039999492,-0.005884242235465464,-0.030794115478771644,0.013958597407437434,0.1369723899727284,-0.17962107319434462,0.10490531461559174,0.9309329482209754,0.2252631971529734,0.21181264590540955,0.19430836564485052
2193.0166666669793,-0.29727012,-1.1325393,-0.44116786,-2.503275,0.10835939,1.7163289,0.70578265,0.04,0.03999949,-0.005522462777074466,-0.030408329984821236,0.014502489315249001,0.13580879069121077,-0.17862939193458952,0.10386740658521151,0.9301666872858638,0.22627372813327926,0.21320099825751743,0.19528304627464949
2193.033333333646,-0.29894173,-1.1344987,-0.44364774,-2.5041003,0.10896823,1.7171464,0.70533144,0.04,0.039999492,-0.006305003215922866,-0.0308517223318594,0.015019368183255555,0.1346335264316634,-0.17761362650811396,0.10282261513831956,0.929402174798292,0.2272732779581792,0.21458061061916364,0.19624886280602064
2193.050000000313,-0.30060098,-1.1364435,-0.44610944,-2.50492,0.1095726,1.717958,0.7048837,0.04,0.03999949,-0.006320649108904064,-0.030824661597705916,0.015752387726719608,0.13345036325321308,-0.1765738148585105,0.1017696187220174,0.9286395692208224,0.2282620207761573,0.21595109799605763,0.19720579003378058
2193.06666666698,-0.30224776,-1.1383737,-0.4485526,-2.5057333,0.11017244,1.7187634,0.7044394,0.04,0.0399995,-0.004882496120606206,-0.03059624863506194,0.015751500489435966,0.13225756200594296,-0.17551227989618454,0.10070915673648954,0.9278789881584742,0.2292398921448449,0.21731266056428442,0.19815363418796547
2193.083333333647,-0.30388194,-1.1402893,-0.450977,-2.50654,0.110767655,1.7195626,0.7039985,0.04,0.03999949,-0.004771998280128642,-0.03052485680951067,0.01620070600402146,0.1310544698245884,-0.17442572278923063,0.09964237781011909,0.9271205960016157,0.23020683587940957,0.21866521474482306,0.19909228273491647
2193.1000000003137,-0.30550325,-1.1421899,-0.45338234,-2.5073407,0.111358196,1.7203555,0.703561,0.039999995,0.03999949,-0.005466945493903808,-0.03096860363649423,0.0167799220185727,0.1298418363862764,-0.17331288537058231,0.0985705510434269,0.9263646477154365,0.2311627251178088,0.22000822765286657,0.2000217831742536
2193.1166666669806,-0.30711162,-1.1440754,-0.4557684,-2.5081348,0.11194404,1.7211419,0.70312697,0.04,0.039999515,-0.004867109446671236,-0.030796851370384903,0.01700705902007993,0.1286215693231522,-0.17217814472213205,0.09749192866746767,0.9256112560696427,0.2321075846842051,0.22134173920191572,0.2009420470093655
2193.1333333336474,-0.30870682,-1.1459457,-0.45813498,-2.5089226,0.112525076,1.7219219,0.7026964,0.04,0.039999515,-0.004931062198565428,-0.030793753473146168,0.01752338437774892,0.12739233461574023,-0.1710199233308354,0.09640878224516783,0.9248606078713035,0.23304135822391692,0.222665542251264,0.20185301003211603
2193.1500000003143,-0.31028864,-1.1477998,-0.4604818,-2.5097032,0.113101274,1.7226956,0.7022694,0.04,0.039999515,-0.004213880030512485,-0.030189842627814656,0.01828914332520082,0.1261555176300821,-0.16983831681714162,0.09532007761542874,0.9241128383407858,0.2339641724759931,0.22397953051632788,0.20275452626524915
2193.166666666981,-0.31185704,-1.1496387,-0.46280864,-2.5104775,0.11367256,1.7234628,0.7018461,0.04,0.039999526,-0.0050663496745873005,-0.030964347730166875,0.018300361232004292,0.12490995279083938,-0.16863322397844288,0.0942269695061335,0.9233681109443392,0.23487596075072897,0.2252834655557657,0.20364669135463165
2193.183333333648,-0.31341177,-1.1514616,-0.4651152,-2.511245,0.114238895,1.7242231,0.7014267,0.04,0.03999953,-0.004289423971615136,-0.03082612915608074,0.0186545996546994,0.12365519829104712,-0.16740444815134392,0.09312878172594863,0.9226266225610079,0.2357766689510206,0.22657713577371993,0.2045294092902178
2193.200000000315,-0.3149527,-1.153268,-0.46740124,-2.5120058,0.11480019,1.7249767,0.7010108,0.04,0.039999533,-0.00511423648670295,-0.030750305855542504,0.019517673077629194,0.12239343098576282,-0.16615366226988176,0.09202576434997299,0.9218886171819258,0.23666625202505875,0.22786009394533593,0.20540262960836378
2193.216666666982,-0.31647968,-1.1550585,-0.4696667,-2.5127592,0.115356416,1.7257234,0.7005987,0.04,0.039999545,-0.0031277724534373164,-0.030303253946950548,0.019108112321220005,0.12112498555367353,-0.16488358099238537,0.09091837822171822,0.9211540818794881,0.23754472540332588,0.22913292735164165,0.20626624171948998
2193.2333333336487,-0.31799263,-1.1568321,-0.47191128,-2.5135062,0.11590753,1.7264638,0.7001904,0.04,0.039999556,-0.005273171953490419,-0.030514893597655135,0.02057546083861217,0.11984828265163701,-0.16358754500357747,0.08980848312801781,0.9204232821133999,0.2384122277021556,0.23039482533311426,0.20712029327281298
2193.2500000003156,-0.31949136,-1.1585895,-0.47413477,-2.5142462,0.11645346,1.7271967,0.6997859,0.04,0.039999552,-0.004200976574608717,-0.031006244772102676,0.019848389889165485,0.11856456401344223,-0.16227383068916962,0.08869285016424538,0.9196964136324609,0.2392684654889609,0.23164573789789797,0.2079648054067936
2193.2666666669825,-0.32097566,-1.1603297,-0.47633693,-2.5149791,0.11699416,1.7279223,0.6993852,0.04,0.039999563,-0.0043601118267844186,-0.030579331666835685,0.020831806617715998,0.11727537207395546,-0.16093729213414745,0.08757360156042497,0.9189736533017872,0.24011358596121127,0.2328853350703133,0.2087996912909657
2193.2833333336494,-0.32244545,-1.1620531,-0.47851756,-2.5157049,0.11752954,1.7286416,0.69898844,0.04,0.039999582,-0.0034379109355331394,-0.030059883323496628,0.02122077959704205,0.11598153792569073,-0.15958251864872292,0.08644865950909544,0.9182550131863408,0.24094764462454432,0.23411414545620834,0.20962473662558695
2193.3000000003162,-0.32390052,-1.1637595,-0.4806764,-2.516423,0.11805961,1.7293535,0.6985955,0.04,0.0399996,-0.0031356418082051363,-0.030365461540726724,0.02118243160695865,0.11467945269576806,-0.1582039594731265,0.08532283080314386,0.9175407428386676,0.24177049485823987,0.23533171917409668,0.21044000332073792
2193.316666666983,-0.3253408,-1.1654483,-0.48281336,-2.517134,0.11858429,1.7300581,0.6982066,0.04,0.03999962,-0.00423133610030213,-0.030445299985282226,0.021836058485080745,0.11337162313584154,-0.1568036502544193,0.08419558895272802,0.9168310393501269,0.24258225333526098,0.23653753886146567,0.21124556411985093
2193.33333333365,-0.32676625,-1.16712,-0.4849281,-2.5178373,0.11910355,1.7307552,0.697822,0.04,0.03999963,-0.0028932111938217986,-0.030207187609565533,0.021737758505724347,0.11205906618449009,-0.15538735931018244,0.08306463759612757,0.9161259445798723,0.24338301300104578,0.23773189676292145,0.21204128822395202
2193.350000000317,-0.3281766,-1.1687738,-0.48702055,-2.5185335,0.119617335,1.731445,0.69744146,0.04,0.039999656,-0.0042034038913563165,-0.03037225138611266,0.02267583777558757,0.11073990117799086,-0.15394748246307027,0.08193050034153333,0.9154257272929514,0.2441726986844006,0.23891417855417751,0.21282726872544017
2193.3666666669837,-0.32957172,-1.1704099,-0.48909044,-2.5192225,0.1201256,1.7321273,0.697065,0.04,0.03999967,-0.003789687275990161,-0.03043423647467458,0.022815235471973505,0.1094159292116792,-0.1524933422001959,0.08079411843267749,0.9147305290236367,0.24495122296825514,0.24008443604868115,0.21360342039789684
2193.3833333336506,-0.33095154,-1.1720282,-0.49113765,-2.5199037,0.120628275,1.7328024,0.6966925,0.04,0.039999686,-0.0026168453943764547,-0.02969405220140109,0.022984156781513665,0.10810059485618552,-0.1509985828612665,0.07962608565399444,0.914040426040114,0.2457186466006056,0.24124288020208925,0.2143695851303858
2193.4000000003175,-0.33231598,-1.1736282,-0.49316204,-2.5205774,0.12112538,1.7334698,0.6963244,0.04,0.03999968,-0.003723624588669594,-0.030073374830408284,0.023467996738812946,0.10675527235693155,-0.14953115696481567,0.0785169844290516,0.9133556075421062,0.24647512780892938,0.2423888803828496,0.21512595429122516
2193.4166666669844,-0.33366486,-1.1752101,-0.49516338,-2.521243,0.1216168,1.7341297,0.6959604,0.04,0.039999746,-0.0022709064984471894,-0.029573347109479453,0.02342733947205966,0.10543512760062788,-0.14799090215910055,0.07733456370619192,0.912676183423655,0.24722053389091878,0.24352276509322635,0.21587231113616542
2193.4333333336513,-0.3349981,-1.1767734,-0.4971415,-2.5219014,0.12210256,1.7347817,0.69560057,0.04,0.03999974,-0.0037603042331912917,-0.030014555089530326,0.024195477275223976,0.10407974842380381,-0.14649255640094855,0.07622633984845376,0.9120023960087593,0.24795489664497944,0.24464387186689782,0.21660880605837035
2193.450000000318,-0.33631554,-1.1783185,-0.49909633,-2.522552,0.12258254,1.7354262,0.695245,0.039999995,0.039999772,-0.002884190992036295,-0.029725779141476227,0.024143266735332514,0.10275074116217901,-0.1449224395301488,0.07504558330172498,0.9113342997287744,0.2486782414815742,0.24575245081706396,0.21733536129425154
2193.466666666985,-0.3376172,-1.1798452,-0.5010275,-2.5231946,0.123056784,1.7360628,0.6948937,0.04,0.039999794,-0.0020572277569463893,-0.02952514510359272,0.024212653662536443,0.10140313434659269,-0.14336593936684933,0.07390129732693725,0.9106720294758959,0.24939055550356198,0.24684851627853333,0.21805186439690055
2193.483333333652,-0.3389029,-1.1813532,-0.50293505,-2.523829,0.12352523,1.7366912,0.69454664,0.039999995,0.03999981,-0.002389309429906561,-0.029423607367573545,0.024544521069691516,0.10005432718102816,-0.1417893504348658,0.07275296815824878,0.9100157570615951,0.2500918677509158,0.24793173857223708,0.2187583886231983
2193.500000000319,-0.3401726,-1.1828425,-0.504819,-2.5244555,0.123987846,1.7373122,0.694204,0.04,0.039999835,-0.00244040400487755,-0.028986528478991413,0.02494291152861372,0.09870190239487078,-0.14019971008169607,0.0716079135572896,0.9093655010974442,0.25078238450600066,0.24900221721312113,0.21945495405259907
2193.5166666669857,-0.34142616,-1.1843126,-0.50667894,-2.5250742,0.12444458,1.7379254,0.69386566,0.04,0.039999876,-0.002742907338060263,-0.02912458843665755,0.025484266544228973,0.0973470916411553,-0.13858808774333817,0.07045673298931142,0.9087215026274827,0.2514620571895814,0.2500595558148229,0.22014150676809435
2193.5333333336525,-0.34266347,-1.1857638,-0.5085148,-2.525685,0.12489541,1.7385306,0.69353163,0.04,0.03999992,-0.0023979962895381846,-0.02927712276532546,0.02541532338175001,0.09598982618057826,-0.13696706238013734,0.06930723065731435,0.9080838937793041,0.2521307606691596,0.2511037676133579,0.22081806826748873
2193.5500000003194,-0.3438845,-1.1871961,-0.5103265,-2.5262883,0.1253403,1.7391281,0.693202,0.04,0.03999996,-0.0026481472678696605,-0.02913245870489467,0.025803623661180275,0.09463164248920419,-0.13532930620803152,0.06815637745445184,0.9074527726924427,0.2527886301898396,0.25213474072089803,0.22148464123082673
2193.5666666669863,-0.3450891,-1.1886091,-0.512114,-2.5268834,0.12577923,1.7397175,0.6928769,0.04,0.03999999,-0.0022462777921727906,-0.028748222162910952,0.02589367749237237,0.09327084883632804,-0.13368023387251587,0.067008202714716,0.9068282555211944,0.2534357422087697,0.2531523138993274,0.22214127380316717
2193.583333333653,-0.34627736,-1.1900032,-0.5138769,-2.5274696,0.12621215,1.7402986,0.6925562,0.04,0.04,-0.0005777477344537374,-0.028359263387622846,0.025528292746912484,0.09190828511304355,-0.13201881791515024,0.06586070905043212,0.9062103972366091,0.2540720926263619,0.25415687550707305,0.22278772479921505
2193.60000000032,-0.3474489,-1.1913776,-0.5156154,-2.5280473,0.1266391,1.7408715,0.6922399,0.04,0.04,-0.0014364986836046256,-0.02831767880094871,0.026275650520879434,0.09054140351244429,-0.13034476780295773,0.0647206580681263,0.9055993826222698,0.2546976431999419,0.25514799906548197,0.22342418695262037
2193.616666666987,-0.34860393,-1.1927328,-0.5173292,-2.5286171,0.12705995,1.7414366,0.6919281,0.04,0.04,-0.0020956494148016702,-0.02844179011557424,0.02652872405720652,0.08917614705486443,-0.12865650187760352,0.06357725718210089,0.9049953084987672,0.2553125690757898,0.25612557667851676,0.2240506028517628
2193.633333333654,-0.3497422,-1.1940682,-0.5190183,-2.529179,0.12747483,1.7419934,0.69162077,0.04,0.04,-0.0025129911395804783,-0.028611153470414763,0.027054049898134203,0.08780913596000528,-0.1269559435674977,0.062436326759751526,0.9043983714862542,0.2559167916888999,0.257089190907391,0.2246671522569659
2193.6500000003207,-0.35086387,-1.1953844,-0.5206825,-2.5297327,0.12788355,1.7425423,0.69131804,0.04,0.04,-0.0010178573683905512,-0.027914718253019277,0.026511636433190766,0.08644243903927198,-0.12525073133021353,0.06129827510163949,0.9038085301439811,0.2565104693882801,0.2580393898238022,0.22527359639456293
2193.6666666669876,-0.3519688,-1.1966807,-0.522322,-2.5302784,0.1282862,1.7430829,0.69101983,0.04,0.04,-0.002468632667085302,-0.028052848983273204,0.02722005429416363,0.08507164325889734,-0.12353765129502711,0.06016956147149211,0.903225988090016,0.2570936550425939,0.2589755054353638,0.22587021618653508
2193.6833333336544,-0.35305688,-1.1979573,-0.5239365,-2.5308156,0.12868273,1.7436153,0.69072604,0.04,0.04,-0.0009030111302710253,-0.027587418424079857,0.026999615304501567,0.08370233989784051,-0.12181283490682274,0.059038302001672295,0.9026507998875359,0.25766628132631064,0.259897932287129,0.22645680763169165
2193.7000000003213,-0.35412803,-1.1992142,-0.52552575,-2.5313447,0.12907313,1.7441392,0.6904369,0.04,0.04,-0.0015981892025784816,-0.028149117574471916,0.027386887348035405,0.08233315790732865,-0.12008133342342857,0.05791243579619348,0.9020831562395631,0.2582283570379923,0.26080626572366167,0.22703344821767046
2193.716666666988,-0.3551823,-1.2004514,-0.52709043,-2.5318646,0.12945738,1.7446551,0.6901522,0.04,0.04,-0.0001184679622401319,-0.026299455999867494,0.026901504639609275,0.08096572636764655,-0.11834048165320621,0.05678809796914993,0.9015228655663959,0.25878019856361717,0.2617011443571541,0.22760018175406807
2193.733333333655,-0.3562196,-1.2016686,-0.52862996,-2.5323765,0.12983552,1.7451627,0.6898722,0.04,0.04,-0.0016199229517788183,-0.027515213506035252,0.027662614250345552,0.0795967876225283,-0.11658781829566302,0.055666219712140474,0.9009702434976135,0.25932169819225953,0.26258183639921273,0.22815708705133594
2193.750000000322,-0.35724,-1.2028661,-0.53014386,-2.5328798,0.13020746,1.7456617,0.6895967,0.04,0.04,-0.0005823813651328891,-0.027429096018194432,0.027524854121840914,0.07822869335957526,-0.11482722839561488,0.05454707391418512,0.9004254337638489,0.2598527697869571,0.2634484649736628,0.22870391900501372
2193.766666666989,-0.35824332,-1.2040433,-0.5316326,-2.533375,0.13057324,1.7461525,0.68932575,0.04,0.04,-0.0017223069310734473,-0.02699463584185935,0.02811343329583993,0.07686475325423262,-0.1130602777735851,0.05343089464073281,0.8998884815281044,0.26037360345457444,0.2643007464401556,0.229240971181635
2193.7833333336557,-0.35922953,-1.2052009,-0.5330961,-2.5338614,0.13093282,1.7466351,0.6890595,0.039999995,0.04,0.00019462660003632948,-0.026513752866619278,0.02746864664057158,0.07550477374637936,-0.11128314622933666,0.05231247070342405,0.899359324793222,0.260884244302753,0.2651392808743482,0.2297680955213208
2193.8000000003226,-0.3601987,-1.206338,-0.53453434,-2.5343397,0.1312862,1.7471093,0.6887978,0.039999977,0.04,-0.0018082699933419377,-0.02660924180227786,0.028326536817668835,0.07414083448433666,-0.1095079668533781,0.05120973038045081,0.8988382020877486,0.26138480550781396,0.26596326261413694,0.23028550292397787
2193.8166666669895,-0.36115098,-1.2074554,-0.53594726,-2.5348098,0.13163331,1.747575,0.6885406,0.03999997,0.04,-0.0011405997790259192,-0.026610416044980933,0.02782252285830067,0.07278221802992874,-0.10772512189603684,0.05010465656932062,0.8983251460008136,0.26187526949799383,0.26677295347394764,0.23079312507688995
2193.8333333336564,-0.36208612,-1.2085527,-0.53733474,-2.5352712,0.13197422,1.7480325,0.6882881,0.039999954,0.04,3.6045305540355344e-05,-0.02603167975768761,0.027979556698232155,0.07142730751761811,-0.10593798269077007,0.04900240606732809,0.8978201676609042,0.2623557425858235,0.26756855264536683,0.23129090018600063
2193.8500000003232,-0.36300412,-1.2096299,-0.53869706,-2.535724,0.13230886,1.7484815,0.6880404,0.03999995,0.04,-0.0005376321040362342,-0.025712172044400905,0.028043329627269742,0.07007459243761832,-0.10414385572934522,0.04790438168014219,0.8973233093178036,0.2628263929531917,0.26834988459038644,0.23177900069351856
2193.86666666699,-0.36390504,-1.2106873,-0.5400339,-2.536168,0.1326373,1.7489225,0.6877971,0.039999943,0.04,0.0001434741797368133,-0.025759662632363067,0.028091225700277445,0.06872414883533141,-0.10234691125714933,0.0468101733069593,0.8968346578085551,0.26328706340818525,0.26911723109652186,0.23225725978373063
2193.883333333657,-0.3647888,-1.2117245,-0.54134524,-2.5366042,0.1329595,1.749355,0.68755853,0.03999993,0.04,-0.0010936020908847155,-0.02603564919496648,0.028482558436393468,0.06737702693626019,-0.1005460784560338,0.04572287007840218,0.896354384799568,0.2637378520902368,0.2698700026878098,0.23272589859037568
2193.900000000324,-0.36565557,-1.2127416,-0.54263145,-2.5370317,0.13327551,1.7497791,0.68732446,0.039999917,0.04,-0.00028422957187856923,-0.025095368990268874,0.028084029782815545,0.06603497782067361,-0.09874373197346001,0.044640088851405094,0.8958824051333187,0.2641789615528868,0.27060851832442945,0.23318495289283872
2193.9166666669907,-0.36650527,-1.2137389,-0.5438922,-2.5374503,0.13358527,1.7501949,0.6870949,0.039999913,0.04,0.0005859032774946371,-0.02508859104356498,0.027976844882160457,0.06469715875991247,-0.09693914116407812,0.04356024184999877,0.8954187969244245,0.2646103036610891,0.2713329947223228,0.23363426821812402
2193.9333333336576,-0.3673379,-1.2147162,-0.5451277,-2.537861,0.13388884,1.7506022,0.68687016,0.039999902,0.04,-0.00122160720299469,-0.025514984359320536,0.028485444626080714,0.06336254032489828,-0.0951303011167635,0.04248853381418795,0.8949636760585288,0.2650320562083663,0.2720428234491178,0.23407419748362315
2193.9500000003245,-0.3681535,-1.2156737,-0.546338,-2.5382638,0.13418615,1.7510015,0.68665,0.039999895,0.04,-0.0004686665419750824,-0.024883908471273752,0.02829875787032643,0.06203366074649661,-0.09332447139106802,0.04142071135214882,0.8945170153148553,0.2654442519420781,0.2727383841001513,0.23450465296354323
2193.9666666669914,-0.36895213,-1.2166109,-0.5475231,-2.5386581,0.13447727,1.7513924,0.68643445,0.03999988,0.04,-0.0004567699798396774,-0.024651175782153256,0.028475757577517413,0.0607099888803048,-0.09151914657031825,0.04035825055766299,0.8940789071140552,0.26584703019330597,0.27341944765901655,0.23492566916574786
2193.9833333336583,-0.36973375,-1.2175285,-0.5486831,-2.5390441,0.13476221,1.7517747,0.6862233,0.039999872,0.04,-9.104695637418558e-05,-0.024578811936137868,0.027951775128887135,0.05939242598758326,-0.08971567135700763,0.039300139587788316,0.8936493665364867,0.2662402701451226,0.2740862216397113,0.23533735646780635
2194.000000000325,-0.37049866,-1.218426,-0.5498179,-2.539421,0.135041,1.7521487,0.68601686,0.03999986,0.04,0.0010787747775076184,-0.023555544418518704,0.02785932896935961,0.058082082152198185,-0.08791351869885375,0.03824798951722806,0.8932283138108799,0.2666243609369499,0.27473899622635617,0.23573950350772724
2194.016666666992,-0.3712465,-1.2193037,-0.55092794,-2.5397902,0.13531366,1.7525148,0.6858149,0.03999986,0.04,-0.0006522198916947275,-0.024142292786810682,0.02846813809956883,0.05677421227101809,-0.08611207617965906,0.03720447030255542,0.8928158543536285,0.26699915201077856,0.2753774477731438,0.23613251427593512
2194.033333333659,-0.3719775,-1.2201619,-0.5520128,-2.5401506,0.13558021,1.7528726,0.68561757,0.039999854,0.04,0.0007689357178986,-0.023828655561020096,0.02786704948948282,0.05547355747032316,-0.08431405937331016,0.036165640404255295,0.8924120051988611,0.26736472046143794,0.27600184070423284,0.23651617948335005
2194.050000000326,-0.3726917,-1.2210004,-0.55307275,-2.540503,0.13584062,1.7532219,0.6854247,0.039999835,0.04,-0.00022229696083897466,-0.02390515304356855,0.02806767958871692,0.0541783982193133,-0.08251844296399832,0.03513678736136005,0.8920168673287925,0.2677210783129338,0.276611868181285,0.23689070688641808
2194.0666666669927,-0.37338924,-1.2218195,-0.5541079,-2.5408475,0.1360949,1.7535629,0.6852363,0.03999982,0.04,-0.00028999978418653427,-0.02363471366667591,0.02792649558762683,0.05289371777394399,-0.08072710630070637,0.03411135762846476,0.8916304099207181,0.2680683723351704,0.27720766024670024,0.23725613365882567
2194.0833333336595,-0.3740701,-1.2226188,-0.5551183,-2.541184,0.13634309,1.7538962,0.6850524,0.03999982,0.04,6.15846765583683e-05,-0.022957201746509615,0.02822933011048523,0.051616592778028915,-0.07894247904623067,0.03309396940943677,0.8912525995535346,0.2684067984853317,0.2777893517639865,0.2376124373059327
2194.1000000003264,-0.3747344,-1.223399,-0.5561042,-2.541512,0.13658534,1.7542216,0.68487304,0.039999805,0.04,0.0009824958446813525,-0.02279366017962081,0.027481260970552146,0.050345692799855256,-0.07716313158107223,0.03208414146606441,0.8908833481786466,0.2687363620412541,0.27835731656050844,0.2379597276264817
2194.1166666669933,-0.37538227,-1.2241596,-0.5570656,-2.541832,0.13682151,1.7545387,0.68469805,0.039999798,0.04,-8.408715244101472e-05,-0.022592852189085022,0.02771556924283658,0.049082369451909344,-0.07538808757335524,0.03108251425224963,0.8905228051049571,0.2690571770081534,0.27891108722353974,0.2382980791197967
