rsonawane2002/My_IMU/logs_2/traj_422/clean_422.csv
time,j1,j2,j3,j4,j5,j6,j7,gripper1,gripper2,imu_ax,imu_ay,imu_az,imu_gx,imu_gy,imu_gz,quat_x,quat_y,quat_z,quat_w
1890.5833333319426,0.00016700293,-0.785875,4.0107683e-05,-2.3551247,9.29385e-05,1.570997,0.786,0.04,0.04,0.0,-0.0,0.0,2.875329272945135e-08,-0.0011641195053377316,4.421952117202833e-08,0.9999995971961153,0.00020320632366974898,0.0008736418299892524,3.263050917662294e-05
1890.5999999986093,0.00016699656,-0.78576016,4.011004e-05,-2.3552213,9.297041e-05,1.5709941,0.786,0.04,0.04,-0.29199845982113004,-1.7006512435119043e-05,0.020128412943609675,8.162461554029634e-07,-0.002238707326375439,6.058217744239349e-08,0.9999996850575184,0.00020321342308344975,0.0007665025191127073,3.260455509470345e-05
1890.616666665276,0.00016692623,-0.7856543,4.0080293e-05,-2.35531,9.29745e-05,1.5709913,0.786,0.04,0.04,0.02332872664005947,0.0001292002291264577,-0.0016704027405278765,7.184340446633008e-06,-0.003231611884727082,-6.440184677686971e-08,0.9999997558346575,0.00020326347789970033,0.0006677972569397107,3.2579248436792955e-05
1890.6333333319426,0.00016668442,-0.78555703,3.996608e-05,-2.355391,9.290815e-05,1.5709884,0.786,0.04,0.04,0.022460750123798334,0.000341714649486146,-0.0015248080210472637,2.4071544086554362e-05,-0.004150985208979838,-4.5185222723174683e-07,0.9999998121996462,0.00020342878940288498,0.0005771982247527284,3.25516390926487e-05
1890.6499999986092,0.0001661155,-0.7854678,3.9692062e-05,-2.3554652,9.2711554e-05,1.5709856,0.786,0.04,0.04,0.02065071502219684,0.0006474238317748151,-0.0015265137687903163,5.5736174420680464e-05,-0.00500321348355994,-1.2189239682701053e-06,0.999999856643914,0.0002038138523259518,0.0004940795814611457,3.2518186469449354e-05
1890.666666665276,0.00016502038,-0.7853863,3.916215e-05,-2.3555322,9.2309616e-05,1.5709827,0.786,0.04,0.04,0.02072537415946929,0.0010369765155346887,-0.0012395175767787592,0.00010688636785481618,-0.005795981435772599,-2.4767510922524444e-06,0.9999998910177668,0.00020455219204280688,0.00041841153296833655,3.2475286832088744e-05
1890.6833333319425,0.00016316122,-0.7853122,3.8261795e-05,-2.355597,9.161132e-05,1.5709798,0.786,0.04,0.04,0.011753718134777102,0.0015037098284055779,-0.003231935206859937,0.00018079104972095625,-0.006533498646279063,-4.322546141940622e-06,0.9999999179251556,0.00020580339054519903,0.00034748207761845277,3.241685036351343e-05
1890.6999999986092,0.00016026509,-0.7852451,3.685973e-05,-2.3556552,9.051369e-05,1.570977,0.786,0.04,0.04,0.01918872210866507,0.0020366553749274316,-0.001063750749885628,0.0002815006052573636,-0.007241529547051415,-6.846749475299424e-06,0.999999937728766,0.0002077502030911492,0.00028343699185287894,3.233865765658947e-05
1890.7166666652759,0.00015602817,-0.785185,3.48098e-05,-2.3557084,8.8900495e-05,1.5709763,0.7860019,0.04,0.04,0.01683436433832508,0.002631741050531278,-0.00010272143575740245,0.0004119543478545145,-0.007903701423955177,-1.0132581790481057e-05,0.9999999514695715,0.0002115499632019714,0.00022642526677909002,3.22345524420648e-05
1890.7333333319425,0.00015011895,-0.78513163,3.1952706e-05,-2.3557587,8.6634325e-05,1.570976,0.7860038,0.039999995,0.04,0.012525798757012652,0.0032892504347261623,-0.002233174051280429,0.0005663242580793516,-0.00852142245363795,-1.5065245266420311e-05,0.9999999608335772,0.00021647110189924895,0.00017447999252549233,3.209109172428368e-05
1890.7499999986092,0.0001421812,-0.7850849,2.8117476e-05,-2.3558042,8.358462e-05,1.5709747,0.78600574,0.039999988,0.039999988,0.015077839218569089,0.00398222230059528,-0.0024275111532912064,0.0007560914667612444,-0.009112869864254605,-1.9138091435709e-05,0.9999999665293896,0.00022275210220046467,0.00012769058447720724,3.1903533578708394e-05
1890.7666666652758,0.00013183737,-0.7850447,2.3122693e-05,-2.3558471,7.961226e-05,1.5709745,0.78600925,0.039999984,0.03999998,0.012045359683687806,0.004717521997381835,-0.001751757825596556,0.0009840082827433892,-0.009681383388535589,-2.4166580128063398e-05,0.9999999690135775,0.00023145061952566895,8.602722202402564e-05,3.1666572535181555e-05
1890.7833333319425,0.00011869083,-0.78501123,1.6777793e-05,-2.355889,7.456514e-05,1.5709722,0.78601307,0.03999998,0.039999977,0.00835854341620923,0.0054947165795684975,-0.004873631776347587,0.001244123024898843,-0.010228622289918483,-3.1061262236874664e-05,0.9999999690708921,0.00024217665013683766,4.716535160485799e-05,3.13705993274847e-05
1890.799999998609,0.000102328384,-0.7849846,8.8844035e-06,-2.3559253,6.828677e-05,1.570972,0.7860169,0.039999973,0.039999966,0.017943203584547263,0.006301541173364084,0.00018573785069975202,0.001545378512084321,-0.010777939812576525,-3.814749167619757e-05,0.9999999668702001,0.0002550578464972472,1.560513110730442e-05,3.100924580694964e-05
1890.8166666652758,8.2322884e-05,-0.7849648,-7.624011e-07,-2.3559606,6.061408e-05,1.5709691,0.7860226,0.03999997,0.03999996,0.008366962254036103,0.007137755517146582,-0.005413947671173425,0.0018905109502959853,-0.011290465770790774,-4.719692634361271e-05,0.9999999626323611,0.000271333917791282,-1.3362236577018494e-05,3.0571751400887416e-05
1890.8333333319424,5.8234746e-05,-0.78495187,-1.23737245e-05,-2.355995,5.1379793e-05,1.5709689,0.7860292,0.03999997,0.03999996,0.010028403558970389,0.007997009094034271,-0.0015039002982941696,0.002272226488581484,-0.01181146609244651,-5.738156576024238e-05,0.999999956579572,0.00029079268773920944,-3.7114137767097376e-05,3.0050084872080615e-05
1890.849999998609,2.961419e-05,-0.7849462,-2.6165448e-05,-2.356027,4.0413455e-05,1.570966,0.78603685,0.039999973,0.03999996,0.011258442406147928,0.008875885597640715,-0.0050063007561496065,0.002697067654576559,-0.01231914783985964,-6.788371882434361e-05,0.999999948688724,0.0003137948337658637,-5.734932008866972e-05,2.9434793469537948e-05
1890.8666666652757,-3.9969937e-06,-0.78494793,-4.2357602e-05,-2.3560565,2.7539694e-05,1.5709639,0.7860464,0.039999977,0.039999966,0.012446959751688524,0.009772361054110612,-0.0025858134821366008,0.003165692254825457,-0.012830474728655781,-8.04515380785903e-05,0.9999999387985274,0.00034109431029013295,-7.233928381255716e-05,2.8716556755819756e-05
1890.8833333319424,-4.3064265e-05,-0.7849573,-6.117364e-05,-2.3560843,1.2582033e-05,1.570961,0.7860574,0.039999977,0.039999966,0.011041454755700286,0.010681557602984157,-0.004108028932625629,0.003675064065494103,-0.013331852147273837,-9.425550951957585e-05,0.999999926675804,0.00037279418230675375,-8.30377293048031e-05,2.7885837830860982e-05
1890.899999998609,-8.8058376e-05,-0.7849745,-8.283945e-05,-2.356112,-4.6379637e-06,1.5709587,0.7860697,0.039999977,0.03999996,0.009288846689026187,0.01160064645828495,-0.003908794483287181,0.004228346023999969,-0.013834387012585596,-0.00010846168582323362,0.9999999119649523,0.0004090904412078981,-8.938509376163414e-05,2.6933314973042458e-05
1890.9166666652757,-0.00013945434,-0.7849997,-0.00010758307,-2.3561397,-2.4301746e-05,1.5709559,0.78608364,0.039999977,0.03999996,0.008637151847534774,0.012528775323759992,-0.004973754333192915,0.004827494983264661,-0.014338264592532773,-0.0001248146133843895,0.9999998939509884,0.0004505097447001334,-9.203709390257693e-05,2.584870191001522e-05
1890.9333333319423,-0.00019773019,-0.7850335,-0.0001356341,-2.3561668,-4.659051e-05,1.570953,0.7860995,0.03999998,0.03999996,0.010293843394681979,0.01346187246485905,-0.00465588765101721,0.00547165082468663,-0.014852600371709063,-0.00014161529732671825,0.9999998718836356,0.0004974914312261407,-9.015934496974253e-05,2.4622770120691765e-05
1890.949999998609,-0.00026336565,-0.7850758,-0.00016722274,-2.356194,-7.168773e-05,1.5709502,0.78611743,0.03999998,0.03999996,0.009350635094418358,0.014398768538242106,-0.004806415723024315,0.006160408729655528,-0.015369787802704557,-0.00016068623041474712,0.9999998447021792,0.0005504460811472357,-8.404996898840227e-05,2.324504530483485e-05
1890.9666666652756,-0.00033684162,-0.7851272,-0.00020257992,-2.3562212,-9.977355e-05,1.5709473,0.7861376,0.039999984,0.03999996,0.010139604348347042,0.015334886315382188,-0.005216351403625197,0.006893459662655494,-0.01589650345766783,-0.0001800758117504785,0.9999998111734081,0.0006097552890349552,-7.335145892912976e-05,2.170712280431106e-05
1890.9833333319423,-0.00041863814,-0.7851881,-0.0002419361,-2.3562484,-0.00013103486,1.5709444,0.78616,0.039999984,0.039999966,0.010401314343821966,0.016274226650362014,-0.005357737246858285,0.007670940161204792,-0.01642885500530068,-0.00020364528799316438,0.9999997697885075,0.000675770272136443,-5.794475058478503e-05,1.9996937468346746e-05
1890.999999998609,-0.0005092354,-0.7852587,-0.00028552196,-2.3562756,-0.00016564973,1.5709416,0.7861847,0.039999988,0.03999997,0.010794451649531744,0.01720695883761436,-0.00556803659299554,0.008492897330399728,-0.01696888158993129,-0.00022669344077906497,0.9999997187447488,0.0007488424069702497,-3.765120438319087e-05,1.810689117843582e-05
1891.0166666652756,-0.0006091111,-0.7853394,-0.0003335667,-2.3563027,-0.00020380136,1.5709387,0.7862121,0.03999999,0.03999997,0.011121385289492025,0.01813839717020015,-0.005746219428881538,0.00935979197606389,-0.017517382797843605,-0.00025111818769118664,0.999999655809873,0.0008294404521270267,-1.232201652479197e-05,1.602622063931808e-05
1891.0333333319422,-0.0007187404,-0.7854305,-0.0003862988,-2.3563304,-0.00024567128,1.5709358,0.78624195,0.03999999,0.03999998,0.010637686773451449,0.01906413506872904,-0.006139962434681401,0.010270585966528047,-0.018071571651432573,-0.00027949840752202306,0.9999995785447318,0.0009178230362958266,1.7953166637381376e-05,1.3744693694832096e-05
1891.0499999986089,-0.00083859585,-0.7855323,-0.00044394482,-2.3563583,-0.00029143534,1.570933,0.7862748,0.03999999,0.039999995,0.011434811415944601,0.019980282601604043,-0.006248575939471479,0.011225864131303217,-0.01863593501571449,-0.00030827688961094146,0.9999994838562747,0.0010145448551578309,5.347208616301368e-05,1.1254199380385048e-05
1891.0666666652755,-0.0009691462,-0.78564525,-0.0005067301,-2.3563874,-0.00034127943,1.5709301,0.7863103,0.039999995,0.039999984,0.010271606036926784,0.02089630006898999,-0.006927311215454424,0.012224053779463236,-0.01921031049887203,-0.0003352122982613376,0.9999993686053378,0.0011197706582439866,9.396620134041046e-05,8.541177371042248e-06
1891.0833333319422,-0.0011108556,-0.78576964,-0.0005748775,-2.3564174,-0.00039537376,1.5709271,0.7863491,0.039999995,0.03999997,0.010964074101815768,0.02179275208457213,-0.007095122104838758,0.013266442010519634,-0.019796663478690035,-0.0003618577573344106,0.9999992287211104,0.0012341091754815847,0.0001396437588974393,5.598944899334284e-06
1891.0999999986088,-0.0012641844,-0.78590584,-0.0006486079,-2.3564498,-0.00045389184,1.5709242,0.78639096,0.039999988,0.039999943,0.008961256626949243,0.022682181904561654,-0.007868810046152142,0.014350371857008076,-0.02039437975698447,-0.000388030472416789,0.9999990602002914,0.0013577489573113205,0.00019002750660484813,2.4186369450269285e-06
1891.1166666652755,-0.0014295856,-0.7860542,-0.0007281395,-2.3564842,-0.0005170099,1.5709212,0.786436,0.03999998,0.03999993,0.010161258493823766,0.023563558141256862,-0.00787922132059471,0.015477095622774797,-0.02100973317085451,-0.0004191538747928096,0.9999988581912185,0.0014910828919449744,0.00024553420560311835,-1.011204649214211e-06
1891.1333333319421,-0.0016075096,-0.7862152,-0.00081368827,-2.356519,-0.000584897,1.570918,0.7864845,0.03999998,0.039999925,0.013037479134481167,0.02443469798023073,-0.007711252703579419,0.016645890629102815,-0.0216415666397379,-0.00045169589218989423,0.9999986170658318,0.0016345019709283618,0.0003069977931493214,-4.6995854175752885e-06
1891.1499999986088,-0.0017983991,-0.7863892,-0.0009054666,-2.3565545,-0.0006577235,1.5709147,0.78653646,0.03999998,0.03999992,0.013096430737080667,0.025291616058763424,-0.007870904699802672,0.01785607613201995,-0.022281410101870878,-0.00048651315046936185,0.9999983306803855,0.0017883620885178599,0.0003745964935673811,-8.657348779851246e-06
1891.1666666652754,-0.0020026902,-0.78657645,-0.0010036846,-2.356591,-0.00073565595,1.5709112,0.78659207,0.039999984,0.039999925,0.01289968247999429,0.02613298927604873,-0.00844383839548879,0.019106606058794932,-0.02293150824250697,-0.000524472982927981,0.9999979923486108,0.0019530147469959689,0.0004481806405339688,-1.289415468604086e-05
1891.183333331942,-0.0022208134,-0.7867773,-0.001108549,-2.3566306,-0.00081885606,1.570907,0.7866515,0.039999988,0.039999925,0.009497911864997377,0.026954620026519143,-0.009782789385770485,0.02039752293519605,-0.023590998113052847,-0.0005622015765543251,0.999997595162848,0.0021288366499759093,0.0005267064309683182,-1.7417635745680186e-05
1891.1999999986087,-0.002453193,-0.78699225,-0.0012202633,-2.3566728,-0.00090748677,1.5709003,0.7867148,0.039999995,0.03999994,0.010219580292814001,0.027766081639087493,-0.011296829082785287,0.021727387629455242,-0.024273961902321072,-0.0006048219805934799,0.9999971316282765,0.002316141453950028,0.0006096962304581698,-2.223715914373401e-05
1891.2166666652754,-0.0027002448,-0.7872215,-0.0013390273,-2.3567162,-0.0010017044,1.5708936,0.78678215,0.039999995,0.03999994,0.013699276309742103,0.028570726511164234,-0.008969166858818767,0.023095695724911786,-0.02498314622856251,-0.0006463363899579053,0.9999965917950248,0.0025152971126381767,0.0006992353277764112,-2.7362862159559524e-05
1891.233333331942,-0.0029623779,-0.7874655,-0.0014650378,-2.35676,-0.0011016645,1.570887,0.7868536,0.04,0.039999947,0.015431015375688695,0.029356974901100993,-0.008966026349166434,0.024501861238829657,-0.02570316719539126,-0.0006891534744178814,0.9999959655156058,0.0027266077105299494,0.0007959188121696472,-3.2804702847385496e-05
1891.2499999986087,-0.0032399935,-0.7877246,-0.0015984875,-2.3568072,-0.0012075208,1.5708803,0.7869293,0.04,0.03999994,0.010884931545107612,0.030113692549473166,-0.010459023840403425,0.025945303393862015,-0.026426890436755945,-0.0007312175475248121,0.9999952431969822,0.002950399612648175,0.0008984641439268758,-3.85709253871418e-05
1891.2666666652754,-0.003533486,-0.7879991,-0.0017395663,-2.3568575,-0.0013194232,1.5708735,0.7870093,0.04,0.039999932,0.011568306682785412,0.030864228180406753,-0.010662031358599222,0.027425182652998162,-0.02716968113629219,-0.0007784142313785091,0.9999944135053219,0.003186966421767415,0.001007078807533387,-4.467044957529625e-05
1891.283333331942,-0.0038432414,-0.7882894,-0.001888459,-2.3569086,-0.001437513,1.5708667,0.7870938,0.039999988,0.039999902,0.01617204461925592,0.03160142694667925,-0.009840020467244415,0.028941120037022122,-0.027929858075986917,-0.0008177752187942455,0.9999934624184326,0.0034366864235298245,0.001123251698555504,-5.111206335167028e-05
1891.2999999986087,-0.0041696373,-0.7885957,-0.0020453471,-2.3569613,-0.001561941,1.5708597,0.78718275,0.039999995,0.039999902,0.014526118148738831,0.03231805595969948,-0.010538009347738075,0.03049131551778738,-0.028693753372612853,-0.000865313267732884,0.9999923774359993,0.0036997521051589763,0.001246415240184447,-5.790774638888424e-05
1891.3166666652753,-0.004513044,-0.78891844,-0.002210409,-2.357019,-0.0016928458,1.5708526,0.78727627,0.039999995,0.039999895,0.009567977956925766,0.03299749245829833,-0.012246674462335072,0.03207666464776669,-0.029469332987013697,-0.0009136106936519766,0.9999911458304113,0.003976497537835056,0.001375316319633193,-6.506253625579962e-05
1891.333333331942,-0.004873824,-0.789258,-0.002383819,-2.3570776,-0.0018303647,1.570845,0.78737456,0.04,0.039999895,0.01658107474342696,0.033695891393991165,-0.011130983661389315,0.033695592009463995,-0.03026577831380494,-0.0009632407748374925,0.9999897497528301,0.004267257596715942,0.0015118309496879932,-7.258825678728816e-05
1891.3499999986086,-0.005252332,-0.7896147,-0.0025657474,-2.3571374,-0.0019746348,1.5708368,0.7874777,0.04,0.0399999,0.016486093260348333,0.03436006871598181,-0.011483902750342168,0.03534699474418854,-0.031070921427014814,-0.0010150190744426671,0.9999881725853783,0.004572298757551547,0.0016559872882294113,-8.049551915402905e-05
1891.3666666652753,-0.005648911,-0.7899887,-0.0027563586,-2.3572028,-0.0021257824,1.5708263,0.78758574,0.04,0.039999884,0.008897234017135602,0.03495820873527129,-0.014841302079293683,0.037030279016940656,-0.031882315870434594,-0.001067406159917972,0.9999864017244368,0.004891905372737916,0.001804922585750921,-8.878342822061302e-05
1891.383333331942,-0.0060638986,-0.7903804,-0.0029558162,-2.3572693,-0.0022839392,1.5708158,0.7876988,0.04,0.039999876,0.017291635752458845,0.035624813342097564,-0.011546118776473158,0.03874474676488285,-0.03272938088202877,-0.0011218945263342418,0.999984412927414,0.005226336830758539,0.0019620920198910904,-9.747026238079297e-05
1891.3999999986086,-0.006497622,-0.79078984,-0.0031642776,-2.3573375,-0.0024492291,1.5708053,0.7878169,0.04,0.039999872,0.016458992023893337,0.03622706874171575,-0.011850379080824425,0.040489666148089756,-0.03357817273580128,-0.0011779017881452386,0.9999821867209641,0.005575811166180589,0.002127255179146204,-0.00010656453764137264
1891.4166666652752,-0.006950404,-0.7912177,-0.0033818958,-2.3574111,-0.0026217736,1.5707947,0.7879402,0.04,0.03999986,0.01069579981822777,0.036782969704174905,-0.01412565177507652,0.04226426750370563,-0.03443433660058562,-0.001234852804544195,0.9999797051106225,0.005940657403610515,0.0022988006524993364,-0.00011606914060726197
1891.4333333319419,-0.0074225534,-0.791664,-0.003608821,-2.3574855,-0.00280169,1.5707841,0.78806883,0.039999995,0.039999854,0.018886113189942044,0.03738548253346442,-0.012072421134168287,0.04406740272601039,-0.035312757234194275,-0.0012939513177948978,0.9999769403186644,0.00632111725772918,0.002479199769342748,-0.00012600015975959447
1891.4499999986085,-0.007914376,-0.79212916,-0.0038451985,-2.357564,-0.0029890945,1.5707732,0.78820276,0.039999995,0.03999985,0.013498269415213038,0.03790780894714803,-0.014032276200004468,0.04589839454173539,-0.03619059156133725,-0.0013549955349284534,0.999973872678006,0.006717389886615915,0.002666840848110019,-0.0001363611134001794
1891.4666666652752,-0.008426163,-0.79261345,-0.0040911697,-2.3576455,-0.0031840988,1.570762,0.7883422,0.039999995,0.039999846,0.015382014371434494,0.038436646317808326,-0.013985591141185694,0.047756838618323874,-0.03708413315724937,-0.0014166354424160772,0.999970475656215,0.007129759371373349,0.0028622876327868544,-0.00014716214471314346
1891.4833333319418,-0.008958198,-0.7931171,-0.004346873,-2.3577287,-0.003386813,1.5707504,0.788487,0.04,0.039999843,0.018010523662859157,0.03895933504108676,-0.013705112722695034,0.04964132178576337,-0.037988282008798134,-0.0014796120708752344,0.9999667211501899,0.007558387755514666,0.0030663123195836853,-0.00015841538521693067
1891.4999999986085,-0.009510762,-0.79364014,-0.004612442,-2.3578176,-0.0035973429,1.5707368,0.7886375,0.04,0.03999984,0.010620790089799215,0.039397361267349065,-0.016668784524265234,0.05155157218635553,-0.03889553638547874,-0.0015444654276672142,0.9999625895863737,0.008003573925279036,0.003276170381285412,-0.00017011692739421619
1891.5166666652751,-0.010084127,-0.79418314,-0.0048880046,-2.3579075,-0.0038157876,1.5707225,0.7887937,0.04,0.039999828,0.019740854568217614,0.03992484739005209,-0.01417160062979761,0.05348619392574461,-0.039834633108076604,-0.0016101357642409782,0.9999580421248577,0.008465505156920749,0.0034951370976313806,-0.00018228803609566664
1891.5333333319418,-0.0106785465,-0.79474634,-0.0051736836,-2.3580008,-0.0040422473,1.570708,0.78895557,0.039999995,0.03999982,0.01610180901792102,0.040344719442340915,-0.015048123403960112,0.05544496630978933,-0.040773690580275905,-0.0016781325409456777,0.9999530507113338,0.008944375574595867,0.003722434559588504,-0.00019493492983131753
1891.5499999986084,-0.011294275,-0.7953297,-0.005469603,-2.358098,-0.0042768177,1.5706936,0.78912324,0.039999995,0.039999817,0.014820356189271244,0.040773917953366295,-0.0153824965737126,0.05742637528170128,-0.04172008658341061,-0.0017473851269445596,0.9999475847511857,0.009440382370452603,0.003957731742541425,-0.00020806350932279106
1891.566666665275,-0.011931553,-0.7959338,-0.0057758773,-2.358197,-0.0045195934,1.5706791,0.7892968,0.03999999,0.039999805,0.019457806317180193,0.04120850507164271,-0.014930344992736266,0.05943043492477475,-0.04267963117788682,-0.0018182959657948583,0.9999416048446411,0.009953749005784072,0.00420245575566272,-0.0002216913957239843
1891.5833333319417,-0.012590615,-0.796558,-0.006092621,-2.3583016,-0.004770659,1.5706643,0.7894762,0.03999999,0.0399998,0.011823229206475716,0.04154504835963968,-0.016594207131603866,0.06145577856310942,-0.043636537095444815,-0.0018899809730434838,0.9999350867152524,0.010484592600905935,0.004454218981965655,-0.00023581139526882965
1891.5999999986084,-0.013271685,-0.79720366,-0.006419942,-2.358408,-0.0050301035,1.570649,0.7896617,0.04,0.0399998,0.019980028473098876,0.041959001402948684,-0.015900289820591773,0.0635018552225499,-0.044614997618097445,-0.001963766475529727,0.9999279822140548,0.011033188187719574,0.004715550886812688,-0.00025044675486843933
1891.616666665275,-0.0139749795,-0.79787046,-0.006757945,-2.3585203,-0.0052980073,1.570633,0.78985316,0.04,0.039999794,0.012287101712882276,0.04224111548739827,-0.017967131079732468,0.06556758942650101,-0.04559308950493417,-0.002038280716352741,0.9999202656356446,0.011599609641286633,0.004984063557604803,-0.00026558946796913826
1891.6333333319417,-0.014700711,-0.7985586,-0.0071067302,-2.3586338,-0.0055744527,1.5706152,0.7900508,0.039999995,0.039999783,0.020172163010578892,0.04263210643051102,-0.01707743205907608,0.06765272709901467,-0.04659139761035422,-0.002114789672906618,0.9999118877194143,0.012184126314820078,0.0052616304937417565,-0.00028126124729749085
1891.6499999986083,-0.015449077,-0.79926836,-0.007466392,-2.3587508,-0.0058595138,1.570597,0.79025453,0.039999995,0.03999978,0.016930399291914533,0.04291805869660499,-0.017226722008079065,0.06975559245271669,-0.04759189766584169,-0.0021932238777324017,0.9999028095094754,0.012786802223487501,0.005548038955577629,-0.00029746882632720415
1891.666666665275,-0.016220272,-0.7999997,-0.007837024,-2.358872,-0.0061532645,1.5705788,0.7904645,0.04,0.03999978,0.016041432619040563,0.04320530348730506,-0.017501786010853948,0.07187618259549522,-0.048600352353248,-0.0022724805840047876,0.9998929888906614,0.013407852016756367,0.005843076066871916,-0.0003142191486859153
1891.6833333319416,-0.017014476,-0.80075276,-0.008218715,-2.3589947,-0.0064557744,1.5705605,0.7906807,0.039999995,0.03999977,0.02018403778734079,0.043519620593179126,-0.016752592415891776,0.07401336190448092,-0.049615095054682416,-0.002353156522396694,0.999882374912511,0.014047371938309934,0.006147988976682222,-0.00033153052097790347
1891.6999999986083,-0.017831862,-0.8015281,-0.008611549,-2.359123,-0.006767111,1.5705419,0.79090315,0.03999999,0.039999757,0.014242478540138492,0.04368491186712217,-0.01902266903897054,0.07616648377441271,-0.05062822601931846,-0.0024358990472948486,0.9998709319378942,0.014705492818053865,0.006461104274831927,-0.0003493968730268908
1891.716666665275,-0.0186726,-0.80232567,-0.009015603,-2.3592532,-0.007087334,1.5705228,0.7911321,0.04,0.039999764,0.020139454243284227,0.04398113114826366,-0.017856071243205207,0.0783349591933986,-0.05165433071764719,-0.002519511717990471,0.99985860069883,0.015382453748413457,0.006784056231490688,-0.00036784005102655324
1891.7333333319416,-0.019536851,-0.8031455,-0.009430956,-2.359389,-0.007416506,1.570503,0.7913673,0.04,0.03999976,0.013564710243452183,0.04410939665665317,-0.01990902962929475,0.08051706262239096,-0.05267690458443788,-0.0026037387519099765,0.9998453480264726,0.016078226939546254,0.007114843283689134,-0.0003868505537084061
1891.7499999986082,-0.020424765,-0.8039879,-0.009857678,-2.3595266,-0.007754684,1.5704818,0.7916092,0.04,0.039999757,0.02044138252845773,0.044368902117092324,-0.019087637774961586,0.08271333458627407,-0.05371618863414242,-0.0026918278026278157,0.9998311076453936,0.016793160870903767,0.007455248391021663,-0.0004064529215782442
1891.766666665275,-0.021336475,-0.80485296,-0.010295844,-2.35967,-0.008101921,1.5704597,0.7918575,0.04,0.039999746,0.013791136224217126,0.04445111412150274,-0.020662841328356052,0.08492078147634019,-0.05475558341382672,-0.0027800704282748487,0.9998158439684999,0.017527121768911507,0.0078035974987140785,-0.00042663583082642315
1891.7833333319415,-0.022272123,-0.8057407,-0.010745511,-2.3598154,-0.008458271,1.5704377,0.79211223,0.03999999,0.03999973,0.02016558241351163,0.04470385585335218,-0.018815151379314443,0.08714122995007262,-0.05580948073122205,-0.0028707210289142006,0.9997994850504609,0.018280297847771194,0.008162120120306027,-0.00044743555020549373
1891.7999999986082,-0.02323183,-0.80665123,-0.011206743,-2.3599663,-0.008823773,1.5704153,0.7923735,0.03999999,0.039999723,0.014352623488100846,0.04473343448141154,-0.02076464672926548,0.0893724384879716,-0.05685963050664181,-0.0029621080229435964,0.9997819907381825,0.019052754853672523,0.00852899301238167,-0.0004688350212886372
1891.8166666652749,-0.024215719,-0.80758476,-0.011679595,-2.3601193,-0.009198487,1.5703926,0.79264134,0.04,0.039999735,0.020278820399899367,0.04494383879332861,-0.019674200272334907,0.09161486041164227,-0.05792068859452565,-0.003055467767517757,0.9997632876801236,0.019844641237208988,0.008906057868636942,-0.00049087110068251
1891.8333333319415,-0.025223901,-0.80854154,-0.012164122,-2.3602781,-0.009582445,1.5703696,0.7929158,0.04,0.039999716,0.01432526897844344,0.04492910975440259,-0.021655833928502233,0.09386643788174939,-0.058976170906256335,-0.003149151586312418,0.9997433330412486,0.020656012729548655,0.009291580577487154,-0.0005135251346511314
1891.8499999986082,-0.026256474,-0.80952126,-0.0126603665,-2.3604388,-0.009975684,1.5703458,0.79319686,0.04,0.03999972,0.020281145924272437,0.045081963949897275,-0.020515880938698494,0.09612708325814,-0.06004383014337554,-0.003245616634198225,0.9997220538524026,0.021486913232674494,0.009687074713664208,-0.000536828051723243
1891.8666666652748,-0.027313527,-0.8105242,-0.0131683815,-2.3606055,-0.010378246,1.5703206,0.7934846,0.04,0.03999971,0.013452135693770018,0.04500612095340792,-0.02299665647769178,0.09839591835613232,-0.06110599953642559,-0.0033427839038609602,0.9996994079844416,0.022337472560166036,0.010090418503029146,-0.0005607580713928868
1891.8833333319415,-0.028395148,-0.81155074,-0.013688208,-2.3607738,-0.010790161,1.5702947,0.79377913,0.04,0.0399997,0.021223335408104838,0.04517429118480465,-0.021240364657515443,0.10067213126893948,-0.06218658953033925,-0.003442072744047342,0.9996753067496167,0.023207762886198382,0.010504197938571071,-0.0005853567672906401
1891.899999998608,-0.02950142,-0.81260055,-0.014219883,-2.3609474,-0.011211463,1.5702686,0.79408026,0.04,0.0399997,0.014935342697186549,0.04509743648307696,-0.02251063734335368,0.10295481150231411,-0.06325815520815004,-0.0035423110909185845,0.9996497045242793,0.024097755003886504,0.010926737815128975,-0.0006106136366554824
1891.9166666652748,-0.030632418,-0.81367385,-0.014763438,-2.3611236,-0.011642171,1.5702424,0.7943881,0.04,0.039999694,0.019568059684016426,0.04517192357674504,-0.021746666294730765,0.10524404211567884,-0.06433762701115969,-0.003642679738885185,0.9996225179938641,0.025007564247652117,0.011359491539857847,-0.000636554759810099
1891.9333333319414,-0.031788196,-0.81477064,-0.015318906,-2.3613043,-0.012082314,1.5702157,0.7947027,0.04,0.03999969,0.016106856756947785,0.0450663887775829,-0.02309090691554605,0.1075382992410933,-0.06541078912247658,-0.0037484354382486783,0.9995936924912016,0.02593721223463834,0.011801320003241834,-0.0006631737945428585
1891.949999998608,-0.032968827,-0.815891,-0.01588631,-2.361488,-0.012531913,1.5701886,0.79502404,0.04,0.039999686,0.018634761320424076,0.04508479041815672,-0.022798829706527357,0.10983698449502875,-0.06648875096033438,-0.003854105340825892,0.9995631490783954,0.0268867435310794,0.012253050467162897,-0.0006904933196324978
1891.9666666652747,-0.034174338,-0.817035,-0.016465679,-2.3616767,-0.012990983,1.5701605,0.79535216,0.04,0.03999968,0.015454034139383843,0.04491575665502012,-0.024312341244825397,0.11213979026692103,-0.06756278211357519,-0.003960971398885092,0.9995308316726537,0.027856195321652594,0.012713484079652095,-0.0007184988040878995
1891.9833333319414,-0.03540479,-0.81820273,-0.017057031,-2.3618681,-0.013459544,1.5701312,0.795687,0.04,0.03999967,0.018712226446138125,0.044918411995704954,-0.024019905801764274,0.11444540231585368,-0.06864419939159995,-0.0040666796180636,0.9994966572424906,0.02884557838538548,0.013183566912014326,-0.0007472162848501006
1891.999999998608,-0.036660194,-0.8193942,-0.017660383,-2.3620648,-0.01393761,1.5701014,0.7960287,0.04,0.039999668,0.014782259740275805,0.04471872416217382,-0.024771619928309896,0.11675366353213801,-0.06972352932096541,-0.0041785135691499685,0.9994605637248721,0.029854909916817954,0.01366245738910421,-0.0007766406573401081
1892.0166666652747,-0.0379406,-0.8206093,-0.018275747,-2.362264,-0.014425186,1.5700713,0.7963771,0.04,0.039999656,0.019596772130436868,0.04474261985798339,-0.023747156657294433,0.11906391534554513,-0.0708087501166024,-0.004290316970538971,0.9994224551321256,0.03088422819178797,0.014151667378199832,-0.0008068067233910208
1892.0333333319413,-0.03924601,-0.8218481,-0.01890313,-2.3624685,-0.014922284,1.570041,0.79673237,0.04,0.039999656,0.014222640116834384,0.044452970324125596,-0.025436483321850112,0.12137482178694194,-0.07188538368884718,-0.004401449344717423,0.9993822782717909,0.03193351004468404,0.014649610214340799,-0.0008376950988125904
1892.049999998608,-0.040576443,-0.82311064,-0.019542536,-2.362676,-0.015428906,1.5700103,0.7970947,0.04,0.039999656,0.018651534726688013,0.044405640848836636,-0.0246463923536,0.1236863892882044,-0.07296840566277515,-0.004515637745328541,0.9993399307949747,0.03300291888618267,0.01515764854339408,-0.0008693413150286979
1892.0666666652746,-0.0419319,-0.8243971,-0.02019397,-2.362888,-0.015945055,1.569979,0.7974638,0.04,0.039999656,0.015317572725215278,0.0441253695646307,-0.02619914449966121,0.12599621130131913,-0.07404506822140187,-0.004631096688136532,0.9992953564359706,0.034092259291979496,0.015674672072319335,-0.000901730170490305
1892.0833333319413,-0.043312382,-0.8257073,-0.020857433,-2.3631036,-0.016470725,1.5699465,0.7978395,0.04,0.03999964,0.017411670986811068,0.04397772440157266,-0.026175373629988563,0.12830556481624078,-0.07512280407328338,-0.004750381115602446,0.99924846918442,0.035201499874540756,0.016201149314071937,-0.0009348797136601161
1892.099999998608,-0.04471789,-0.82704115,-0.02153292,-2.3633237,-0.017005922,1.5699131,0.7982222,0.04,0.03999963,0.015112149271567787,0.04373112891729036,-0.026798590748300377,0.13061354013422843,-0.07619978970466294,-0.004867760607314479,0.9991991944241202,0.03633073999402059,0.016736446512824476,-0.0009687888312767648
1892.1166666652746,-0.04614838,-0.8283992,-0.022220422,-2.363547,-0.017550634,1.5698794,0.7986116,0.04,0.039999627,0.01789076019211855,0.043528798999395435,-0.026607881708340386,0.13291897539989644,-0.07727996576976598,-0.004988206835451394,0.9991474336114673,0.037479863177054075,0.01728174695779487,-0.0010034868881313185
1892.1333333319412,-0.047603857,-0.8297809,-0.022919929,-2.3637748,-0.018104857,1.5698454,0.7990077,0.04,0.039999623,0.015611343355836915,0.0432844144511349,-0.02693142428766837,0.1352216123536308,-0.07835146876315571,-0.005111859132034477,0.9990931144286918,0.03864884998700441,0.01783635694453781,-0.0010389739199028823
1892.1499999986079,-0.049084265,-0.83118594,-0.02363143,-2.364006,-0.018668571,1.5698111,0.7994106,0.04,0.039999627,0.016365092584669227,0.04302179296145486,-0.026924692646024262,0.13752083753912883,-0.07942248789581352,-0.005233916735131145,0.9990361501342192,0.03983766057487604,0.018400416877361256,-0.0010752598095434692
1892.1666666652745,-0.050589588,-0.8326145,-0.0243549,-2.3642411,-0.019241765,1.5697764,0.7998202,0.04,0.039999615,0.01597277468849967,0.04273531506140266,-0.0274557195051095,0.13981598306462717,-0.08048894923135376,-0.005358475393347967,0.9989764559352505,0.0410462647350384,0.01897385849657377,-0.0011123543048748264
1892.1833333319412,-0.052119765,-0.83406675,-0.025090326,-2.36448,-0.019824432,1.5697408,0.8002367,0.04,0.039999615,0.015907644273438493,0.042392456943830814,-0.028404014466465455,0.142106510827938,-0.0815525011533428,-0.005484530719784726,0.9989139451133646,0.04227470506952421,0.019556494342094145,-0.001150260138511408
1892.1999999986078,-0.053674772,-0.83554274,-0.025837673,-2.364723,-0.020416547,1.5697042,0.80065995,0.04,0.039999608,0.015380452346924756,0.04205920624249654,-0.028866318900599985,0.14439092702804224,-0.08261237865978116,-0.00561294369029379,0.998848536021521,0.04352285129460387,0.02014819639293571,-0.0011889848459308429
1892.2166666652745,-0.055254545,-0.83704215,-0.026596924,-2.3649695,-0.02101809,1.5696667,0.8010898,0.04,0.0399996,0.015799869951971246,0.041766791151268134,-0.028794936928266956,0.1466691776567412,-0.08367109804450476,-0.005743973824945053,0.9987801398604145,0.0447905968730773,0.020749104461856002,-0.0012285423051831494
1892.2333333319411,-0.056859013,-0.8385649,-0.027368054,-2.3652198,-0.021629028,1.569629,0.8015265,0.04,0.03999959,0.015308127860924614,0.041413013418746536,-0.028840104367255925,0.14894110240351174,-0.08472617142730515,-0.005873518427443845,0.9987086622889502,0.046077969617717554,0.02135926933724569,-0.0012689358941538344
1892.2499999986078,-0.0584881,-0.8401111,-0.028151019,-2.3654742,-0.022249345,1.5695909,0.80196995,0.04,0.039999586,0.015009885540484547,0.04101413836896939,-0.029327139911350386,0.15120521275874338,-0.0857767744825426,-0.006005688840272836,0.9986340124905596,0.047384900112311674,0.02197871156489623,-0.0013101817806515919
1892.2666666652744,-0.060141753,-0.84168094,-0.028945789,-2.3657322,-0.022879006,1.5695527,0.80242,0.04,0.039999593,0.01589459448019248,0.040671453440135896,-0.029644091322666988,0.1534614290459297,-0.08682168217453866,-0.006139093928787472,0.9985560951089977,0.048711250078339645,0.0226077494677424,-0.0013522945240402005
1892.283333331941,-0.06181988,-0.8432738,-0.029752316,-2.3659942,-0.023517987,1.5695137,0.8028768,0.04,0.039999593,0.014083965702083034,0.04021256336725759,-0.030147234195232464,0.15570878164999932,-0.08785741236565839,-0.006273704491403312,0.9984748353040569,0.050056967393246034,0.023245569538573388,-0.001395269420377013
1892.2999999986077,-0.06352239,-0.84488976,-0.030570563,-2.3662598,-0.024166252,1.5694739,0.80334014,0.04,0.039999582,0.01479628684615264,0.0398092768236602,-0.030478328544569777,0.15794727090781488,-0.08889153302356648,-0.0064116133814252005,0.9983901373953546,0.05142195156689959,0.023892370843803298,-0.0014391192439864207
1892.3166666652744,-0.06524919,-0.8465287,-0.031400483,-2.3665295,-0.02482376,1.5694333,0.8038101,0.04,0.039999574,0.01382588443532562,0.039337167369554726,-0.030909288617197994,0.16017576154123617,-0.08992034462662024,-0.006549286933108307,0.9983019137606903,0.052806117489519584,0.02454793571300494,-0.0014838428678537541
1892.333333331941,-0.067000195,-0.84819067,-0.032242034,-2.3668027,-0.025490476,1.569392,0.80428666,0.04,0.03999957,0.01447107801748615,0.03893118139676466,-0.031210829302419363,0.16239412640767414,-0.09094600674920972,-0.006687664464284732,0.998210067296387,0.054209367527800506,0.02521243322706053,-0.001529454526751134
1892.3499999986077,-0.068775296,-0.84987545,-0.03309517,-2.3670797,-0.026166372,1.5693504,0.8047698,0.04,0.039999567,0.013949404872803939,0.03849739560687626,-0.031138902972926985,0.16460171242459098,-0.0919660444094023,-0.006830785901233899,0.9981144999566716,0.05563163887557245,0.025885943005463354,-0.0015759717571207773
1892.3666666652744,-0.07057435,-0.85158306,-0.033959825,-2.3673604,-0.026851391,1.5693084,0.8052594,0.04,0.039999556,0.014184157333074765,0.037961082675486146,-0.03151913691066266,0.166797016638027,-0.09297920372841967,-0.006971214131598347,0.9980151210084809,0.057072732571433915,0.026568515077688662,-0.0016234043930974146
1892.383333331941,-0.07239728,-0.85331345,-0.034835953,-2.367645,-0.027545491,1.569266,0.80575556,0.04,0.039999556,0.01312267853741389,0.037466989490020364,-0.03212511632650905,0.16898135114705712,-0.09398377346898211,-0.007116434446963506,0.9979118395484838,0.05853262662812241,0.02725981250306073,-0.0016717449781456666
1892.3999999986077,-0.07424392,-0.8550663,-0.035723485,-2.3679328,-0.028248629,1.569223,0.80625814,0.04,0.039999556,0.01431121464974261,0.03698977521582325,-0.03198753841224811,0.17115218920321082,-0.09498273124062995,-0.007258995508338362,0.9978045548352019,0.06001115135279724,0.02796015266606892,-0.0017210247895072923
1892.4166666652743,-0.07611416,-0.85684156,-0.036622368,-2.3682244,-0.02896075,1.5691794,0.8067672,0.04,0.039999556,0.01279419998665432,0.03641054795207044,-0.0327558852551979,0.17331060056761505,-0.09597110666728152,-0.007406612917631505,0.9976931829249964,0.06150823348643084,0.028669020115866407,-0.0017712266835410767
1892.433333331941,-0.07800791,-0.85863924,-0.037532523,-2.3685198,-0.029681811,1.569135,0.8072827,0.04,0.039999567,0.01261150601230554,0.03587183062292443,-0.03322341738780654,0.17545460315700617,-0.09695484011166967,-0.007554297741071761,0.9975776326648291,0.06302371374683279,0.029386345323359923,-0.0018223668480101068
1892.4499999986076,-0.07992496,-0.8604589,-0.03845389,-2.3688188,-0.030411752,1.5690897,0.8078045,0.04,0.039999563,0.012440044449357757,0.035295449570213466,-0.03325351963729961,0.17758456569842412,-0.09793237529519232,-0.00770350804721831,0.9974578119556935,0.0645574589061652,0.030112029376366,-0.0018744479122689446
1892.4666666652743,-0.08186522,-0.86230075,-0.039386395,-2.3691216,-0.031150524,1.5690439,0.8083326,0.04,0.039999567,0.01220453493866458,0.0347574155319913,-0.03356768296345347,0.17969956420552807,-0.09890453695909249,-0.007852595185037808,0.9973336231555997,0.06610930473277071,0.030846211266013123,-0.001927485825222718
1892.483333331941,-0.08382849,-0.86416435,-0.04032998,-2.369428,-0.031898066,1.568998,0.808867,0.04,0.039999556,0.012162705869656065,0.03419900172726975,-0.03333813328898483,0.1817996754234276,-0.09986848189558598,-0.008005572678548914,0.9972049680586639,0.06767911280024991,0.031588970494389274,-0.0019814925674688927
1892.4999999986076,-0.085814625,-0.8660497,-0.04128456,-2.3697376,-0.032654315,1.5689517,0.80940753,0.04,0.039999567,0.012344850845558142,0.03360341176919246,-0.033804086180855286,0.18388379634752616,-0.10082338300477514,-0.008157054146062805,0.9970717511837369,0.06926673746823081,0.03234029727734385,-0.0020364783123287167
1892.5166666652742,-0.0878235,-0.86795664,-0.042250063,-2.3700504,-0.03341922,1.568905,0.8099543,0.04,0.039999567,0.01238020843881138,0.03305268211541146,-0.034077020768785715,0.1859523400120458,-0.10176795582474983,-0.00831198303774592,0.9969338752360682,0.07087206776407234,0.0331001517129881,-0.0020924565031129752
1892.5333333319409,-0.0898549,-0.869885,-0.04322641,-2.3703673,-0.034192696,1.5688577,0.8105072,0.04,0.039999563,0.01042232496706319,0.03225861622202231,-0.03475067329274939,0.1880035293516591,-0.1027019819516553,-0.008466915636691268,0.9967912684602247,0.07249490015395947,0.033867929837825855,-0.002149395641554878
1892.5499999986075,-0.091908686,-0.87183464,-0.0442135,-2.3706875,-0.0349747,1.5688096,0.81106615,0.04,0.039999556,0.011216000515945623,0.03171197602269138,-0.03481904641451372,0.1900375160715127,-0.10362935494188998,-0.008621187604453323,0.9966438299568303,0.07413508641108038,0.03464379944371707,-0.0022073359295227348
1892.5666666652742,-0.09398467,-0.8738054,-0.045211267,-2.3710113,-0.03576516,1.5687608,0.81163114,0.04,0.039999552,0.010549711086316194,0.031031366130421234,-0.03529963291450944,0.1920541575587385,-0.10454879888224565,-0.00878047240134805,0.9964914736167692,0.07579245510849911,0.035427543044942604,-0.0022662637765197206
1892.5833333319408,-0.096082695,-0.8757969,-0.046219606,-2.3713386,-0.036563996,1.5687112,0.8122021,0.04,0.039999545,0.010010530819482,0.030387304475212873,-0.035300498946955194,0.1940524106428684,-0.10546013369903984,-0.008939298834918695,0.9963341119084954,0.07746683273899616,0.03621900213323321,-0.002326189452960686
1892.5999999986075,-0.098202534,-0.8778092,-0.04723844,-2.3716688,-0.03737112,1.5686615,0.81277907,0.04,0.039999537,0.01137843870404609,0.0297885861721775,-0.035030907953426116,0.1960319673019928,-0.10636566374149937,-0.009098899955047104,0.996171622907755,0.07915809432609565,0.03701885181384184,-0.0023871376951291553
1892.6166666652741,-0.100344,-0.87984204,-0.048267674,-2.372003,-0.038186513,1.5686115,0.813362,0.04,0.039999526,0.008819364929957274,0.029021165070186594,-0.03564211237510051,0.19799210493744662,-0.10725538180208798,-0.009259955361107172,0.9960039448923219,0.0808660392368803,0.037826278358840414,-0.002449106488372449
1892.6333333319408,-0.10250688,-0.8818952,-0.04930722,-2.3723404,-0.039010055,1.5685612,0.81395066,0.04,0.039999533,0.010086207474424569,0.028367645847374168,-0.03564958099082638,0.19993248622154797,-0.1081392307215435,-0.00942302808807214,0.9958309807700163,0.0825903979120902,0.03864159996760785,-0.0025121033604243712
1892.6499999986074,-0.10469103,-0.8839687,-0.05035698,-2.3726811,-0.039841697,1.5685103,0.81454515,0.04,0.039999533,0.009497743683128945,0.02766741297004216,-0.03627296036614602,0.20185330200689927,-0.10901041862744387,-0.009585447839283737,0.995652638304787,0.08433109049050169,0.03946459868078263,-0.00257613360765244
1892.666666665274,-0.10689622,-0.88606215,-0.051416833,-2.3730252,-0.040681347,1.5684588,0.81514543,0.04,0.039999533,0.008854698615534673,0.026920879798886244,-0.03628547294531881,0.20375303869496963,-0.10987198836187258,-0.009749767204767397,0.9954688376843193,0.08608790876340727,0.04029502715572386,-0.0026412025089459037
1892.6833333319407,-0.10912222,-0.8881755,-0.052486688,-2.373372,-0.04152893,1.5684066,0.8157513,0.04,0.03999953,0.009482235014379725,0.02619802019546147,-0.03654330367808267,0.20563179065704856,-0.11072497588669096,-0.009915116081536703,0.99527948786822,0.08786058994986597,0.04113305428984821,-0.002707324735547272
1892.6999999986074,-0.111368835,-0.8903084,-0.05356646,-2.3737226,-0.042384353,1.5683539,0.81636286,0.04,0.03999952,0.007814790151794426,0.025465739799440668,-0.03667404866152246,0.207489470128093,-0.11156563521555513,-0.01008077798003882,0.995084511447104,0.08964900132602263,0.041978255211040275,-0.002774478106255582
1892.716666665274,-0.11363583,-0.89246076,-0.054656036,-2.3740761,-0.043247536,1.5683005,0.81697994,0.04,0.03999952,0.008336668928787816,0.024702104652074564,-0.03696292489205888,0.20932492527352015,-0.11239721905093306,-0.01024753106828017,0.9948838204891002,0.09145290160180149,0.04283070974375579,-0.002842678397102294
1892.7333333319407,-0.115922995,-0.89463216,-0.055755295,-2.374433,-0.044118393,1.568247,0.81760246,0.04,0.039999515,0.007510598817672687,0.0239983518458442,-0.03659839694563072,0.21113849289985226,-0.11321784530099258,-0.010416005932180845,0.9946773340392924,0.09327204901871627,0.043690349023538425,-0.00291194480330151
1892.7499999986073,-0.11823008,-0.89682245,-0.05686414,-2.374793,-0.04499684,1.5681932,0.8182304,0.04,0.03999951,0.007605456521364573,0.023239709931655028,-0.03682544564707069,0.21292969822072083,-0.11402901548600397,-0.010585626138746564,0.9944649638078654,0.09510626102073869,0.044557164174077374,-0.0029822800070093336
1892.766666665274,-0.12055687,-0.8990315,-0.05798245,-2.375156,-0.045882795,1.5681391,0.8188638,0.04,0.039999504,0.007701544883431666,0.022482764742001726,-0.03705022742745978,0.21469773082953167,-0.11482708939451808,-0.010754622930385878,0.9942466185739562,0.09695538847967466,0.04543114600774472,-0.0030536979929852003
1892.7833333319406,-0.12290313,-0.90125906,-0.059110112,-2.3755217,-0.046776157,1.5680844,0.8195025,0.04,0.039999504,0.0071554607047552565,0.021684877030700433,-0.03730140565467721,0.21644170895645126,-0.11561246438345218,-0.010925290391258433,0.9940222347463639,0.09881913132909018,0.04631201838521105,-0.0031261903806968686
1892.7999999986073,-0.1252686,-0.9035047,-0.060247023,-2.3758907,-0.047676846,1.568029,0.8201464,0.04,0.039999507,0.0058147657109319795,0.020828596356933793,-0.03745526598035731,0.2181621360495742,-0.11638538162007182,-0.011096620500168325,0.993791749606499,0.10069727294908348,0.04719935663410063,-0.0031997449895693453
1892.816666665274,-0.12765303,-0.90576863,-0.061393045,-2.3762627,-0.048584744,1.5679733,0.8207954,0.04,0.039999496,0.006659932537855795,0.020058429926228527,-0.03757313298091702,0.21985848098834504,-0.11715105563398195,-0.011269057134745464,0.9935550676269663,0.10258957240189923,0.048093509406877774,-0.0032743823998253635
1892.8333333319406,-0.1300562,-0.9080504,-0.06254807,-2.3766377,-0.04949978,1.567917,0.8214495,0.04,0.0399995,0.005732867863628144,0.01926563106516843,-0.03765432134934521,0.22153037498071135,-0.1179024077929628,-0.01144170876982277,0.9933121238247948,0.1044958024002501,0.048994170575121045,-0.0033501034400618473
1892.8499999986072,-0.13247785,-0.91034967,-0.06371198,-2.3770154,-0.050421864,1.5678601,0.8221087,0.04,0.039999496,0.005940161195328031,0.01851848202263362,-0.03757934590069567,0.22317752278949454,-0.11864395179125749,-0.01161597789377343,0.9930628377864623,0.10641577192518543,0.04990130158707167,-0.0034269217939120475
1892.866666665274,-0.13491772,-0.91266626,-0.06488466,-2.3773959,-0.051350884,1.5678028,0.8227728,0.04,0.03999949,0.005304348028412065,0.017687660389692494,-0.037709040334488186,0.22479912507012959,-0.11937241648540696,-0.011790692897886333,0.9928071421071819,0.10834921917063399,0.050814776328119184,-0.003504824219161234
1892.8833333319405,-0.13737552,-0.9149997,-0.06606596,-2.3777792,-0.052286744,1.5677453,0.8234418,0.04,0.03999948,0.004819056067795202,0.016850911356380838,-0.037345466922111825,0.22639518468688702,-0.12008988582785939,-0.011966340902113487,0.9925449686038514,0.11029587548876588,0.051734526806982,-0.0035838366876689617
1892.8999999986072,-0.13985103,-0.9173502,-0.06725575,-2.378165,-0.053229332,1.5676876,0.82411563,0.04,0.039999478,0.005575280272251959,0.016095184529663076,-0.03761171586340595,0.22796546652677818,-0.12079332886404925,-0.01214146900034313,0.9922762269537545,0.11225554178824992,0.05266078310705685,-0.0036639709058778965
1892.9166666652739,-0.142344,-0.91971713,-0.06845392,-2.3785539,-0.054178562,1.5676295,0.82479423,0.04,0.039999474,0.0036150423047054403,0.015181949897796754,-0.037839674238981935,0.22950890930856538,-0.12148239597505572,-0.012317667593098505,0.9920008843207386,0.11422796573759529,0.05359282491954836,-0.0037451925805967
1892.9333333319405,-0.14485408,-0.92210037,-0.06966031,-2.3789454,-0.05513433,1.5675709,0.8254775,0.04,0.039999474,0.004108855110551701,0.014328153324805193,-0.03764627336826365,0.23102567684203892,-0.12216043628918902,-0.012494588413599343,0.9917188684861982,0.116212844729961,0.05453082227918819,-0.0038275357320876544
1892.9499999986072,-0.14738107,-0.9244995,-0.07087484,-2.379339,-0.056096524,1.5675118,0.8261653,0.04,0.039999466,0.004335606859928731,0.013631080237003212,-0.037664863982911356,0.23251606231750233,-0.12282648801564554,-0.01267185711228637,0.9914301086022751,0.11820998535376705,0.05547470870485188,-0.003910986276479185
1892.9666666652738,-0.14992468,-0.9269145,-0.07209733,-2.379736,-0.057065047,1.5674523,0.8268576,0.04,0.039999463,0.002166898322775168,0.01259853702432201,-0.03789038977894954,0.23397837977252184,-0.1234776989377689,-0.012849698460678224,0.9911345751459942,0.12021907066145475,0.05642397291911307,-0.003995532441231371
1892.9833333319405,-0.15248457,-0.92934513,-0.07332769,-2.3801353,-0.058039777,1.5673925,0.82755435,0.04,0.039999466,0.0034388163380860703,0.011837481006865547,-0.03765166800779873,0.2354138002774144,-0.12411945193334618,-0.013028439107942429,0.9908321848259732,0.12223984567918757,0.0573789645560903,-0.004081184605950343
1892.999999998607,-0.15506049,-0.9317909,-0.07456573,-2.3805368,-0.05902062,1.5673321,0.82825565,0.04,0.03999946,0.0031954824278646043,0.011024431997996853,-0.03751021568734192,0.23682142532631428,-0.12474690029294833,-0.013207277394066935,0.9905228691130813,0.12427218857406241,0.058339497643864105,-0.004167964210941231
1893.0166666652738,-0.15765215,-0.9342519,-0.07581134,-2.380941,-0.060007438,1.5672715,0.828961,0.04,0.039999463,0.0023967399113367094,0.010086226422717504,-0.03774393127662368,0.23819954190559403,-0.12536078481718294,-0.013386920540118447,0.990206604727449,0.1263156026748234,0.059305448309640955,-0.004255851950673155
1893.0333333319404,-0.16025929,-0.9367275,-0.077064395,-2.3813477,-0.06100015,1.5672102,0.8296705,0.04,0.03999946,0.0015105469639120628,0.009272384739972273,-0.037594885898584174,0.23955051446312275,-0.12595976758431385,-0.013566315364557137,0.9898833524757403,0.1283698983973456,0.06027636415550261,-0.004344836134701848
1893.049999998607,-0.16288157,-0.93921745,-0.078324705,-2.3817565,-0.061998624,1.5671487,0.83038455,0.04,0.039999455,0.002059276511712227,0.008442941591507713,-0.03713027417309167,0.2408729173613804,-0.12654835260901567,-0.013746141713898243,0.9895530086270524,0.13043505980433995,0.06125250695792792,-0.0044349388221145555
1893.0666666652737,-0.16551869,-0.9417215,-0.079592176,-2.3821676,-0.06300276,1.567087,0.83110267,0.04,0.039999448,0.001796378441598634,0.0076455342630399326,-0.03703653328603895,0.24216468037059302,-0.12712272134493516,-0.013926641509795383,0.9892155495574234,0.13251060129931871,0.06223384032943431,-0.004526165590018745
1893.0833333319404,-0.16817036,-0.9442395,-0.08086665,-2.3825815,-0.06401245,1.5670252,0.8318246,0.04,0.03999945,0.00020247982130960906,0.0066544475131713465,-0.03722302550910328,0.24342657489723074,-0.1276812413028612,-0.014107047436413632,0.9888709696969925,0.13459615441269002,0.06321985420281528,-0.0046185000183803495
1893.099999998607,-0.17083628,-0.94677097,-0.08214794,-2.3829973,-0.06502759,1.5669628,0.83255035,0.04,0.039999448,0.0011679947800935508,0.0058635360921655,-0.036928700781113655,0.24465982223399102,-0.1282277156150138,-0.014288421884261562,0.9885192080424344,0.13669149099076347,0.06421066046945738,-0.0047119745283993085
1893.1166666652737,-0.17351612,-0.9493158,-0.08343597,-2.383415,-0.066048004,1.5669001,0.8332799,0.04,0.03999945,0.0009680586160687454,0.0050196797194368425,-0.03682868117451665,0.24586363174065373,-0.12875965582579316,-0.014469316423390402,0.9881602129144476,0.13879637889605995,0.06520625684162569,-0.004806546256845412
1893.1333333319403,-0.17620964,-0.95187354,-0.08473052,-2.3838353,-0.0670736,1.5668372,0.8340133,0.04,0.03999944,-0.0007511013363270536,0.004081035939135225,-0.03664658768562923,0.24703743673201964,-0.12927720466177126,-0.01464997790583207,0.9877939698248875,0.1409105720278005,0.06620613393898542,-0.004902213504156573
1893.149999998607,-0.17891644,-0.95444393,-0.086031474,-2.3842578,-0.068104275,1.566774,0.8347505,0.04,0.03999944,-0.0003370731126217663,0.003248374650516306,-0.03636419862229623,0.2481807072374622,-0.12978287263396204,-0.01483147655020034,0.9874204305576413,0.1430338033739427,0.06721037510388735,-0.004998988711870287
1893.1666666652736,-0.18163629,-0.95702654,-0.08733871,-2.3846817,-0.06913996,1.5667105,0.8354911,0.04,0.039999433,0.00032724828047392407,0.0026514051130632765,-0.036099944311662746,0.24929241270820873,-0.13027381484848455,-0.015012914567545312,0.9870395595631664,0.14516572961970478,0.06821906087800633,-0.005096914189224152
1893.1833333319403,-0.18436882,-0.9596215,-0.088652015,-2.3851075,-0.07018045,1.5666465,0.8362345,0.04,0.039999433,-0.0005414605523945681,0.001469894790034898,-0.03630245177126401,0.2503736345728812,-0.13074842678393309,-0.0151934875982747,0.986651393713248,0.14730568868595117,0.06923195246771652,-0.005195971706125731
1893.199999998607,-0.18711372,-0.9622282,-0.0899713,-2.3855357,-0.07122565,1.5665821,0.8369815,0.04,0.039999437,-0.0020229615642630705,0.0006566019178366744,-0.035902939719822946,0.25142703664165805,-0.13120901677799304,-0.015374604374729199,0.9862558671743668,0.14945385127677027,0.07024857487347284,-0.005296086378154994
1893.2166666652736,-0.18987064,-0.9648461,-0.09129635,-2.3859658,-0.07227545,1.5665176,0.837732,0.04,0.039999425,-0.0017196806978425627,-0.00010345245904930245,-0.0352548370780692,0.2524487502155316,-0.1316572528453178,-0.015555592306807996,0.985852939296682,0.15160995771198155,0.07126901055112247,-0.005397308378029552
1893.2333333319402,-0.19263929,-0.96747535,-0.09262705,-2.3863974,-0.07332972,1.5664527,0.8384854,0.04,0.039999425,-0.0009246342723479017,-0.0009473918371305512,-0.03543666198579931,0.2534377217804534,-0.1320916647781668,-0.01573713135652116,0.9854426107139135,0.15377343721502745,0.07229346280375623,-0.005499657467892062
1893.2499999986069,-0.19541939,-0.97011554,-0.093963206,-2.3868303,-0.074388325,1.5663875,0.83924216,0.04,0.03999942,-0.0014888630376574952,-0.001760164370706585,-0.03507367192558952,0.2543965664352036,-0.1325093592673236,-0.015917322571554232,0.9850248288872506,0.15594428823059459,0.07332169201110275,-0.005603117393462606
1893.2666666652735,-0.19821055,-0.9727661,-0.09530468,-2.387265,-0.07545114,1.5663222,0.8400019,0.04,0.039999425,-0.002424215517926598,-0.0026087704758925856,-0.034508625929796644,0.2553224418173277,-0.1329114278803185,-0.016097163637219476,0.9845996167527393,0.15812205654932662,0.07435342871835779,-0.005707675603479661
1893.2833333319402,-0.20101242,-0.9754269,-0.09665134,-2.3877025,-0.076518044,1.5662568,0.8407645,0.04,0.03999943,-0.004711063003703941,-0.0037158496905942417,-0.034502255163681994,0.2562165554018938,-0.13329836453314295,-0.01627632995760294,0.9841670128672939,0.16030640311676753,0.07538802232170161,-0.005813260191551283
1893.2999999986068,-0.2038247,-0.9780977,-0.09800299,-2.3881412,-0.077588916,1.566191,0.84153,0.04,0.039999425,-0.0022890785842832884,-0.004273034048546398,-0.03413988131815149,0.25707901158989027,-0.133674230017694,-0.01645704652350423,0.9837269455203856,0.1624971168253161,0.0764260288727785,-0.005919948591738447
1893.3166666652735,-0.20664704,-0.98077804,-0.09935947,-2.388581,-0.078663625,1.566125,0.8422983,0.04,0.03999942,-0.002619762081268462,-0.00510553309779338,-0.033620243037546516,0.2579093823353663,-0.13403441760810633,-0.016637219997690425,0.9832794066099018,0.16469389412184463,0.0774673869372197,-0.006027747255905228
1893.3333333319401,-0.20947906,-0.98346776,-0.10072062,-2.389022,-0.079742044,1.5660588,0.84306914,0.04,0.039999418,-0.003041054894703521,-0.0060039480049622895,-0.033492498078535604,0.2587070065787786,-0.13437899885876753,-0.016815876056440873,0.9828244237632092,0.16689632083832806,0.07851185791650649,-0.006136636834921252
1893.3499999986068,-0.21232054,-0.98616636,-0.102086306,-2.389465,-0.08082404,1.5659922,0.8438426,0.04,0.03999942,-0.004777514828147034,-0.0068188900662458085,-0.03307955692596343,0.259472530884367,-0.1347044093867687,-0.016993509289618416,0.9823620060821314,0.16910425575532173,0.07955891008171107,-0.006246560520733184
1893.3666666652734,-0.21517105,-0.9888734,-0.103456326,-2.38991,-0.0819095,1.5659255,0.8446186,0.04,0.039999418,-0.005252227457752667,-0.007705412011049795,-0.032607924713679015,0.26020477930119196,-0.13501999048677713,-0.017171697393362217,0.9818921817752744,0.17131731301025835,0.08060833376384342,-0.006357527770570221
1893.38333333194,-0.21803032,-0.99158883,-0.104830526,-2.3903563,-0.08299827,1.5658586,0.84539694,0.04,0.039999425,-0.004562467504998224,-0.008412967038218255,-0.03224113620191593,0.2609045862855699,-0.1353223046703071,-0.017350257292638345,0.9814149326957919,0.17353518237339946,0.08166036514338205,-0.006469553693606132
1893.3999999986067,-0.22089791,-0.99431217,-0.10620874,-2.3908033,-0.08409022,1.5657916,0.84617746,0.04,0.039999425,-0.0037883216639666983,-0.009134467567289972,-0.03167693902653701,0.26157159226236415,-0.13560986809486258,-0.017527650803264502,0.9809302530613382,0.1757575352897938,0.08271514941022784,-0.006582664803822294
1893.4166666652734,-0.22377354,-0.99704325,-0.10759081,-2.3912516,-0.08518524,1.5657245,0.8469602,0.04,0.03999943,-0.004857840329197671,-0.009992112901741068,-0.031443435301581335,0.2622061130614691,-0.13587972502267498,-0.017704966525841664,0.9804381660450442,0.17798411843161085,0.08377236139270335,-0.006696836196506012
1893.43333333194,-0.22665684,-0.9997818,-0.10897658,-2.391701,-0.08628318,1.5656571,0.84774506,0.04,0.039999433,-0.005261798581646104,-0.010821619850470698,-0.03111233693695592,0.2628071772627185,-0.13613235875375135,-0.017879594268271702,0.9799386948817884,0.18021464116966926,0.0848317958013287,-0.006812033660084084
1893.4499999986067,-0.22954744,-1.0025272,-0.110365875,-2.3921514,-0.08738388,1.5655895,0.84853184,0.04,0.03999942,-0.005414925905267154,-0.011582905177398573,-0.0304845355906469,0.26337463980656595,-0.13636952606169594,-0.018053306636766228,0.9794318784360843,0.18244871875189836,0.08589330502582916,-0.0069282523549583684
1893.4666666652734,-0.23244503,-1.0052793,-0.11175853,-2.3926036,-0.088487275,1.5655217,0.84932053,0.04,0.039999433,-0.007415015215839205,-0.012478546680111391,-0.030158509613031903,0.2639093192672079,-0.136593091494331,-0.018227527460169785,0.9789177811171248,0.1846860761503843,0.08695626883038327,-0.0070454524338413775
1893.48333333194,-0.23534925,-1.0080376,-0.11315434,-2.3930569,-0.08959317,1.5654539,0.85011107,0.04,0.039999437,-0.006090055316443355,-0.013088058764365584,-0.02935767405126688,0.2644108342683003,-0.13680405884937283,-0.01840176755543036,0.9783963814600112,0.18692643846331808,0.08802107194214145,-0.007163675281030254
1893.4999999986067,-0.23825976,-1.010802,-0.11455315,-2.3935106,-0.09070148,1.5653858,0.85090333,0.04,0.039999437,-0.005421253367421386,-0.01379433690843479,-0.02924887776958318,0.26487893390743483,-0.13699917619158408,-0.01857387489367867,0.977867685697148,0.18916951769631174,0.08908783083459322,-0.0072829417844370425
1893.5166666652733,-0.24117613,-1.013572,-0.115954824,-2.393965,-0.09181203,1.5653176,0.8516973,0.04,0.039999437,-0.0065017677493894865,-0.01459226761933996,-0.028390335572847647,0.2653127773953364,-0.13717612686969097,-0.018745488519299386,0.9773317544518979,0.1914150085728769,0.09015613689841868,-0.00740318935150747
1893.53333333194,-0.2440981,-1.0163472,-0.117359154,-2.3944201,-0.092924684,1.5652492,0.85249287,0.04,0.039999444,-0.006815708030760703,-0.015311592412520225,-0.028057777726486766,0.26571310924621316,-0.13733767852319756,-0.01891488975067964,0.9767886308803035,0.19366260505775465,0.09122581363175847,-0.0075244210707530864
1893.5499999986066,-0.24702519,-1.0191275,-0.11876601,-2.394876,-0.09403935,1.5651807,0.85328966,0.04,0.039999448,-0.006919219026135792,-0.016098875780917732,-0.027579942115607547,0.26607896989257795,-0.13748590409557931,-0.019082846060284764,0.9762383749876166,0.19591185111924345,0.09229686141048306,-0.007646644122967356
1893.5666666652733,-0.24995719,-1.0219122,-0.12017518,-2.395333,-0.09515583,1.565112,0.8540879,0.04,0.03999945,-0.008440936084896933,-0.016828594551576703,-0.026824530143232383,0.26641283002873434,-0.13761593932004113,-0.019251901793716136,0.9756810430612103,0.19816260756284657,0.09336869740349546,-0.007769782497383342
1893.58333333194,-0.2528936,-1.0247015,-0.1215865,-2.3957906,-0.09627404,1.565043,0.85488737,0.04,0.039999455,-0.0072243110389891285,-0.017605692705802145,-0.02666086044004201,0.26671157245649113,-0.13773296397992102,-0.01941836469368488,0.9751166598405814,0.2004144895466932,0.09444161489035102,-0.007893887381310066
1893.5999999986066,-0.25583422,-1.0274948,-0.122999795,-2.396249,-0.09739383,1.564974,0.85568786,0.04,0.03999945,-0.008361104818899179,-0.01818161413639774,-0.02585775903346521,0.26697772812271636,-0.13783436747752423,-0.019585848377711414,0.9745452961215879,0.20266717917049965,0.09551532292033146,-0.008018938943763328
1893.6166666652732,-0.25877863,-1.0302916,-0.12441491,-2.396708,-0.09851506,1.5649048,0.85648954,0.04,0.039999455,-0.008160484305097526,-0.018800145442221528,-0.025126805070108116,0.2672096028407222,-0.13791960055877886,-0.019750356644630353,0.9739669805692169,0.20492049604606116,0.09658970718834141,-0.008144908003733234
1893.6333333319399,-0.26172638,-1.0330914,-0.12583163,-2.3971677,-0.099637575,1.5648357,0.857292,0.04,0.039999455,-0.008857000616124822,-0.019641609155679474,-0.02439163786439602,0.26740709326013967,-0.13799149750891626,-0.019913540498686863,0.9733818302744961,0.20717390860056978,0.09766453566189297,-0.008271793069319138
1893.6499999986065,-0.26467714,-1.0358942,-0.12724982,-2.397628,-0.10076125,1.5647664,0.85809535,0.04,0.039999455,-0.009149304217048737,-0.020280810035155916,-0.023963689536221633,0.2675722979047362,-0.1380479486579848,-0.020077401289034583,0.9727898854298286,0.20942724380516672,0.09873963649853894,-0.008399556043537074
1893.6666666652732,-0.2676307,-1.0386996,-0.12866932,-2.398089,-0.10188598,1.5646971,0.8588995,0.04,0.039999455,-0.008801697058791191,-0.020742065712209268,-0.02350442472643932,0.26770337109823844,-0.13809110468914657,-0.020238209069669416,0.9721911702968304,0.21168027255161553,0.0998151288920555,-0.00852822687405979
1893.6833333319398,-0.27058643,-1.0415071,-0.13008995,-2.3985498,-0.10301155,1.5646278,0.85970414,0.04,0.039999455,-0.008682189724762424,-0.02152984658299606,-0.02253410134699374,0.2678002599556931,-0.1381164602989878,-0.0203997837433613,0.9715857973264804,0.21393251083025983,0.10089084463251019,-0.008657754481771222
1893.6999999986065,-0.2735441,-1.0443169,-0.1315115,-2.399011,-0.104137935,1.5645584,0.86050934,0.04,0.039999455,-0.008817406409011852,-0.022166516942179193,-0.02230659011254188,0.26786415496526594,-0.13812779426823393,-0.020558755488642062,0.9709738010387317,0.216183738010904,0.10196683995044957,-0.008788211794760975
1893.7166666652731,-0.27650362,-1.0471281,-0.13293381,-2.3994722,-0.10526489,1.564489,0.8613151,0.04,0.03999946,-0.009577721898379465,-0.022514048173372103,-0.021418384924043465,0.26789468280082374,-0.1381205441931102,-0.0207148579877018,0.9703552435694364,0.21843384045481062,0.1030427148000809,-0.008919503802988844
1893.7333333319398,-0.27946427,-1.0499406,-0.1343567,-2.3999336,-0.10639236,1.5644196,0.8621211,0.04,0.039999448,-0.009258977967530058,-0.02336207645816657,-0.020770512460766,0.267889341827389,-0.13809900536556927,-0.020869695457554856,0.969730235233102,0.22068228367396492,0.10411852713141825,-0.009051676926439722
1893.7499999986064,-0.28242576,-1.0527537,-0.13578005,-2.400395,-0.10752011,1.5643502,0.8629274,0.04,0.039999444,-0.009897779362111336,-0.023866581916975882,-0.019851659151326473,0.26785145536665944,-0.13806013576485654,-0.021022093615676946,0.9690988683719873,0.22292882583398965,0.10519393721073428,-0.00918463426144216
1893.766666665273,-0.2853877,-1.0555673,-0.1372036,-2.4008565,-0.10864805,1.5642809,0.8637337,0.04,0.03999944,-0.01038831183595157,-0.024600334408841906,-0.0193008361153435,0.26777955017406774,-0.13800583872310687,-0.021172997633035304,0.9684612518467192,0.2251730875478303,0.10626877127228612,-0.009318399430222394
1893.7833333319397,-0.28834975,-1.0583811,-0.13862723,-2.401318,-0.1097761,1.5642115,0.8645401,0.04,0.03999945,-0.010174283590425048,-0.025025804783473937,-0.018736173788347354,0.26767533558514345,-0.1379374077005545,-0.021322498737691674,0.967817439708942,0.22741485903196085,0.1073430311034069,-0.009452986841990202
1893.7999999986064,-0.29131168,-1.0611949,-0.14005075,-2.4017797,-0.11090403,1.5641421,0.86534643,0.04,0.039999448,-0.010359853666130903,-0.025590396824892725,-0.018136534273205385,0.267537482186162,-0.13785243976947237,-0.02147078545868155,0.9671675114850146,0.2296538840477632,0.10841661349092654,-0.009588336081925847
1893.816666665273,-0.29427293,-1.0640081,-0.141474,-2.4022412,-0.11203176,1.5640727,0.86615264,0.04,0.039999437,-0.010860967632453367,-0.026204665298679153,-0.01716010360318654,0.2673659896902163,-0.13775267255962187,-0.02161622684958841,0.9665115979912446,0.2318897914075838,0.10948922719823209,-0.00972443915564555
1893.8333333319397,-0.2972332,-1.0668203,-0.14289676,-2.4027028,-0.11315914,1.5640033,0.8669587,0.04,0.03999944,-0.011244647971153654,-0.026678461453089053,-0.016361861142855094,0.26716085973712034,-0.1376376054239068,-0.021759175966293738,0.9658497983025784,0.23412233194536655,0.11056064397208809,-0.009861278203615329
1893.8499999986063,-0.30019233,-1.0696315,-0.14431891,-2.4031644,-0.11428603,1.5639341,0.8677644,0.04,0.039999433,-0.011050049345540103,-0.02707516517096442,-0.016005173140720697,0.2669226140648285,-0.1375083361835352,-0.021901706553951815,0.9651821609118575,0.23635130871252624,0.11163099161488796,-0.009998841856453845
1893.866666665273,-0.30314967,-1.0724409,-0.14574026,-2.4036257,-0.115412205,1.5638648,0.86856955,0.04,0.039999433,-0.011381670340204764,-0.027746224060920532,-0.01481976728504586,0.26665001876617667,-0.13736305336630344,-0.022042272662398242,0.9645088713212109,0.23857619953499906,0.11269992893522073,-0.01013706940474286
1893.8833333319396,-0.3061051,-1.0752485,-0.14716059,-2.4040864,-0.11653764,1.5637957,0.86937404,0.04,0.039999433,-0.010440449950976927,-0.02795387122728199,-0.014404941979340169,0.26634591596050927,-0.1372043986948984,-0.022180822802069178,0.9638299502475318,0.24079686302300893,0.1137677467390994,-0.010276067634404341
1893.8999999986063,-0.309058,-1.078054,-0.14857979,-2.4045465,-0.11766218,1.5637265,0.870178,0.04,0.039999437,-0.01118511164368563,-0.028667392081083154,-0.01359194893115756,0.26600804905423286,-0.1370267573853717,-0.022316019665223175,0.9631455370297013,0.2430129931750094,0.11483410716000486,-0.0104157323628941
1893.916666665273,-0.3120081,-1.0808566,-0.14999765,-2.4050064,-0.11878566,1.5636575,0.8709812,0.04,0.039999437,-0.012103549918318635,-0.02904611878568053,-0.01249908766737251,0.2656374852157376,-0.13683428196806727,-0.022449477244747322,0.9624557809335496,0.2452242902164933,0.11589860834080924,-0.010556032402004483
1893.9333333319396,-0.31495517,-1.0836562,-0.15141404,-2.4054654,-0.11990794,1.5635885,0.8717835,0.04,0.039999425,-0.010968129528610149,-0.029286980784926087,-0.01208338109041085,0.2652343175077463,-0.13662760594883813,-0.022580863889400685,0.9617607446663515,0.24743050313227627,0.11696149162636238,-0.010696990935305337
1893.9499999986062,-0.31789866,-1.0864525,-0.15282871,-2.4059238,-0.12102888,1.5635197,0.8725849,0.04,0.039999425,-0.011911163103439648,-0.029957975362626676,-0.01100580026693887,0.26479813611024633,-0.13640499051136523,-0.022708648916861744,0.961060578789911,0.2496312971535094,0.11802247538922615,-0.010838573727995399
1893.966666665273,-0.32083833,-1.0892453,-0.15424153,-2.4063814,-0.12214837,1.563451,0.8733852,0.04,0.039999433,-0.011182338242576861,-0.030201272994068162,-0.010578778463321559,0.26432978752365294,-0.13616619520733453,-0.022834635320658235,0.9603553597107617,0.25182644419536776,0.11908168237098077,-0.010980801538489075
1893.9833333319395,-0.3237739,-1.0920341,-0.15565234,-2.406839,-0.123266265,1.5633825,0.87418437,0.04,0.039999437,-0.013280432167173117,-0.03071955180073971,-0.009561497140142539,0.2638290002471108,-0.1359111835775993,-0.022956940187242085,0.9596452875728315,0.2540156716110046,0.12013836630584507,-0.011123558631593923
1893.9999999986062,-0.32670474,-1.0948188,-0.15706098,-2.4072955,-0.12438243,1.5633142,0.8749823,0.04,0.03999943,-0.011489806141318226,-0.0311029043073785,-0.008898908138976758,0.26329516501509886,-0.13564326231895887,-0.023077447379617026,0.9589304279930148,0.25619862026146456,0.12119306163041436,-0.011266900989271647
1894.0166666652729,-0.32963067,-1.0975988,-0.1584672,-2.4077513,-0.12549673,1.5632459,0.87577885,0.04,0.039999433,-0.01253725012886342,-0.03145862657052412,-0.007995307044228461,0.26273032912348393,-0.1353582465672038,-0.023195368964503367,0.9582109571094102,0.2583750547255446,0.12224519049192055,-0.011410791937198041
1894.0333333319395,-0.33255133,-1.1003737,-0.15987094,-2.408206,-0.126609,1.5631777,0.8765741,0.04,0.03999943,-0.011790692958379978,-0.0316301787893547,-0.007271677783715624,0.26213323909529784,-0.1350588801335732,-0.0233098905963584,0.957486934848787,0.2605448217427298,0.12329494340668769,-0.011555188759409396
1894.0499999986062,-0.33546638,-1.1031432,-0.1612719,-2.4086602,-0.12771915,1.5631098,0.87736785,0.04,0.039999437,-0.013261515843865368,-0.03212030365464802,-0.006202495235019256,0.26150351845620584,-0.13474322028049907,-0.023422298068933527,0.956758569663183,0.26270756377201643,0.12434179942648445,-0.011700095231064543
1894.0666666652728,-0.3383754,-1.1059073,-0.16267006,-2.4091132,-0.12882702,1.5630418,0.87815994,0.04,0.039999437,-0.011972693413087043,-0.032417992522604244,-0.005935485013686126,0.2608422430185191,-0.13441511543826248,-0.023532034814131866,0.9560259474281299,0.2648629966315593,0.1253860673633523,-0.01184546202772714
1894.0833333319395,-0.34127814,-1.1086653,-0.16406515,-2.4095652,-0.12993248,1.5629741,0.8789502,0.04,0.039999437,-0.012755094204042194,-0.032613827234351245,-0.004714130984273535,0.2601494019683938,-0.1340692313200416,-0.023638527417968985,0.9552892371616998,0.2670108494640262,0.126427402793034,-0.011991307456847183
1894.099999998606,-0.34417412,-1.1114169,-0.16545698,-2.4100165,-0.13103537,1.5629066,0.8797386,0.04,0.039999433,-0.013358855520584356,-0.03310298551553181,-0.0037468037113908004,0.2594258928273324,-0.13371034639707763,-0.023742323262123957,0.95454860703936,0.2691508409172553,0.12746552893774057,-0.012137568346825323
1894.1166666652728,-0.347063,-1.1141618,-0.16684543,-2.4104664,-0.1321356,1.5628393,0.8805251,0.04,0.03999944,-0.012283605616669746,-0.03319610343840429,-0.0031897794070090413,0.2586713457649006,-0.1333370706074743,-0.023843664182548345,0.9538041539039422,0.27128273330539965,0.1285006279564959,-0.012284267203323216
1894.1333333319394,-0.34994456,-1.1168996,-0.16823028,-2.4109156,-0.13323301,1.562772,0.88130957,0.04,0.039999437,-0.013800536180230694,-0.0335613979831173,-0.002205200028582155,0.25788595932527786,-0.13294779354116926,-0.023941355137764783,0.9530560779577538,0.2734062935554033,0.12953213111104958,-0.012431328244009304
1894.149999998606,-0.35281828,-1.1196301,-0.16961145,-2.4113634,-0.13432743,1.5627049,0.882092,0.04,0.03999944,-0.012563647295316116,-0.033772745573146246,-0.0015547354304978889,0.25707007224727907,-0.1325481554512361,-0.02403704875562796,0.9523044638583823,0.27552128695509515,0.1305603478699223,-0.012578716710856254
1894.1666666652727,-0.35568392,-1.1223531,-0.1709887,-2.4118097,-0.13541879,1.5626382,0.8828722,0.04,0.039999437,-0.012503485586101704,-0.033923646039568656,-0.0007010152878184073,0.25622347334737827,-0.13213140820686806,-0.024129994634587898,0.9515494462547348,0.27762745035465247,0.13158528030926614,-0.01272651357655625
1894.1833333319394,-0.3585411,-1.125068,-0.1723619,-2.4122548,-0.13650692,1.5625715,0.88365024,0.04,0.039999448,-0.01342448724703793,-0.03420175355588473,0.00023328443846670766,0.25534675763493303,-0.1316984871832459,-0.024218382556997584,0.9507912220385378,0.27972456742897095,0.13260642369625134,-0.012874582153568816
1894.199999998606,-0.36138964,-1.1277744,-0.17373085,-2.4126987,-0.1375917,1.562505,0.8844259,0.04,0.03999945,-0.01358248241918325,-0.03431242107873045,0.0010109786662826359,0.25443906832609287,-0.13125266199159563,-0.024304742720659196,0.9500299434005955,0.281812420436387,0.13362361083487082,-0.01302293966418854
1894.2166666652727,-0.36422893,-1.1304724,-0.17509544,-2.4131413,-0.13867302,1.5624386,0.88519883,0.04,0.039999448,-0.012949483127400185,-0.03470605935850246,0.0016104977245801066,0.253501282814693,-0.13079547702663755,-0.024388395741141135,0.9492657830254018,0.2838905640341081,0.1346370328281546,-0.01317156865362834
1894.2333333319393,-0.36705878,-1.1331614,-0.17645545,-2.413582,-0.13975075,1.5623724,0.8859692,0.04,0.039999448,-0.012925339284475257,-0.03463267769235889,0.0027015376853567474,0.25253497640025657,-0.13032154741166765,-0.02446821322707545,0.9484988547755072,0.2859589276963498,0.1356465226156025,-0.013320475314340363
1894.249999998606,-0.36987883,-1.1358413,-0.17781082,-2.414021,-0.14082474,1.5623064,0.88673735,0.04,0.039999455,-0.012555571461314585,-0.034777722186973836,0.00325352898342679,0.2515390167761985,-0.12983317093159083,-0.024544501572587897,0.9477292356338187,0.28801748190173226,0.1366521008858504,-0.013469571908796595
1894.2666666652726,-0.37268874,-1.1385113,-0.17916122,-2.4144585,-0.14189486,1.5622405,0.8875022,0.04,0.03999946,-0.013688271700917909,-0.03509004248000158,0.0044330392602764945,0.2505118977309218,-0.1293300263276131,-0.02461776983587706,0.9469572926555301,0.2900655008309382,0.13765324703076798,-0.01361890950451781
1894.2833333319393,-0.37548816,-1.1411711,-0.18050668,-2.414895,-0.142961,1.5621748,0.88826454,0.04,0.03999945,-0.01474190558505839,-0.0351064228802378,0.005463526194859902,0.2494579409006742,-0.1288144251767586,-0.024687359238107234,0.9461831027096623,0.29210317344972975,0.1386495818472941,-0.013768284602087925
1894.299999998606,-0.37827677,-1.1438211,-0.18184687,-2.4153292,-0.14402302,1.5621092,0.8890236,0.04,0.039999463,-0.01174921941897722,-0.0352965386666515,0.0054717389887048995,0.24837405476207558,-0.1282893041642981,-0.02475569467641807,0.9454067737909173,0.29412997383956346,0.13964197793624686,-0.013917922166754334
1894.3166666652726,-0.38105413,-1.1464605,-0.18318179,-2.4157617,-0.14508075,1.562044,0.88978004,0.04,0.039999463,-0.013432813421987433,-0.035301668761200666,0.006933103621409309,0.24726305539032317,-0.12774528976128416,-0.024818157900865195,0.9446284494545133,0.29614599005171377,0.14062982597272444,-0.01406759056602364
1894.3333333319392,-0.38382003,-1.149089,-0.18451115,-2.4161923,-0.14613417,1.5619792,0.89053303,0.04,0.039999463,-0.01312365685524064,-0.03531006623641586,0.007720408666467282,0.24612266987499826,-0.12718848230817653,-0.024878602280270404,0.9438483868903506,0.29815068029408015,0.14161305989091022,-0.014217442561648268
1894.3499999986059,-0.38657418,-1.1517065,-0.18583483,-2.4166214,-0.14718309,1.5619147,0.8912829,0.04,0.039999466,-0.013789123688878746,-0.03557616935405683,0.008392925867095613,0.24495515727910797,-0.12661746915285543,-0.02493428115105436,0.9430667047373725,0.3001440328030593,0.14259147699289426,-0.014367347615148494
1894.3666666652725,-0.38931614,-1.1543123,-0.18715261,-2.4170485,-0.14822736,1.5618505,0.89202964,0.04,0.039999474,-0.012963206546601214,-0.03548564058457604,0.009474198779002574,0.24376008119443884,-0.12603372695984724,-0.024986797607453204,0.942283556261821,0.30212582292872336,0.1435650873759861,-0.01451731397134528
1894.3833333319392,-0.39204568,-1.1569061,-0.18846452,-2.4174738,-0.14926691,1.5617869,0.8927727,0.04,0.039999466,-0.01379743991818394,-0.03538584105823306,0.010251804663186093,0.24253642281933374,-0.12543467754808413,-0.02503489635923719,0.9414991875151771,0.3040956838269419,0.1445336157507925,-0.014667273232887329
1894.3999999986058,-0.39476243,-1.1594878,-0.1897702,-2.4178967,-0.15030159,1.5617236,0.893512,0.04,0.039999474,-0.012590830199243896,-0.03554518593902323,0.010945550054619613,0.2412877313473046,-0.12482542482835353,-0.025080360700979146,0.9407137215294097,0.30605341586407336,0.14549724404908052,-0.01481731211600421
1894.4166666652725,-0.39746615,-1.1620573,-0.1910696,-2.4183183,-0.15133132,1.5616605,0.89424807,0.04,0.039999485,-0.014244973492383295,-0.035717442981153535,0.011655207716954052,0.24001277798901013,-0.12420095175035262,-0.02512032811145968,0.9399273223195524,0.3079990596833891,0.1464554166113567,-0.01496726215907354
1894.4333333319391,-0.4001564,-1.1646142,-0.19236259,-2.4187365,-0.1523559,1.5615977,0.8949809,0.04,0.039999485,-0.010989270826922137,-0.0354219696700353,0.012097988919856917,0.23870993455836578,-0.12356507974244206,-0.025157888683374936,0.9391399785901697,0.30993252444259056,0.14740896026249578,-0.015117186928417332
1894.4499999986058,-0.40283296,-1.167158,-0.19364895,-2.4191532,-0.15337525,1.5615351,0.89571023,0.04,0.039999478,-0.014551171042098687,-0.03574918240054625,0.013514795597435736,0.2373786853892547,-0.12291121234014371,-0.025190045489165952,0.9383520952107633,0.31185343205266003,0.14835667320619514,-0.015266952732541321
1894.4666666652724,-0.40549555,-1.1696883,-0.19492859,-2.4195685,-0.15438929,1.5614728,0.8964351,0.04,0.039999492,-0.01467256949059248,-0.03560837427099006,0.01429419144109989,0.2360208293112912,-0.12224686872855896,-0.02521979049243464,0.9375639767844123,0.31376122955277774,0.14929839073977633,-0.015416575113829059
1894.483333331939,-0.4081438,-1.1722052,-0.19620135,-2.4199805,-0.1553979,1.5614107,0.897156,0.04,0.03999949,-0.011212516141156925,-0.03529769486748657,0.014496080394155175,0.23464049496136233,-0.12157481891893056,-0.02524670209142235,0.9367755191216858,0.3156560656473704,0.15023504812752572,-0.01556615907791742
1894.4999999986057,-0.4107774,-1.1747081,-0.19746707,-2.4203906,-0.1564009,1.5613487,0.89787287,0.04,0.039999496,-0.013916446814521422,-0.0356246641827096,0.01572176445070461,0.23323443760099194,-0.1208861009080541,-0.025267998868322573,0.9359870666258755,0.31753766327271027,0.15116569197685906,-0.015715504495662502
1894.5166666652724,-0.41339606,-1.1771967,-0.19872561,-2.4207983,-0.15739822,1.5612869,0.8985858,0.04,0.039999492,-0.013135832665600589,-0.03535584941706249,0.01648106386954451,0.23180402162645064,-0.12018785131906451,-0.025286513703151825,0.9351987156752162,0.3194059668208767,0.1520904461034987,-0.015864638750560316
1894.533333331939,-0.41599947,-1.1796708,-0.19997683,-2.4212036,-0.15838973,1.5612258,0.89929473,0.04,0.039999504,-0.01294869570047652,-0.035210114340755716,0.017434375455416262,0.23034830378006643,-0.11947764668530284,-0.02530264589316912,0.9344106174058037,0.321260784858232,0.1530093865229803,-0.016013551368729152
1894.5499999986057,-0.41858736,-1.1821301,-0.20122059,-2.4216065,-0.15937537,1.5611652,0.89999974,0.04,0.039999504,-0.012943451321545396,-0.035103968841365685,0.018142596025705338,0.22886761315340448,-0.11875468578585616,-0.025313388834793546,0.9336229216370322,0.32310201878356465,0.15392240875908214,-0.01616223170602179
1894.5666666652724,-0.42115948,-1.1845746,-0.20245676,-2.422007,-0.160355,1.5611054,0.9006999,0.04,0.039999507,-0.012692810616554695,-0.0350316660185368,0.018731752686462766,0.22736150878594688,-0.11801944481195084,-0.025320372662304517,0.9328359010619298,0.3249291337460836,0.1548295843034972,-0.01631071909523073
1894.583333331939,-0.42371547,-1.1870037,-0.20368521,-2.4224052,-0.1613285,1.5610458,0.90139586,0.04,0.03999951,-0.013218689064942168,-0.035041087142217986,0.019531036698838822,0.22583358664693437,-0.11727013286204284,-0.025321124721560534,0.932049698876465,0.32674225700991466,0.15573041676573965,-0.016458845716713893
1894.5999999986057,-0.4262551,-1.1894176,-0.20490575,-2.4228005,-0.16229573,1.5609865,0.9020874,0.04,0.039999515,-0.01203187686482643,-0.03494341222806119,0.01993779229924053,0.22428205619905833,-0.11651164959854945,-0.025319872470756406,0.9312644229600108,0.3285411978854544,0.15662526576262892,-0.01660668376692606
1894.6166666652723,-0.42877796,-1.1918155,-0.2061183,-2.4231935,-0.16325662,1.5609277,0.90277433,0.04,0.03999953,-0.013165647183255302,-0.03475570432583952,0.021242388456743644,0.22270704486437884,-0.11573778227511373,-0.02531284217552513,0.9304803602512236,0.33032568060877016,0.15751362812026792,-0.016754130042941153
1894.633333331939,-0.43128386,-1.194197,-0.2073227,-2.4235835,-0.16421108,1.5608692,0.9034566,0.04,0.03999953,-0.012545516752648922,-0.034516796237626934,0.021735507518028108,0.22111018867974408,-0.11495447226762696,-0.025302289644254964,0.9296976510606931,0.332095629798324,0.1583954534408339,-0.01690120144714006
1894.6499999986056,-0.4337726,-1.1965625,-0.20851883,-2.423971,-0.1651589,1.5608109,0.90413433,0.04,0.03999953,-0.012569103385695612,-0.03462423419935412,0.022165642214388992,0.21949056746607523,-0.11416070314641277,-0.025287939329385386,0.9289164305276258,0.33385095037788504,0.15927077779430615,-0.01704779658472925
1894.6666666652723,-0.43624383,-1.1989113,-0.20970653,-2.424356,-0.16610017,1.5607529,0.90480727,0.04,0.03999953,-0.013232278865826785,-0.03434506026178674,0.023174364576228346,0.2178487890615583,-0.11335451179949509,-0.02526927576206943,0.9281369549539205,0.3355914194238848,0.16013918848154826,-0.017193963196359345
1894.683333331939,-0.43869734,-1.2012433,-0.21088569,-2.4247382,-0.16703457,1.560695,0.90547544,0.04,0.03999953,-0.012307204841643937,-0.03423876921732072,0.023716894673875277,0.21618547310851405,-0.11254146478459094,-0.02524813811605865,0.927359329486129,0.337316946987418,0.16100090026867847,-0.01733959061799775
1894.6999999986056,-0.44113284,-1.2035581,-0.21205617,-2.4251173,-0.16796215,1.5606381,0.9061386,0.04,0.03999954,-0.011654503794034099,-0.03367290605539308,0.024657455200138845,0.21450065516536046,-0.11171683667505852,-0.025223406064362,0.9265836944589302,0.33902732876184877,0.16185613415222513,-0.017484832076468854
1894.7166666652722,-0.44354993,-1.2058556,-0.21321787,-2.4254937,-0.16888277,1.5605817,0.90679675,0.04,0.03999954,-0.01248348207525396,-0.03383708267169494,0.025397425675532936,0.21279504006569833,-0.11087926087435256,-0.02519240076846737,0.9258103027019878,0.3407223547346014,0.16270451611558592,-0.017629544252617632
1894.7333333319389,-0.4459485,-1.2081354,-0.21437064,-2.4258673,-0.16979632,1.5605257,0.90744996,0.04,0.039999552,-0.012359608986667325,-0.033530138513904184,0.025969440689488366,0.21106928963433585,-0.11003160112682694,-0.025156913635969145,0.9250392945233011,0.3424020461649896,0.1635458306826368,-0.017773678183994498
1894.7499999986055,-0.44832832,-1.2103975,-0.21551442,-2.4262373,-0.17070271,1.5604701,0.908098,0.04,0.03999955,-0.010799528540639258,-0.03320062364811083,0.02618498365896116,0.20932325102281593,-0.10917431326953797,-0.025117868103482984,0.9242707576308461,0.3440662317939102,0.16438054983299594,-0.017917297905735163
1894.7666666652722,-0.4506891,-1.2126416,-0.216649,-2.4266052,-0.17160186,1.5604149,0.90874076,0.04,0.039999552,-0.013336299922395156,-0.03339384830788328,0.027375640768068088,0.207556843706234,-0.10830289038284815,-0.02507328187012398,0.9235050475667876,0.34571468739000055,0.16520777531512074,-0.0180602607104101
1894.7833333319388,-0.45303062,-1.2148674,-0.21777432,-2.4269693,-0.17249367,1.5603601,0.9093783,0.04,0.039999552,-0.01057989605803833,-0.032726839488006476,0.02757327132658638,0.2057723140328268,-0.10742575336091903,-0.02502573832130755,0.9227421540917073,0.3473474273598445,0.1660281462722592,-0.01820264854603728
1894.7999999986055,-0.45535254,-1.2170743,-0.21889028,-2.427331,-0.17337802,1.5603056,0.9100105,0.04,0.03999956,-0.013174713372254843,-0.03276064950529234,0.028892482599007785,0.2039677293020734,-0.10653621076917114,-0.024972716314195786,0.9219824356054106,0.34896422969639923,0.16684077107207715,-0.018344261652849157
1894.8166666652721,-0.45765468,-1.2192631,-0.21999674,-2.4276893,-0.17425488,1.5602515,0.9106374,0.04,0.03999957,-0.01079259310641234,-0.03264498280147743,0.028521361771138842,0.20214575843099236,-0.105639911045188,-0.024918400142384365,0.9212258826383393,0.3505650182356381,0.1676464639633488,-0.01848524458169084
1894.8333333319388,-0.45993686,-1.2214327,-0.22109355,-2.4280446,-0.1751241,1.560198,0.91125876,0.04,0.039999567,-0.011662280592039664,-0.03210451289734628,0.0299578239460474,0.20030480869480205,-0.1047323934090737,-0.024858070691059105,0.9204727443939,0.3521496730084626,0.16844472263687593,-0.01862552130225411
1894.8499999986054,-0.46219873,-1.2235825,-0.22218065,-2.4283967,-0.17598557,1.5601451,0.91187465,0.04,0.039999574,-0.011847027099731733,-0.031703615765354964,0.030949101208122,0.19844628494246788,-0.10381553241209349,-0.02479368653235792,0.9197232154903591,0.35371808370955027,0.16923533288096607,-0.018765027300450664
1894.866666665272,-0.46444008,-1.2257134,-0.22325791,-2.4287457,-0.17683929,1.5600928,0.912485,0.04,0.03999957,-0.011140869516923502,-0.03189782529861018,0.030671511009894292,0.19657094170327052,-0.10289211655477658,-0.024725801485367613,0.9189774034393308,0.35527011457100194,0.1700186008928005,-0.018903782982974425
1894.8833333319387,-0.46666095,-1.2278242,-0.22432525,-2.4290915,-0.17768514,1.5600411,0.9130897,0.04,0.03999958,-0.01127116376871129,-0.031094338283887968,0.03167790822905525,0.1946783531588384,-0.10195791735535345,-0.024652114920362782,0.9182354681435043,0.35680580371445525,0.17079418776322755,-0.019041767388039737
1894.8999999986054,-0.46886086,-1.2299154,-0.22538255,-2.4294338,-0.178523,1.5599897,0.91368884,0.04,0.039999582,-0.010921155536713911,-0.031291084288676,0.03193367937172065,0.19276904348019475,-0.10101574626956782,-0.02457569626408166,0.9174975672009164,0.35832499528472656,0.17156218032625983,-0.019178900289138535
1894.916666665272,-0.4710396,-1.2319866,-0.22642976,-2.4297726,-0.17935288,1.5599387,0.91428214,0.04,0.03999959,-0.010511680510827404,-0.030876248871558598,0.032396957566827034,0.19084292217500606,-0.10006430259324872,-0.0244953361998027,0.916763882019749,0.35982750728887547,0.1723225825053983,-0.019315205953447257
1894.9333333319387,-0.4731971,-1.2340376,-0.22746667,-2.4301083,-0.18017463,1.5598881,0.9148697,0.04,0.03999959,-0.011276346799116155,-0.030643345115077825,0.033264069917149364,0.18890156796203278,-0.09910320388098215,-0.02440957924596766,0.9160345809929835,0.36131335337711973,0.1730750702193172,-0.01945063405053983
1894.9499999986053,-0.47533306,-1.236068,-0.22849326,-2.4304411,-0.18098818,1.5598378,0.91545135,0.04,0.039999586,-0.011894130483325327,-0.030453368080873844,0.0339581148535717,0.18694435304743276,-0.09813504781906747,-0.024319890770638928,0.9153099374351847,0.36278231414089235,0.17381926318677243,-0.01958506380343554
1894.966666665272,-0.4774473,-1.2380778,-0.2295094,-2.4307702,-0.18179345,1.5597881,0.9160271,0.04,0.039999574,-0.009867046542222369,-0.029909045810716517,0.03417444813935688,0.18497320606260384,-0.09716461292681805,-0.024228225416816702,0.9145899222406098,0.3642344350094052,0.17455579775733415,-0.019718619591531844
1894.9833333319386,-0.47953963,-1.2400666,-0.23051505,-2.431096,-0.18259038,1.5597392,0.9165969,0.04,0.039999582,-0.010937002797417605,-0.02961880552101448,0.03507077338048559,0.18298752805675264,-0.09618393391625296,-0.024132009902363177,0.9138747764469225,0.365669548000205,0.1752843513445722,-0.01985121691800878
1894.9999999986053,-0.4816099,-1.2420349,-0.23151007,-2.431418,-0.18337893,1.559691,0.91716075,0.04,0.03999957,-0.009062210687060812,-0.029362183244985296,0.03479348624843004,0.1809884736656721,-0.09519532525177607,-0.024032133508607566,0.9131644942199735,0.36708771717237787,0.17600538723441078,-0.019982944267988457
1895.016666665272,-0.48365793,-1.2439823,-0.23249435,-2.431737,-0.18415898,1.5596431,0.9177184,0.04,0.039999582,-0.011109427251332349,-0.02941532823259596,0.03578988106968106,0.17897479733042077,-0.09419484080811605,-0.023926280396175413,0.9124594390313134,0.368488662856609,0.17671819121950133,-0.020113636193315125
1895.0333333319386,-0.4856835,-1.2459079,-0.23346792,-2.4320521,-0.18493043,1.5595957,0.91827,0.04,0.039999582,-0.010099553187359334,-0.028579488076208026,0.03637042706096105,0.17694941044440676,-0.09318972250590843,-0.02381747856499108,0.9117596848013172,0.3698725037392544,0.17742271443634436,-0.020243234689571173
1895.0499999986052,-0.48768646,-1.2478118,-0.23443055,-2.4323637,-0.1856934,1.559549,0.9188155,0.04,0.039999593,-0.009973994754108872,-0.028308170245805453,0.03689340464959612,0.1749107807713074,-0.09217841266308337,-0.023704811483561437,0.91106535497775,0.3712391480148343,0.178119061424177,-0.020371889894087697
1895.066666665272,-0.48966664,-1.249694,-0.23538224,-2.4326718,-0.18644758,1.5595024,0.9193546,0.04,0.039999586,-0.01012861434044332,-0.02835573310595585,0.037013629530247005,0.1728592538999959,-0.09116219204303089,-0.023587866490448653,0.9103766770681665,0.37258843181989926,0.1788069958103763,-0.020499379834020347
1895.0833333319385,-0.49162382,-1.2515548,-0.23632294,-2.4329762,-0.1871931,1.5594566,0.9198876,0.04,0.039999586,-0.009290473345835437,-0.02787971540739731,0.03737122747230481,0.17079739194296753,-0.09014132235981553,-0.02346832892033917,0.9096936455754007,0.3739203819530335,0.17948702928475962,-0.020625844912792644
1895.0999999986052,-0.49355796,-1.2533937,-0.23725252,-2.4332774,-0.18792978,1.5594112,0.92041427,0.04,0.0399996,-0.010264905567947125,-0.02762437650247751,0.03807851417740871,0.1687235752794153,-0.08911021385264493,-0.023342626348228833,0.9090165286743116,0.3752349349529232,0.18015849873128104,-0.020751133045476138
1895.1166666652719,-0.4954688,-1.2552104,-0.23817094,-2.4335742,-0.1886576,1.5593663,0.9209346,0.04,0.039999597,-0.008341457633020966,-0.027092703798514695,0.038172520691481804,0.16663903704010347,-0.08807714426393383,-0.023215414812337964,0.9083453279005447,0.37653206617883267,0.1808219801710426,-0.020875342089994076
1895.1333333319385,-0.49735627,-1.257005,-0.23907812,-2.4338682,-0.18937653,1.5593222,0.9214486,0.04,0.039999604,-0.010586101429055361,-0.026970067651976848,0.03911186964210556,0.16454408003811946,-0.08703490397720734,-0.023083133273763327,0.907680328566897,0.37781167048130837,0.1814768093770723,-0.020998343723523914
1895.1499999986052,-0.49922007,-1.2587769,-0.23997398,-2.4341578,-0.19008647,1.5592787,0.92195624,0.04,0.039999604,-0.008383598768002543,-0.026394539270324646,0.039269627187132894,0.16243955623503956,-0.08598851952481798,-0.022946922143136442,0.907021544530278,0.3790737729888437,0.1821233925330472,-0.021120186603469666
1895.1666666652718,-0.50106025,-1.2605265,-0.24085847,-2.4344442,-0.1907874,1.5592359,0.9224574,0.04,0.03999961,-0.009492203978833658,-0.026289523510236723,0.03958780258755956,0.1603257788590553,-0.08493610860710003,-0.022807431294112987,0.9063691645856978,0.3803182766353031,0.182761519793562,-0.021240829271119418
1895.1833333319385,-0.50287676,-1.2622535,-0.24173151,-2.434727,-0.19147925,1.5591934,0.9229521,0.04,0.039999608,-0.009425367909754456,-0.025993955457104256,0.03976727931993551,0.15820368822636355,-0.08387955597935953,-0.02266502168537325,0.9057233156463278,0.3815452634806654,0.18339092067817975,-0.021360187801179098
1895.199999998605,-0.5046692,-1.2639579,-0.24259305,-2.435006,-0.19216199,1.5591515,0.9234404,0.04,0.039999615,-0.008576102853075085,-0.025596995349319585,0.04033371660711049,0.1560725688616366,-0.08281921075008475,-0.022519510621335375,0.9050840899007392,0.38275458915107097,0.1840119469951783,-0.021478315934661207
1895.2166666652718,-0.5064378,-1.2656392,-0.24344306,-2.4352815,-0.1928356,1.5591098,0.9239219,0.04,0.039999615,-0.009802344864606738,-0.02530635309495599,0.040511373105323045,0.15393307581519827,-0.08175344888433195,-0.022368474670333326,0.9044517353558286,0.38394624151461354,0.18462392387218057,-0.021595109924971177
1895.2333333319384,-0.50818217,-1.2672977,-0.24428146,-2.4355528,-0.1935,1.5590688,0.924397,0.04,0.03999962,-0.007506566043158358,-0.024842607910602332,0.040644484139318315,0.1517884086956054,-0.08068820667924922,-0.02221899544671185,0.9038261333619165,0.38512031704500055,0.1852277212730367,-0.021710673025117845
1895.249999998605,-0.5099023,-1.2689328,-0.24510819,-2.4358206,-0.19415516,1.5590286,0.9248654,0.04,0.039999627,-0.008974676000761406,-0.024346154331555958,0.041710062061017794,0.14963491119510716,-0.07961542222062717,-0.022063379929717027,0.9032075750473278,0.3862766698510441,0.18582271973432504,-0.02182492924276615
1895.2666666652717,-0.511598,-1.2705452,-0.24592325,-2.4360843,-0.19480102,1.5589889,0.9253272,0.04,0.03999963,-0.0076296402955478015,-0.024435080097706674,0.041011514670685756,0.14747430725677538,-0.07854162815544224,-0.021902918148648698,0.9025960719549626,0.3874152765961993,0.18640939946929452,-0.021937870016466996
1895.2833333319384,-0.51326907,-1.2721347,-0.2467265,-2.4363444,-0.19543763,1.55895,0.92578226,0.04,0.03999964,-0.008347162158273136,-0.024073749709896397,0.04187220687759119,0.1453101319109811,-0.07746004466001687,-0.021741373985353835,0.9019918148169789,0.38853605913491335,0.1869874746525302,-0.022049514238490095
1895.299999998605,-0.5149158,-1.2737001,-0.24751799,-2.4366007,-0.19606486,1.5589119,0.9262307,0.04,0.03999965,-0.008353997791132883,-0.02306061788746039,0.042468665382677795,0.14314068406406782,-0.07637601602400873,-0.02157448781103743,0.9013948358759972,0.38963927769930934,0.1875567288955937,-0.022159796389619162
1895.3166666652717,-0.51653796,-1.2752423,-0.24829774,-2.4368532,-0.19668272,1.5588739,0.9266724,0.04,0.03999965,-0.008249945469174236,-0.023441204095109303,0.04183821847579816,0.14096541291178794,-0.07529020906806766,-0.021405116069866337,0.9008053233912031,0.3907247705295361,0.18811707118357038,-0.022268600630188266
1895.3333333319383,-0.5181353,-1.2767615,-0.2490656,-2.4371016,-0.19729115,1.558836,0.9271074,0.04,0.039999656,-0.007413147440304968,-0.0232981589065151,0.041951397777728605,0.1387855813498985,-0.07420416000184107,-0.02123339636863375,0.9002233133249865,0.3917925292971488,0.18866879908857132,-0.022375977824490932
1895.349999998605,-0.5197082,-1.278257,-0.24982148,-2.4373462,-0.19789015,1.5587991,0.92753565,0.04,0.039999653,-0.007603407794976036,-0.022230369150599838,0.04286395057945258,0.13660345552156375,-0.0731126746089919,-0.021060527912767562,0.8996488293339918,0.3928427122094906,0.18921190448935568,-0.022482049314516847
1895.3666666652716,-0.521256,-1.2797284,-0.2505654,-2.4375868,-0.19847971,1.5587629,0.9279571,0.04,0.03999966,-0.0075836143337060236,-0.02211792676279911,0.04335117425215973,0.13441506700886613,-0.07202126793370589,-0.020881193649658954,0.8990821249113595,0.39387508962588935,0.18974611399170443,-0.022586692146468513
1895.3833333319383,-0.5227791,-1.2811766,-0.2512974,-2.4378238,-0.19905983,1.5587274,0.9283719,0.04,0.039999664,-0.007609643593253779,-0.021968376538694656,0.0428348133377332,0.13222614390850518,-0.07092819434770146,-0.02070189693064658,0.8985231475620843,0.39488987064159525,0.19027167906231907,-0.022689898778855192
1895.399999998605,-0.5242774,-1.2826014,-0.25201744,-2.438057,-0.19963048,1.5586926,0.92877984,0.04,0.03999966,-0.0071342882201896884,-0.02159719019313444,0.042978901568080374,0.1300349664018577,-0.0698308252823185,-0.020519845905545994,0.8979719960202109,0.3958870040162141,0.19078865911104587,-0.022791708342148824
1895.4166666652716,-0.5257505,-1.2840027,-0.25272545,-2.4382858,-0.20019157,1.5586582,0.92918104,0.04,0.03999967,-0.006405840912115934,-0.02142394557278493,0.04314104757759951,0.12784101065421236,-0.06873422257768702,-0.02033402215181009,0.8974287586863466,0.3968664572471234,0.19129713164544196,-0.02289204270105254
1895.4333333319382,-0.5271987,-1.2853796,-0.25342146,-2.438511,-0.20074311,1.558624,0.92957544,0.04,0.03999968,-0.007858564104656907,-0.02088002469964323,0.043741813533781926,0.12564612390372987,-0.0676321896543066,-0.020143267557335302,0.8968936449956573,0.3978283450314576,0.1917963025014755,-0.02299077647009611
1895.4499999986049,-0.5286216,-1.2867329,-0.2541055,-2.4387321,-0.20128515,1.5585904,0.929963,0.04,0.039999686,-0.007067492348555859,-0.020611671123083042,0.0436976373275888,0.12345083284281619,-0.06653458542817808,-0.01995317201969156,0.8963666732874398,0.39877256661389426,0.19228669325665665,-0.02308797808808084
1895.4666666652715,-0.5300196,-1.2880626,-0.2547775,-2.4389496,-0.20181765,1.5585576,0.93034375,0.04,0.039999682,-0.006671534543212232,-0.020267886167679716,0.04371467609028956,0.12125570722181883,-0.0654383559554327,-0.019760277588608828,0.8958478258796522,0.3996992621339101,0.19276848289602844,-0.02318371666216911
1895.4833333319382,-0.5313923,-1.289368,-0.2554374,-2.439163,-0.20234059,1.5585256,0.9307176,0.04,0.039999686,-0.006627753810173331,-0.019805438585251967,0.04425348092124137,0.11906240664283585,-0.06433830058422901,-0.019566897774941795,0.8953372794469434,0.4006083338347622,0.19324144553661285,-0.023277942812932374
1895.4999999986048,-0.5327402,-1.2906499,-0.2560853,-2.4393725,-0.20285396,1.5584946,0.93108475,0.04,0.039999694,-0.006308679155875296,-0.019411840625727095,0.043788711567338545,0.1168706191225385,-0.06323996113003619,-0.01936947018473058,0.894834889637615,0.4015001122105043,0.1937059396073864,-0.023370689827420913
1895.5166666652715,-0.5340628,-1.2919078,-0.25672114,-2.4395783,-0.20335779,1.558464,0.93144524,0.04,0.03999969,-0.006753767889744466,-0.019396237535107552,0.04421860026647684,0.1146783158393331,-0.062139258723382836,-0.01916846021063975,0.8943409030098892,0.4023744479940775,0.19416151798066694,-0.023461835826729206
1895.5333333319381,-0.5353606,-1.2931421,-0.25734487,-2.4397802,-0.20385206,1.5584335,0.9317985,0.04,0.039999697,-0.0066517114404529565,-0.01928230579456569,0.04354865698332766,0.11248895559265823,-0.06104153144886981,-0.018967415052078884,0.893855416593812,0.4032313255483098,0.19460812516375953,-0.023551431860981974
1895.5499999986048,-0.5366331,-1.2943523,-0.25795656,-2.4399781,-0.20433682,1.5584033,0.93214506,0.04,0.0399997,-0.006354693037380343,-0.01872518026135861,0.044169521917741816,0.11030328930110059,-0.05994638719601162,-0.01876495995256733,0.8933784561440776,0.40407086163954603,0.19504576709927055,-0.02363940794851964
1895.5666666652714,-0.5378805,-1.2955389,-0.25855616,-2.440172,-0.20481203,1.5583737,0.93248475,0.04,0.039999705,-0.005613613757438074,-0.01844457173953984,0.044013363975015096,0.10812190954750137,-0.05885416590109191,-0.01856216307385354,0.8929099829833402,0.40489307894376525,0.19547490781385055,-0.02372587885191572
1895.583333331938,-0.5391031,-1.2967018,-0.25914377,-2.4403617,-0.20527767,1.5583451,0.93281764,0.04,0.03999971,-0.005493462465722132,-0.017819735368596046,0.04397779178127448,0.10594421751272397,-0.0577626871212003,-0.018355532961942866,0.8924499553281948,0.40569820055195827,0.19589561573650077,-0.023810817684895746
1895.5999999986047,-0.5403005,-1.2978404,-0.25971943,-2.440548,-0.2057338,1.5583178,0.9331437,0.04,0.039999723,-0.006396605614789053,-0.017307408139555225,0.04505864992601083,0.1037701558189923,-0.05667041852733835,-0.018146844174688925,0.8919986000116823,0.40648605458219633,0.19630754839179854,-0.02389417192120619
1895.6166666652714,-0.54147315,-1.2989556,-0.26028314,-2.44073,-0.20618045,1.5582908,0.933463,0.04,0.039999716,-0.0053928143195047795,-0.017537419785385033,0.04346831647698002,0.1016025467842663,-0.05558104330089987,-0.0179362896032356,0.8915557872399,0.4072569662094357,0.19671094482231075,-0.02397594419501868
1895.633333331938,-0.5426207,-1.3000472,-0.26083487,-2.4409087,-0.20661761,1.5582641,0.9337755,0.04,0.039999727,-0.006304526699896229,-0.01745071398824294,0.04413582150193385,0.09944011584591654,-0.054494273584590754,-0.017725738232263456,0.8911217514651926,0.40801076558269606,0.1971054205301754,-0.024056026934070197
1895.6499999986047,-0.5437438,-1.3011152,-0.26137462,-2.4410832,-0.20704532,1.5582376,0.93408126,0.04,0.03999973,-0.005479767080895925,-0.016898639671580895,0.04345452525071902,0.0972850859791553,-0.05341164464173144,-0.01751353520304419,0.8906963529858992,0.408747823645297,0.1974911347175424,-0.0241345219722504
1895.6666666652714,-0.5448419,-1.3021598,-0.26190245,-2.4412544,-0.20746358,1.558211,0.9343804,0.04,0.039999735,-0.006504179455424364,-0.017043059983490316,0.04393128824929926,0.09513555877179822,-0.052334066710988676,-0.017302503180797915,0.8902797931502257,0.409467979195935,0.1978678326082158,-0.02421125235331081
1895.683333331938,-0.54591525,-1.3031808,-0.26241848,-2.441421,-0.20787247,1.5581855,0.93467265,0.04,0.03999974,-0.004015300143578315,-0.01582861752859044,0.043717279090654815,0.09299473027928487,-0.05126266522207895,-0.017092540179997808,0.889871873177417,0.4101713350917177,0.19823645116930502,-0.02428651116551375
