rsonawane2002/My_IMU/logs_2/traj_422/imu_422.csv
time,j1,j2,j3,j4,j5,j6,j7,gripper1,gripper2,imu_ax,imu_ay,imu_az,imu_gx,imu_gy,imu_gz
1890.5833333319426,0.00016700293,-0.785875,4.0107683e-05,-2.3551247,9.29385e-05,1.570997,0.786,0.04,0.04,-9.576267,0.005193009972572327,0.094954975,2.6457835e-07,-0.0011641274904832244,5.3495796e-07
1890.5999999986093,0.00016699656,-0.78576016,4.011004e-05,-2.3552213,9.297041e-05,1.5709941,0.786,0.04,0.04,-9.834324,0.0006259442307054996,0.00908796,6.711831e-07,-0.0022387627977877855,9.680188e-07
1890.616666665276,0.00016692623,-0.7856543,4.0080293e-05,-2.35531,9.29745e-05,1.5709913,0.786,0.04,0.04,-9.832607,0.0005067737656645477,0.0074949046,6.9750495e-06,-0.003231602953746915,1.2373167e-06
1890.6333333319426,0.00016668442,-0.78555703,3.996608e-05,-2.355391,9.290815e-05,1.5709884,0.786,0.04,0.04,-9.830711,0.00029934674967080355,0.0060944105,2.3803093e-05,-0.004151047207415104,1.2036926e-06
1890.6499999986092,0.0001661155,-0.7854678,3.9692062e-05,-2.3554652,9.2711554e-05,1.5709856,0.786,0.04,0.04,-9.829271,1.0440708138048649e-06,0.004676169,5.541193e-05,-0.005003190599381924,7.555193e-07
1890.666666665276,0.00016502038,-0.7853863,3.916215e-05,-2.3555322,9.2309616e-05,1.5709827,0.786,0.04,0.04,-9.827716,-0.0003700304077938199,0.0034241043,0.00010651094,-0.005796041805297136,-2.1130363e-07
1890.6833333319425,0.00016316122,-0.7853122,3.8261795e-05,-2.355597,9.161132e-05,1.5709798,0.786,0.04,0.04,-9.826466,-0.0008306321687996387,0.0021525002,0.00018036818,-0.006533500272780657,-1.7860145e-06
1890.6999999986092,0.00016026509,-0.7852451,3.685973e-05,-2.3556552,9.051369e-05,1.570977,0.786,0.04,0.04,-9.825689,-0.0013352411333471537,0.0010235608,0.0002810348,-0.007241596467792988,-4.0379723e-06
1890.7166666652759,0.00015602817,-0.785185,3.48098e-05,-2.3557084,8.8900495e-05,1.5709763,0.7860019,0.04,0.04,-9.824621,-0.0019256083760410547,-0.00014722673,0.00041144757,-0.007903794758021832,-7.047083e-06
1890.7333333319425,0.00015011895,-0.78513163,3.1952706e-05,-2.3557587,8.6634325e-05,1.570976,0.7860038,0.039999995,0.04,-9.823572,-0.002533965976908803,-0.0012125964,0.00056578,-0.008521487936377525,-1.1664457e-05
1890.7499999986092,0.0001421812,-0.7850849,2.8117476e-05,-2.3558042,8.358462e-05,1.5709747,0.78600574,0.039999988,0.039999988,-9.823039,-0.003223648527637124,-0.0022470793,0.00075551635,-0.009112924337387085,-1.5389009e-05
1890.7666666652758,0.00013183737,-0.7850447,2.3122693e-05,-2.3558471,7.961226e-05,1.5709745,0.78600925,0.039999984,0.03999998,-9.822208,-0.003905922407284379,-0.003117949,0.0009834059,-0.00968147162348032,-2.0019994e-05
1890.7833333319425,0.00011869083,-0.78501123,1.6777793e-05,-2.355889,7.456514e-05,1.5709722,0.78601307,0.03999998,0.039999977,-9.821808,-0.004695475101470947,-0.004075628,0.0012434972,-0.010228787548840046,-2.6430625e-05
1890.799999998609,0.000102328384,-0.7849846,8.8844035e-06,-2.3559253,6.828677e-05,1.570972,0.7860169,0.039999973,0.039999966,-9.821552,-0.005427922122180462,-0.0048213564,0.0015447313,-0.010778037831187248,-3.2939883e-05
1890.8166666652758,8.2322884e-05,-0.7849648,-7.624011e-07,-2.3559606,6.061408e-05,1.5709691,0.7860226,0.03999997,0.03999996,-9.820763,-0.006290878169238567,-0.0056854365,0.0018898505,-0.011290629394352436,-4.132944e-05
1890.8333333319424,5.8234746e-05,-0.78495187,-1.23737245e-05,-2.355995,5.1379793e-05,1.5709689,0.7860292,0.03999997,0.03999996,-9.820586,-0.007074407301843166,-0.0062859342,0.0022715593,-0.011811635456979275,-5.071418e-05
1890.849999998609,2.961419e-05,-0.7849462,-2.6165448e-05,-2.356027,4.0413455e-05,1.570966,0.78603685,0.039999973,0.03999996,-9.820404,-0.007915183901786804,-0.007013626,0.0026963914,-0.012319271452724934,-6.0288054e-05
1890.8666666652757,-3.9969937e-06,-0.78494793,-4.2357602e-05,-2.3560565,2.7539694e-05,1.5709639,0.7860464,0.039999977,0.039999966,-9.820218,-0.008862286806106567,-0.0075955046,0.00316502,-0.012830691412091255,-7.1762486e-05
1890.8833333319424,-4.3064265e-05,-0.7849573,-6.117364e-05,-2.3560843,1.2582033e-05,1.570961,0.7860574,0.039999977,0.039999966,-9.819837,-0.009672807529568672,-0.008099773,0.003674394,-0.01333216018974781,-8.431191e-05
1890.899999998609,-8.8058376e-05,-0.7849745,-8.283945e-05,-2.356112,-4.6379637e-06,1.5709587,0.7860697,0.039999977,0.03999996,-9.819745,-0.010649091564118862,-0.008585583,0.0042276946,-0.01383474562317133,-9.708051e-05
1890.9166666652757,-0.00013945434,-0.7849997,-0.00010758307,-2.3561397,-2.4301746e-05,1.5709559,0.78608364,0.039999977,0.03999996,-9.819659,-0.01146900374442339,-0.008942718,0.0048268503,-0.014338700100779533,-0.000111803856
1890.9333333319423,-0.00019773019,-0.7850335,-0.0001356341,-2.3561668,-4.659051e-05,1.570953,0.7860995,0.03999998,0.03999996,-9.819813,-0.012471677735447884,-0.009324802,0.0054710307,-0.01485308539122343,-0.0001267574
1890.949999998609,-0.00026336565,-0.7850758,-0.00016722274,-2.356194,-7.168773e-05,1.5709502,0.78611743,0.03999998,0.03999996,-9.8196945,-0.013302097097039223,-0.009508861,0.0061598225,-0.015370281413197517,-0.00014376045
1890.9666666652756,-0.00033684162,-0.7851272,-0.00020257992,-2.3562212,-9.977355e-05,1.5709473,0.7861376,0.039999984,0.03999996,-9.819871,-0.014324174262583256,-0.009770381,0.006892911,-0.015897033736109734,-0.0001608327
1890.9833333319423,-0.00041863814,-0.7851881,-0.0002419361,-2.3562484,-0.00013103486,1.5709444,0.78616,0.039999984,0.039999966,-9.81981,-0.01516244001686573,-0.009807429,0.007670438,-0.016429446637630463,-0.0001818331
1890.999999998609,-0.0005092354,-0.7852587,-0.00028552196,-2.3562756,-0.00016564973,1.5709416,0.7861847,0.039999988,0.03999997,-9.819947,-0.01619575545191765,-0.009888398,0.008492442,-0.01696944423019886,-0.00020205017
1891.0166666652756,-0.0006091111,-0.7853394,-0.0003335667,-2.3563027,-0.00020380136,1.5709387,0.7862121,0.03999999,0.03999997,-9.81995,-0.017003851011395454,-0.009756615,0.009359404,-0.017518114298582077,-0.00022338559
1891.0333333319422,-0.0007187404,-0.7854305,-0.0003862988,-2.3563304,-0.00024567128,1.5709358,0.78624195,0.03999999,0.03999998,-9.820036,-0.018078433349728584,-0.00965483,0.010270265,-0.01807236671447754,-0.00024840483
1891.0499999986089,-0.00083859585,-0.7855323,-0.00044394482,-2.3563583,-0.00029143534,1.570933,0.7862748,0.03999999,0.039999995,-9.820078,-0.018855703994631767,-0.009337953,0.011225615,-0.018636783584952354,-0.0002735345
1891.0666666652755,-0.0009691462,-0.78564525,-0.0005067301,-2.3563874,-0.00034127943,1.5709301,0.7863103,0.039999995,0.039999984,-9.820253,-0.01991199515759945,-0.009063026,0.012223898,-0.01921132020652294,-0.00029651364
1891.0833333319422,-0.0011108556,-0.78576964,-0.0005748775,-2.3564174,-0.00039537376,1.5709271,0.7863491,0.039999995,0.03999997,-9.82036,-0.020669681951403618,-0.008533736,0.0132663725,-0.0197976715862751,-0.00031890665
1891.0999999986088,-0.0012641844,-0.78590584,-0.0006486079,-2.3564498,-0.00045389184,1.5709242,0.78639096,0.039999988,0.039999943,-9.820514,-0.02156379260122776,-0.007985475,0.014350399,-0.020395509898662567,-0.00034049325
1891.1166666652755,-0.0014295856,-0.7860542,-0.0007281395,-2.3564842,-0.0005170099,1.5709212,0.786436,0.03999998,0.03999993,-9.820911,-0.022658132016658783,-0.007415931,0.0154772345,-0.021010871976614,-0.00036669258
1891.1333333319421,-0.0016075096,-0.7862152,-0.00081368827,-2.356519,-0.000584897,1.570918,0.7864845,0.03999998,0.039999925,-9.821122,-0.023389698937535286,-0.006594099,0.01664615,-0.021642794832587242,-0.00039393784
1891.1499999986088,-0.0017983991,-0.7863892,-0.0009054666,-2.3565545,-0.0006577235,1.5709147,0.78653646,0.03999998,0.03999992,-9.821251,-0.024462509900331497,-0.005811353,0.017856458,-0.022282760590314865,-0.00042315116
1891.1666666652754,-0.0020026902,-0.78657645,-0.0010036846,-2.356591,-0.00073565595,1.5709112,0.78659207,0.039999984,0.039999925,-9.821289,-0.02518186718225479,-0.0047360435,0.01910713,-0.02293291687965393,-0.0004551797
1891.183333331942,-0.0022208134,-0.7867773,-0.001108549,-2.3566306,-0.00081885606,1.570907,0.7866515,0.039999988,0.039999925,-9.821441,-0.026236562058329582,-0.0037275683,0.020398192,-0.023592593148350716,-0.00048664561
1891.1999999986087,-0.002453193,-0.78699225,-0.0012202633,-2.3566728,-0.00090748677,1.5709003,0.7867148,0.039999995,0.03999994,-9.821796,-0.026933971792459488,-0.0024122763,0.02172821,-0.024275638163089752,-0.00052253244
1891.2166666652754,-0.0027002448,-0.7872215,-0.0013390273,-2.3567162,-0.0010017044,1.5708936,0.78678215,0.039999995,0.03999994,-9.822203,-0.027977190911769867,-0.0011333963,0.023096684,-0.024984974414110184,-0.00055683684
1891.233333331942,-0.0029623779,-0.7874655,-0.0014650378,-2.35676,-0.0011016645,1.570887,0.7868536,0.04,0.039999947,-9.822252,-0.02862444333732128,0.00038412958,0.02450302,-0.025705095380544662,-0.00059207634
1891.2499999986087,-0.0032399935,-0.7877246,-0.0015984875,-2.3568072,-0.0012075208,1.5708803,0.7869293,0.04,0.03999994,-9.822307,-0.029664603993296623,0.0018397439,0.025946647,-0.026428982615470886,-0.00062624115
1891.2666666652754,-0.003533486,-0.7879991,-0.0017395663,-2.3568575,-0.0013194232,1.5708735,0.7870093,0.04,0.039999932,-9.822595,-0.030303411185741425,0.0036393655,0.027426708,-0.02717198245227337,-0.00066508347
1891.283333331942,-0.0038432414,-0.7882894,-0.001888459,-2.3569086,-0.001437513,1.5708667,0.7870938,0.039999988,0.039999902,-9.823022,-0.03129212558269501,0.005342909,0.028942877,-0.0279321800917387,-0.0006956333
1891.2999999986087,-0.0041696373,-0.7885957,-0.0020453471,-2.3569613,-0.001561941,1.5708597,0.78718275,0.039999995,0.039999902,-9.822896,-0.03191492706537247,0.0074204123,0.03049327,-0.02869628556072712,-0.00073405827
1891.3166666652753,-0.004513044,-0.78891844,-0.002210409,-2.357019,-0.0016928458,1.5708526,0.78727627,0.039999995,0.039999895,-9.823126,-0.03294222801923752,0.00940087,0.03207886,-0.0294719897210598,-0.0007728155
1891.333333331942,-0.004873824,-0.789258,-0.002383819,-2.3570776,-0.0018303647,1.570845,0.78737456,0.04,0.039999895,-9.8235035,-0.03349412977695465,0.011760004,0.033698004,-0.030268594622612,-0.00081241824
1891.3499999986086,-0.005252332,-0.7896147,-0.0025657474,-2.3571374,-0.0019746348,1.5708368,0.7874777,0.04,0.0399999,-9.823541,-0.034274667501449585,0.014156826,0.035349634,-0.031073957681655884,-0.00085379457
1891.3666666652753,-0.005648911,-0.7899887,-0.0027563586,-2.3572028,-0.0021257824,1.5708263,0.78758574,0.04,0.039999884,-9.823627,-0.035281501710414886,0.01659043,0.0370332,-0.031885597854852676,-0.00089541165
1891.383333331942,-0.0060638986,-0.7903804,-0.0029558162,-2.3572693,-0.0022839392,1.5708158,0.7876988,0.04,0.039999876,-9.82415,-0.03578897938132286,0.019421974,0.038747918,-0.0327327735722065,-0.0009382988
1891.3999999986086,-0.006497622,-0.79078984,-0.0031642776,-2.3573375,-0.0024492291,1.5708053,0.7878169,0.04,0.039999872,-9.824178,-0.03678508102893829,0.022098517,0.04049308,-0.033581800758838654,-0.0009824205
1891.4166666652752,-0.006950404,-0.7912177,-0.0033818958,-2.3574111,-0.0026217736,1.5707947,0.7879402,0.04,0.03999986,-9.824144,-0.03725339472293854,0.025159169,0.04226799,-0.03443813696503639,-0.0010271285
1891.4333333319419,-0.0074225534,-0.791664,-0.003608821,-2.3574855,-0.00280169,1.5707841,0.78806883,0.039999995,0.039999854,-9.824741,-0.03823402151465416,0.028174516,0.0440714,-0.03531670570373535,-0.0010733389
1891.4499999986085,-0.007914376,-0.79212916,-0.0038451985,-2.357564,-0.0029890945,1.5707732,0.78820276,0.039999995,0.03999985,-9.824505,-0.038677677512168884,0.03155654,0.04590266,-0.03619490563869476,-0.0011212244
1891.4666666652752,-0.008426163,-0.79261345,-0.0040911697,-2.3576455,-0.0031840988,1.570762,0.7883422,0.039999995,0.039999846,-9.824914,-0.03963378071784973,0.03487243,0.047761414,-0.03708871826529503,-0.0011691708
1891.4833333319418,-0.008958198,-0.7931171,-0.004346873,-2.3577287,-0.003386813,1.5707504,0.788487,0.04,0.039999843,-9.824939,-0.040039483457803726,0.038600463,0.04964618,-0.03799320384860039,-0.0012179712
1891.4999999986085,-0.009510762,-0.79364014,-0.004612442,-2.3578176,-0.0035973429,1.5707368,0.7886375,0.04,0.03999984,-9.824985,-0.0409826785326004,0.04224223,0.051556773,-0.038900841027498245,-0.0012683348
1891.5166666652751,-0.010084127,-0.79418314,-0.0048880046,-2.3579075,-0.0038157876,1.5707225,0.7887937,0.04,0.039999828,-9.825422,-0.04134313017129898,0.046313144,0.053491686,-0.03984018787741661,-0.0013184804
1891.5333333319418,-0.0106785465,-0.79474634,-0.0051736836,-2.3580008,-0.0040422473,1.570708,0.78895557,0.039999995,0.03999982,-9.825377,-0.04227275773882866,0.05026509,0.055450775,-0.04077964276075363,-0.0013707365
1891.5499999986084,-0.011294275,-0.7953297,-0.005469603,-2.358098,-0.0042768177,1.5706936,0.78912324,0.039999995,0.039999817,-9.825338,-0.042606011033058167,0.054654203,0.05743252,-0.04172642529010773,-0.0014238042
1891.566666665275,-0.011931553,-0.7959338,-0.0057758773,-2.358197,-0.0045195934,1.5706791,0.7892968,0.03999999,0.039999805,-9.825696,-0.043502241373062134,0.058914326,0.059436854,-0.042686376720666885,-0.0014779194
1891.5833333319417,-0.012590615,-0.796558,-0.006092621,-2.3583016,-0.004770659,1.5706643,0.7894762,0.03999999,0.0399998,-9.825409,-0.04379983991384506,0.06364508,0.061462555,-0.04364375025033951,-0.0015326531
1891.5999999986084,-0.013271685,-0.79720366,-0.006419942,-2.358408,-0.0050301035,1.570649,0.7896617,0.04,0.0399998,-9.825842,-0.04437962919473648,0.068378605,0.06350891,-0.04462267458438873,-0.0015885856
1891.616666665275,-0.0139749795,-0.79787046,-0.006757945,-2.3585203,-0.0052980073,1.570633,0.78985316,0.04,0.039999794,-9.825811,-0.0452350378036499,0.07320518,0.065575026,-0.0456012487411499,-0.0016450202
1891.6333333319417,-0.014700711,-0.7985586,-0.0071067302,-2.3586338,-0.0055744527,1.5706152,0.7900508,0.039999995,0.039999783,-9.82607,-0.045477792620658875,0.078467175,0.06766044,-0.04660005867481232,-0.0017025459
1891.6499999986083,-0.015449077,-0.79926836,-0.007466392,-2.3587508,-0.0058595138,1.570597,0.79025453,0.039999995,0.03999978,-9.825953,-0.04631078243255615,0.083636515,0.0697636,-0.047601282596588135,-0.0017616199
1891.666666665275,-0.016220272,-0.7999997,-0.007837024,-2.358872,-0.0061532645,1.5705788,0.7904645,0.04,0.03999978,-9.825917,-0.046511344611644745,0.08923941,0.07188456,-0.04861043021082878,-0.0018210061
1891.6833333319416,-0.017014476,-0.80075276,-0.008218715,-2.3589947,-0.0064557744,1.5705605,0.7906807,0.039999995,0.03999977,-9.826091,-0.04731858894228935,0.09471785,0.074022,-0.0496259368956089,-0.0018813299
1891.6999999986083,-0.017831862,-0.8015281,-0.008611549,-2.359123,-0.006767111,1.5705419,0.79090315,0.03999999,0.039999757,-9.825788,-0.04748629406094551,0.10067961,0.07617545,-0.0506398007273674,-0.0019435721
1891.716666665275,-0.0186726,-0.80232567,-0.009015603,-2.3592532,-0.007087334,1.5705228,0.7911321,0.04,0.039999764,-9.826129,-0.048252809792757034,0.10656013,0.07834415,-0.05166666954755783,-0.0020058877
1891.7333333319416,-0.019536851,-0.8031455,-0.009430956,-2.359389,-0.007416506,1.570503,0.7913673,0.04,0.03999976,-9.825755,-0.04837144538760185,0.11291225,0.08052658,-0.05269010737538338,-0.0020687026
1891.7499999986082,-0.020424765,-0.8039879,-0.009857678,-2.3595266,-0.007754684,1.5704818,0.7916092,0.04,0.039999757,-9.82615,-0.049116142094135284,0.119150974,0.082723,-0.053730402141809464,-0.0021343573
1891.766666665275,-0.021336475,-0.80485296,-0.010295844,-2.35967,-0.008101921,1.5704597,0.7918575,0.04,0.039999746,-9.825745,-0.04919230937957764,0.12588084,0.08493076,-0.0547708198428154,-0.0021998435
1891.7833333319415,-0.022272123,-0.8057407,-0.010745511,-2.3598154,-0.008458271,1.5704377,0.79211223,0.03999999,0.03999973,-9.8260765,-0.049900803714990616,0.13249011,0.08715144,-0.05582588165998459,-0.002266824
1891.7999999986082,-0.02323183,-0.80665123,-0.011206743,-2.3599663,-0.008823773,1.5704153,0.7923735,0.03999999,0.039999723,-9.8257,-0.04992953687906265,0.13955429,0.08938287,-0.05687717720866203,-0.002334395
1891.8166666652749,-0.024215719,-0.80758476,-0.011679595,-2.3601193,-0.009198487,1.5703926,0.79264134,0.04,0.039999735,-9.825966,-0.05059806630015373,0.14651409,0.091625445,-0.05793952941894531,-0.0024030856
1891.8333333319415,-0.025223901,-0.80854154,-0.012164122,-2.3602781,-0.009582445,1.5703696,0.7929158,0.04,0.039999716,-9.825519,-0.05057898163795471,0.15396413,0.09387719,-0.05899630859494209,-0.0024720898
1891.8499999986082,-0.026256474,-0.80952126,-0.0126603665,-2.3604388,-0.009975684,1.5703458,0.79319686,0.04,0.03999972,-9.825673,-0.05087628960609436,0.16148509,0.09613792,-0.060065433382987976,-0.0025428687
1891.8666666652748,-0.027313527,-0.8105242,-0.0131683815,-2.3606055,-0.010378246,1.5703206,0.7934846,0.04,0.03999971,-9.825412,-0.05147000774741173,0.16899383,0.09840692,-0.06112926825881004,-0.0026143438
1891.8833333319415,-0.028395148,-0.81155074,-0.013688208,-2.3607738,-0.010790161,1.5702947,0.79377913,0.04,0.0399997,-9.825501,-0.05139350891113281,0.17704408,0.1006832,-0.062211375683546066,-0.0026864007
1891.899999998608,-0.02950142,-0.81260055,-0.014219883,-2.3609474,-0.011211463,1.5702686,0.79408026,0.04,0.0399997,-9.825137,-0.05194276198744774,0.18496259,0.102965966,-0.06328477710485458,-0.002759656
1891.9166666652748,-0.030632418,-0.81367385,-0.014763438,-2.3611236,-0.011642171,1.5702424,0.7943881,0.04,0.039999694,-9.825044,-0.05179768428206444,0.19335784,0.10525518,-0.06436605006456375,-0.0028321869
1891.9333333319414,-0.031788196,-0.81477064,-0.015318906,-2.3613043,-0.012082314,1.5702157,0.7947027,0.04,0.03999969,-9.824802,-0.05232575908303261,0.20163424,0.10754933,-0.06544136255979538,-0.0029100843
1891.949999998608,-0.032968827,-0.815891,-0.01588631,-2.361488,-0.012531913,1.5701886,0.79502404,0.04,0.039999686,-9.824554,-0.05212082341313362,0.21043064,0.10984792,-0.06652151048183441,-0.002987213
1891.9666666652747,-0.034174338,-0.817035,-0.016465679,-2.3616767,-0.012990983,1.5701605,0.79535216,0.04,0.03999968,-9.824357,-0.052572738379240036,0.219109,0.11215059,-0.06759777665138245,-0.0030653728
1891.9833333319414,-0.03540479,-0.81820273,-0.017057031,-2.3618681,-0.013459544,1.5701312,0.795687,0.04,0.03999967,-9.824113,-0.052310869097709656,0.22829328,0.114456095,-0.06868153065443039,-0.003141379
1891.999999998608,-0.036660194,-0.8193942,-0.017660383,-2.3620648,-0.01393761,1.5701014,0.7960287,0.04,0.039999668,-9.823837,-0.05272373557090759,0.23737209,0.11676404,-0.06976361572742462,-0.003223168
1892.0166666652747,-0.0379406,-0.8206093,-0.018275747,-2.362264,-0.014425186,1.5700713,0.7963771,0.04,0.039999656,-9.823616,-0.05241691693663597,0.24693461,0.11907395,-0.07085170596837997,-0.003304094
1892.0333333319413,-0.03924601,-0.8218481,-0.01890313,-2.3624685,-0.014922284,1.570041,0.79673237,0.04,0.039999656,-9.823226,-0.05273019149899483,0.25634766,0.12138458,-0.07193105667829514,-0.0033843848
1892.049999998608,-0.040576443,-0.82311064,-0.019542536,-2.362676,-0.015428906,1.5700103,0.7970947,0.04,0.039999656,-9.822992,-0.052385736256837845,0.26629966,0.12369575,-0.07301721721887589,-0.0034667572
1892.0666666652746,-0.0419319,-0.8243971,-0.02019397,-2.362888,-0.015945055,1.569979,0.7974638,0.04,0.039999656,-9.822653,-0.05264494940638542,0.2761118,0.12600504,-0.07409725338220596,-0.0035504038
1892.0833333319413,-0.043312382,-0.8257073,-0.020857433,-2.3631036,-0.016470725,1.5699465,0.7978395,0.04,0.03999964,-9.822239,-0.05223077908158302,0.28645945,0.12831384,-0.07517864555120468,-0.0036371015
1892.099999998608,-0.04471789,-0.82704115,-0.02153292,-2.3633237,-0.017005922,1.5699131,0.7982222,0.04,0.03999963,-9.821796,-0.052070457488298416,0.29683462,0.1306212,-0.07625919580459595,-0.0037213704
1892.1166666652746,-0.04614838,-0.8283992,-0.022220422,-2.363547,-0.017550634,1.5698794,0.7986116,0.04,0.039999627,-9.821614,-0.05224691703915596,0.30723166,0.13292591,-0.07734327018260956,-0.0038078378
1892.1333333319412,-0.047603857,-0.8297809,-0.022919929,-2.3637748,-0.018104857,1.5698454,0.7990077,0.04,0.039999623,-9.820922,-0.05172836780548096,0.3181505,0.13522768,-0.07841914892196655,-0.0038975307
1892.1499999986079,-0.049084265,-0.83118594,-0.02363143,-2.364006,-0.018668571,1.5698111,0.7994106,0.04,0.039999627,-9.820671,-0.0517946295440197,0.32891428,0.1375261,-0.07949437946081161,-0.003985098
1892.1666666652745,-0.050589588,-0.8326145,-0.0243549,-2.3642411,-0.019241765,1.5697764,0.7998202,0.04,0.039999615,-9.820016,-0.05119577422738075,0.34017572,0.13982019,-0.0805654525756836,-0.004074914
1892.1833333319412,-0.052119765,-0.83406675,-0.025090326,-2.36448,-0.019824432,1.5697408,0.8002367,0.04,0.039999615,-9.819658,-0.05120864883065224,0.35130906,0.14210969,-0.08163398504257202,-0.0041656815
1892.1999999986078,-0.053674772,-0.83554274,-0.025837673,-2.364723,-0.020416547,1.5697042,0.80065995,0.04,0.039999608,-9.81896,-0.05052705854177475,0.36298612,0.14439282,-0.08269897103309631,-0.004258415
1892.2166666652745,-0.055254545,-0.83704215,-0.026596924,-2.3649695,-0.02101809,1.5696667,0.8010898,0.04,0.0399996,-9.81857,-0.05046269670128822,0.37453142,0.14666966,-0.08376341313123703,-0.0043529696
1892.2333333319411,-0.056859013,-0.8385649,-0.027368054,-2.3652198,-0.021629028,1.569629,0.8015265,0.04,0.03999959,-9.817831,-0.04968678206205368,0.3865651,0.14894024,-0.08482389152050018,-0.0044457586
1892.2499999986078,-0.0584881,-0.8401111,-0.028151019,-2.3654742,-0.022249345,1.5695909,0.80196995,0.04,0.039999586,-9.817356,-0.04952855408191681,0.3984573,0.15120292,-0.08588062226772308,-0.0045406423
1892.2666666652744,-0.060141753,-0.84168094,-0.028945789,-2.3657322,-0.022879006,1.5695527,0.80242,0.04,0.039999593,-9.816603,-0.048685770481824875,0.4108558,0.1534574,-0.08693194389343262,-0.0046365918
1892.283333331941,-0.06181988,-0.8432738,-0.029752316,-2.3659942,-0.023517987,1.5695137,0.8028768,0.04,0.039999593,-9.81597,-0.04842642322182655,0.4231558,0.15570295,-0.08797430247068405,-0.004733706
1892.2999999986077,-0.06352239,-0.84488976,-0.030570563,-2.3662598,-0.024166252,1.5694739,0.80334014,0.04,0.039999582,-9.81524,-0.04751060903072357,0.43591887,0.15793948,-0.08901539444923401,-0.0048334375
1892.3166666652744,-0.06524919,-0.8465287,-0.031400483,-2.3665295,-0.02482376,1.5694333,0.8038101,0.04,0.039999574,-9.814602,-0.04715193063020706,0.4485575,0.16016598,-0.0900515764951706,-0.004932423
1892.333333331941,-0.067000195,-0.84819067,-0.032242034,-2.3668027,-0.025490476,1.569392,0.80428666,0.04,0.03999957,-9.813778,-0.04611819609999657,0.4616933,0.16238213,-0.09108491241931915,-0.00503145
1892.3499999986077,-0.068775296,-0.84987545,-0.03309517,-2.3670797,-0.026166372,1.5693504,0.8047698,0.04,0.039999567,-9.812975,-0.04538053646683693,0.47485483,0.1645872,-0.0921131819486618,-0.0051347055
1892.3666666652744,-0.07057435,-0.85158306,-0.033959825,-2.3673604,-0.026851391,1.5693084,0.8052594,0.04,0.039999556,-9.812276,-0.04485143721103668,0.48802522,0.16678004,-0.09313463419675827,-0.0052350126
1892.383333331941,-0.07239728,-0.85331345,-0.034835953,-2.367645,-0.027545491,1.569266,0.80575556,0.04,0.039999556,-9.811305,-0.04370546713471413,0.50169647,0.16896161,-0.0941481813788414,-0.0053401827
1892.3999999986077,-0.07424392,-0.8550663,-0.035723485,-2.3679328,-0.028248629,1.569223,0.80625814,0.04,0.039999556,-9.81056,-0.04307198151946068,0.5152495,0.17112976,-0.09515604376792908,-0.005442016
1892.4166666652743,-0.07611416,-0.85684156,-0.036622368,-2.3682244,-0.02896075,1.5691794,0.8067672,0.04,0.039999556,-9.80945,-0.041821397840976715,0.52926177,0.17328493,-0.09615438431501389,-0.0055491067
1892.433333331941,-0.07800791,-0.85863924,-0.037532523,-2.3685198,-0.029681811,1.569135,0.8072827,0.04,0.039999567,-9.808658,-0.04109596461057663,0.543168,0.17542574,-0.09714819490909576,-0.0056556347
1892.4499999986076,-0.07992496,-0.8604589,-0.03845389,-2.3688188,-0.030411752,1.5690897,0.8078045,0.04,0.039999563,-9.807592,-0.039716046303510666,0.5575501,0.1775523,-0.09813631325960159,-0.005763076
1892.4666666652743,-0.08186522,-0.86230075,-0.039386395,-2.3691216,-0.031150524,1.5690439,0.8083326,0.04,0.039999567,-9.806704,-0.03886983171105385,0.5717844,0.17966385,-0.09911926835775375,-0.0058697285
1892.483333331941,-0.08382849,-0.86416435,-0.04032998,-2.369428,-0.031898066,1.568998,0.808867,0.04,0.039999556,-9.805563,-0.03740597516298294,0.58649826,0.18176,-0.10009489953517914,-0.0059798877
1892.4999999986076,-0.085814625,-0.8660497,-0.04128456,-2.3697376,-0.032654315,1.5689517,0.80940753,0.04,0.039999567,-9.8045845,-0.03642634302377701,0.60105044,0.18384025,-0.10106151551008224,-0.006088434
1892.5166666652742,-0.0878235,-0.86795664,-0.042250063,-2.3700504,-0.03341922,1.568905,0.8099543,0.04,0.039999567,-9.803353,-0.03485046327114105,0.6160811,0.18590444,-0.10201876610517502,-0.006200437
1892.5333333319409,-0.0898549,-0.869885,-0.04322641,-2.3703673,-0.034192696,1.5688577,0.8105072,0.04,0.039999563,-9.80223,-0.033748459070920944,0.6310081,0.1879513,-0.10296565294265747,-0.006312517
1892.5499999986075,-0.091908686,-0.87183464,-0.0442135,-2.3706875,-0.0349747,1.5688096,0.81106615,0.04,0.039999556,-9.80099,-0.03202103078365326,0.64637893,0.18998067,-0.10390622913837433,-0.006423329
1892.5666666652742,-0.09398467,-0.8738054,-0.045211267,-2.3710113,-0.03576516,1.5687608,0.81163114,0.04,0.039999552,-9.799883,-0.030829710885882378,0.66162026,0.19199227,-0.10483983904123306,-0.0065385727
1892.5833333319408,-0.096082695,-0.8757969,-0.046219606,-2.3713386,-0.036563996,1.5687112,0.8122021,0.04,0.039999545,-9.798512,-0.028978809714317322,0.6773198,0.19398543,-0.10576573759317398,-0.006652832
1892.5999999986075,-0.098202534,-0.8778092,-0.04723844,-2.3716688,-0.03737112,1.5686615,0.81277907,0.04,0.039999537,-9.7972765,-0.027349628508090973,0.69300777,0.19595966,-0.10668625682592392,-0.0067669447
1892.6166666652741,-0.100344,-0.87984204,-0.048267674,-2.372003,-0.038186513,1.5686115,0.813362,0.04,0.039999526,-9.7959,-0.025935031473636627,0.7087188,0.19791435,-0.10759157687425613,-0.006883421
1892.6333333319408,-0.10250688,-0.8818952,-0.04930722,-2.3723404,-0.039010055,1.5685612,0.81395066,0.04,0.039999533,-9.79457,-0.023915180936455727,0.7248552,0.19984877,-0.10849186033010483,-0.007000567
1892.6499999986074,-0.10469103,-0.8839687,-0.05035698,-2.3726811,-0.039841697,1.5685103,0.81454515,0.04,0.039999533,-9.79316,-0.022348623722791672,0.7408829,0.20176353,-0.10937969386577606,-0.007117779
1892.666666665274,-0.10689622,-0.88606215,-0.051416833,-2.3730252,-0.040681347,1.5684588,0.81514543,0.04,0.039999533,-9.791629,-0.020185686647892,0.75733954,0.20365682,-0.11025886982679367,-0.007236075
1892.6833333319407,-0.10912222,-0.8881755,-0.052486688,-2.373372,-0.04152893,1.5684066,0.8157513,0.04,0.03999953,-9.79025,-0.018477912992239,0.77367675,0.20552897,-0.11112987995147705,-0.0073550604
1892.6999999986074,-0.111368835,-0.8903084,-0.05356646,-2.3737226,-0.042384353,1.5683539,0.81636286,0.04,0.03999952,-9.788542,-0.01618427410721779,0.79042953,0.20737982,-0.11198917031288147,-0.007474293
1892.716666665274,-0.11363583,-0.89246076,-0.054656036,-2.3740761,-0.043247536,1.5683005,0.81697994,0.04,0.03999952,-9.7870865,-0.014318335801362991,0.8070506,0.20920806,-0.11283987760543823,-0.007594118
1892.7333333319407,-0.115922995,-0.89463216,-0.055755295,-2.374433,-0.044118393,1.568247,0.81760246,0.04,0.039999515,-9.78535,-0.01188880205154419,0.82408273,0.21101414,-0.11368066072463989,-0.007715137
1892.7499999986073,-0.11823008,-0.89682245,-0.05686414,-2.374793,-0.04499684,1.5681932,0.8182304,0.04,0.03999951,-9.78383,-0.009877678006887436,0.84097046,0.21279745,-0.11451256275177002,-0.007836759
1892.766666665274,-0.12055687,-0.8990315,-0.05798245,-2.375156,-0.045882795,1.5681391,0.8188638,0.04,0.039999504,-9.7820015,-0.007300920784473419,0.8582515,0.21455754,-0.11533176153898239,-0.007958058
1892.7833333319406,-0.12290313,-0.90125906,-0.059110112,-2.3755217,-0.046776157,1.5680844,0.8195025,0.04,0.039999504,-9.780291,-0.005126213654875755,0.8754403,0.21629322,-0.11613908410072327,-0.008080918
1892.7999999986073,-0.1252686,-0.9035047,-0.060247023,-2.3758907,-0.047676846,1.568029,0.8201464,0.04,0.039999507,-9.778382,-0.0024094656109809875,0.89300644,0.21800496,-0.11693477630615234,-0.008204457
1892.816666665274,-0.12765303,-0.90576863,-0.061393045,-2.3762627,-0.048584744,1.5679733,0.8207954,0.04,0.039999496,-9.776692,-6.985291838645935e-05,0.91044843,0.21969238,-0.11772384494543076,-0.008327704
1892.8333333319406,-0.1300562,-0.9080504,-0.06254807,-2.3766377,-0.04949978,1.567917,0.8214495,0.04,0.0399995,-9.774667,0.0027955491095781326,0.92827654,0.22135498,-0.1184992641210556,-0.008451518
1892.8499999986072,-0.13247785,-0.91034967,-0.06371198,-2.3770154,-0.050421864,1.5678601,0.8221087,0.04,0.039999496,-9.772788,0.005518944934010506,0.94611067,0.22299245,-0.11926575750112534,-0.008576256
1892.866666665274,-0.13491772,-0.91266626,-0.06488466,-2.3773959,-0.051350884,1.5678028,0.8227728,0.04,0.03999949,-9.770821,0.008110780268907547,0.96393144,0.22460411,-0.12001990526914597,-0.008701251
1892.8833333319405,-0.13737552,-0.9149997,-0.06606596,-2.3777792,-0.052286744,1.5677453,0.8234418,0.04,0.03999948,-9.768741,0.011211622506380081,0.9821196,0.22618988,-0.1207638680934906,-0.008826647
1892.8999999986072,-0.13985103,-0.9173502,-0.06725575,-2.378165,-0.053229332,1.5676876,0.82411563,0.04,0.039999478,-9.766711,0.013964202255010605,1.0001645,0.22774959,-0.12149421125650406,-0.0089516565
1892.9166666652739,-0.142344,-0.91971713,-0.06845392,-2.3785539,-0.054178562,1.5676295,0.82479423,0.04,0.039999474,-9.764484,0.01722060889005661,1.0185934,0.22928216,-0.12221125513315201,-0.009077983
1892.9333333319405,-0.14485408,-0.92210037,-0.06966031,-2.3789454,-0.05513433,1.5675709,0.8254775,0.04,0.039999474,-9.76241,0.020155349746346474,1.036895,0.23078762,-0.12291799485683441,-0.009204142
1892.9499999986072,-0.14738107,-0.9244995,-0.07087484,-2.379339,-0.056096524,1.5675118,0.8261653,0.04,0.039999466,-9.760147,0.023559335619211197,1.0555266,0.23226638,-0.12361345440149307,-0.009330432
1892.9666666652738,-0.14992468,-0.9269145,-0.07209733,-2.379736,-0.057065047,1.5674523,0.8268576,0.04,0.039999463,-9.757849,0.026677308604121208,1.0740576,0.23371685,-0.12429489940404892,-0.009457294
1892.9833333319405,-0.15248457,-0.92934513,-0.07332769,-2.3801353,-0.058039777,1.5673925,0.82755435,0.04,0.039999466,-9.755577,0.03025476634502411,1.0928957,0.23513986,-0.12496774643659592,-0.009583829
1892.999999998607,-0.15506049,-0.9317909,-0.07456573,-2.3805368,-0.05902062,1.5673321,0.82825565,0.04,0.03999946,-9.753246,0.03353703022003174,1.1116438,0.23653488,-0.12562702596187592,-0.009710636
1893.0166666652738,-0.15765215,-0.9342519,-0.07581134,-2.380941,-0.060007438,1.5672715,0.828961,0.04,0.039999463,-9.750737,0.03728257492184639,1.1306816,0.2378999,-0.12627379596233368,-0.00983786
1893.0333333319404,-0.16025929,-0.9367275,-0.077064395,-2.3813477,-0.06100015,1.5672102,0.8296705,0.04,0.03999946,-9.74829,0.0407574400305748,1.149647,0.23923749,-0.126906156539917,-0.009965074
1893.049999998607,-0.16288157,-0.93921745,-0.078324705,-2.3817565,-0.061998624,1.5671487,0.83038455,0.04,0.039999455,-9.745778,0.04466349631547928,1.1688747,0.24054623,-0.1275290548801422,-0.010091675
1893.0666666652737,-0.16551869,-0.9417215,-0.079592176,-2.3821676,-0.06300276,1.567087,0.83110267,0.04,0.039999448,-9.74325,0.04831971973180771,1.1879998,0.24182376,-0.12813864648342133,-0.010218445
1893.0833333319404,-0.16817036,-0.9442395,-0.08086665,-2.3825815,-0.06401245,1.5670252,0.8318246,0.04,0.03999945,-9.740533,0.05240090191364288,1.2074014,0.24307126,-0.1287333071231842,-0.010345465
1893.099999998607,-0.17083628,-0.94677097,-0.08214794,-2.3829973,-0.06502759,1.5669628,0.83255035,0.04,0.039999448,-9.737931,0.05639408901333809,1.2268075,0.24428946,-0.12931682169437408,-0.01047273
1893.1166666652737,-0.17351612,-0.9493158,-0.08343597,-2.383415,-0.066048004,1.5669001,0.8332799,0.04,0.03999945,-9.735215,0.06033408269286156,1.2462015,0.24547817,-0.12988656759262085,-0.010599482
1893.1333333319403,-0.17620964,-0.95187354,-0.08473052,-2.3838353,-0.0670736,1.5668372,0.8340133,0.04,0.03999944,-9.732373,0.06466913968324661,1.2658602,0.24663627,-0.13044248521327972,-0.010725704
1893.149999998607,-0.17891644,-0.95444393,-0.086031474,-2.3842578,-0.068104275,1.566774,0.8347505,0.04,0.03999944,-9.729677,0.0687934085726738,1.2854223,0.24776348,-0.13098791241645813,-0.010851859
1893.1666666652736,-0.18163629,-0.95702654,-0.08733871,-2.3846817,-0.06913996,1.5667105,0.8354911,0.04,0.039999433,-9.726732,0.07329310476779938,1.3052137,0.24885882,-0.1315191686153412,-0.010977464
1893.1833333319403,-0.18436882,-0.9596215,-0.088652015,-2.3851075,-0.07018045,1.5666465,0.8362345,0.04,0.039999433,-9.72378,0.07762530446052551,1.3249128,0.24992329,-0.13203482329845428,-0.011102859
1893.199999998607,-0.18711372,-0.9622282,-0.0899713,-2.3855357,-0.07122565,1.5665821,0.8369815,0.04,0.039999437,-9.720754,0.082294762134552,1.3448753,0.25095958,-0.1325375884771347,-0.011228704
1893.2166666652736,-0.18987064,-0.9648461,-0.09129635,-2.3859658,-0.07227545,1.5665176,0.837732,0.04,0.039999425,-9.717809,0.08681079745292664,1.3647292,0.2519638,-0.13302868604660034,-0.011353296
1893.2333333319402,-0.19263929,-0.96747535,-0.09262705,-2.3863974,-0.07332972,1.5664527,0.8384854,0.04,0.039999425,-9.714714,0.09164752811193466,1.3847604,0.25293487,-0.1335071474313736,-0.011477463
1893.2499999986069,-0.19541939,-0.97011554,-0.093963206,-2.3868303,-0.074388325,1.5663875,0.83924216,0.04,0.03999942,-9.711548,0.09636609256267548,1.4047655,0.2538753,-0.1339694857597351,-0.011601277
1893.2666666652735,-0.19821055,-0.9727661,-0.09530468,-2.387265,-0.07545114,1.5663222,0.8400019,0.04,0.039999425,-9.708277,0.1013958528637886,1.4249355,0.2547827,-0.13441692292690277,-0.011724402
1893.2833333319402,-0.20101242,-0.9754269,-0.09665134,-2.3877025,-0.076518044,1.5662568,0.8407645,0.04,0.03999943,-9.705072,0.10628942400217056,1.4450393,0.2556578,-0.13485004007816315,-0.011846793
1893.2999999986068,-0.2038247,-0.9780977,-0.09800299,-2.3881412,-0.077588916,1.566191,0.84153,0.04,0.039999425,-9.701883,0.11147529631853104,1.4653095,0.2565007,-0.13527341187000275,-0.011969001
1893.3166666652735,-0.20664704,-0.98077804,-0.09935947,-2.388581,-0.078663625,1.566125,0.8422983,0.04,0.03999942,-9.698508,0.11656684428453445,1.4855213,0.25731128,-0.13568183779716492,-0.012090727
1893.3333333319401,-0.20947906,-0.98346776,-0.10072062,-2.389022,-0.079742044,1.5660588,0.84306914,0.04,0.039999418,-9.695063,0.12194330990314484,1.5058861,0.25808874,-0.13607513904571533,-0.012210775
1893.3499999986068,-0.21232054,-0.98616636,-0.102086306,-2.389465,-0.08082404,1.5659922,0.8438426,0.04,0.03999942,-9.691511,0.12730716168880463,1.5262456,0.2588339,-0.13645035028457642,-0.012331076
1893.3666666652734,-0.21517105,-0.9888734,-0.103456326,-2.38991,-0.0819095,1.5659255,0.8446186,0.04,0.039999418,-9.688153,0.13269470632076263,1.54658,0.25954524,-0.13681654632091522,-0.01244957
1893.38333333194,-0.21803032,-0.99158883,-0.104830526,-2.3903563,-0.08299827,1.5658586,0.84539694,0.04,0.039999425,-9.68462,0.1383143663406372,1.567052,0.26022384,-0.13717058300971985,-0.012567297
1893.3999999986067,-0.22089791,-0.99431217,-0.10620874,-2.3908033,-0.08409022,1.5657916,0.84617746,0.04,0.039999425,-9.681062,0.14388151466846466,1.5874656,0.2608692,-0.13751038908958435,-0.012683469
1893.4166666652734,-0.22377354,-0.99704325,-0.10759081,-2.3912516,-0.08518524,1.5657245,0.8469602,0.04,0.03999943,-9.677312,0.14968964457511902,1.6079904,0.26148155,-0.1378338634967804,-0.012800255
1893.43333333194,-0.22665684,-0.9997818,-0.10897658,-2.391701,-0.08628318,1.5656571,0.84774506,0.04,0.039999433,-9.67357,0.15546011924743652,1.6284802,0.26206037,-0.1381400227546692,-0.012914895
1893.4499999986067,-0.22954744,-1.0025272,-0.110365875,-2.3921514,-0.08738388,1.5655895,0.84853184,0.04,0.03999942,-9.669786,0.16143831610679626,1.6490767,0.2626053,-0.13843181729316711,-0.013028261
1893.4666666652734,-0.23244503,-1.0052793,-0.11175853,-2.3926036,-0.088487275,1.5655217,0.84932053,0.04,0.039999433,-9.666015,0.1673830896615982,1.669595,0.263117,-0.13871099054813385,-0.013141185
1893.48333333194,-0.23534925,-1.0080376,-0.11315434,-2.3930569,-0.08959317,1.5654539,0.85011107,0.04,0.039999437,-9.662208,0.17352092266082764,1.6902267,0.263595,-0.13897837698459625,-0.01325251
1893.4999999986067,-0.23825976,-1.010802,-0.11455315,-2.3935106,-0.09070148,1.5653858,0.85090333,0.04,0.039999437,-9.6583,0.17966315150260925,1.7107809,0.26403952,-0.13923045992851257,-0.013361789
1893.5166666652733,-0.24117613,-1.013572,-0.115954824,-2.393965,-0.09181203,1.5653176,0.8516973,0.04,0.039999437,-9.654256,0.1859787553548813,1.7314417,0.26444933,-0.1394655406475067,-0.013471155
1893.53333333194,-0.2440981,-1.0163472,-0.117359154,-2.3944201,-0.092924684,1.5652492,0.85249287,0.04,0.039999444,-9.650233,0.19229719042778015,1.7520182,0.26482537,-0.13968518376350403,-0.013578005
1893.5499999986066,-0.24702519,-1.0191275,-0.11876601,-2.394876,-0.09403935,1.5651807,0.85328966,0.04,0.039999448,-9.646189,0.19878080487251282,1.7726784,0.26516682,-0.1398923099040985,-0.0136822425
1893.5666666652733,-0.24995719,-1.0219122,-0.12017518,-2.395333,-0.09515583,1.565112,0.8540879,0.04,0.03999945,-9.642031,0.20527411997318268,1.7932963,0.26547542,-0.14008285105228424,-0.013788417
1893.58333333194,-0.2528936,-1.0247015,-0.1215865,-2.3957906,-0.09627404,1.565043,0.85488737,0.04,0.039999455,-9.637904,0.21192890405654907,1.8139503,0.2657492,-0.14026030898094177,-0.01389041
1893.5999999986066,-0.25583422,-1.0274948,-0.122999795,-2.396249,-0.09739383,1.564974,0.85568786,0.04,0.03999945,-9.633694,0.21860890090465546,1.8346035,0.2659895,-0.1404237151145935,-0.013993249
1893.6166666652732,-0.25877863,-1.0302916,-0.12441491,-2.396708,-0.09851506,1.5649048,0.85648954,0.04,0.039999455,-9.629412,0.22540269792079926,1.8552166,0.26619545,-0.14057102799415588,-0.0140931755
1893.6333333319399,-0.26172638,-1.0330914,-0.12583163,-2.3971677,-0.099637575,1.5648357,0.857292,0.04,0.039999455,-9.625154,0.23228517174720764,1.8758447,0.26636705,-0.14070558547973633,-0.014190208
1893.6499999986065,-0.26467714,-1.0358942,-0.12724982,-2.397628,-0.10076125,1.5647664,0.85809535,0.04,0.039999455,-9.6208105,0.23920679092407227,1.8964157,0.2665055,-0.14082598686218262,-0.014287609
1893.6666666652732,-0.2676307,-1.0386996,-0.12866932,-2.398089,-0.10188598,1.5646971,0.8588995,0.04,0.039999455,-9.6164465,0.24624694883823395,1.917019,0.26661026,-0.14093288779258728,-0.014380904
1893.6833333319398,-0.27058643,-1.0415071,-0.13008995,-2.3985498,-0.10301155,1.5646278,0.85970414,0.04,0.039999455,-9.611972,0.25337210297584534,1.9375973,0.26667982,-0.14102379977703094,-0.014475157
1893.6999999986065,-0.2735441,-1.0443169,-0.1315115,-2.399011,-0.104137935,1.5645584,0.86050934,0.04,0.039999455,-9.607482,0.2605493366718292,1.9581354,0.26671645,-0.14110061526298523,-0.014566259
1893.7166666652731,-0.27650362,-1.0471281,-0.13293381,-2.3994722,-0.10526489,1.564489,0.8613151,0.04,0.03999946,-9.602873,0.2678421437740326,1.9786851,0.26671955,-0.1411592662334442,-0.014655689
1893.7333333319398,-0.27946427,-1.0499406,-0.1343567,-2.3999336,-0.10639236,1.5644196,0.8621211,0.04,0.039999448,-9.598306,0.2752021551132202,1.9992028,0.2666865,-0.1412040889263153,-0.01474273
1893.7499999986064,-0.28242576,-1.0527537,-0.13578005,-2.400395,-0.10752011,1.5643502,0.8629274,0.04,0.039999444,-9.593636,0.28264373540878296,2.0196857,0.26662067,-0.1412319391965866,-0.0148278875
1893.766666665273,-0.2853877,-1.0555673,-0.1372036,-2.4008565,-0.10864805,1.5642809,0.8637337,0.04,0.03999944,-9.588952,0.2901192307472229,2.0401149,0.26652083,-0.1412450075149536,-0.014911413
1893.7833333319397,-0.28834975,-1.0583811,-0.13862723,-2.401318,-0.1097761,1.5642115,0.8645401,0.04,0.03999945,-9.584267,0.29772311449050903,2.0605314,0.26638827,-0.14124439656734467,-0.014992691
1893.7999999986064,-0.29131168,-1.0611949,-0.14005075,-2.4017797,-0.11090403,1.5641421,0.86534643,0.04,0.039999448,-9.579494,0.30533382296562195,2.0809166,0.2662217,-0.14122825860977173,-0.015072991
1893.816666665273,-0.29427293,-1.0640081,-0.141474,-2.4022412,-0.11203176,1.5640727,0.86615264,0.04,0.039999437,-9.574687,0.31311506032943726,2.1012628,0.26602143,-0.14119720458984375,-0.015149932
1893.8333333319397,-0.2972332,-1.0668203,-0.14289676,-2.4027028,-0.11315914,1.5640033,0.8669587,0.04,0.03999944,-9.569865,0.3208582401275635,2.1215663,0.26578766,-0.14115090668201447,-0.015224195
1893.8499999986063,-0.30019233,-1.0696315,-0.14431891,-2.4031644,-0.11428603,1.5639341,0.8677644,0.04,0.039999433,-9.565,0.3287138044834137,2.1417978,0.26552033,-0.1410914659500122,-0.0152969025
1893.866666665273,-0.30314967,-1.0724409,-0.14574026,-2.4036257,-0.115412205,1.5638648,0.86856955,0.04,0.039999433,-9.560053,0.33671677112579346,2.162037,0.2652186,-0.14101631939411163,-0.015367741
1893.8833333319396,-0.3061051,-1.0752485,-0.14716059,-2.4040864,-0.11653764,1.5637957,0.86937404,0.04,0.039999433,-9.555167,0.344642698764801,2.1821575,0.2648851,-0.14092813432216644,-0.015435514
1893.8999999986063,-0.309058,-1.078054,-0.14857979,-2.4045465,-0.11766218,1.5637265,0.870178,0.04,0.039999437,-9.550028,0.3527980148792267,2.202278,0.2645179,-0.1408209204673767,-0.015501694
1893.916666665273,-0.3120081,-1.0808566,-0.14999765,-2.4050064,-0.11878566,1.5636575,0.8709812,0.04,0.039999437,-9.545021,0.3608456552028656,2.2223148,0.26411775,-0.14069929718971252,-0.015565755
1893.9333333319396,-0.31495517,-1.0836562,-0.15141404,-2.4054654,-0.11990794,1.5635885,0.8717835,0.04,0.039999425,-9.539949,0.3691132664680481,2.2423081,0.26368484,-0.14056396484375,-0.015627056
1893.9499999986062,-0.31789866,-1.0864525,-0.15282871,-2.4059238,-0.12102888,1.5635197,0.8725849,0.04,0.039999425,-9.534818,0.37729647755622864,2.2622082,0.26321903,-0.1404121071100235,-0.015685288
1893.966666665273,-0.32083833,-1.0892453,-0.15424153,-2.4063814,-0.12214837,1.563451,0.8733852,0.04,0.039999433,-9.529626,0.38568803668022156,2.2821019,0.2627208,-0.14024464786052704,-0.015742345
1893.9833333319395,-0.3237739,-1.0920341,-0.15565234,-2.406839,-0.123266265,1.5633825,0.87418437,0.04,0.039999437,-9.524437,0.3939778506755829,2.3018858,0.26219022,-0.14006085693836212,-0.015796032
1893.9999999986062,-0.32670474,-1.0948188,-0.15706098,-2.4072955,-0.12438243,1.5633142,0.8749823,0.04,0.03999943,-9.519244,0.40250399708747864,2.3216531,0.26162675,-0.1398640275001526,-0.015846658
1894.0166666652729,-0.32963067,-1.0975988,-0.1584672,-2.4077513,-0.12549673,1.5632459,0.87577885,0.04,0.039999433,-9.514009,0.4108777344226837,2.3412945,0.26103202,-0.1396506428718567,-0.015896203
1894.0333333319395,-0.33255133,-1.1003737,-0.15987094,-2.408206,-0.126609,1.5631777,0.8765741,0.04,0.03999943,-9.508666,0.4195219874382019,2.3609085,0.2604052,-0.13942255079746246,-0.015941773
1894.0499999986062,-0.33546638,-1.1031432,-0.1612719,-2.4086602,-0.12771915,1.5631098,0.87736785,0.04,0.039999437,-9.503365,0.4280092716217041,2.3803945,0.25974566,-0.13917843997478485,-0.015985945
1894.0666666652728,-0.3383754,-1.1059073,-0.16267006,-2.4091132,-0.12882702,1.5630418,0.87815994,0.04,0.039999437,-9.498028,0.4367527365684509,2.3998554,0.2590546,-0.13892151415348053,-0.01602617
1894.0833333319395,-0.34127814,-1.1086653,-0.16406515,-2.4095652,-0.12993248,1.5629741,0.8789502,0.04,0.039999437,-9.49263,0.4453376531600952,2.419198,0.258332,-0.13864709436893463,-0.016064929
1894.099999998606,-0.34417412,-1.1114169,-0.16545698,-2.4100165,-0.13103537,1.5629066,0.8797386,0.04,0.039999433,-9.487276,0.45406314730644226,2.4384596,0.25757888,-0.13835932314395905,-0.016100189
1894.1166666652728,-0.347063,-1.1141618,-0.16684543,-2.4104664,-0.1321356,1.5628393,0.8805251,0.04,0.03999944,-9.481808,0.4629487097263336,2.457684,0.25679466,-0.13805703818798065,-0.01613304
1894.1333333319394,-0.34994456,-1.1168996,-0.16823028,-2.4109156,-0.13323301,1.562772,0.88130957,0.04,0.039999437,-9.476366,0.4716452658176422,2.4767458,0.25597972,-0.13773861527442932,-0.016163502
1894.149999998606,-0.35281828,-1.1196301,-0.16961145,-2.4113634,-0.13432743,1.5627049,0.882092,0.04,0.03999944,-9.470922,0.48062658309936523,2.4957902,0.2551347,-0.13740946352481842,-0.016189462
1894.1666666652727,-0.35568392,-1.1223531,-0.1709887,-2.4118097,-0.13541879,1.5626382,0.8828722,0.04,0.039999437,-9.4654045,0.48939430713653564,2.5146596,0.25425863,-0.1370633840560913,-0.016214468
1894.1833333319394,-0.3585411,-1.125068,-0.1723619,-2.4122548,-0.13650692,1.5625715,0.88365024,0.04,0.039999448,-9.459798,0.4984687268733978,2.5335536,0.25335258,-0.13670042157173157,-0.016236465
1894.199999998606,-0.36138964,-1.1277744,-0.17373085,-2.4126987,-0.1375917,1.562505,0.8844259,0.04,0.03999945,-9.454326,0.5072952508926392,2.552217,0.25241593,-0.1363244205713272,-0.016255343
1894.2166666652727,-0.36422893,-1.1304724,-0.17509544,-2.4131413,-0.13867302,1.5624386,0.88519883,0.04,0.039999448,-9.44875,0.5164470076560974,2.570899,0.25144935,-0.1359366625547409,-0.016270066
1894.2333333319393,-0.36705878,-1.1331614,-0.17645545,-2.413582,-0.13975075,1.5623724,0.8859692,0.04,0.039999448,-9.443165,0.5253336429595947,2.5893888,0.25045422,-0.1355316936969757,-0.0162834
1894.249999998606,-0.36987883,-1.1358413,-0.17781082,-2.414021,-0.14082474,1.5623064,0.88673735,0.04,0.039999455,-9.437479,0.5345578789710999,2.6078804,0.24942982,-0.13511212170124054,-0.016293665
1894.2666666652726,-0.37268874,-1.1385113,-0.17916122,-2.4144585,-0.14189486,1.5622405,0.8875022,0.04,0.03999946,-9.431883,0.543502688407898,2.6261427,0.24837415,-0.13467735052108765,-0.016301109
1894.2833333319393,-0.37548816,-1.1411711,-0.18050668,-2.414895,-0.142961,1.5621748,0.88826454,0.04,0.03999945,-9.426193,0.5527638792991638,2.6444168,0.24729246,-0.1342291384935379,-0.01630534
1894.299999998606,-0.37827677,-1.1438211,-0.18184687,-2.4153292,-0.14402302,1.5621092,0.8890236,0.04,0.039999463,-9.420695,0.5617427229881287,2.662438,0.2461806,-0.13377127051353455,-0.016305305
1894.3166666652726,-0.38105413,-1.1464605,-0.18318179,-2.4157617,-0.14508075,1.562044,0.88978004,0.04,0.039999463,-9.414831,0.5710856318473816,2.6805296,0.24504189,-0.13329361379146576,-0.016303798
1894.3333333319392,-0.38382003,-1.149089,-0.18451115,-2.4161923,-0.14613417,1.5619792,0.89053303,0.04,0.039999463,-9.409259,0.5800824165344238,2.6983356,0.24387404,-0.13280312716960907,-0.016299892
1894.3499999986059,-0.38657418,-1.1517065,-0.18583483,-2.4166214,-0.14718309,1.5619147,0.8912829,0.04,0.039999466,-9.403523,0.58928382396698,2.7160904,0.24267957,-0.1322973072528839,-0.016292576
1894.3666666652725,-0.38931614,-1.1543123,-0.18715261,-2.4170485,-0.14822736,1.5618505,0.89202964,0.04,0.039999474,-9.397789,0.5986734628677368,2.7338514,0.24145764,-0.13177816569805145,-0.016282285
1894.3833333319392,-0.39204568,-1.1569061,-0.18846452,-2.4174738,-0.14926691,1.5617869,0.8927727,0.04,0.039999466,-9.392089,0.607721209526062,2.751293,0.24020758,-0.13124291598796844,-0.016269278
1894.3999999986058,-0.39476243,-1.1594878,-0.1897702,-2.4178967,-0.15030159,1.5617236,0.893512,0.04,0.039999474,-9.386377,0.6171318888664246,2.76878,0.23893273,-0.1306966245174408,-0.016253022
1894.4166666652725,-0.39746615,-1.1620573,-0.1910696,-2.4183183,-0.15133132,1.5616605,0.89424807,0.04,0.039999485,-9.380642,0.626197874546051,2.7859838,0.23763222,-0.13013380765914917,-0.016233953
1894.4333333319391,-0.4001564,-1.1646142,-0.19236259,-2.4187365,-0.1523559,1.5615977,0.8949809,0.04,0.039999485,-9.374885,0.6356368064880371,2.803267,0.2363041,-0.12955918908119202,-0.016211294
1894.4499999986058,-0.40283296,-1.167158,-0.19364895,-2.4191532,-0.15337525,1.5615351,0.89571023,0.04,0.039999478,-9.369063,0.6447247862815857,2.8202398,0.2349478,-0.12896548211574554,-0.016187107
1894.4666666652724,-0.40549555,-1.1696883,-0.19492859,-2.4195685,-0.15438929,1.5614728,0.8964351,0.04,0.039999492,-9.363312,0.6541737914085388,2.8372734,0.2335653,-0.1283608227968216,-0.016159358
1894.483333331939,-0.4081438,-1.1722052,-0.19620135,-2.4199805,-0.1553979,1.5614107,0.897156,0.04,0.03999949,-9.3577385,0.6632295250892639,2.853959,0.23216079,-0.1277473419904709,-0.016127376
1894.4999999986057,-0.4107774,-1.1747081,-0.19746707,-2.4203906,-0.1564009,1.5613487,0.89787287,0.04,0.039999496,-9.351792,0.6727122664451599,2.8707254,0.23073108,-0.12711602449417114,-0.01609369
1894.5166666652724,-0.41339606,-1.1771967,-0.19872561,-2.4207983,-0.15739822,1.5612869,0.8985858,0.04,0.039999492,-9.34617,0.681747555732727,2.8871775,0.22927748,-0.12647400796413422,-0.016056187
1894.533333331939,-0.41599947,-1.1796708,-0.19997683,-2.4212036,-0.15838973,1.5612258,0.89929473,0.04,0.039999504,-9.340343,0.6912084817886353,2.9036727,0.22779857,-0.1258198767900467,-0.01601668
1894.5499999986057,-0.41858736,-1.1821301,-0.20122059,-2.4216065,-0.15937537,1.5611652,0.89999974,0.04,0.039999504,-9.334668,0.7002345323562622,2.9198203,0.22629565,-0.125151127576828,-0.015973307
1894.5666666652724,-0.42115948,-1.1845746,-0.20245676,-2.422007,-0.160355,1.5611054,0.9006999,0.04,0.039999507,-9.328859,0.7096819877624512,2.936064,0.2247676,-0.12446916848421097,-0.015926918
1894.583333331939,-0.42371547,-1.1870037,-0.20368521,-2.4224052,-0.1613285,1.5610458,0.90139586,0.04,0.03999951,-9.323169,0.7186926603317261,2.951961,0.22321862,-0.12377122789621353,-0.015878066
1894.5999999986057,-0.4262551,-1.1894176,-0.20490575,-2.4228005,-0.16229573,1.5609865,0.9020874,0.04,0.039999515,-9.317496,0.727895975112915,2.9678383,0.22164617,-0.1230635941028595,-0.015826179
1894.6166666652723,-0.42877796,-1.1918155,-0.2061183,-2.4231935,-0.16325662,1.5609277,0.90277433,0.04,0.03999953,-9.31159,0.7373188734054565,2.9836845,0.22005089,-0.12233888357877731,-0.015772538
1894.633333331939,-0.43128386,-1.194197,-0.2073227,-2.4235835,-0.16421108,1.5608692,0.9034566,0.04,0.03999953,-9.306023,0.7462529540061951,2.9991713,0.21843426,-0.12160367518663406,-0.015715344
1894.6499999986056,-0.4337726,-1.1965625,-0.20851883,-2.423971,-0.1651589,1.5608109,0.90413433,0.04,0.03999953,-9.300214,0.7556390762329102,3.014714,0.21679549,-0.1208566203713417,-0.015654944
1894.6666666652723,-0.43624383,-1.1989113,-0.20970653,-2.424356,-0.16610017,1.5607529,0.90480727,0.04,0.03999953,-9.294583,0.7645405530929565,3.029925,0.21513507,-0.12009599804878235,-0.015592237
1894.683333331939,-0.43869734,-1.2012433,-0.21088569,-2.4247382,-0.16703457,1.560695,0.90547544,0.04,0.03999953,-9.288892,0.7738722562789917,3.045205,0.2134538,-0.11932720243930817,-0.015525394
1894.6999999986056,-0.44113284,-1.2035581,-0.21205617,-2.4251173,-0.16796215,1.5606381,0.9061386,0.04,0.03999954,-9.283298,0.782711386680603,3.060108,0.21175124,-0.11854586005210876,-0.015456549
1894.7166666652722,-0.44354993,-1.2058556,-0.21321787,-2.4254937,-0.16888277,1.5605817,0.90679675,0.04,0.03999954,-9.277513,0.7920039296150208,3.0750887,0.21002889,-0.1177494153380394,-0.01538504
1894.7333333319389,-0.4459485,-1.2081354,-0.21437064,-2.4258673,-0.16979632,1.5605257,0.90744996,0.04,0.039999552,-9.272,0.8007715344429016,3.089692,0.20828705,-0.11694119870662689,-0.015310383
1894.7499999986055,-0.44832832,-1.2103975,-0.21551442,-2.4262373,-0.17070271,1.5604701,0.908098,0.04,0.03999955,-9.266292,0.8099954724311829,3.104403,0.20652556,-0.11612208187580109,-0.015233032
1894.7666666652722,-0.4506891,-1.2126416,-0.216649,-2.4266052,-0.17160186,1.5604149,0.90874076,0.04,0.039999552,-9.260685,0.8187124133110046,3.1187139,0.20474407,-0.11528746783733368,-0.015154404
1894.7833333319388,-0.45303062,-1.2148674,-0.21777432,-2.4269693,-0.17249367,1.5603601,0.9093783,0.04,0.039999552,-9.255131,0.8278616070747375,3.1331415,0.20294529,-0.11444539576768875,-0.015071693
1894.7999999986055,-0.45535254,-1.2170743,-0.21889028,-2.427331,-0.17337802,1.5603056,0.9100105,0.04,0.03999956,-9.24958,0.8364946842193604,3.1471584,0.20112735,-0.11358911544084549,-0.014986805
1894.8166666652721,-0.45765468,-1.2192631,-0.21999674,-2.4276893,-0.17425488,1.5602515,0.9106374,0.04,0.03999957,-9.244031,0.8455625772476196,3.161254,0.199292,-0.11272571235895157,-0.014899636
1894.8333333319388,-0.45993686,-1.2214327,-0.22109355,-2.4280446,-0.1751241,1.560198,0.91125876,0.04,0.039999567,-9.238557,0.8541127443313599,3.1750028,0.19743866,-0.1118486300110817,-0.01480968
1894.8499999986054,-0.46219873,-1.2235825,-0.22218065,-2.4283967,-0.17598557,1.5601451,0.91187465,0.04,0.039999574,-9.233085,0.8628410696983337,3.1886744,0.19556852,-0.11096066236495972,-0.014717515
1894.866666665272,-0.46444008,-1.2257134,-0.22325791,-2.4287457,-0.17683929,1.5600928,0.912485,0.04,0.03999957,-9.227607,0.8717800378799438,3.2022908,0.1936823,-0.11006470769643784,-0.014621723
1894.8833333319387,-0.46666095,-1.2278242,-0.22432525,-2.4290915,-0.17768514,1.5600411,0.9130897,0.04,0.03999958,-9.222214,0.8801791071891785,3.2155607,0.19177964,-0.10915534943342209,-0.0145233525
1894.8999999986054,-0.46886086,-1.2299154,-0.22538255,-2.4294338,-0.178523,1.5599897,0.91368884,0.04,0.039999582,-9.216746,0.8890358805656433,3.2289057,0.18986084,-0.10823725163936615,-0.014423279
1894.916666665272,-0.4710396,-1.2319866,-0.22642976,-2.4297726,-0.17935288,1.5599387,0.91428214,0.04,0.03999959,-9.211454,0.897306501865387,3.241841,0.18792579,-0.10730844736099243,-0.014321056
1894.9333333319387,-0.4731971,-1.2340376,-0.22746667,-2.4301083,-0.18017463,1.5598881,0.9148697,0.04,0.03999959,-9.205946,0.9060803651809692,3.254905,0.18597625,-0.10636770725250244,-0.01421669
1894.9499999986053,-0.47533306,-1.236068,-0.22849326,-2.4304411,-0.18098818,1.5598378,0.91545135,0.04,0.039999586,-9.200782,0.9142313599586487,3.2675393,0.18401174,-0.1054181382060051,-0.014109266
1894.966666665272,-0.4774473,-1.2380778,-0.2295094,-2.4307702,-0.18179345,1.5597881,0.9160271,0.04,0.039999574,-9.195511,0.9228673577308655,3.2802637,0.18203421,-0.10446444898843765,-0.013997325
1894.9833333319386,-0.47953963,-1.2400666,-0.23051505,-2.431096,-0.18259038,1.5597392,0.9165969,0.04,0.039999582,-9.190331,0.9308948516845703,3.2925608,0.18004273,-0.1034991517663002,-0.013884587
1894.9999999986053,-0.4816099,-1.2420349,-0.23151007,-2.431418,-0.18337893,1.559691,0.91716075,0.04,0.03999957,-9.185042,0.939408540725708,3.3049748,0.17803836,-0.10252454876899719,-0.013770434
1895.016666665272,-0.48365793,-1.2439823,-0.23249435,-2.431737,-0.18415898,1.5596431,0.9177184,0.04,0.039999582,-9.179874,0.9473360776901245,3.3169942,0.17602003,-0.10153622925281525,-0.013655553
1895.0333333319386,-0.4856835,-1.2459079,-0.23346792,-2.4320521,-0.18493043,1.5595957,0.91827,0.04,0.039999582,-9.17473,0.9557163715362549,3.329126,0.17399067,-0.10054163634777069,-0.013537963
1895.0499999986052,-0.48768646,-1.2478118,-0.23443055,-2.4323637,-0.1856934,1.559549,0.9188155,0.04,0.039999593,-9.169719,0.9635040163993835,3.3407748,0.17194892,-0.0995388999581337,-0.013417857
1895.066666665272,-0.48966664,-1.249694,-0.23538224,-2.4326718,-0.18644758,1.5595024,0.9193546,0.04,0.039999586,-9.164594,0.9717514514923096,3.3525546,0.16989543,-0.098528653383255,-0.013293893
1895.0833333319385,-0.49162382,-1.2515548,-0.23632294,-2.4329762,-0.1871931,1.5594566,0.9198876,0.04,0.039999586,-9.159712,0.9793782234191895,3.3639052,0.16783224,-0.09751246869564056,-0.013168157
1895.0999999986052,-0.49355796,-1.2533937,-0.23725252,-2.4332774,-0.18792978,1.5594112,0.92041427,0.04,0.0399996,-9.154693,0.9872296452522278,3.37527,0.16575778,-0.09648377448320389,-0.013041418
1895.1166666652719,-0.4954688,-1.2552104,-0.23817094,-2.4335742,-0.1886576,1.5593663,0.9209346,0.04,0.039999597,-9.149744,0.9952642917633057,3.3866022,0.16367345,-0.09545180946588516,-0.012911674
1895.1333333319385,-0.49735627,-1.257005,-0.23907812,-2.4338682,-0.18937653,1.5593222,0.9214486,0.04,0.039999604,-9.14488,1.0026735067367554,3.397465,0.1615793,-0.09440886229276657,-0.012781486
1895.1499999986052,-0.49922007,-1.2587769,-0.23997398,-2.4341578,-0.19008647,1.5592787,0.92195624,0.04,0.039999604,-9.140012,1.0105682611465454,3.408484,0.15947643,-0.09335961937904358,-0.012648537
1895.1666666652718,-0.50106025,-1.2605265,-0.24085847,-2.4344442,-0.1907874,1.5592359,0.9224574,0.04,0.03999961,-9.135308,1.0177972316741943,3.4190106,0.15736498,-0.09230298548936844,-0.012514753
1895.1833333319385,-0.50287676,-1.2622535,-0.24173151,-2.434727,-0.19147925,1.5591934,0.9229521,0.04,0.039999608,-9.1305065,1.0255323648452759,3.4297214,0.15524574,-0.09124068170785904,-0.012379158
1895.199999998605,-0.5046692,-1.2639579,-0.24259305,-2.435006,-0.19216199,1.5591515,0.9234404,0.04,0.039999615,-9.125938,1.0326197147369385,3.4399602,0.15311833,-0.09017278999090195,-0.012241434
1895.2166666652718,-0.5064378,-1.2656392,-0.24344306,-2.4352815,-0.1928356,1.5591098,0.9239219,0.04,0.039999615,-9.121155,1.0401960611343384,3.4503279,0.15098374,-0.0890965610742569,-0.012101024
1895.2333333319384,-0.50818217,-1.2672977,-0.24428146,-2.4355528,-0.1935,1.5590688,0.924397,0.04,0.03999962,-9.11681,1.047086238861084,3.4602463,0.14884384,-0.08802138268947601,-0.011959866
1895.249999998605,-0.5099023,-1.2689328,-0.24510819,-2.4358206,-0.19415516,1.5590286,0.9248654,0.04,0.039999627,-9.112065,1.054508090019226,3.470301,0.14669625,-0.08693583309650421,-0.0118172
1895.2666666652717,-0.511598,-1.2705452,-0.24592325,-2.4360843,-0.19480102,1.5589889,0.9253272,0.04,0.03999963,-9.107728,1.0612497329711914,3.4798465,0.14454322,-0.08584552258253098,-0.011669912
1895.2833333319384,-0.51326907,-1.2721347,-0.2467265,-2.4363444,-0.19543763,1.55895,0.92578226,0.04,0.03999964,-9.103159,1.068459391593933,3.4896376,0.14238586,-0.08474882692098618,-0.011526535
1895.299999998605,-0.5149158,-1.2737001,-0.24751799,-2.4366007,-0.19606486,1.5589119,0.9262307,0.04,0.03999965,-9.0989,1.0750128030776978,3.4989066,0.14022459,-0.08364621549844742,-0.01137991
1895.3166666652717,-0.51653796,-1.2752423,-0.24829774,-2.4368532,-0.19668272,1.5588739,0.9266724,0.04,0.03999965,-9.094508,1.0820581912994385,3.5082932,0.13805832,-0.08254007250070572,-0.011231195
1895.3333333319383,-0.5181353,-1.2767615,-0.2490656,-2.4371016,-0.19729115,1.558836,0.9271074,0.04,0.039999656,-9.090355,1.0884513854980469,3.5172656,0.13588855,-0.08143185079097748,-0.011079856
1895.349999998605,-0.5197082,-1.278257,-0.24982148,-2.4373462,-0.19789015,1.5587991,0.92753565,0.04,0.039999653,-9.08611,1.0950089693069458,3.5262377,0.13371582,-0.08031883090734482,-0.01093102
1895.3666666652716,-0.521256,-1.2797284,-0.2505654,-2.4375868,-0.19847971,1.5587629,0.9279571,0.04,0.03999966,-9.0818615,1.1018047332763672,3.535173,0.13153927,-0.07920071482658386,-0.010776274
1895.3833333319383,-0.5227791,-1.2811766,-0.2512974,-2.4378238,-0.19905983,1.5587274,0.9283719,0.04,0.039999664,-9.077912,1.1078490018844604,3.5436223,0.1293619,-0.07808137685060501,-0.010622886
1895.399999998605,-0.5242774,-1.2826014,-0.25201744,-2.438057,-0.19963048,1.5586926,0.92877984,0.04,0.03999966,-9.0737505,1.11442232131958,3.5522666,0.12718236,-0.07695713639259338,-0.010470195
1895.4166666652716,-0.5257505,-1.2840027,-0.25272545,-2.4382858,-0.20019157,1.5586582,0.92918104,0.04,0.03999967,-9.069926,1.1203348636627197,3.5604517,0.12500158,-0.07583048939704895,-0.010314253
1895.4333333319382,-0.5271987,-1.2853796,-0.25342146,-2.438511,-0.20074311,1.558624,0.92957544,0.04,0.03999968,-9.065776,1.1267286539077759,3.5687892,0.12282039,-0.07469648867845535,-0.010158962
1895.4499999986049,-0.5286216,-1.2867329,-0.2541055,-2.4387321,-0.20128515,1.5585904,0.929963,0.04,0.039999686,-9.062121,1.1323970556259155,3.5766034,0.12063945,-0.07356610894203186,-0.0100011835
1895.4666666652715,-0.5300196,-1.2880626,-0.2547775,-2.4389496,-0.20181765,1.5585576,0.93034375,0.04,0.039999682,-9.058242,1.1385939121246338,3.5846238,0.118459694,-0.07243474572896957,-0.0098410975
1895.4833333319382,-0.5313923,-1.289368,-0.2554374,-2.439163,-0.20234059,1.5585256,0.9307176,0.04,0.039999686,-9.05463,1.144054889678955,3.5921652,0.11628106,-0.0713006928563118,-0.0096844435
1895.4999999986048,-0.5327402,-1.2906499,-0.2560853,-2.4393725,-0.20285396,1.5584946,0.93108475,0.04,0.039999694,-9.050847,1.1500238180160522,3.5998201,0.11410532,-0.07016509771347046,-0.009524959
1895.5166666652715,-0.5340628,-1.2919078,-0.25672114,-2.4395783,-0.20335779,1.558464,0.93144524,0.04,0.03999969,-9.047325,1.1553330421447754,3.6070578,0.111929804,-0.06902538985013962,-0.009365283
1895.5333333319381,-0.5353606,-1.2931421,-0.25734487,-2.4397802,-0.20385206,1.5584335,0.9317985,0.04,0.039999697,-9.043726,1.161073923110962,3.6144402,0.10975753,-0.06788798421621323,-0.009204842
1895.5499999986048,-0.5366331,-1.2943523,-0.25795656,-2.4399781,-0.20433682,1.5584033,0.93214506,0.04,0.0399997,-9.040357,1.1661655902862549,3.6213856,0.107589595,-0.06675180047750473,-0.009043402
1895.5666666652714,-0.5378805,-1.2955389,-0.25855616,-2.440172,-0.20481203,1.5583737,0.93248475,0.04,0.039999705,-9.0368395,1.1717047691345215,3.6284559,0.10542622,-0.0656178742647171,-0.008881591
1895.583333331938,-0.5391031,-1.2967018,-0.25914377,-2.4403617,-0.20527767,1.5583451,0.93281764,0.04,0.03999971,-9.033571,1.1765772104263306,3.6350656,0.10326767,-0.06448212265968323,-0.008718628
1895.5999999986047,-0.5403005,-1.2978404,-0.25971943,-2.440548,-0.2057338,1.5583178,0.9331437,0.04,0.039999723,-9.030277,1.1816363334655762,3.6416805,0.10111281,-0.06334482878446579,-0.008556778
1895.6166666652714,-0.54147315,-1.2989556,-0.26028314,-2.44073,-0.20618045,1.5582908,0.933463,0.04,0.039999716,-9.026991,1.1868482828140259,3.64825,0.09896513,-0.06220901012420654,-0.008394496
1895.633333331938,-0.5426207,-1.3000472,-0.26083487,-2.4409087,-0.20661761,1.5582641,0.9337755,0.04,0.039999727,-9.023955,1.191407561302185,3.6544387,0.09682273,-0.061075471341609955,-0.008232605
1895.6499999986047,-0.5437438,-1.3011152,-0.26137462,-2.4410832,-0.20704532,1.5582376,0.93408126,0.04,0.03999973,-9.020772,1.1964185237884521,3.6607723,0.09468844,-0.05994458124041557,-0.008069767
1895.6666666652714,-0.5448419,-1.3021598,-0.26190245,-2.4412544,-0.20746358,1.558211,0.9343804,0.04,0.039999735,-9.017867,1.2007712125778198,3.6666486,0.0925598,-0.058818332850933075,-0.007906406
1895.683333331938,-0.54591525,-1.3031808,-0.26241848,-2.441421,-0.20787247,1.5581855,0.93467265,0.04,0.03999974,-9.014865,1.205547571182251,3.6726816,0.09044006,-0.05769815295934677,-0.007742704
1895.6999999986047,-0.546964,-1.3041785,-0.26292264,-2.4415846,-0.20827198,1.5581615,0.9349583,0.04,0.039999735,-9.012041,1.2096774578094482,3.6782303,0.088329546,-0.056577518582344055,-0.0075802337
1895.7166666652713,-0.5479882,-1.305153,-0.263415,-2.4417434,-0.20866212,1.5581381,0.93523717,0.039999995,0.03999974,-9.009153,1.214233636856079,3.6839285,0.08622845,-0.055457837879657745,-0.0074178986
1895.733333331938,-0.54898804,-1.3061042,-0.26389563,-2.4419,-0.20904298,1.5581152,0.9355095,0.03999999,0.03999974,-9.006395,1.218168020248413,3.689219,0.08413677,-0.05433754250407219,-0.0072566373
1895.7499999986046,-0.5499634,-1.307032,-0.2643645,-2.442051,-0.20941456,1.5580925,0.93577516,0.04,0.039999757,-9.00383,1.2224730253219604,3.6946704,0.08205656,-0.053230367600917816,-0.007094779
1895.7666666652713,-0.5509147,-1.3079367,-0.26482186,-2.4422002,-0.20977694,1.5580697,0.9360342,0.039999995,0.039999757,-9.001101,1.2262053489685059,3.6996343,0.079986826,-0.052121203392744064,-0.0069336146
1895.783333331938,-0.55184186,-1.3088186,-0.26526752,-2.4423435,-0.2101301,1.5580469,0.9362866,0.039999995,0.03999977,-8.99876,1.230296015739441,3.7047944,0.07792965,-0.05103066936135292,-0.006771034
1895.7999999986046,-0.55274487,-1.309678,-0.26570174,-2.442485,-0.21047418,1.5580254,0.93653244,0.04,0.039999787,-8.996085,1.2338062524795532,3.7094913,0.075883895,-0.04993642866611481,-0.006611886
1895.8166666652712,-0.55362433,-1.3105145,-0.26612446,-2.4426205,-0.21080911,1.5580057,0.9367719,0.04,0.0399998,-8.993825,1.2376691102981567,3.7143605,0.07385389,-0.04885369911789894,-0.006452553
1895.8333333319379,-0.55448,-1.3113286,-0.26653594,-2.4427545,-0.21113506,1.5579864,0.93700504,0.04,0.03999985,-8.991254,1.2408640384674072,3.718745,0.071833864,-0.04776289314031601,-0.0063161706
1895.8499999986045,-0.5553121,-1.3121203,-0.26693594,-2.4428825,-0.21145202,1.5579674,0.9372316,0.04,0.039999846,-8.98926,1.2444654703140259,3.7231956,0.06982963,-0.046685341745615005,-0.0061444417
1895.8666666652712,-0.55612075,-1.3128898,-0.26732475,-2.4430091,-0.21176009,1.5579485,0.9374519,0.04,0.039999865,-8.986655,1.2478876113891602,3.727655,0.067839585,-0.04560935124754906,-0.006005377
1895.8833333319378,-0.55690634,-1.3136371,-0.26770237,-2.4431298,-0.21205926,1.5579295,0.9376659,0.04,0.039999876,-8.984895,1.2508927583694458,3.7316773,0.065866835,-0.04455004632472992,-0.005847554
1895.8999999986045,-0.55766875,-1.3143623,-0.2680689,-2.4432487,-0.21234965,1.5579106,0.93787354,0.04,0.039999902,-8.982466,1.2542744874954224,3.7358608,0.0639078,-0.04349220171570778,-0.005696499
1895.9166666652711,-0.5584081,-1.3150659,-0.26842448,-2.4433625,-0.21263137,1.5578929,0.938075,0.04,0.039999958,-8.980832,1.256899356842041,3.7396088,0.06196845,-0.04245566949248314,-0.0055518504
1895.9333333319378,-0.559125,-1.315748,-0.26876917,-2.443474,-0.21290448,1.5578772,0.9382703,0.04,0.039999947,-8.9785385,1.2601587772369385,3.7434742,0.060046244,-0.041413791477680206,-0.0053961473
1895.9499999986044,-0.5598195,-1.3164089,-0.2691031,-2.443584,-0.21316901,1.5578618,0.9384594,0.04,0.039999988,-8.976929,1.2625809907913208,3.7469578,0.058142956,-0.04038297384977341,-0.005251333
1895.966666665271,-0.56049186,-1.3170485,-0.26942632,-2.443688,-0.21342504,1.5578467,0.9386425,0.04,0.04,-8.975248,1.2654736042022705,3.7506166,0.056260303,-0.0393693670630455,-0.0051031965
1895.9833333319377,-0.5611422,-1.3176675,-0.26973903,-2.4437904,-0.21367274,1.5578315,0.9388196,0.03999999,0.04,-8.973278,1.2678605318069458,3.7538314,0.05439494,-0.038355275988578796,-0.0049555986
1895.9999999986044,-0.5617706,-1.3182657,-0.2700412,-2.443887,-0.21391213,1.5578164,0.9389907,0.039999988,0.04,-8.971778,1.270555853843689,3.7572517,0.05255193,-0.03736226260662079,-0.0048021935
1896.016666665271,-0.5623777,-1.3188434,-0.27033305,-2.443982,-0.21414334,1.5578012,0.93915606,0.03999999,0.04,-8.969942,1.272721767425537,3.7602198,0.0507284,-0.0363708958029747,-0.00465168
1896.0333333319377,-0.5629633,-1.3194005,-0.27061462,-2.4440713,-0.21436636,1.5577863,0.9393156,0.039999995,0.04,-8.968524,1.2751622200012207,3.763369,0.048927315,-0.03540024161338806,-0.004501948
1896.0499999986043,-0.5635279,-1.319938,-0.27088612,-2.4441586,-0.2145814,1.5577736,0.93946946,0.039999988,0.04,-8.966896,1.2770817279815674,3.7660716,0.0471474,-0.03443478047847748,-0.0043584416
1896.066666665271,-0.56407166,-1.3204557,-0.2711476,-2.4442453,-0.21478853,1.5577617,0.9396177,0.03999998,0.04,-8.965449,1.2793444395065308,3.7689388,0.045392144,-0.03347707912325859,-0.004215682
1896.0833333319376,-0.564595,-1.3209538,-0.27139926,-2.4443257,-0.21498787,1.5577502,0.93976027,0.039999977,0.04,-8.964537,1.2809544801712036,3.7714412,0.043663733,-0.03254244104027748,-0.0040746266
1896.0999999986043,-0.5650983,-1.3214325,-0.27164117,-2.444405,-0.2151795,1.5577389,0.9398973,0.03999997,0.04,-8.9628315,1.2828863859176636,3.7739396,0.0419572,-0.03160696104168892,-0.003935565
1896.116666665271,-0.5655815,-1.3218927,-0.27187356,-2.4444785,-0.21536352,1.5577276,0.9400289,0.03999996,0.04,-8.961826,1.2847743034362793,3.776466,0.040278036,-0.030698228627443314,-0.0037974191
1896.1333333319376,-0.5660453,-1.3223338,-0.27209654,-2.4445505,-0.21554007,1.5577163,0.9401552,0.03999995,0.04,-8.960331,1.2862895727157593,3.7786534,0.038623124,-0.029790056869387627,-0.003663486
1896.1499999986042,-0.5664896,-1.3227568,-0.2723103,-2.4446213,-0.21570928,1.5577049,0.9402763,0.03999995,0.04,-8.959404,1.287990689277649,3.7809336,0.036996048,-0.02890784852206707,-0.0035292322
1896.166666665271,-0.56691486,-1.323162,-0.27251488,-2.4446862,-0.21587136,1.5576938,0.9403922,0.039999947,0.04,-8.958653,1.289180040359497,3.7828817,0.035398923,-0.028049468994140625,-0.003395304
1896.1833333319375,-0.56732154,-1.3235495,-0.27271047,-2.4447503,-0.21602623,1.5576842,0.940503,0.039999936,0.04,-8.957171,1.2908082008361816,3.7849443,0.033828422,-0.027192022651433945,-0.0032673855
1896.1999999986042,-0.56771004,-1.323919,-0.27289733,-2.4448104,-0.2161742,1.5576761,0.94060886,0.03999993,0.04,-8.956599,1.2917768955230713,3.7866526,0.032289907,-0.026356535032391548,-0.0031402607
1896.2166666652708,-0.56808066,-1.324272,-0.27307555,-2.4448671,-0.21631536,1.5576682,0.9407098,0.03999993,0.04,-8.955466,1.2931758165359497,3.7884247,0.030779134,-0.02552838996052742,-0.0030160886
1896.2333333319375,-0.5684337,-1.3246078,-0.27324536,-2.4449227,-0.21644981,1.5576607,0.940806,0.03999993,0.04,-8.954649,1.2940584421157837,3.7899919,0.02929917,-0.024713901802897453,-0.0028951596
1896.2499999986042,-0.56876945,-1.3249277,-0.27340695,-2.4449744,-0.2165777,1.5576532,0.9408975,0.03999992,0.04,-8.953985,1.2951892614364624,3.7916152,0.027852528,-0.02392413839697838,-0.0027752202
1896.2666666652708,-0.56908846,-1.3252316,-0.27356032,-2.4450233,-0.21669915,1.5576457,0.94098437,0.039999917,0.04,-8.95322,1.2959163188934326,3.7929575,0.026437588,-0.0231486763805151,-0.0026590738
1896.2833333319375,-0.5693911,-1.3255197,-0.27370587,-2.4450712,-0.2168144,1.5576382,0.94106686,0.039999913,0.04,-8.952455,1.2968968152999878,3.7944224,0.02505664,-0.02239168994128704,-0.002545159
1896.299999998604,-0.56967765,-1.3257927,-0.2738438,-2.4451158,-0.21692355,1.5576307,0.941145,0.03999991,0.04,-8.952146,1.2973883152008057,3.7955391,0.023710735,-0.021662669256329536,-0.002432348
1896.3166666652708,-0.5699486,-1.3260509,-0.27397412,-2.445157,-0.21702673,1.5576234,0.9412188,0.0399999,0.04,-8.951405,1.2982263565063477,3.7967882,0.022398867,-0.0209494661539793,-0.002323347
1896.3333333319374,-0.5702046,-1.3262945,-0.27409723,-2.4451973,-0.21712413,1.5576162,0.9412885,0.0399999,0.04,-8.950865,1.2986040115356445,3.7977316,0.021123001,-0.020252609625458717,-0.0022175687
1896.349999998604,-0.57044566,-1.3265245,-0.2742132,-2.4452355,-0.21721593,1.5576116,0.94135416,0.039999895,0.04,-8.950589,1.2990522384643555,3.7986937,0.01988438,-0.019583100453019142,-0.0021134145
1896.3666666652707,-0.5706724,-1.3267405,-0.27432227,-2.445269,-0.21730232,1.5576073,0.94141597,0.03999989,0.04,-8.950057,1.2995644807815552,3.7996314,0.018684374,-0.018923677504062653,-0.00201445
1896.3833333319374,-0.5708854,-1.3269434,-0.27442473,-2.445302,-0.21738347,1.5576031,0.941474,0.03999989,0.04,-8.949495,1.29976487159729,3.8002958,0.017520996,-0.01827687956392765,-0.0019193959
1896.399999998604,-0.57108504,-1.3271337,-0.27452073,-2.4453344,-0.21745948,1.5575992,0.94152844,0.03999988,0.04,-8.949282,1.3001325130462646,3.8011317,0.016397744,-0.017657605931162834,-0.0018250821
1896.4166666652707,-0.5712717,-1.3273115,-0.27461058,-2.4453633,-0.2175306,1.5575954,0.94157934,0.03999988,0.04,-8.949289,1.3000589609146118,3.8016791,0.015316569,-0.017069069668650627,-0.0017349306
1896.4333333319373,-0.571446,-1.3274773,-0.2746944,-2.4453888,-0.21759698,1.5575917,0.94162685,0.039999872,0.04,-8.9487915,1.3003400564193726,3.8023033,0.0142750135,-0.016496099531650543,-0.0016488364
1896.449999998604,-0.5716084,-1.327632,-0.2747726,-2.4454138,-0.21765883,1.557588,0.94167113,0.039999876,0.04,-8.948524,1.3002452850341797,3.8026955,0.013274957,-0.01594248227775097,-0.0015657478
1896.4666666652706,-0.5717595,-1.327776,-0.2748453,-2.4454386,-0.21771638,1.5575843,0.9417122,0.039999872,0.04,-8.948473,1.3002921342849731,3.8032036,0.01231827,-0.01541849970817566,-0.0014862459
1896.4833333319373,-0.5718996,-1.3279097,-0.27491274,-2.4454608,-0.21776977,1.5575806,0.9417504,0.039999865,0.04,-8.9486065,1.3000003099441528,3.8034844,0.011407249,-0.014925625175237656,-0.0014089885
1896.499999998604,-0.5720294,-1.3280337,-0.2749752,-2.4454799,-0.21781924,1.5575769,0.94178575,0.03999987,0.04,-8.948377,1.2999539375305176,3.8038208,0.010540579,-0.014453978277742863,-0.001335702
1896.5166666652706,-0.57214916,-1.3281482,-0.27503306,-2.4454978,-0.21786496,1.5575733,0.9418186,0.03999986,0.04,-8.94819,1.299629807472229,3.803952,0.009717546,-0.014001172035932541,-0.0012676611
1896.5333333319372,-0.5722598,-1.3282537,-0.2750864,-2.4455152,-0.21790718,1.5575699,0.94184864,0.039999865,0.04,-8.948199,1.299416184425354,3.8041651,0.008942201,-0.013576053082942963,-0.0012033603
1896.5499999986039,-0.5723618,-1.3283511,-0.27513555,-2.4455323,-0.2179461,1.5575665,0.9418764,0.03999986,0.04,-8.94844,1.2989037036895752,3.8041797,0.008216145,-0.013183972798287868,-0.0011421046
1896.5666666652705,-0.5724558,-1.3284409,-0.27518076,-2.4455476,-0.21798195,1.5575633,0.94190204,0.03999986,0.04,-8.94858,1.2985457181930542,3.8042588,0.007538764,-0.012821811251342297,-0.0010839987
1896.5833333319372,-0.5725423,-1.3285233,-0.2752222,-2.4455605,-0.21801494,1.5575602,0.94192564,0.039999846,0.04,-8.948642,1.2979992628097534,3.8041775,0.0069100447,-0.012484229169785976,-0.0010294915
1896.5999999986038,-0.5726219,-1.328599,-0.2752606,-2.445572,-0.2180453,1.5575597,0.94194734,0.039999843,0.04,-8.948615,1.2974872589111328,3.8040915,0.0063298875,-0.01216939277946949,-0.0009808092
1896.6166666652705,-0.5726952,-1.328669,-0.275296,-2.4455824,-0.21807322,1.5575593,0.9419673,0.03999985,0.04,-8.9486,1.2971079349517822,3.8039973,0.00579512,-0.011867580004036427,-0.0009380377
1896.6333333319371,-0.57276267,-1.3287331,-0.27532855,-2.4455924,-0.2180989,1.5575588,0.9419858,0.039999846,0.04,-8.948707,1.29662024974823,3.8039415,0.0053024013,-0.011588400229811668,-0.00089781015
1896.6499999986038,-0.57282466,-1.3287926,-0.27535832,-2.4456022,-0.21812253,1.5575583,0.94200295,0.03999985,0.04,-8.948847,1.2962480783462524,3.8039315,0.0048489086,-0.011334743350744247,-0.0008615714
1896.6666666652704,-0.5728816,-1.3288469,-0.27538595,-2.4456117,-0.21814424,1.5575578,0.9420182,0.039999846,0.04,-8.948993,1.2957991361618042,3.8038895,0.004432401,-0.011101428419351578,-0.0008265154
1896.683333331937,-0.57293403,-1.328897,-0.27541122,-2.4456213,-0.21816427,1.5575575,0.9420325,0.039999846,0.04,-8.949162,1.2954835891723633,3.803853,0.0040519857,-0.010891757905483246,-0.00079676043
1896.6999999986037,-0.57298225,-1.3289431,-0.27543443,-2.4456303,-0.21818264,1.5575571,0.94204587,0.039999843,0.04,-8.94934,1.295101284980774,3.8037877,0.003701601,-0.010700900107622147,-0.00076507713
1896.7166666652704,-0.57302666,-1.3289856,-0.27545583,-2.4456377,-0.21819958,1.5575567,0.9420577,0.039999843,0.04,-8.9494095,1.2948163747787476,3.8037772,0.0033789463,-0.010526617988944054,-0.0007389859
1896.733333331937,-0.5730675,-1.3290247,-0.27547553,-2.445644,-0.21821517,1.5575564,0.9420692,0.03999984,0.04,-8.949355,1.2945526838302612,3.8037148,0.0030827916,-0.01036232803016901,-0.00071413844
1896.7499999986037,-0.5731051,-1.3290604,-0.27549362,-2.4456494,-0.21822953,1.557556,0.9420791,0.03999984,0.04,-8.949315,1.294357180595398,3.803704,0.0028073331,-0.010208257474005222,-0.0006925758
1896.7666666652703,-0.5731395,-1.3290939,-0.2755103,-2.445654,-0.21824273,1.5575557,0.94208866,0.03999984,0.04,-8.949369,1.2941012382507324,3.8036468,0.0025562681,-0.01006659958511591,-0.0006707396
1896.783333331937,-0.5731712,-1.3291237,-0.2755257,-2.445658,-0.21825491,1.5575553,0.94209754,0.03999984,0.04,-8.949298,1.2939462661743164,3.8036804,0.0023237527,-0.00993142370134592,-0.0006532079
1896.7999999986037,-0.57320064,-1.3291519,-0.27553973,-2.4456618,-0.21826607,1.5575551,0.9421052,0.039999835,0.04,-8.949426,1.2937015295028687,3.8035805,0.002108894,-0.009811356663703918,-0.00063631544
1896.8166666652703,-0.57322735,-1.3291777,-0.2755527,-2.4456654,-0.21827638,1.5575548,0.9421128,0.039999835,0.04,-8.949407,1.2935669422149658,3.8036392,0.0019129897,-0.009697587229311466,-0.0006203025
1896.833333331937,-0.5732517,-1.3292015,-0.27556467,-2.4456687,-0.21828584,1.5575546,0.9421198,0.039999835,0.04,-8.949478,1.2933648824691772,3.8036034,0.0017314904,-0.009593509137630463,-0.00060622336
1896.8499999986036,-0.57327414,-1.3292234,-0.2755757,-2.4456716,-0.21829458,1.5575544,0.9421255,0.03999983,0.04,-8.949531,1.2932109832763672,3.803583,0.0015653843,-0.009498460218310356,-0.00059379137
1896.8666666652703,-0.57329476,-1.3292437,-0.2755858,-2.4456742,-0.21830262,1.5575541,0.9421312,0.039999835,0.04,-8.949521,1.2930949926376343,3.803592,0.0014156427,-0.009409740567207336,-0.0005832675
1896.883333331937,-0.5733143,-1.3292619,-0.2755951,-2.4456766,-0.21831001,1.5575539,0.94213694,0.039999835,0.04,-8.949557,1.2929556369781494,3.8035772,0.0012758384,-0.009327554143965244,-0.0005720412
1896.8999999986036,-0.5733323,-1.3292792,-0.2756037,-2.445679,-0.21831684,1.5575536,0.94214207,0.039999835,0.04,-8.949603,1.2928717136383057,3.8035684,0.0011426454,-0.009253816679120064,-0.0005615992
1896.9166666652702,-0.5733487,-1.3292947,-0.2756116,-2.445681,-0.21832305,1.5575534,0.9421459,0.039999835,0.04,-8.949621,1.2927629947662354,3.8035817,0.0010207249,-0.009184365160763264,-0.00055200444
1896.9333333319369,-0.5733633,-1.329309,-0.27561885,-2.4456832,-0.21832879,1.5575532,0.9421497,0.039999835,0.04,-8.949674,1.2926571369171143,3.8035505,0.0009134381,-0.009122258052229881,-0.0005422991
1896.9499999986035,-0.5733774,-1.3293226,-0.2756256,-2.4456854,-0.21833403,1.557553,0.9421535,0.039999835,0.04,-8.949725,1.2925201654434204,3.8035324,0.0008155981,-0.009065992198884487,-0.00053468114
1896.9666666652702,-0.57338995,-1.3293349,-0.2756317,-2.4456875,-0.21833888,1.5575529,0.9421573,0.039999835,0.04,-8.949722,1.2924902439117432,3.8035693,0.0007214732,-0.00901257898658514,-0.00052832376
1896.9833333319368,-0.573402,-1.3293455,-0.27563736,-2.4456894,-0.21834338,1.5575528,0.94216114,0.03999984,0.04,-8.949787,1.2923645973205566,3.8035345,0.00063543156,-0.008965125307440758,-0.00052158063
1896.9999999986035,-0.57341266,-1.3293558,-0.2756425,-2.4456913,-0.21834749,1.5575527,0.9421644,0.03999984,0.04,-8.734938,1.3090224266052246,3.831841,0.0,-0.0,0.0
1897.0166666652701,-0.57341266,-1.3293558,-0.2756425,-2.4456913,-0.21834749,1.5575527,0.9421644,0.03999984,0.04,-8.950375,1.2908905744552612,3.802698,0.0,-0.0,0.0
1897.0333333319368,-0.57341266,-1.3293558,-0.2756425,-2.4456913,-0.21834749,1.5575527,0.9421644,0.03999984,0.04,-8.950375,1.2908905744552612,3.802698,0.0,-0.0,0.0
1897.0499999986034,-0.57341266,-1.3293558,-0.2756425,-2.4456913,-0.21834749,1.5575527,0.9421644,0.03999984,0.04,-8.950375,1.2908905744552612,3.802698,0.0,-0.0,0.0
1897.06666666527,-0.57341266,-1.3293558,-0.2756425,-2.4456913,-0.21834749,1.5575527,0.9421644,0.03999984,0.04,-8.950375,1.2908905744552612,3.802698,0.0,-0.0,0.0
1897.0833333319367,-0.57341266,-1.3293558,-0.2756425,-2.4456913,-0.21834749,1.5575527,0.9421644,0.03999984,0.04,-8.950375,1.2908905744552612,3.802698,0.0,-0.0,0.0
1897.0999999986034,-0.57341266,-1.3293558,-0.2756425,-2.4456913,-0.21834749,1.5575527,0.9421644,0.03999984,0.04,-8.950375,1.2908905744552612,3.802698,0.0,-0.0,0.0
1897.11666666527,-0.57341266,-1.3293558,-0.2756425,-2.4456913,-0.21834749,1.5575527,0.9421644,0.03999984,0.04,-8.950375,1.2908905744552612,3.802698,0.0,-0.0,0.0
1897.1333333319367,-0.57341266,-1.3293558,-0.2756425,-2.4456913,-0.21834749,1.5575527,0.9421644,0.03999984,0.04,-8.950375,1.2908905744552612,3.802698,0.0,-0.0,0.0
1897.1499999986033,-0.57341266,-1.3293558,-0.2756425,-2.4456913,-0.21834749,1.5575527,0.9421644,0.03999984,0.04,-8.950375,1.2908905744552612,3.802698,0.0,-0.0,0.0
1897.16666666527,-0.57341266,-1.3293558,-0.2756425,-2.4456913,-0.21834749,1.5575527,0.9421644,0.03999984,0.04,-8.950375,1.2908905744552612,3.802698,0.0,-0.0,0.0
1897.1833333319366,-0.57341266,-1.3293558,-0.2756425,-2.4456913,-0.21834749,1.5575527,0.9421644,0.03999984,0.04,-8.950375,1.2908905744552612,3.802698,0.0,-0.0,0.0
1897.1999999986033,-0.57341266,-1.3293558,-0.2756425,-2.4456913,-0.21834749,1.5575527,0.9421644,0.03999984,0.04,-8.950375,1.2908905744552612,3.802698,0.0,-0.0,0.0
1897.21666666527,-0.57341266,-1.3293558,-0.2756425,-2.4456913,-0.21834749,1.5575527,0.9421644,0.03999984,0.04,-8.950375,1.2908905744552612,3.802698,0.0,-0.0,0.0
1897.2333333319366,-0.57341266,-1.3293558,-0.2756425,-2.4456913,-0.21834749,1.5575527,0.9421644,0.03999984,0.04,-8.950375,1.2908905744552612,3.802698,0.0,-0.0,0.0
1897.2499999986032,-0.57341266,-1.3293558,-0.2756425,-2.4456913,-0.21834749,1.5575527,0.9421644,0.03999984,0.04,-8.950375,1.2908905744552612,3.802698,0.0,-0.0,0.0
1897.26666666527,-0.57341266,-1.3293558,-0.2756425,-2.4456913,-0.21834749,1.5575527,0.9421644,0.03999984,0.04,-8.950375,1.2908905744552612,3.802698,0.0,-0.0,0.0
1897.2833333319365,-0.57341266,-1.3293558,-0.2756425,-2.4456913,-0.21834749,1.5575527,0.9421644,0.03999984,0.04,-8.950375,1.2908905744552612,3.802698,0.0,-0.0,0.0
1897.2999999986032,-0.57341266,-1.3293558,-0.2756425,-2.4456913,-0.21834749,1.5575527,0.9421644,0.03999984,0.04,-8.950375,1.2908905744552612,3.802698,0.0,-0.0,0.0
1897.3166666652698,-0.57341266,-1.3293558,-0.2756425,-2.4456913,-0.21834749,1.5575527,0.9421644,0.03999984,0.04,-8.950375,1.2908905744552612,3.802698,0.0,-0.0,0.0
1897.3333333319365,-0.57341266,-1.3293558,-0.2756425,-2.4456913,-0.21834749,1.5575527,0.9421644,0.03999984,0.04,-8.950375,1.2908905744552612,3.802698,0.0,-0.0,0.0
1897.3499999986032,-0.57341266,-1.3293558,-0.2756425,-2.4456913,-0.21834749,1.5575527,0.9421644,0.03999984,0.04,-8.950375,1.2908905744552612,3.802698,0.0,-0.0,0.0
1897.3666666652698,-0.57341266,-1.3293558,-0.2756425,-2.4456913,-0.21834749,1.5575527,0.9421644,0.03999984,0.04,-8.950375,1.2908905744552612,3.802698,0.0,-0.0,0.0
1897.3833333319365,-0.57341266,-1.3293558,-0.2756425,-2.4456913,-0.21834749,1.5575527,0.9421644,0.03999984,0.04,-8.950375,1.2908905744552612,3.802698,0.0,-0.0,0.0
1897.399999998603,-0.57341266,-1.3293558,-0.2756425,-2.4456913,-0.21834749,1.5575527,0.9421644,0.03999984,0.04,-8.950375,1.2908905744552612,3.802698,0.0,-0.0,0.0
1897.4166666652698,-0.57341266,-1.3293558,-0.2756425,-2.4456913,-0.21834749,1.5575527,0.9421644,0.03999984,0.04,-8.950375,1.2908905744552612,3.802698,0.0,-0.0,0.0
1897.4333333319364,-0.57341266,-1.3293558,-0.2756425,-2.4456913,-0.21834749,1.5575527,0.9421644,0.03999984,0.04,-8.950375,1.2908905744552612,3.802698,0.0,-0.0,0.0
1897.449999998603,-0.57341266,-1.3293558,-0.2756425,-2.4456913,-0.21834749,1.5575527,0.9421644,0.03999984,0.04,-8.950375,1.2908905744552612,3.802698,0.0,-0.0,0.0
1897.4666666652697,-0.57341266,-1.3293558,-0.2756425,-2.4456913,-0.21834749,1.5575527,0.9421644,0.03999984,0.04,-8.950375,1.2908905744552612,3.802698,0.0,-0.0,0.0
1897.4833333319364,-0.57341266,-1.3293558,-0.2756425,-2.4456913,-0.21834749,1.5575527,0.9421644,0.03999984,0.04,-8.950375,1.2908905744552612,3.802698,0.0,-0.0,0.0
1897.499999998603,-0.57341266,-1.3293558,-0.2756425,-2.4456913,-0.21834749,1.5575527,0.9421644,0.03999984,0.04,-8.950375,1.2908905744552612,3.802698,0.0,-0.0,0.0
1897.5166666652697,-0.57341266,-1.3293558,-0.2756425,-2.4456913,-0.21834749,1.5575527,0.9421644,0.03999984,0.04,-8.950375,1.2908905744552612,3.802698,0.0,-0.0,0.0
1897.5333333319363,-0.57341266,-1.3293558,-0.2756425,-2.4456913,-0.21834749,1.5575527,0.9421644,0.03999984,0.04,-8.950375,1.2908905744552612,3.802698,0.0,-0.0,0.0
1897.549999998603,-0.57341266,-1.3293558,-0.2756425,-2.4456913,-0.21834749,1.5575527,0.9421644,0.03999984,0.04,-8.950375,1.2908905744552612,3.802698,0.0,-0.0,0.0
1897.5666666652696,-0.57341266,-1.3293558,-0.2756425,-2.4456913,-0.21834749,1.5575527,0.9421644,0.03999984,0.04,-8.950375,1.2908905744552612,3.802698,0.0,-0.0,0.0
1897.5833333319363,-0.57341266,-1.3293558,-0.2756425,-2.4456913,-0.21834749,1.5575527,0.9421644,0.03999984,0.04,-8.950375,1.2908905744552612,3.802698,0.0,-0.0,0.0
1897.599999998603,-0.57341266,-1.3293558,-0.2756425,-2.4456913,-0.21834749,1.5575527,0.9421644,0.03999984,0.04,-8.950375,1.2908905744552612,3.802698,0.0,-0.0,0.0
1897.6166666652696,-0.57341266,-1.3293558,-0.2756425,-2.4456913,-0.21834749,1.5575527,0.9421644,0.03999984,0.04,-8.950375,1.2908905744552612,3.802698,0.0,-0.0,0.0
1897.6333333319362,-0.57341266,-1.3293558,-0.2756425,-2.4456913,-0.21834749,1.5575527,0.9421644,0.03999984,0.04,-8.950375,1.2908905744552612,3.802698,0.0,-0.0,0.0
1897.6499999986029,-0.57341266,-1.3293558,-0.2756425,-2.4456913,-0.21834749,1.5575527,0.9421644,0.03999984,0.04,-8.950375,1.2908905744552612,3.802698,0.0,-0.0,0.0
1897.6666666652695,-0.57341266,-1.3293558,-0.2756425,-2.4456913,-0.21834749,1.5575527,0.9421644,0.03999984,0.04,-8.950375,1.2908905744552612,3.802698,0.0,-0.0,0.0
1897.6833333319362,-0.57341266,-1.3293558,-0.2756425,-2.4456913,-0.21834749,1.5575527,0.9421644,0.03999984,0.04,-8.950375,1.2908905744552612,3.802698,0.0,-0.0,0.0
1897.6999999986028,-0.57341266,-1.3293558,-0.2756425,-2.4456913,-0.21834749,1.5575527,0.9421644,0.03999984,0.04,-8.950375,1.2908905744552612,3.802698,0.0,-0.0,0.0
1897.7166666652695,-0.57341266,-1.3293558,-0.2756425,-2.4456913,-0.21834749,1.5575527,0.9421644,0.03999984,0.04,-8.950375,1.2908905744552612,3.802698,0.0,-0.0,0.0
1897.7333333319361,-0.57341266,-1.3293558,-0.2756425,-2.4456913,-0.21834749,1.5575527,0.9421644,0.03999984,0.04,-8.950375,1.2908905744552612,3.802698,0.0,-0.0,0.0
1897.7499999986028,-0.57341266,-1.3293558,-0.2756425,-2.4456913,-0.21834749,1.5575527,0.9421644,0.03999984,0.04,-8.950375,1.2908905744552612,3.802698,0.0,-0.0,0.0
1897.7666666652694,-0.57341266,-1.3293558,-0.2756425,-2.4456913,-0.21834749,1.5575527,0.9421644,0.03999984,0.04,-8.950375,1.2908905744552612,3.802698,0.0,-0.0,0.0
1897.783333331936,-0.57341266,-1.3293558,-0.2756425,-2.4456913,-0.21834749,1.5575527,0.9421644,0.03999984,0.04,-8.950375,1.2908905744552612,3.802698,0.0,-0.0,0.0
1897.7999999986027,-0.57341266,-1.3293558,-0.2756425,-2.4456913,-0.21834749,1.5575527,0.9421644,0.03999984,0.04,-8.950375,1.2908905744552612,3.802698,0.0,-0.0,0.0
1897.8166666652694,-0.57341266,-1.3293558,-0.2756425,-2.4456913,-0.21834749,1.5575527,0.9421644,0.03999984,0.04,-8.950375,1.2908905744552612,3.802698,0.0,-0.0,0.0
1897.833333331936,-0.57341266,-1.3293558,-0.2756425,-2.4456913,-0.21834749,1.5575527,0.9421644,0.03999984,0.04,-8.950375,1.2908905744552612,3.802698,0.0,-0.0,0.0
1897.8499999986027,-0.57341266,-1.3293558,-0.2756425,-2.4456913,-0.21834749,1.5575527,0.9421644,0.03999984,0.04,-8.950375,1.2908905744552612,3.802698,0.0,-0.0,0.0
1897.8666666652693,-0.57341266,-1.3293558,-0.2756425,-2.4456913,-0.21834749,1.5575527,0.9421644,0.03999984,0.04,-8.950375,1.2908905744552612,3.802698,0.0,-0.0,0.0
1897.883333331936,-0.57341266,-1.3293558,-0.2756425,-2.4456913,-0.21834749,1.5575527,0.9421644,0.03999984,0.04,-8.950375,1.2908905744552612,3.802698,0.0,-0.0,0.0
1897.8999999986027,-0.57341266,-1.3293558,-0.2756425,-2.4456913,-0.21834749,1.5575527,0.9421644,0.03999984,0.04,-8.950375,1.2908905744552612,3.802698,0.0,-0.0,0.0
1897.9166666652693,-0.57341266,-1.3293558,-0.2756425,-2.4456913,-0.21834749,1.5575527,0.9421644,0.03999984,0.04,-8.950375,1.2908905744552612,3.802698,0.0,-0.0,0.0
1897.933333331936,-0.57341266,-1.3293558,-0.2756425,-2.4456913,-0.21834749,1.5575527,0.9421644,0.03999984,0.04,-8.950375,1.2908905744552612,3.802698,0.0,-0.0,0.0
1897.9499999986026,-0.57341266,-1.3293558,-0.2756425,-2.4456913,-0.21834749,1.5575527,0.9421644,0.03999984,0.04,-8.950375,1.2908905744552612,3.802698,0.0,-0.0,0.0
1897.9666666652693,-0.57341266,-1.3293558,-0.2756425,-2.4456913,-0.21834749,1.5575527,0.9421644,0.03999984,0.04,-8.950375,1.2908905744552612,3.802698,0.0,-0.0,0.0
1897.983333331936,-0.57341266,-1.3293558,-0.2756425,-2.4456913,-0.21834749,1.5575527,0.9421644,0.03999984,0.04,-8.950375,1.2908905744552612,3.802698,0.0,-0.0,0.0
1897.9999999986026,-0.57341266,-1.3293558,-0.2756425,-2.4456913,-0.21834749,1.5575527,0.9421644,0.03999984,0.04,-8.950375,1.2908905744552612,3.802698,0.0,-0.0,0.0
1898.0166666652692,-0.57341266,-1.3293558,-0.2756425,-2.4456913,-0.21834749,1.5575527,0.9421644,0.03999984,0.04,-8.950375,1.2908905744552612,3.802698,0.0,-0.0,0.0
1898.0333333319359,-0.57341266,-1.3293558,-0.2756425,-2.4456913,-0.21834749,1.5575527,0.9421644,0.03999984,0.04,-8.950375,1.2908905744552612,3.802698,0.0,-0.0,0.0
1898.0499999986025,-0.57341266,-1.3293558,-0.2756425,-2.4456913,-0.21834749,1.5575527,0.9421644,0.03999984,0.04,-8.950375,1.2908905744552612,3.802698,0.0,-0.0,0.0
1898.0666666652692,-0.57341266,-1.3293558,-0.2756425,-2.4456913,-0.21834749,1.5575527,0.9421644,0.03999984,0.04,-8.950375,1.2908905744552612,3.802698,0.0,-0.0,0.0
1898.0833333319358,-0.57341266,-1.3293558,-0.2756425,-2.4456913,-0.21834749,1.5575527,0.9421644,0.03999984,0.04,-8.950375,1.2908905744552612,3.802698,0.0,-0.0,0.0
1898.0999999986025,-0.57341266,-1.3293558,-0.2756425,-2.4456913,-0.21834749,1.5575527,0.9421644,0.03999984,0.04,-8.950375,1.2908905744552612,3.802698,0.0,-0.0,0.0
1898.1166666652691,-0.57341266,-1.3293558,-0.2756425,-2.4456913,-0.21834749,1.5575527,0.9421644,0.03999984,0.04,-8.950375,1.2908905744552612,3.802698,0.0,-0.0,0.0
1898.1333333319358,-0.57341266,-1.3293558,-0.2756425,-2.4456913,-0.21834749,1.5575527,0.9421644,0.03999984,0.04,-8.950375,1.2908905744552612,3.802698,0.0,-0.0,0.0
1898.1499999986024,-0.57341266,-1.3293558,-0.2756425,-2.4456913,-0.21834749,1.5575527,0.9421644,0.03999984,0.04,-8.950375,1.2908905744552612,3.802698,0.0,-0.0,0.0
1898.166666665269,-0.57341266,-1.3293558,-0.2756425,-2.4456913,-0.21834749,1.5575527,0.9421644,0.03999984,0.04,-8.950375,1.2908905744552612,3.802698,0.0,-0.0,0.0
1898.1833333319357,-0.57341266,-1.3293558,-0.2756425,-2.4456913,-0.21834749,1.5575527,0.9421644,0.03999984,0.04,-8.950375,1.2908905744552612,3.802698,0.0,-0.0,0.0
1898.1999999986024,-0.57341266,-1.3293558,-0.2756425,-2.4456913,-0.21834749,1.5575527,0.9421644,0.03999984,0.04,-8.950375,1.2908905744552612,3.802698,0.0,-0.0,0.0
1898.216666665269,-0.57341266,-1.3293558,-0.2756425,-2.4456913,-0.21834749,1.5575527,0.9421644,0.03999984,0.04,-8.950375,1.2908905744552612,3.802698,0.0,-0.0,0.0
1898.2333333319357,-0.57341266,-1.3293558,-0.2756425,-2.4456913,-0.21834749,1.5575527,0.9421644,0.03999984,0.04,-8.950375,1.2908905744552612,3.802698,0.0,-0.0,0.0
1898.2499999986023,-0.57341266,-1.3293558,-0.2756425,-2.4456913,-0.21834749,1.5575527,0.9421644,0.03999984,0.04,-8.950375,1.2908905744552612,3.802698,0.0,-0.0,0.0
1898.266666665269,-0.57341266,-1.3293558,-0.2756425,-2.4456913,-0.21834749,1.5575527,0.9421644,0.03999984,0.04,-8.950375,1.2908905744552612,3.802698,0.0,-0.0,0.0
1898.2833333319356,-0.57341266,-1.3293558,-0.2756425,-2.4456913,-0.21834749,1.5575527,0.9421644,0.03999984,0.04,-8.950375,1.2908905744552612,3.802698,0.0,-0.0,0.0
1898.2999999986023,-0.57341266,-1.3293558,-0.2756425,-2.4456913,-0.21834749,1.5575527,0.9421644,0.03999984,0.04,-8.950375,1.2908905744552612,3.802698,0.0,-0.0,0.0
1898.316666665269,-0.57341266,-1.3293558,-0.2756425,-2.4456913,-0.21834749,1.5575527,0.9421644,0.03999984,0.04,-8.950375,1.2908905744552612,3.802698,0.0,-0.0,0.0
1898.3333333319356,-0.57341266,-1.3293558,-0.2756425,-2.4456913,-0.21834749,1.5575527,0.9421644,0.03999984,0.04,-8.950375,1.2908905744552612,3.802698,0.0,-0.0,0.0
1898.3499999986022,-0.57341266,-1.3293558,-0.2756425,-2.4456913,-0.21834749,1.5575527,0.9421644,0.03999984,0.04,-8.950375,1.2908905744552612,3.802698,0.0,-0.0,0.0
1898.366666665269,-0.57341266,-1.3293558,-0.2756425,-2.4456913,-0.21834749,1.5575527,0.9421644,0.03999984,0.04,-8.950375,1.2908905744552612,3.802698,0.0,-0.0,0.0
1898.3833333319355,-0.57341266,-1.3293558,-0.2756425,-2.4456913,-0.21834749,1.5575527,0.9421644,0.03999984,0.04,-8.950375,1.2908905744552612,3.802698,0.0,-0.0,0.0
1898.3999999986022,-0.57341266,-1.3293558,-0.2756425,-2.4456913,-0.21834749,1.5575527,0.9421644,0.03999984,0.04,-8.950375,1.2908905744552612,3.802698,0.0,-0.0,0.0
1898.4166666652688,-0.57341266,-1.3293558,-0.2756425,-2.4456913,-0.21834749,1.5575527,0.9421644,0.03999984,0.04,-8.950375,1.2908905744552612,3.802698,0.0,-0.0,0.0
1898.4333333319355,-0.57341266,-1.3293558,-0.2756425,-2.4456913,-0.21834749,1.5575527,0.9421644,0.03999984,0.04,-8.950375,1.2908905744552612,3.802698,0.0,-0.0,0.0
1898.4499999986022,-0.57341266,-1.3293558,-0.2756425,-2.4456913,-0.21834749,1.5575527,0.9421644,0.03999984,0.04,-8.950375,1.2908905744552612,3.802698,0.0,-0.0,0.0
1898.4666666652688,-0.57341266,-1.3293558,-0.2756425,-2.4456913,-0.21834749,1.5575527,0.9421644,0.03999984,0.04,-8.950375,1.2908905744552612,3.802698,0.0,-0.0,0.0
1898.4833333319355,-0.57341266,-1.3293558,-0.2756425,-2.4456913,-0.21834749,1.5575527,0.9421644,0.03999984,0.04,-8.950375,1.2908905744552612,3.802698,0.0,-0.0,0.0
1898.499999998602,-0.57341266,-1.3293558,-0.2756425,-2.4456913,-0.21834749,1.5575527,0.9421644,0.03999984,0.04,-8.950375,1.2908905744552612,3.802698,0.0,-0.0,0.0
1898.5166666652688,-0.57341266,-1.3293558,-0.2756425,-2.4456913,-0.21834749,1.5575527,0.9421644,0.03999984,0.04,-8.950375,1.2908905744552612,3.802698,0.0,-0.0,0.0
1898.5333333319354,-0.57341266,-1.3293558,-0.2756425,-2.4456913,-0.21834749,1.5575527,0.9421644,0.03999984,0.04,-8.950375,1.2908905744552612,3.802698,0.0,-0.0,0.0
1898.549999998602,-0.57341266,-1.3293558,-0.2756425,-2.4456913,-0.21834749,1.5575527,0.9421644,0.03999984,0.04,-8.950375,1.2908905744552612,3.802698,0.0,-0.0,0.0
1898.5666666652687,-0.57341266,-1.3293558,-0.2756425,-2.4456913,-0.21834749,1.5575527,0.9421644,0.03999984,0.04,-8.950375,1.2908905744552612,3.802698,0.0,-0.0,0.0
1898.5833333319354,-0.57341266,-1.3293558,-0.2756425,-2.4456913,-0.21834749,1.5575527,0.9421644,0.03999984,0.04,-8.950375,1.2908905744552612,3.802698,0.0,-0.0,0.0
1898.599999998602,-0.57341266,-1.3293558,-0.2756425,-2.4456913,-0.21834749,1.5575527,0.9421644,0.03999984,0.04,-8.950375,1.2908905744552612,3.802698,0.0,-0.0,0.0
