rsonawane2002/My_IMU/logs_2/traj_364/imu_364.csv
time,j1,j2,j3,j4,j5,j6,j7,gripper1,gripper2,imu_ax,imu_ay,imu_az,imu_gx,imu_gy,imu_gz
1249.6833333325255,0.00016700293,-0.785875,4.0107683e-05,-2.3551247,9.29385e-05,1.570997,0.786,0.04,0.04,-9.549861,-0.03956171125173569,0.07189454,2.4544798e-07,-0.0011641273740679026,7.254552e-07
1249.6999999991922,0.00016701543,-0.78576016,4.012104e-05,-2.3552213,9.296863e-05,1.5709941,0.786,0.04,0.04,-9.834496,0.0006637249607592821,0.009062198,-6.9256413e-07,-0.002238460350781679,4.2032556e-07
1249.7166666658588,0.00016709525,-0.7856542,4.017831e-05,-2.35531,9.295891e-05,1.5709913,0.786,0.04,0.04,-9.832351,0.0007597211515530944,0.0076375636,-4.8457164e-06,-0.003227112116292119,-3.0846813e-06
1249.7333333325255,0.00016735624,-0.78555673,4.0353058e-05,-2.355391,9.284963e-05,1.5709884,0.786,0.04,0.04,-9.830506,0.0009651686414144933,0.0063381107,-1.5868396e-05,-0.004137891344726086,-1.3093901e-05
1249.7499999991921,0.00016796378,-0.78546685,4.0751067e-05,-2.3554652,9.25556e-05,1.5709856,0.786,0.04,0.04,-9.828875,0.001264150021597743,0.0051525338,-3.6106987e-05,-0.004973437171429396,-3.2422806e-05
1249.7666666658588,0.00016912945,-0.7853838,4.1507126e-05,-2.355532,9.19699e-05,1.5709827,0.786,0.04,0.04,-9.827059,0.0016285525634884834,0.0041716984,-6.802552e-05,-0.005739754065871239,-6.355256e-05
1249.7833333325254,0.00017110619,-0.7853072,4.2782038e-05,-2.3555968,9.097031e-05,1.5709832,0.7860019,0.04,0.039999995,-9.825538,0.0020771133713424206,0.0032120747,-0.000113415386,-0.00643953075632453,-0.00010801774
1249.799999999192,0.00017418426,-0.78523624,4.476004e-05,-2.355655,8.939872e-05,1.5709838,0.7860038,0.04,0.039999995,-9.824385,0.0025517409667372704,0.002382501,-0.00018276405,-0.007083290722221136,-0.00016938015
1249.8166666658587,0.00017868698,-0.7851701,4.764609e-05,-2.3557067,8.7076914e-05,1.5709846,0.78600574,0.04,0.04,-9.822972,0.003101565409451723,0.001639517,-0.00026866852,-0.007667894940823317,-0.00025024594
1249.8333333325254,0.00018496695,-0.7851086,5.166348e-05,-2.3557568,8.3838626e-05,1.5709854,0.7860086,0.04,0.04,-9.821424,0.0036680828779935837,0.0010324263,-0.0003719207,-0.008196706883609295,-0.00034897766
1249.849999999192,0.00019340274,-0.78505105,5.7051922e-05,-2.355801,7.950573e-05,1.5709864,0.7860124,0.04,0.039999995,-9.820666,0.004311379976570606,0.000500225,-0.00049797085,-0.008693130686879158,-0.0004670744
1249.8666666658587,0.00020439668,-0.7849968,6.4066066e-05,-2.3558435,7.3841205e-05,1.5709907,0.78601813,0.04,0.04,-9.819267,0.004888634663075209,3.1579053e-05,-0.0006470792,-0.00914081372320652,-0.00061056716
1249.8833333325254,0.00021837026,-0.78494537,7.297259e-05,-2.355883,6.665678e-05,1.5709953,0.78602386,0.04,0.04,-9.818441,0.005576543044298887,-0.00046136905,-0.0008239223,-0.009545478969812393,-0.00077493704
1249.899999999192,0.00023576316,-0.7848962,8.404946e-05,-2.3559182,5.771991e-05,1.5710001,0.7860315,0.039999995,0.039999995,-9.817471,0.006167074199765921,-0.0008025606,-0.0010198036,-0.009918403811752796,-0.00096440065
1249.9166666658587,0.0002570302,-0.7848489,9.75845e-05,-2.3559525,4.6784902e-05,1.5710083,0.786041,0.03999999,0.04,-9.816471,0.006840488873422146,-0.0011233534,-0.001243656,-0.010256296023726463,-0.001180531
1249.9333333325253,0.00028263882,-0.78480315,0.00011387327,-2.3559842,3.3626784e-05,1.5710169,0.78605247,0.039999988,0.04,-9.815765,0.007408843841403723,-0.0014332627,-0.0014954448,-0.010562785901129246,-0.0014216298
1249.949999999192,0.0003130676,-0.78475827,0.00013321842,-2.3560126,1.8002484e-05,1.5710272,0.7860662,0.039999984,0.039999995,-9.814952,0.008069606497883797,-0.0016454074,-0.001774156,-0.010842766612768173,-0.0016882471
1249.9666666658586,0.00034880431,-0.7847141,0.0001559283,-2.3560402,-3.3670335e-07,1.5710396,0.78608257,0.039999977,0.039999988,-9.814006,0.008575396612286568,-0.0018572267,-0.002081366,-0.011090580374002457,-0.0019817352
1249.9833333325253,0.0003903441,-0.7846701,0.00018231597,-2.356067,-2.1643258e-05,1.5710548,0.78610164,0.03999997,0.039999984,-9.813437,0.00910258013755083,-0.0020215523,-0.0024185078,-0.01131809689104557,-0.0023033493
1249.999999999192,0.00043818788,-0.7846259,0.00021269804,-2.3560927,-4.6170808e-05,1.571071,0.78612345,0.039999966,0.03999998,-9.812827,0.009669173508882523,-0.0021806639,-0.0027846796,-0.011520677246153355,-0.0026516935
1250.0166666658586,0.0004928412,-0.7845809,0.00024739438,-2.3561156,-7.4177326e-05,1.5710909,0.7861484,0.03999996,0.039999977,-9.812258,0.01001972146332264,-0.0022944824,-0.0031796999,-0.01171034574508667,-0.003027869
1250.0333333325252,0.00055481255,-0.78453517,0.00028672657,-2.3561373,-0.00010592204,1.5711133,0.78617656,0.03999995,0.03999997,-9.811431,0.010477175004780293,-0.0024319836,-0.0036038412,-0.011867650784552097,-0.003432889
1250.0499999991919,0.0006246124,-0.784488,0.00033101725,-2.3561578,-0.00014166364,1.5711374,0.7862083,0.039999943,0.03999996,-9.810817,0.01069737784564495,-0.0025067064,-0.0040569887,-0.012005391530692577,-0.003865143
1250.0666666658585,0.0007027526,-0.78443915,0.0003805899,-2.3561778,-0.00018166279,1.5711651,0.78624374,0.039999936,0.039999954,-9.810273,0.011038283817470074,-0.0025330505,-0.004539745,-0.012130453251302242,-0.004325533
1250.0833333325252,0.0007897442,-0.7843883,0.0004357682,-2.3561978,-0.00022618026,1.5711966,0.78628325,0.039999932,0.039999954,-9.809796,0.011083060875535011,-0.0026374308,-0.0050515784,-0.012238739989697933,-0.004814909
1250.0999999991918,0.0008860976,-0.78433526,0.0004968746,-2.3562174,-0.00027547494,1.5712318,0.78632706,0.039999925,0.03999995,-9.809351,0.01127906609326601,-0.002672641,-0.0055932226,-0.012332474812865257,-0.0053323233
1250.1166666658585,0.000992321,-0.78427976,0.00056423066,-2.356237,-0.00032980554,1.5712707,0.78637534,0.039999925,0.039999954,-9.808856,0.011138850823044777,-0.0027478437,-0.0061642425,-0.012408795766532421,-0.0058776904
1250.1333333325251,0.0011089206,-0.78422123,0.00063815614,-2.3562562,-0.00038942916,1.5713133,0.7864284,0.03999993,0.039999958,-9.808452,0.011159433051943779,-0.0027383906,-0.0067644436,-0.012474152259528637,-0.0064499867
1250.1499999991918,0.0012363988,-0.7841596,0.0007189695,-2.3562756,-0.00045460212,1.5713596,0.78648627,0.03999993,0.03999996,-9.808053,0.010803669691085815,-0.0028091571,-0.007393829,-0.012528754770755768,-0.007050744
1250.1666666658584,0.0013752541,-0.7840946,0.0008069858,-2.3562949,-0.0005255777,1.5714101,0.7865493,0.039999932,0.03999997,-9.807614,0.010620452463626862,-0.0028172224,-0.008051794,-0.012571857310831547,-0.007678889
1250.183333332525,0.001525981,-0.7840258,0.0009025176,-2.3563142,-0.0006026068,1.5714648,0.7866178,0.03999994,0.039999977,-9.807248,0.010036786086857319,-0.0028700782,-0.0087382775,-0.012605002149939537,-0.008333273
1250.1999999991917,0.0016890686,-0.78395295,0.0010058745,-2.3563335,-0.00068593957,1.5715241,0.7866918,0.039999943,0.039999984,-9.806862,0.00962845329195261,-0.0028900425,-0.00945314,-0.012629016302525997,-0.009015362
1250.2166666658584,0.0018650005,-0.7838759,0.0011173624,-2.356353,-0.0007758212,1.5715882,0.78677166,0.039999943,0.039999988,-9.806521,0.00878459308296442,-0.002974582,-0.010195393,-0.012643035501241684,-0.009723957
1250.233333332525,0.0020542543,-0.7837944,0.0012372833,-2.356373,-0.00087249494,1.5716568,0.7868576,0.039999943,0.03999999,-9.806167,0.007965567521750927,-0.003031198,-0.010965679,-0.012648181989789009,-0.010458731
1250.2499999991917,0.002257302,-0.7837082,0.0013659358,-2.356393,-0.0009762005,1.5717306,0.7869499,0.039999947,0.04,-9.805822,0.007193690165877342,-0.0030258442,-0.011763739,-0.012646927498281002,-0.011219324
1250.2666666658583,0.002474607,-0.783617,0.0015036139,-2.3564131,-0.0010871553,1.5718099,0.7870485,0.03999995,0.039999995,-9.805475,0.005934910848736763,-0.0031460356,-0.012588792,-0.012635492719709873,-0.012002858
1250.283333332525,0.0027066283,-0.7835205,0.0016506073,-2.3564343,-0.0012055986,1.5718942,0.7871538,0.039999954,0.039999995,-9.80508,0.004886288195848465,-0.0031807409,-0.013440022,-0.01261412724852562,-0.012812438
1250.2999999991916,0.0029538153,-0.7834188,0.0018072008,-2.3564563,-0.0013317668,1.5719845,0.78726596,0.039999958,0.04,-9.804969,0.003297625109553337,-0.0033064783,-0.01431738,-0.012593520805239677,-0.013647513
1250.3166666658583,0.0032166124,-0.7833115,0.001973675,-2.3564794,-0.0014659001,1.57208,0.78738517,0.039999958,0.04,-9.804604,0.0019485186785459518,-0.0033580991,-0.015220551,-0.012562570162117481,-0.014508346
1250.333333332525,0.0034954527,-0.78319854,0.0021503053,-2.3565042,-0.0016081887,1.5721816,0.7875117,0.039999958,0.04,-9.804441,6.525032222270966e-05,-0.003501488,-0.016149193,-0.012531096115708351,-0.01538982
1250.3499999991916,0.0037907648,-0.7830792,0.0023373624,-2.3565307,-0.0017588757,1.5722891,0.78764564,0.039999958,0.04,-9.804295,-0.0015997309237718582,-0.0035665142,-0.017102696,-0.012499143369495869,-0.016297018
1250.3666666658582,0.004102967,-0.78295344,0.002535111,-2.3565571,-0.0019181736,1.5724028,0.7877872,0.039999958,0.04,-9.804218,-0.0038410499691963196,-0.0038150982,-0.018080654,-0.012467486783862114,-0.017227069
1250.383333332525,0.0044324715,-0.7828217,0.0027438123,-2.356584,-0.0020862666,1.5725229,0.78793657,0.039999958,0.04,-9.803838,-0.0058027151972055435,-0.0039469693,-0.019082783,-0.012428982183337212,-0.018177124
1250.3999999991916,0.0047796792,-0.7826835,0.0029637206,-2.3566117,-0.0022633863,1.5726495,0.788094,0.039999958,0.04,-9.803589,-0.008419493213295937,-0.004145366,-0.02010834,-0.012383997440338135,-0.019151457
1250.4166666658582,0.005144986,-0.78253824,0.0031950849,-2.3566394,-0.0024497304,1.5727824,0.78825957,0.039999958,0.04,-9.803273,-0.010739505290985107,-0.0042843902,-0.021157283,-0.01233319379389286,-0.020147182
1250.4333333325249,0.005528774,-0.7823864,0.0034381482,-2.3566682,-0.0026454793,1.5729222,0.7884336,0.03999996,0.04,-9.803017,-0.013710126280784607,-0.0045704395,-0.022228591,-0.012277745641767979,-0.021162223
1250.4499999991915,0.0059314207,-0.78222716,0.00369315,-2.356699,-0.0028508299,1.5730691,0.78861624,0.039999954,0.04,-9.802779,-0.016393713653087616,-0.004695516,-0.023323037,-0.012219654396176338,-0.022198468
1250.4666666658582,0.0063532945,-0.7820606,0.0039603235,-2.3567324,-0.0030659952,1.573223,0.7888075,0.03999995,0.04,-9.802739,-0.019764050841331482,-0.005030348,-0.024439605,-0.012163069099187851,-0.023256175
1250.4833333325248,0.0067947535,-0.7818868,0.004239893,-2.3567665,-0.0032911422,1.5733839,0.78900766,0.039999947,0.04,-9.802753,-0.023069795221090317,-0.0053045405,-0.025577,-0.012111634947359562,-0.02433244
1250.4999999991915,0.007256148,-0.7817055,0.0045320825,-2.3568013,-0.0035264415,1.5735521,0.7892168,0.039999943,0.04,-9.802485,-0.026316747069358826,-0.005523661,-0.026735425,-0.01205760333687067,-0.025426764
1250.516666665858,0.007737815,-0.7815165,0.0048371046,-2.3568366,-0.0037720744,1.5737278,0.78943515,0.039999943,0.04,-9.802289,-0.030287720263004303,-0.005896572,-0.027914483,-0.012000536546111107,-0.026540153
1250.5333333325248,0.008240087,-0.7813195,0.005155172,-2.3568723,-0.004028193,1.573911,0.78966284,0.03999994,0.04,-9.801928,-0.033926475793123245,-0.006156018,-0.029113496,-0.011937223374843597,-0.027670613
1250.5499999991914,0.00876329,-0.78111464,0.0054864874,-2.3569107,-0.0042949803,1.5741017,0.7898999,0.03999994,0.04,-9.8017845,-0.03831447660923004,-0.006574982,-0.0303323,-0.011873084120452404,-0.0288191
1250.566666665858,0.009307733,-0.78090155,0.005831251,-2.3569524,-0.0045725913,1.5743002,0.7901467,0.039999936,0.04,-9.80171,-0.0423661544919014,-0.0068518007,-0.031569574,-0.01181367039680481,-0.029984424
1250.5833333325247,0.009873726,-0.7806803,0.0061896536,-2.3569944,-0.004861185,1.5745064,0.7904032,0.039999932,0.04,-9.801873,-0.04718475043773651,-0.007323941,-0.03282627,-0.01176427211612463,-0.031165892
1250.5999999991914,0.010461555,-0.7804506,0.006561883,-2.3570373,-0.0051609054,1.5747206,0.79066956,0.039999932,0.04,-9.801534,-0.051656026393175125,-0.0076756617,-0.03410067,-0.011710732243955135,-0.032363027
1250.616666665858,0.01107151,-0.78021234,0.006948119,-2.3570807,-0.005471895,1.5749427,0.790946,0.039999925,0.04,-9.801413,-0.056911733001470566,-0.008185579,-0.035392907,-0.011657695285975933,-0.033575356
1250.6333333325247,0.011703863,-0.77996564,0.007348538,-2.3571255,-0.0057942993,1.575173,0.7912326,0.03999992,0.04,-9.80106,-0.06180994212627411,-0.008580225,-0.036702864,-0.011601060628890991,-0.03480229
1250.6499999991913,0.012358888,-0.77971023,0.0077633075,-2.3571742,-0.0061282595,1.5754117,0.7915294,0.039999917,0.04,-9.800978,-0.06751473248004913,-0.009099374,-0.03802953,-0.011545666493475437,-0.036043208
1250.666666665858,0.013036838,-0.77944595,0.008192595,-2.357224,-0.006473898,1.5756587,0.79183656,0.039999917,0.04,-9.801122,-0.07286199182271957,-0.009532089,-0.03937243,-0.011504361405968666,-0.03729784
1250.6833333325246,0.013737968,-0.7791726,0.008636554,-2.3572743,-0.006831334,1.5759139,0.7921542,0.039999906,0.04,-9.800995,-0.07902419567108154,-0.010139074,-0.0407312,-0.011462938040494919,-0.038565435
1250.6999999991913,0.014462514,-0.77889013,0.009095337,-2.3573253,-0.0072006984,1.5761778,0.7924825,0.039999902,0.04,-9.800674,-0.08481699228286743,-0.010626894,-0.04210521,-0.011421370320022106,-0.039845604
1250.716666665858,0.015210707,-0.77859867,0.009569093,-2.3573785,-0.0075820955,1.5764503,0.7928216,0.0399999,0.04,-9.800501,-0.09145143628120422,-0.01128313,-0.04349489,-0.01137867383658886,-0.04113773
1250.7333333325246,0.015982766,-0.778298,0.01005796,-2.3574355,-0.007975652,1.5767317,0.7931713,0.039999895,0.04,-9.800431,-0.09801304340362549,-0.011848385,-0.044899818,-0.011341397650539875,-0.042441297
1250.7499999991912,0.016778907,-0.7779881,0.010562074,-2.3574932,-0.008381478,1.577022,0.7935319,0.039999884,0.04,-9.800517,-0.10450289398431778,-0.012385014,-0.0463176,-0.01131714042276144,-0.043757495
1250.7666666658579,0.017599337,-0.77766865,0.011081566,-2.3575513,-0.008799684,1.5773208,0.7939038,0.039999872,0.04,-9.800354,-0.11185318231582642,-0.013113439,-0.0477492,-0.011292649433016777,-0.045083955
1250.7833333325245,0.018444244,-0.7773399,0.011616557,-2.3576102,-0.009230389,1.5776285,0.7942866,0.039999854,0.04,-9.799986,-0.11880408227443695,-0.013698843,-0.049196072,-0.011267801746726036,-0.04642175
1250.7999999991912,0.019313829,-0.7770015,0.012167165,-2.3576727,-0.0096736755,1.5779454,0.7946805,0.039999843,0.04,-9.799793,-0.12663090229034424,-0.014440089,-0.050654452,-0.011243551969528198,-0.04776801
1250.8166666658578,0.020208256,-0.77665365,0.012733504,-2.3577378,-0.01012961,1.5782712,0.7950857,0.039999835,0.04,-9.799867,-0.1340513527393341,-0.015062038,-0.05212517,-0.011232717894017696,-0.049121473
1250.8333333325245,0.021127695,-0.776296,0.013315682,-2.3578033,-0.010598311,1.578606,0.79550225,0.039999824,0.04,-9.799873,-0.14238761365413666,-0.015844459,-0.05360825,-0.011230950243771076,-0.05048564
1250.8499999991911,0.022072302,-0.7759287,0.013913798,-2.3578696,-0.011079843,1.5789502,0.79593027,0.03999982,0.04,-9.799546,-0.15028779208660126,-0.01652531,-0.055103038,-0.011230060830712318,-0.051855862
1250.8666666658578,0.023042241,-0.77555144,0.014527949,-2.3579378,-0.011574273,1.5793035,0.7963697,0.039999824,0.04,-9.799293,-0.15909135341644287,-0.017362801,-0.056609586,-0.01122944988310337,-0.053231664
1250.8833333325244,0.02403764,-0.7751644,0.015158223,-2.3580103,-0.012081651,1.579666,0.7968206,0.039999835,0.04,-9.7991085,-0.16749265789985657,-0.018065605,-0.058126472,-0.011235827580094337,-0.054614414
1250.899999999191,0.025058638,-0.77476764,0.015804714,-2.3580835,-0.012602075,1.5800378,0.797283,0.039999858,0.04,-9.799366,-0.17686161398887634,-0.018927064,-0.059653293,-0.011261604726314545,-0.05601199
1250.9166666658577,0.02610537,-0.77436066,0.016467495,-2.3581574,-0.013135562,1.5804193,0.7977571,0.039999858,0.04,-9.7989645,-0.18569478392601013,-0.019673087,-0.061190177,-0.011287685483694077,-0.05740681
1250.9333333325244,0.02717795,-0.77394354,0.017146634,-2.3582323,-0.013682214,1.58081,0.7982429,0.039999846,0.04,-9.798725,-0.1955283284187317,-0.020626929,-0.06273668,-0.011315617710351944,-0.058809455
1250.949999999191,0.028276473,-0.7735166,0.017842205,-2.3583124,-0.01424208,1.5812101,0.7987405,0.039999835,0.04,-9.798381,-0.2048998773097992,-0.021397606,-0.06429252,-0.011348341591656208,-0.06021589
1250.9666666658577,0.02940105,-0.77307945,0.018554276,-2.3583932,-0.014815214,1.5816199,0.7992498,0.039999824,0.04,-9.798658,-0.2152291089296341,-0.022336993,-0.06585681,-0.011402391828596592,-0.061626762
1250.9833333325244,0.03055177,-0.77263206,0.019282907,-2.3584747,-0.015401664,1.582039,0.799771,0.039999813,0.04,-9.798351,-0.22545796632766724,-0.023252347,-0.067429416,-0.011460737325251102,-0.06304127
1250.999999999191,0.03172872,-0.7721748,0.020028142,-2.3585572,-0.016001476,1.5824678,0.80030406,0.039999805,0.04,-9.797943,-0.23558250069618225,-0.024100449,-0.069010064,-0.01152262557297945,-0.06445802
1251.0166666658577,0.032931965,-0.77170706,0.02079003,-2.3586447,-0.016614676,1.5829061,0.80084914,0.039999805,0.04,-9.797615,-0.24665220081806183,-0.025084823,-0.07059846,-0.011586771346628666,-0.065876685
1251.0333333325243,0.034161594,-0.771229,0.021568619,-2.3587332,-0.017241297,1.5833541,0.80140615,0.03999981,0.04,-9.797786,-0.2572903037071228,-0.02596993,-0.07219447,-0.01167593989521265,-0.06729697
1251.049999999191,0.035417654,-0.770741,0.022363951,-2.358822,-0.017881356,1.5838118,0.8019751,0.039999805,0.04,-9.797442,-0.2688853442668915,-0.027029008,-0.073797114,-0.01176892127841711,-0.06871984
1251.0666666658576,0.036700193,-0.7702425,0.023176054,-2.3589125,-0.0185349,1.5842787,0.802556,0.039999805,0.04,-9.796923,-0.28000935912132263,-0.02792127,-0.07540606,-0.011863569729030132,-0.07014316
1251.0833333325243,0.038009267,-0.769734,0.024004955,-2.3590047,-0.019201947,1.5847557,0.803149,0.039999794,0.04,-9.796694,-0.29212766885757446,-0.028981952,-0.07702069,-0.011969353072345257,-0.07157074
1251.099999999191,0.039344903,-0.769215,0.024850678,-2.3591006,-0.019882524,1.5852418,0.8037539,0.039999783,0.04,-9.796281,-0.30375537276268005,-0.02990481,-0.07864176,-0.012080274522304535,-0.07299776
1251.1166666658576,0.040707134,-0.7686857,0.025713239,-2.3591979,-0.020576635,1.585738,0.80437094,0.039999772,0.04,-9.796279,-0.3163740634918213,-0.030998055,-0.080266975,-0.01221286877989769,-0.07442468
1251.1333333325242,0.042095978,-0.7681459,0.026592651,-2.3592958,-0.021284295,1.5862439,0.80499995,0.03999976,0.04,-9.795841,-0.3285057842731476,-0.031961598,-0.081897706,-0.012352334335446358,-0.07585007
1251.1499999991909,0.043511447,-0.767596,0.027488926,-2.3593943,-0.02200553,1.5867594,0.80564106,0.039999746,0.04,-9.795373,-0.34162917733192444,-0.033096746,-0.083532535,-0.012496421113610268,-0.07727601
1251.1666666658575,0.044953544,-0.76703566,0.028402066,-2.359498,-0.022740325,1.5872847,0.80629414,0.03999974,0.04,-9.794744,-0.35425224900245667,-0.034053907,-0.08517178,-0.012643711641430855,-0.07869855
1251.1833333325242,0.04642227,-0.76646507,0.029332077,-2.359603,-0.023488687,1.5878196,0.8069594,0.039999735,0.04,-9.794863,-0.36789238452911377,-0.03517986,-0.08681392,-0.012817987240850925,-0.08012012
1251.1999999991908,0.047917623,-0.7658839,0.030278936,-2.3597085,-0.024250606,1.5883642,0.8076367,0.039999727,0.04,-9.794283,-0.38102927803993225,-0.036194667,-0.0884599,-0.012999745085835457,-0.08153821
1251.2166666658575,0.04943958,-0.7652925,0.031242654,-2.3598146,-0.025026077,1.5889188,0.80832595,0.039999727,0.04,-9.793761,-0.3951525390148163,-0.03735911,-0.09010881,-0.013187925331294537,-0.08295337
1251.2333333325241,0.05098812,-0.7646908,0.032223195,-2.359926,-0.02581506,1.5894827,0.80902743,0.039999727,0.04,-9.793089,-0.40915340185165405,-0.038443968,-0.091760375,-0.013379831798374653,-0.08436516
1251.2499999991908,0.0525632,-0.76407874,0.033220556,-2.3600388,-0.02661755,1.5900564,0.8097406,0.03999972,0.04,-9.793003,-0.42306631803512573,-0.03946365,-0.09341404,-0.013600095175206661,-0.08577427
1251.2666666658574,0.054164786,-0.7634565,0.034234706,-2.360152,-0.027433539,1.5906398,0.81046635,0.03999971,0.04,-9.792446,-0.4379366338253021,-0.0406483,-0.09506828,-0.013828625902533531,-0.08717888
1251.283333332524,0.055792846,-0.762824,0.035265632,-2.3602657,-0.028263003,1.5912327,0.81120354,0.039999697,0.04,-9.791687,-0.45232000946998596,-0.041699596,-0.096726865,-0.014063002541661263,-0.08857868
1251.2999999991907,0.05744732,-0.7621814,0.03631327,-2.3603847,-0.029105946,1.5918353,0.81195265,0.03999969,0.04,-9.790956,-0.4676879644393921,-0.042857796,-0.09838384,-0.014303906820714474,-0.089974046
1251.3166666658574,0.059128147,-0.7615284,0.03737761,-2.360505,-0.029962294,1.5924473,0.8127137,0.039999686,0.04,-9.790719,-0.48257455229759216,-0.043898277,-0.10004101,-0.01456992793828249,-0.09136227
1251.333333332524,0.060835257,-0.76086503,0.03845859,-2.3606257,-0.030832017,1.5930691,0.81348675,0.039999675,0.04,-9.790095,-0.49843156337738037,-0.045100626,-0.10169828,-0.014849336817860603,-0.09274521
1251.3499999991907,0.06256858,-0.7601917,0.039556164,-2.360747,-0.031715114,1.5937004,0.8142717,0.039999682,0.04,-9.789161,-0.5138248801231384,-0.046187654,-0.103356384,-0.015132234431803226,-0.094126865
1251.3666666658573,0.064328074,-0.75950813,0.040670287,-2.360874,-0.032611527,1.594341,0.8150684,0.03999969,0.04,-9.788299,-0.5301579833030701,-0.047358718,-0.105014056,-0.01542131882160902,-0.095501736
1251.383333332524,0.066113554,-0.7588143,0.041800912,-2.361002,-0.033521183,1.5949914,0.8158771,0.039999682,0.04,-9.788026,-0.5459979176521301,-0.048415426,-0.10667024,-0.015741268172860146,-0.096863285
1251.3999999991906,0.06792502,-0.75811064,0.04294798,-2.36113,-0.034444027,1.595651,0.8166974,0.03999967,0.04,-9.787209,-0.5628134608268738,-0.04963564,-0.10832574,-0.016071198508143425,-0.09821697
1251.4166666658573,0.06976234,-0.7573968,0.044111427,-2.3612587,-0.03538004,1.5963203,0.8175294,0.039999664,0.04,-9.786109,-0.5791427493095398,-0.05068286,-0.10997974,-0.01640571653842926,-0.0995635
1251.433333332524,0.07162539,-0.75667304,0.045291178,-2.3613935,-0.03632917,1.5969986,0.8183731,0.03999966,0.04,-9.785108,-0.5964273810386658,-0.051871028,-0.1116314,-0.016747038811445236,-0.100901596
1251.4499999991906,0.07351409,-0.7559392,0.04648718,-2.3615289,-0.03729135,1.5976865,0.8192285,0.039999653,0.04,-9.784751,-0.613257646560669,-0.05292135,-0.11328056,-0.017122063785791397,-0.10223075
1251.4666666658572,0.0754283,-0.7551954,0.04769933,-2.3616645,-0.038266532,1.5983835,0.8200953,0.03999964,0.04,-9.783654,-0.631019651889801,-0.054119233,-0.11492726,-0.01750333048403263,-0.10355127
1251.483333332524,0.07736791,-0.75444186,0.048927564,-2.361801,-0.039254636,1.5990901,0.8209737,0.039999634,0.04,-9.782502,-0.6486324071884155,-0.05523681,-0.1165708,-0.01789284497499466,-0.10486127
1251.4999999991905,0.07933281,-0.75367856,0.050171804,-2.3619404,-0.040255595,1.5998058,0.8218635,0.039999627,0.04,-9.781272,-0.6661159992218018,-0.0562929,-0.11821141,-0.018287979066371918,-0.10616028
1251.5166666658572,0.08132283,-0.7529055,0.051431973,-2.3620832,-0.04126936,1.6005305,0.8227646,0.039999615,0.04,-9.780416,-0.6845799088478088,-0.057418264,-0.11984723,-0.018703380599617958,-0.1074506
1251.5333333325239,0.08333783,-0.75212276,0.052707948,-2.3622262,-0.042295832,1.601264,0.8236771,0.039999608,0.04,-9.779461,-0.702541708946228,-0.05846102,-0.12147849,-0.019139444455504417,-0.10872823
1251.5499999991905,0.08537768,-0.7513304,0.05399967,-2.36237,-0.04333495,1.602007,0.8246009,0.039999597,0.04,-9.778132,-0.7214224934577942,-0.059583094,-0.12310599,-0.019583918154239655,-0.10999553
1251.5666666658572,0.08744221,-0.7505282,0.055307027,-2.3625162,-0.044386636,1.6027595,0.8255358,0.039999593,0.04,-9.776751,-0.7398213148117065,-0.060636446,-0.1247286,-0.020034436136484146,-0.1112519
1251.5833333325238,0.08953124,-0.7497166,0.05662991,-2.3626664,-0.045450807,1.6035203,0.8264818,0.039999582,0.04,-9.775578,-0.7591642737388611,-0.061737582,-0.12634553,-0.020500341430306435,-0.11249636
1251.5999999991905,0.09164466,-0.74889547,0.057968233,-2.362817,-0.04652736,1.6042899,0.8274389,0.03999957,0.04,-9.774551,-0.7780023813247681,-0.06272756,-0.12795654,-0.020991815254092216,-0.11372692
1251.616666665857,0.09378225,-0.748065,0.05932187,-2.3629682,-0.047616243,1.6050683,0.8284068,0.039999567,0.04,-9.773047,-0.7977758646011353,-0.06382072,-0.12956148,-0.02149207517504692,-0.11494718
1251.6333333325238,0.09594387,-0.7472253,0.060690705,-2.3631206,-0.04871734,1.6058556,0.82938564,0.039999556,0.04,-9.771469,-0.8170267939567566,-0.06480583,-0.1311597,-0.022000523284077644,-0.116152614
1251.6499999991904,0.0981293,-0.7463765,0.062074643,-2.3632755,-0.049830567,1.6066514,0.83037525,0.03999955,0.04,-9.769877,-0.8371992111206055,-0.06584092,-0.13275145,-0.022518515586853027,-0.11734482
1251.666666665857,0.10033836,-0.74551845,0.06347354,-2.3634338,-0.050955825,1.6074558,0.83137566,0.039999545,0.04,-9.768484,-0.8568923473358154,-0.066772275,-0.13433607,-0.023053843528032303,-0.118523136
1251.6833333325237,0.10257087,-0.74465096,0.06488728,-2.3635924,-0.052093014,1.6082686,0.8323865,0.039999537,0.04,-9.767106,-0.8775134086608887,-0.06777931,-0.1359128,-0.023611318320035934,-0.11968991
1251.6999999991904,0.10482662,-0.7437749,0.06631575,-2.363752,-0.053242054,1.6090901,0.83340794,0.039999526,0.04,-9.765313,-0.8976178765296936,-0.06874886,-0.13748096,-0.02417757734656334,-0.12084506
1251.716666665857,0.107105404,-0.74288946,0.06775882,-2.3639128,-0.054402832,1.6099198,0.8344398,0.039999533,0.04,-9.763466,-0.9185887575149536,-0.06968756,-0.13904157,-0.024751370772719383,-0.12198449
1251.7333333325237,0.10940702,-0.74199563,0.06921634,-2.3640766,-0.0555752,1.610758,0.83548194,0.039999526,0.04,-9.7616825,-0.9394010305404663,-0.07063369,-0.14059347,-0.025338750332593918,-0.123103835
1251.7499999991903,0.11173126,-0.74109256,0.07068822,-2.3642426,-0.05675907,1.6116042,0.83653444,0.03999951,0.04,-9.76002,-0.9601107239723206,-0.07147059,-0.14213574,-0.02594359777867794,-0.12420839
1251.766666665857,0.11407788,-0.7401811,0.07217429,-2.3644094,-0.057954345,1.612459,0.837597,0.0399995,0.04,-9.758213,-0.9816834330558777,-0.07239881,-0.14366864,-0.02656576968729496,-0.12529731
1251.7833333325236,0.11644669,-0.7392609,0.073674396,-2.364577,-0.05916093,1.6133215,0.8386696,0.039999492,0.04,-9.756162,-1.0027695894241333,-0.07324067,-0.14519206,-0.027195531874895096,-0.1263721
1251.7999999991903,0.118837446,-0.73833215,0.07518841,-2.364746,-0.06037868,1.614192,0.83975214,0.03999949,0.04,-9.754015,-1.024688720703125,-0.07409457,-0.14670491,-0.02783537469804287,-0.12742943
1251.816666665857,0.121249944,-0.737395,0.07671615,-2.3649178,-0.061607458,1.6150706,0.84084433,0.03999948,0.04,-9.751926,-1.046133279800415,-0.07489477,-0.14820772,-0.028487343341112137,-0.12846883
1251.8333333325236,0.12368389,-0.73644954,0.07825751,-2.3650918,-0.06284718,1.6159571,0.8419466,0.03999947,0.04,-9.749903,-1.0684467554092407,-0.07569053,-0.14969818,-0.029156474396586418,-0.12949401
1251.8499999991902,0.12613909,-0.7354958,0.07981231,-2.365266,-0.06409771,1.6168513,0.8430585,0.039999455,0.04,-9.747833,-1.0902692079544067,-0.07643907,-0.1511788,-0.029842156916856766,-0.13050078
1251.8666666658569,0.12861525,-0.7345341,0.08138041,-2.3654413,-0.065358944,1.6177529,0.8441795,0.039999448,0.04,-9.745325,-1.1128813028335571,-0.07720114,-0.15264843,-0.030533097684383392,-0.13148949
1251.8833333325235,0.13111214,-0.73356426,0.08296164,-2.365618,-0.06663073,1.6186621,0.84531003,0.039999437,0.04,-9.742935,-1.1350499391555786,-0.07787774,-0.15410441,-0.03123549371957779,-0.13246192
1251.8999999991902,0.13362952,-0.7325864,0.084555864,-2.3657966,-0.06791292,1.6195788,0.8464498,0.03999943,0.04,-9.740441,-1.1580116748809814,-0.078572236,-0.1555487,-0.031947650015354156,-0.13341512
1251.9166666658568,0.1361671,-0.73160064,0.08616288,-2.365978,-0.06920537,1.6205028,0.84759885,0.039999418,0.04,-9.738085,-1.180515170097351,-0.07921993,-0.1569796,-0.032675765454769135,-0.13434975
1251.9333333325235,0.13872461,-0.7306071,0.08778256,-2.3661597,-0.070507996,1.6214342,0.8487569,0.039999407,0.04,-9.735632,-1.2038260698318481,-0.07984187,-0.15839787,-0.03342130780220032,-0.1352673
1251.9499999991901,0.14130184,-0.7296059,0.0894147,-2.366342,-0.07182064,1.6223726,0.84992385,0.039999392,0.04,-9.73287,-1.2266324758529663,-0.080465145,-0.1598028,-0.03417271748185158,-0.1361657
1251.9666666658568,0.14389849,-0.72859734,0.09105913,-2.366526,-0.07314317,1.6233181,0.85109955,0.039999384,0.04,-9.730049,-1.2502192258834839,-0.08102276,-0.16119407,-0.034933462738990784,-0.1370453
1251.9833333325234,0.14651425,-0.7275814,0.0927157,-2.3667111,-0.074475415,1.6242704,0.85228384,0.03999937,0.04,-9.727235,-1.27366042137146,-0.08153798,-0.16257101,-0.03570401668548584,-0.13790663
1251.99999999919,0.14914887,-0.72655797,0.09438418,-2.3668985,-0.07581725,1.6252296,0.85347664,0.039999362,0.04,-9.72441,-1.296930193901062,-0.08203756,-0.16393311,-0.03648611158132553,-0.13874601
1252.0166666658567,0.1518021,-0.72552747,0.09606444,-2.3670876,-0.07716852,1.6261958,0.8546779,0.039999343,0.04,-9.721554,-1.3209766149520874,-0.082500026,-0.16527992,-0.03728369250893593,-0.1395685
1252.0333333325234,0.15447351,-0.7244899,0.0977563,-2.3672774,-0.07852912,1.6271685,0.8558874,0.039999343,0.04,-9.718587,-1.344547986984253,-0.08294668,-0.16661164,-0.038090236485004425,-0.14036919
1252.04999999919,0.15716292,-0.7234453,0.09945952,-2.367468,-0.07989885,1.6281477,0.8571051,0.03999933,0.04,-9.715363,-1.3688405752182007,-0.08333728,-0.16792798,-0.038904719054698944,-0.14115182
1252.0666666658567,0.1598701,-0.72239375,0.10117396,-2.3676598,-0.081277564,1.6291332,0.8583307,0.039999325,0.04,-9.712225,-1.3926734924316406,-0.08372719,-0.16922858,-0.03972947597503662,-0.14191236
1252.0833333325234,0.16259462,-0.72133565,0.1028994,-2.3678527,-0.08266515,1.630125,0.8595643,0.03999931,0.04,-9.708869,-1.417243480682373,-0.084044114,-0.17051275,-0.040562424808740616,-0.14265631
1252.09999999919,0.16533624,-0.7202707,0.10463568,-2.3680472,-0.08406144,1.6311234,0.86080563,0.0399993,0.04,-9.705539,-1.4413304328918457,-0.084338225,-0.17178081,-0.04140269383788109,-0.14337587
1252.1166666658567,0.1680946,-0.7191995,0.10638258,-2.3682432,-0.08546624,1.632128,0.8620544,0.039999284,0.04,-9.702162,-1.466134786605835,-0.0846005,-0.17303176,-0.04225454106926918,-0.14407754
1252.1333333325233,0.17086944,-0.7181215,0.10813993,-2.3684409,-0.086879425,1.6331383,0.86331075,0.039999276,0.04,-9.698694,-1.4904930591583252,-0.08482451,-0.174265,-0.04311290755867958,-0.14475822
1252.14999999919,0.17366053,-0.7170374,0.10990752,-2.3686392,-0.08830086,1.6341549,0.86457425,0.039999276,0.04,-9.695175,-1.5155166387557983,-0.085006945,-0.1754805,-0.043985385447740555,-0.14541717
1252.1666666658566,0.1764674,-0.71594733,0.111685134,-2.3688385,-0.089730375,1.6351768,0.865845,0.039999273,0.04,-9.691523,-1.5401222705841064,-0.085182205,-0.17667721,-0.044862572103738785,-0.14605808
1252.1833333325233,0.17928976,-0.7148512,0.11347259,-2.3690386,-0.091167755,1.6362045,0.86712277,0.039999265,0.04,-9.687666,-1.5653026103973389,-0.08524954,-0.17785679,-0.045747142285108566,-0.14667228
1252.19999999919,0.18212731,-0.7137492,0.11526966,-2.3692393,-0.09261285,1.6372378,0.8684075,0.039999243,0.04,-9.683842,-1.5901167392730713,-0.085354164,-0.17901766,-0.046636149287223816,-0.14726694
1252.2166666658566,0.18497977,-0.7126414,0.117076166,-2.369442,-0.09406548,1.6382765,0.8696988,0.03999923,0.04,-9.67982,-1.6155167818069458,-0.0853603,-0.18016012,-0.04753026366233826,-0.14783823
1252.2333333325232,0.18784675,-0.71152794,0.11889188,-2.369646,-0.09552555,1.6393204,0.8709969,0.039999217,0.04,-9.675944,-1.6407926082611084,-0.08534066,-0.18128246,-0.048435013741254807,-0.14838949
1252.2499999991899,0.1907279,-0.710409,0.1207166,-2.3698514,-0.09699282,1.6403695,0.8723012,0.039999206,0.04,-9.671999,-1.6659038066864014,-0.085327566,-0.18238573,-0.04934841766953468,-0.14891803
1252.2666666658565,0.19362293,-0.70928454,0.12255013,-2.370057,-0.09846717,1.6414236,0.8736118,0.039999194,0.04,-9.667787,-1.6915727853775024,-0.085212745,-0.18346855,-0.0502682626247406,-0.14942428
1252.2833333325232,0.19653153,-0.7081549,0.12439223,-2.3702636,-0.09994839,1.6424825,0.87492865,0.039999176,0.04,-9.663564,-1.7168577909469604,-0.085126996,-0.1845311,-0.05119214951992035,-0.14990982
1252.2999999991898,0.19945334,-0.7070203,0.1262427,-2.3704703,-0.10143634,1.6435463,0.87625146,0.03999916,0.04,-9.659149,-1.7426810264587402,-0.0849409,-0.18557364,-0.05212103947997093,-0.15037179
1252.3166666658565,0.20238803,-0.7058806,0.12810133,-2.3706777,-0.10293082,1.6446148,0.87758005,0.03999915,0.04,-9.65467,-1.7681154012680054,-0.08475441,-0.18659592,-0.05304921418428421,-0.15081172
1252.3333333325231,0.2053352,-0.704736,0.12996793,-2.3708868,-0.10443165,1.6456878,0.8789142,0.03999913,0.04,-9.6500845,-1.7940950393676758,-0.08447894,-0.18759678,-0.05398146063089371,-0.15123115
1252.3499999991898,0.20829454,-0.7035866,0.13184215,-2.3710968,-0.1059387,1.6467655,0.8802539,0.039999124,0.04,-9.645723,-1.8196966648101807,-0.084212415,-0.18857549,-0.05492277070879936,-0.1516262
1252.3666666658564,0.21126568,-0.7024328,0.1337239,-2.3713078,-0.10745175,1.6478473,0.88159895,0.039999105,0.04,-9.640993,-1.8457777500152588,-0.08386107,-0.18953279,-0.055867429822683334,-0.15199904
1252.383333332523,0.21424821,-0.70127445,0.1356129,-2.3715196,-0.10897063,1.6489332,0.8829492,0.039999094,0.04,-9.636307,-1.8715133666992188,-0.08351016,-0.19046806,-0.05681415647268295,-0.15234923
1252.3999999991897,0.21724196,-0.70011187,0.1375089,-2.371733,-0.11049517,1.6500231,0.88430434,0.03999908,0.04,-9.631396,-1.8976998329162598,-0.0830628,-0.19138148,-0.05776488780975342,-0.15267822
1252.4166666658564,0.22024639,-0.69894505,0.13941169,-2.3719463,-0.11202519,1.6511168,0.8856645,0.039999064,0.04,-9.626684,-1.9235589504241943,-0.08264407,-0.19227156,-0.058721527457237244,-0.15298344
1252.433333332523,0.22326127,-0.6977743,0.14132114,-2.3721602,-0.11356044,1.6522144,0.88702935,0.039999057,0.04,-9.621493,-1.9498053789138794,-0.08212388,-0.19313988,-0.05967705696821213,-0.15326387
1252.4499999991897,0.22628617,-0.69659966,0.14323688,-2.3723748,-0.11510078,1.6533157,0.88839865,0.039999034,0.04,-9.616491,-1.9757943153381348,-0.081632376,-0.19398448,-0.06063368543982506,-0.15352446
1252.4666666658563,0.22932075,-0.6954211,0.14515877,-2.3725898,-0.11664606,1.6544206,0.8897723,0.039999016,0.04,-9.611215,-2.0021188259124756,-0.08099683,-0.19480604,-0.061590585857629776,-0.15376252
1252.483333332523,0.23236457,-0.6942389,0.14708658,-2.3728056,-0.11819608,1.6555285,0.8911502,0.039999004,0.04,-9.605939,-2.0283310413360596,-0.08040796,-0.19560377,-0.06254631280899048,-0.15397708
1252.4999999991896,0.23541735,-0.6930535,0.14902002,-2.3730216,-0.119750634,1.65664,0.89253205,0.039998986,0.04,-9.600747,-2.0544071197509766,-0.07977925,-0.19637792,-0.06350591778755188,-0.15417044
1252.5166666658563,0.23847874,-0.6918648,0.15095891,-2.3732383,-0.12130953,1.6577547,0.89391786,0.039998963,0.04,-9.59516,-2.0808193683624268,-0.07902142,-0.19712785,-0.0644606426358223,-0.1543404
1252.533333332523,0.24154831,-0.69067276,0.15290299,-2.3734558,-0.12287261,1.658872,0.89530736,0.039998952,0.04,-9.589789,-2.106942892074585,-0.078319065,-0.19785395,-0.06541510671377182,-0.15448575
1252.5499999991896,0.2446257,-0.6894777,0.15485206,-2.373674,-0.124439664,1.6599923,0.8967004,0.039998934,0.04,-9.5841255,-2.133420944213867,-0.07748044,-0.19855517,-0.06637066602706909,-0.15461057
1252.5666666658562,0.24771056,-0.6882797,0.15680583,-2.3738925,-0.12601049,1.6611155,0.8980967,0.039998922,0.04,-9.578619,-2.159601926803589,-0.076701246,-0.19923125,-0.06732536852359772,-0.15471214
1252.583333332523,0.25080246,-0.68707913,0.1587641,-2.3741121,-0.12758495,1.6622411,0.89949626,0.039998908,0.04,-9.5727415,-2.1860668659210205,-0.07579732,-0.19988248,-0.06827604025602341,-0.15479091
1252.5999999991895,0.25390118,-0.6858758,0.16072658,-2.3743324,-0.12916279,1.663369,0.90089893,0.039998885,0.04,-9.567139,-2.2123000621795654,-0.07490901,-0.20050855,-0.06922878324985504,-0.15484853
1252.6166666658562,0.25700614,-0.6846701,0.16269308,-2.3745534,-0.13074385,1.6644994,0.9023043,0.03999887,0.04,-9.561144,-2.2387707233428955,-0.07392676,-0.20110862,-0.07017891854047775,-0.15488276
1252.6333333325229,0.26011702,-0.6834621,0.1646634,-2.3747745,-0.13232794,1.6656319,0.9037125,0.03999886,0.04,-9.555325,-2.264981746673584,-0.07298366,-0.20168279,-0.07112695276737213,-0.1548926
1252.6499999991895,0.2632335,-0.6822519,0.16663726,-2.374996,-0.13391481,1.6667664,0.9051231,0.039998833,0.04,-9.549131,-2.2914576530456543,-0.071915,-0.20223181,-0.07207002490758896,-0.15488367
1252.6666666658562,0.26635516,-0.6810396,0.16861437,-2.3752174,-0.13550438,1.6679028,0.90653604,0.03999882,0.04,-9.543104,-2.3176686763763428,-0.07090669,-0.20275435,-0.07300811260938644,-0.15485008
1252.6833333325228,0.26948157,-0.67982566,0.17059459,-2.375439,-0.13709638,1.669041,0.9079511,0.039998807,0.04,-9.536771,-2.344088077545166,-0.069758214,-0.20325066,-0.07394104450941086,-0.15479493
1252.6999999991895,0.27261242,-0.67861,0.17257759,-2.375661,-0.13869059,1.670181,0.90936816,0.039998792,0.04,-9.530566,-2.3702926635742188,-0.06865219,-0.2037209,-0.07486680150032043,-0.15471771
1252.716666665856,0.2757474,-0.6773927,0.17456315,-2.375883,-0.1402869,1.6713222,0.91078705,0.039998773,0.04,-9.524092,-2.3966684341430664,-0.06741458,-0.20416489,-0.07578612864017487,-0.15461947
1252.7333333325228,0.27888596,-0.67617404,0.17655104,-2.3761053,-0.14188507,1.6724648,0.9122075,0.039998755,0.04,-9.517714,-2.4229116439819336,-0.06619139,-0.2045811,-0.07670126110315323,-0.1544946
1252.7499999991894,0.28202787,-0.6749541,0.17854102,-2.3763275,-0.14348485,1.6736088,0.91362953,0.039998736,0.04,-9.511281,-2.4490582942962646,-0.06498817,-0.20497103,-0.07760779559612274,-0.15434961
1252.766666665856,0.28517267,-0.6737333,0.18053284,-2.37655,-0.14508615,1.6747537,0.91505307,0.039998714,0.04,-9.504555,-2.475346088409424,-0.06363047,-0.20533404,-0.07850563526153564,-0.15418437
1252.7833333325227,0.28831998,-0.67251134,0.18252625,-2.3767726,-0.14668871,1.6758994,0.91647744,0.039998688,0.04,-9.498074,-2.501437187194824,-0.062322132,-0.2056711,-0.07939711958169937,-0.15399772
1252.7999999991894,0.2914694,-0.67128843,0.18452096,-2.3769953,-0.14829232,1.6770458,0.917903,0.03999867,0.04,-9.491239,-2.527636766433716,-0.060899697,-0.20597918,-0.08028092235326767,-0.153789
1252.816666665856,0.2946206,-0.67006505,0.18651684,-2.3772182,-0.14989683,1.678193,0.919329,0.039998658,0.04,-9.484606,-2.553643226623535,-0.059550423,-0.20626093,-0.08115744590759277,-0.15355729
1252.8333333325227,0.29777315,-0.66884094,0.18851349,-2.3774412,-0.15150204,1.6793405,0.9207561,0.039998636,0.04,-9.477631,-2.5797629356384277,-0.058033075,-0.20651299,-0.08202344179153442,-0.15330623
1252.8499999991893,0.3009266,-0.6676165,0.19051081,-2.3776643,-0.15310769,1.6804883,0.92218333,0.039998613,0.04,-9.470883,-2.6057040691375732,-0.056614563,-0.20673962,-0.0828833356499672,-0.15303572
1252.866666665856,0.30408055,-0.6663919,0.19250846,-2.3778877,-0.15471365,1.6816363,0.92361075,0.039998595,0.04,-9.463823,-2.6316750049591064,-0.055035647,-0.20693763,-0.08373335003852844,-0.15274346
1252.8833333325226,0.30723473,-0.6651673,0.19450627,-2.378111,-0.15631971,1.6827844,0.9250382,0.03999858,0.04,-9.456926,-2.657501220703125,-0.053528976,-0.20710747,-0.08457465469837189,-0.15242933
1252.8999999991893,0.31038874,-0.6639426,0.19650392,-2.378334,-0.15792559,1.6839324,0.92646563,0.03999856,0.04,-9.449677,-2.6833605766296387,-0.0518998,-0.20724891,-0.08540365099906921,-0.15209487
1252.916666665856,0.3135422,-0.6627184,0.19850121,-2.3785572,-0.15953124,1.6850802,0.92789286,0.039998535,0.04,-9.442668,-2.709106922149658,-0.050341032,-0.20736219,-0.08622315526008606,-0.15174285
1252.9333333325226,0.31669462,-0.66149455,0.20049787,-2.3787804,-0.16113642,1.6862274,0.92931986,0.03999852,0.04,-9.435348,-2.7347910404205322,-0.048613667,-0.2074477,-0.08703102916479111,-0.15136744
1252.9499999991892,0.31984574,-0.66027117,0.20249371,-2.3790035,-0.16274087,1.6873744,0.93074584,0.039998505,0.04,-9.4281845,-2.7603952884674072,-0.047001854,-0.207506,-0.08782754093408585,-0.15097375
1252.9666666658559,0.3229951,-0.65904856,0.20448844,-2.3792264,-0.16434442,1.6885207,0.93217117,0.03999848,0.04,-9.420775,-2.785954713821411,-0.045231104,-0.20753373,-0.08861228823661804,-0.15056013
1252.9833333325225,0.32614222,-0.6578268,0.20648183,-2.3794494,-0.16594687,1.6896663,0.9335957,0.039998457,0.04,-9.413381,-2.8114097118377686,-0.04348525,-0.20753378,-0.08938346803188324,-0.15012605
1252.9999999991892,0.32928693,-0.6566059,0.20847362,-2.379672,-0.167548,1.6908109,0.93501896,0.039998446,0.04,-9.406078,-2.8367745876312256,-0.041777376,-0.2075065,-0.0901421457529068,-0.1496697
1253.0166666658558,0.3324287,-0.6553861,0.21046357,-2.3798945,-0.16914766,1.6919545,0.93644065,0.039998427,0.04,-9.398513,-2.8620948791503906,-0.0399194,-0.20744915,-0.0908888503909111,-0.14919779
1253.0333333325225,0.33556724,-0.6541678,0.21245143,-2.380117,-0.17074563,1.6930969,0.9378613,0.039998397,0.04,-9.391089,-2.887303113937378,-0.038158216,-0.20736264,-0.0916215255856514,-0.14870603
1253.0499999991891,0.33870208,-0.6529508,0.21443696,-2.3803391,-0.1723417,1.6942381,0.9392803,0.03999838,0.04,-9.383399,-2.9124083518981934,-0.03622173,-0.20724872,-0.09234029799699783,-0.14819504
1253.0666666658558,0.3418328,-0.6517355,0.21641994,-2.3805614,-0.17393577,1.6953775,0.94069725,0.03999836,0.04,-9.375862,-2.937455177307129,-0.034418285,-0.20710674,-0.09304313361644745,-0.14766686
1253.0833333325224,0.34495902,-0.6505219,0.21840006,-2.380783,-0.17552753,1.6965153,0.9421122,0.03999834,0.04,-9.368188,-2.9623525142669678,-0.03243442,-0.20693503,-0.09373559057712555,-0.14711852
1253.099999999189,0.34808046,-0.6493101,0.22037716,-2.3810046,-0.17711683,1.6976515,0.943525,0.039998323,0.04,-9.360523,-2.9872097969055176,-0.030567836,-0.20673516,-0.09441190958023071,-0.14655402
1253.1166666658557,0.35119674,-0.64810014,0.22235093,-2.3812258,-0.17870347,1.698786,0.944935,0.039998308,0.04,-9.352681,-3.0118825435638428,-0.028560184,-0.20650604,-0.0950716882944107,-0.14596814
1253.1333333325224,0.35430738,-0.6468925,0.22432116,-2.381447,-0.18028723,1.6999182,0.94634265,0.03999828,0.04,-9.345022,-3.036557912826538,-0.026660856,-0.20624635,-0.09571657329797745,-0.14536755
1253.149999999189,0.35741213,-0.64568734,0.22628766,-2.3816674,-0.18186794,1.701048,0.9477478,0.03999826,0.04,-9.337132,-3.0610177516937256,-0.024580475,-0.205958,-0.0963483676314354,-0.144748
1253.1666666658557,0.3605105,-0.6444846,0.22825013,-2.381887,-0.18344542,1.7021757,0.9491498,0.03999824,0.04,-9.329262,-3.085444927215576,-0.022617772,-0.20564245,-0.09695953875780106,-0.14410736
1253.1833333325224,0.36360213,-0.6432846,0.23020834,-2.3821063,-0.18501952,1.703301,0.9505489,0.039998207,0.04,-9.321219,-3.1096503734588623,-0.020531021,-0.20529737,-0.09755254536867142,-0.14345314
1253.199999999189,0.36668658,-0.6420873,0.23216203,-2.3823247,-0.18659002,1.7044235,0.9519447,0.039998185,0.04,-9.313411,-3.1338818073272705,-0.01849958,-0.20492448,-0.09812938421964645,-0.1427804
1253.2166666658557,0.36976364,-0.640893,0.234111,-2.3825426,-0.18815666,1.7055436,0.953337,0.039998163,0.04,-9.305312,-3.157839298248291,-0.01636975,-0.20452297,-0.09868830442428589,-0.14209314
1253.2333333325223,0.37283292,-0.6397014,0.23605502,-2.38276,-0.18971929,1.7066607,0.9547258,0.039998144,0.04,-9.297273,-3.1817405223846436,-0.014261292,-0.20409238,-0.09922679513692856,-0.1413891
1253.249999999189,0.3758939,-0.6385132,0.23799385,-2.3829765,-0.19127773,1.7077748,0.9561109,0.039998125,0.04,-9.289361,-3.205653667449951,-0.012215255,-0.20363262,-0.09974924474954605,-0.14067023
1253.2666666658556,0.37894621,-0.6373284,0.23992725,-2.3831923,-0.19283183,1.7088857,0.95749205,0.0399981,0.04,-9.281183,-3.2291948795318604,-0.0100009795,-0.20314516,-0.10025264322757721,-0.13993613
1253.2833333325223,0.38198966,-0.6361472,0.2418549,-2.3834074,-0.1943814,1.7099932,0.9588692,0.039998077,0.04,-9.273143,-3.2528069019317627,-0.007899892,-0.2026299,-0.10073482245206833,-0.13918585
1253.299999999189,0.3850238,-0.63496953,0.24377671,-2.383622,-0.19592613,1.7110976,0.9602422,0.039998062,0.04,-9.2649555,-3.27607798576355,-0.0056433715,-0.20208679,-0.10119900107383728,-0.1384199
1253.3166666658556,0.3880482,-0.6337956,0.24569236,-2.383836,-0.19746596,1.7121984,0.9616108,0.039998043,0.04,-9.2569475,-3.2994706630706787,-0.0035225577,-0.20151499,-0.10164375603199005,-0.13763961
1253.3333333325222,0.39106247,-0.63262546,0.24760166,-2.3840494,-0.19900064,1.7132955,0.96297467,0.039998014,0.04,-9.248727,-3.322460651397705,-0.0012462335,-0.20091487,-0.10206996649503708,-0.13684535
1253.3499999991889,0.39406627,-0.6314594,0.24950436,-2.3842626,-0.20053005,1.7143887,0.9643339,0.039997995,0.04,-9.240666,-3.3455491065979004,0.0009007626,-0.20028657,-0.1024770736694336,-0.13603401
1253.3666666658555,0.39705947,-0.6302977,0.25140023,-2.3844752,-0.20205396,1.7154782,0.9656883,0.039997973,0.04,-9.232479,-3.368269681930542,0.0032032812,-0.19962993,-0.10286737978458405,-0.13521263
1253.3833333325222,0.40004146,-0.6291403,0.25328904,-2.384687,-0.2035722,1.7165635,0.9670377,0.039997958,0.04,-9.224371,-3.391092538833618,0.005395239,-0.1989456,-0.1032361388206482,-0.13437371
1253.3999999991888,0.40301207,-0.6279873,0.25517058,-2.3848972,-0.2050846,1.7176445,0.9683817,0.03999793,0.04,-9.216079,-3.4134764671325684,0.0077065835,-0.19823383,-0.1035851463675499,-0.13352312
1253.4166666658555,0.40597072,-0.6268389,0.25704473,-2.3851066,-0.206591,1.7187212,0.9697204,0.039997917,0.04,-9.2078495,-3.436002254486084,0.00989548,-0.19749431,-0.10391006618738174,-0.13265833
1253.4333333325221,0.40891725,-0.6256954,0.25891107,-2.3853147,-0.20809111,1.7197932,0.97105354,0.039997883,0.04,-9.199569,-3.458066940307617,0.012214834,-0.1967274,-0.10421468317508698,-0.13177983
1253.4499999991888,0.4118513,-0.6245567,0.26076946,-2.3855217,-0.20958489,1.720861,0.972381,0.03999787,0.04,-9.19134,-3.480306386947632,0.014456779,-0.19593394,-0.10449639707803726,-0.13089031
1253.4666666658554,0.41477242,-0.623423,0.26261967,-2.3857281,-0.21107206,1.7219241,0.9737027,0.03999785,0.04,-9.183018,-3.502012014389038,0.016791731,-0.19511291,-0.10475477576255798,-0.12998484
1253.483333332522,0.4176803,-0.62229455,0.2644616,-2.3859336,-0.2125525,1.7229822,0.9750184,0.039997816,0.04,-9.174824,-3.523798704147339,0.019097649,-0.1942657,-0.104993537068367,-0.12907036
1253.4999999991887,0.4205746,-0.6211713,0.2662949,-2.3861387,-0.21402608,1.7240354,0.9763279,0.039997797,0.04,-9.166666,-3.5455660820007324,0.021370742,-0.19339113,-0.10521071404218674,-0.1281406
1253.5166666658554,0.42345506,-0.62005335,0.2681194,-2.3863432,-0.21549247,1.7250836,0.9776312,0.039997768,0.04,-9.158424,-3.5668344497680664,0.02374005,-0.19248934,-0.10540854185819626,-0.12720072
1253.533333332522,0.42632118,-0.61894095,0.26993483,-2.3865466,-0.21695167,1.7261264,0.97892797,0.039997745,0.04,-9.150353,-3.588324546813965,0.02600757,-0.19156083,-0.10558713972568512,-0.12625077
1253.5499999991887,0.4291728,-0.6178343,0.27174106,-2.3867483,-0.21840349,1.727164,0.9802181,0.039997727,0.04,-9.142035,-3.6092019081115723,0.028365294,-0.190606,-0.10574350506067276,-0.12528975
1253.5666666658553,0.4320096,-0.61673343,0.27353787,-2.3869486,-0.21984765,1.7281959,0.9815015,0.03999771,0.04,-9.133767,-3.6303086280822754,0.03062029,-0.1896261,-0.10587314516305923,-0.12431624
1253.583333332522,0.4348311,-0.6156385,0.27532512,-2.3871477,-0.22128408,1.7292229,0.9827781,0.039997686,0.04,-9.125481,-3.6508777141571045,0.032993734,-0.18862008,-0.10598146915435791,-0.1233346
1253.5999999991886,0.43763703,-0.6145497,0.27710253,-2.387346,-0.2227126,1.7302433,0.9840476,0.03999766,0.04,-9.117304,-3.6717031002044678,0.035265807,-0.1875888,-0.10606356710195541,-0.12234465
1253.6166666658553,0.4404271,-0.61346686,0.2788698,-2.3875432,-0.22413307,1.7312589,0.9853098,0.039997645,0.04,-9.109139,-3.6918702125549316,0.03767848,-0.18653189,-0.10612893104553223,-0.121339776
1253.633333332522,0.44320092,-0.6123906,0.28062683,-2.38774,-0.22554521,1.7322677,0.98656464,0.039997622,0.04,-9.10102,-3.7123515605926514,0.039925385,-0.18544894,-0.10616818070411682,-0.12032936
1253.6499999991886,0.4459583,-0.61132056,0.28237337,-2.3879356,-0.22694899,1.7332712,0.98781216,0.039997604,0.04,-9.092869,-3.7321901321411133,0.04233578,-0.18434146,-0.1061895489692688,-0.11930912
1253.6666666658552,0.44869882,-0.610257,0.28410923,-2.38813,-0.22834422,1.7342684,0.98905194,0.03999758,0.04,-9.084842,-3.75232195854187,0.04458842,-0.18320918,-0.10618799924850464,-0.1182792
1253.683333332522,0.45142218,-0.60920006,0.28583428,-2.388322,-0.22973074,1.735259,0.990284,0.039997566,0.04,-9.076653,-3.7717695236206055,0.04695562,-0.18205169,-0.10616293549537659,-0.11723934
1253.6999999991885,0.4541282,-0.60815,0.28754827,-2.388513,-0.23110841,1.7362436,0.99150825,0.03999754,0.04,-9.0685,-3.7915375232696533,0.049206503,-0.18087205,-0.10611370205879211,-0.11619424
1253.7166666658552,0.45681646,-0.6071069,0.289251,-2.3887029,-0.23247701,1.7372218,0.9927245,0.03999752,0.04,-9.060389,-3.8106114864349365,0.051575143,-0.1796677,-0.10604001581668854,-0.11513908
1253.7333333325219,0.45948666,-0.6060709,0.29094246,-2.3888917,-0.23383638,1.7381933,0.99393237,0.039997503,0.04,-9.052316,-3.8297438621520996,0.053878617,-0.1784406,-0.10594144463539124,-0.11407457
1253.7499999991885,0.4621386,-0.60504186,0.29262224,-2.38908,-0.23518647,1.7391582,0.995132,0.03999748,0.04,-9.044424,-3.849036931991577,0.056183655,-0.1771887,-0.1058245301246643,-0.11300565
1253.7666666658552,0.46477184,-0.6040199,0.2942902,-2.3892672,-0.23652709,1.7401164,0.9963233,0.039997462,0.04,-9.036503,-3.8675589561462402,0.058525674,-0.17591278,-0.10568749904632568,-0.1119263
1253.7833333325218,0.46738622,-0.60300535,0.29594627,-2.3894515,-0.23785806,1.7410678,0.9975059,0.039997436,0.04,-9.028592,-3.886434316635132,0.06075634,-0.17461409,-0.10552790015935898,-0.11084024
1253.7999999991885,0.4699815,-0.60199845,0.29759008,-2.3896346,-0.23917928,1.742012,0.9986798,0.039997417,0.04,-9.020444,-3.9045214653015137,0.063047,-0.17329437,-0.10533800721168518,-0.10974726
1253.816666665855,0.47255713,-0.60099894,0.29922166,-2.3898165,-0.24049057,1.7429491,0.9998449,0.039997395,0.04,-9.012609,-3.923027276992798,0.0653203,-0.17195158,-0.1051269993185997,-0.108646594
1253.8333333325218,0.47511315,-0.60000724,0.3008407,-2.389997,-0.2417918,1.7438788,1.0010011,0.039997373,0.04,-9.00478,-3.940763473510742,0.06762155,-0.17058782,-0.10489530861377716,-0.10754077
1253.8499999991884,0.4776492,-0.5990232,0.3024471,-2.390177,-0.24308287,1.7448015,1.0021483,0.039997347,0.04,-8.996952,-3.9589145183563232,0.06985642,-0.16920178,-0.10464076697826385,-0.10643089
1253.866666665855,0.48016492,-0.59804714,0.30404073,-2.3903556,-0.24436359,1.7457167,1.0032864,0.039997328,0.04,-8.989307,-3.9763126373291016,0.07215754,-0.16779299,-0.10436809808015823,-0.105314784
1253.8833333325217,0.4826601,-0.597079,0.3056213,-2.3905315,-0.24563387,1.7466244,1.0044152,0.039997306,0.04,-8.981565,-3.994044780731201,0.07437035,-0.16636509,-0.10407224297523499,-0.10419238
1253.8999999991884,0.48513457,-0.59611905,0.30718857,-2.3907056,-0.24689361,1.7475245,1.0055342,0.039997295,0.04,-8.973751,-4.010969638824463,0.07659245,-0.16491652,-0.10375064611434937,-0.10306566
1253.916666665855,0.48758793,-0.59516704,0.3087426,-2.390879,-0.24814263,1.748417,1.006644,0.039997272,0.04,-8.966018,-4.02830696105957,0.078785576,-0.16344818,-0.10340294241905212,-0.101934336
1253.9333333325217,0.49001995,-0.59422344,0.31028333,-2.391051,-0.24938083,1.7493018,1.0077442,0.03999725,0.04,-8.958553,-4.04490852355957,0.08102676,-0.1619592,-0.10303855687379837,-0.10079933
1253.9499999991883,0.49243054,-0.59328794,0.31181026,-2.3912227,-0.2506081,1.7501788,1.0088347,0.03999723,0.04,-8.951034,-4.061920166015625,0.08321235,-0.16045043,-0.10265307873487473,-0.09965998
1253.966666665855,0.4948193,-0.5923612,0.31332344,-2.3913915,-0.25182426,1.7510478,1.0099154,0.039997227,0.04,-8.9437,-4.078096389770508,0.085429244,-0.15892038,-0.10225141048431396,-0.09851266
1253.9833333325216,0.4971861,-0.5914429,0.31482267,-2.391558,-0.2530291,1.7519088,1.0109861,0.03999721,0.04,-8.936011,-4.094324111938477,0.087565795,-0.15737459,-0.10181970149278641,-0.097365245
1253.9999999991883,0.49953058,-0.59053344,0.31630784,-2.391723,-0.2542227,1.7527615,1.0120466,0.039997183,0.04,-8.92859,-4.110743045806885,0.089685746,-0.1558107,-0.10136741399765015,-0.09621693
1254.016666665855,0.50185263,-0.5896326,0.31777874,-2.3918872,-0.25540477,1.7536062,1.0130969,0.03999717,0.04,-8.921189,-4.126245021820068,0.09186059,-0.15422888,-0.1008913591504097,-0.095061265
1254.0333333325216,0.50415194,-0.5887408,0.3192353,-2.392051,-0.25657538,1.7544426,1.0141368,0.039997153,0.04,-8.914041,-4.142305850982666,0.09397777,-0.15262812,-0.10039854049682617,-0.09390384
1254.0499999991882,0.50642836,-0.5878573,0.32067737,-2.392212,-0.25773427,1.7552706,1.0151666,0.039997138,0.04,-8.90694,-4.157477855682373,0.09615848,-0.15100756,-0.09988948702812195,-0.09274321
1254.0666666658549,0.50868165,-0.5869832,0.32210484,-2.3923705,-0.2588814,1.7560903,1.016186,0.03999712,0.04,-8.89966,-4.173080921173096,0.09813868,-0.14937235,-0.09935737401247025,-0.09157978
1254.0833333325215,0.5109115,-0.58611804,0.3235176,-2.3925276,-0.26001668,1.7569015,1.0171947,0.039997097,0.04,-8.89241,-4.187784671783447,0.10024599,-0.14772245,-0.09879940003156662,-0.09041698
1254.0999999991882,0.51311815,-0.5852619,0.3249154,-2.3926837,-0.26114,1.7577041,1.0181929,0.039997075,0.04,-8.885408,-4.203033924102783,0.10228242,-0.14605552,-0.09822317212820053,-0.08925102
1254.1166666658548,0.51530105,-0.58441484,0.32629815,-2.3928394,-0.2622513,1.7584981,1.0191802,0.03999706,0.04,-8.878495,-4.217382431030273,0.10435986,-0.144371,-0.09762968868017197,-0.08808316
1254.1333333325215,0.51746005,-0.5835771,0.32766587,-2.392991,-0.26335037,1.7592835,1.0201565,0.039997056,0.04,-8.871736,-4.23225736618042,0.10637982,-0.14266951,-0.09702295064926147,-0.08691022
1254.1499999991881,0.51959497,-0.5827487,0.3290182,-2.3931408,-0.26443717,1.7600602,1.0211221,0.039997038,0.04,-8.864571,-4.246103763580322,0.10832945,-0.14095443,-0.09638514369726181,-0.08573966
1254.1666666658548,0.52170545,-0.58192986,0.3303553,-2.3932896,-0.2655116,1.7608277,1.0220766,0.03999702,0.04,-8.857746,-4.260526180267334,0.110309236,-0.13922684,-0.09572838246822357,-0.08456725
1254.1833333325214,0.52379155,-0.58112043,0.33167687,-2.3934379,-0.26657364,1.7615868,1.0230199,0.039996997,0.04,-8.851106,-4.2740349769592285,0.11231226,-0.13748457,-0.09505631774663925,-0.083394796
1254.199999999188,0.52585316,-0.5803208,0.33298287,-2.3935847,-0.26762316,1.7623366,1.0239524,0.03999698,0.04,-8.844614,-4.2881269454956055,0.114268474,-0.1357257,-0.09437049180269241,-0.08221989
1254.2166666658547,0.5278899,-0.57953066,0.33427322,-2.3937275,-0.2686601,1.7630774,1.0248735,0.039996963,0.04,-8.838038,-4.301236152648926,0.11622155,-0.13395494,-0.09366724640130997,-0.08104548
1254.2333333325214,0.5299019,-0.57875013,0.33554772,-2.393869,-0.26968428,1.7638088,1.0257837,0.039996948,0.04,-8.831238,-4.314400672912598,0.11804869,-0.13217404,-0.09293681383132935,-0.079870455
1254.249999999188,0.53188884,-0.5779794,0.3368064,-2.3940096,-0.27069584,1.7645315,1.0266824,0.039996937,0.04,-8.824829,-4.327893257141113,0.11995611,-0.13038106,-0.09219226241111755,-0.07869633
1254.2666666658547,0.5338505,-0.5772186,0.3380491,-2.3941498,-0.27169433,1.765245,1.0275698,0.03999692,0.04,-8.818583,-4.340393543243408,0.12184207,-0.12857401,-0.09143280982971191,-0.07752193
1254.2833333325214,0.535787,-0.57646763,0.33927578,-2.3942857,-0.27267998,1.7659492,1.0284456,0.039996903,0.04,-8.8124,-4.3534698486328125,0.12370887,-0.12675622,-0.0906619057059288,-0.076347984
1254.299999999188,0.5376979,-0.5757263,0.3404865,-2.3944197,-0.27365276,1.7666445,1.02931,0.039996885,0.04,-8.805878,-4.365482807159424,0.1254619,-0.12492931,-0.08986298739910126,-0.07517783
1254.3166666658547,0.5395831,-0.574995,0.34168097,-2.3945525,-0.2746125,1.76733,1.0301627,0.03999687,0.04,-8.799717,-4.378153324127197,0.12724943,-0.123091005,-0.08904854953289032,-0.07400653
1254.3333333325213,0.5414427,-0.5742737,0.34285903,-2.3946848,-0.27555907,1.7680064,1.0310036,0.039996862,0.04,-8.793726,-4.389793395996094,0.12905468,-0.12124256,-0.08822096139192581,-0.07283585
1254.349999999188,0.54327625,-0.57356244,0.3440207,-2.3948157,-0.2764925,1.7686733,1.0318328,0.039996844,0.04,-8.787882,-4.402110576629639,0.13084467,-0.11938213,-0.08738455176353455,-0.07166811
1254.3666666658546,0.5450838,-0.57286114,0.345166,-2.394942,-0.27741283,1.7693305,1.0326502,0.039996825,0.04,-8.782032,-4.41334867477417,0.1325627,-0.11751376,-0.08653471618890762,-0.07050297
1254.3833333325213,0.54686534,-0.5721701,0.3462948,-2.3950672,-0.27831987,1.7699784,1.0334562,0.039996818,0.04,-8.775845,-4.425105571746826,0.1341896,-0.115639515,-0.08566071838140488,-0.06933761
1254.399999999188,0.5486209,-0.5714891,0.34740692,-2.395192,-0.27921355,1.7706168,1.0342504,0.03999681,0.04,-8.770184,-4.435959339141846,0.13590129,-0.113759086,-0.08477340638637543,-0.06817468
1254.4166666658546,0.55035037,-0.57081836,0.3485026,-2.395316,-0.28009388,1.7712457,1.0350323,0.03999679,0.04,-8.76461,-4.447474479675293,0.13757998,-0.11186923,-0.08387826383113861,-0.067015916
1254.4333333325212,0.5520534,-0.5701579,0.34958157,-2.3954346,-0.28096074,1.771865,1.0358025,0.039996777,0.04,-8.759202,-4.457983493804932,0.13925771,-0.10996774,-0.0829739198088646,-0.06585759
1254.4499999991879,0.55373013,-0.5695075,0.3506438,-2.3955522,-0.28181428,1.7724749,1.0365608,0.03999677,0.04,-8.753205,-4.468914031982422,0.14075403,-0.10806617,-0.08204270899295807,-0.0647057
1254.4666666658545,0.55538034,-0.5688675,0.3516893,-2.395669,-0.28265426,1.773075,1.0373069,0.039996766,0.04,-8.747913,-4.478964805603027,0.1423696,-0.10615785,-0.08110161870718002,-0.0635545
1254.4833333325212,0.5570039,-0.56823766,0.352718,-2.3957853,-0.28348082,1.7736654,1.0380412,0.039996747,0.04,-8.742731,-4.489261627197266,0.1439799,-0.104242146,-0.08015471696853638,-0.062407777
1254.4999999991878,0.558601,-0.5676182,0.35372987,-2.3958962,-0.28429377,1.7742462,1.0387636,0.039996736,0.04,-8.737576,-4.499751567840576,0.14552471,-0.10232109,-0.07920173555612564,-0.061261505
1254.5166666658545,0.56017137,-0.5670089,0.3547249,-2.3960059,-0.28509328,1.7748172,1.039474,0.03999672,0.04,-8.731967,-4.509082317352295,0.14692752,-0.10040101,-0.07822122424840927,-0.060122952
1254.5333333325211,0.56171525,-0.56641006,0.3557031,-2.3961153,-0.28587925,1.7753787,1.040172,0.03999671,0.04,-8.72696,-4.519175052642822,0.148451,-0.09847591,-0.07723613828420639,-0.058987055
1254.5499999991878,0.56323236,-0.5658216,0.35666442,-2.396224,-0.28665152,1.7759305,1.040858,0.039996702,0.04,-8.72215,-4.528274059295654,0.14995515,-0.09654433,-0.0762445479631424,-0.057853453
1254.5666666658544,0.56472313,-0.5652435,0.35760877,-2.396327,-0.28741023,1.7764724,1.0415318,0.039996695,0.04,-8.717356,-4.53798770904541,0.15142727,-0.09460888,-0.07524967193603516,-0.056721576
1254.583333332521,0.5661869,-0.5646757,0.35853624,-2.396429,-0.28815538,1.7770048,1.0421935,0.039996684,0.04,-8.712038,-4.546548843383789,0.15272152,-0.09267509,-0.07422783970832825,-0.05560211
1254.5999999991877,0.5676239,-0.56411827,0.35944688,-2.3965309,-0.28888696,1.7775275,1.0428436,0.039996672,0.04,-8.70736,-4.555844783782959,0.15413888,-0.090739965,-0.07320188730955124,-0.054485455
1254.6166666658544,0.5690341,-0.5635712,0.36034048,-2.3966317,-0.28960484,1.7780404,1.0434815,0.039996665,0.04,-8.703002,-4.564166069030762,0.15556216,-0.088802844,-0.07217618823051453,-0.05336982
1254.633333332521,0.5704177,-0.5630346,0.3612172,-2.3967297,-0.29030913,1.7785435,1.0441071,0.039996665,0.04,-8.698446,-4.573063373565674,0.15690063,-0.086865224,-0.07114467024803162,-0.05225816
1254.6499999991877,0.5717746,-0.5625084,0.362077,-2.3968241,-0.2909998,1.7790369,1.0447208,0.039996654,0.04,-8.693894,-4.580938816070557,0.15818232,-0.08492742,-0.07010284066200256,-0.05115464
1254.6666666658543,0.5731046,-0.56199247,0.3629198,-2.396918,-0.2916769,1.7795208,1.0453223,0.03999664,0.04,-8.689206,-4.589405536651611,0.15942244,-0.082994096,-0.06904669851064682,-0.050058465
1254.683333332521,0.5744082,-0.56148696,0.3637457,-2.3970113,-0.2923406,1.7799947,1.0459117,0.039996628,0.04,-8.68517,-4.596919536590576,0.16070807,-0.081060484,-0.06799135357141495,-0.048967868
1254.6999999991876,0.5756851,-0.56099164,0.36455485,-2.3971033,-0.2929906,1.7804588,1.046489,0.039996624,0.04,-8.68101,-4.605091094970703,0.16199428,-0.07912666,-0.0669349655508995,-0.047878705
1254.7166666658543,0.5769354,-0.56050676,0.3653472,-2.3971899,-0.29362705,1.7809135,1.0470544,0.039996617,0.04,-8.677031,-4.612246990203857,0.16317931,-0.07719412,-0.06587716937065125,-0.046795536
1254.733333332521,0.57815933,-0.56003207,0.3661227,-2.397276,-0.29425007,1.7813585,1.0476079,0.03999661,0.04,-8.672533,-4.619486331939697,0.1642624,-0.075269975,-0.06479865312576294,-0.045722343
1254.7499999991876,0.57935655,-0.5595677,0.3668814,-2.3973615,-0.29485962,1.781794,1.0481495,0.039996598,0.04,-8.66864,-4.627108097076416,0.16544805,-0.073348165,-0.06372171640396118,-0.044656802
1254.7666666658542,0.5805275,-0.5591134,0.36762345,-2.397446,-0.29545566,1.7822194,1.0486785,0.039996594,0.04,-8.665065,-4.633662700653076,0.16661529,-0.07143034,-0.06264735758304596,-0.043592997
1254.783333332521,0.581672,-0.55866957,0.36834884,-2.3975248,-0.2960383,1.7826356,1.0491959,0.039996587,0.04,-8.661302,-4.640921592712402,0.16772746,-0.06951252,-0.06157555431127548,-0.04253758
1254.7999999991875,0.58279026,-0.5582357,0.3690576,-2.3976033,-0.29660755,1.7830423,1.0497018,0.03999658,0.04,-8.657168,-4.646966934204102,0.16867955,-0.06760817,-0.06048203632235527,-0.041492324
1254.8166666658542,0.58388233,-0.5578122,0.36974975,-2.3976808,-0.2971635,1.7834393,1.050196,0.039996576,0.04,-8.6537075,-4.65383768081665,0.16978331,-0.06570978,-0.0593942254781723,-0.040453732
1254.8333333325209,0.5849485,-0.5573988,0.3704254,-2.3977575,-0.29770616,1.7838271,1.050678,0.039996568,0.04,-8.650392,-4.6596903800964355,0.17085262,-0.0638181,-0.05831076204776764,-0.039421476
1254.8499999991875,0.5859887,-0.55699515,0.37108472,-2.397829,-0.29823568,1.7842053,1.0511483,0.03999657,0.04,-8.646975,-4.666173458099365,0.17186522,-0.06193095,-0.05722763016819954,-0.038394995
1254.8666666658542,0.58700293,-0.556602,0.3717276,-2.3978996,-0.29875204,1.7845742,1.0516069,0.039996568,0.04,-8.643328,-4.671537399291992,0.17271034,-0.060055476,-0.05613147094845772,-0.03737901
1254.8833333325208,0.5879916,-0.55621856,0.37235427,-2.3979697,-0.29925525,1.7849337,1.052054,0.03999655,0.04,-8.640103,-4.677652359008789,0.1737385,-0.058189534,-0.05504058673977852,-0.03637504
1254.8999999991875,0.5889547,-0.555845,0.37296474,-2.3980389,-0.2997456,1.785284,1.0524896,0.039996546,0.04,-8.63717,-4.682818412780762,0.17467432,-0.05633112,-0.05395468696951866,-0.03537524
1254.916666665854,0.5898923,-0.5554814,0.3735591,-2.3981047,-0.30022293,1.785625,1.0529138,0.039996542,0.04,-8.634121,-4.688570022583008,0.1755989,-0.05448209,-0.052873753011226654,-0.034382902
1254.9333333325208,0.59080464,-0.5551276,0.37413743,-2.398168,-0.30068737,1.7859569,1.0533262,0.03999654,0.04,-8.631052,-4.693285942077637,0.17641987,-0.052646834,-0.05179000273346901,-0.033400904
1254.9499999991874,0.59169185,-0.55478346,0.37469995,-2.3982306,-0.30113906,1.7862796,1.0537271,0.039996546,0.04,-8.627956,-4.698620796203613,0.17725216,-0.050823122,-0.050704214721918106,-0.03242603
1254.966666665854,0.59255415,-0.55444896,0.37524667,-2.398292,-0.30157804,1.7865932,1.0541174,0.039996535,0.04,-8.625347,-4.703102111816406,0.17810087,-0.049009487,-0.04962744936347008,-0.031464387
1254.9833333325207,0.59339184,-0.554124,0.37577766,-2.3983517,-0.30200443,1.7868977,1.0544964,0.03999653,0.04,-8.622725,-4.7077813148498535,0.17891884,-0.047210287,-0.048557937145233154,-0.030512607
1254.9999999991874,0.5942048,-0.5538086,0.37629306,-2.398408,-0.3024184,1.7871933,1.054864,0.039996527,0.04,-8.619976,-4.712616920471191,0.1796894,-0.04542441,-0.047492410987615585,-0.029567365
1255.016666665854,0.59499353,-0.55350274,0.37679315,-2.3984628,-0.30281994,1.7874802,1.0552208,0.03999652,0.04,-8.617302,-4.71647310256958,0.18037592,-0.04365495,-0.04642530530691147,-0.02863507
1255.0333333325207,0.5957579,-0.55320615,0.37727785,-2.3985171,-0.30320913,1.7877581,1.0555665,0.039996523,0.04,-8.61478,-4.721019744873047,0.1811377,-0.041900158,-0.04536356031894684,-0.027709851
1255.0499999991873,0.5964985,-0.5529189,0.37774754,-2.3985703,-0.30358607,1.7880274,1.0559013,0.039996523,0.04,-8.612624,-4.724612712860107,0.18185365,-0.040159684,-0.044314850121736526,-0.026795514
1255.066666665854,0.5972155,-0.55264086,0.37820208,-2.3986206,-0.30395094,1.7882882,1.0562253,0.03999652,0.04,-8.6102915,-4.7288641929626465,0.1825704,-0.03843355,-0.04327452555298805,-0.025892492
1255.0833333325206,0.59790874,-0.552372,0.3786419,-2.398668,-0.30430388,1.7885404,1.056539,0.039996523,0.04,-8.608025,-4.73208475112915,0.18316244,-0.0367256,-0.04223639518022537,-0.024999944
1255.0999999991873,0.59857875,-0.55211204,0.37906685,-2.3987148,-0.30464512,1.788784,1.0568421,0.039996516,0.04,-8.605622,-4.735888957977295,0.18376979,-0.035040323,-0.04120129346847534,-0.024122221
1255.116666665854,0.5992259,-0.551861,0.37947723,-2.3987608,-0.30497465,1.7890196,1.0571351,0.03999651,0.04,-8.603776,-4.738860130310059,0.1844029,-0.03337198,-0.04018004983663559,-0.023254974
1255.1333333325206,0.5998504,-0.55161875,0.37987334,-2.3988063,-0.3052926,1.7892467,1.0574173,0.03999651,0.04,-8.601822,-4.7424211502075195,0.18502313,-0.031722706,-0.03916996344923973,-0.02239731
1255.1499999991872,0.6004523,-0.5513853,0.38025522,-2.3988488,-0.3055992,1.7894654,1.0576897,0.039996512,0.04,-8.60015,-4.745137691497803,0.18561454,-0.03008856,-0.03817563131451607,-0.02155042
1255.1666666658539,0.60103196,-0.5511602,0.38062307,-2.398888,-0.30589443,1.7896762,1.057952,0.03999652,0.04,-8.598082,-4.7482757568359375,0.18612054,-0.028479861,-0.03718702495098114,-0.020715382
1255.1833333325205,0.60159004,-0.5509437,0.38097712,-2.3989272,-0.30617866,1.7898791,1.0582044,0.03999652,0.04,-8.596229,-4.750582695007324,0.18655412,-0.02689477,-0.0362028144299984,-0.019896362
1255.1999999991872,0.60212654,-0.5507356,0.38131747,-2.3989654,-0.30645174,1.7900742,1.0584471,0.039996512,0.04,-8.594613,-4.753554344177246,0.18712279,-0.02532868,-0.03523479029536247,-0.019090312
1255.2166666658538,0.6026417,-0.55053574,0.38164437,-2.399003,-0.30671415,1.7902616,1.0586803,0.039996512,0.04,-8.593157,-4.755627632141113,0.18760501,-0.023786131,-0.034280434250831604,-0.01829621
1255.2333333325205,0.60313594,-0.550344,0.38195804,-2.399038,-0.30696586,1.7904414,1.0589038,0.03999651,0.04,-8.591801,-4.75792121887207,0.18809281,-0.02226568,-0.033344775438308716,-0.017514499
1255.2499999991871,0.60360956,-0.5501602,0.38225868,-2.3990703,-0.3072072,1.7906138,1.059118,0.039996512,0.04,-8.59011,-4.760317802429199,0.18848382,-0.020771323,-0.032416582107543945,-0.016747024
1255.2666666658538,0.60406303,-0.5499844,0.3825466,-2.3991017,-0.30743814,1.7907788,1.0593234,0.039996516,0.04,-8.588678,-4.761921405792236,0.18885878,-0.019304069,-0.03149762004613876,-0.01599324
1255.2833333325204,0.6044966,-0.54981625,0.3828218,-2.3991323,-0.30765906,1.7909365,1.0595195,0.039996516,0.04,-8.587359,-4.764117240905762,0.18929002,-0.017862622,-0.03059498965740204,-0.015254795
1255.299999999187,0.6049108,-0.54965585,0.38308474,-2.3991625,-0.3078699,1.7910873,1.0597069,0.039996516,0.04,-8.586283,-4.765491485595703,0.1896766,-0.016447289,-0.029710616916418076,-0.014530046
1255.3166666658537,0.6053058,-0.5495022,0.3833356,-2.399191,-0.30807108,1.791231,1.0598856,0.03999652,0.04,-8.585159,-4.767419338226318,0.19008434,-0.015057299,-0.02884492836892605,-0.0138189895
1255.3333333325204,0.60568196,-0.54935604,0.38357455,-2.3992171,-0.30826265,1.7913679,1.0600559,0.03999652,0.04,-8.58413,-4.768547534942627,0.19034515,-0.013695018,-0.027996275573968887,-0.01312474
1255.349999999187,0.6060397,-0.5492172,0.38380188,-2.3992414,-0.30844492,1.7914981,1.0602175,0.039996516,0.04,-8.582915,-4.770088195800781,0.19065681,-0.012364784,-0.02716081589460373,-0.012447879
1255.3666666658537,0.6063796,-0.5490852,0.38401785,-2.3992648,-0.30861807,1.7916219,1.0603714,0.03999652,0.04,-8.581942,-4.770927429199219,0.19093841,-0.011063979,-0.026339972391724586,-0.011786027
1255.3833333325204,0.60670215,-0.5489602,0.3842228,-2.3992875,-0.30878243,1.7917393,1.0605174,0.039996516,0.04,-8.581031,-4.772275924682617,0.19124855,-0.009794919,-0.02553887665271759,-0.011141325
1255.399999999187,0.60700756,-0.5488416,0.38441688,-2.39931,-0.30893812,1.7918506,1.0606558,0.039996523,0.04,-8.580316,-4.772950172424316,0.191535,-0.008555582,-0.024757489562034607,-0.010510971
1255.4166666658537,0.60729617,-0.5487296,0.38460043,-2.399331,-0.30908528,1.7919557,1.0607866,0.039996523,0.04,-8.579652,-4.774038314819336,0.19181815,-0.007347669,-0.024001959711313248,-0.009896613
1255.4333333325203,0.60756856,-0.5486237,0.38477367,-2.3993502,-0.30922422,1.792055,1.0609101,0.039996523,0.04,-8.578929,-4.774428844451904,0.19201738,-0.0061741844,-0.023264044895768166,-0.009300926
1255.449999999187,0.60782516,-0.54852384,0.384937,-2.3993676,-0.30935514,1.7921486,1.0610265,0.039996523,0.04,-8.578168,-4.775207042694092,0.1922087,-0.0050352705,-0.022544508799910545,-0.008721827
1255.4666666658536,0.60806644,-0.54843014,0.38509065,-2.399384,-0.30947834,1.7922368,1.0611359,0.03999653,0.04,-8.577544,-4.77537727355957,0.19238251,-0.0039321096,-0.0218438021838665,-0.008161983
1255.4833333325203,0.60829324,-0.5483421,0.38523495,-2.3993995,-0.30959398,1.792319,1.0612385,0.039996535,0.04,-8.577008,-4.77570104598999,0.1925826,-0.0028650507,-0.021163497120141983,-0.007619567
1255.499999999187,0.60850555,-0.5482595,0.38537025,-2.3994145,-0.3097024,1.7923968,1.061335,0.03999654,0.04,-8.576471,-4.776176452636719,0.1927847,-0.0018322609,-0.02050800435245037,-0.007095119
1255.5166666658536,0.60870427,-0.5481822,0.38549685,-2.3994293,-0.30980378,1.7924694,1.0614251,0.03999654,0.04,-8.576186,-4.776093006134033,0.1929402,-0.0008373826,-0.019876886159181595,-0.006590729
1255.5333333325202,0.60888976,-0.5481102,0.3856151,-2.3994431,-0.3098985,1.7925364,1.0615091,0.03999654,0.04,-8.575849,-4.7763495445251465,0.19311528,0.00012162915,-0.019272761419415474,-0.006105174
1255.5499999991869,0.6090624,-0.5480428,0.38572526,-2.3994558,-0.3099867,1.7925991,1.0615877,0.039996542,0.04,-8.575553,-4.776054382324219,0.19325519,0.0010422248,-0.018694709986448288,-0.005637042
1255.5666666658535,0.609223,-0.5479803,0.38582778,-2.399467,-0.3100688,1.7926577,1.0616604,0.039996546,0.04,-8.575234,-4.77605676651001,0.19333604,0.0019212085,-0.018141308799386024,-0.005189989
1255.5833333325202,0.609372,-0.54792225,0.3859228,-2.399477,-0.3101449,1.7927125,1.0617281,0.03999655,0.04,-8.574909,-4.775583267211914,0.1934139,0.0027610257,-0.01760728470981121,-0.0047643026
1255.5999999991868,0.60950994,-0.5478687,0.3860108,-2.3994863,-0.31021538,1.7927632,1.061791,0.03999655,0.04,-8.57465,-4.775370121002197,0.19350177,0.0035575603,-0.01709735207259655,-0.004361567
1255.6166666658535,0.60963726,-0.5478191,0.38609213,-2.3994946,-0.3102806,1.7928102,1.0618488,0.039996553,0.04,-8.574497,-4.774718284606934,0.19358589,0.0043102526,-0.01661241427063942,-0.0039794943
1255.6333333325201,0.6097548,-0.5477733,0.38616726,-2.3995023,-0.3103407,1.7928534,1.0619019,0.039996557,0.04,-8.574383,-4.77432107925415,0.19366579,0.0050210194,-0.016156015917658806,-0.0036192082
1255.6499999991868,0.6098631,-0.5477311,0.38623664,-2.3995094,-0.3103962,1.7928927,1.0619512,0.03999656,0.04,-8.574309,-4.773548126220703,0.19373123,0.00568942,-0.015726543962955475,-0.003281194
1255.6666666658534,0.60996264,-0.54769224,0.38630047,-2.3995166,-0.31044725,1.7929286,1.0619965,0.03999656,0.04,-8.574287,-4.77301025390625,0.19382279,0.006312469,-0.015328875742852688,-0.002965196
1255.68333333252,0.6100543,-0.54765654,0.38635924,-2.3995237,-0.3104942,1.7929623,1.0620382,0.039996564,0.04,-8.574394,-4.772099494934082,0.19388175,0.0068905405,-0.014963672496378422,-0.0026706753
1255.6999999991867,0.6101385,-0.5476235,0.38641334,-2.399531,-0.3105374,1.7929938,1.0620764,0.039996564,0.04,-8.574432,-4.771435260772705,0.1939248,0.0074237483,-0.014626462012529373,-0.0024005882
1255.7166666658534,0.6102156,-0.54759336,0.38646314,-2.399537,-0.31057724,1.7930217,1.0621116,0.039996564,0.04,-8.574563,-4.770557403564453,0.19394815,0.007915335,-0.014317857101559639,-0.0021523805
1255.73333333252,0.6102867,-0.54756564,0.38650888,-2.3995426,-0.31061387,1.7930481,1.0621443,0.039996568,0.04,-8.574541,-4.769789218902588,0.19398491,0.00836582,-0.014036337845027447,-0.001921258
1255.7499999991867,0.61035204,-0.54754007,0.38655108,-2.3995473,-0.31064764,1.793072,1.0621744,0.039996568,0.04,-8.574474,-4.769233226776123,0.1939914,0.008778839,-0.013772528618574142,-0.0017111448
1255.7666666658533,0.61041194,-0.54751647,0.38658983,-2.3995516,-0.31067863,1.7930942,1.062202,0.03999657,0.04,-8.574495,-4.768531322479248,0.1940122,0.0091581205,-0.013530985452234745,-0.0015160245
1255.78333333252,0.61046696,-0.54749477,0.38662556,-2.3995557,-0.31070703,1.7931143,1.0622276,0.03999657,0.04,-8.574497,-4.768033981323242,0.19402257,0.009506947,-0.013308381661772728,-0.0013381939
1255.7999999991866,0.61051756,-0.54747486,0.3866584,-2.399559,-0.31073332,1.7931336,1.0622506,0.03999657,0.04,-8.574541,-4.767455577850342,0.194051,0.009826401,-0.013105115853250027,-0.001174645
1255.8166666658533,0.6105642,-0.5474566,0.38668856,-2.399562,-0.31075746,1.7931501,1.0622723,0.03999657,0.04,-8.57447,-4.767035961151123,0.19404545,0.010122347,-0.012912663631141186,-0.0010247437
1255.83333333252,0.610607,-0.54743975,0.3867164,-2.3995645,-0.31077963,1.7931663,1.0622916,0.03999657,0.04,-8.574499,-4.7665252685546875,0.19409694,0.010391655,-0.012740355916321278,-0.000885679
1255.8499999991866,0.6106463,-0.54742426,0.38674197,-2.3995671,-0.31080002,1.793181,1.0623102,0.03999657,0.04,-8.574481,-4.76620626449585,0.19409095,0.010642867,-0.012577244080603123,-0.0007591236
1255.8666666658532,0.6106826,-0.54741,0.38676548,-2.3995695,-0.31081894,1.7931937,1.0623268,0.039996568,0.04,-8.574546,-4.765778064727783,0.19412945,0.010869558,-0.012429608963429928,-0.00064328423
1255.88333333252,0.61071587,-0.54739684,0.38678712,-2.3995717,-0.3108362,1.7932061,1.0623422,0.03999657,0.04,-8.574553,-4.76548957824707,0.1941691,0.011081383,-0.012296137399971485,-0.0005332978
1255.8999999991865,0.61074656,-0.54738474,0.38680705,-2.3995738,-0.31085217,1.7932184,1.0623568,0.03999657,0.04,-8.574565,-4.765136241912842,0.19415584,0.011274952,-0.012170888483524323,-0.0004345521
1255.9166666658532,0.6107747,-0.54737365,0.38682547,-2.3995757,-0.31086677,1.7932289,1.0623698,0.03999657,0.04,-8.574556,-4.764918804168701,0.19416985,0.011451525,-0.012052309699356556,-0.0003442127
1255.9333333325199,0.6108005,-0.5473634,0.38684228,-2.3995776,-0.3108802,1.793238,1.0623815,0.03999657,0.04,-8.574585,-4.764606475830078,0.19420493,0.011615829,-0.011946325190365314,-0.00026023612
1255.9499999991865,0.61082417,-0.54735404,0.3868579,-2.3995788,-0.31089264,1.7932466,1.0623927,0.03999657,0.04,-8.574627,-4.7643842697143555,0.194225,0.011767695,-0.011852187104523182,-0.00018261769
1255.9666666658532,0.610846,-0.5473455,0.3868722,-2.39958,-0.3109041,1.7932552,1.0624031,0.03999657,0.04,-8.574559,-4.764122486114502,0.1942166,0.011904756,-0.0117621636018157,-0.00011119062
1255.9833333325198,0.6108661,-0.5473375,0.38688526,-2.3995812,-0.31091458,1.7932632,1.0624124,0.03999657,0.04,-8.574557,-4.763922214508057,0.1942292,0.012030442,-0.011676396243274212,-4.6425102e-05
1255.9999999991865,0.6108847,-0.5473302,0.38689733,-2.3995821,-0.31092426,1.7932701,1.0624207,0.03999657,0.04,-8.574593,-4.763768672943115,0.19423272,0.01214764,-0.011598208919167519,1.2671867e-05
1256.016666665853,0.61090153,-0.54732347,0.38690844,-2.399583,-0.3109332,1.7932762,1.0624286,0.03999657,0.04,-8.574579,-4.7635698318481445,0.19426332,0.012256475,-0.011526821181178093,6.7859306e-05
1256.0333333325198,0.6109169,-0.5473172,0.38691863,-2.399584,-0.3109414,1.7932818,1.0624361,0.03999657,0.04,-8.57462,-4.763413429260254,0.19427359,0.012354787,-0.011463538743555546,0.000119178105
1256.0499999991864,0.61093134,-0.5473115,0.38692802,-2.3995848,-0.31094882,1.7932866,1.062443,0.03999657,0.04,-8.574648,-4.763242244720459,0.19427899,0.012443671,-0.01140617486089468,0.00016614921
1256.066666665853,0.61094433,-0.5473063,0.3869368,-2.3995852,-0.3109558,1.7932913,1.0624493,0.03999657,0.04,-8.574619,-4.763153076171875,0.19429931,0.012526195,-0.011353773064911366,0.00020927582
1256.0833333325197,0.61095643,-0.5473015,0.38694483,-2.3995857,-0.31096217,1.7932961,1.0624549,0.03999657,0.04,-8.574598,-4.762991905212402,0.19428968,0.012601506,-0.011302909813821316,0.00024931814
1256.0999999991864,0.6109675,-0.5472969,0.38695216,-2.399586,-0.3109681,1.7933007,1.0624601,0.03999657,0.04,-8.29736,-4.447206974029541,0.19074272,0.0,-0.0,0.0
1256.116666665853,0.6109675,-0.5472969,0.38695216,-2.399586,-0.3109681,1.7933007,1.0624601,0.03999657,0.04,-8.575148,-4.760800361633301,0.19424501,0.0,-0.0,0.0
1256.1333333325197,0.6109675,-0.5472969,0.38695216,-2.399586,-0.3109681,1.7933007,1.0624601,0.03999657,0.04,-8.575148,-4.760800361633301,0.19424501,0.0,-0.0,0.0
1256.1499999991863,0.6109675,-0.5472969,0.38695216,-2.399586,-0.3109681,1.7933007,1.0624601,0.03999657,0.04,-8.575148,-4.760800361633301,0.19424501,0.0,-0.0,0.0
1256.166666665853,0.6109675,-0.5472969,0.38695216,-2.399586,-0.3109681,1.7933007,1.0624601,0.03999657,0.04,-8.575148,-4.760800361633301,0.19424501,0.0,-0.0,0.0
1256.1833333325196,0.6109675,-0.5472969,0.38695216,-2.399586,-0.3109681,1.7933007,1.0624601,0.03999657,0.04,-8.575148,-4.760800361633301,0.19424501,0.0,-0.0,0.0
1256.1999999991863,0.6109675,-0.5472969,0.38695216,-2.399586,-0.3109681,1.7933007,1.0624601,0.03999657,0.04,-8.575148,-4.760800361633301,0.19424501,0.0,-0.0,0.0
1256.216666665853,0.6109675,-0.5472969,0.38695216,-2.399586,-0.3109681,1.7933007,1.0624601,0.03999657,0.04,-8.575148,-4.760800361633301,0.19424501,0.0,-0.0,0.0
1256.2333333325196,0.6109675,-0.5472969,0.38695216,-2.399586,-0.3109681,1.7933007,1.0624601,0.03999657,0.04,-8.575148,-4.760800361633301,0.19424501,0.0,-0.0,0.0
1256.2499999991862,0.6109675,-0.5472969,0.38695216,-2.399586,-0.3109681,1.7933007,1.0624601,0.03999657,0.04,-8.575148,-4.760800361633301,0.19424501,0.0,-0.0,0.0
1256.2666666658529,0.6109675,-0.5472969,0.38695216,-2.399586,-0.3109681,1.7933007,1.0624601,0.03999657,0.04,-8.575148,-4.760800361633301,0.19424501,0.0,-0.0,0.0
1256.2833333325195,0.6109675,-0.5472969,0.38695216,-2.399586,-0.3109681,1.7933007,1.0624601,0.03999657,0.04,-8.575148,-4.760800361633301,0.19424501,0.0,-0.0,0.0
1256.2999999991862,0.6109675,-0.5472969,0.38695216,-2.399586,-0.3109681,1.7933007,1.0624601,0.03999657,0.04,-8.575148,-4.760800361633301,0.19424501,0.0,-0.0,0.0
1256.3166666658528,0.6109675,-0.5472969,0.38695216,-2.399586,-0.3109681,1.7933007,1.0624601,0.03999657,0.04,-8.575148,-4.760800361633301,0.19424501,0.0,-0.0,0.0
1256.3333333325195,0.6109675,-0.5472969,0.38695216,-2.399586,-0.3109681,1.7933007,1.0624601,0.03999657,0.04,-8.575148,-4.760800361633301,0.19424501,0.0,-0.0,0.0
1256.3499999991861,0.6109675,-0.5472969,0.38695216,-2.399586,-0.3109681,1.7933007,1.0624601,0.03999657,0.04,-8.575148,-4.760800361633301,0.19424501,0.0,-0.0,0.0
1256.3666666658528,0.6109675,-0.5472969,0.38695216,-2.399586,-0.3109681,1.7933007,1.0624601,0.03999657,0.04,-8.575148,-4.760800361633301,0.19424501,0.0,-0.0,0.0
1256.3833333325194,0.6109675,-0.5472969,0.38695216,-2.399586,-0.3109681,1.7933007,1.0624601,0.03999657,0.04,-8.575148,-4.760800361633301,0.19424501,0.0,-0.0,0.0
1256.399999999186,0.6109675,-0.5472969,0.38695216,-2.399586,-0.3109681,1.7933007,1.0624601,0.03999657,0.04,-8.575148,-4.760800361633301,0.19424501,0.0,-0.0,0.0
1256.4166666658527,0.6109675,-0.5472969,0.38695216,-2.399586,-0.3109681,1.7933007,1.0624601,0.03999657,0.04,-8.575148,-4.760800361633301,0.19424501,0.0,-0.0,0.0
1256.4333333325194,0.6109675,-0.5472969,0.38695216,-2.399586,-0.3109681,1.7933007,1.0624601,0.03999657,0.04,-8.575148,-4.760800361633301,0.19424501,0.0,-0.0,0.0
1256.449999999186,0.6109675,-0.5472969,0.38695216,-2.399586,-0.3109681,1.7933007,1.0624601,0.03999657,0.04,-8.575148,-4.760800361633301,0.19424501,0.0,-0.0,0.0
1256.4666666658527,0.6109675,-0.5472969,0.38695216,-2.399586,-0.3109681,1.7933007,1.0624601,0.03999657,0.04,-8.575148,-4.760800361633301,0.19424501,0.0,-0.0,0.0
1256.4833333325194,0.6109675,-0.5472969,0.38695216,-2.399586,-0.3109681,1.7933007,1.0624601,0.03999657,0.04,-8.575148,-4.760800361633301,0.19424501,0.0,-0.0,0.0
1256.499999999186,0.6109675,-0.5472969,0.38695216,-2.399586,-0.3109681,1.7933007,1.0624601,0.03999657,0.04,-8.575148,-4.760800361633301,0.19424501,0.0,-0.0,0.0
1256.5166666658527,0.6109675,-0.5472969,0.38695216,-2.399586,-0.3109681,1.7933007,1.0624601,0.03999657,0.04,-8.575148,-4.760800361633301,0.19424501,0.0,-0.0,0.0
1256.5333333325193,0.6109675,-0.5472969,0.38695216,-2.399586,-0.3109681,1.7933007,1.0624601,0.03999657,0.04,-8.575148,-4.760800361633301,0.19424501,0.0,-0.0,0.0
1256.549999999186,0.6109675,-0.5472969,0.38695216,-2.399586,-0.3109681,1.7933007,1.0624601,0.03999657,0.04,-8.575148,-4.760800361633301,0.19424501,0.0,-0.0,0.0
1256.5666666658526,0.6109675,-0.5472969,0.38695216,-2.399586,-0.3109681,1.7933007,1.0624601,0.03999657,0.04,-8.575148,-4.760800361633301,0.19424501,0.0,-0.0,0.0
1256.5833333325193,0.6109675,-0.5472969,0.38695216,-2.399586,-0.3109681,1.7933007,1.0624601,0.03999657,0.04,-8.575148,-4.760800361633301,0.19424501,0.0,-0.0,0.0
1256.599999999186,0.6109675,-0.5472969,0.38695216,-2.399586,-0.3109681,1.7933007,1.0624601,0.03999657,0.04,-8.575148,-4.760800361633301,0.19424501,0.0,-0.0,0.0
1256.6166666658526,0.6109675,-0.5472969,0.38695216,-2.399586,-0.3109681,1.7933007,1.0624601,0.03999657,0.04,-8.575148,-4.760800361633301,0.19424501,0.0,-0.0,0.0
1256.6333333325192,0.6109675,-0.5472969,0.38695216,-2.399586,-0.3109681,1.7933007,1.0624601,0.03999657,0.04,-8.575148,-4.760800361633301,0.19424501,0.0,-0.0,0.0
1256.6499999991859,0.6109675,-0.5472969,0.38695216,-2.399586,-0.3109681,1.7933007,1.0624601,0.03999657,0.04,-8.575148,-4.760800361633301,0.19424501,0.0,-0.0,0.0
1256.6666666658525,0.6109675,-0.5472969,0.38695216,-2.399586,-0.3109681,1.7933007,1.0624601,0.03999657,0.04,-8.575148,-4.760800361633301,0.19424501,0.0,-0.0,0.0
1256.6833333325192,0.6109675,-0.5472969,0.38695216,-2.399586,-0.3109681,1.7933007,1.0624601,0.03999657,0.04,-8.575148,-4.760800361633301,0.19424501,0.0,-0.0,0.0
1256.6999999991858,0.6109675,-0.5472969,0.38695216,-2.399586,-0.3109681,1.7933007,1.0624601,0.03999657,0.04,-8.575148,-4.760800361633301,0.19424501,0.0,-0.0,0.0
1256.7166666658525,0.6109675,-0.5472969,0.38695216,-2.399586,-0.3109681,1.7933007,1.0624601,0.03999657,0.04,-8.575148,-4.760800361633301,0.19424501,0.0,-0.0,0.0
1256.7333333325191,0.6109675,-0.5472969,0.38695216,-2.399586,-0.3109681,1.7933007,1.0624601,0.03999657,0.04,-8.575148,-4.760800361633301,0.19424501,0.0,-0.0,0.0
1256.7499999991858,0.6109675,-0.5472969,0.38695216,-2.399586,-0.3109681,1.7933007,1.0624601,0.03999657,0.04,-8.575148,-4.760800361633301,0.19424501,0.0,-0.0,0.0
1256.7666666658524,0.6109675,-0.5472969,0.38695216,-2.399586,-0.3109681,1.7933007,1.0624601,0.03999657,0.04,-8.575148,-4.760800361633301,0.19424501,0.0,-0.0,0.0
1256.783333332519,0.6109675,-0.5472969,0.38695216,-2.399586,-0.3109681,1.7933007,1.0624601,0.03999657,0.04,-8.575148,-4.760800361633301,0.19424501,0.0,-0.0,0.0
1256.7999999991857,0.6109675,-0.5472969,0.38695216,-2.399586,-0.3109681,1.7933007,1.0624601,0.03999657,0.04,-8.575148,-4.760800361633301,0.19424501,0.0,-0.0,0.0
1256.8166666658524,0.6109675,-0.5472969,0.38695216,-2.399586,-0.3109681,1.7933007,1.0624601,0.03999657,0.04,-8.575148,-4.760800361633301,0.19424501,0.0,-0.0,0.0
1256.833333332519,0.6109675,-0.5472969,0.38695216,-2.399586,-0.3109681,1.7933007,1.0624601,0.03999657,0.04,-8.575148,-4.760800361633301,0.19424501,0.0,-0.0,0.0
1256.8499999991857,0.6109675,-0.5472969,0.38695216,-2.399586,-0.3109681,1.7933007,1.0624601,0.03999657,0.04,-8.575148,-4.760800361633301,0.19424501,0.0,-0.0,0.0
1256.8666666658523,0.6109675,-0.5472969,0.38695216,-2.399586,-0.3109681,1.7933007,1.0624601,0.03999657,0.04,-8.575148,-4.760800361633301,0.19424501,0.0,-0.0,0.0
1256.883333332519,0.6109675,-0.5472969,0.38695216,-2.399586,-0.3109681,1.7933007,1.0624601,0.03999657,0.04,-8.575148,-4.760800361633301,0.19424501,0.0,-0.0,0.0
1256.8999999991856,0.6109675,-0.5472969,0.38695216,-2.399586,-0.3109681,1.7933007,1.0624601,0.03999657,0.04,-8.575148,-4.760800361633301,0.19424501,0.0,-0.0,0.0
1256.9166666658523,0.6109675,-0.5472969,0.38695216,-2.399586,-0.3109681,1.7933007,1.0624601,0.03999657,0.04,-8.575148,-4.760800361633301,0.19424501,0.0,-0.0,0.0
1256.933333332519,0.6109675,-0.5472969,0.38695216,-2.399586,-0.3109681,1.7933007,1.0624601,0.03999657,0.04,-8.575148,-4.760800361633301,0.19424501,0.0,-0.0,0.0
1256.9499999991856,0.6109675,-0.5472969,0.38695216,-2.399586,-0.3109681,1.7933007,1.0624601,0.03999657,0.04,-8.575148,-4.760800361633301,0.19424501,0.0,-0.0,0.0
1256.9666666658522,0.6109675,-0.5472969,0.38695216,-2.399586,-0.3109681,1.7933007,1.0624601,0.03999657,0.04,-8.575148,-4.760800361633301,0.19424501,0.0,-0.0,0.0
1256.983333332519,0.6109675,-0.5472969,0.38695216,-2.399586,-0.3109681,1.7933007,1.0624601,0.03999657,0.04,-8.575148,-4.760800361633301,0.19424501,0.0,-0.0,0.0
1256.9999999991855,0.6109675,-0.5472969,0.38695216,-2.399586,-0.3109681,1.7933007,1.0624601,0.03999657,0.04,-8.575148,-4.760800361633301,0.19424501,0.0,-0.0,0.0
1257.0166666658522,0.6109675,-0.5472969,0.38695216,-2.399586,-0.3109681,1.7933007,1.0624601,0.03999657,0.04,-8.575148,-4.760800361633301,0.19424501,0.0,-0.0,0.0
1257.0333333325189,0.6109675,-0.5472969,0.38695216,-2.399586,-0.3109681,1.7933007,1.0624601,0.03999657,0.04,-8.575148,-4.760800361633301,0.19424501,0.0,-0.0,0.0
1257.0499999991855,0.6109675,-0.5472969,0.38695216,-2.399586,-0.3109681,1.7933007,1.0624601,0.03999657,0.04,-8.575148,-4.760800361633301,0.19424501,0.0,-0.0,0.0
1257.0666666658522,0.6109675,-0.5472969,0.38695216,-2.399586,-0.3109681,1.7933007,1.0624601,0.03999657,0.04,-8.575148,-4.760800361633301,0.19424501,0.0,-0.0,0.0
1257.0833333325188,0.6109675,-0.5472969,0.38695216,-2.399586,-0.3109681,1.7933007,1.0624601,0.03999657,0.04,-8.575148,-4.760800361633301,0.19424501,0.0,-0.0,0.0
1257.0999999991855,0.6109675,-0.5472969,0.38695216,-2.399586,-0.3109681,1.7933007,1.0624601,0.03999657,0.04,-8.575148,-4.760800361633301,0.19424501,0.0,-0.0,0.0
1257.116666665852,0.6109675,-0.5472969,0.38695216,-2.399586,-0.3109681,1.7933007,1.0624601,0.03999657,0.04,-8.575148,-4.760800361633301,0.19424501,0.0,-0.0,0.0
1257.1333333325188,0.6109675,-0.5472969,0.38695216,-2.399586,-0.3109681,1.7933007,1.0624601,0.03999657,0.04,-8.575148,-4.760800361633301,0.19424501,0.0,-0.0,0.0
1257.1499999991854,0.6109675,-0.5472969,0.38695216,-2.399586,-0.3109681,1.7933007,1.0624601,0.03999657,0.04,-8.575148,-4.760800361633301,0.19424501,0.0,-0.0,0.0
1257.166666665852,0.6109675,-0.5472969,0.38695216,-2.399586,-0.3109681,1.7933007,1.0624601,0.03999657,0.04,-8.575148,-4.760800361633301,0.19424501,0.0,-0.0,0.0
1257.1833333325187,0.6109675,-0.5472969,0.38695216,-2.399586,-0.3109681,1.7933007,1.0624601,0.03999657,0.04,-8.575148,-4.760800361633301,0.19424501,0.0,-0.0,0.0
1257.1999999991854,0.6109675,-0.5472969,0.38695216,-2.399586,-0.3109681,1.7933007,1.0624601,0.03999657,0.04,-8.575148,-4.760800361633301,0.19424501,0.0,-0.0,0.0
1257.216666665852,0.6109675,-0.5472969,0.38695216,-2.399586,-0.3109681,1.7933007,1.0624601,0.03999657,0.04,-8.575148,-4.760800361633301,0.19424501,0.0,-0.0,0.0
1257.2333333325187,0.6109675,-0.5472969,0.38695216,-2.399586,-0.3109681,1.7933007,1.0624601,0.03999657,0.04,-8.575148,-4.760800361633301,0.19424501,0.0,-0.0,0.0
1257.2499999991853,0.6109675,-0.5472969,0.38695216,-2.399586,-0.3109681,1.7933007,1.0624601,0.03999657,0.04,-8.575148,-4.760800361633301,0.19424501,0.0,-0.0,0.0
1257.266666665852,0.6109675,-0.5472969,0.38695216,-2.399586,-0.3109681,1.7933007,1.0624601,0.03999657,0.04,-8.575148,-4.760800361633301,0.19424501,0.0,-0.0,0.0
1257.2833333325186,0.6109675,-0.5472969,0.38695216,-2.399586,-0.3109681,1.7933007,1.0624601,0.03999657,0.04,-8.575148,-4.760800361633301,0.19424501,0.0,-0.0,0.0
1257.2999999991853,0.6109675,-0.5472969,0.38695216,-2.399586,-0.3109681,1.7933007,1.0624601,0.03999657,0.04,-8.575148,-4.760800361633301,0.19424501,0.0,-0.0,0.0
1257.316666665852,0.6109675,-0.5472969,0.38695216,-2.399586,-0.3109681,1.7933007,1.0624601,0.03999657,0.04,-8.575148,-4.760800361633301,0.19424501,0.0,-0.0,0.0
1257.3333333325186,0.6109675,-0.5472969,0.38695216,-2.399586,-0.3109681,1.7933007,1.0624601,0.03999657,0.04,-8.575148,-4.760800361633301,0.19424501,0.0,-0.0,0.0
1257.3499999991852,0.6109675,-0.5472969,0.38695216,-2.399586,-0.3109681,1.7933007,1.0624601,0.03999657,0.04,-8.575148,-4.760800361633301,0.19424501,0.0,-0.0,0.0
1257.3666666658519,0.6109675,-0.5472969,0.38695216,-2.399586,-0.3109681,1.7933007,1.0624601,0.03999657,0.04,-8.575148,-4.760800361633301,0.19424501,0.0,-0.0,0.0
1257.3833333325185,0.6109675,-0.5472969,0.38695216,-2.399586,-0.3109681,1.7933007,1.0624601,0.03999657,0.04,-8.575148,-4.760800361633301,0.19424501,0.0,-0.0,0.0
1257.3999999991852,0.6109675,-0.5472969,0.38695216,-2.399586,-0.3109681,1.7933007,1.0624601,0.03999657,0.04,-8.575148,-4.760800361633301,0.19424501,0.0,-0.0,0.0
1257.4166666658518,0.6109675,-0.5472969,0.38695216,-2.399586,-0.3109681,1.7933007,1.0624601,0.03999657,0.04,-8.575148,-4.760800361633301,0.19424501,0.0,-0.0,0.0
1257.4333333325185,0.6109675,-0.5472969,0.38695216,-2.399586,-0.3109681,1.7933007,1.0624601,0.03999657,0.04,-8.575148,-4.760800361633301,0.19424501,0.0,-0.0,0.0
1257.4499999991851,0.6109675,-0.5472969,0.38695216,-2.399586,-0.3109681,1.7933007,1.0624601,0.03999657,0.04,-8.575148,-4.760800361633301,0.19424501,0.0,-0.0,0.0
1257.4666666658518,0.6109675,-0.5472969,0.38695216,-2.399586,-0.3109681,1.7933007,1.0624601,0.03999657,0.04,-8.575148,-4.760800361633301,0.19424501,0.0,-0.0,0.0
1257.4833333325184,0.6109675,-0.5472969,0.38695216,-2.399586,-0.3109681,1.7933007,1.0624601,0.03999657,0.04,-8.575148,-4.760800361633301,0.19424501,0.0,-0.0,0.0
1257.499999999185,0.6109675,-0.5472969,0.38695216,-2.399586,-0.3109681,1.7933007,1.0624601,0.03999657,0.04,-8.575148,-4.760800361633301,0.19424501,0.0,-0.0,0.0
1257.5166666658517,0.6109675,-0.5472969,0.38695216,-2.399586,-0.3109681,1.7933007,1.0624601,0.03999657,0.04,-8.575148,-4.760800361633301,0.19424501,0.0,-0.0,0.0
1257.5333333325184,0.6109675,-0.5472969,0.38695216,-2.399586,-0.3109681,1.7933007,1.0624601,0.03999657,0.04,-8.575148,-4.760800361633301,0.19424501,0.0,-0.0,0.0
1257.549999999185,0.6109675,-0.5472969,0.38695216,-2.399586,-0.3109681,1.7933007,1.0624601,0.03999657,0.04,-8.575148,-4.760800361633301,0.19424501,0.0,-0.0,0.0
1257.5666666658517,0.6109675,-0.5472969,0.38695216,-2.399586,-0.3109681,1.7933007,1.0624601,0.03999657,0.04,-8.575148,-4.760800361633301,0.19424501,0.0,-0.0,0.0
1257.5833333325184,0.6109675,-0.5472969,0.38695216,-2.399586,-0.3109681,1.7933007,1.0624601,0.03999657,0.04,-8.575148,-4.760800361633301,0.19424501,0.0,-0.0,0.0
1257.599999999185,0.6109675,-0.5472969,0.38695216,-2.399586,-0.3109681,1.7933007,1.0624601,0.03999657,0.04,-8.575148,-4.760800361633301,0.19424501,0.0,-0.0,0.0
1257.6166666658517,0.6109675,-0.5472969,0.38695216,-2.399586,-0.3109681,1.7933007,1.0624601,0.03999657,0.04,-8.575148,-4.760800361633301,0.19424501,0.0,-0.0,0.0
1257.6333333325183,0.6109675,-0.5472969,0.38695216,-2.399586,-0.3109681,1.7933007,1.0624601,0.03999657,0.04,-8.575148,-4.760800361633301,0.19424501,0.0,-0.0,0.0
1257.649999999185,0.6109675,-0.5472969,0.38695216,-2.399586,-0.3109681,1.7933007,1.0624601,0.03999657,0.04,-8.575148,-4.760800361633301,0.19424501,0.0,-0.0,0.0
1257.6666666658516,0.6109675,-0.5472969,0.38695216,-2.399586,-0.3109681,1.7933007,1.0624601,0.03999657,0.04,-8.575148,-4.760800361633301,0.19424501,0.0,-0.0,0.0
1257.6833333325183,0.6109675,-0.5472969,0.38695216,-2.399586,-0.3109681,1.7933007,1.0624601,0.03999657,0.04,-8.575148,-4.760800361633301,0.19424501,0.0,-0.0,0.0
1257.699999999185,0.6109675,-0.5472969,0.38695216,-2.399586,-0.3109681,1.7933007,1.0624601,0.03999657,0.04,-8.575148,-4.760800361633301,0.19424501,0.0,-0.0,0.0
