rsonawane2002/My_IMU/logs_2/traj_275/imu_400hz_275.csv
time,j1,j2,j3,j4,j5,j6,j7,gripper1,gripper2,imu_ax,imu_ay,imu_az,imu_gx,imu_gy,imu_gz
0.0,0.00016700293,-0.785875,4.0107683e-05,-2.3551247,9.29385e-05,1.570997,0.786,0.04,0.04,-9.522685,0.0433590859174728,0.072224505,-1.361596e-08,-0.0011641274904832,4.4289857e-07
0.0025,0.00016700405199999998,-0.785857774,4.010769755e-05,-2.35513919,9.294513900000001e-05,1.570996565,0.786,0.04,0.04,-9.569436250000042,0.03695058145385114,0.06275506214999138,6.072232400006763e-08,-0.0013251559168567266,6.426808745001817e-07
0.005,0.000167005174,-0.785840548,4.01077121e-05,-2.3551536800000004,9.295177800000002e-05,1.57099613,0.786,0.04,0.04,-9.616187500000084,0.030542076990229483,0.05328561929998277,1.3506060800013526e-07,-0.001486184343230253,8.424631790003635e-07
0.0075,0.000167006296,-0.7858233219999999,4.010772665e-05,-2.3551681700000002,9.295841700000001e-05,1.570995695,0.786,0.04,0.04,-9.662938750000126,0.024133572526607822,0.043816176449974154,2.0939889200020288e-07,-0.0016472127696037795,1.042245483500545e-06
0.01,0.000167007418,-0.785806096,4.0107741200000004e-05,-2.35518266,9.296505600000002e-05,1.5709952600000001,0.786,0.04,0.04,-9.70969000000017,0.017725068062986165,0.03434673359996555,2.837371760002705e-07,-0.001808241195977306,1.242027788000727e-06
0.0125,0.00016700854,-0.78578887,4.010775575e-05,-2.3551971500000004,9.297169500000003e-05,1.570994825,0.786,0.04,0.04,-9.756441250000213,0.011316563599364504,0.024877290749956926,3.5807546000033816e-07,-0.0019692696223508324,1.4418100925009087e-06
0.015,0.000167009662,-0.785771644,4.01077703e-05,-2.3552116400000003,9.297833400000004e-05,1.57099439,0.786,0.04,0.04,-9.803192500000256,0.004908059135742847,0.01540784789994832,4.3241374400040575e-07,-0.002130298048724359,1.6415923970010903e-06
0.0175,0.00016701238900000004,-0.785754867,4.0105405999999966e-05,-2.3552257350000003,9.298783125000008e-05,1.57099396,0.786,0.04,0.04,-9.834268449999998,0.0006350973388179452,0.009017615799998787,6.802511550031112e-07,-0.002287170081400147,2.066177670004572e-06
0.02,0.00016701832600000003,-0.785738988,4.0098283999999985e-05,-2.3552390400000003,9.300304500000004e-05,1.5709935400000001,0.786,0.04,0.04,-9.8339938,0.0006332208751700149,0.008785805199999367,1.275086820001623e-06,-0.0024357293266806853,2.9403688800023857e-06
0.0225,0.000167024263,-0.7857231090000001,4.0091161999999996e-05,-2.3552523450000002,9.301825875e-05,1.57099312,0.786,0.04,0.04,-9.83371915,0.0006313444115220846,0.008553994599999948,1.869922485000135e-06,-0.0025842885719612237,3.8145600900001988e-06
0.025,0.0001670302,-0.7857072300000001,4.0084040000000014e-05,-2.3552656499999998,9.303347249999996e-05,1.5709927000000001,0.786,0.04,0.04,-9.8334445,0.0006294679478741543,0.008322184000000527,2.4647581499986474e-06,-0.002732847817241762,4.688751299998013e-06
0.0275,0.00016703613699999999,-0.7856913510000001,4.007691800000003e-05,-2.3552789549999997,9.304868624999992e-05,1.57099228,0.786,0.04,0.04,-9.83316985,0.0006275914842262239,0.008090373400001107,3.0595938149971595e-06,-0.0028814070625223006,5.562942509995826e-06
0.03,0.00016704207399999995,-0.7856754720000001,4.006979600000005e-05,-2.3552922599999997,9.306389999999989e-05,1.57099186,0.786,0.04,0.04,-9.832895200000001,0.0006257150205782937,0.007858562800001686,3.6544294799956716e-06,-0.003029966307802839,6.43713371999364e-06
0.0325,0.00016704801099999995,-0.7856595930000002,4.006267400000007e-05,-2.3553055649999997,9.307911374999985e-05,1.57099144,0.786,0.04,0.04,-9.832620550000001,0.0006238385569303634,0.007626752200002266,4.2492651449941845e-06,-0.0031785255530833775,7.311324929991454e-06
0.035,0.00016706233299999986,-0.7856445700000001,4.00430533000002e-05,-2.3553181,9.31097468999997e-05,1.57099101,0.786,0.04,0.04,-9.832354100000002,0.0006210041756275557,0.007408127300001639,5.502261879987772e-06,-0.003319131326860544,8.98016309998403e-06
0.0375,0.00016708084749999995,-0.7856299750000001,4.001718325000009e-05,-2.3553302499999997,9.314808974999987e-05,1.570990575,0.786,0.04,0.04,-9.83209175,0.0006176908354972863,0.007196095250000723,7.084339149994603e-06,-0.003455760364885834,1.1046324749992952e-05
0.04,0.00016709936200000002,-0.78561538,3.9991313199999976e-05,-2.3553424,9.318643260000004e-05,1.57099014,0.786,0.04,0.04,-9.8318294,0.000614377495367017,0.006984063199999807,8.666416420001439e-06,-0.0035923894029111243,1.3112486400001879e-05
0.0425,0.0001671178765000001,-0.7856007849999999,3.9965443149999865e-05,-2.35535455,9.322477545000019e-05,1.5709897050000001,0.786,0.04,0.04,-9.831567049999999,0.0006110641552367476,0.006772031149998891,1.0248493690008275e-05,-0.0037290184409364147,1.5178648050010806e-05
0.045,0.0001671363910000002,-0.7855861899999999,3.993957309999975e-05,-2.3553667000000003,9.326311830000036e-05,1.57098927,0.786,0.04,0.04,-9.831304699999997,0.0006077508151064784,0.0065599990999979756,1.1830570960015107e-05,-0.0038656474789617048,1.724480970001973e-05
0.0475,0.00016715490550000026,-0.7855715949999997,3.991370304999964e-05,-2.35537885,9.330146115000053e-05,1.570988835,0.786,0.04,0.04,-9.831042349999997,0.0006044374749762091,0.00634796704999706,1.3412648230021943e-05,-0.004002276516986996,1.9310971350028657e-05
0.05,0.00016717342000000077,-0.7855569999999997,3.988783299999889e-05,-2.355391,9.333980400000154e-05,1.5709884,0.786,0.04,0.04,-9.830779999999997,0.0006011241348459833,0.0061359349999964416,1.4994725500056775e-05,-0.004138905555012079,2.1377133000078736e-05
0.0525,0.00016721551900000082,-0.7855435749999997,3.9826578999998826e-05,-2.3554021300000003,9.342464490000161e-05,1.57098798,0.786,0.04,0.03999999925,-9.830537299999996,0.0006002083944621975,0.005940311509996264,1.811578727505961e-05,-0.004264144739138442,2.570541210008266e-05
0.055,0.00016725761800000084,-0.7855301499999997,3.976532499999877e-05,-2.35541326,9.35094858000017e-05,1.57098756,0.786,0.04,0.0399999985,-9.830294599999995,0.0005992926540784116,0.005744688019996086,2.123684905006245e-05,-0.004389383923264806,3.0033691200086603e-05
0.0575,0.0001672997170000009,-0.7855167249999997,3.970407099999872e-05,-2.35542439,9.359432670000178e-05,1.57098714,0.786,0.04,0.03999999775,-9.830051899999996,0.0005983769136946258,0.005549064529995908,2.435791082506529e-05,-0.00451462310739117,3.4361970300090545e-05
0.06,0.0001673418160000009,-0.7855032999999997,3.9642816999998664e-05,-2.3554355200000003,9.367916760000185e-05,1.57098672,0.786,0.04,0.039999997,-9.829809199999994,0.0005974611733108399,0.00535344103999573,2.747897260006812e-05,-0.004639862291517534,3.869024940009447e-05
0.0625,0.00016738391500000096,-0.7854898749999997,3.9581562999998603e-05,-2.35544665,9.376400850000194e-05,1.5709863,0.786,0.04,0.03999999625,-9.829566499999995,0.0005965454329270541,0.005157817549995552,3.0600034375070964e-05,-0.004765101475643897,4.301852850009841e-05
0.065,0.00016742601400000098,-0.7854764499999997,3.952030899999855e-05,-2.35545778,9.384884940000201e-05,1.57098588,0.786,0.04,0.0399999955,-9.829323799999994,0.0005956296925432683,0.004962194059995375,3.372109615007381e-05,-0.004890340659770262,4.734680760010235e-05
0.0675,0.00016748063900000194,-0.7854633949999997,3.944021319999711e-05,-2.35546854,9.395745230000384e-05,1.570985455,0.786000095,0.04,0.039999995,-9.829092399999995,0.0005932771862715966,0.00477096707999552,3.7511036300125924e-05,-0.005012222751977794,5.239429465015928e-05
0.07,0.00016756031600000202,-0.7854510799999996,3.9322433799997e-05,-2.3554785600000003,9.411357920000398e-05,1.57098502,0.78600038,0.04,0.039999995,-9.828883599999994,0.0005880511482244669,0.004588533119995354,4.2638733200130595e-05,-0.005127390660348393,5.8880197600165186e-05
0.0725,0.0001676399930000021,-0.7854387649999997,3.920465439999689e-05,-2.3554885800000003,9.426970610000412e-05,1.570984585,0.786000665,0.04,0.039999995,-9.828674799999995,0.0005828251101773371,0.004406099159995189,4.776643010013523e-05,-0.0052425585687189925,6.536610055017105e-05
0.075,0.00016771967000000216,-0.7854264499999997,3.9086874999996786e-05,-2.3554986,9.442583300000427e-05,1.57098415,0.78600095,0.04,0.039999995,-9.828465999999993,0.0005775990721302073,0.004223665199995023,5.2894127000139895e-05,-0.005357726477089592,7.185200350017696e-05
0.0775,0.00016779934700000224,-0.7854141349999997,3.8969095599996675e-05,-2.35550862,9.458195990000441e-05,1.5709837150000001,0.7860012350000001,0.04,0.039999995,-9.828257199999994,0.0005723730340830777,0.004041231239994857,5.8021823900144566e-05,-0.005472894385460192,7.833790645018286e-05
0.08,0.0001678790240000023,-0.7854018199999997,3.885131619999657e-05,-2.3555186400000006,9.473808680000455e-05,1.57098328,0.78600152,0.04,0.039999995,-9.828048399999993,0.0005671469960359479,0.0038587972799946904,6.314952080014924e-05,-0.005588062293830792,8.482380940018876e-05
0.0825,0.00016795870100000238,-0.7853895049999996,3.8733536799996465e-05,-2.3555286600000005,9.489421370000469e-05,1.570982845,0.786001805,0.04,0.039999995,-9.827839599999994,0.0005619209579888181,0.0036763633199945246,6.827721770015391e-05,-0.005703230202201391,9.130971235019468e-05
0.085,0.00016807447600000413,-0.7853778499999997,3.856124959999382e-05,-2.3555382200000006,9.511922740000803e-05,1.5709824000000001,0.78600209,0.04,0.039999995,-9.827626299999993,0.0005579083401242247,0.0035000310799946414,7.414830800019305e-05,-0.0058114127721668974,9.97103820002894e-05
0.08750000000000001,0.00016820830000000426,-0.7853665249999997,3.8361708499993646e-05,-2.3555475500000003,9.537868450000826e-05,1.57098195,0.786002375,0.04,0.039999995,-9.827410749999993,0.0005545024323508165,0.0033267496999944838,8.039109500019874e-05,-0.0059161026729303325,0.00010906843500029791
0.09,0.00016834212400000437,-0.7853551999999996,3.816216739999346e-05,-2.3555568800000004,9.56381416000085e-05,1.5709815,0.7860026600000001,0.04,0.039999995,-9.827195199999993,0.0005510965245774085,0.003153468319994327,8.66338820002044e-05,-0.0060207925736937675,0.00011842648800030638
0.0925,0.0001684759480000045,-0.7853438749999996,3.7962626299993285e-05,-2.3555662100000005,9.589759870000874e-05,1.57098105,0.786002945,0.04,0.039999995,-9.826979649999993,0.0005476906168040004,0.0029801869399941694,9.287666900021007e-05,-0.0061254824744572025,0.0001277845410003149
0.095,0.00016860977200000462,-0.7853325499999996,3.77630851999931e-05,-2.3555755400000002,9.615705580000898e-05,1.5709806000000002,0.78600323,0.04,0.039999995,-9.826764099999993,0.0005442847090305923,0.0028069055599940114,9.911945600021576e-05,-0.006230172375220638,0.0001371425940003234
0.0975,0.00016874359600000475,-0.7853212249999996,3.756354409999292e-05,-2.3555848700000004,9.641651290000921e-05,1.57098015,0.786003515,0.04,0.039999995,-9.826548549999993,0.0005408788012571843,0.002633624179993854,0.00010536224300022144,-0.006334862275984073,0.00014650064700033196
0.1,0.00016887742000000754,-0.7853098999999997,3.7364002999988716e-05,-2.3555942000000005,9.667597000001449e-05,1.5709797,0.7860038,0.04,0.039999995,-9.826332999999995,0.0005374728934838113,0.0024603427999940765,0.00011160503000033394,-0.00643955217674723,0.00015585870000045586
0.10250000000000001,0.00016908432850000772,-0.7852995574999996,3.705384004998843e-05,-2.3556028550000003,9.707399350001485e-05,1.57097925,0.7860042500000001,0.04,0.03999999575,-9.826197249999995,0.0005350366933270042,0.0022975305499939283,0.0001207836410003423,-0.006536576547663498,0.00016838800950046725
0.105,0.0001692912370000079,-0.7852892149999996,3.674367709998815e-05,-2.35561151,9.747201700001521e-05,1.5709788,0.7860047,0.04,0.0399999965,-9.826061499999994,0.000532600493170197,0.002134718299993781,0.00012996225200035059,-0.006633600918579766,0.0001809173190004786
0.1075,0.0001694981455000081,-0.7852788724999996,3.643351414998787e-05,-2.3556201650000004,9.787004050001557e-05,1.57097835,0.78600515,0.04,0.03999999725,-9.825925749999994,0.0005301642930133898,0.0019719060499936328,0.00013914086300035895,-0.006730625289496034,0.00019344662850049
0.11,0.00016970505400000827,-0.7852685299999996,3.612335119998759e-05,-2.35562882,9.826806400001593e-05,1.5709779,0.7860056000000001,0.04,0.039999998,-9.825789999999994,0.0005277280928565825,0.0018090937999934846,0.0001483194740003673,-0.006827649660412303,0.0002059759380005014
0.1125,0.00016991196250000845,-0.7852581874999996,3.5813188249987305e-05,-2.3556374750000004,9.86660875000163e-05,1.57097745,0.78600605,0.04,0.03999999875,-9.825654249999994,0.0005252918926997753,0.0016462815499933363,0.00015749808500037566,-0.006924674031328571,0.00021850524750051278
0.115,0.00017011887100000866,-0.7852478449999997,3.550302529998702e-05,-2.3556461300000002,9.906411100001666e-05,1.5709769999999998,0.7860065,0.04,0.0399999995,-9.825518499999994,0.0005228556925429681,0.0014834692999931881,0.000166676696000384,-0.00702169840224484,0.0002310345570005242
0.11750000000000001,0.00017035715650001287,-0.7852377974999997,3.5145277299980636e-05,-2.355654435,9.952245250002476e-05,1.5709765349999998,0.7860069900000001,0.04,0.04,-9.825380699999995,0.000520981932640958,0.0013238763524934527,0.00017674164150050604,-0.007116064871665077,0.000244822508500697
0.12,0.00017065819600001314,-0.7852283399999996,3.4692359199980225e-05,-2.3556620400000003,0.00010010143000002527,1.57097604,0.78600756,0.04,0.04,-9.825238799999994,0.0005202330532483273,0.0011707220099933142,0.00018857925600051676,-0.007205115538094268,0.0002611277440007118
0.1225,0.0001709592355000134,-0.7852188824999996,3.4239441099979813e-05,-2.3556696450000003,0.00010068040750002581,1.5709755449999998,0.78600813,0.04,0.04,-9.825096899999993,0.0005194841738556966,0.001017567667493175,0.00020041687050052754,-0.007294166204523458,0.0002774329795007266
0.125,0.00017126027500001368,-0.7852094249999996,3.37865229999794e-05,-2.3556772500000003,0.00010125938500002633,1.57097505,0.7860087,0.04,0.04,-9.824954999999994,0.0005187352944630659,0.0008644133249930355,0.0002122544850005383,-0.00738321687095265,0.0002937382150007415
0.1275,0.00017156131450001396,-0.7851999674999995,3.333360489997899e-05,-2.3556848550000002,0.00010183836250002686,1.5709745549999998,0.78600927,0.04,0.04,-9.824813099999993,0.0005179864150704353,0.000711258982492896,0.00022409209950054908,-0.007472267537381841,0.0003100434505007563
0.13,0.00017186235400001423,-0.7851905099999995,3.288068679997858e-05,-2.35569246,0.00010241734000002738,1.57097406,0.7860098400000001,0.04,0.04,-9.824671199999994,0.0005172375356778046,0.0005581046399927566,0.00023592971400055986,-0.007561318203811032,0.0003263486860007712
0.1325,0.0001721633935000145,-0.7851810524999995,3.242776869997816e-05,-2.355700065,0.00010299631750002791,1.5709735649999998,0.78601041,0.04,0.04,-9.824529299999993,0.0005164886562851738,0.0004049502974926172,0.00024776732850057063,-0.007650368870240223,0.000342653921500786
0.135,0.00017254245000002054,-0.7851721599999996,3.185632199996902e-05,-2.3557072800000003,0.00010372663100003959,1.5709727299999998,0.7860111750000001,0.04,0.0399999995,-9.824377799999992,0.0005168981675524586,0.0002558384049927755,0.0002617396220007387,-0.007733740424741246,0.000361689747001002
0.1375,0.00017296051500002092,-0.7851635499999996,3.122561099996845e-05,-2.3557143000000003,0.00010453261250004032,1.570971725,0.7860120375,0.04,0.03999999875,-9.824221499999991,0.0005178868741495744,0.00010874773749264163,0.0002767792550007524,-0.007814272423278803,0.0003820908675010206
0.14,0.00017337858000002128,-0.7851549399999995,3.0594899999967875e-05,-2.3557213200000002,0.00010533859400004105,1.57097072,0.7860129,0.04,0.039999998,-9.824065199999993,0.0005188755807466903,-3.834293000749226e-05,0.0002918188880007661,-0.007894804421816361,0.00040249198800103916
0.14250000000000002,0.00017379664500002167,-0.7851463299999996,2.9964188999967298e-05,-2.35572834,0.00010614457550004179,1.570969715,0.7860137625000001,0.04,0.03999999725,-9.823908899999992,0.0005198642873438063,-0.0001854335975076262,0.00030685852100077976,-0.007975336420353921,0.0004228931085010578
0.145,0.00017421471000002205,-0.7851377199999996,2.933347799996673e-05,-2.3557353600000006,0.00010695055700004252,1.57096871,0.7860146250000001,0.04,0.0399999965,-9.823752599999992,0.0005208529939409221,-0.0003325242650077584,0.0003218981540007933,-0.008055868418891478,0.0004432942290010761
0.1475,0.00017463277500002244,-0.7851291099999995,2.8702766999966158e-05,-2.3557423800000006,0.00010775653850004325,1.570967705,0.7860154875,0.04,0.03999999575,-9.823596299999991,0.000521841700538038,-0.00047961493250789236,0.000336937787000807,-0.008136400417429036,0.0004636953495010947
0.15,0.00017505084000003055,-0.7851204999999996,2.807205599995383e-05,-2.3557494000000005,0.00010856252000005888,1.5709667,0.7860163500000001,0.04,0.039999995,-9.823439999999994,0.000522830407135297,-0.0006267056000069598,0.00035197742000098224,-0.008216932415966329,0.0004840964700013401
0.1525,0.00017561047950003105,-0.7851126849999995,2.7225975149953063e-05,-2.3557557600000005,0.00010964143775005986,1.57096568,0.7860174975,0.04,0.039999995,-9.823344449999995,0.0005264400999295752,-0.0007542499100070758,0.00036997820300099863,-0.008292578533295998,0.0005086544745013624
0.155,0.00017617011900003155,-0.7851048699999995,2.637989429995229e-05,-2.3557621200000005,0.00011072035550006084,1.57096466,0.7860186450000001,0.04,0.039999995,-9.823248899999994,0.0005300497927238536,-0.0008817942200071919,0.000387978986001015,-0.008368224650625667,0.0005332124790013848
0.1575,0.00017672975850003208,-0.7850970549999996,2.5533813449951523e-05,-2.3557684800000005,0.00011179927325006182,1.57096364,0.7860197925000001,0.04,0.039999995,-9.823153349999995,0.0005336594855181318,-0.001009338530007308,0.0004059797690010314,-0.008443870767955336,0.0005577704835014072
0.16,0.00017728939800003258,-0.7850892399999996,2.468773259995075e-05,-2.3557748400000005,0.00011287819100006281,1.57096262,0.78602094,0.04,0.039999995,-9.823057799999994,0.0005372691783124101,-0.0011368828400074242,0.0004239805520010478,-0.008519516885285005,0.0005823284880014295
0.1625,0.00017784903750003308,-0.7850814249999996,2.384165174994998e-05,-2.3557812000000005,0.00011395710875006378,1.5709616,0.7860220875,0.04,0.039999995,-9.822962249999994,0.0005408788711066884,-0.0012644271500075403,0.0004419813350010642,-0.008595163002614674,0.0006068864925014519
0.165,0.00017840867700003358,-0.7850736099999995,2.299557089994921e-05,-2.3557875600000004,0.00011503602650006477,1.57096058,0.786023235,0.04,0.039999995,-9.822866699999995,0.0005444885639009666,-0.0013919714600076564,0.0004599821180010806,-0.008670809119944342,0.0006314444970014743
0.1675,0.00017902419150004432,-0.7850660449999995,2.2064430124932888e-05,-2.3557936500000003,0.00011622224825008538,1.570959545,0.786024495,0.04,0.03999999525,-9.822769349999994,0.0005493031843802052,-0.0015217573850081823,0.0004791092380013029,-0.008744202554230114,0.0006574757420017659
0.17,0.00017975145600004498,-0.7850589799999995,2.0963169499931888e-05,-2.3557992000000003,0.00011762307800008665,1.57095848,0.78602598,0.04,0.039999996,-9.822668399999994,0.0005565276602287068,-0.0016560265400083047,0.0005004890320013224,-0.00881309062242932,0.0006864534680017923
0.17250000000000001,0.00018047872050004564,-0.7850519149999996,1.9861908874930884e-05,-2.3558047500000003,0.00011902390775008792,1.5709574149999999,0.7860274650000001,0.04,0.03999999675,-9.822567449999994,0.0005637521360772084,-0.0017902956950084268,0.0005218688260013419,-0.008881978690628529,0.0007154311940018187
0.17500000000000002,0.0001812059850000463,-0.7850448499999996,1.876064824992988e-05,-2.3558103000000004,0.0001204247375000892,1.57095635,0.7860289500000001,0.04,0.0399999975,-9.822466499999994,0.00057097661192571,-0.0019245648500085491,0.0005432486200013613,-0.008950866758827737,0.0007444089200018451
0.1775,0.00018193324950004696,-0.7850377849999995,1.765938762492889e-05,-2.3558158500000004,0.00012182556725009045,1.570955285,0.786030435,0.04,0.03999999825,-9.822365549999994,0.0005782010877742115,-0.00205883400500867,0.0005646284140013806,-0.009019754827026943,0.0007733866460018712
0.18,0.00018266051400004762,-0.7850307199999995,1.6558126999927887e-05,-2.3558214000000004,0.00012322639700009173,1.57095422,0.78603192,0.04,0.039999999,-9.822264599999993,0.000585425563622713,-0.002193103160008792,0.0005860082080014,-0.009088642895226151,0.0008023643720018975
0.1825,0.00018338777850004828,-0.7850236549999996,1.5456866374926887e-05,-2.3558269500000004,0.000124627226750093,1.5709531549999998,0.7860334050000001,0.04,0.03999999975,-9.822163649999993,0.0005926500394712147,-0.002327372315008914,0.0006073880020014195,-0.009157530963425359,0.0008313420980019238
0.185,0.00018424499200006206,-0.7850170799999996,1.4157611679905894e-05,-2.3558322200000004,0.00012627860600011956,1.5709517499999999,0.7860352400000001,0.04,0.04,-9.822059799999993,0.0006029078154832425,-0.0024571037500085787,0.000631106730001675,-0.009221677761528988,0.0008634901560022703
0.1875,0.0001851671800000629,-0.7850107499999996,1.2759359949904622e-05,-2.3558373500000003,0.00012805526000012117,1.570950175,0.7860372500000001,0.04,0.04,-9.821954499999991,0.0006146822415765782,-0.0025845663250086944,0.0006559949250016977,-0.009283453924585539,0.0008972233800023011
0.19,0.00018608936800006373,-0.7850044199999996,1.136110821990335e-05,-2.35584248,0.0001298319140001228,1.5709486,0.7860392600000001,0.04,0.04,-9.821849199999992,0.0006264566676699139,-0.0027120289000088105,0.0006808831200017203,-0.009345230087642091,0.0009309566040023317
0.1925,0.00018701155600006457,-0.7849980899999996,9.962856489902077e-06,-2.35584761,0.0001316085680001244,1.570947025,0.7860412700000001,0.04,0.04,-9.821743899999992,0.0006382310937632496,-0.0028394914750089267,0.000705771315001743,-0.009407006250698641,0.0009646898280023624
0.195,0.0001879337440000654,-0.7849917599999996,8.564604759900803e-06,-2.35585274,0.00013338522200012604,1.57094545,0.7860432800000001,0.04,0.04,-9.821638599999991,0.0006500055198565853,-0.002966954050009043,0.0007306595100017657,-0.009468782413755192,0.000998423052002393
0.1975,0.00018885593200006624,-0.7849854299999995,7.166353029899531e-06,-2.3558578700000004,0.00013516187600012765,1.570943875,0.7860452900000001,0.04,0.04,-9.821533299999992,0.000661779945949921,-0.0030944166250091586,0.0007555477050017883,-0.009530558576811744,0.0010321562760024238
0.2,0.00018977812000008334,-0.7849790999999996,5.7681012998734735e-06,-2.3558630000000003,0.00013693853000016075,1.5709422999999998,0.7860473000000002,0.04,0.04,-9.821427999999996,0.0006735543720437611,-0.0032218792000079347,0.0007804359000020395,-0.009592334739868069,0.0010658895000028338
0.2025,0.00019092362650008438,-0.7849734494999996,4.029245409871891e-06,-2.3558672300000003,0.00013914798650016278,1.5709405749999998,0.7860497150000002,0.03999999925,0.03999999925,-9.821387799999997,0.0006922602740828481,-0.003330926470008034,0.000808464175502065,-0.009651006245989887,0.0011048343900028693
0.20500000000000002,0.00019206913300008543,-0.7849677989999996,2.290389519870307e-06,-2.3558714600000004,0.00014135744300016479,1.5709388499999999,0.7860521300000002,0.0399999985,0.0399999985,-9.821347599999998,0.0007109661761219351,-0.003439973740008133,0.0008364924510020905,-0.009709677752111706,0.0011437792800029047
0.20750000000000002,0.00019321463950008647,-0.7849621484999996,5.515336298687242e-07,-2.35587569,0.0001435668995001668,1.570937125,0.7860545450000002,0.03999999775,0.03999999775,-9.821307399999997,0.0007296720781610221,-0.0035490210100082324,0.000864520726502116,-0.009768349258233524,0.0011827241700029401
0.21,0.0001943601460000875,-0.7849564979999997,-1.1873222601328397e-06,-2.35587992,0.0001457763560001688,1.5709353999999998,0.7860569600000001,0.039999997,0.039999997,-9.821267199999998,0.0007483779802001091,-0.0036580682800083303,0.0008925490020021413,-0.009827020764355342,0.0012216690600029751
0.2125,0.00019550565250008855,-0.7849508474999997,-2.926178150134423e-06,-2.35588415,0.0001479858125001708,1.5709336749999998,0.7860593750000001,0.03999999625,0.03999999625,-9.821226999999997,0.0007670838822391961,-0.0037671155500084296,0.0009205772775021668,-0.009885692270477161,0.0012606139500030106
0.215,0.0001966511590000896,-0.7849451969999997,-4.6650340401360064e-06,-2.35588838,0.00015019526900017283,1.5709319499999999,0.7860617900000002,0.0399999955,0.0399999955,-9.821186799999998,0.0007857897842782831,-0.003876162820008529,0.0009486055530021923,-0.009944363776598979,0.001299558840003046
0.2175,0.00019788091000011063,-0.7849397734999997,-6.532419435168098e-06,-2.35589254,0.00015256736800021344,1.57093008,0.7860643800000002,0.039999994750000004,0.039999995,-9.821123299999991,0.0008055695914680301,-0.0039872762750091184,0.000977969736502535,-0.010000645648692146,0.001340127855003467
0.22,0.0001992791500001119,-0.7849348039999996,-8.656863840170033e-06,-2.35589656,0.00015526475200021588,1.5709279199999997,0.7860673200000002,0.039999994000000004,0.039999995,-9.821013199999992,0.000827497208958335,-0.004102522100009224,0.001010005736002564,-0.010052148252729702,0.001383945120003507
0.2225,0.00020067739000011317,-0.7849298344999996,-1.0781308245171965e-05,-2.35590058,0.00015796213600021835,1.5709257599999997,0.7860702600000002,0.039999993250000004,0.039999995,-9.820903099999992,0.00084942482644864,-0.0042177679250093286,0.0010420417355025931,-0.010103650856767258,0.0014277623850035468
0.225,0.00020207563000011446,-0.7849248649999996,-1.2905752650173901e-05,-2.3559046,0.00016065952000022082,1.5709235999999998,0.7860732000000002,0.0399999925,0.039999995,-9.820792999999991,0.0008713524439389449,-0.004333013750009433,0.0010740777350026222,-0.010155153460804816,0.0014715796500035867
0.2275,0.00020347387000011573,-0.7849198954999996,-1.5030197055175835e-05,-2.35590862,0.00016335690400022326,1.5709214399999998,0.7860761400000003,0.03999999175,0.039999995,-9.82068289999999,0.0008932800614292499,-0.004448259575009539,0.0011061137345026516,-0.010206656064842373,0.0015153969150036267
0.23,0.000204872110000117,-0.7849149259999996,-1.715464146017777e-05,-2.35591264,0.00016605428800022572,1.5709192799999998,0.7860790800000003,0.039999991,0.039999995,-9.82057279999999,0.0009152076789195548,-0.004563505400009643,0.0011381497340026807,-0.01025815866887993,0.0015592141800036664
0.2325,0.00020627035000011826,-0.7849099564999996,-1.9279085865179702e-05,-2.35591666,0.00016875167200022817,1.5709171199999998,0.7860820200000003,0.03999999025,0.039999995,-9.82046269999999,0.0009371352964098597,-0.004678751225009748,0.0011701857335027098,-0.010309661272917487,0.0016030314450037064
0.23500000000000001,0.00020785719700014372,-0.7849054149999997,-2.1691488600218566e-05,-2.3559200000000002,0.00017181422600027747,1.5709145899999997,0.7860853650000003,0.039999989799999996,0.039999994500000004,-9.820423499999999,0.0009654280554995011,-0.004785297220008738,0.0012048112300030711,-0.010359567776326479,0.0016504505600042083
0.23750000000000002,0.00020953834750014528,-0.7849010874999997,-2.4247870500220894e-05,-2.355923,0.0001750593650002804,1.5709118749999997,0.7860889125000003,0.0399999895,0.039999993750000004,-9.82041975,0.0009969033853875946,-0.004887493300008831,0.0012407314750031038,-0.010408676229421493,0.001699670600004253
0.24,0.00021121949800014677,-0.7848967599999996,-2.6804252400223192e-05,-2.355926,0.00017830450400028333,1.5709091599999998,0.7860924600000003,0.0399999892,0.039999993000000005,-9.820416,0.001028378715275688,-0.004989689380008922,0.001276651720003136,-0.010457784682516508,0.0017488906400042973
0.2425,0.0002129006485001483,-0.7848924324999996,-2.936063430022552e-05,-2.355929,0.0001815496430002863,1.5709064449999999,0.7860960075000003,0.0399999889,0.03999999225,-9.82041225,0.0010598540451637816,-0.005091885460009015,0.0013125719650031687,-0.010506893135611522,0.001798110680004342
0.245,0.00021458179900014985,-0.7848881049999996,-3.1917016200227845e-05,-2.355932,0.00018479478200028924,1.5709037299999997,0.7860995550000003,0.0399999886,0.0399999915,-9.8204085,0.0010913293750518752,-0.005194081540009108,0.0013484922100032016,-0.010556001588706537,0.001847330720004387
0.2475,0.00021626294950015138,-0.7848837774999996,-3.447339810023017e-05,-2.3559350000000006,0.00018803992100029218,1.5709010149999998,0.7861031025000004,0.0399999883,0.03999999075,-9.82040475,0.001122804704939969,-0.005296277620009201,0.0013844124550032343,-0.010605110041801551,0.0018965507600044317
0.25,0.00021794410000018145,-0.7848794499999997,-3.70297800002761e-05,-2.3559380000000005,0.00019128506000035041,1.5708982999999999,0.7861066500000004,0.039999988,0.03999999,-9.820400999999991,0.001154280034828822,-0.005398473700008874,0.0014203327000036165,-0.010654218494896091,0.001945770800004967
0.2525,0.00021993906400018327,-0.7848757374999997,-4.006549650027886e-05,-2.3559408500000005,0.00019513791650035392,1.5708953599999997,0.7861108515000004,0.0399999874,0.0399999897,-9.82030439999999,0.0011941052856891583,-0.005496041395008962,0.0014600970550036527,-0.010698107257489401,0.002000386340005017
0.255,0.00022193402800018506,-0.7848720249999996,-4.3101213000281624e-05,-2.3559437000000005,0.00019899077300035743,1.5708924199999998,0.7861150530000004,0.0399999868,0.0399999894,-9.820207799999991,0.0012339305365494946,-0.005593609090009052,0.001499861410003689,-0.010741996020082712,0.0020550018800050665
0.2575,0.00022392899200018688,-0.7848683124999997,-4.613692950028439e-05,-2.3559465500000005,0.00020284362950036093,1.5708894799999997,0.7861192545000004,0.039999986200000004,0.0399999891,-9.82011119999999,0.0012737557874098308,-0.00569117678500914,0.0015396257650037253,-0.010785884782676022,0.0021096174200051165
0.26,0.0002259239560001887,-0.7848645999999997,-4.9172646000287154e-05,-2.3559494000000005,0.00020669648600036444,1.5708865399999998,0.7861234560000004,0.0399999856,0.0399999888,-9.82001459999999,0.001313581038270167,-0.005788744480009229,0.0015793901200037614,-0.010829773545269332,0.002164232960005166
0.2625,0.00022791892000019053,-0.7848608874999997,-5.2208362500289916e-05,-2.3559522500000005,0.00021054934250036794,1.5708835999999997,0.7861276575000004,0.039999985,0.0399999885,-9.81991799999999,0.0013534062891305033,-0.005886312175009318,0.0016191544750037976,-0.01087366230786264,0.002218848500005216
0.265,0.00022991388400019232,-0.7848571749999996,-5.524407900029268e-05,-2.3559551000000005,0.00021440219900037145,1.5708806599999996,0.7861318590000004,0.0399999844,0.0399999882,-9.81982139999999,0.0013932315399908396,-0.005983879870009407,0.0016589188300038338,-0.010917551070455951,0.002273464040005266
0.2675,0.00023202394400022774,-0.7848536634999997,-5.8455681000346794e-05,-2.3559576200000003,0.00021847804650044006,1.5708775599999996,0.7861363140000005,0.03999998365,0.0399999876,-9.819761600000001,0.0014357956359209354,-0.006083650585010139,0.001700046755004268,-0.01096042189747491,0.002329913365005851
0.27,0.0002343641960002299,-0.7848505539999997,-6.201905400035004e-05,-2.35595948,0.00022299987600044418,1.5708741399999997,0.7861412760000005,0.039999982600000004,0.0399999864,-9.819775400000001,0.0014838374219881593,-0.006187827340010233,0.001743901820004308,-0.011001256853346051,0.0023900302600059057
0.2725,0.000236704448000232,-0.7848474444999997,-6.558242700035329e-05,-2.3559613400000003,0.0002275217055004483,1.5708707199999996,0.7861462380000005,0.03999998155,0.0399999852,-9.8197892,0.001531879208055383,-0.006292004095010328,0.001787756885004348,-0.011042091809217194,0.00245014715500596
0.275,0.00023904470000023415,-0.7848443349999997,-6.914580000035653e-05,-2.3559632,0.00023204353500045244,1.5708672999999995,0.7861512000000005,0.0399999805,0.039999983999999995,-9.819803,0.0015799209941226068,-0.006396180850010424,0.0018316119500043878,-0.011082926765088336,0.002510264050006015
0.2775,0.00024138495200023627,-0.7848412254999997,-7.270917300035976e-05,-2.3559650600000004,0.00023656536450045656,1.5708638799999997,0.7861561620000005,0.03999997945,0.0399999828,-9.819816800000002,0.0016279627801898304,-0.006500357605010518,0.0018754670150044276,-0.011123761720959477,0.0025703809450060696
0.28,0.00024372520400023842,-0.7848381159999996,-7.627254600036301e-05,-2.35596692,0.00024108719400046068,1.5708604599999996,0.7861611240000005,0.0399999784,0.0399999816,-9.819830600000001,0.0016760045662570543,-0.006604534360010613,0.0019193220800044675,-0.01116459667683062,0.0026304978400061244
0.28250000000000003,0.00024606545600024056,-0.7848350064999997,-7.983591900036625e-05,-2.3559687800000004,0.0002456090235004648,1.5708570399999997,0.7861660860000005,0.03999997735,0.039999980399999996,-9.819844400000001,0.001724046352324278,-0.006708711115010708,0.0019631771450045075,-0.011205431632701763,0.002690614735006179
0.28500000000000003,0.00024865719600028176,-0.7848322889999997,-8.37837435004293e-05,-2.3559705200000005,0.0002506182780005447,1.5708532299999995,0.7861715730000006,0.0399999766,0.039999979299999995,-9.81979349999999,0.0017793836072147666,-0.006805346530009629,0.0020096223800049502,-0.011242674943063335,0.002754539180006826
0.28750000000000003,0.0002513746800002843,-0.7848297674999998,-8.792379375043306e-05,-2.3559722000000005,0.0002558712450005495,1.5708492249999995,0.7861773225000006,0.039999976,0.03999997825,-9.819710249999991,0.0018383685965151953,-0.006898211275009714,0.0020573627000049937,-0.011278122430670959,0.002820367400006886
0.29,0.0002540921640002867,-0.7848272459999998,-9.206384400043675e-05,-2.3559738800000005,0.00026112421200055416,1.5708452199999996,0.7861830720000006,0.0399999754,0.0399999772,-9.81962699999999,0.0018973535858156226,-0.0069910760200097965,0.0021051030200050364,-0.011313569918278579,0.0028861956200069445
0.2925,0.00025680964800028916,-0.7848247244999997,-9.620389425044052e-05,-2.3559755600000005,0.00026637717900055894,1.5708412149999995,0.7861888215000006,0.0399999748,0.03999997615,-9.81954374999999,0.0019563385751160513,-0.007083940765009881,0.00215284334000508,-0.0113490174058862,0.0029520238400070043
0.295,0.0002595271320002916,-0.7848222029999997,-0.00010034394450044428,-2.3559772400000005,0.0002716301460005637,1.5708372099999994,0.7861945710000006,0.0399999742,0.0399999751,-9.819460499999991,0.00201532356441648,-0.007176805510009965,0.0022005836600051234,-0.011384464893493824,0.003017852060007064
0.2975,0.00026224461600029414,-0.7848196814999997,-0.00010448399475044805,-2.35597892,0.0002768831130005685,1.5708332049999996,0.7862003205000007,0.0399999736,0.03999997405,-9.81937724999999,0.0020743085537169087,-0.00726967025501005,0.002248323980005167,-0.011419912381101446,0.003083680280007124
0.3,0.0002649621000003413,-0.7848171599999998,-0.00010862404500052018,-2.3559806,0.0002821360800006599,1.5708291999999995,0.7862060700000006,0.039999973,0.039999973,-9.819294000000003,0.0021332935430183686,-0.007362535000009631,0.0022960643000056653,-0.011455359868708954,0.0031495085000077727
0.3025,0.00026808915450034416,-0.7848152309999998,-0.00011339039175052451,-2.35598135,0.0002881828830006654,1.5708245949999995,0.7862126745000007,0.03999997255,0.039999973,-9.819328800000003,0.002201726962819726,-0.0074507848000097115,0.0023479722650057125,-0.011489752773199219,0.003220732880007838
0.305,0.000271216209000347,-0.7848133019999998,-0.00011815673850052885,-2.3559821000000003,0.00029422968600067095,1.5708199899999995,0.7862192790000007,0.0399999721,0.039999973,-9.819363600000003,0.0022701603826210835,-0.007539034600009792,0.0023998802300057597,-0.011524145677689486,0.0032919572600079027
0.3075,0.0002743432635003498,-0.7848113729999998,-0.00012292308525053318,-2.35598285,0.0003002764890006764,1.5708153849999995,0.7862258835000007,0.03999997165,0.039999973,-9.819398400000003,0.0023385938024224405,-0.007627284400009872,0.002451788195005807,-0.011558538582179752,0.0033631816400079674
0.31,0.00027747031800035265,-0.7848094439999997,-0.00012768943200053753,-2.3559836,0.00030632329200068194,1.5708107799999995,0.7862324880000007,0.039999971200000005,0.039999973,-9.819433200000004,0.002407027222223798,-0.007715534200009953,0.002503696160005854,-0.01159293148667002,0.003434406020008032
0.3125,0.00028059737250035554,-0.7848075149999998,-0.00013245577875054185,-2.35598435,0.00031237009500068746,1.5708061749999995,0.7862390925000007,0.03999997075,0.039999973,-9.819468000000004,0.0024754606420251553,-0.007803784000010033,0.0025556041250059014,-0.011627324391160284,0.003505630400008097
0.315,0.00028372442700035837,-0.7848055859999998,-0.0001372221255005462,-2.3559851,0.000318416898000693,1.5708015699999995,0.7862456970000007,0.0399999703,0.039999973,-9.819502800000004,0.0025438940618265123,-0.007892033800010113,0.0026075120900059486,-0.011661717295650551,0.003576854780008162
0.3175,0.0002869988770004123,-0.7848038549999998,-0.00014221392300062867,-2.355985745,0.0003247495170007975,1.5707967499999993,0.7862526130000008,0.03999997,0.039999973,-9.819502799999992,0.0026166372350510583,-0.007979552800009941,0.0026608096150064773,-0.011694479594010487,0.0036500219150089
0.32,0.00029056811800041554,-0.7848025199999998,-0.0001476566220006336,-2.35598618,0.0003316537680008038,1.5707914999999995,0.7862601520000009,0.03999997,0.039999973,-9.819433199999992,0.002697999915117512,-0.00806561020001002,0.0027168862600065284,-0.011723980680111455,0.00372707456000897
0.3225,0.0002941373590004188,-0.7848011849999998,-0.00015309932100063858,-2.355986615,0.0003385580190008101,1.5707862499999994,0.7862676910000008,0.03999997,0.039999973,-9.819363599999992,0.0027793625951839664,-0.008151667600010097,0.0027729629050065796,-0.011753481766212421,0.00380412720500904
0.325,0.000297706600000422,-0.7847998499999999,-0.00015854202000064352,-2.35598705,0.00034546227000081635,1.5707809999999993,0.7862752300000009,0.03999997,0.039999973,-9.819293999999992,0.0028607252752504203,-0.008237725000010175,0.0028290395500066303,-0.011782982852313387,0.0038811798500091106
0.3275,0.00030127584100042527,-0.7847985149999999,-0.00016398471900064848,-2.355987485,0.0003523665210008226,1.5707757499999992,0.7862827690000009,0.03999997,0.039999973,-9.819224399999992,0.0029420879553168746,-0.008323782400010254,0.0028851161950066814,-0.011812483938414355,0.00395823249500918
0.33,0.0003048450820004285,-0.7847971799999999,-0.00016942741800065345,-2.35598792,0.0003592707720008289,1.5707704999999994,0.7862903080000009,0.03999997,0.039999973,-9.819154799999993,0.0030234506353833284,-0.008409839800010333,0.0029411928400067326,-0.011841985024515321,0.004035285140009251
0.3325,0.00030841432300043176,-0.7847958449999999,-0.00017487011700065839,-2.355988355,0.00036617502300083523,1.5707652499999993,0.7862978470000009,0.03999997,0.039999973,-9.819085199999993,0.0031048133154497823,-0.008495897200010412,0.0029972694850067838,-0.011871486110616288,0.004112337785009321
0.335,0.0003123002170004929,-0.7847948939999999,-0.00018079729900075193,-2.35598824,0.0003736934260009538,1.5707594999999992,0.786306064000001,0.039999969,0.0399999723,-9.819076800000003,0.00319510905538906,-0.008576032900009406,0.003056120870007342,-0.011899994779381553,0.004193217880010091
0.3375,0.0003163444375004966,-0.784794135,-0.00018696672250075754,-2.35598785,0.0003815189050009609,1.5707534999999992,0.7863146200000011,0.039999967500000004,0.03999997125,-9.819099000000003,0.003289871325262311,-0.008653207750009476,0.0031163596250073965,-0.01192800723947924,0.004276011700010166
0.34,0.0003203886580005003,-0.784793376,-0.00019313614600076316,-2.3559874599999997,0.00038934438400096803,1.5707474999999993,0.7863231760000011,0.039999966000000005,0.0399999702,-9.819121200000003,0.003384633595135562,-0.008730382600009547,0.0031765983800074514,-0.011956019699576924,0.004358805520010242
0.3425,0.00032443287850050394,-0.7847926169999999,-0.00019930556950076877,-2.35598707,0.00039716986300097516,1.5707414999999991,0.7863317320000011,0.0399999645,0.03999996915,-9.819143400000003,0.0034793958650088134,-0.008807557450009617,0.0032368371350075063,-0.01198403215967461,0.004441599340010317
0.34500000000000003,0.00032847709900050764,-0.784791858,-0.00020547499300077439,-2.35598668,0.00040499534200098223,1.5707354999999992,0.7863402880000011,0.039999963,0.0399999681,-9.819165600000003,0.0035741581348820647,-0.008884732300009688,0.003297075890007561,-0.012012044619772295,0.004524393160010393
0.34750000000000003,0.00033252131950051134,-0.7847910989999999,-0.00021164441650078003,-2.3559862899999997,0.00041282082100098936,1.5707294999999992,0.786348844000001,0.0399999615,0.03999996705,-9.819187800000003,0.003668920404755316,-0.008961907150009758,0.003357314645007616,-0.012040057079869982,0.004607186980010468
0.35000000000000003,0.00033656554000057967,-0.78479034,-0.00021781384000088463,-2.3559859,0.000420646300001122,1.570723499999999,0.7863574000000012,0.03999996,0.039999966,-9.819209999999996,0.0037636826746303967,-0.009039082000010343,0.0034175534000081952,-0.01206806953996723,0.0046899808000112776
0.3525,0.0003411176695005837,-0.78479016,-0.00022476057100089079,-2.3559850449999997,0.0004294570555011298,1.570716704999999,0.7863670300000012,0.0399999591,0.039999964799999996,-9.819176249999996,0.0038728100247820436,-0.009120302650010416,0.0034819082900082524,-0.012092650588604882,0.004778538280011356
0.355,0.00034566979900058786,-0.78478998,-0.0002317073020008971,-2.3559841899999996,0.0004382678110011378,1.570709909999999,0.7863766600000013,0.0399999582,0.0399999636,-9.819142499999996,0.003981937374933693,-0.00920152330001049,0.003546263180008311,-0.012117231637242534,0.004867095760011437
0.3575,0.000350221928500592,-0.7847898,-0.00023865403300090342,-2.355983335,0.00044707856650114586,1.570703114999999,0.7863862900000013,0.0399999573,0.0399999624,-9.819108749999996,0.004091064725085343,-0.009282743950010563,0.0036106180700083692,-0.012141812685880186,0.004955653240011517
0.36,0.00035477405800059616,-0.78478962,-0.00024560076400090974,-2.3559824799999998,0.0004558893220011539,1.570696319999999,0.7863959200000012,0.0399999564,0.0399999612,-9.819074999999996,0.004200192075236991,-0.009363964600010637,0.003674972960008428,-0.012166393734517838,0.005044210720011598
0.3625,0.0003593261875006003,-0.78478944,-0.00025254749500091606,-2.3559816249999996,0.00046470007750116187,1.570689524999999,0.7864055500000013,0.039999955499999996,0.03999996,-9.819041249999994,0.004309319425388641,-0.009445185250010712,0.0037393278500084865,-0.01219097478315549,0.0051327682000116785
0.365,0.00036387831700060446,-0.7847892599999999,-0.0002594942260009224,-2.35598077,0.0004735108330011699,1.570682729999999,0.7864151800000013,0.0399999546,0.0399999588,-9.819007499999994,0.00441844677554029,-0.009526405900010785,0.003803682740008545,-0.012215555831793143,0.005221325680011759
0.3675,0.0003686107430006809,-0.784789273,-0.0002667169450010394,-2.3559796599999996,0.00048267141150131826,1.5706757049999989,0.7864251900000014,0.03999995345,0.039999957450000005,-9.8189869,0.004532631440104768,-0.009604815300009732,0.003869435335009164,-0.012239550519737585,0.005311807770012612
0.37,0.00037370376200068556,-0.784789672,-0.0002744916400010465,-2.3559780399999997,0.0004925316360013272,1.5706682199999988,0.7864359600000015,0.039999951799999996,0.0399999558,-9.8189926,0.004656930733488831,-0.009677602200009797,0.0039379833400092264,-0.012262372486296311,0.005406139080012698
0.3725,0.00037879678100069016,-0.7847900710000001,-0.0002822663350010536,-2.3559764199999997,0.0005023918605013362,1.570660734999999,0.7864467300000015,0.03999995015,0.03999995415,-9.8189983,0.0047812300268728946,-0.009750389100009863,0.004006531345009289,-0.012285194452855037,0.005500470390012784
0.375,0.0003838898000006948,-0.78479047,-0.00029004103000106066,-2.3559748,0.0005122520850013452,1.570653249999999,0.7864575000000015,0.0399999485,0.0399999525,-9.819004,0.004905529320256958,-0.00982317600000993,0.004075079350009352,-0.012308016419413762,0.005594801700012869
0.3775,0.00038898281900069946,-0.7847908690000001,-0.00029781572500106775,-2.35597318,0.0005221123095013542,1.570645764999999,0.7864682700000015,0.03999994685,0.03999995085,-9.8190097,0.005029828613641021,-0.009895962900009997,0.004143627355009414,-0.012330838385972489,0.005689133010012955
0.38,0.00039407583800070406,-0.7847912680000001,-0.0003055904200010748,-2.35597156,0.0005319725340013631,1.570638279999999,0.7864790400000015,0.039999945200000005,0.0399999492,-9.8190154,0.005154127907025083,-0.009968749800010062,0.0042121753600094765,-0.012353660352531215,0.005783464320013041
0.3825,0.0003991688570007087,-0.7847916670000001,-0.00031336511500108186,-2.35596994,0.0005418327585013721,1.5706307949999991,0.7864898100000015,0.03999994355,0.03999994755,-9.8190211,0.005278427200409146,-0.010041536700010128,0.004280723365009539,-0.01237648231908994,0.005877795630013127
0.385,0.0004046444570007937,-0.7847924600000001,-0.000321725540001212,-2.3559680199999997,0.0005524354000015371,1.5706227299999989,0.7865014000000017,0.039999943,0.039999947,-9.819010899999997,0.005412450386230683,-0.010117694100010904,0.004352037470010182,-0.01239703372121127,0.005975975960014022
0.3875,0.00041031134750079887,-0.7847934500000002,-0.0003303788300012199,-2.35596595,0.0005634092500015471,1.5706143749999988,0.7865134000000017,0.039999943,0.039999947,-9.818992749999998,0.005551335518267904,-0.010195536750010975,0.004424734625010249,-0.012416449841114612,0.0060760808000141124
0.39,0.000415978238000804,-0.7847944400000002,-0.0003390321200012278,-2.35596388,0.0005743831000015571,1.570606019999999,0.7865254000000017,0.039999943,0.039999947,-9.818974599999997,0.005690220650305126,-0.010273379400011044,0.004497431780010315,-0.012435865961017955,0.006176185640014204
0.3925,0.0004216451285008092,-0.7847954300000002,-0.0003476854100012357,-2.3559618099999997,0.0005853569500015671,1.5705976649999989,0.7865374000000017,0.039999943,0.039999947,-9.818956449999996,0.005829105782342347,-0.010351222050011115,0.004570128935010381,-0.012455282080921297,0.006276290480014295
0.395,0.0004273120190008144,-0.7847964200000002,-0.00035633870000124354,-2.35595974,0.0005963308000015771,1.5705893099999988,0.7865494000000017,0.039999943,0.039999947,-9.818938299999997,0.005967990914379569,-0.010429064700011186,0.004642826090010447,-0.012474698200824641,0.006376395320014386
0.3975,0.00043297890950081953,-0.7847974100000001,-0.0003649919900012514,-2.35595767,0.0006073046500015871,1.5705809549999987,0.7865614000000017,0.039999943,0.039999947,-9.818920149999997,0.0061068760464167895,-0.010506907350011257,0.004715523245010514,-0.012494114320727983,0.006476500160014477
0.4,0.000438645800000913,-0.7847984000000002,-0.0003736452800013945,-2.3559555999999997,0.0006182785000017684,1.5705725999999987,0.7865734000000019,0.039999943,0.039999947,-9.818902000000003,0.0062457611784565974,-0.010584750000010182,0.004788220400011176,-0.012513530440631151,0.006576605000015407
0.4025,0.0004449194675009401,-0.7847999600000002,-0.00038322772100143595,-2.35595281,0.0006304300150018209,1.5705633749999985,0.786586675000002,0.039999943,0.039999947,-9.818928325000003,0.006402418389939799,-0.010654711050010484,0.004865015045011508,-0.012531745713206845,0.006682476050015864
0.405,0.00045119313500096723,-0.7848015200000003,-0.00039281016200147734,-2.35595002,0.0006425815300018735,1.5705541499999986,0.786599950000002,0.039999943,0.039999947,-9.818954650000004,0.006559075601423002,-0.010724672100010787,0.0049418096900118395,-0.012549960985782538,0.006788347100016323
0.40750000000000003,0.00045746680250099433,-0.7848030800000002,-0.00040239260300151873,-2.3559472299999995,0.0006547330450019259,1.5705449249999985,0.7866132250000021,0.039999943,0.039999947,-9.818980975000004,0.006715732812906204,-0.010794633150011088,0.005018604335012171,-0.012568176258358233,0.00689421815001678
0.41000000000000003,0.0004637404700010214,-0.7848046400000003,-0.0004119750440015601,-2.3559444399999996,0.0006668845600019785,1.5705356999999984,0.7866265000000021,0.039999943,0.039999947,-9.819007300000004,0.006872390024389405,-0.010864594200011391,0.0050953989800125036,-0.012586391530933926,0.007000089200017237
0.41250000000000003,0.00047001413750104857,-0.7848062000000002,-0.0004215574850016015,-2.3559416499999997,0.000679036075002031,1.5705264749999985,0.7866397750000023,0.039999943,0.039999947,-9.819033625000005,0.007029047235872607,-0.010934555250011694,0.005172193625012835,-0.012604606803509619,0.007105960250017695
0.41500000000000004,0.00047628780500107566,-0.7848077600000003,-0.00043113992600164297,-2.3559388599999993,0.0006911875900020834,1.5705172499999984,0.7866530500000023,0.039999943,0.039999947,-9.819059950000005,0.007185704447355809,-0.011004516300011995,0.005248988270013167,-0.012622822076085312,0.007211831300018152
0.4175,0.00048277466750119933,-0.7848095150000004,-0.0004410488690018323,-2.355935889999999,0.0007037529300023234,1.5705077099999982,0.7866667770000025,0.039999943200000006,0.03999994715,-9.819075625,0.00734863351102228,-0.01107480750001231,0.005327159565014039,-0.012640211777764265,0.007319617400019364
0.42,0.000489687920001182,-0.7848116600000004,-0.00045161081600180586,-2.3559325599999994,0.0007171459200022899,1.5704975399999983,0.7866814080000025,0.0399999438,0.0399999476,-9.81907,0.007524106279045462,-0.011145759000012133,0.005408084160013836,-0.01265595033765103,0.0074312336000190845
0.4225,0.0004966011725011648,-0.7848138050000003,-0.00046217276300177944,-2.355929229999999,0.0007305389100022565,1.5704873699999984,0.7866960390000025,0.0399999444,0.03999994805,-9.819064375,0.007699579047068643,-0.011216710500011955,0.005489008755013634,-0.012671688897537796,0.0075428498000188055
0.425,0.0005035144250011475,-0.7848159500000004,-0.0004727347100017531,-2.3559258999999995,0.000743931900002223,1.5704771999999982,0.7867106700000024,0.039999945,0.0399999485,-9.819058749999998,0.007875051815091825,-0.011287662000011777,0.0055699333500134314,-0.012687427457424561,0.007654466000018526
0.4275,0.0005104276775011302,-0.7848180950000003,-0.00048329665700172665,-2.3559225699999993,0.0007573248900021894,1.5704670299999983,0.7867253010000024,0.0399999456,0.03999994895,-9.819053124999998,0.008050524583115006,-0.0113586135000116,0.00565085794501323,-0.012703166017311328,0.007766082200018247
0.43,0.0005173409300011128,-0.7848202400000004,-0.0004938586040017002,-2.3559192399999995,0.000770717880002156,1.5704568599999984,0.7867399320000024,0.039999946200000004,0.0399999494,-9.819047499999998,0.008225997351138187,-0.011429565000011422,0.005731782540013027,-0.012718904577198093,0.007877698400017969
0.4325,0.0005242541825010955,-0.7848223850000003,-0.0005044205510016739,-2.3559159099999993,0.0007841108700021225,1.5704466899999985,0.7867545630000023,0.0399999468,0.03999994985,-9.819041874999998,0.00840147011916137,-0.011500516500011245,0.005812707135012824,-0.01273464313708486,0.00798931460001769
0.435,0.0005316155600012004,-0.7848249400000005,-0.0005156689340018344,-2.355912129999999,0.000798373840002326,1.5704358699999983,0.7867701360000026,0.0399999477,0.0399999508,-9.819055500000003,0.0085888744332202,-0.01156940800001074,0.005896382000013459,-0.012749518547209316,0.00810474380001857
0.4375,0.0005392010000012073,-0.7848277000000005,-0.0005272605350018449,-2.355908124999999,0.0008130718000023393,1.5704247249999983,0.7867861800000026,0.03999994875,0.039999952,-9.819078750000003,0.008782244520292628,-0.0116372695000108,0.005981432000013536,-0.012763962382452924,0.008222079500018676
0.44,0.0005467864400012142,-0.7848304600000005,-0.0005388521360018554,-2.3559041199999995,0.0008277697600023527,1.570413579999998,0.7868022240000025,0.0399999498,0.0399999532,-9.819102000000003,0.008975614607365054,-0.011705131000010863,0.006066482000013614,-0.012778406217696532,0.008339415200018782
0.4425,0.0005543718800012211,-0.7848332200000004,-0.0005504437370018661,-2.3559001149999994,0.0008424677200023661,1.570402434999998,0.7868182680000025,0.03999995085,0.0399999544,-9.819125250000004,0.00916898469443748,-0.011772992500010925,0.006151532000013692,-0.01279285005294014,0.008456750900018888
0.445,0.000561957320001228,-0.7848359800000004,-0.0005620353380018766,-2.3558961099999993,0.0008571656800023795,1.570391289999998,0.7868343120000025,0.0399999519,0.039999955600000005,-9.819148500000004,0.009362354781509905,-0.011840854000010987,0.006236582000013769,-0.012807293888183748,0.008574086600018996
0.4475,0.0005695427600012349,-0.7848387400000004,-0.0005736269390018871,-2.3558921049999992,0.0008718636400023928,1.5703801449999981,0.7868503560000025,0.03999995295,0.0399999568,-9.819171750000004,0.009555724868582331,-0.011908715500011048,0.006321632000013846,-0.012821737723427356,0.008691422300019102
0.45,0.0005771282000013572,-0.7848415000000005,-0.0005852185400020744,-2.355888099999999,0.0008865616000026302,1.570368999999998,0.7868664000000029,0.039999954,0.039999958,-9.819195,0.009749094955658186,-0.011976577000010633,0.00640668200001459,-0.012836181558670617,0.00880875800002014
0.4525,0.0005854182950013647,-0.7848448225000005,-0.0005978895950020859,-2.3558834499999994,0.0009026275900026449,1.570356819999998,0.7868839650000029,0.0399999546,0.0399999583,-9.819199050000002,0.009963410301169226,-0.012041521000010692,0.006495803000014672,-0.012848504353316649,0.008931776000020252
0.455,0.0005937083900013722,-0.7848481450000006,-0.0006105606500020975,-2.3558787999999993,0.0009186935800026594,1.5703446399999978,0.7869015300000028,0.0399999552,0.0399999586,-9.819203100000001,0.010177725646680267,-0.01210646500001075,0.006584924000014753,-0.012860827147962679,0.009054794000020364
0.4575,0.0006019984850013798,-0.7848514675000006,-0.000623231705002109,-2.355874149999999,0.000934759570002674,1.570332459999998,0.7869190950000029,0.0399999558,0.0399999589,-9.81920715,0.010392040992191307,-0.01217140900001081,0.0066740450000148345,-0.01287314994260871,0.009177812000020475
0.46,0.0006102885800013874,-0.7848547900000006,-0.0006359027600021205,-2.3558694999999994,0.0009508255600026887,1.570320279999998,0.7869366600000028,0.0399999564,0.039999959200000004,-9.819211200000002,0.010606356337702346,-0.012236353000010868,0.006763166000014915,-0.012885472737254742,0.009300830000020587
0.4625,0.0006185786750013949,-0.7848581125000006,-0.000648573815002132,-2.3558648499999992,0.0009668915500027033,1.5703080999999979,0.7869542250000029,0.039999957,0.0399999595,-9.819215250000001,0.010820671683213387,-0.012301297000010928,0.006852287000014996,-0.012897795531900774,0.0094238480000207
0.465,0.0006268687700014024,-0.7848614350000006,-0.0006612448700021436,-2.3558601999999995,0.000982957540002718,1.570295919999998,0.786971790000003,0.039999957600000004,0.0399999598,-9.8192193,0.011034987028724427,-0.012366241000010988,0.006941408000015078,-0.012910118326546805,0.009546866000020813
0.4675,0.000635404437501525,-0.7848649645000007,-0.0006742921930023314,-2.355855374999999,0.000999500400002956,1.5702833799999978,0.7869898700000032,0.0399999581,0.0399999603,-9.819228450000002,0.01125617157671842,-0.012431980800011375,0.007031842570015723,-0.012922001304106739,0.009671764900021737
0.47000000000000003,0.0006444312500015025,-0.7848689080000006,-0.000688092052002297,-2.3558501999999995,0.0010169970000029123,1.5702701199999978,0.7870089800000031,0.0399999584,0.0399999612,-9.819247800000003,0.011491094529667824,-0.012499312200011208,0.0071249042800154904,-0.012933004647495151,0.009800425600021416
0.47250000000000003,0.0006534580625014799,-0.7848728515000006,-0.0007018919110022624,-2.3558450249999994,0.0010344936000028686,1.5702568599999978,0.7870280900000031,0.039999958700000005,0.0399999621,-9.819267150000003,0.011726017482617226,-0.01256664360001104,0.007217965990015258,-0.012944007990883563,0.009929086300021095
0.47500000000000003,0.0006624848750014573,-0.7848767950000006,-0.000715691770002228,-2.3558398499999993,0.001051990200002825,1.5702435999999977,0.787047200000003,0.039999959,0.039999963,-9.819286500000002,0.011960940435566628,-0.01263397500001087,0.007311027700015025,-0.012955011334271977,0.010057747000020772
0.47750000000000004,0.0006715116875014348,-0.7848807385000006,-0.0007294916290021934,-2.355834674999999,0.0010694868000027812,1.570230339999998,0.7870663100000029,0.0399999593,0.0399999639,-9.819305850000003,0.012195863388516031,-0.012701306400010702,0.007404089410014792,-0.01296601467766039,0.010186407700020451
0.48,0.0006805385000014121,-0.7848846820000006,-0.0007432914880021586,-2.3558294999999996,0.001086983400002737,1.570217079999998,0.7870854200000029,0.0399999596,0.039999964799999996,-9.819325200000003,0.012430786341465428,-0.012768637800010533,0.007497151120014557,-0.012977018021048801,0.010315068400020127
0.4825,0.0006895653125013895,-0.7848886255000006,-0.0007570913470021242,-2.3558243249999995,0.0011044800000026933,1.570203819999998,0.7871045300000029,0.0399999599,0.0399999657,-9.819344550000002,0.012665709294414832,-0.012835969200010365,0.0075902128300143245,-0.012988021364437214,0.010443729100019805
0.485,0.0006991045350015279,-0.7848929660000007,-0.0007716764230023361,-2.3558185899999993,0.001122971710002962,1.5701898099999976,0.7871247370000032,0.0399999606,0.039999966399999996,-9.819371100000003,0.012915298342744764,-0.012901370400010052,0.00768594681001514,-0.012998303677888238,0.01057611860002094
0.4875,0.0007088999625015702,-0.7848975050000008,-0.0007866541075024008,-2.3558125749999994,0.001141960975003044,1.5701754249999977,0.7871454925000033,0.0399999615,0.039999967,-9.819401250000004,0.013172220438759909,-0.01296580650001033,0.00778301692501556,-0.013008225476370816,0.01071037250002152
0.49,0.0007186953900016125,-0.7849020440000007,-0.0008016317920024656,-2.355806559999999,0.001160950240003126,1.5701610399999977,0.7871662480000033,0.0399999624,0.0399999676,-9.819431400000004,0.013429142534775054,-0.013030242600010608,0.00788008704001598,-0.013018147274853393,0.010844626400022102
0.4925,0.0007284908175016548,-0.7849065830000007,-0.0008166094765025303,-2.3558005449999992,0.0011799395050032082,1.5701466549999976,0.7871870035000035,0.0399999633,0.0399999682,-9.819461550000005,0.013686064630790199,-0.013094678700010886,0.0079771571550164,-0.01302806907333597,0.01097888030002268
0.495,0.0007382862450016972,-0.7849111220000008,-0.000831587161002595,-2.355794529999999,0.00119892877000329,1.5701322699999976,0.7872077590000036,0.0399999642,0.0399999688,-9.819491700000006,0.013942986726805343,-0.013159114800011164,0.008074227270016818,-0.013037990871818549,0.011113134200023262
0.4975,0.0007480816725017395,-0.7849156610000008,-0.0008465648455026597,-2.355788514999999,0.001217918035003372,1.5701178849999975,0.7872285145000036,0.0399999651,0.0399999694,-9.819521850000005,0.014199908822820488,-0.013223550900011443,0.008171297385017238,-0.013047912670301127,0.01124738810002384
0.5,0.0007578771000019274,-0.7849202000000008,-0.0008615425300029475,-2.355782499999999,0.001236907300003737,1.5701034999999972,0.7872492700000041,0.039999966,0.03999997,-9.819552,0.014456830918839954,-0.013287987000011443,0.008268367500018362,-0.013057834468783357,0.011381642000025428
0.5025000000000001,0.0007684727250019373,-0.7849253600000009,-0.0008777464960029627,-2.355775824999999,0.0012574505950037561,1.5700879449999972,0.7872717295000041,0.039999966,0.03999997,-9.81955365,0.014737510122410102,-0.013350900750011501,0.008369314575018456,-0.013065849244595985,0.01152143225002556
0.505,0.0007790683500019466,-0.7849305200000009,-0.000893950462002977,-2.355769149999999,0.0012779938900037743,1.570072389999997,0.7872941890000041,0.039999966,0.03999997,-9.819555300000001,0.015018189325980235,-0.013413814500011558,0.008470261650018546,-0.013073864020408612,0.011661222500025683
0.5075000000000001,0.0007896639750019566,-0.7849356800000009,-0.0009101544280029921,-2.355762474999999,0.0012985371850037933,1.5700568349999973,0.7873166485000042,0.039999966,0.03999997,-9.81955695,0.015298868529550383,-0.013476728250011618,0.008571208725018641,-0.01308187879622124,0.011801012750025812
0.51,0.000800259600001966,-0.7849408400000009,-0.0009263583940030065,-2.355755799999999,0.0013190804800038117,1.5700412799999972,0.7873391080000042,0.039999966,0.03999997,-9.8195586,0.015579547733120517,-0.013539642000011672,0.00867215580001873,-0.013089893572033866,0.011940803000025937
0.5125,0.0008108552250019754,-0.7849460000000009,-0.0009425623600030209,-2.3557491249999987,0.0013396237750038298,1.5700257249999972,0.7873615675000042,0.039999966,0.03999997,-9.81956025,0.01586022693669065,-0.013602555750011729,0.00877310287501882,-0.013097908347846495,0.012080593250026061
0.515,0.0008214508500019853,-0.7849511600000009,-0.000958766326003036,-2.355742449999999,0.001360167070003849,1.570010169999997,0.7873840270000042,0.039999966,0.03999997,-9.8195619,0.016140906140260796,-0.013665469500011788,0.008874049950018914,-0.013105923123659121,0.01222038350002619
0.5175,0.0008323235950021511,-0.784956537500001,-0.0009753950315032902,-2.3557355399999986,0.0013812485900041712,1.5699942049999969,0.7874070670000045,0.039999966,0.03999997,-9.819572350000005,0.016429276485053226,-0.013728346650011823,0.008976270850019723,-0.013113591726870573,0.012362000450027347
0.52,0.0008437505800021617,-0.784962350000001,-0.0009928732160033066,-2.3557281599999986,0.001403406560004192,1.5699774199999967,0.7874312680000045,0.039999966,0.03999997,-9.819600400000006,0.016733029112277243,-0.013791150600011882,0.00908103940001982,-0.01312056798488026,0.012507270800027483
0.5225,0.0008551775650021719,-0.7849681625000011,-0.001010351400503322,-2.3557207799999986,0.0014255645300042116,1.5699606349999968,0.7874554690000045,0.039999966,0.03999997,-9.819628450000007,0.01703678173950125,-0.013853954550011937,0.009185807950019912,-0.013127544242889946,0.012652541150027612
0.525,0.0008666045500021826,-0.7849739750000011,-0.0010278295850033384,-2.3557133999999986,0.0014477225000042323,1.5699438499999967,0.7874796700000046,0.039999966,0.03999997,-9.819656500000006,0.017340534366725266,-0.013916758500011997,0.009290576500020012,-0.013134520500899633,0.012797811500027748
0.5275,0.0008780315350021928,-0.7849797875000011,-0.001045307769503354,-2.3557060199999986,0.001469880470004252,1.5699270649999968,0.7875038710000046,0.039999966,0.03999997,-9.819684550000007,0.017644286993949272,-0.013979562450012051,0.009395345050020104,-0.01314149675890932,0.012943081850027877
0.53,0.0008894585200022034,-0.7849856000000012,-0.0010627859540033701,-2.3556986399999986,0.0014920384400042726,1.5699102799999967,0.7875280720000046,0.039999966,0.03999997,-9.819712600000006,0.017948039621173292,-0.01404236640001211,0.009500113600020201,-0.013148473016919005,0.013088352200028013
0.5325,0.0009008855050022136,-0.7849914125000012,-0.0010802641385033857,-2.355691259999998,0.0015141964100042922,1.5698934949999968,0.7875522730000046,0.039999966,0.03999997,-9.819740650000007,0.018251792248397295,-0.014105170350012165,0.009604882150020295,-0.013155449274928692,0.013233622550028142
0.535,0.0009128872800023921,-0.7849976420000013,-0.0010986233500036593,-2.355683389999998,0.0015374708300046388,1.5698758799999963,0.787577696000005,0.039999966,0.03999997,-9.819762200000005,0.01857217792427976,-0.014167184600011994,0.009712217700021142,-0.013161501660944078,0.013382502600029331
0.5375,0.000925176450002403,-0.7850040800000013,-0.001117423075003676,-2.355675274999998,0.00156130347500466,1.5698578499999964,0.787603730000005,0.039999966,0.03999997,-9.819780500000004,0.01890088012448417,-0.014228804000012049,0.009820836750021237,-0.013167092110962718,0.013533187500029464
0.54,0.0009374656200024144,-0.7850105180000013,-0.0011362228000036934,-2.355667159999998,0.0015851361200046822,1.5698398199999963,0.7876297640000051,0.039999966,0.03999997,-9.819798800000004,0.019229582324688597,-0.014290423400012105,0.00992945580002134,-0.013172682560981358,0.013683872400029605
0.5425,0.0009497547900024254,-0.7850169560000013,-0.0011550225250037101,-2.355659044999998,0.0016089687650047034,1.5698217899999964,0.7876557980000051,0.039999966,0.03999997,-9.819817100000003,0.01955828452489301,-0.014352042800012161,0.010038074850021436,-0.013178273010999999,0.013834557300029738
0.545,0.0009620439600024368,-0.7850233940000013,-0.0011738222500037277,-2.355650929999998,0.0016328014100047256,1.5698037599999966,0.7876818320000052,0.039999966,0.03999997,-9.819835400000004,0.019886986725097436,-0.014413662200012218,0.010146693900021536,-0.013183863461018639,0.01398524220002988
0.5475,0.0009743331300024477,-0.7850298320000013,-0.0011926219750037445,-2.355642814999998,0.001656634055004747,1.5697857299999964,0.7877078660000052,0.039999966,0.03999997,-9.819853700000005,0.020215688925301848,-0.014475281600012272,0.010255312950021633,-0.013189453911037279,0.014135927100030013
0.55,0.0009866223000026377,-0.7850362700000014,-0.001211421700004036,-2.355634699999998,0.0016804667000051162,1.5697676999999963,0.7877339000000055,0.039999966,0.03999997,-9.819872000000005,0.02054439112551137,-0.014536901000012196,0.010363932000022487,-0.013195044361055692,0.014286612000031224
0.5525,0.0009998040300026494,-0.7850433695000014,-0.0012315897100040538,-2.355625864999998,0.0017060332550051388,1.5697483649999961,0.7877618240000056,0.0399999666,0.039999970450000005,-9.819895700000005,0.02089855838574128,-0.014597855450012251,0.010476306000022586,-0.01319950073957524,0.014442643650031362
0.555,0.0010129857600026618,-0.7850504690000014,-0.0012517577200040725,-2.355617029999998,0.0017315998100051627,1.5697290299999962,0.7877897480000057,0.0399999672,0.0399999709,-9.819919400000005,0.021252725645971207,-0.014658809900012308,0.010588680000022692,-0.01320395711809479,0.014598675300031507
0.5575,0.0010261674900026736,-0.7850575685000014,-0.0012719257300040905,-2.355608194999998,0.0017571663650051853,1.569709694999996,0.7878176720000056,0.0399999678,0.03999997135,-9.819943100000005,0.021606892906201117,-0.014719764350012363,0.01070105400002279,-0.013208413496614339,0.014754706950031646
0.56,0.0010393492200026857,-0.7850646680000014,-0.0012920937400041092,-2.355599359999998,0.0017827329200052091,1.569690359999996,0.7878455960000057,0.0399999684,0.0399999718,-9.819966800000005,0.02196106016643104,-0.01478071880001242,0.010813428000022895,-0.013212869875133888,0.014910738600031791
0.5625,0.0010525309500026975,-0.7850717675000014,-0.0013122617500041273,-2.355590524999998,0.001808299475005232,1.569671024999996,0.7878735200000058,0.039999969,0.03999997225,-9.819990500000005,0.02231522742666095,-0.014841673250012472,0.010925802000022996,-0.013217326253653437,0.01506677025003193
0.5650000000000001,0.0010657126800027099,-0.7850788670000014,-0.001332429760004146,-2.3555816899999984,0.0018338660300052556,1.569651689999996,0.7879014440000057,0.039999969600000004,0.039999972700000004,-9.820014200000005,0.022669394686890876,-0.01490262770001253,0.0110381760000231,-0.013221782632172985,0.015222801900032076
0.5675,0.001079201940002912,-0.7850861775000015,-0.0013530692000044559,-2.355572594999998,0.0018600299500056484,1.5696319049999956,0.7879300200000062,0.03999997,0.039999973,-9.820038650000004,0.023032675404180324,-0.01496379970001272,0.011151782550023963,-0.013225877797231741,0.015380590050033302
0.5700000000000001,0.0010933062600029253,-0.7850939100000016,-0.001374651500004476,-2.355562979999998,0.0018873886000056739,1.5696112199999956,0.7879599000000063,0.03999997,0.039999973,-9.820064600000004,0.02341418303557196,-0.015025406800012776,0.011267854200024073,-0.01322925053536958,0.015541891200033452
0.5725,0.0011074105800029377,-0.7851016425000016,-0.0013962338000044951,-2.3555533649999982,0.0019147472500056983,1.5695905349999957,0.7879897800000062,0.03999997,0.039999973,-9.820090550000005,0.02379569066696358,-0.015087013900012831,0.011383925850024176,-0.013232623273507417,0.015703192350033597
0.5750000000000001,0.001121514900002951,-0.7851093750000017,-0.0014178161000045152,-2.355543749999998,0.0019421059000057238,1.5695698499999957,0.7880196600000062,0.03999997,0.039999973,-9.820116500000005,0.024177198298355216,-0.015148621000012888,0.011499997500024284,-0.013235996011645256,0.015864493500033747
0.5775,0.0011356192200029634,-0.7851171075000016,-0.0014393984000045344,-2.355534134999998,0.001969464550005748,1.5695491649999955,0.7880495400000063,0.03999997,0.039999973,-9.820142450000004,0.024558705929746835,-0.015210228100012943,0.011616069150024387,-0.013239368749783093,0.01602579465003389
0.58,0.001149723540002976,-0.7851248400000016,-0.0014609807000045536,-2.355524519999998,0.0019968232000057724,1.5695284799999956,0.7880794200000063,0.03999997,0.039999973,-9.820168400000005,0.02494021356113845,-0.015271835200012998,0.01173214080002449,-0.013242741487920932,0.016187095800034034
0.5825,0.001163827860002989,-0.7851325725000017,-0.0014825630000045737,-2.355514904999998,0.002024181850005798,1.5695077949999956,0.7881093000000063,0.03999997,0.039999973,-9.820194350000005,0.025321721192530088,-0.015333442300013057,0.011848212450024598,-0.013246114226058769,0.016348396950034184
0.585,0.0011785669100032041,-0.7851407750000018,-0.0015051184600049035,-2.3555047799999977,0.0020527736800062158,1.5694861899999952,0.7881405240000068,0.03999997,0.039999973,-9.820215300000003,0.025721392221835726,-0.01539545110001324,0.011966684800025468,-0.01324868090450803,0.016513165800035434
0.5875,0.0011936233250032181,-0.7851492125000018,-0.001528160500004925,-2.3554943999999978,0.002081982100006243,1.5694641249999952,0.7881724200000068,0.03999997,0.039999973,-9.820233750000003,0.026130144950089716,-0.015457660750013298,0.012086357500025579,-0.013250844553113388,0.016679668500035588
0.59,0.0012086797400032315,-0.7851576500000018,-0.0015512025400049455,-2.355484019999998,0.002111190520006269,1.5694420599999952,0.7882043160000068,0.03999997,0.039999973,-9.820252200000004,0.02653889767834369,-0.015519870400013352,0.012206030200025685,-0.013253008201718744,0.016846171200035738
0.5925,0.0012237361550032457,-0.7851660875000018,-0.0015742445800049668,-2.355473639999998,0.0021403989400062963,1.5694199949999952,0.7882362120000068,0.03999997,0.039999973,-9.820270650000003,0.026947650406597683,-0.01558208005001341,0.012325702900025796,-0.0132551718503241,0.017012673900035892
0.595,0.001238792570003259,-0.7851745250000018,-0.0015972866200049873,-2.355463259999998,0.002169607360006322,1.5693979299999952,0.7882681080000069,0.03999997,0.039999973,-9.820289100000004,0.027356403134851656,-0.015644289700013466,0.012445375600025902,-0.013257335498929459,0.01717917660003604
0.5975,0.001253848985003273,-0.7851829625000019,-0.0016203286600050089,-2.355452879999998,0.0021988157800063492,1.5693758649999952,0.7883000040000069,0.03999997,0.039999973,-9.820307550000004,0.027765155863105646,-0.015706499350013524,0.012565048300026015,-0.013259499147534815,0.017345679300036197
0.6,0.0012689054000035005,-0.785191400000002,-0.0016433707000053576,-2.3554424999999974,0.0022280242000067914,1.569353799999995,0.7883319000000074,0.03999997,0.039999973,-9.820326000000005,0.028173908591365936,-0.01576870900001247,0.012684721000026886,-0.01326166279613997,0.01751218200003746
0.6025,0.0012849430100034607,-0.785200512500002,-0.001667917195005297,-2.3554312799999977,0.0022591388050067144,1.5693302799999949,0.7883658900000073,0.03999997,0.039999973,-9.820353600000006,0.02861160542825364,-0.01582585195001233,0.01280789770002658,-0.013262905832380304,0.017683801950037034
0.605,0.0013009806200034203,-0.7852096250000019,-0.001692463690005235,-2.3554200599999975,0.0022902534100066358,1.569306759999995,0.7883998800000073,0.03999997,0.039999973,-9.820381200000005,0.029049302265141318,-0.015882994900012187,0.01293107440002627,-0.013264148868620635,0.0178554219000366
0.6075,0.0013170182300033806,-0.7852187375000019,-0.001717010185005174,-2.3554088399999977,0.002321368015006559,1.569283239999995,0.7884338700000072,0.03999997,0.039999973,-9.820408800000006,0.02948699910202902,-0.015940137850012043,0.013054251100025964,-0.013265391904860967,0.018027041850036177
0.61,0.00133305584000334,-0.785227850000002,-0.0017415566800051123,-2.3553976199999975,0.00235248262000648,1.5692597199999951,0.7884678600000071,0.03999997,0.039999973,-9.820436400000006,0.0299246959389167,-0.0159972808000119,0.013177427800025654,-0.013266634941101299,0.018198661800035744
0.6125,0.0013490934500033002,-0.7852369625000019,-0.0017661031750050515,-2.3553863999999978,0.002383597225006403,1.569236199999995,0.788501850000007,0.03999997,0.039999973,-9.820464000000007,0.030362392775804402,-0.01605442375001176,0.013300604500025348,-0.01326787797734163,0.018370281750035317
0.615,0.0013651310600032599,-0.7852460750000019,-0.0017906496700049895,-2.3553751799999976,0.0024147118300063245,1.5692126799999953,0.788535840000007,0.03999997,0.039999973,-9.820491600000006,0.03080008961269208,-0.016111566700011615,0.013423781200025037,-0.013269121013581964,0.018541901700034884
0.6175,0.0013815052200034615,-0.785255422500002,-0.001815712250005299,-2.3553637149999975,0.0024464804050067165,1.5691886699999948,0.7885705400000074,0.03999997,0.039999973,-9.820515050000003,0.03124746885160141,-0.016169222100011916,0.013548106650025713,-0.013269958319142421,0.01871519910003587
0.62,0.001398552480003535,-0.7852652400000021,-0.001841807000005411,-2.3553517599999974,0.002479556920006859,1.5691636799999948,0.7886066600000076,0.03999997,0.039999973,-9.820530200000004,0.03171421289453641,-0.016227902400012168,0.013674729600026256,-0.013269984163343865,0.01889185140003663
0.6225,0.001415599740003609,-0.785275057500002,-0.0018679017500055244,-2.355339804999997,0.0025126334350070024,1.5691386899999946,0.7886427800000076,0.03999997,0.039999973,-9.820545350000003,0.032180956937471424,-0.01628658270001242,0.013801352550026806,-0.01327001000754531,0.019068503700037397
0.625,0.0014326470000036824,-0.7852848750000021,-0.0018939965000056365,-2.3553278499999974,0.0025457099500071447,1.5691136999999946,0.7886789000000078,0.03999997,0.039999973,-9.820560500000003,0.03264770098040642,-0.016345263000012673,0.013927975500027352,-0.013270035851746756,0.019245156000038156
0.6275000000000001,0.0014496942600037564,-0.7852946925000022,-0.00192009125000575,-2.3553158949999973,0.0025787864650072883,1.5690887099999944,0.7887150200000079,0.03999997,0.039999973,-9.820575650000004,0.03311444502334144,-0.01640394330001293,0.014054598450027902,-0.0132700616959482,0.019421808300038923
0.63,0.0014667415200038296,-0.7853045100000021,-0.001946186000005862,-2.355303939999997,0.0026118629800074306,1.5690637199999944,0.7887511400000081,0.03999997,0.039999973,-9.820590800000003,0.03358118906627643,-0.01646262360001318,0.014181221400028445,-0.013270087540149645,0.019598460600039683
0.6325000000000001,0.0014837887800039037,-0.7853143275000022,-0.001972280750005975,-2.355291984999997,0.0026449394950075742,1.5690387299999942,0.7887872600000082,0.03999997,0.039999973,-9.820605950000003,0.03404793310921145,-0.016521303900013436,0.014307844350028995,-0.013270113384351091,0.01977511290004045
0.635,0.001501527900004178,-0.7853246150000024,-0.001999436490006396,-2.355279469999997,0.0026793603200081072,1.5690127099999938,0.7888248500000088,0.039999969600000004,0.039999972700000004,-9.820636400000009,0.034534468501920886,-0.016582244200014338,0.014436750200030043,-0.013269830401986689,0.019955067800041953
0.6375000000000001,0.001519612950004195,-0.7853351375000024,-0.0020271227250064218,-2.355266674999997,0.0027144533000081398,1.5689861749999938,0.7888631750000089,0.039999969,0.03999997225,-9.820674500000008,0.0350308995695073,-0.016644314500014395,0.014566797500030164,-0.013269393006339524,0.020136674000042123
0.64,0.001537698000004211,-0.7853456600000024,-0.0020548089600064463,-2.3552538799999967,0.002749546280008171,1.5689596399999937,0.7889015000000089,0.0399999684,0.0399999718,-9.82071260000001,0.035527330637093686,-0.01670638480001445,0.01469684480003028,-0.013268955610692358,0.020318280200042282
0.6425,0.001555783050004227,-0.7853561825000025,-0.002082495195006471,-2.3552410849999967,0.0027846392600082022,1.5689331049999937,0.7889398250000089,0.0399999678,0.03999997135,-9.820750700000008,0.03602376170468008,-0.01676845510001451,0.014826892100030395,-0.013268518215045193,0.020499886400042446
0.645,0.0015738681000042438,-0.7853667050000025,-0.0021101814300064966,-2.355228289999997,0.0028197322400082348,1.5689065699999938,0.7889781500000089,0.0399999672,0.0399999709,-9.820788800000008,0.036520192772266494,-0.016830525400014566,0.014956939400030516,-0.013268080819398028,0.020681492600042616
0.6475,0.0015919531500042598,-0.7853772275000025,-0.0021378676650065215,-2.355215494999997,0.002854825220008266,1.5688800349999936,0.7890164750000089,0.0399999666,0.039999970450000005,-9.820826900000009,0.03701662383985288,-0.01689259570001462,0.015086986700030633,-0.013267643423750862,0.020863098800042775
0.65,0.0016100382000045286,-0.7853877500000027,-0.0021655539000069337,-2.355202699999997,0.002889918200008788,1.5688534999999932,0.7890548000000095,0.039999966,0.03999997,-9.820865000000005,0.03751305490744676,-0.016954666000014135,0.015217034000031522,-0.013267206028103475,0.021044705000044097
0.6525,0.0016291887000045456,-0.7853990075000027,-0.0021948738600069597,-2.3551890049999966,0.0029270814200088213,1.5688254499999932,0.7890954050000096,0.03999996705,0.03999997105,-9.820887350000005,0.038041033223396664,-0.017014430650014185,0.01535032805003164,-0.013265827205031748,0.02123117630004426
0.655,0.0016483392000045634,-0.7854102650000028,-0.002224193820006987,-2.355175309999997,0.0029642446400088562,1.5687973999999931,0.7891360100000097,0.0399999681,0.0399999721,-9.820909700000005,0.03856901153934659,-0.017074195300014243,0.015483622100031765,-0.013264448381960023,0.021417647600044436
0.6575,0.0016674897000045804,-0.7854215225000027,-0.002253513780007013,-2.355161614999997,0.003001407860008889,1.5687693499999933,0.7891766150000097,0.03999996915,0.03999997315,-9.820932050000005,0.03909698985529649,-0.017133959950014297,0.015616916150031883,-0.013263069558888296,0.0216041189000446
0.66,0.0016866402000045983,-0.7854327800000027,-0.00228283374000704,-2.3551479199999967,0.003038571080008924,1.5687412999999932,0.7892172200000097,0.0399999702,0.0399999742,-9.820954400000005,0.039624968171246416,-0.01719372460001435,0.015750210200032005,-0.01326169073581657,0.021790590200044774
0.6625,0.0017057907000046155,-0.7854440375000027,-0.002312153700007066,-2.355134224999997,0.0030757343000089566,1.5687132499999932,0.7892578250000097,0.03999997125,0.03999997525,-9.820976750000005,0.04015294648719632,-0.017253489250014405,0.015883504250032127,-0.013260311912744844,0.021977061500044942
0.665,0.0017249412000046333,-0.7854552950000028,-0.0023414736600070934,-2.3551205299999967,0.0031128975200089915,1.5686851999999931,0.7892984300000099,0.0399999723,0.0399999763,-9.820999100000005,0.04068092480314625,-0.01731325390001446,0.016016798300032248,-0.013258933089673117,0.022163532800045113
0.6675,0.0017444558300049155,-0.7854667875000029,-0.0023713520650075265,-2.3551065699999967,0.0031507682950095398,1.5686566049999928,0.7893398070000104,0.039999973,0.039999977,-9.821019000000003,0.04121938906623591,-0.017373374200014773,0.01615114055003313,-0.013257090328260513,0.022351594750046437
0.67,0.0017646987200049345,-0.7854787500000029,-0.0024023473600075554,-2.355092079999997,0.0031900541800095766,1.5686269199999927,0.7893827280000104,0.039999973,0.039999977,-9.821034000000003,0.04177882522358221,-0.01743420580001483,0.016287579200033257,-0.013254319690167165,0.022542838000046618
0.6725,0.0017849416100049523,-0.7854907125000029,-0.0024333426550075827,-2.3550775899999965,0.0032293400650096112,1.5685972349999928,0.7894256490000104,0.039999973,0.039999977,-9.821049000000004,0.042338261380928485,-0.017495037400014884,0.01642401785003338,-0.013251549052073817,0.02273408125004679
0.675,0.0018051845000049713,-0.7855026750000029,-0.0024643379500076117,-2.3550630999999966,0.003268625950009648,1.5685675499999927,0.7894685700000105,0.039999973,0.039999977,-9.821064000000003,0.04289769753827479,-0.017555869000014938,0.01656045650003351,-0.01324877841398047,0.022925324500046966
0.6775,0.0018254273900049892,-0.7855146375000029,-0.0024953332450076394,-2.3550486099999968,0.003307911835009683,1.5685378649999928,0.7895114910000105,0.039999973,0.039999977,-9.821079000000003,0.04345713369562106,-0.01761670060001499,0.016696895150033628,-0.013246007775887123,0.023116567750047137
0.68,0.001845670280005008,-0.785526600000003,-0.0025263285400076683,-2.3550341199999965,0.0033471977200097195,1.5685081799999927,0.7895544120000105,0.039999973,0.039999977,-9.821094000000004,0.04401656985296737,-0.01767753220001505,0.016833333800033757,-0.013243237137793774,0.023307811000047314
0.6825,0.0018659131700050262,-0.785538562500003,-0.002557323835007696,-2.3550196299999966,0.0033864836050097546,1.5684784949999928,0.7895973330000106,0.039999973,0.039999977,-9.821109000000003,0.04457600601031365,-0.017738363800015103,0.01696977245003388,-0.013240466499700428,0.023499054250047485
0.685,0.001886901980005324,-0.7855510450000032,-0.0025894632700081523,-2.355004569999996,0.003427219060010333,1.5684477199999922,0.7896418300000112,0.0399999734,0.039999977299999996,-9.821139700000009,0.0451575484128283,-0.0178001058000155,0.017108267300034775,-0.013237584568559368,0.02369342330004883
0.6875,0.0019082637500053429,-0.7855637875000031,-0.0026221747750081814,-2.354989224999996,0.00346867930001037,1.5684163999999923,0.7896871150000113,0.039999974,0.03999997775,-9.82117825000001,0.04575014393791474,-0.017862303000015557,0.017247790250034898,-0.013234646990894515,0.023889355250049007
0.6900000000000001,0.0019296255200053627,-0.7855765300000032,-0.002654886280008212,-2.354973879999996,0.0035101395400104086,1.5683850799999923,0.7897324000000113,0.0399999746,0.0399999782,-9.821216800000009,0.04634273946300121,-0.01792450020001561,0.017387313200035028,-0.013231709413229664,0.02408528720004919
0.6925,0.0019509872900053816,-0.7855892725000032,-0.002687597785008241,-2.354958534999996,0.003551599780010445,1.5683537599999922,0.7897776850000114,0.0399999752,0.03999997865,-9.821255350000008,0.04693533498808765,-0.01798669740001567,0.01752683615003515,-0.01322877183556481,0.02428121915004936
0.6950000000000001,0.0019723490600054017,-0.7856020150000033,-0.0027203092900082715,-2.354943189999996,0.0035930600200104836,1.5683224399999922,0.7898229700000114,0.0399999758,0.0399999791,-9.82129390000001,0.04752793051317412,-0.018048894600015727,0.01766635910003528,-0.013225834257899957,0.024477151100049544
0.6975,0.0019937108300054204,-0.7856147575000032,-0.0027530207950083006,-2.354927844999996,0.0036345202600105205,1.568291119999992,0.7898682550000115,0.0399999764,0.039999979549999995,-9.821332450000009,0.04812052603826056,-0.018111091800015782,0.017805882050035405,-0.013222896680235104,0.02467308305004972
0.7000000000000001,0.002015072600005732,-0.7856275000000035,-0.002785732300008778,-2.354912499999996,0.003675980500011126,1.5682597999999917,0.7899135400000121,0.039999977,0.03999998,-9.821371000000005,0.048713121563355256,-0.018173289000015566,0.017945405000036337,-0.01321995910256996,0.024869015000051037
0.7025,0.002037579260005752,-0.7856410075000034,-0.002820199735008809,-2.354896224999996,0.0037196653750111645,1.5682268149999916,0.7899612640000122,0.039999977,0.0399999806,-9.821389300000003,0.049338035471897024,-0.018234407850015618,0.018088072250036464,-0.01321587152778996,0.025069405250051215
0.705,0.0020600859200057718,-0.7856545150000035,-0.0028546671700088394,-2.354879949999996,0.0037633502500112035,1.5681938299999916,0.7900089880000123,0.039999977,0.0399999812,-9.821407600000004,0.0499629493804388,-0.018295526700015673,0.018230739500036588,-0.013211783953009962,0.025269795500051394
0.7075,0.002082592580005793,-0.7856680225000034,-0.002889134605008872,-2.354863674999996,0.0038070351250112443,1.5681608449999915,0.7900567120000123,0.039999977,0.0399999818,-9.821425900000005,0.05058786328898059,-0.018356645550015732,0.018373406750036722,-0.013207696378229963,0.02547018575005158
0.71,0.002105099240005813,-0.7856815300000035,-0.0029236020400089024,-2.354847399999996,0.003850720000011283,1.5681278599999915,0.7901044360000123,0.039999977,0.0399999824,-9.821444200000004,0.05121277719752236,-0.018417764400015788,0.01851607400003685,-0.013203608803449963,0.025670576000051758
0.7125,0.002127605900005834,-0.7856950375000035,-0.0029580694750089343,-2.354831124999996,0.0038944048750113236,1.5680948749999915,0.7901521600000123,0.039999977,0.039999983,-9.821462500000004,0.05183769110606416,-0.018478883250015843,0.01865874125003698,-0.013199521228669965,0.025870966250051947
0.715,0.002150112560005854,-0.7857085450000035,-0.002992536910008965,-2.354814849999996,0.0039380897500113626,1.5680618899999914,0.7901998840000124,0.039999977,0.039999983600000004,-9.821480800000005,0.05246260501460593,-0.018540002100015898,0.018801408500037108,-0.013195433653889966,0.02607135650005212
0.7175,0.0021730093100061805,-0.7857223005000037,-0.0030276027150094656,-2.3547982499999955,0.003982532835011997,1.5680283299999909,0.7902484370000131,0.039999976799999996,0.03999998365,-9.821499850000006,0.05309982616471639,-0.01860074555001566,0.018945022750037982,-0.013191059883682568,0.02627333250005355
0.72,0.0021966862400062013,-0.7857365520000037,-0.003063865260009498,-2.3547809999999956,0.0040284923400120375,1.5679936199999909,0.7902986480000131,0.0399999762,0.039999982600000004,-9.821520400000006,0.05376166179793525,-0.018660738200015715,0.019090531000038113,-0.013186113722621044,0.026478480000053733
0.7225,0.0022203631700062234,-0.7857508035000037,-0.0031001278050095315,-2.3547637499999956,0.004074451845012081,1.5679589099999909,0.7903488590000132,0.0399999756,0.03999998155,-9.821540950000006,0.05442349743115414,-0.01872073085001577,0.019236039250038247,-0.01318116756155952,0.026683627500053923
0.725,0.0022440401000062447,-0.7857650550000037,-0.003136390350009564,-2.3547464999999956,0.004120411350012122,1.5679241999999909,0.7903990700000132,0.039999975,0.0399999805,-9.821561500000007,0.05508533306437301,-0.018780723500015823,0.019381547500038378,-0.013176221400497994,0.026888775000054106
0.7275,0.002267717030006267,-0.7857793065000037,-0.003172652895009598,-2.3547292499999957,0.004166370855012164,1.567889489999991,0.7904492810000133,0.0399999744,0.03999997945,-9.821582050000005,0.055747168697591894,-0.01884071615001588,0.019527055750038512,-0.01317127523943647,0.027093922500054296
0.73,0.0022913939600062876,-0.7857935580000037,-0.00320891544000963,-2.3547119999999953,0.004212330360012205,1.5678547799999907,0.7904994920000133,0.0399999738,0.0399999784,-9.821602600000006,0.05640900433081076,-0.01890070880001593,0.019672564000038643,-0.013166329078374946,0.02729907000005448
0.7325,0.0023150708900063098,-0.7858078095000038,-0.003245177985009664,-2.3546947499999953,0.004258289865012248,1.5678200699999907,0.7905497030000134,0.039999973200000004,0.03999997735,-9.821623150000006,0.05707083996402965,-0.01896070145001599,0.019818072250038777,-0.013161382917313422,0.027504217500054672
0.735,0.0023395446300066504,-0.785822594000004,-0.0032826627500101863,-2.354676949999995,0.00430579783001291,1.56778417999999,0.7906015960000141,0.039999973700000004,0.0399999781,-9.821639000000005,0.05775394476968709,-0.019025287900017885,0.019965512300039682,-0.01315569654106929,0.02771212760005596
0.7375,0.0023644167750066737,-0.7858376450000041,-0.0033207586250102216,-2.3546588749999953,0.004354080025012955,1.5677476999999902,0.7906543300000142,0.03999997475,0.03999997975,-9.821652500000004,0.05844768416155109,-0.019092171250017945,0.02011391825003982,-0.0131496400572343,0.027921419000056156
0.74,0.0023892889200066957,-0.7858526960000041,-0.0033588545000102555,-2.354640799999995,0.004402362220012998,1.56771121999999,0.7907070640000142,0.0399999758,0.0399999814,-9.821666000000004,0.059141423553415055,-0.019159054600018006,0.02026232420003995,-0.01314358357339931,0.028130710400056342
0.7425,0.002414161065006719,-0.7858677470000041,-0.003396950375010291,-2.354622724999995,0.004450644415013043,1.5676747399999902,0.7907597980000143,0.03999997685,0.03999998305,-9.821679500000004,0.059835162945279054,-0.01922593795001807,0.02041073015004009,-0.013137527089564319,0.02834000180005654
0.745,0.002439033210006741,-0.785882798000004,-0.0034350462500103247,-2.3546046499999953,0.004498926610013086,1.56763825999999,0.7908125320000143,0.0399999779,0.0399999847,-9.821693000000003,0.060528902337143024,-0.01929282130001813,0.02055913610004022,-0.013131470605729329,0.028549293200056725
0.7475,0.002463905355006764,-0.7858978490000041,-0.0034731421250103604,-2.354586574999995,0.004547208805013131,1.5676017799999902,0.7908652660000144,0.03999997895,0.03999998635,-9.821706500000003,0.061222641729007016,-0.01935970465001819,0.02070754205004036,-0.013125414121894337,0.028758584600056918
0.75,0.002488777500007119,-0.7859129000000044,-0.0035112380000109048,-2.3545684999999947,0.004595491000013821,1.5675652999999896,0.7909180000000151,0.03999998,0.039999988,-9.821720000000008,0.06191638112088162,-0.01942658800001645,0.020855948000041265,-0.013119357638059291,0.028967876000058315
0.7525000000000001,0.002514868965007143,-0.7859287400000043,-0.003551204375010942,-2.3545495849999947,0.0046461430000138675,1.5675270349999897,0.7909733590000152,0.0399999812,0.039999989050000004,-9.821751500000008,0.06264907009919671,-0.01948687840001651,0.021007191950041408,-0.013113095797596596,0.029181602600058514
0.755,0.0025409604300071667,-0.7859445800000043,-0.0035911707500109772,-2.354530669999995,0.004696795000013913,1.5674887699999895,0.7910287180000152,0.0399999824,0.0399999901,-9.821783000000009,0.06338175907751176,-0.01954716880001656,0.02115843590004154,-0.0131068339571339,0.029395329200058704
0.7575000000000001,0.002567051895007191,-0.7859604200000043,-0.0036311371250110146,-2.354511754999995,0.00474744700001396,1.5674505049999896,0.7910840770000153,0.0399999836,0.039999991150000004,-9.821814500000007,0.06411444805582685,-0.01960745920001662,0.02130967985004168,-0.013100572116671205,0.029609055800058903
0.76,0.002593143360007214,-0.7859762600000043,-0.00367110350001105,-2.354492839999995,0.0047980990000140045,1.5674122399999895,0.7911394360000154,0.0399999848,0.0399999922,-9.821846000000008,0.0648471370341419,-0.01966774960001667,0.021460923800041817,-0.013094310276208509,0.029822782400059093
0.7625000000000001,0.0026192348250072385,-0.7859921000000044,-0.0037110698750110875,-2.354473924999995,0.004848751000014052,1.5673739749999895,0.7911947950000154,0.039999986,0.039999993250000004,-9.821877500000008,0.06557982601245699,-0.019728040000016725,0.021612167750041957,-0.013088048435745814,0.030036509000059292
0.765,0.0026453262900072616,-0.7860079400000044,-0.003751036250011123,-2.354455009999995,0.004899403000014097,1.5673357099999894,0.7912501540000154,0.0399999872,0.0399999943,-9.821909000000009,0.06631251499077205,-0.01978833040001678,0.021763411700042094,-0.013081786595283118,0.030250235600059485
0.7675000000000001,0.002671832135007633,-0.7860240550000046,-0.0037916383450116928,-2.3544357599999945,0.004950860775014819,1.567296844999989,0.7913063870000162,0.039999988,0.03999999525,-9.821943750000012,0.06705580949804671,-0.01985119110001899,0.021915466350042913,-0.013075454672796628,0.030465237000060753
0.77,0.0026991667400076574,-0.7860407200000046,-0.00383351188001173,-2.3544158399999944,0.005003930100014866,1.5672567799999888,0.7913643680000163,0.039999988,0.039999996,-9.821985000000012,0.06782031506321386,-0.019919192400019048,0.02206914240004305,-0.013068982586262727,0.030682788000060943
0.7725,0.002726501345007682,-0.7860573850000047,-0.0038753854150117674,-2.354395919999994,0.005056999425014913,1.5672167149999887,0.7914223490000163,0.039999988,0.03999999675,-9.822026250000011,0.06858482062838102,-0.01998719370001911,0.022222818450043185,-0.013062510499728827,0.030900339000061137
0.775,0.002753835950007707,-0.7860740500000046,-0.003917258950011806,-2.3543759999999945,0.005110068750014963,1.5671766499999888,0.7914803300000164,0.039999988,0.0399999975,-9.822067500000012,0.06934932619354821,-0.020055195000019174,0.02237649450004333,-0.013056038413194925,0.03111789000006134
0.7775,0.0027811705550077315,-0.7860907150000047,-0.003959132485011844,-2.3543560799999943,0.00516313807501501,1.5671365849999888,0.7915383110000164,0.039999988,0.03999999825,-9.822108750000012,0.07011383175871536,-0.020123196300019235,0.022530170550043464,-0.013049566326661025,0.03133544100006153
0.78,0.002808505160007757,-0.7861073800000047,-0.0040010060200118824,-2.3543361599999946,0.00521620740001506,1.5670965199999887,0.7915962920000165,0.039999988,0.039999999,-9.822150000000011,0.07087833732388255,-0.020191197600019296,0.02268384660004361,-0.013043094240127123,0.03155299200006174
0.7825,0.0028358397650077812,-0.7861240450000048,-0.004042879555011919,-2.3543162399999944,0.005269276725015107,1.5670564549999886,0.7916542730000165,0.039999988,0.03999999975,-9.822191250000012,0.07164284288904971,-0.020259198900019357,0.022837522650043747,-0.013036622153593223,0.03177054300006193
0.785,0.002864018550008168,-0.786141246000005,-0.0040860480100125135,-2.354295619999994,0.005323986050015859,1.567015129999988,0.7917140400000173,0.0399999876,0.04,-9.822210600000002,0.07243516147159712,-0.020326760200019233,0.022993007500044665,-0.013029339630154534,0.03199100680006338
0.7875,0.002892619425008194,-0.786158715000005,-0.004129863925012552,-2.354274649999994,0.005379515375015909,1.566973174999988,0.7917747000000174,0.039999987,0.04,-9.822219000000002,0.07324138656281677,-0.02039410150001929,0.023149396750044803,-0.013021651888263971,0.032212927000063576
0.79,0.0029212203000082205,-0.786176184000005,-0.004173679840012593,-2.354253679999994,0.00543504470001596,1.5669312199999879,0.7918353600000174,0.0399999864,0.04,-9.822227400000003,0.07404761165403646,-0.020461442800019353,0.02330578600004495,-0.01301396414637341,0.03243484720006378
0.7925,0.0029498211750082458,-0.786193653000005,-0.004217495755012632,-2.354232709999994,0.00549057402501601,1.566889264999988,0.7918960200000175,0.0399999858,0.04,-9.822235800000001,0.07485383674525611,-0.020528784100019414,0.023462175250045087,-0.013006276404482849,0.03265676740006398
0.795,0.0029784220500082724,-0.786211122000005,-0.004261311670012673,-2.354211739999994,0.005546103350016061,1.5668473099999878,0.7919566800000175,0.039999985200000004,0.04,-9.822244200000002,0.0756600618364758,-0.020596125400019476,0.023618564500045233,-0.012998588662592287,0.03287868760006418
0.7975,0.003007022925008298,-0.7862285910000051,-0.004305127585012712,-2.354190769999994,0.00560163267501611,1.5668053549999879,0.7920173400000176,0.0399999846,0.04,-9.822252600000002,0.07646628692769547,-0.020663466700019537,0.023774953750045374,-0.012990900920701725,0.03310060780006438
0.8,0.0030356238000087,-0.7862460600000053,-0.0043489435000133286,-2.354169799999994,0.005657162000016891,1.5667633999999873,0.7920780000000184,0.039999984,0.04,-9.822261000000003,0.0772725120189258,-0.02073080800002027,0.02393134300004624,-0.012983213178810878,0.03332252800006579
0.8025,0.0030655135350087263,-0.7862643705000053,-0.004394736970013369,-2.3541478549999937,0.005715195860016943,1.566719554999987,0.7921414050000185,0.039999984,0.04,-9.822271950000003,0.0781153045597152,-0.02080044775002033,0.02409021655004638,-0.01297454782761375,0.033548579050065995
0.805,0.003095403270008754,-0.7862826810000053,-0.004440530440013412,-2.354125909999994,0.005773229720016997,1.566675709999987,0.7922048100000185,0.039999984,0.04,-9.822282900000003,0.07895809710050464,-0.020870087500020396,0.02424909010004653,-0.012965882476416623,0.033774630100066205
0.8075,0.0031252930050087806,-0.7863009915000054,-0.004486323910013452,-2.3541039649999935,0.005831263580017049,1.566631864999987,0.7922682150000185,0.039999984,0.04,-9.822293850000003,0.07980088964129403,-0.020939727250020457,0.02440796365004667,-0.012957217125219495,0.03400068115006641
0.81,0.0031551827400088084,-0.7863193020000054,-0.004532117380013495,-2.3540820199999937,0.0058892974400171026,1.566588019999987,0.7923316200000187,0.039999984,0.04,-9.822304800000003,0.08064368218208347,-0.021009367000020523,0.02456683720004682,-0.012948551774022366,0.03422673220006662
0.8125,0.003185072475008835,-0.7863376125000054,-0.004577910850013536,-2.3540600749999934,0.0059473313000171545,1.566544174999987,0.7923950250000187,0.039999984,0.04,-9.822315750000003,0.08148647472287288,-0.021079006750020585,0.02472571075004696,-0.012939886422825238,0.034452783250066815
0.8150000000000001,0.0032149622100088628,-0.7863559230000055,-0.004623704320013579,-2.3540381299999935,0.006005365160017208,1.566500329999987,0.7924584300000187,0.039999984,0.04,-9.822326700000003,0.08232926726366231,-0.021148646500020647,0.024884584300047106,-0.01293122107162811,0.03467883430006703
0.8175,0.003245288835009279,-0.7863745110000058,-0.0046701681150142175,-2.354015834999993,0.0060642483600180175,1.5664558449999864,0.7925227585000196,0.039999984,0.0399999995,-9.822338100000003,0.08318572416927866,-0.021218216700020647,0.02504426425004797,-0.012922252807763317,0.034906322550068515
0.8200000000000001,0.003276489240009308,-0.7863936540000057,-0.004717972560014262,-2.353992839999993,0.006124830240018074,1.5664100799999863,0.7925889340000197,0.039999984,0.039999998,-9.822350400000003,0.08406950980451242,-0.021287647800020713,0.025205557000048118,-0.012912678718564004,0.035136685200068726
0.8225,0.003307689645009336,-0.7864127970000058,-0.004765777005014305,-2.353969844999993,0.006185412120018128,1.5663643149999862,0.7926551095000198,0.039999984,0.0399999965,-9.822362700000003,0.08495329543974613,-0.021357078900020775,0.025366849750048263,-0.01290310462936469,0.03536704785006893
0.8250000000000001,0.003338890050009365,-0.7864319400000058,-0.0048135814500143495,-2.3539468499999927,0.006245994000018185,1.5663185499999863,0.7927212850000198,0.039999984,0.039999994999999997,-9.822375000000005,0.08583708107497988,-0.02142651000002084,0.025528142500048413,-0.012893530540165376,0.03559741050006914
0.8275,0.0033700904550093926,-0.7864510830000058,-0.004861385895014392,-2.353923854999993,0.006306575880018238,1.5662727849999862,0.7927874605000199,0.039999984,0.0399999935,-9.822387300000004,0.08672086671021359,-0.021495941100020902,0.02568943525004856,-0.012883956450966063,0.035827773150069346
0.8300000000000001,0.003401290860009422,-0.7864702260000058,-0.004909190340014437,-2.353900859999993,0.006367157760018294,1.5662270199999861,0.79285363600002,0.039999984,0.039999992,-9.822399600000004,0.08760465234544736,-0.021565372200020968,0.025850728000048707,-0.012874382361766749,0.036058135800069564
0.8325,0.00343249126500945,-0.7864893690000059,-0.004956994785014479,-2.3538778649999927,0.006427739640018348,1.566181254999986,0.7929198115000201,0.039999984,0.0399999905,-9.822411900000004,0.08848843798068107,-0.02163480330002103,0.026012020750048853,-0.012864808272567436,0.03628849845006977
0.835,0.003464579880009882,-0.7865090850000062,-0.005006161840015142,-2.3538542199999926,0.006490047840019188,1.5661341899999854,0.792987873000021,0.039999983600000004,0.03999999,-9.822427800000005,0.08939530923990487,-0.021706423100022087,0.026174846600049692,-0.012854728754606652,0.03652114440007101
0.8375,0.0034971126000099126,-0.7865290875000062,-0.005056010200015188,-2.3538302499999926,0.006553219200019248,1.5660864749999854,0.7930568775000211,0.039999983,0.03999999,-9.822445500000006,0.09031372331110801,-0.021779137250022156,0.026338439000049847,-0.012844396522265477,0.03675493200007123
0.84,0.0035296453200099414,-0.7865490900000062,-0.0051058585600152325,-2.3538062799999926,0.006616390560019303,1.5660387599999854,0.7931258820000211,0.0399999824,0.03999999,-9.822463200000005,0.0912321373823111,-0.02185185140002222,0.026502031400049992,-0.012834064289924303,0.03698871960007144
0.8425,0.003562178040009972,-0.7865690925000062,-0.005155706920015279,-2.3537823099999926,0.0066795619200193624,1.5659910449999854,0.7931948865000211,0.0399999818,0.03999999,-9.822480900000006,0.09215055145351425,-0.021924565550022288,0.026665623800050144,-0.012823732057583128,0.037222507200071656
