rsonawane2002/My_IMU/logs_2/traj_287/imu_400hz_287.csv
time,j1,j2,j3,j4,j5,j6,j7,gripper1,gripper2,imu_ax,imu_ay,imu_az,imu_gx,imu_gy,imu_gz
0.0,0.00016700293,-0.785875,4.0107683e-05,-2.3551247,9.29385e-05,1.570997,0.786,0.04,0.04,-9.4655,0.0647899508476257,0.1126533,1.0460159e-07,-0.0011641276068985,3.3759883e-07
0.0025,0.0001670021815,-0.785857774,4.010801915e-05,-2.35513919,9.29442525e-05,1.570996565,0.786,0.04,0.04,-9.52083290000005,0.055165148715596246,0.09712132049998587,1.3644014150002896e-07,-0.0013252672855743216,4.888366555001376e-07
0.005,0.000167001433,-0.785840548,4.01083553e-05,-2.3551536800000004,9.295000500000002e-05,1.57099613,0.786,0.04,0.04,-9.576165800000101,0.04554034658356679,0.08158934099997174,1.682786930000579e-07,-0.001486406964250143,6.400744810002752e-07
0.0075,0.0001670006845,-0.7858233219999999,4.010869145e-05,-2.3551681700000002,9.295575750000002e-05,1.570995695,0.786,0.04,0.04,-9.63149870000015,0.03591554445153732,0.06605736149995761,2.0011724450008685e-07,-0.0016475466429259648,7.913123065004127e-07
0.01,0.000166999936,-0.785806096,4.01090276e-05,-2.35518266,9.296151000000003e-05,1.5709952600000001,0.786,0.04,0.04,-9.686831600000202,0.026290742319507864,0.05052538199994349,2.3195579600011582e-07,-0.0018086863216017863,9.425501320005502e-07
0.0125,0.00016699918750000001,-0.78578887,4.010936375e-05,-2.3551971500000004,9.296726250000003e-05,1.570994825,0.786,0.04,0.04,-9.742164500000252,0.016665940187478398,0.03499340249992937,2.637943475001448e-07,-0.001969826000277608,1.0937879575006878e-06
0.015,0.000166998439,-0.785771644,4.01096999e-05,-2.3552116400000003,9.297301500000004e-05,1.57099439,0.786,0.04,0.04,-9.797497400000303,0.0070411380554489394,0.01946142299991524,2.9563289900017374e-07,-0.0021309656789534294,1.2450257830008254e-06
0.0175,0.00016699497649999995,-0.7857548619999999,4.010839129999997e-05,-2.3552257350000003,9.297960050000006e-05,1.57099396,0.786,0.04,0.04,-9.834291349999999,0.000620051272562583,0.009031624964998564,4.6737246000287505e-07,-0.0022877615760089082,1.4893421250027409e-06
0.02,0.00016698608599999994,-0.7857389679999999,4.0103793199999964e-05,-2.3552390400000003,9.298785200000006e-05,1.5709935400000001,0.786,0.04,0.04,-9.834007399999997,0.0006063951877875806,0.00880618985999836,9.189140400032855e-07,-0.0024358699098239378,1.919815500003132e-06
0.0225,0.00016697719549999993,-0.7857230739999999,4.009919509999996e-05,-2.3552523450000002,9.299610350000008e-05,1.57099312,0.786,0.04,0.04,-9.833723449999997,0.0005927391030125782,0.008580754754998155,1.370455620003696e-06,-0.0025839782436389673,2.3502888750035234e-06
0.025,0.00016696830499999992,-0.7857071799999998,4.009459699999996e-05,-2.35526565,9.300435500000008e-05,1.5709927,0.786,0.04,0.04,-9.833439499999997,0.0005790830182375758,0.00835531964999795,1.8219972000041071e-06,-0.0027320865774539973,2.7807622500039156e-06
0.0275,0.00016695941449999991,-0.7856912859999998,4.0089998899999956e-05,-2.355278955,9.301260650000008e-05,1.57099228,0.786,0.04,0.04,-9.833155549999997,0.0005654269334625734,0.008129884544997745,2.2735387800045176e-06,-0.002880194911269027,3.2112356250043065e-06
0.03,0.0001669505239999999,-0.7856753919999998,4.0085400799999946e-05,-2.35529226,9.30208580000001e-05,1.57099186,0.786,0.04,0.04,-9.832871599999997,0.000551770848687571,0.00790444943999754,2.7250803600049283e-06,-0.0030283032450840563,3.6417090000046975e-06
0.0325,0.0001669416334999999,-0.7856594979999998,4.008080269999994e-05,-2.355305565,9.30291095000001e-05,1.57099144,0.786,0.04,0.04,-9.832587649999995,0.0005381147639125685,0.007679014334997334,3.1766219400053395e-06,-0.0031764115788990863,4.07218237500509e-06
0.035,0.0001669181619999996,-0.7856444399999998,4.0067547999999777e-05,-2.3553181,9.304316000000022e-05,1.57099101,0.786,0.04,0.0399999995,-9.832326299999997,0.0005174216697920618,0.0074727412699974955,4.096535020014697e-06,-0.003316707536579867,4.974493250014495e-06
0.0375,0.00016688739999999957,-0.7856297999999998,4.004996499999976e-05,-2.35533025,9.306011000000023e-05,1.570990575,0.786,0.04,0.03999999875,-9.832076249999997,0.0004932100709989948,0.0072760492249973165,5.250633850015744e-06,-0.0034530973061937358,6.112722875015528e-06
0.04,0.00016685663799999954,-0.7856151599999998,4.003238199999974e-05,-2.3553424,9.307706000000025e-05,1.57099014,0.786,0.04,0.039999998,-9.831826199999997,0.00046899847220592766,0.0070793571799971375,6.404732680016794e-06,-0.0035894870758076047,7.2509525000165635e-06
0.0425,0.0001668258759999995,-0.7856005199999998,4.001479899999973e-05,-2.35535455,9.309401000000026e-05,1.5709897050000001,0.786,0.04,0.03999999725,-9.831576149999997,0.00044478687341286067,0.0068826651349969585,7.558831510017845e-06,-0.0037258768454214736,8.3891821250176e-06
0.045,0.00016679511399999948,-0.7855858799999997,3.999721599999971e-05,-2.3553667000000003,9.311096000000028e-05,1.57098927,0.786,0.04,0.0399999965,-9.831326099999997,0.00042057527461979367,0.00668597308999678,8.712930340018893e-06,-0.0038622666150353426,9.527411750018633e-06
0.0475,0.00016676435199999945,-0.7855712399999998,3.997963299999969e-05,-2.35537885,9.312791000000029e-05,1.570988835,0.786,0.04,0.03999999575,-9.831076049999997,0.0003963636758267266,0.0064892810449966015,9.867029170019943e-06,-0.0039986563846492115,1.0665641375019669e-05
0.05,0.00016673358999999866,-0.7855565999999998,3.996204999999923e-05,-2.355391,9.314486000000052e-05,1.5709884,0.786,0.04,0.039999995,-9.830825999999997,0.0003721520770334415,0.006292588999996784,1.1021128000039087e-05,-0.004135046154262872,1.1803871000031955e-05
0.0525,0.00016666111449999837,-0.7855430999999997,3.991994859999905e-05,-2.355402025,9.317402300000065e-05,1.57098798,0.786,0.04,0.03999999575,-9.830594099999995,0.0003359542955868852,0.0061158058999960215,1.3169804500048365e-05,-0.004259949433620071,1.356053825003954e-05
0.055,0.00016658863899999805,-0.7855295999999997,3.9877847199998866e-05,-2.35541305,9.320318600000078e-05,1.57098756,0.786,0.04,0.0399999965,-9.830362199999994,0.0002997565141403288,0.005939022799995257,1.531848100005765e-05,-0.004384852712977271,1.531720550004713e-05
0.0575,0.00016651616349999774,-0.7855160999999996,3.9835745799998683e-05,-2.355424075,9.32323490000009e-05,1.57098714,0.786,0.04,0.03999999725,-9.830130299999993,0.0002635587326937724,0.0057622396999944935,1.7467157500066934e-05,-0.0045097559923344705,1.707387275005472e-05
0.06,0.00016644368799999742,-0.7855025999999995,3.979364439999851e-05,-2.3554351000000002,9.326151200000103e-05,1.57098672,0.786,0.04,0.039999998,-9.829898399999992,0.0002273609512472161,0.00558545659999373,1.9615834000076215e-05,-0.00463465927169167,1.8830540000062306e-05
0.0625,0.00016637121249999713,-0.7854890999999995,3.9751542999998324e-05,-2.3554461250000003,9.329067500000116e-05,1.5709863,0.786,0.04,0.03999999875,-9.829666499999991,0.0001911631698006597,0.005408673499992966,2.17645105000855e-05,-0.00475956255104887,2.0587207250069897e-05
0.065,0.0001662987369999968,-0.7854755999999994,3.970944159999814e-05,-2.3554571500000003,9.331983800000129e-05,1.57098588,0.786,0.04,0.0399999995,-9.82943459999999,0.0001549653883541033,0.005231890399992202,2.3913187000094784e-05,-0.00488446583040607,2.2343874500077488e-05
0.0675,0.00016620388399999356,-0.7854624349999995,3.9654254149996245e-05,-2.3554678350000007,9.335650150000239e-05,1.570985455,0.786,0.04,0.04,-9.82920684999999,0.0001164230168776345,0.005061293629992697,2.6474085750156265e-05,-0.0050056860549427705,2.450308685013683e-05
0.07,0.0001660642759999939,-0.7854499399999995,3.9572894599996444e-05,-2.3554778400000007,9.340816600000226e-05,1.57098502,0.786,0.04,0.04,-9.82898739999999,7.319146534233258e-05,0.004903069519993092,2.9859429000147797e-05,-0.005119540169840031,2.7467389400129417e-05
0.0725,0.00016592466799999426,-0.7854374449999995,3.949153504999665e-05,-2.3554878450000003,9.345983050000213e-05,1.570984585,0.786,0.04,0.04,-9.82876794999999,2.9959913807030888e-05,0.004744845409993489,3.324477225013931e-05,-0.00523339428473729,3.043169195012199e-05
0.075,0.0001657850599999946,-0.7854249499999996,3.9410175499996856e-05,-2.3554978500000003,9.3511495000002e-05,1.57098415,0.786,0.04,0.04,-9.828548499999991,-1.3271637728271018e-05,0.004586621299993885,3.663011550013085e-05,-0.005347248399634551,3.339599450011458e-05
0.0775,0.00016564545199999496,-0.7854124549999996,3.932881594999706e-05,-2.3555078550000004,9.356315950000187e-05,1.5709837150000001,0.786,0.04,0.04,-9.828329049999992,-5.650318926357295e-05,0.00442839718999428,4.0015458750122385e-05,-0.005461102514531811,3.6360297050107166e-05
0.08,0.0001655058439999953,-0.7853999599999996,3.924745639999726e-05,-2.3555178600000004,9.361482400000174e-05,1.57098328,0.786,0.04,0.04,-9.828109599999992,-9.973474079887486e-05,0.004270173079994675,4.340080200011392e-05,-0.005574956629429071,3.932459960009976e-05
0.0825,0.00016536623599999566,-0.7853874649999996,3.916609684999747e-05,-2.3555278650000004,9.36664885000016e-05,1.570982845,0.786,0.04,0.04,-9.827890149999993,-0.0001429662923341768,0.004111948969995071,4.678614525010546e-05,-0.005688810744326331,4.228890215009234e-05
0.085,0.00016516162799999268,-0.7853755999999996,3.904684729999573e-05,-2.35553711,9.37398730000026e-05,1.5709824000000001,0.786,0.04,0.04,-9.827695199999994,-0.00019241062109517516,0.003962436759995511,5.109920210014773e-05,-0.00579595728777665,4.611744230013176e-05
0.08750000000000001,0.00016492451999999247,-0.7853640499999996,3.8908652749995604e-05,-2.3555459750000005,9.382411750000268e-05,1.57098195,0.786,0.04,0.04,-9.827512499999994,-0.000244961338468598,0.0038172804999953786,5.5876115750152076e-05,-0.005899750045503954,5.037810125013564e-05
0.09,0.00016468741199999223,-0.7853524999999997,3.877045819999547e-05,-2.3555548400000004,9.390836200000276e-05,1.5709815,0.786,0.04,0.04,-9.827329799999994,-0.00029751205584202056,0.0036721242399952473,6.06530294001564e-05,-0.006003542803231258,5.463876020013949e-05
0.0925,0.00016445030399999202,-0.7853409499999996,3.863226364999535e-05,-2.3555637050000002,9.399260650000284e-05,1.57098105,0.786,0.04,0.04,-9.827147099999994,-0.0003500627732154434,0.003526967979995115,6.542994305016075e-05,-0.006107335560958563,5.889941915014337e-05
0.095,0.0001642131959999918,-0.7853293999999996,3.8494069099995224e-05,-2.35557257,9.407685100000291e-05,1.5709806000000002,0.786,0.04,0.04,-9.826964399999994,-0.0004026134905888662,0.003381811719994983,7.02068567001651e-05,-0.006211128318685867,6.316007810014725e-05
0.0975,0.0001639760879999916,-0.7853178499999997,3.835587454999509e-05,-2.3555814350000004,9.416109550000299e-05,1.57098015,0.786,0.04,0.04,-9.826781699999993,-0.0004551642079622891,0.003236655459994851,7.498377035016945e-05,-0.006314921076413172,6.742073705015112e-05
0.1,0.00016373897999998657,-0.7853062999999996,3.821767999999217e-05,-2.3555903000000002,9.424534000000469e-05,1.5709797,0.786,0.04,0.04,-9.826598999999993,-0.0005077149253359923,0.0030914991999954305,7.976068400023302e-05,-0.006418713834140099,7.168139600020895e-05
0.10250000000000001,0.00016336952399998624,-0.7852955494999996,3.800253199999197e-05,-2.355598565,9.43740475000048e-05,1.57097925,0.785999715,0.04,0.04,-9.826410299999992,-0.0005679731781150721,0.002965905189995316,8.616574340023885e-05,-0.006512147956531224,7.742472620021418e-05
0.105,0.00016300006799998588,-0.7852847989999996,3.778738399999178e-05,-2.35560683,9.450275500000492e-05,1.5709788,0.78599943,0.04,0.04,-9.826221599999993,-0.0006282314308941517,0.0028403111799952026,9.257080280024466e-05,-0.006605582078922349,8.316805640021937e-05
0.1075,0.00016263061199998555,-0.7852740484999996,3.757223599999159e-05,-2.355615095,9.463146250000503e-05,1.57097835,0.785999145,0.04,0.04,-9.826032899999992,-0.0006884896836732316,0.002714717169995088,9.897586220025049e-05,-0.006699016201313474,8.89113866002246e-05
0.11,0.00016226115599998522,-0.7852632979999996,3.735708799999139e-05,-2.35562336,9.476017000000516e-05,1.5709779,0.78599886,0.04,0.04,-9.825844199999992,-0.0007487479364523113,0.002589123159994974,0.00010538092160025633,-0.006792450323704599,9.465471680022983e-05
0.1125,0.00016189169999998487,-0.7852525474999996,3.71419399999912e-05,-2.355631625,9.488887750000527e-05,1.57097745,0.785998575,0.04,0.04,-9.825655499999993,-0.0008090061892313912,0.0024635291499948593,0.00011178598100026216,-0.006885884446095725,0.00010039804700023505
0.115,0.00016152224399998454,-0.7852417969999996,3.6926791999991e-05,-2.35563989,9.501758500000539e-05,1.5709769999999998,0.78599829,0.04,0.04,-9.825466799999992,-0.000869264442010471,0.002337935139994745,0.00011819104040026799,-0.00697931856848685,0.00010614137720024028
0.11750000000000001,0.00016109573299997687,-0.7852312859999996,3.6678521999986554e-05,-2.3556478800000002,9.516537750000795e-05,1.5709765249999998,0.785998005,0.04,0.04,-9.825307999999996,-0.0009310667926938639,0.002215757239995069,0.0001256018255004028,-0.007070323359224843,0.00011243494430031608
0.12,0.0001605551119999764,-0.7852212539999996,3.636400799998627e-05,-2.3556553200000003,9.535134000000812e-05,1.570976,0.78599772,0.04,0.04,-9.825208999999996,-0.0009959573391852927,0.0021004115599949644,0.00013502406200041132,-0.007156469486657501,0.00011982898520032278
0.1225,0.0001600144909999759,-0.7852112219999996,3.6049493999985985e-05,-2.35566276,9.55373025000083e-05,1.570975475,0.785997435,0.04,0.04,-9.825109999999995,-0.0010608478856767218,0.0019850658799948594,0.0001444462985004199,-0.007242615614090159,0.0001272230261003295
0.125,0.0001594738699999754,-0.7852011899999995,3.5734979999985697e-05,-2.3556702,9.572326500000846e-05,1.5709749499999999,0.78599715,0.04,0.04,-9.825010999999995,-0.001125738432168151,0.0018697201999947545,0.0001538685350004285,-0.007328761741522818,0.00013461706700033623
0.1275,0.0001589332489999749,-0.7851911579999996,3.5420465999985415e-05,-2.35567764,9.590922750000862e-05,1.570974425,0.785996865,0.04,0.04,-9.824911999999996,-0.0011906289786595798,0.0017543745199946497,0.00016329077150043707,-0.007414907868955476,0.00014201110790034298
0.13,0.0001583926279999744,-0.7851811259999996,3.510595199998513e-05,-2.35568508,9.60951900000088e-05,1.5709739,0.7859965800000001,0.04,0.04,-9.824812999999995,-0.001255519525151009,0.0016390288399945447,0.00017271300800044564,-0.007501053996388134,0.00014940514880034972
0.1325,0.00015785200699997392,-0.7851710939999995,3.479143799998484e-05,-2.3556925200000003,9.628115250000897e-05,1.5709733750000001,0.785996295,0.04,0.04,-9.824713999999995,-0.001320410071642438,0.0015236831599944396,0.00018213524450045422,-0.007587200123820793,0.00015679918970035644
0.135,0.00015716904199996294,-0.7851614749999996,3.4394401999978475e-05,-2.3556993000000004,9.651465150001263e-05,1.57097253,0.78599601,0.04,0.04,-9.824606299999994,-0.0013886146945912812,0.001414819184994812,0.00019274390100055018,-0.0076680311001874795,0.00016539410500045163
0.1375,0.00015641490499996227,-0.7851520624999996,3.395610499997807e-05,-2.3557057500000003,9.677191875001288e-05,1.570971525,0.785995725,0.04,0.04,-9.824494249999994,-0.0014584763557684698,0.001309196062494716,0.0002039457675005604,-0.007746204501021761,0.00017458945750046002
0.14,0.00015566076799996157,-0.7851426499999996,3.3517807999977674e-05,-2.3557122,9.70291860000131e-05,1.57097052,0.78599544,0.04,0.04,-9.824382199999993,-0.0015283380169456586,0.0012035729399946199,0.00021514763400057058,-0.007824377901856042,0.00018378481000046838
0.14250000000000002,0.0001549066309999609,-0.7851332374999995,3.3079510999977277e-05,-2.3557186500000005,9.728645325001334e-05,1.570969515,0.7859951550000001,0.04,0.04,-9.824270149999993,-0.0015981996781228472,0.0010979498174945237,0.0002263495005005808,-0.007902551302690323,0.00019298016250047676
0.145,0.00015415249399996023,-0.7851238249999996,3.264121399997688e-05,-2.3557251000000003,9.754372050001357e-05,1.57096851,0.78599487,0.04,0.04,-9.824158099999993,-0.0016680613393000349,0.0009923266949944287,0.00023755136700059085,-0.007980724703524603,0.00020217551500048501
0.1475,0.00015339835699995953,-0.7851144124999996,3.220291699997648e-05,-2.3557315500000002,9.78009877500138e-05,1.5709675049999998,0.785994585,0.04,0.04,-9.824046049999994,-0.0017379230004772235,0.0008867035724943326,0.00024875323350060107,-0.008058898104358884,0.00021137086750049337
0.15,0.0001526442199999447,-0.7851049999999996,3.17646199999679e-05,-2.3557380000000006,9.805825500001867e-05,1.5709665,0.7859943,0.04,0.04,-9.823933999999994,-0.001807784661654693,0.0007810804499952452,0.000259955100000711,-0.00813707150519282,0.0002205662200006007
0.1525,0.00015163109449994378,-0.7850961109999995,3.117631744996736e-05,-2.3557433100000003,9.840039225001898e-05,1.57096548,0.7859937300000001,0.03999999925,0.04,-9.823829224999994,-0.0018827929161530062,0.0006939448394951659,0.0002729844090007228,-0.008208912517879375,0.0002315744470006107
0.155,0.00015061796899994286,-0.7850872219999996,3.0588014899966825e-05,-2.3557486200000004,9.87425295000193e-05,1.57096446,0.78599316,0.0399999985,0.04,-9.823724449999993,-0.00195780117065132,0.0006068092289950866,0.0002860137180007347,-0.008280753530565932,0.00024258267400062073
0.1575,0.00014960484349994194,-0.7850783329999995,2.9999712349966292e-05,-2.35575393,9.90846667500196e-05,1.5709634399999999,0.78599259,0.03999999775,0.04,-9.823619674999993,-0.002032809425149633,0.0005196736184950072,0.00029904302700074656,-0.008352594543252486,0.00025359090100063076
0.16,0.00014859171799994102,-0.7850694439999996,2.9411409799965755e-05,-2.3557592400000003,9.942680400001991e-05,1.5709624199999999,0.78599202,0.039999997,0.04,-9.823514899999994,-0.002107817679647946,0.00043253800799492785,0.0003120723360007584,-0.008424435555939042,0.00026459912800064076
0.1625,0.0001475785924999401,-0.7850605549999995,2.882310724996522e-05,-2.3557645500000004,9.976894125002022e-05,1.5709613999999998,0.78599145,0.03999999625,0.04,-9.823410124999993,-0.0021828259341462597,0.00034540239749484853,0.0003251016450007703,-0.008496276568625597,0.0002756073550006508
0.165,0.00014656546699993918,-0.7850516659999995,2.8234804699964684e-05,-2.35576986,0.00010011107850002053,1.5709603799999998,0.78599088,0.0399999955,0.04,-9.823305349999993,-0.002257834188644573,0.0002582667869947692,0.00033813095400078214,-0.008568117581312153,0.0002866155820006608
0.1675,0.00014544992399991802,-0.7850429229999996,2.7587231699952443e-05,-2.355774905,0.00010048722500002758,1.5709593099999999,0.78599027,0.03999999465,0.0399999994,-9.823194824999991,-0.002333053387706161,0.00017028212449443275,0.0003522409620010101,-0.008637072471905647,0.0002983929710008266
0.17,0.00014412954599991233,-0.7850344719999994,2.6821117799949133e-05,-2.35577942,0.00010093139000002949,1.57095814,0.78598958,0.039999993600000006,0.039999997600000003,-9.823072799999991,-0.0024086944758941824,8.059935799404523e-05,0.0003685123680010804,-0.008700255118314595,0.00031170868400088415
0.17250000000000001,0.0001428091679999066,-0.7850260209999994,2.6055003899945824e-05,-2.3557839350000003,0.0001013755550000314,1.57095697,0.7859888899999999,0.03999999255,0.0399999958,-9.82295077499999,-0.0024843355640822044,-9.083408506342286e-06,0.0003847837740011507,-0.008763437764723544,0.0003250243970009417
0.17500000000000002,0.00014148878999990092,-0.7850175699999994,2.528888999994251e-05,-2.3557884500000004,0.00010181972000003333,1.5709558,0.7859882,0.0399999915,0.039999994,-9.82282874999999,-0.0025599766522702264,-9.876617500672983e-05,0.000401055180001221,-0.008826620411132491,0.0003383401100009992
0.1775,0.00014016841199989522,-0.7850091189999994,2.4522776099939208e-05,-2.3557929650000005,0.00010226388500003524,1.57095463,0.78598751,0.03999999045,0.0399999922,-9.822706724999989,-0.0026356177404582475,-0.00018844894150711632,0.00041732658600129115,-0.008889803057541439,0.0003516558230010566
0.18,0.00013884803399988953,-0.7850006679999992,2.3756662199935898e-05,-2.35579748,0.00010270805000003716,1.57095346,0.78598682,0.0399999894,0.0399999904,-9.82258469999999,-0.002711258828646269,-0.00027813170800750385,0.00043359799200136146,-0.008952985703950388,0.00036497153600111417
0.1825,0.00013752765599988384,-0.7849922169999992,2.2990548299932585e-05,-2.355801995,0.00010315221500003908,1.57095229,0.78598613,0.03999998835,0.0399999886,-9.822462674999988,-0.002786899916834291,-0.0003678144745078914,0.00044986939800143176,-0.009016168350359335,0.0003782872490011717
0.185,0.00013596867799985272,-0.7849839999999992,2.2086436299914594e-05,-2.3558060000000003,0.00010367580200004943,1.5709508399999998,0.7859853269999999,0.0399999876,0.039999987199999996,-9.822372599999992,-0.002864380623220781,-0.0004484968240066861,0.00046774529000163934,-0.00907475231215846,0.0003930374760013575
0.1875,0.0001342903999998569,-0.7849758999999993,2.1113325249917025e-05,-2.35580975,0.00010423910000004803,1.57094925,0.7859844675,0.039999987,0.039999986,-9.822298499999993,-0.002942781138706135,-0.0005246789650064957,0.0004864234250015926,-0.0091310369316536,0.00040850496000131885
0.19,0.0001326121219998611,-0.7849677999999993,2.014021419991946e-05,-2.3558135,0.00010480239800004662,1.5709476599999999,0.7859836079999999,0.0399999864,0.0399999848,-9.822224399999994,-0.003021181654191489,-0.0006008611060063051,0.0005051015600015459,-0.009187321551148738,0.0004239724440012802
0.1925,0.0001309338439998653,-0.7849596999999993,1.9167103149921894e-05,-2.3558172500000003,0.00010536569600004521,1.57094607,0.7859827484999999,0.0399999858,0.0399999836,-9.822150299999993,-0.003099582169676843,-0.0006770432470061147,0.0005237796950014992,-0.009243606170643877,0.0004394399280012415
0.195,0.0001292555659998695,-0.7849515999999993,1.8193992099924325e-05,-2.355821,0.00010592899400004381,1.5709444799999999,0.7859818889999999,0.039999985200000004,0.039999982399999995,-9.822076199999994,-0.0031779826851621967,-0.0007532253880059242,0.0005424578300014525,-0.009299890790139017,0.00045490741200120285
0.1975,0.00012757728799987368,-0.7849434999999994,1.722088104992676e-05,-2.35582475,0.00010649229200004239,1.57094289,0.7859810294999999,0.0399999846,0.0399999812,-9.822002099999994,-0.003256383200647551,-0.0008294075290057337,0.0005611359650014059,-0.009356175409634156,0.0004703748960011642
0.2,0.000125899009999848,-0.7849353999999994,1.6247769999911917e-05,-2.3558285,0.00010705559000005091,1.5709412999999999,0.7859801699999999,0.039999984,0.03999998,-9.821927999999998,-0.0033347837161330817,-0.0009055896700047282,0.0005798141000015526,-0.009412460029128981,0.00048584238000127925
0.2025,0.00012381006649983897,-0.7849275549999993,1.5037265649906686e-05,-2.3558313650000002,0.00010775525300005393,1.570939455,0.7859790254999999,0.0399999834,0.039999979549999995,-9.821897849999997,-0.003415611770475861,-0.000970569794505009,0.0006011513900016448,-0.009464421961460525,0.0005034232230013553
0.20500000000000002,0.00012172112299982995,-0.7849197099999993,1.3826761299901457e-05,-2.35583423,0.00010845491600005695,1.5709376099999999,0.7859778809999999,0.0399999828,0.0399999791,-9.821867699999997,-0.00349643982481864,-0.0010355499190052898,0.000622488680001737,-0.00951638389379207,0.0005210040660014311
0.20750000000000002,0.00011963217949982091,-0.7849118649999993,1.2616256949896226e-05,-2.355837095,0.00010915457900005998,1.570935765,0.7859767364999999,0.0399999822,0.03999997865,-9.821837549999996,-0.0035772678791614193,-0.0011005300435055706,0.0006438259700018292,-0.009568345826123615,0.0005385849090015071
0.21,0.00011754323599981192,-0.7849040199999993,1.140575259989101e-05,-2.3558399600000004,0.000109854242000063,1.5709339199999999,0.7859755919999999,0.0399999816,0.0399999782,-9.821807399999997,-0.0036580959335041976,-0.0011655101680058506,0.0006651632600019211,-0.009620307758455158,0.0005561657520015829
0.2125,0.00011545429249980288,-0.7848961749999992,1.019524824988578e-05,-2.3558428250000003,0.00011055390500006601,1.5709320749999998,0.7859744474999999,0.039999981,0.03999997775,-9.821777249999997,-0.003738923987846977,-0.0012304902925061314,0.0006865005500020134,-0.009672269690786703,0.0005737465950016589
0.215,0.00011336534899979386,-0.7848883299999991,8.984743899880549e-06,-2.35584569,0.00011125356800006903,1.5709302299999999,0.7859733029999999,0.039999980399999996,0.039999977299999996,-9.821747099999996,-0.003819752042189756,-0.0012954704170064122,0.0007078378400021055,-0.009724231623118248,0.0005913274380017349
0.2175,0.00011112131819974273,-0.7848805399999992,7.684622869850991e-06,-2.3558481700000002,0.00011200474200008604,1.5709282699999998,0.7859720629999999,0.03999997985,0.039999976799999996,-9.821710899999994,-0.003900139150217728,-0.0013608945750066795,0.0007302195820024648,-0.009774237032984332,0.0006096810000020044
0.22,0.00010856711279974911,-0.7848728599999992,6.205268479854689e-06,-2.3558498800000005,0.0001128589380000839,1.5709260799999998,0.785970632,0.039999979399999996,0.0399999762,-9.821662599999994,-0.003979644365616489,-0.0014272068000065136,0.0007546902280024037,-0.009820329397921287,0.0006295800000019546
0.2225,0.0001060129073997555,-0.7848651799999993,4.725914089858388e-06,-2.3558515900000003,0.00011371313400008177,1.5709238899999998,0.7859692009999999,0.03999997895,0.0399999756,-9.821614299999995,-0.00405914958101525,-0.0014935190250063477,0.0007791608740023425,-0.009866421762858242,0.0006494790000019048
0.225,0.00010345870199976188,-0.7848574999999993,3.2465596998620864e-06,-2.3558533,0.00011456733000007963,1.5709216999999998,0.7859677699999998,0.0399999785,0.039999975,-9.821565999999995,-0.004138654796414011,-0.001559831250006182,0.0008036315200022813,-0.009912514127795197,0.0006693780000018551
0.2275,0.00010090449659976826,-0.7848498199999993,1.7672053098657857e-06,-2.3558550100000004,0.0001154215260000775,1.5709195099999997,0.7859663389999999,0.039999978049999996,0.0399999744,-9.821517699999996,-0.004218160011812773,-0.0016261434750060163,0.00082810216600222,-0.009958606492732152,0.0006892770000018053
0.23,9.835029119977465e-05,-0.7848421399999993,2.8785091986948416e-07,-2.3558567200000002,0.00011627572200007536,1.5709173199999997,0.7859649079999999,0.0399999776,0.0399999738,-9.821469399999996,-0.004297665227211534,-0.0016924557000058504,0.0008525728120021589,-0.010004698857669107,0.0007091760000017555
0.2325,9.579608579978103e-05,-0.7848344599999993,-1.1915034701268165e-06,-2.3558584300000005,0.00011712991800007323,1.5709151299999997,0.7859634769999998,0.03999997715,0.039999973200000004,-9.821421099999997,-0.004377170442610295,-0.0017587679250056845,0.0008770434580020977,-0.010050791222606062,0.0007290750000017058
0.23500000000000001,9.289427459973704e-05,-0.7848268559999994,-2.871633540152231e-06,-2.3558594000000004,0.00011809952800008783,1.5709125699999997,0.7859618999999999,0.0399999763,0.0399999717,-9.821363199999995,-0.004456335958100104,-0.0018200115500050195,0.0009036045360023602,-0.010092831496152702,0.000750648107001916
0.23750000000000002,8.981866049973424e-05,-0.7848192899999994,-4.6521514501538525e-06,-2.3558600000000003,0.00011912684500008876,1.5709098249999998,0.7859602499999998,0.03999997525,0.03999996975,-9.821300499999994,-0.004535331623635501,-0.001878720875005073,0.0009312108300023854,-0.010132845724004958,0.0007730582675019364
0.24,8.674304639973148e-05,-0.7848117239999993,-6.4326693601554535e-06,-2.3558606,0.0001201541620000897,1.5709070799999998,0.7859585999999998,0.0399999742,0.0399999678,-9.821237799999995,-0.004614327289170897,-0.0019374302000051257,0.0009588171240024103,-0.010172859951857214,0.0007954684280019565
0.2425,8.366743229972867e-05,-0.7848041579999994,-8.213187270157075e-06,-2.3558612,0.00012118147900009063,1.5709043349999996,0.7859569499999999,0.03999997315,0.03999996585,-9.821175099999994,-0.004693322954706294,-0.001996139525005179,0.0009864234180024353,-0.01021287417970947,0.0008178785885019769
0.245,8.059181819972587e-05,-0.7847965919999994,-9.993705180158694e-06,-2.3558618,0.00012220879600009156,1.5709015899999996,0.7859552999999998,0.0399999721,0.0399999639,-9.821112399999995,-0.004772318620241691,-0.0020548488500052326,0.0010140297120024605,-0.010252888407561726,0.0008402887490019974
0.2475,7.751620409972307e-05,-0.7847890259999993,-1.1774223090160316e-05,-2.3558624,0.0001232361130000925,1.5708988449999997,0.7859536499999998,0.03999997105,0.03999996195,-9.821049699999994,-0.0048513142857770876,-0.002113558175005286,0.0010416360060024857,-0.010292902635413983,0.0008626989095020178
0.25,7.444058999966762e-05,-0.7847814599999994,-1.3554741000192339e-05,-2.355863,0.00012426343000011088,1.5708960999999997,0.7859519999999998,0.03999997,0.03999996,-9.820986999999997,-0.004930309951312291,-0.002172267500004331,0.0010692423000027607,-0.01033291686326578,0.0008851090700022483
0.2525,7.07861249996643e-05,-0.7847738954999993,-1.5669529050194263e-05,-2.3558625199999996,0.000125482744000112,1.5708928149999997,0.7859500499999998,0.039999968500000004,0.0399999591,-9.820939149999996,-0.005007174587815526,-0.0022198886750043746,0.0010995948450027882,-0.010367871075871766,0.0009098299595022708
0.255,6.713165999966098e-05,-0.7847663309999994,-1.778431710019619e-05,-2.35586204,0.00012670205800011312,1.5708895299999996,0.7859480999999998,0.039999967000000004,0.0399999582,-9.820891299999996,-0.005084039224318761,-0.002267509850004418,0.001129947390002816,-0.010402825288477753,0.0009345508490022933
0.2575,6.347719499965765e-05,-0.7847587664999993,-1.9899105150198116e-05,-2.35586156,0.00012792137200011422,1.5708862449999996,0.7859461499999998,0.039999965500000005,0.0399999573,-9.820843449999996,-0.005160903860821996,-0.0023151310250044614,0.0011602999350028434,-0.01043777950108374,0.0009592717385023159
0.26,5.9822729999654324e-05,-0.7847512019999993,-2.2013893200200042e-05,-2.35586108,0.00012914068600011533,1.5708829599999996,0.7859441999999999,0.039999964,0.0399999564,-9.820795599999995,-0.005237768497325231,-0.002362752200004505,0.0011906524800028712,-0.010472733713689727,0.0009839926280023384
0.2625,5.6168264999650995e-05,-0.7847436374999993,-2.4128681250201965e-05,-2.3558606,0.00013036000000011644,1.5708796749999996,0.7859422499999998,0.0399999625,0.039999955499999996,-9.820747749999995,-0.005314633133828466,-0.0024103733750045478,0.0012210050250028987,-0.010507687926295714,0.001008713517502361
0.265,5.251379999964767e-05,-0.7847360729999993,-2.624346930020389e-05,-2.35586012,0.00013157931400011757,1.5708763899999996,0.7859402999999998,0.039999961,0.0399999546,-9.820699899999996,-0.005391497770331701,-0.002457994550004591,0.0012513575700029264,-0.0105426421389017,0.0010334344070023834
0.2675,4.864686834958231e-05,-0.7847284909999993,-2.848092260024163e-05,-2.35585926,0.00013286911450013925,1.5708729549999996,0.7859382349999998,0.0399999603,0.0399999542,-9.820658049999997,-0.005468423734426488,-0.002505922515004724,0.0012827091250032455,-0.010576038947331832,0.0010589837700026477
0.27,4.43550033995784e-05,-0.7847208739999992,-3.096370640024389e-05,-2.35585764,0.00013429988800014057,1.5708692199999996,0.7859359399999998,0.0399999612,0.0399999548,-9.820628199999996,-0.005545472353704329,-0.0025544640600047683,0.001316058700003276,-0.010606320947411615,0.0010861900800026726
0.2725,4.006313844957449e-05,-0.7847132569999993,-3.344649020024615e-05,-2.35585602,0.00013573066150014186,1.5708654849999997,0.7859336449999998,0.0399999621,0.0399999554,-9.820598349999996,-0.005622520972982169,-0.0026030056050048126,0.0013494082750033062,-0.010636602947491396,0.0011133963900026972
0.275,3.5771273499570587e-05,-0.7847056399999992,-3.5929274000248415e-05,-2.3558544,0.00013716143500014315,1.5708617499999995,0.7859313499999998,0.039999963,0.039999956,-9.820568499999997,-0.005699569592260009,-0.002651547150004857,0.0013827578500033367,-0.01066688494757118,0.0011406027000027221
0.2775,3.147940854956668e-05,-0.7846980229999992,-3.8412057800250674e-05,-2.3558527799999998,0.00013859220850014447,1.5708580149999996,0.7859290549999998,0.0399999639,0.0399999566,-9.820538649999996,-0.005776618211537849,-0.002700088695004901,0.001416107425003367,-0.010697166947650962,0.0011678090100027468
0.28,2.7187543599562773e-05,-0.7846904059999992,-4.089484160025293e-05,-2.35585116,0.00014002298200014576,1.5708542799999996,0.7859267599999997,0.039999964799999996,0.0399999572,-9.820508799999995,-0.005853666830815689,-0.002748630240004945,0.0014494570000033974,-0.010727448947730745,0.0011950153200027717
0.28250000000000003,2.2895678649558866e-05,-0.7846827889999992,-4.33776254002552e-05,-2.35584954,0.00014145375550014708,1.5708505449999994,0.7859244649999998,0.0399999657,0.0399999578,-9.820478949999996,-0.00593071545009353,-0.002797171785004989,0.0014828065750034278,-0.010757730947810526,0.0012222216300027964
0.28500000000000003,1.8139237599482695e-05,-0.7846750949999992,-4.6128570500299165e-05,-2.3558472,0.00014303860200017235,1.5708464499999995,0.7859219849999998,0.039999966,0.039999957600000004,-9.820458399999998,-0.006004111189402522,-0.002844565010004855,0.001518257240003785,-0.010784882772716532,0.0012511959100030962
0.28750000000000003,1.3150508499478152e-05,-0.7846673624999991,-4.901359625030179e-05,-2.3558445,0.00014470048500017386,1.5708421749999995,0.7859194124999997,0.039999966,0.039999957,-9.820442499999999,-0.0060756804887279366,-0.0028913840750048976,0.0015547584500038181,-0.010810469510036376,0.0012810541750031233
0.29,8.16177939947372e-06,-0.7846596299999992,-5.1898622000304354e-05,-2.3558418,0.00014636236800017531,1.5708378999999995,0.7859168399999997,0.039999966,0.0399999564,-9.820426599999998,-0.0061472497880533505,-0.002938203140004939,0.0015912596600038507,-0.010836056247356219,0.0013109124400031498
0.2925,3.173050299469178e-06,-0.7846518974999991,-5.478364775030698e-05,-2.3558391,0.00014802425100017682,1.5708336249999995,0.7859142674999997,0.039999966,0.0399999558,-9.820410699999998,-0.006218819087378765,-0.0029850222050049817,0.0016277608700038838,-0.010861642984676062,0.001340770705003177
0.295,-1.815678800535365e-06,-0.7846441649999991,-5.7668673500309604e-05,-2.3558363999999994,0.00014968613400017833,1.5708293499999995,0.7859116949999997,0.039999966,0.0399999552,-9.820394799999999,-0.00629038838670418,-0.0030318412700050244,0.001664262080003917,-0.010887229721995906,0.001370628970003204
0.2975,-6.804407900539908e-06,-0.7846364324999991,-6.0553699250312236e-05,-2.3558336999999994,0.00015134801700017984,1.5708250749999995,0.7859091224999997,0.039999966,0.0399999546,-9.820378899999998,-0.006361957686029596,-0.003078660335005067,0.0017007632900039504,-0.01091281645931575,0.0014004872350032312
0.3,-1.179313700062706e-05,-0.7846286999999991,-6.343872500036253e-05,-2.3558309999999993,0.00015300990000020873,1.5708207999999995,0.7859065499999996,0.039999966,0.039999954,-9.820362999999999,-0.006433526985354729,-0.0031254794000044528,0.0017372645000042796,-0.01093840319663513,0.001430345500003523
0.3025,-1.7538863450651887e-05,-0.784620719999999,-6.676061375037689e-05,-2.3558270999999995,0.000154922622000217,1.5708158799999994,0.7859035649999997,0.0399999666,0.0399999546,-9.8203537,-0.006502521852970433,-0.0031662765350046287,0.001776477545004449,-0.01095974855125187,0.0014626270750036625
0.305,-2.3284589900676713e-05,-0.784612739999999,-7.008250250039124e-05,-2.3558231999999992,0.00015683534400022528,1.5708109599999993,0.7859005799999996,0.0399999672,0.0399999552,-9.8203444,-0.006571516720586136,-0.003207073670004805,0.0018156905900046185,-0.010981093905868614,0.001494908650003802
0.3075,-2.903031635070154e-05,-0.784604759999999,-7.34043912504056e-05,-2.3558192999999994,0.00015874806600023355,1.5708060399999995,0.7858975949999997,0.0399999678,0.0399999558,-9.8203351,-0.006640511588201839,-0.0032478708050049814,0.0018549036350047879,-0.011002439260485357,0.0015271902250039416
0.31,-3.477604280072637e-05,-0.784596779999999,-7.672628000041996e-05,-2.3558153999999996,0.0001606607880002418,1.5708011199999994,0.7858946099999996,0.0399999684,0.0399999564,-9.820325799999999,-0.006709506455817542,-0.0032886679400051574,0.0018941166800049572,-0.011023784615102098,0.001559471800004081
0.3125,-4.052176925075119e-05,-0.784588799999999,-8.00481687504343e-05,-2.3558114999999997,0.00016257351000025007,1.5707961999999993,0.7858916249999996,0.039999969,0.039999957,-9.820316499999999,-0.006778501323433246,-0.0033294650750053337,0.0019333297250051268,-0.01104512996971884,0.0015917533750042204
0.315,-4.626749570077602e-05,-0.7845808199999988,-8.337005750044867e-05,-2.3558075999999994,0.00016448623200025834,1.5707912799999995,0.7858886399999996,0.039999969600000004,0.039999957600000004,-9.820307199999998,-0.006847496191048948,-0.00337026221000551,0.001972542770005296,-0.011066475324335584,0.00162403495000436
0.3175,-5.228578050089989e-05,-0.7845727499999988,-8.684922250052016e-05,-2.3558032899999994,0.0001664892695002994,1.5707861299999992,0.7858855124999995,0.03999997015,0.0399999581,-9.820301800000001,-0.006914894678638688,-0.0034118221100059073,0.002012824945005816,-0.011086623044686954,0.0016571748750047791
0.32,-5.8849182000883486e-05,-0.7845644999999989,-9.064294000051066e-05,-2.3557981599999995,0.00016867293800029395,1.5707805199999993,0.7858820999999996,0.039999970600000004,0.0399999584,-9.8203042,-0.006979100406178483,-0.0034549075400057993,0.00205524538000571,-0.01110437549650907,0.001692031500004692
0.3225,-6.541258350086708e-05,-0.7845562499999988,-9.443665750050118e-05,-2.3557930299999996,0.0001708566065002885,1.5707749099999992,0.7858786874999996,0.03999997105,0.039999958700000005,-9.8203066,-0.007043306133718277,-0.0034979929700056918,0.002097665815005604,-0.011122127948331185,0.001726888125004605
0.325,-7.197598500085066e-05,-0.7845479999999989,-9.823037500049169e-05,-2.3557878999999997,0.00017304027500028303,1.5707692999999994,0.7858752749999995,0.0399999715,0.039999959,-9.820309,-0.007107511861258071,-0.0035410784000055842,0.002140086250005498,-0.0111398804001533,0.0017617447500045177
0.3275,-7.853938650083425e-05,-0.7845397499999989,-0.0001020240925004822,-2.3557827699999994,0.00017522394350027757,1.5707636899999993,0.7858718624999995,0.039999971950000004,0.0399999593,-9.8203114,-0.007171717588797866,-0.0035841638300054763,0.0021825066850053917,-0.011157632851975416,0.0017966013750044306
0.33,-8.510278800081785e-05,-0.7845314999999989,-0.00010581781000047272,-2.3557776399999995,0.0001774076120002721,1.5707580799999994,0.7858684499999995,0.0399999724,0.0399999596,-9.8203138,-0.00723592331633766,-0.0036272492600053687,0.002224927120005286,-0.011175385303797533,0.0018314580000043433
0.3325,-9.166618950080143e-05,-0.7845232499999989,-0.00010961152750046324,-2.3557725099999995,0.00017959128050026662,1.5707524699999993,0.7858650374999996,0.03999997285,0.0399999599,-9.820316199999999,-0.0073001290438774544,-0.003670334690005261,0.0022673475550051797,-0.011193137755619649,0.0018663146250042562
0.335,-9.881543200090705e-05,-0.7845147799999989,-0.00011374324000052416,-2.355766579999999,0.00018196909800030162,1.5707464199999992,0.7858613199999995,0.039999973,0.0399999598,-9.820318199999999,-0.007359665166593552,-0.003711398650004882,0.0023118977100055594,-0.011208444181831386,0.0019029842500045797
0.3375,-0.00010625759500091382,-0.7845061999999989,-0.00011804395000052808,-2.3557602499999994,0.00018444399000030389,1.5707401499999993,0.7858574499999995,0.039999973,0.0399999595,-9.820319999999999,-0.007416866486899073,-0.003751451875004918,0.002357512725005601,-0.011222527595238604,0.001940560375004614
0.34,-0.0001136997580009206,-0.7844976199999989,-0.000122344660000532,-2.3557539199999993,0.00018691888200030613,1.5707338799999992,0.7858535799999995,0.039999973,0.039999959200000004,-9.8203218,-0.007474067807204596,-0.0037915051000049545,0.0024031277400056424,-0.011236611008645822,0.001978136500004648
0.3425,-0.00012114192100092738,-0.7844890399999989,-0.0001266453700005359,-2.355747589999999,0.0001893937740003084,1.5707276099999992,0.7858497099999995,0.039999973,0.0399999589,-9.8203236,-0.007531269127510118,-0.003831558325004991,0.002448742755005684,-0.01125069442205304,0.0020157126250046824
0.34500000000000003,-0.00012858408400093414,-0.7844804599999989,-0.00013094608000053983,-2.3557412599999994,0.00019186866600031063,1.5707213399999993,0.7858458399999995,0.039999973,0.0399999586,-9.8203254,-0.00758847044781564,-0.0038716115500050277,0.002494357770005726,-0.011264777835460258,0.0020532887500047167
0.34750000000000003,-0.00013602624700094092,-0.7844718799999989,-0.00013524679000054374,-2.3557349299999992,0.0001943435580003129,1.5707150699999992,0.7858419699999994,0.039999973,0.0399999583,-9.8203272,-0.007645671768121162,-0.003911664775005064,0.002539972785005767,-0.011278861248867476,0.002090864875004751
0.35000000000000003,-0.0001434684100010674,-0.7844632999999989,-0.0001395475000006167,-2.355728599999999,0.0001968184500003548,1.5707087999999991,0.7858380999999994,0.039999973,0.039999958,-9.820329000000001,-0.007702873088426196,-0.003951718000004936,0.0025855878000062074,-0.011292944662274275,0.0021284410000050997
0.3525,-0.00015185059300107484,-0.7844543299999989,-0.000144390473500621,-2.355720874999999,0.00019960466250035726,1.5707017799999992,0.7858337349999994,0.0399999736,0.0399999583,-9.820347450000002,-0.007756236614666228,-0.0039904814500049705,0.0026343330750062508,-0.011303730076180263,0.0021684887800051352
0.355,-0.0001602327760010825,-0.7844453599999989,-0.00014923344700062542,-2.355713149999999,0.0002023908750003598,1.5706947599999992,0.7858293699999994,0.0399999742,0.0399999586,-9.820365900000002,-0.007809600140906261,-0.004029244900005006,0.002683078350006295,-0.011314515490086254,0.0022085365600051717
0.3575,-0.0001686149590010901,-0.7844363899999989,-0.00015407642050062985,-2.3557054249999987,0.00020517708750036233,1.570687739999999,0.7858250049999994,0.0399999748,0.0399999589,-9.820384350000001,-0.007862963667146295,-0.004068008350005041,0.0027318236250063396,-0.011325300903992244,0.002248584340005208
0.36,-0.00017699714200109776,-0.7844274199999989,-0.00015891939400063424,-2.355697699999999,0.00020796330000036488,1.570680719999999,0.7858206399999994,0.0399999754,0.039999959200000004,-9.820402800000002,-0.007916327193386329,-0.0041067718000050765,0.002780568900006384,-0.011336086317898232,0.002288632120005245
0.3625,-0.00018537932500110538,-0.7844184499999989,-0.00016376236750063867,-2.355689974999999,0.0002107495125003674,1.570673699999999,0.7858162749999994,0.039999976,0.0399999595,-9.820421250000003,-0.007969690719626363,-0.004145535250005112,0.002829314175006428,-0.011346871731804223,0.0023286799000052814
0.365,-0.00019376150800111302,-0.7844094799999989,-0.00016860534100064306,-2.3556822499999988,0.00021353572500036995,1.570666679999999,0.7858119099999994,0.0399999766,0.0399999598,-9.820439700000001,-0.008023054245866397,-0.004184298700005147,0.0028780594500064727,-0.011357657145710213,0.002368727680005318
0.3675,-0.00020247750700125454,-0.7844003499999987,-0.00017364087250072472,-2.3556740399999985,0.00021643250300041684,1.570659359999999,0.7858073749999993,0.039999977,0.0399999599,-9.820450099999999,-0.008072664728393745,-0.004223223080005246,0.002927892020006953,-0.011367126088590324,0.0024096860400057195
0.37,-0.00021186113800126307,-0.7843908999999988,-0.00017906152000072965,-2.3556648599999988,0.00021955041200041967,1.570651439999999,0.7858024999999993,0.039999977,0.0399999596,-9.8204444,-0.008114769123500228,-0.004262469320005282,0.0029798991800070005,-0.01137396208942026,0.0024524655600057584
0.3725,-0.00022124476900127162,-0.7843814499999987,-0.00018448216750073458,-2.3556556799999986,0.0002226683210004225,1.5706435199999988,0.7857976249999993,0.039999977,0.0399999593,-9.820438699999999,-0.008156873518606712,-0.004301715560005318,0.0030319063400070477,-0.011380798090250197,0.0024952450800057972
0.375,-0.00023062840000128017,-0.7843719999999987,-0.00018990281500073952,-2.355646499999999,0.00022578623000042534,1.570635599999999,0.7857927499999994,0.039999977,0.039999959,-9.820433,-0.008198977913713195,-0.004340961800005354,0.003083913500007095,-0.011387634091080134,0.002538024600005836
0.3775,-0.0002400120310012887,-0.7843625499999987,-0.00019532346250074445,-2.3556373199999987,0.0002289041390004282,1.570627679999999,0.7857878749999994,0.039999977,0.039999958700000005,-9.820427299999999,-0.008241082308819678,-0.00438020804000539,0.003135920660007142,-0.011394470091910068,0.002580804120005875
0.38,-0.0002493956620012972,-0.7843530999999987,-0.00020074411000074938,-2.355628139999999,0.00023202204800043105,1.570619759999999,0.7857829999999993,0.039999977,0.0399999584,-9.8204216,-0.008283186703926162,-0.004419454280005426,0.0031879278200071894,-0.011401306092740005,0.0026235836400059142
0.3825,-0.0002587792930013058,-0.7843436499999987,-0.00020616475750075432,-2.355618959999999,0.00023513995700043388,1.5706118399999989,0.7857781249999993,0.039999977,0.0399999581,-9.820415899999999,-0.008325291099032645,-0.004458700520005461,0.0032399349800072367,-0.011408142093569941,0.002666363160005953
0.385,-0.0002688714930014632,-0.7843338399999986,-0.0002119940920008451,-2.3556088099999988,0.00023849245100048601,1.5706033799999988,0.7857728899999993,0.039999977299999996,0.039999958200000005,-9.820425300000002,-0.00836774688214659,-0.004496530080005199,0.0032939772200077117,-0.01141303749755075,0.002710793590006339
0.3875,-0.0002793179775014727,-0.7843238499999986,-0.00021802777000085063,-2.3555981749999986,0.00024196223750048916,1.5705946499999988,0.7857674749999992,0.03999997775,0.0399999585,-9.820442250000003,-0.00841037835926416,-0.004533651300005233,0.003349037000007762,-0.011416962603107603,0.00275604947500638
0.39,-0.0002897644620014822,-0.7843138599999986,-0.00022406144800085612,-2.355587539999999,0.0002454320240004923,1.5705859199999987,0.7857620599999993,0.0399999782,0.0399999588,-9.820459200000002,-0.008453009836381729,-0.004570772520005267,0.0034040967800078124,-0.011420887708664456,0.0028013053600064214
0.3925,-0.00030021094650149174,-0.7843038699999986,-0.0002300951260008616,-2.3555769049999986,0.0002489018105004955,1.5705771899999987,0.7857566449999992,0.03999997865,0.0399999591,-9.820476150000003,-0.008495641313499298,-0.004607893740005301,0.0034591565600078623,-0.011424812814221311,0.0028465612450064627
0.395,-0.00031065743100150124,-0.7842938799999986,-0.0002361288040008671,-2.355566269999999,0.0002523715970004986,1.5705684599999987,0.7857512299999992,0.0399999791,0.0399999594,-9.820493100000002,-0.008538272790616867,-0.004645014960005335,0.0035142163400079126,-0.011428737919778165,0.0028918171300065035
0.3975,-0.00032110391550151075,-0.7842838899999985,-0.0002421624820008726,-2.3555556349999986,0.0002558413835005018,1.5705597299999987,0.7857458149999992,0.039999979549999995,0.039999959700000004,-9.820510050000003,-0.008580904267734436,-0.004682136180005368,0.0035692761200079625,-0.011432663025335018,0.0029370730150065447
0.4,-0.0003315504000016838,-0.7842738999999984,-0.00024819616000097244,-2.3555449999999984,0.0002593111700005591,1.5705509999999987,0.7857403999999991,0.03999998,0.03999996,-9.820527000000004,-0.008623535744850242,-0.0047192574000061655,0.0036243359000084734,-0.011436588130891417,0.002982328900006964
0.4025,-0.0003431209500016549,-0.7842633099999985,-0.00025487816050095573,-2.3555329249999986,0.0002631531095005495,1.5705412949999986,0.7857343999999992,0.03999998,0.03999996,-9.820547400000002,-0.008654068643231521,-0.004761621285006059,0.003682559525008328,-0.011437385948374955,0.0030301817050068444
0.405,-0.00035469150000162595,-0.7842527199999985,-0.000261560161000939,-2.3555208499999987,0.0002669950490005399,1.5705315899999988,0.7857283999999991,0.03999998,0.03999996,-9.820567800000003,-0.0086846015416128,-0.004803985170005954,0.0037407831500081822,-0.011438183765858492,0.0030780345100067247
0.40750000000000003,-0.00036626205000159706,-0.7842421299999985,-0.0002682421615009223,-2.3555087749999983,0.0002708369885005303,1.5705218849999987,0.7857223999999992,0.03999998,0.03999996,-9.820588200000003,-0.008715134439994079,-0.004846349055005848,0.0037990067750080367,-0.01143898158334203,0.003125887315006605
0.41000000000000003,-0.0003778326000015681,-0.7842315399999986,-0.0002749241620009056,-2.3554966999999984,0.0002746789280005207,1.5705121799999986,0.7857163999999992,0.03999998,0.03999996,-9.820608600000003,-0.008745667338375358,-0.004888712940005742,0.003857230400007891,-0.011439779400825568,0.003173740120006485
0.41250000000000003,-0.0003894031500015392,-0.7842209499999986,-0.0002816061625008889,-2.3554846249999986,0.0002785208675005111,1.5705024749999987,0.7857103999999991,0.03999998,0.03999996,-9.820629000000002,-0.008776200236756636,-0.004931076825005636,0.0039154540250077455,-0.011440577218309106,0.0032215929250063655
0.41500000000000004,-0.00040097370000151026,-0.7842103599999987,-0.0002882881630008722,-2.3554725499999987,0.0002823628070005015,1.5704927699999987,0.7857043999999992,0.03999998,0.03999996,-9.820649400000002,-0.008806733135137915,-0.00497344071000553,0.0039736776500076,-0.011441375035792645,0.0032694457300062457
0.4175,-0.0004129393100016618,-0.7841995499999985,-0.0002951979900009596,-2.3554598749999984,0.00028633555650055167,1.5704827399999985,0.7856981949999992,0.0399999802,0.03999996,-9.820675150000005,-0.008834303403275994,-0.005014955835005188,0.00403293643000799,-0.011441488983109377,0.003318204355006588
0.42,-0.0004256950400017169,-0.7841882999999985,-0.0003025634700009914,-2.3554459999999984,0.00029056992600056997,1.5704720599999986,0.7856915799999991,0.0399999808,0.03999996,-9.820711600000005,-0.008855948410931113,-0.00505477344000536,0.004094265520008255,-0.011440235190093292,0.0033687746200068065
0.4225,-0.00043845077000177204,-0.7841770499999985,-0.0003099289500010232,-2.3554321249999983,0.00029480429550058826,1.5704613799999985,0.7856849649999991,0.0399999814,0.03999996,-9.820748050000006,-0.008877593418586231,-0.005094591045005531,0.00415559461000852,-0.011438981397077205,0.003419344885007025
0.425,-0.0004512065000018271,-0.7841657999999984,-0.0003172944300010551,-2.3554182499999983,0.00029903866500060656,1.5704506999999985,0.785678349999999,0.039999982,0.03999996,-9.820784500000006,-0.00889923842624135,-0.005134408650005704,0.0042169237000087845,-0.01143772760406112,0.0034699151500072437
0.4275,-0.00046396223000188223,-0.7841545499999983,-0.0003246599100010869,-2.3554043749999978,0.00030327303450062486,1.5704400199999984,0.785671734999999,0.0399999826,0.03999996,-9.820820950000005,-0.008920883433896468,-0.0051742262550058754,0.004278252790009049,-0.011436473811045036,0.0035204854150074623
0.43,-0.00047671796000193736,-0.7841432999999983,-0.0003320253900011187,-2.3553904999999977,0.0003075074040006431,1.5704293399999982,0.785665119999999,0.0399999832,0.03999996,-9.820857400000007,-0.008942528441551587,-0.005214043860006047,0.004339581880009315,-0.01143522001802895,0.003571055680007681
0.4325,-0.0004894736900019924,-0.7841320499999982,-0.0003393908700011505,-2.3553766249999977,0.0003117417735006614,1.5704186599999983,0.7856585049999989,0.0399999838,0.03999996,-9.820893850000006,-0.008964173449206705,-0.00525386146500622,0.00440091097000958,-0.011433966225012865,0.003621625945007899
0.435,-0.0005030600060022157,-0.7841203139999982,-0.0003472353400012793,-2.3553617399999975,0.00031625101500073533,1.570407309999998,0.7856514629999988,0.039999984,0.0399999598,-9.8209001,-0.00898023275658694,-0.005296397900006946,0.0044643486000102055,-0.01143009383231312,0.0036739125800084103
0.4375,-0.0005170616150022285,-0.7841083349999981,-0.0003553193050012867,-2.3553463499999974,0.0003208976925007396,1.5703956249999982,0.7856442074999989,0.039999984,0.0399999595,-9.820891249999999,-0.008993499213831711,-0.0053402937500069865,0.004528840500010264,-0.011424912139772475,0.0037270574000084584
0.44,-0.0005310632240022413,-0.784096355999998,-0.00036340327000129404,-2.3553309599999976,0.0003255443700007438,1.5703839399999981,0.7856369519999988,0.039999984,0.039999959200000004,-9.820882399999999,-0.009006765671076484,-0.005384189600007026,0.004593332400010323,-0.011419730447231831,0.003780202220008507
0.4425,-0.000545064833002254,-0.784084376999998,-0.0003714872350013014,-2.3553155699999975,0.00033019104750074804,1.570372254999998,0.7856296964999988,0.039999984,0.0399999589,-9.82087355,-0.009020032128321255,-0.005428085450007066,0.004657824300010382,-0.011414548754691185,0.003833347040008555
0.445,-0.0005590664420022668,-0.7840723979999981,-0.00037957120000130874,-2.3553001799999977,0.0003348377250007523,1.570360569999998,0.7856224409999988,0.039999984,0.0399999586,-9.8208647,-0.009033298585566028,-0.005471981300007106,0.004722316200010441,-0.01140936706215054,0.0038864918600086036
0.4475,-0.0005730680510022796,-0.784060418999998,-0.0003876551650013161,-2.3552847899999976,0.0003394844025007565,1.570348884999998,0.7856151854999988,0.039999984,0.0399999583,-9.82085585,-0.0090465650428108,-0.005515877150007146,0.0047868081000105,-0.011404185369609895,0.003939636680008652
0.45,-0.0005870696600025062,-0.7840484399999978,-0.00039573913000144677,-2.3552693999999974,0.0003441310800008315,1.570337199999998,0.7856079299999986,0.039999984,0.039999958,-9.82084700000001,-0.009059831500054122,-0.00555977300000757,0.004851300000011056,-0.011399003677068982,0.003992781500009098
0.4525,-0.00060237744350252,-0.7840357079999979,-0.0004045763410014548,-2.355252134999997,0.00034921007250083614,1.570324419999998,0.7855999904999986,0.0399999849,0.039999959200000004,-9.820899950000008,-0.00906423549167883,-0.005606015300007612,0.004918829700011117,-0.011392180109395411,0.004048355480009149
0.455,-0.0006176852270025339,-0.7840229759999978,-0.0004134135520014629,-2.355234869999997,0.00035428906500084074,1.570311639999998,0.7855920509999986,0.0399999858,0.0399999604,-9.820952900000009,-0.00906863948330354,-0.005652257600007655,0.004986359400011179,-0.01138535654172184,0.004103929460009199
0.4575,-0.0006329930105025479,-0.7840102439999979,-0.0004222507630014709,-2.3552176049999973,0.0003593680575008454,1.5702988599999979,0.7855841114999986,0.039999986700000004,0.0399999616,-9.82100585000001,-0.009073043474928249,-0.005698499900007696,0.00505388910001124,-0.011378532974048268,0.00415950344000925
0.46,-0.0006483007940025618,-0.7839975119999979,-0.00043108797400147895,-2.355200339999997,0.00036444705000085,1.5702860799999978,0.7855761719999986,0.0399999876,0.0399999628,-9.821058800000008,-0.009077447466552957,-0.005744742200007738,0.005121418800011301,-0.011371709406374697,0.0042150774200093
0.4625,-0.0006636085775025757,-0.7839847799999978,-0.000439925185001487,-2.355183074999997,0.00036952604250085463,1.5702732999999978,0.7855682324999986,0.0399999885,0.039999964,-9.821111750000009,-0.009081851458177666,-0.005790984500007781,0.005188948500011363,-0.011364885838701126,0.0042706514000093515
0.465,-0.0006789163610025897,-0.7839720479999979,-0.00044876239600149506,-2.3551658099999973,0.0003746050350008592,1.5702605199999977,0.7855602929999986,0.0399999894,0.0399999652,-9.821164700000008,-0.009086255449802376,-0.005837226800007823,0.005256478200011424,-0.011358062271027555,0.004326225380009402
0.4675,-0.0006946794995028359,-0.7839590419999977,-0.00045786218650163707,-2.355148014999997,0.0003798346400009407,1.5702473399999977,0.7855521249999985,0.0399999899,0.0399999656,-9.82120135,-0.009086689120157218,-0.005883198150007727,0.005325068815012027,-0.011350162094457179,0.004382639550009881
0.47000000000000003,-0.0007113533480028511,-0.7839454879999977,-0.0004674871360016458,-2.355129159999997,0.00038536547000094575,1.5702333599999976,0.7855434999999985,0.0399999896,0.0399999644,-9.8212054,-0.009079182147978397,-0.005928627600007768,0.005395781260012091,-0.01134010870009484,0.004440734100009934
0.47250000000000003,-0.0007280271965028663,-0.7839319339999977,-0.0004771120855016546,-2.3551103049999966,0.0003908963000009508,1.5702193799999975,0.7855348749999985,0.0399999893,0.0399999632,-9.82120945,-0.009071675175799574,-0.005974057050007809,0.005466493705012156,-0.0113300553057325,0.004498828650009987
0.47500000000000003,-0.0007447010450028815,-0.7839183799999977,-0.00048673703500166335,-2.3550914499999966,0.00039642713000095583,1.5702053999999976,0.7855262499999985,0.039999989,0.039999962,-9.8212135,-0.009064168203620753,-0.006019486500007851,0.005537206150012221,-0.011320001911370161,0.00455692320001004
0.47750000000000004,-0.0007613748935028967,-0.7839048259999977,-0.0004963619845016721,-2.3550725949999967,0.0004019579600009609,1.5701914199999976,0.7855176249999984,0.0399999887,0.0399999608,-9.82121755,-0.00905666123144193,-0.006064915950007892,0.005607918595012285,-0.011309948517007822,0.004615017750010093
0.48,-0.0007780487420029115,-0.7838912719999976,-0.0005059869340016806,-2.3550537399999967,0.0004074887900009658,1.5701774399999975,0.7855089999999985,0.0399999884,0.0399999596,-9.821221600000001,-0.00904915425926311,-0.006110345400007933,0.0056786310400123476,-0.011299895122645485,0.004673112300010144
0.4825,-0.0007947225905029267,-0.7838777179999976,-0.0005156118835016894,-2.3550348849999967,0.00041301962000097085,1.5701634599999974,0.7855003749999985,0.0399999881,0.0399999584,-9.82122565,-0.009041647287084287,-0.006155774850007974,0.005749343485012412,-0.011289841728283146,0.004731206850010198
0.485,-0.0008123467160031934,-0.7838635799999975,-0.0005257847860018432,-2.3550146999999964,0.00041886509400105914,1.5701487099999973,0.7854912399999983,0.0399999882,0.039999958200000005,-9.82126410000001,-0.00902686603366999,-0.006203271150008563,0.005821991500012989,-0.011278956476596935,0.00479107599001072
0.4875,-0.0008304459800032098,-0.7838491499999974,-0.0005362316650018527,-2.354993849999996,0.0004248678900010646,1.5701335749999972,0.7854818499999984,0.0399999885,0.0399999585,-9.82131975000001,-0.009008447639640834,-0.0062518008750086064,0.005895607300013056,-0.01126765529624912,0.004851832425010775
0.49,-0.0008485452440032263,-0.7838347199999974,-0.0005466785440018622,-2.354972999999996,0.00043087068600107005,1.5701184399999972,0.7854724599999984,0.0399999888,0.0399999588,-9.82137540000001,-0.008990029245611677,-0.006300330600008651,0.005969223100013123,-0.011256354115901306,0.004912588860010831
0.4925,-0.0008666445080032428,-0.7838202899999974,-0.0005571254230018717,-2.354952149999996,0.0004368734820010755,1.5701033049999973,0.7854630699999984,0.0399999891,0.0399999591,-9.82143105000001,-0.00897161085158252,-0.006348860325008695,0.00604283890001319,-0.01124505293555349,0.004973345295010886
0.495,-0.0008847437720032593,-0.7838058599999974,-0.0005675723020018813,-2.354931299999996,0.000442876278001081,1.5700881699999971,0.7854536799999984,0.0399999894,0.0399999594,-9.82148670000001,-0.008953192457553364,-0.0063973900500087395,0.006116454700013256,-0.011233751755205674,0.0050341017300109415
0.4975,-0.0009028430360032757,-0.7837914299999974,-0.0005780191810018908,-2.354910449999996,0.00044887907400108646,1.5700730349999972,0.7854442899999984,0.0399999897,0.039999959700000004,-9.82154235000001,-0.008934774063524206,-0.006445919775008783,0.006190070500013323,-0.01122245057485786,0.005094858165010997
0.5,-0.0009209423000035621,-0.7837769999999972,-0.000588466060002056,-2.354889599999996,0.0004548818700011812,1.570057899999997,0.7854348999999982,0.03999999,0.03999996,-9.821598000000002,-0.008916355669492405,-0.006494449500009902,0.006263686300013957,-0.01121114939450951,0.00515561460001148
0.5025000000000001,-0.0009405256700035136,-0.7837616249999972,-0.000599768681502028,-2.354866859999996,0.0004613755485011651,1.570041549999997,0.7854247449999983,0.0399999897,0.0399999591,-9.821606400000002,-0.008883398724713927,-0.006548886885009767,0.006340420600013767,-0.011196908121925945,0.005218725660011324
0.505,-0.0009601090400034642,-0.7837462499999973,-0.0006110713030019994,-2.354844119999996,0.0004678692270011487,1.570025199999997,0.7854145899999982,0.0399999894,0.0399999582,-9.8216148,-0.00885044177993545,-0.00660332427000963,0.006417154900013574,-0.01118266684934238,0.005281836720011164
0.5075000000000001,-0.0009796924100034157,-0.7837308749999973,-0.0006223739245019715,-2.354821379999996,0.0004743629055011326,1.5700088499999971,0.7854044349999982,0.0399999891,0.0399999573,-9.821623200000001,-0.008817484835156972,-0.006657761655009495,0.0064938892000133835,-0.011168425576758817,0.005344947780011008
0.51,-0.0009992757800033664,-0.7837154999999973,-0.0006336765460019429,-2.3547986399999963,0.00048085658400111623,1.5699924999999972,0.7853942799999983,0.0399999888,0.0399999564,-9.821631600000002,-0.008784527890378495,-0.006712199040009357,0.00657062350001319,-0.011154184304175252,0.0054080588400108485
0.5125,-0.0010188591500033168,-0.7837001249999974,-0.0006449791675019144,-2.3547758999999964,0.00048735026250109985,1.5699761499999971,0.7853841249999983,0.0399999885,0.039999955499999996,-9.821640000000002,-0.008751570945600019,-0.00676663642500922,0.006647357800012996,-0.011139943031591689,0.00547116990001069
0.515,-0.0010384425200032684,-0.7836847499999975,-0.0006562817890018864,-2.3547531599999965,0.0004938439410010837,1.5699597999999972,0.7853739699999983,0.0399999882,0.0399999546,-9.821648400000003,-0.00871861400082154,-0.006821073810009085,0.006724092100012806,-0.011125701759008124,0.005534280960010533
0.5175,-0.0010585399550035205,-0.7836690399999974,-0.0006678808215020318,-2.354729819999996,0.0005005077920011672,1.569943039999997,0.7853635499999982,0.03999998835,0.0399999542,-9.821667150000007,-0.008683864260085956,-0.006876661005009646,0.00680183118501329,-0.011110780155283427,0.005598302350010973
0.52,-0.0010796655200036123,-0.7836526599999972,-0.0006800726760020847,-2.354705279999996,0.0005075119880011977,1.569925459999997,0.7853525999999982,0.0399999894,0.0399999548,-9.821706600000008,-0.008645528927438825,-0.006934547820009898,0.006881579840013636,-0.011094497889277476,0.005664144400011259
0.5225,-0.0011007910850037031,-0.7836362799999972,-0.0006922645305021371,-2.354680739999996,0.0005145161840012278,1.5699078799999968,0.7853416499999981,0.03999999045,0.0399999554,-9.821746050000007,-0.008607193594791696,-0.006992434635010147,0.00696132849501398,-0.011078215623271525,0.005729986450011541
0.525,-0.0011219166500037949,-0.783619899999997,-0.0007044563850021901,-2.354656199999996,0.0005215203800012581,1.5698902999999969,0.785330699999998,0.039999991500000005,0.039999956,-9.821785500000006,-0.008568858262144563,-0.007050321450010399,0.007041077150014325,-0.011061933357265574,0.005795828500011827
0.5275,-0.0011430422150038857,-0.783603519999997,-0.0007166482395022424,-2.3546316599999955,0.0005285245760012883,1.5698727199999967,0.785319749999998,0.03999999255,0.0399999566,-9.821824950000007,-0.008530522929497434,-0.0071082082650106475,0.0071208258050146685,-0.011045651091259625,0.005861670550012111
0.53,-0.0011641677800039774,-0.783587139999997,-0.0007288400940022954,-2.3546071199999954,0.0005355287720013187,1.5698551399999967,0.785308799999998,0.039999993600000006,0.0399999572,-9.821864400000006,-0.008492187596850304,-0.007166095080010899,0.007200574460015015,-0.011029368825253674,0.005927512600012397
0.5325,-0.0011852933450040683,-0.7835707599999968,-0.0007410319485023478,-2.3545825799999953,0.0005425329680013489,1.5698375599999965,0.785297849999998,0.03999999465,0.0399999578,-9.821903850000007,-0.008453852264203173,-0.007223981895011148,0.0072803231150153575,-0.011013086559247725,0.005993354650012679
0.535,-0.0012074852400043715,-0.7835537229999967,-0.0007538386440025227,-2.354556589999995,0.0005498897500014491,1.5698190799999963,0.7852863399999978,0.0399999955,0.039999958200000005,-9.82195630000001,-0.008407273888578167,-0.007285619050012218,0.0073620225500159045,-0.010995970387008306,0.00606062970001308
0.5375,-0.0012302103000043142,-0.7835363574999967,-0.0007669527600024897,-2.354529874999995,0.0005574228250014301,1.5698001499999963,0.7852745499999978,0.03999999625,0.0399999585,-9.82201525000001,-0.008356573991467825,-0.007349131375012058,0.007444697375015696,-0.010978437261652521,0.006128621250012908
0.54,-0.001252935360004258,-0.7835189919999968,-0.0007800668760024571,-2.3545031599999953,0.0005649559000014115,1.5697812199999963,0.7852627599999978,0.039999997,0.0399999588,-9.82207420000001,-0.008305874094357481,-0.0074126437000119,0.00752737220001549,-0.010960904136296735,0.00619661280001274
0.5425,-0.0012756604200042008,-0.7835016264999968,-0.0007931809920024241,-2.354476444999995,0.0005724889750013925,1.5697622899999966,0.7852509699999979,0.03999999775,0.0399999591,-9.82213315000001,-0.00825517419724714,-0.0074761560250117395,0.0076100470250152815,-0.010943371010940948,0.006264604350012568
0.545,-0.0012983854800041443,-0.7834842609999968,-0.0008062951080023916,-2.354449729999995,0.0005800220500013738,1.5697433599999966,0.7852391799999979,0.0399999985,0.0399999594,-9.822192100000011,-0.008204474300136794,-0.0075396683500115825,0.007692721850015077,-0.010925837885585163,0.0063325959000124
0.5475,-0.0013211105400040871,-0.7834668954999968,-0.0008194092240023585,-2.354423014999995,0.0005875551250013548,1.5697244299999966,0.7852273899999979,0.03999999925,0.039999959700000004,-9.82225105000001,-0.008153774403026452,-0.007603180675011422,0.007775396675014868,-0.010908304760229377,0.006400587450012228
0.55,-0.0013438356000043245,-0.7834495299999967,-0.0008325233400024954,-2.3543962999999946,0.0005950882000014333,1.5697054999999964,0.7852155999999978,0.04,0.03999996,-9.822310000000002,-0.0081030745059134,-0.007666693000010999,0.007858071500015178,-0.010890771634873127,0.006468579000012496
0.5525,-0.0013682168100044292,-0.7834310679999966,-0.0008465923635025559,-2.3543674099999947,0.000603169022501468,1.5696852049999963,0.7852029699999977,0.03999999925,0.039999959700000004,-9.822324550000003,-0.008037109207349872,-0.007728704425011265,0.007943647100015546,-0.010870626568790556,0.006539030175012799
0.555,-0.0013925980200045352,-0.7834126059999965,-0.000860661387002617,-2.3543385199999944,0.0006112498450015031,1.5696649099999962,0.7851903399999977,0.0399999985,0.0399999594,-9.822339100000002,-0.00797114390878634,-0.007790715850011534,0.008029222700015918,-0.010850481502707983,0.006609481350013105
0.5575,-0.00141697923000464,-0.7833941439999965,-0.0008747304105026774,-2.354309629999994,0.0006193306675015378,1.569644614999996,0.7851777099999976,0.03999999775,0.0399999591,-9.822353650000002,-0.007905178610222812,-0.007852727275011802,0.008114798300016286,-0.01083033643662541,0.006679932525013407
0.56,-0.0014413604400047458,-0.7833756819999964,-0.0008887994340027386,-2.3542807399999943,0.000627411490001573,1.569624319999996,0.7851650799999975,0.039999997,0.0399999588,-9.822368200000003,-0.00783921331165928,-0.00791473870001207,0.008200373900016657,-0.010810191370542838,0.006750383700013713
0.5625,-0.0014657416500048507,-0.7833572199999963,-0.000902868457502799,-2.354251849999994,0.0006354923125016077,1.569604024999996,0.7851524499999976,0.03999999625,0.0399999585,-9.822382750000003,-0.007773248013095751,-0.007976750125012337,0.008285949500017025,-0.010790046304460267,0.0068208348750140166
0.5650000000000001,-0.0014901228600049565,-0.7833387579999962,-0.0009169374810028602,-2.3542229599999938,0.0006435731350016428,1.569583729999996,0.7851398199999975,0.0399999955,0.039999958200000005,-9.822397300000002,-0.007707282714532219,-0.008038761550012607,0.008371525100017397,-0.010769901238377694,0.0068912860500143225
0.5675,-0.0015150747050053871,-0.783319913999996,-0.0009313355235031084,-2.3541933649999933,0.0006518428050017853,1.5695629449999955,0.7851268949999972,0.03999999525,0.039999958,-9.822415750000006,-0.007636339310539852,-0.00810359362501455,0.00845804112501825,-0.010749036213378395,0.006962575410015064
0.5700000000000001,-0.0015411678200054114,-0.7833003059999959,-0.0009463916040031225,-2.3541623599999935,0.0006604901700017934,1.5695411799999954,0.7851133799999972,0.039999996,0.039999958,-9.822442000000006,-0.007555439695699042,-0.008174067000014615,0.008546438000018333,-0.010726731270546973,0.0070355411400151325
0.5725,-0.0015672609350054346,-0.7832806979999959,-0.0009614476845031359,-2.3541313549999936,0.0006691375350018011,1.5695194149999954,0.7850998649999972,0.03999999675,0.039999958,-9.822468250000005,-0.007474540080858235,-0.008244540375014679,0.008634834875018411,-0.010704426327715554,0.007108506870015198
0.5750000000000001,-0.001593354050005459,-0.7832610899999959,-0.0009765037650031499,-2.3541003499999933,0.0006777849000018092,1.5694976499999953,0.7850863499999973,0.0399999975,0.039999958,-9.822494500000007,-0.007393640466017425,-0.008315013750014744,0.008723231750018493,-0.010682121384884133,0.007181472600015265
0.5775,-0.0016194471650054821,-0.7832414819999959,-0.0009915598455031633,-2.3540693449999934,0.0006864322650018168,1.5694758849999955,0.7850728349999972,0.03999999825,0.039999958,-9.822520750000006,-0.007312740851176618,-0.008385487125014806,0.008811628625018572,-0.010659816442052713,0.00725443833001533
0.58,-0.0016455402800055054,-0.7832218739999959,-0.0010066159260031767,-2.3540383399999936,0.0006950796300018245,1.5694541199999954,0.7850593199999972,0.039999999,0.039999958,-9.822547000000005,-0.007231841236335811,-0.008455960500014868,0.00890002550001865,-0.010637511499221293,0.0073274040600153955
0.5825,-0.0016716333950055296,-0.7832022659999959,-0.0010216720065031907,-2.3540073349999937,0.0007037269950018326,1.5694323549999953,0.7850458049999972,0.03999999975,0.039999958,-9.822573250000007,-0.0071509416214950005,-0.008526433875014935,0.008988422375018732,-0.010615206556389874,0.007400369790015463
0.585,-0.0016989043800059288,-0.7831818769999955,-0.0010374072700034208,-2.353974829999993,0.0007127639500019646,1.569409639999995,0.7850316829999969,0.04,0.039999958200000005,-9.822609900000009,-0.007062377594391677,-0.008598697400015568,0.009078715600019417,-0.010592032596463807,0.0074747780300159885
0.5875,-0.0017267643000059547,-0.7831610974999955,-0.0010534821250034359,-2.353941574999993,0.0007219957000019732,1.569386449999995,0.785017257499997,0.04,0.0399999585,-9.82265175000001,-0.006969981361160751,-0.008671856000015637,0.009169957000019501,-0.01056842412799083,0.007549907525016059
0.59,-0.0017546242200059796,-0.7831403179999955,-0.00106955698000345,-2.353908319999993,0.0007312274500019814,1.569363259999995,0.785002831999997,0.04,0.0399999588,-9.82269360000001,-0.006877585127929829,-0.008745014600015703,0.009261198400019583,-0.010544815659517853,0.007625037020016125
0.5925,-0.0017824841400060055,-0.7831195384999955,-0.0010856318350034651,-2.353875064999993,0.00074045920000199,1.5693400699999949,0.7849884064999969,0.04,0.0399999591,-9.822735450000009,-0.006785188894698903,-0.00881817320001577,0.009352439800019667,-0.010521207191044876,0.007700166515016196
0.595,-0.0018103440600060303,-0.7830987589999955,-0.0011017066900034795,-2.353841809999993,0.0007496909500019982,1.569316879999995,0.7849739809999969,0.04,0.0399999594,-9.82277730000001,-0.006692792661467981,-0.008891331800015835,0.00944368120001975,-0.0104975987225719,0.007775296010016262
0.5975,-0.0018382039800060562,-0.7830779794999955,-0.0011177815450034944,-2.353808554999993,0.0007589227000020069,1.569293689999995,0.7849595554999969,0.04,0.039999959700000004,-9.82281915000001,-0.006600396428237055,-0.008964490400015903,0.009534922600019834,-0.010473990254098923,0.007850425505016332
0.6,-0.0018660639000064785,-0.7830571999999952,-0.001133856400003738,-2.3537752999999926,0.0007681544500021465,1.5692704999999947,0.7849451299999967,0.04,0.03999996,-9.822861000000007,-0.006508000195002764,-0.00903764900001765,0.009626164000020502,-0.010450381785625514,0.007925555000016907
0.6025,-0.001895744865006506,-0.7830351904999951,-0.0011509811650037539,-2.353739779999992,0.0007779885625021557,1.5692457799999946,0.7849297609999967,0.03999999925,0.03999995805,-9.822893250000007,-0.006400170223763703,-0.009118516850017726,0.00972009700002059,-0.01042478834278313,0.008003009600016979
0.605,-0.0019254258300065324,-0.7830131809999952,-0.001168105930003769,-2.353704259999992,0.0007878226750021644,1.5692210599999945,0.7849143919999966,0.0399999985,0.0399999561,-9.822925500000007,-0.0062923402525246475,-0.009199384700017799,0.009814030000020674,-0.010399194899940747,0.008080464200017047
0.6075,-0.00195510679500656,-0.7829911714999952,-0.001185230695003785,-2.3536687399999923,0.0007976567875021736,1.5691963399999944,0.7848990229999966,0.03999999775,0.03999995415,-9.822957750000008,-0.006184510281285587,-0.009280252550017874,0.009907963000020762,-0.010373601457098364,0.00815791880001712
0.61,-0.0019847877600065868,-0.7829691619999951,-0.0012023554600038002,-2.3536332199999923,0.0008074909000021823,1.5691716199999945,0.7848836539999966,0.039999997,0.0399999522,-9.822990000000008,-0.006076680310046531,-0.009361120400017945,0.010001896000020844,-0.01034800801425598,0.008235373400017188
0.6125,-0.0020144687250066144,-0.7829471524999951,-0.0012194802250038161,-2.353597699999992,0.0008173250125021915,1.5691468999999945,0.7848682849999965,0.03999999625,0.03999995025,-9.823022250000008,-0.00596885033880747,-0.00944198825001802,0.010095829000020932,-0.010322414571413597,0.008312828000017262
0.615,-0.0020441496900066407,-0.782925142999995,-0.0012366049900038314,-2.353562179999992,0.0008271591250022003,1.5691221799999944,0.7848529159999965,0.0399999955,0.0399999483,-9.823054500000007,-0.005861020367568415,-0.009522856100018092,0.010189762000021016,-0.010296821128571214,0.00839028260001733
0.6175,-0.0020744553700070894,-0.7829027179999948,-0.00125408995000409,-2.3535258899999913,0.0008371998450023486,1.569096944999994,0.7848372264999963,0.03999999525,0.03999994715,-9.82308945000001,-0.005746285663888756,-0.009605482600019352,0.010284607750021718,-0.010270821256556992,0.008468513350017925
0.62,-0.0021060104800071176,-0.7828794619999948,-0.0012722953000041063,-2.3534880599999917,0.0008476537800023579,1.569070679999994,0.7848208959999963,0.039999996,0.0399999476,-9.82312980000001,-0.005617741495341846,-0.009691626400019429,0.010381279000021804,-0.010244008526199912,0.008548296400017997
0.6225,-0.002137565590007147,-0.7828562059999947,-0.0012905006500041232,-2.3534502299999915,0.0008581077150023676,1.569044414999994,0.7848045654999963,0.03999999675,0.03999994805,-9.82317015000001,-0.005489197326794932,-0.00977777020001951,0.010477950250021895,-0.010217195795842833,0.00862807945001807
0.625,-0.0021691207000071747,-0.7828329499999948,-0.0013087060000041395,-2.3534123999999914,0.0008685616500023769,1.569018149999994,0.7847882349999963,0.0399999975,0.0399999485,-9.823210500000009,-0.005360653158248022,-0.009863914000019586,0.01057462150002198,-0.010190383065485755,0.008707862500018142
0.6275000000000001,-0.0022006758100072046,-0.7828096939999947,-0.0013269113500041564,-2.3533745699999913,0.0008790155850023867,1.568991884999994,0.7847719044999962,0.03999999825,0.03999994895,-9.82325085000001,-0.005232108989701108,-0.009950057800019667,0.010671292750022071,-0.010163570335128673,0.008787645550018215
0.63,-0.0022322309200072323,-0.7827864379999947,-0.0013451167000041726,-2.3533367399999916,0.000889469520002396,1.568965619999994,0.7847555739999963,0.039999999,0.0399999494,-9.823291200000009,-0.005103564821154199,-0.010036201600019744,0.010767964000022157,-0.010136757604771595,0.008867428600018287
0.6325000000000001,-0.0022637860300072617,-0.7827631819999947,-0.0013633220500041895,-2.3532989099999915,0.0008999234550024057,1.568939354999994,0.7847392434999962,0.03999999975,0.03999994985,-9.82333155000001,-0.004975020652607284,-0.010122345400019824,0.010864635250022247,-0.010109944874414516,0.00894721165001836
0.635,-0.0022966253400077347,-0.7827390209999944,-0.0013822679000044624,-2.353259549999991,0.0009108021300025622,1.5689120199999935,0.7847222459999961,0.04,0.0399999493,-9.82337340000001,-0.004845053702562642,-0.010209766500020343,0.01096308540002295,-0.010082139167928042,0.009028416700018924
0.6375000000000001,-0.002330106750007766,-0.7827144074999943,-0.0014015840000044803,-2.353219424999991,0.0009218931750025726,1.5688841499999935,0.7847049149999961,0.04,0.03999994825,-9.82341600000001,-0.004714375361769865,-0.010297826250020426,0.011062425000023041,-0.010053836973377386,0.009110332750019
0.64,-0.002363588160007796,-0.7826897939999943,-0.0014209001000044974,-2.353179299999991,0.0009329842200025824,1.5688562799999934,0.7846875839999959,0.04,0.039999947200000004,-9.82345860000001,-0.004583697020977094,-0.010385886000020503,0.01116176460002313,-0.01002553477882673,0.009192248800019074
0.6425,-0.0023970695700078256,-0.7826651804999942,-0.0014402162000045145,-2.3531391749999906,0.0009440752650025922,1.5688284099999934,0.7846702529999959,0.04,0.03999994615,-9.82350120000001,-0.0044530186801843225,-0.010473945750020582,0.011261104200023218,-0.009997232584276075,0.009274164850019147
0.645,-0.0024305509800078566,-0.7826405669999942,-0.0014595323000045326,-2.3530990499999906,0.0009551663100026026,1.5688005399999934,0.7846529219999959,0.04,0.0399999451,-9.82354380000001,-0.004322340339391545,-0.010562005500020663,0.01136044380002331,-0.00996893038972542,0.009356080900019222
0.6475,-0.0024640323900078863,-0.7826159534999941,-0.0014788484000045497,-2.3530589249999907,0.0009662573550026125,1.5687726699999933,0.7846355909999959,0.04,0.03999994405,-9.82358640000001,-0.004191661998598774,-0.010650065250020742,0.011459783400023398,-0.009940628195174763,0.009437996950019295
0.65,-0.0024975138000083853,-0.7825913399999939,-0.0014981645000048374,-2.35301879999999,0.0009773484000027775,1.568744799999993,0.7846182599999957,0.04,0.039999943,-9.823629000000015,-0.004060983657800843,-0.010738125000023635,0.011559123000024112,-0.009912326000623983,0.009519913000019895
0.6525,-0.0025329728100084168,-0.7825654034999938,-0.0015186209300048555,-2.35297622999999,0.0009890935050027878,1.568715294999993,0.7845998954999956,0.04,0.039999943,-9.823687950000014,-0.003908507619016913,-0.010838074950023724,0.011661085650024203,-0.009883495327078357,0.00960404515001997
0.655,-0.00256843182000845,-0.7825394669999938,-0.0015390773600048747,-2.35293365999999,0.0010008386100027987,1.5686857899999929,0.7845815309999956,0.04,0.039999943,-9.823746900000014,-0.0037560315802329753,-0.010938024900023817,0.011763048300024297,-0.00985466465353273,0.009688177300020048
0.6575,-0.0026038908300084814,-0.7825135304999937,-0.001559533790004893,-2.3528910899999897,0.0010125837150028092,1.5686562849999928,0.7845631664999956,0.04,0.039999943,-9.823805850000014,-0.003603555541449045,-0.011037974850023906,0.011865010950024388,-0.009825833979987104,0.009772309450020123
0.66,-0.002639349840008514,-0.7824875939999938,-0.001579990220004912,-2.35284851999999,0.0010243288200028201,1.568626779999993,0.7845448019999955,0.04,0.039999943,-9.823864800000013,-0.0034510795026651076,-0.011137924800023999,0.011966973600024484,-0.009797003306441477,0.009856441600020202
0.6625,-0.0026748088500085456,-0.7824616574999937,-0.0016004466500049302,-2.35280594999999,0.0010360739250028306,1.5685972749999928,0.7845264374999956,0.04,0.039999943,-9.823923750000013,-0.003298603463881177,-0.011237874750024088,0.012068936250024575,-0.009768172632895852,0.009940573750020276
0.665,-0.002710267860008579,-0.7824357209999937,-0.0016209030800049492,-2.3527633799999896,0.0010478190300028415,1.5685677699999927,0.7845080729999956,0.04,0.039999943,-9.823982700000014,-0.00314612742509724,-0.01133782470002418,0.012170898900024669,-0.009739341959350225,0.010024705900020355
0.6675,-0.0027464028850091027,-0.7824093184999934,-0.0016417492600052513,-2.352719934999989,0.0010597876600030149,1.5685376999999923,0.7844893584999952,0.04,0.03999994265,-9.824034100000008,-0.0029881473630255797,-0.01143855720002484,0.012273723450025387,-0.00971002033910903,0.010109547275020947
0.67,-0.0027838899400091377,-0.7823819839999934,-0.0016633749400052716,-2.352674739999989,0.0010722033400030263,1.5685064999999923,0.7844699439999953,0.04,0.039999941600000005,-9.824070400000009,-0.0028191592543904674,-0.011540854800024935,0.012378271800025485,-0.009679716825477773,0.010195807100021027
0.6725,-0.002821376995009171,-0.7823546494999933,-0.0016850006200052907,-2.352629544999989,0.0010846190200030374,1.5684752999999922,0.7844505294999953,0.04,0.03999994055,-9.824106700000009,-0.002650171145755362,-0.011643152400025026,0.012482820150025577,-0.009649413311846516,0.010282066925021104
0.675,-0.002858864050009206,-0.7823273149999933,-0.0017066263000053109,-2.352584349999989,0.001097034700003049,1.5684440999999922,0.7844311149999953,0.04,0.0399999395,-9.824143000000008,-0.0024811830371202497,-0.011745450000025122,0.012587368500025675,-0.009619109798215257,0.010368326750021185
0.6775,-0.0028963511050092393,-0.7822999804999933,-0.00172825198000533,-2.352539154999989,0.00110945038000306,1.5684128999999922,0.7844117004999952,0.04,0.03999993845,-9.824179300000008,-0.0023121949284851447,-0.011847747600025212,0.012691916850025768,-0.009588806284584,0.01045458657502126
0.68,-0.0029338381600092743,-0.7822726459999932,-0.0017498776600053502,-2.352493959999989,0.0011218660600030715,1.5683816999999922,0.7843922859999952,0.04,0.0399999374,-9.824215600000008,-0.002143206819850032,-0.011950045200025308,0.012796465200025866,-0.009558502770952743,0.01054084640002134
0.6825,-0.002971325215009308,-0.7822453114999932,-0.0017715033400053694,-2.352448764999989,0.0011342817400030827,1.5683504999999922,0.7843728714999952,0.04,0.03999993635,-9.824251900000009,-0.001974218711214927,-0.012052342800025399,0.012901013550025958,-0.009528199257321485,0.010627106225021417
0.685,-0.0030101971100099504,-0.7822170299999928,-0.00179392747000574,-2.352401849999988,0.0011471554500032952,1.5683181499999916,0.7843527499999948,0.04,0.039999936,-9.824278100000004,-0.0017946977167855966,-0.012159534800027573,0.013007257400026933,-0.009496689494691074,0.010714753850022218
0.6875,-0.0030497614250101206,-0.7821882749999927,-0.0018167508250058382,-2.352354074999988,0.0011602581750033516,1.5682852249999915,0.7843322749999948,0.04,0.039999936,-9.824299250000005,-0.0016099102794650572,-0.012269174000028044,0.013114349000027394,-0.00946457660756176,0.010803095375022597
0.6900000000000001,-0.003089325740010292,-0.7821595199999926,-0.001839574180005937,-2.3523062999999875,0.0011733609000034084,1.5682522999999915,0.7843117999999947,0.04,0.039999936,-9.824320400000005,-0.0014251228421445095,-0.01237881320002852,0.013221440600027858,-0.009432463720432447,0.01089143690002298
0.6925,-0.0031288900550104624,-0.7821307649999925,-0.0018623975350060354,-2.3522585249999874,0.0011864636250034648,1.5682193749999913,0.7842913249999947,0.04,0.039999936,-9.824341550000005,-0.0012403354048239703,-0.012488452400028993,0.01332853220002832,-0.009400350833303133,0.010979778425023361
0.6950000000000001,-0.0031684543700106343,-0.7821020099999924,-0.0018852208900061345,-2.3522107499999874,0.0011995663500035216,1.5681864499999911,0.7842708499999945,0.04,0.039999936,-9.824362700000005,-0.0010555479675034224,-0.01259809160002947,0.013435623800028784,-0.009368237946173818,0.011068119950023743
0.6975,-0.003208018685010804,-0.7820732549999921,-0.0019080442450062325,-2.352162974999987,0.001212669075003578,1.5681535249999912,0.7842503749999944,0.04,0.039999936,-9.824383850000006,-0.0008707605301828832,-0.01270773080002994,0.013542715400029244,-0.009336125059044506,0.011156461475024124
0.7000000000000001,-0.003247583000011566,-0.7820444999999916,-0.0019308676000066717,-2.3521151999999863,0.00122577180000383,1.5681205999999905,0.784229899999994,0.04,0.039999936,-9.824405000000011,-0.0006859730928577045,-0.012817370000032446,0.013649807000030392,-0.009304012171914865,0.011244803000025049
0.7025,-0.0032892729200114604,-0.7820142749999918,-0.001954916665006611,-2.3520648449999864,0.001239577380003795,1.5680859499999906,0.7842083149999941,0.03999999925,0.0399999351,-9.82444250000001,-0.00048449169838849274,-0.01293432545003215,0.013759361000030116,-0.009270724141961105,0.011335099400024822
0.705,-0.0033309628400113554,-0.7819840499999918,-0.0019789657300065505,-2.3520144899999864,0.0012533829600037602,1.5680512999999907,0.7841867299999942,0.0399999985,0.039999934200000004,-9.82448000000001,-0.00028301030391928095,-0.013051280900031857,0.01386891500002984,-0.009237436112007344,0.011425395800024595
0.7075,-0.003372652760011252,-0.7819538249999919,-0.0020030147950064908,-2.3519641349999865,0.001267188540003726,1.5680166499999908,0.7841651449999941,0.03999999775,0.0399999333,-9.82451750000001,-8.152890945006027e-05,-0.013168236350031566,0.013978469000029569,-0.009204148082053581,0.011515692200024371
0.71,-0.003414342680011147,-0.781923599999992,-0.00202706386000643,-2.3519137799999865,0.0012809941200036914,1.5679819999999907,0.7841435599999942,0.039999997,0.0399999324,-9.82455500000001,0.00011995248501915157,-0.01328519180003127,0.014088023000029292,-0.00917086005209982,0.011605988600024143
0.7125,-0.003456032600011044,-0.781893374999992,-0.0020511129250063704,-2.3518634249999866,0.0012947997000036572,1.5679473499999907,0.7841219749999943,0.03999999625,0.0399999315,-9.82459250000001,0.0003214338794883723,-0.013402147250030982,0.01419757700002902,-0.009137572022146058,0.011696285000023919
0.715,-0.003497722520010939,-0.7818631499999921,-0.00207516199000631,-2.351813069999987,0.0013086052800036223,1.5679126999999908,0.7841003899999943,0.0399999955,0.039999930600000004,-9.82463000000001,0.000522915273957584,-0.013519102700030686,0.014307131000028743,-0.009104283992192297,0.011786581400023692
0.7175,-0.00354013675001145,-0.7818324174999917,-0.0020996286100066048,-2.3517618299999863,0.0013226503650037914,1.5678774449999904,0.784078432499994,0.03999999525,0.039999930100000004,-9.824669700000012,0.0007304609753763979,-0.01363759177503173,0.01441749295002923,-0.009070651698848521,0.01187764390002417
0.72,-0.003583999600011489,-0.7818006699999916,-0.002124930340006627,-2.351708819999986,0.0013371744600038044,1.5678409799999904,0.784055729999994,0.039999996,0.0399999304,-9.824713800000012,0.000950135290680158,-0.013759148100031838,0.014529470800029328,-0.009036330878725532,0.011970238600024254
0.7225,-0.0036278624500115297,-0.7817689224999916,-0.002150232070006651,-2.3516558099999862,0.0013516985550038178,1.5678045149999904,0.7840330274999939,0.03999999675,0.039999930700000005,-9.824757900000012,0.001169809605983928,-0.013880704425031951,0.014641448650029434,-0.009002010058602539,0.012062833300024339
0.725,-0.003671725300011569,-0.7817371749999916,-0.002175533800006673,-2.351602799999986,0.0013662226500038308,1.5677680499999904,0.784010324999994,0.0399999975,0.039999931,-9.824802000000012,0.001389483921287688,-0.01400226075003206,0.014753426500029533,-0.008967689238479548,0.01215542800002442
0.7275,-0.0037155881500116096,-0.7817054274999915,-0.002200835530006697,-2.3515497899999858,0.0013807467450038442,1.5677315849999902,0.783987622499994,0.03999999825,0.0399999313,-9.824846100000011,0.0016091582365914577,-0.014123817075032172,0.014865404350029638,-0.008933368418356557,0.012248022700024508
0.73,-0.0037594510000116487,-0.7816736799999915,-0.0022261372600067193,-2.351496779999986,0.0013952708400038572,1.5676951199999902,0.783964919999994,0.039999999,0.039999931600000004,-9.824890200000011,0.001828832551895218,-0.01424537340003228,0.014977382200029737,-0.008899047598233565,0.01234061740002459
0.7325,-0.0038033138500116895,-0.7816419324999915,-0.002251438990006743,-2.3514437699999857,0.0014097949350038706,1.5676586549999902,0.7839422174999939,0.03999999975,0.0399999319,-9.824934300000011,0.002048506867198988,-0.014366929725032394,0.015089360050029843,-0.008864726778110574,0.012433212100024677
0.735,-0.003848656020012322,-0.7816091589999911,-0.0022775938500071073,-2.351388929999985,0.0014248081800040798,1.5676209299999897,0.7839187449999936,0.04,0.0399999313,-9.824977000000011,0.0022782208398611347,-0.01449573545003541,0.015202859300030552,-0.008829795755436458,0.012526898600025196
0.7375,-0.003894737850012365,-0.781575872499991,-0.002304175275007132,-2.351333174999985,0.001440066000004094,1.5675825749999897,0.7838948874999936,0.04,0.03999993025,-9.825019000000012,0.0025129546411964583,-0.014628165875035534,0.015317119250030658,-0.008794559631487146,0.012621131000025284
0.74,-0.003940819680012406,-0.781542585999991,-0.0023307567000071558,-2.351277419999985,0.0014553238200041075,1.5675442199999896,0.7838710299999936,0.04,0.0399999292,-9.825061000000012,0.002747688442531772,-0.014760596300035652,0.01543137920003076,-0.008759323507537834,0.012715363400025367
0.7425,-0.003986901510012448,-0.781509299499991,-0.0023573381250071804,-2.351221664999985,0.0014705816400041218,1.5675058649999896,0.7838471724999936,0.04,0.03999992815,-9.825103000000011,0.002982422243867096,-0.014893026725035775,0.015545639150030866,-0.008724087383588522,0.012809595800025456
0.745,-0.00403298334001249,-0.7814760129999909,-0.0023839195500072042,-2.351165909999985,0.0014858394600041353,1.5674675099999897,0.7838233149999936,0.04,0.0399999271,-9.825145000000012,0.003217156045202409,-0.015025457150035892,0.015659899100030968,-0.00868885125963921,0.012903828200025539
0.7475,-0.0040790651700125325,-0.7814427264999909,-0.002410500975007229,-2.351110154999985,0.0015010972800041495,1.5674291549999897,0.7837994574999935,0.04,0.03999992605,-9.825187000000012,0.0034518898465377332,-0.015157887575036017,0.015774159050031076,-0.008653615135689897,0.012998060600025627
0.75,-0.004125147000013191,-0.7814094399999905,-0.0024370824000076088,-2.3510543999999842,0.0015163551000043675,1.5673907999999892,0.7837755999999932,0.04,0.039999925,-9.825229000000009,0.003686623647880138,-0.01529031800003721,0.015888419000031823,-0.008618379011740396,0.013092293000026218
0.7525000000000001,-0.004173493200013401,-0.7813745799999904,-0.00246496941000773,-2.350995899999984,0.001532361585004437,1.567350614999989,0.7837505799999931,0.04,0.03999992575,-9.82526170000001,0.003947346657586805,-0.015426695300037803,0.01600505165003233,-0.008582447469224486,0.013188387200026637
0.755,-0.004221839400013609,-0.7813397199999902,-0.00249285642000785,-2.350937399999984,0.0015483680700045057,1.5673104299999887,0.7837255599999929,0.04,0.0399999265,-9.82529440000001,0.004208069667293461,-0.01556307260003839,0.016121684300032833,-0.008546515926708576,0.013284481400027049
0.7575000000000001,-0.004270185600013819,-0.78130485999999,-0.002520743430007971,-2.3508788999999832,0.0015643745550045752,1.5672702449999885,0.7837005399999929,0.04,0.03999992725,-9.82532710000001,0.004468792677000129,-0.01569944990003898,0.016238316950033336,-0.008510584384192665,0.013380575600027467
0.76,-0.004318531800014027,-0.7812699999999899,-0.002548630440008091,-2.350820399999983,0.001580381040004644,1.5672300599999884,0.7836755199999927,0.04,0.039999928000000004,-9.82535980000001,0.004729515686706784,-0.01583582720003957,0.01635494960003384,-0.008474652841676755,0.013476669800027881
0.7625000000000001,-0.004366878000014237,-0.7812351399999897,-0.002576517450008212,-2.350761899999983,0.0015963875250047134,1.5671898749999882,0.7836504999999926,0.04,0.039999928750000004,-9.82539250000001,0.004990238696413452,-0.01597220450004016,0.016471582250034346,-0.008438721299160845,0.013572764000028298
0.765,-0.004415224200014445,-0.7812002799999895,-0.002604404460008332,-2.3507033999999822,0.0016123940100047822,1.567149689999988,0.7836254799999925,0.04,0.0399999295,-9.82542520000001,0.005250961706120108,-0.016108581800040746,0.016588214900034846,-0.008402789756644935,0.013668858200028711
0.7675000000000001,-0.004464339800015239,-0.781164889999989,-0.0026327351250087904,-2.3506439299999813,0.001628654930005045,1.5671088599999874,0.7836000649999921,0.04,0.0399999295,-9.825461500000014,0.005513139162292275,-0.01624794280004372,0.01670559455003576,-0.0083664798177667,0.013765630350029522
0.77,-0.004514994200015112,-0.7811284399999892,-0.0026619531000087165,-2.3505825199999815,0.0016454247200050028,1.5670667399999874,0.7835738599999922,0.04,0.039999928000000004,-9.825505000000014,0.005778225511391481,-0.016393271200043354,0.016824468200035463,-0.008329413086164843,0.013863758400029274
0.7725,-0.004565648600014983,-0.7810919899999892,-0.002691171075008643,-2.3505211099999817,0.0016621945100049604,1.5670246199999875,0.7835476549999922,0.04,0.039999926500000005,-9.825548500000012,0.006043311860490687,-0.01653859960004299,0.01694334185003516,-0.008292346354562986,0.013961886450029026
0.775,-0.004616303000014858,-0.7810555399999893,-0.0027203890500085703,-2.350459699999982,0.001678964300004919,1.5669824999999875,0.7835214499999923,0.04,0.039999925,-9.825592000000013,0.006308398209589905,-0.016683928000042626,0.01706221550003487,-0.008255279622961128,0.014060014500028783
0.7775,-0.00466695740001473,-0.7810190899999894,-0.002749607025008497,-2.350398289999982,0.0016957340900048768,1.5669403799999877,0.7834952449999923,0.04,0.0399999235,-9.825635500000013,0.0065734845586891116,-0.01682925640004226,0.017181089150034568,-0.008218212891359272,0.014158142550028535
0.78,-0.004717611800014604,-0.7809826399999895,-0.002778825000008424,-2.3503368799999826,0.001712503880004835,1.5668982599999879,0.7834690399999925,0.04,0.039999922,-9.825679000000013,0.006838570907788329,-0.0169745848000419,0.017299962800034274,-0.008181146159757412,0.014256270600028292
0.7825,-0.0047682662000144765,-0.7809461899999895,-0.0028080429750083507,-2.350275469999983,0.0017292736700047929,1.5668561399999879,0.7834428349999926,0.04,0.0399999205,-9.825722500000012,0.007103657256887536,-0.017119913200041532,0.017418836450033975,-0.008144079428155556,0.014354398650028044
0.785,-0.004820488400015138,-0.7809086359999892,-0.002838164870008732,-2.3502121599999817,0.0017465617200050115,1.5668127099999873,0.7834158099999922,0.04,0.039999919700000004,-9.825755700000009,0.007385668903672127,-0.017268415600042865,0.017539120600034555,-0.008106310944993334,0.01445375720002855
0.7875,-0.0048734945000151846,-0.7808705299999891,-0.0028687387250087588,-2.350147899999982,0.001764108900005027,1.5667686249999873,0.7833883749999921,0.04,0.03999991925,-9.825783750000008,0.00767614319928854,-0.017418505000042998,0.017660110000034663,-0.00806819158605138,0.01455373100002864
0.79,-0.004926500600015234,-0.7808324239999891,-0.0028993125800087873,-2.3500836399999816,0.0017816560800050433,1.5667245399999872,0.7833609399999921,0.04,0.0399999188,-9.82581180000001,0.007966617494904966,-0.017568594400043137,0.017781099400034774,-0.008030072227109424,0.014653704800028734
0.7925,-0.004979506700015282,-0.780794317999989,-0.0029298864350088146,-2.350019379999982,0.0017992032600050588,1.5666804549999873,0.7833335049999921,0.04,0.039999918350000004,-9.825839850000008,0.008257091790521379,-0.01771868380004327,0.017902088800034882,-0.00799195286816747,0.014753678600028823
0.795,-0.005032512800015331,-0.780756211999989,-0.002960460290008843,-2.3499551199999815,0.0018167504400050751,1.5666363699999872,0.7833060699999921,0.04,0.0399999179,-9.82586790000001,0.008547566086137805,-0.01786877320004341,0.018023078200034997,-0.007953833509225515,0.014853652400028916
0.7975,-0.005085518900015378,-0.780718105999989,-0.00299103414500887,-2.3498908599999813,0.0018342976200050908,1.5665922849999872,0.7832786349999921,0.04,0.039999917450000005,-9.825895950000008,0.008838040381754219,-0.018018862600043543,0.018144067600035105,-0.00791571415028356,0.014953626200029005
0.8,-0.005138525000016124,-0.7806799999999885,-0.0030216080000093,-2.3498265999999806,0.0018518448000053374,1.5665481999999866,0.7832511999999917,0.04,0.039999917,-9.825924000000011,0.009128514677376257,-0.0181689520000465,0.01826505700003584,-0.007877594791341383,0.015053600000029631
0.8025,-0.005193924350016173,-0.7806402349999885,-0.0030535620350093285,-2.3497594299999807,0.0018701835750053537,1.5665021349999866,0.7832225499999916,0.03999999925,0.039999915350000005,-9.825959700000011,0.009438273776412981,-0.01832871385004664,0.01838819110003595,-0.007838712958607599,0.015155403800029721
0.805,-0.005249323700016225,-0.7806004699999883,-0.0030855160700093585,-2.3496922599999803,0.001888522350005371,1.5664560699999865,0.7831938999999917,0.0399999985,0.0399999137,-9.82599540000001,0.00974803287544972,-0.01848847570004679,0.018511325200036063,-0.007799831125873812,0.015257207600029816
0.8075,-0.005304723050016274,-0.7805607049999883,-0.003117470105009387,-2.3496250899999804,0.0019068611250053873,1.5664100049999865,0.7831652499999916,0.03999999775,0.03999991205,-9.82603110000001,0.010057791974486446,-0.01864823755004693,0.018634459300036172,-0.0077609492931400275,0.015359011400029906
0.81,-0.005360122400016326,-0.7805209399999883,-0.003149424140009417,-2.3495579199999805,0.0019251999000054045,1.5663639399999865,0.7831365999999915,0.039999997,0.039999910400000005,-9.82606680000001,0.010367551073523185,-0.01880799940004708,0.01875759340003629,-0.007722067460406242,0.01546081520003
0.8125,-0.005415521750016376,-0.7804811749999883,-0.003181378175009445,-2.34949074999998,0.0019435386750054208,1.5663178749999864,0.7831079499999916,0.03999999625,0.03999990875,-9.82610250000001,0.01067731017255991,-0.018967761250047222,0.018880727500036398,-0.007683185627672457,0.01556261900003009
0.8150000000000001,-0.0054709211000164275,-0.7804414099999882,-0.003213332210009475,-2.3494235799999803,0.0019618774500054378,1.5662718099999864,0.7830792999999915,0.0399999955,0.0399999071,-9.826138200000011,0.010987069271596648,-0.01912752310004737,0.01900386160003651,-0.00764430379493867,0.015664422800030185
0.8175,-0.005527131785017201,-0.7804010699999877,-0.0032457541350099208,-2.3493553999999794,0.0019804844550056935,1.5662250749999858,0.7830502249999911,0.03999999465,0.03999990545,-9.826176750000013,0.011303082481124273,-0.019289883550049833,0.019127680050037232,-0.007605245639558288,0.015766799100030787
0.8200000000000001,-0.005584965140017255,-0.7803595799999876,-0.003279111840009952,-2.3492851999999793,0.0019996279200057113,1.5661769999999857,0.783020299999991,0.039999993600000006,0.0399999038,-9.826221000000013,0.011631603911616991,-0.01945744120004999,0.019252867200037348,-0.007565834838885182,0.015870320400030884
0.8225,-0.005642798495017306,-0.7803180899999875,-0.0033124695450099818,-2.349214999999979,0.002018771385005728,1.5661289249999857,0.782990374999991,0.03999999255,0.03999990215,-9.826265250000013,0.011960125342109692,-0.019624998850050136,0.01937805435003746,-0.007526424038212077,0.015973841700030977
0.8250000000000001,-0.00570063185001736,-0.7802765999999876,-0.0033458272500100127,-2.349144799999979,0.0020379148500057464,1.5660808499999856,0.782960449999991,0.0399999915,0.0399999005,-9.826309500000013,0.01228864677260241,-0.019792556500050292,0.01950324150003758,-0.00748701323753897,0.016077363000031073
0.8275,-0.005758465205017411,-0.7802351099999875,-0.0033791849550100423,-2.349074599999979,0.0020570583150057633,1.5660327749999856,0.7829305249999909,0.03999999045,0.03999989885,-9.826353750000013,0.012617168203095112,-0.019960114150050442,0.019628428650037687,-0.007447602436865866,0.016180884300031163
0.8300000000000001,-0.005816298560017465,-0.7801936199999875,-0.0034125426600100737,-2.349004399999979,0.002076201780005781,1.5659846999999856,0.782900599999991,0.0399999894,0.0399998972,-9.826398000000014,0.012945689633587828,-0.0201276718000506,0.019753615800037806,-0.007408191636192759,0.01628440560003126
0.8325,-0.005874131915017516,-0.7801521299999874,-0.0034459003650101033,-2.3489341999999787,0.002095345245005798,1.5659366249999855,0.7828706749999909,0.03999998835,0.03999989555,-9.826442250000014,0.01327421106408053,-0.020295229450050748,0.019878802950037917,-0.007368780835519654,0.016387926900031352
0.835,-0.005933614660018319,-0.7801094799999868,-0.003480209110010566,-2.3488620199999777,0.0021150339900060633,1.5658871599999848,0.7828398899999904,0.0399999882,0.0399998955,-9.826472600000006,0.013613961450860478,-0.020468308700053412,0.02000535830003865,-0.00732864709569768,0.016492435700031893
0.8375,-0.005993922100018375,-0.7800662499999867,-0.0035149933750105986,-2.348788849999978,0.002134995375006082,1.5658369999999848,0.7828086749999905,0.0399999885,0.03999989625,-9.826496000000008,0.013959326315776404,-0.020644148750053576,0.02013259775003877,-0.007288151886301762,0.016597438250031994
