rsonawane2002/My_IMU/logs_2/traj_453/imu_400hz_453.csv
time,j1,j2,j3,j4,j5,j6,j7,gripper1,gripper2,imu_ax,imu_ay,imu_az,imu_gx,imu_gy,imu_gz
0.0,0.00016700293,-0.785875,4.0107683e-05,-2.3551247,9.29385e-05,1.570997,0.786,0.04,0.04,-9.509448,0.033164344727993,0.12332259,-1.9256902e-07,-0.0011641276068985,-1.9146295e-07
0.0025,0.00016700467449999994,-0.7858577740000007,4.010736905000001e-05,-2.3551391899999996,9.294496739999974e-05,1.570996565,0.786,0.04,0.04,-9.558206549998049,0.028283837979156234,0.1061825955006859,-1.9556110299988027e-07,-0.0013252836302789209,1.073273074880431e-07
0.005,0.00016700641899999985,-0.7858405480000014,4.010705510000002e-05,-2.355153679999999,9.295143479999948e-05,1.57099613,0.786,0.04,0.04,-9.606965099996097,0.02340333123031947,0.0890426010013718,-1.9855318599976053e-07,-0.0014864396536593417,4.061175649760862e-07
0.0075,0.0001670081634999998,-0.785823322000002,4.010674115000004e-05,-2.3551681699999985,9.295790219999922e-05,1.5709956950000001,0.786,0.04,0.04,-9.655723649994147,0.018522824481482708,0.07190260650205771,-2.015452689996408e-07,-0.0016475956770397628,7.049078224641292e-07
0.01,0.00016700990799999973,-0.7858060960000027,4.010642720000005e-05,-2.355182659999998,9.296436959999896e-05,1.5709952600000001,0.786,0.04,0.04,-9.704482199992196,0.013642317732645948,0.05476261200274361,-2.0453735199952104e-07,-0.0018087517004201836,1.0036980799521723e-06
0.0125,0.00016701165249999965,-0.7857888700000035,4.010611325000006e-05,-2.3551971499999973,9.297083699999871e-05,1.570994825,0.786,0.04,0.04,-9.753240749990244,0.008761810983809182,0.03762261750342952,-2.075294349994013e-07,-0.0019699077238006044,1.3024883374402153e-06
0.015,0.0001670133969999996,-0.7857716440000042,4.010579930000007e-05,-2.3552116399999967,9.297730439999845e-05,1.57099439,0.786,0.04,0.04,-9.801999299988292,0.003881304234972422,0.020482623004115436,-2.1052151799928157e-07,-0.0021310637471810253,1.6012785949282582e-06
0.0175,0.0001670181474999972,-0.7857548670000042,4.010235425000254e-05,-2.3552257349999968,9.298624749999636e-05,1.5709939600000002,0.786,0.04,0.04,-9.83440310000008,0.0006277190608669824,0.00897862483506077,-2.7015018295471116e-07,-0.002287794684486825,2.1003974447643184e-06
0.02,0.00016702890999999734,-0.785738988000004,4.00926470000024e-05,-2.3552390399999967,9.300014199999657e-05,1.5709935400000001,0.786,0.04,0.04,-9.834097400000076,0.0006279770401305361,0.008746619340057394,-4.4305201195722715e-07,-0.002435675449632757,3.000173479777411e-06
0.0225,0.00016703967249999751,-0.7857231090000037,4.008293975000226e-05,-2.355252344999997,9.301403649999677e-05,1.57099312,0.786,0.04,0.04,-9.833791700000072,0.0006282350193940898,0.008514613845054019,-6.159538409597431e-07,-0.0025835562147786886,3.899949514790504e-06
0.025,0.00016705043499999766,-0.7857072300000035,4.007323250000212e-05,-2.355265649999997,9.302793099999697e-05,1.5709927000000001,0.786,0.04,0.04,-9.833486000000066,0.0006284929986576437,0.008282608350050642,-7.888556699622594e-07,-0.002731436979924621,4.799725549803598e-06
0.0275,0.0001670611974999978,-0.7856913510000033,4.006352525000198e-05,-2.355278954999997,9.304182549999717e-05,1.57099228,0.786,0.04,0.04,-9.833180300000063,0.0006287509779211974,0.008050602855047266,-9.617574989647752e-07,-0.0028793177450705527,5.6995015848166914e-06
0.03,0.00016707195999999795,-0.785675472000003,4.005381800000184e-05,-2.3552922599999975,9.305571999999738e-05,1.5709918600000001,0.786,0.04,0.04,-9.832874600000057,0.0006290089571847512,0.00781859736004389,-1.1346593279672914e-06,-0.0030271985102164846,6.599277619829785e-06
0.0325,0.00016708272249999813,-0.7856595930000028,4.00441107500017e-05,-2.3553055649999974,9.306961449999757e-05,1.57099144,0.786,0.04,0.04,-9.832568900000053,0.0006292669364483049,0.007586591865040513,-1.3075611569698075e-06,-0.003175079275362417,7.499053654842879e-06
0.035,0.00016710927899999387,-0.7856445730000027,4.0017928500006136e-05,-2.3553180999999976,9.309690439999395e-05,1.57099101,0.786,0.04,0.04,-9.832249300000058,0.0006283291033471338,0.007377147630035325,-1.5904896599397586e-06,-0.003314795298477642,9.245398799613243e-06
0.0375,0.0001671437324999934,-0.7856299825000028,3.998350875000657e-05,-2.3553302499999975,9.31308919999935e-05,1.5709905750000002,0.786,0.04,0.04,-9.831922750000063,0.0006267933640631433,0.007178984025037849,-1.928431499935455e-06,-0.0034504289505743945,1.1415028499585614e-05
0.04,0.00016717818599999297,-0.785615392000003,3.994908900000701e-05,-2.3553423999999974,9.316487959999308e-05,1.5709901400000001,0.786,0.04,0.04,-9.831596200000066,0.0006252576247791528,0.006980820420040372,-2.266373339931152e-06,-0.003586062602671148,1.358465819955799e-05
0.0425,0.00016721263949999254,-0.7856008015000031,3.991466925000745e-05,-2.3553545499999973,9.319886719999264e-05,1.5709897050000001,0.786,0.04,0.04,-9.83126965000007,0.0006237218854951625,0.006782656815042894,-2.6043151799268496e-06,-0.003721696254767901,1.5754287899530366e-05
0.045,0.0001672470929999921,-0.7855862110000034,3.9880249500007884e-05,-2.355366699999997,9.323285479999221e-05,1.57098927,0.786,0.04,0.04,-9.830943100000075,0.000622186146211172,0.006584493210045418,-2.9422570199225457e-06,-0.0038573299068646537,1.7923917599502737e-05
0.0475,0.00016728154649999166,-0.7855716205000035,3.984582975000832e-05,-2.355378849999997,9.326684239999177e-05,1.570988835,0.786,0.04,0.04,-9.830616550000078,0.0006206504069271816,0.006386329605047941,-3.280198859918243e-06,-0.003992963558961407,2.0093547299475114e-05
0.05,0.00016731599999999123,-0.7855570300000037,3.9811410000008765e-05,-2.355390999999997,9.330082999999133e-05,1.5709884,0.786,0.04,0.04,-9.830290000000083,0.0006191146676431911,0.006188166000050464,-3.6181406999139406e-06,-0.00412859721105816,2.2263176999447488e-05
0.0525,0.00016739504549997887,-0.7855436155000036,3.9730342950021674e-05,-2.355402159999997,9.337553899998002e-05,1.5709879800000002,0.786,0.04,0.03999999925,-9.830047075000065,0.0006198977818709956,0.00597432532505718,-4.334220044808526e-06,-0.004251813003760398,2.668346234881805e-05
0.055,0.00016747409099997787,-0.7855302010000038,3.964927590002271e-05,-2.3554133199999967,9.345024799997907e-05,1.57098756,0.786,0.04,0.0399999985,-9.829804150000069,0.0006206808960993906,0.005760484650059902,-5.050299389799409e-06,-0.004375028796459474,3.110374769876177e-05
0.0575,0.00016755313649997685,-0.7855167865000039,3.956820885002374e-05,-2.355424479999997,9.352495699997812e-05,1.5709871400000002,0.786,0.04,0.03999999775,-9.82956122500007,0.0006214640103277857,0.005546643975062625,-5.766378734790292e-06,-0.00449824458915855,3.552403304870549e-05
0.06,0.00016763218199997585,-0.7855033720000041,3.9487141800024776e-05,-2.3554356399999965,9.359966599997717e-05,1.57098672,0.786,0.04,0.039999997,-9.829318300000073,0.0006222471245561807,0.005332803300065348,-6.482458079781172e-06,-0.004621460381857626,3.99443183986492e-05
0.0625,0.00016771122749997483,-0.7854899575000043,3.9406074750025805e-05,-2.3554467999999966,9.36743749999762e-05,1.5709863000000002,0.786,0.04,0.03999999625,-9.829075375000077,0.0006230302387845757,0.0051189626250680706,-7.198537424772056e-06,-0.004744676174556702,4.436460374859292e-05
0.065,0.00016779027299997383,-0.7854765430000045,3.932500770002684e-05,-2.3554579599999963,9.374908399997526e-05,1.57098588,0.786,0.04,0.0399999955,-9.82883245000008,0.0006238133530129707,0.004905121950070793,-7.914616769762938e-06,-0.004867891967255778,4.878488909853664e-05
0.0675,0.00016789303499994837,-0.7854635000000043,3.92190943500535e-05,-2.3554687849999962,9.384449269995296e-05,1.5709854550000002,0.786,0.04,0.039999995,-9.828584825000087,0.0006237058289122593,0.004700166310064352,-8.77003604961011e-06,-0.004987348709216941,5.396166269770015e-05
0.07,0.00016804322999994646,-0.7854512000000045,3.906348840005548e-05,-2.3554789399999962,9.398130079995122e-05,1.5709850200000002,0.786,0.04,0.039999995,-9.82832780000009,0.0006218170281506133,0.004512980740066735,-9.904135199595672e-06,-0.005099287349690791,6.065141279761497e-05
0.0725,0.00016819342499994455,-0.7854389000000046,3.890788245005746e-05,-2.3554890949999963,9.411810889994948e-05,1.5709845850000002,0.786,0.04,0.039999995,-9.828070775000095,0.0006199282273889674,0.00432579517006912,-1.1038234349581226e-05,-0.00521122599016464,6.734116289752977e-05
0.075,0.00016834361999994263,-0.7854266000000047,3.875227650005944e-05,-2.3554992499999963,9.425491699994773e-05,1.5709841500000001,0.786,0.04,0.039999995,-9.827813750000098,0.0006180394266273215,0.004138609600071503,-1.2172333499566787e-05,-0.00532316463063849,7.40309129974446e-05
0.0775,0.00016849381499994072,-0.7854143000000049,3.859667055006142e-05,-2.3555094049999963,9.4391725099946e-05,1.5709837150000001,0.786,0.04,0.039999995,-9.827556725000102,0.0006161506258656755,0.003951424030073886,-1.3306432649552346e-05,-0.00543510327111234,8.072066309735941e-05
0.08,0.0001686440099999388,-0.785402000000005,3.8441064600063404e-05,-2.355519559999996,9.452853319994425e-05,1.5709832800000003,0.786,0.04,0.039999995,-9.827299700000104,0.0006142618251040295,0.0037642384600762692,-1.4440531799537907e-05,-0.00554704191158619,8.741041319727425e-05
0.0825,0.0001687942049999369,-0.7853897000000052,3.828545865006538e-05,-2.355529714999996,9.466534129994252e-05,1.5709828450000003,0.786,0.04,0.039999995,-9.827042675000108,0.0006123730243423836,0.003577052890078652,-1.5574630949523467e-05,-0.00565898055206004,9.410016329718907e-05
0.085,0.0001690128919998905,-0.7853781100000049,3.805798870011403e-05,-2.355539629999996,9.486121159990242e-05,1.5709824100000003,0.786,0.04,0.0399999955,-9.826779200000116,0.0006111496069937456,0.0033950705300776567,-1.7035867999296593e-05,-0.005763218086169391,0.00010268761399587158
0.08750000000000001,0.0001692658249998873,-0.785366875000005,3.779458675011738e-05,-2.3555494249999955,9.508661299989956e-05,1.5709819750000003,0.786,0.04,0.03999999625,-9.826512500000119,0.0006102588813522469,0.0032156897750799406,-1.8660673999275907e-05,-0.005863605067089138,0.00011222391499575016
0.09,0.00016951875799988406,-0.7853556400000051,3.753118480012074e-05,-2.3555592199999955,9.531201439989668e-05,1.5709815400000002,0.786,0.04,0.039999997,-9.826245800000123,0.0006093681557107482,0.003036309020082226,-2.028547999925521e-05,-0.005963992048008884,0.00012176021599562869
0.0925,0.00016977169099988083,-0.7853444050000054,3.7267782850124096e-05,-2.3555690149999955,9.553741579989381e-05,1.5709811050000002,0.786,0.04,0.03999999775,-9.825979100000126,0.0006084774300692496,0.00285692826508451,-2.191028599923452e-05,-0.006064379028928631,0.00013129651699550726
0.095,0.00017002462399987763,-0.7853331700000055,3.7004380900127445e-05,-2.355578809999995,9.576281719989094e-05,1.5709806700000002,0.786,0.04,0.0399999985,-9.82571240000013,0.000607586704427751,0.0026775475100867937,-2.3535091999213834e-05,-0.006164766009848378,0.00014083281799538586
0.0975,0.0001702775569998744,-0.7853219350000056,3.67409789501308e-05,-2.355588604999995,9.598821859988807e-05,1.5709802350000002,0.786,0.04,0.03999999925,-9.825445700000133,0.0006066959787862523,0.0024981667550890777,-2.5159897999193148e-05,-0.006265152990768124,0.00015036911899526446
0.1,0.00017053048999987117,-0.7853107000000058,3.647757700013416e-05,-2.355598399999995,9.62136199998852e-05,1.5709798000000001,0.786,0.04,0.04,-9.825179000000135,0.0006058052531447536,0.0023187860000913616,-2.678470399917246e-05,-0.006365539971687872,0.00015990541999514303
0.10250000000000001,0.0001709222194997955,-0.7853004250000054,3.606830935021366e-05,-2.355607279999995,9.656120299981855e-05,1.5709793800000003,0.786,0.04,0.04,-9.82496855000011,0.0006076265883156342,0.0021628054850814293,-2.896613239886119e-05,-0.006457388028454456,0.00017295122599318949
0.105,0.0001713139489997905,-0.7852901500000055,3.565904170021887e-05,-2.355616159999995,9.690878599981412e-05,1.5709789600000001,0.786,0.04,0.04,-9.824758100000112,0.000609447923487896,0.0020068249700834163,-3.11475607988334e-05,-0.006549236085216691,0.0001859970319930233
0.1075,0.00017170567849978551,-0.7852798750000056,3.5249774050224085e-05,-2.355625039999995,9.725636899980969e-05,1.5709785400000003,0.786,0.04,0.04,-9.824547650000115,0.0006112692586601578,0.001850844455085402,-3.332898919880563e-05,-0.006641084141978926,0.0001990428379928572
0.11,0.00017209740799978054,-0.7852696000000058,3.484050640022929e-05,-2.355633919999995,9.760395199980526e-05,1.5709781200000001,0.786,0.04,0.04,-9.824337200000118,0.0006130905938324196,0.001694863940087388,-3.5510417598777854e-05,-0.006732932198741162,0.0002120886439926911
0.1125,0.00017248913749977554,-0.785259325000006,3.4431238750234504e-05,-2.3556427999999947,9.795153499980083e-05,1.5709777000000003,0.786,0.04,0.04,-9.82412675000012,0.0006149119290046814,0.0015388834250893739,-3.769184599875008e-05,-0.006824780255503398,0.000225134449992525
0.115,0.00017288086699977055,-0.785249050000006,3.4021971100239717e-05,-2.3556516799999945,9.829911799979642e-05,1.5709772800000004,0.786,0.04,0.04,-9.823916300000123,0.0006167332641769433,0.0013829029100913598,-3.987327439872231e-05,-0.006916628312265633,0.00023818025599235893
0.11750000000000001,0.0001733322389996585,-0.7852390800000056,3.354996100035757e-05,-2.3556604849999947,9.869911849969789e-05,1.5709768500000003,0.786,0.04,0.04,-9.823700100000137,0.0006188957544492026,0.001219666648606372,-4.227380699830117e-05,-0.0070047548273094555,0.0002524396139900141
0.12,0.0001739028959996512,-0.7852297200000057,3.295246600036518e-05,-2.3556691399999945,9.920395399969145e-05,1.5709764000000004,0.786,0.04,0.04,-9.82347240000014,0.0006217405549232813,0.0010419188941086363,-4.511254799826501e-05,-0.007085438258896548,0.00026912607598980154
0.1225,0.00017447355299964396,-0.7852203600000058,3.235497100037279e-05,-2.3556777949999943,9.970878949968503e-05,1.5709759500000005,0.786,0.04,0.04,-9.823244700000142,0.0006245853553973601,0.0008641711396108994,-4.795128899822887e-05,-0.00716612169048364,0.00028581253798958906
0.125,0.0001750442099996367,-0.785211000000006,3.1757476000380396e-05,-2.3556864499999945,0.0001002136249996786,1.5709755000000003,0.786,0.04,0.04,-9.823017000000146,0.0006274301558714389,0.0006864233851131624,-5.0790029998192725e-05,-0.007246805122070733,0.0003024989999893766
0.1275,0.00017561486699962944,-0.785201640000006,3.1159981000388e-05,-2.3556951049999943,0.00010071846049967217,1.5709750500000004,0.786,0.04,0.04,-9.822789300000148,0.0006302749563455176,0.0005086756306154255,-5.362877099815658e-05,-0.007327488553657826,0.00031918546198916414
0.13,0.00017618552399962216,-0.7851922800000062,3.056248600039561e-05,-2.355703759999994,0.00010122329599966574,1.5709746000000004,0.786,0.04,0.04,-9.822561600000151,0.0006331197568195965,0.00033092787611768866,-5.646751199812044e-05,-0.0074081719852449185,0.0003358719239889517
0.1325,0.0001767561809996149,-0.7851829200000063,2.9964991000403215e-05,-2.355712414999994,0.00010172813149965932,1.5709741500000003,0.786,0.04,0.04,-9.822333900000153,0.0006359645572936752,0.00015318012161995168,-5.930625299808429e-05,-0.007488855416832012,0.00035255838598873923
0.135,0.00017747523799945458,-0.7851741700000058,2.921123740057198e-05,-2.3557204999999946,0.00010236399649951775,1.5709737000000004,0.786,0.04,0.04,-9.82215090000011,0.0006412277871231997,-1.1048043891728786e-05,-6.264524499753221e-05,-0.007564422674426851,0.0003720711289856119
0.1375,0.0001782684949994445,-0.7851657250000059,2.8379354500582573e-05,-2.3557282999999947,0.00010306537624950882,1.5709732500000004,0.786,0.04,0.04,-9.821990250000113,0.0006477002316341423,-0.00016851641488972393,-6.623436249748651e-05,-0.007637431845017746,0.00039299701248534546
0.14,0.00017906175199943437,-0.785157280000006,2.7547471600593164e-05,-2.3557360999999943,0.0001037667559994999,1.5709728000000003,0.786,0.04,0.04,-9.821829600000115,0.0006541726761450849,-0.000325984785887719,-6.982347999744081e-05,-0.007710441015608641,0.00041392289598507904
0.14250000000000002,0.00017985500899942428,-0.7851488350000061,2.6715588700603756e-05,-2.3557438999999945,0.00010446813574949096,1.5709723500000004,0.786,0.04,0.04,-9.821668950000117,0.0006606451206560276,-0.00048345315688571417,-7.341259749739512e-05,-0.007783450186199537,0.00043484877948481263
0.145,0.00018064826599941417,-0.7851403900000062,2.5883705800614357e-05,-2.355751699999994,0.00010516951549948202,1.5709719000000002,0.786,0.04,0.04,-9.821508300000119,0.00066711756516697,-0.0006409215278837076,-7.700171499734938e-05,-0.007856459356790432,0.000455774662984546
0.1475,0.00018144152299940408,-0.7851319450000063,2.505182290062495e-05,-2.3557594999999942,0.00010587089524947309,1.5709714500000003,0.786,0.04,0.04,-9.82134765000012,0.0006735900096779126,-0.0007983898988817026,-8.059083249730369e-05,-0.007929468527381326,0.0004767005464842796
0.15,0.00018223477999939396,-0.7851235000000064,2.421994000063554e-05,-2.3557672999999943,0.00010657227499946415,1.5709710000000003,0.786,0.04,0.04,-9.821187000000123,0.0006800624541888552,-0.0009558582698796979,-8.417994999725799e-05,-0.008002477697972223,0.0004976264299840132
0.1525,0.00018329749399920357,-0.7851159040000056,2.3104110100836232e-05,-2.3557748749999945,0.0001075123287492955,1.5709705050000002,0.786,0.04,0.04,-9.820908300000209,0.0006900760868954555,-0.0010938473393965874,-8.848433499677418e-05,-0.008064235839946397,0.0005230783204809257
0.155,0.00018436020799921903,-0.7851083080000055,2.198828020081999e-05,-2.3557824499999946,0.00010845238249930917,1.5709700100000004,0.786,0.04,0.04,-9.820629600000204,0.0007000897196047613,-0.0012318364088985956,-9.278871999683682e-05,-0.008125993981911975,0.0005485302109812961
0.1575,0.0001854229219992345,-0.7851007120000054,2.0872450300803755e-05,-2.355790024999995,0.00010939243624932287,1.5709695150000003,0.786,0.04,0.04,-9.8203509000002,0.0007101033523140669,-0.0013698254784006037,-9.709310499689947e-05,-0.008187752123877554,0.0005739821014816665
0.16,0.00018648563599924997,-0.7850931160000053,1.9756620400787518e-05,-2.355797599999995,0.00011033248999933654,1.5709690200000004,0.786,0.04,0.04,-9.820072200000197,0.0007201169850233727,-0.0015078145479026119,-0.0001013974899969621,-0.008249510265843134,0.0005994339919820369
0.1625,0.00018754834999926544,-0.7850855200000052,1.8640790500771278e-05,-2.3558051749999946,0.00011127254374935022,1.5709685250000003,0.786,0.04,0.04,-9.819793500000193,0.0007301306177326784,-0.00164580361740462,-0.00010570187499702474,-0.008311268407808712,0.0006248858824824073
0.165,0.0001886110639992809,-0.7850779240000051,1.7524960600755038e-05,-2.355812749999995,0.0001122125974993639,1.5709680300000004,0.786,0.04,0.04,-9.819514800000189,0.0007401442504419841,-0.0017837926869066281,-0.0001100062599970874,-0.00837302654977429,0.0006503377729827777
0.1675,0.00018978015399905994,-0.7850705970000046,1.6296972480988e-05,-2.355820304999995,0.00011324719599916753,1.5709673650000007,0.786,0.04,0.03999999975,-9.819278900000102,0.0007513076241501862,-0.0019275226398944097,-0.00011459089999649976,-0.008432138152383863,0.0006773428599795153
0.17,0.00019116199599900465,-0.7850638080000049,1.4844667921046117e-05,-2.3558278199999947,0.00011447088399911856,1.5709663600000008,0.786,0.04,0.039999999,-9.819128600000107,0.0007647704798630824,-0.002082734359888199,-0.00011973604999629387,-0.008485956676265534,0.0007074543399783103
0.17250000000000001,0.00019254383799894936,-0.7850570190000051,1.3392363361104233e-05,-2.3558353349999943,0.00011569457199906959,1.5709653550000007,0.786,0.04,0.03999999825,-9.818978300000115,0.0007782333355759787,-0.0022379460798819875,-0.00012488119999608797,-0.008539775200147206,0.0007375658199771053
0.17500000000000002,0.00019392567999889404,-0.7850502300000054,1.194005880116235e-05,-2.355842849999994,0.00011691825999902063,1.5709643500000008,0.786,0.04,0.0399999975,-9.81882800000012,0.000791696191288875,-0.0023931577998757766,-0.0001300263499958821,-0.008593593724028877,0.0007676772999759004
0.1775,0.00019530752199883874,-0.7850434410000058,1.0487754241220483e-05,-2.3558503649999936,0.00011814194799897163,1.570963345000001,0.786,0.04,0.03999999675,-9.818677700000126,0.0008051590470017711,-0.002548369519869564,-0.00013517149999567614,-0.008647412247910546,0.0007977887799746951
0.18,0.00019668936399878343,-0.785036652000006,9.0354496812786e-06,-2.355857879999993,0.00011936563599892267,1.570962340000001,0.786,0.04,0.039999996,-9.818527400000132,0.0008186219027146674,-0.0027035812398633527,-0.00014031664999547024,-0.008701230771792218,0.0008279002599734901
0.1825,0.00019807120599872813,-0.7850298630000063,7.583145121336716e-06,-2.355865394999993,0.0001205893239988737,1.570961335000001,0.786,0.04,0.03999999525,-9.818377100000138,0.0008320847584275637,-0.002858792959857142,-0.00014546179999526434,-0.008755049295673889,0.0008580117399722852
0.185,0.00019970057199831625,-0.7850236270000057,5.869803171770894e-06,-2.3558728599999927,0.00012203089299851084,1.570960330000001,0.786,0.04,0.0399999955,-9.818228900000141,0.0008478806936018388,-0.002999264479872166,-0.00015119205199421552,-0.008805239573074598,0.0008912369299665944
0.1875,0.0002014536999982461,-0.785017667500006,4.025942526844679e-06,-2.3558802999999924,0.0001235814024984488,1.5709593250000011,0.786,0.04,0.03999999625,-9.818081750000147,0.000864843168511705,-0.0031323658998668397,-0.00015721485499397452,-0.008853615727227203,0.0009260189749652026
0.19,0.00020320682799817596,-0.7850117080000062,2.1820818819184646e-06,-2.355887739999992,0.00012513191199838675,1.570958320000001,0.786,0.04,0.039999997,-9.817934600000154,0.0008818056434215713,-0.0032654673198615133,-0.0001632376579937335,-0.008901991881379806,0.0009608010199638106
0.1925,0.0002049599559981058,-0.7850057485000065,3.382212369922499e-07,-2.3558951799999917,0.0001266824214983247,1.5709573150000011,0.786,0.04,0.03999999775,-9.817787450000159,0.0008987681183314374,-0.003398568739856187,-0.0001692604609934925,-0.00895036803553241,0.0009955830649624189
0.195,0.00020671308399803563,-0.7849997890000067,-1.5056394079339639e-06,-2.3559026199999917,0.00012823293099826266,1.570956310000001,0.786,0.04,0.0399999985,-9.817640300000166,0.0009157305932413036,-0.0035316701598508606,-0.00017528326399325148,-0.008998744189685015,0.001030365109961027
0.1975,0.0002084662119979655,-0.784993829500007,-3.3495000528601794e-06,-2.3559100599999914,0.00012978344049820062,1.5709553050000011,0.786,0.04,0.03999999925,-9.817493150000171,0.0009326930681511699,-0.0036647715798455343,-0.00018130606699301048,-0.009047120343837619,0.001065147154959635
0.2,0.00021021933999789533,-0.7849878700000071,-5.193360697786393e-06,-2.355917499999991,0.00013133394999813856,1.570954300000001,0.786,0.04,0.04,-9.817346000000176,0.0009496555430610361,-0.003797872999840208,-0.00018732886999276946,-0.009095496497990224,0.0010999291999582432
0.2025,0.0002123979849974162,-0.7849826755000062,-7.486200592280747e-06,-2.355924774999991,0.00013325984199771593,1.570953265000001,0.786,0.03999999925,0.04,-9.817185200000191,0.0009728571225147535,-0.003940391959830976,-0.0001942192309918282,-0.00913604088122804,0.0011398160599526952
0.20500000000000002,0.0002145766299974479,-0.7849774810000061,-9.779040487314116e-06,-2.3559320499999914,0.00013518573399774397,1.5709522300000012,0.786,0.0399999985,0.04,-9.81702440000019,0.000996058701975961,-0.00408291091983305,-0.00020110959199192848,-0.009176585264456456,0.0011797029199532756
0.20750000000000002,0.0002167552749974796,-0.7849722865000061,-1.2071880382347481e-05,-2.3559393249999916,0.000137111625997772,1.5709511950000012,0.786,0.03999999775,0.04,-9.816863600000186,0.0010192602814371688,-0.004225429879835124,-0.00020799995299202874,-0.00921712964768487,0.0012195897799538561
0.21,0.0002189339199975113,-0.7849670920000059,-1.4364720277380825e-05,-2.355946599999992,0.00013903751799779999,1.5709501600000013,0.786,0.039999997,0.04,-9.816702800000185,0.0010424618608983762,-0.004367948839837196,-0.00021489031399212895,-0.009257674030913285,0.001259476639954436
0.2125,0.00022111256499754298,-0.7849618975000059,-1.6657560172414192e-05,-2.355953874999992,0.00014096340999782803,1.5709491250000012,0.786,0.03999999625,0.04,-9.816542000000181,0.0010656634403595838,-0.004510467799839271,-0.00022178067499222922,-0.0092982184141417,0.0012993634999550166
0.215,0.0002232912099975747,-0.7849567030000058,-1.895040006744756e-05,-2.3559611499999917,0.00014288930199785605,1.5709480900000012,0.786,0.0399999955,0.04,-9.81638120000018,0.0010888650198207913,-0.004652986759841345,-0.0002286710359923295,-0.009338762797370115,0.001339250359955597
0.2175,0.00022563038899705307,-0.784951753000005,-2.141269849689691e-05,-2.355968434999992,0.0001449573009973943,1.5709470000000014,0.786,0.039999994750000004,0.03999999975,-9.816212550000204,0.001114977896178068,-0.0047913894148558026,-0.00023588837949128046,-0.009376579150521662,0.0013809403099498225
0.22,0.0002282906359970192,-0.784947292000005,-2.4213913996861245e-05,-2.355975739999992,0.00014730951399736435,1.5709458000000014,0.786,0.039999994000000004,0.039999999,-9.816028200000206,0.0011469133663563964,-0.004921559459854145,-0.00024375968799118022,-0.00940893944349238,0.0014262364399492459
0.2225,0.00023095088299698535,-0.7849428310000051,-2.701512949682558e-05,-2.3559830449999914,0.0001496617269973344,1.5709446000000014,0.786,0.039999993250000004,0.03999999825,-9.815843850000208,0.0011788488365347249,-0.0050517295048524875,-0.00025163099649108,-0.009441299736463097,0.0014715325699486692
0.225,0.00023361112999695146,-0.7849383700000051,-2.9816344996789915e-05,-2.3559903499999915,0.00015201393999730444,1.5709434000000015,0.786,0.039999992500000005,0.0399999975,-9.81565950000021,0.0012107843067130533,-0.00518189954985083,-0.0002595023049909798,-0.009473660029433817,0.0015168286999480923
0.2275,0.0002362713769969176,-0.7849339090000051,-3.261756049675425e-05,-2.3559976549999915,0.0001543661529972745,1.5709422000000015,0.786,0.03999999175,0.03999999675,-9.815475150000212,0.0012427197768913817,-0.005312069594849173,-0.0002673736134908796,-0.009506020322404534,0.0015621248299475157
0.23,0.00023893162399688374,-0.7849294480000052,-3.541877599671859e-05,-2.3560049599999915,0.00015671836599724456,1.5709410000000015,0.786,0.039999991,0.039999996,-9.815290800000216,0.00127465524706971,-0.005442239639847516,-0.00027524492199077936,-0.009538380615375252,0.001607420959946939
0.2325,0.00024159187099684985,-0.7849249870000052,-3.821999149668292e-05,-2.356012264999991,0.0001590705789972146,1.5709398000000014,0.786,0.03999999025,0.03999999525,-9.815106450000219,0.0013065907172480384,-0.005572409684845858,-0.0002831162304906791,-0.00957074090834597,0.0016527170899463624
0.23500000000000001,0.0002446116479961705,-0.7849210400000044,-4.1400835995965694e-05,-2.356019659999991,0.00016174107699661324,1.5709383400000019,0.786,0.039999989799999996,0.039999994500000004,-9.814947000000176,0.0013426686287400797,-0.0057154466298211005,-0.0002916309399894238,-0.009598333481669018,0.0017016341899392848
0.23750000000000002,0.0002478111899961298,-0.7849173500000044,-4.477149499592278e-05,-2.3560270999999906,0.0001645707174965772,1.570936750000002,0.786,0.0399999895,0.039999993750000004,-9.814800000000178,0.001380817760900054,-0.005864917024819198,-0.0003004673499893113,-0.009623542195155481,0.0017523617749386389
0.24,0.000251010731996089,-0.7849136600000045,-4.814215399587983e-05,-2.3560345399999907,0.00016740035799654113,1.5709351600000019,0.786,0.0399999892,0.039999993000000005,-9.81465300000018,0.0014189668930600279,-0.006014387419817292,-0.00030930375998919866,-0.009648750908641946,0.0018030893599379923
0.2425,0.0002542102739960483,-0.7849099700000045,-5.1512812995836916e-05,-2.3560419799999908,0.0001702299984965051,1.570933570000002,0.786,0.0399999889,0.039999992250000005,-9.814506000000181,0.0014571160252200021,-0.00616385781481539,-0.0003181401699890862,-0.009673959622128409,0.0018538169449373466
0.245,0.00025740981599600753,-0.7849062800000046,-5.4883471995794e-05,-2.3560494199999904,0.00017305963899646908,1.570931980000002,0.786,0.0399999886,0.0399999915,-9.814359000000183,0.0014952651573799764,-0.006313328209813486,-0.0003269765799889737,-0.009699168335614874,0.0019045445299367006
0.2475,0.00026060935799596677,-0.7849025900000046,-5.8254130995751086e-05,-2.3560568599999905,0.00017588927949643306,1.570930390000002,0.786,0.0399999883,0.03999999075,-9.814212000000184,0.0015334142895399507,-0.006462798604811583,-0.0003358129899888612,-0.009724377049101337,0.0019552721149360547
0.25,0.00026380889999592607,-0.7848989000000046,-6.162478999570818e-05,-2.3560642999999906,0.00017871891999639704,1.570928800000002,0.786,0.039999988,0.03999999,-9.814065000000186,0.001571563421699925,-0.0066122689998096805,-0.00034464939998874865,-0.009749585762587802,0.0020059996999354087
0.2525,0.00026760673199511593,-0.7848959555000038,-6.562739149485255e-05,-2.3560717699999905,0.00018207838899567965,1.570927090000002,0.786,0.0399999868,0.0399999891,-9.81392535000018,0.001618783501847384,-0.006742085854833052,-0.00035451417398731365,-0.009769074385960606,0.002062285639927615
0.255,0.00027140456399506755,-0.7848930110000037,-6.96299929948016e-05,-2.3560792399999904,0.00018543785799563688,1.570925380000002,0.786,0.0399999856,0.0399999882,-9.813785700000182,0.0016660035820063926,-0.006871902709831399,-0.00036437894798718804,-0.009788563009326129,0.0021185715799268983
0.2575,0.0002752023959950192,-0.7848900665000038,-7.363259449475063e-05,-2.3560867099999903,0.00018879732699559408,1.5709236700000022,0.786,0.0399999844,0.039999987300000005,-9.813646050000182,0.0017132236621654013,-0.007001719564829746,-0.0003742437219870625,-0.00980805163269165,0.0021748575199261816
0.26,0.00027900022799497084,-0.7848871220000039,-7.763519599469968e-05,-2.35609417999999,0.00019215679599555131,1.5709219600000022,0.786,0.0399999832,0.0399999864,-9.813506400000184,0.0017604437423244103,-0.007131536419828093,-0.0003841084959869369,-0.009827540256057173,0.002231143459925465
0.2625,0.00028279805999492245,-0.7848841775000039,-8.16377974946487e-05,-2.35610164999999,0.00019551626499550854,1.5709202500000021,0.786,0.039999981999999996,0.0399999855,-9.813366750000187,0.001807663822483419,-0.007261353274826441,-0.00039397326998681127,-0.009847028879422693,0.0022874293999247484
0.265,0.0002865958919948741,-0.784881233000004,-8.564039899459775e-05,-2.35610911999999,0.00019887573399546578,1.5709185400000023,0.786,0.0399999808,0.0399999846,-9.813227100000189,0.0018548839026424277,-0.007391170129824788,-0.00040383804398668566,-0.009866517502788216,0.0023437153399240318
0.2675,0.0002906132019939287,-0.7848785315000031,-8.98748654935991e-05,-2.3561166299999896,0.00020242958249462852,1.570916680000003,0.7859999250000004,0.03999997985,0.0399999838,-9.813078500000227,0.0019052297865666055,-0.007523463914813011,-0.0004140377979851909,-0.00988342701455839,0.0024018889249156
0.27,0.00029506946799387197,-0.7848763160000031,-9.457306199353928e-05,-2.3561242199999897,0.00020637218999457833,1.570914520000003,0.7859997000000003,0.039999979399999996,0.039999983200000006,-9.812912000000228,0.00196182727805933,-0.007660711559811264,-0.00042490751198505253,-0.00989517830310634,0.002463837799914811
0.2725,0.00029952573399381525,-0.7848741005000031,-9.927125849347946e-05,-2.3561318099999893,0.00021031479749452812,1.570912360000003,0.7859994750000003,0.03999997895,0.039999982600000004,-9.812745500000231,0.0020184247695520545,-0.007797959204809517,-0.00043577722598491414,-0.00990692959165429,0.002525786674914022
0.275,0.0003039819999937585,-0.784871885000003,-0.00010396945499341964,-2.3561393999999893,0.00021425740499447793,1.570910200000003,0.7859992500000004,0.0399999785,0.039999982,-9.812579000000232,0.002075022261044779,-0.00793520684980777,-0.00044664693998477576,-0.009918680880202242,0.0025877355499132337
0.2775,0.00030843826599370175,-0.7848696695000031,-0.00010866765149335982,-2.3561469899999894,0.00021820001249442774,1.570908040000003,0.7859990250000004,0.039999978049999996,0.0399999814,-9.812412500000235,0.002131619752537503,-0.008072454494806022,-0.0004575166539846373,-0.009930432168750192,0.002649684424912445
0.28,0.000312894531993645,-0.7848674540000031,-0.0001133658479933,-2.356154579999989,0.00022214261999437755,1.570905880000003,0.7859988000000003,0.0399999776,0.0399999808,-9.812246000000236,0.0021882172440302276,-0.008209702139804275,-0.00046838636798449894,-0.009942183457298142,0.002711633299911656
0.28250000000000003,0.0003173507979935883,-0.7848652385000031,-0.0001180640444932402,-2.356162169999989,0.00022608522749432733,1.5709037200000031,0.7859985750000004,0.03999997715,0.0399999802,-9.81207950000024,0.002244814735522952,-0.008346949784802526,-0.00047925608198436055,-0.009953934745846093,0.0027735821749108676
0.28500000000000003,0.0003222866829924873,-0.7848635150000021,-0.00012326906699207686,-2.3561698299999887,0.00023045270099335206,1.5709014400000034,0.7859983100000004,0.0399999766,0.0399999797,-9.811920600000224,0.002309210062859108,-0.008474281699822369,-0.0004901769739841107,-0.009961569402358707,0.002839362759901736
0.28750000000000003,0.00032746237749242137,-0.7848620375000022,-0.00012872750249200734,-2.3561775249999886,0.00023503260749329377,1.5708991000000034,0.7859980250000005,0.039999976,0.03999997925,-9.811765500000227,0.0023775043081422985,-0.008596655749820811,-0.0005011234549839713,-0.009967145742840286,0.002907059199900874
0.29,0.0003326380719923554,-0.7848605600000021,-0.00013418593799193775,-2.3561852199999884,0.00023961251399323534,1.5708967600000034,0.7859977400000004,0.0399999754,0.039999978799999995,-9.811610400000228,0.0024457985534254876,-0.00871902979981925,-0.0005120699359838318,-0.009972722083321863,0.0029747556399000105
0.2925,0.00033781376649228947,-0.7848590825000021,-0.00013964437349186823,-2.3561929149999883,0.000244192420493177,1.5708944200000035,0.7859974550000005,0.039999974800000004,0.03999997835,-9.811455300000231,0.002514092798708678,-0.008841403849817691,-0.0005230164169836923,-0.009978298423803442,0.0030424520798991487
0.295,0.0003429894609922236,-0.7848576050000022,-0.00014510280899179874,-2.356200609999988,0.0002487723269931187,1.5708920800000035,0.7859971700000005,0.0399999742,0.0399999779,-9.811300200000233,0.0025823870439918685,-0.008963777899816134,-0.000533962897983553,-0.009983874764285021,0.003110148519898287
0.2975,0.00034816515549215767,-0.7848561275000022,-0.00015056124449172923,-2.356208304999988,0.00025335223349306037,1.5708897400000035,0.7859968850000004,0.0399999736,0.03999997745,-9.811145100000235,0.002650681289275059,-0.009086151949814577,-0.0005449093789834137,-0.0099894511047666,0.0031778449598974245
0.3,0.0003533408499920918,-0.7848546500000022,-0.00015601967999165974,-2.3562159999999883,0.0002579321399930021,1.5708874000000035,0.7859966000000005,0.039999973,0.039999977,-9.810990000000237,0.0027189755345582494,-0.009208525999813017,-0.0005558558599832742,-0.009995027445248179,0.0032455413998965627
0.3025,0.0003592977414908223,-0.7848539375000011,-0.0001623037529903182,-2.356224579999987,0.0002632041689918774,1.5708846550000042,0.7859963150000004,0.03999997255,0.0399999764,-9.810827400000251,0.0027961454469452853,-0.009357528349770433,-0.0005675490559819844,-0.009993014950308314,0.003319055229886738
0.305,0.0003652546329907465,-0.7848532250000011,-0.0001685878259902382,-2.3562331599999866,0.0002684761979918103,1.5708819100000042,0.7859960300000005,0.0399999721,0.039999975800000004,-9.810664800000252,0.002873315359345883,-0.009506530699768536,-0.0005792422519818356,-0.009991002455356855,0.0033925690598858023
0.3075,0.0003712115244906706,-0.7848525125000011,-0.0001748718989901582,-2.3562417399999864,0.0002737482269917432,1.5708791650000042,0.7859957450000005,0.03999997165,0.0399999752,-9.810502200000254,0.0029504852717464804,-0.00965553304976664,-0.0005909354479816867,-0.009988989960405396,0.003466082889884866
0.31,0.00037716841599059477,-0.7848518000000011,-0.00018115597199007817,-2.3562503199999862,0.0002790202559916761,1.5708764200000043,0.7859954600000005,0.039999971200000005,0.0399999746,-9.810339600000257,0.0030276551841470776,-0.009804535399764742,-0.0006026286439815378,-0.009986977465453937,0.00353959671988393
0.3125,0.0003831253074905189,-0.7848510875000011,-0.00018744004498999817,-2.356258899999986,0.000284292284991609,1.5708736750000043,0.7859951750000005,0.03999997075,0.039999974,-9.810177000000259,0.003104825096547675,-0.009953537749762844,-0.0006143218399813889,-0.009984964970502478,0.0036131105498829943
0.315,0.00038908219899044306,-0.7848503750000011,-0.00019372411798991817,-2.3562674799999863,0.00028956431399154183,1.5708709300000043,0.7859948900000006,0.03999997030000001,0.0399999734,-9.810014400000261,0.0031819950089482726,-0.010102540099760948,-0.0006260150359812401,-0.009982952475551019,0.0036866243798820584
0.3175,0.00039532025198900323,-0.7848499149999999,-0.00020030539998839634,-2.356276104999986,0.0002950854839902661,1.5708680150000052,0.7859946050000005,0.0399999698,0.03999997285,-9.809885550000098,0.003263817226832471,-0.010246306999784448,-0.00063808570497926,-0.00997991729528533,0.0037620953698716277
0.32,0.0004021206279889167,-0.78484996,-0.00020748109998830496,-2.3562848199999857,0.00030110493599018944,1.5708647600000052,0.7859943200000005,0.039999969200000006,0.0399999724,-9.809824200000099,0.0033549440557514004,-0.010379602999782751,-0.0006509113199790967,-0.00997483674437634,0.003841480679870617
0.3225,0.00040892100398883007,-0.7848500049999999,-0.0002146567999882136,-2.3562935349999856,0.0003071243879901128,1.5708615050000052,0.7859940350000005,0.039999968600000005,0.039999971950000004,-9.809762850000102,0.0034460708846703303,-0.010512898999781055,-0.0006637369349789333,-0.00996975619346735,0.003920865989869606
0.325,0.0004157213799887435,-0.78485005,-0.00022183249998812223,-2.3563022499999855,0.0003131438399900361,1.5708582500000052,0.7859937500000005,0.039999968000000004,0.0399999715,-9.809701500000102,0.00353719771358926,-0.010646194999779358,-0.00067656254997877,-0.00996467564255836,0.004000251299868596
0.3275,0.0004225217559886569,-0.7848500949999999,-0.00022900819998803088,-2.3563109649999854,0.0003191632919899595,1.5708549950000052,0.7859934650000006,0.0399999674,0.039999971050000006,-9.809640150000103,0.0036283245425081895,-0.010779490999777661,-0.0006893881649786067,-0.00995959509164937,0.004079636609867585
0.33,0.00042932213198857035,-0.78485014,-0.00023618389998793953,-2.3563196799999853,0.00032518274398988286,1.5708517400000053,0.7859931800000005,0.0399999668,0.039999970600000004,-9.809578800000104,0.0037194513714271195,-0.010912786999775964,-0.0007022137799784434,-0.009954514540740379,0.004159021919866574
0.3325,0.0004361225079884838,-0.7848501849999999,-0.00024335959998784815,-2.356328394999985,0.0003312021959898062,1.5708484850000055,0.7859928950000006,0.0399999662,0.03999997015,-9.809517450000104,0.003810578200346049,-0.011046082999774267,-0.0007150393949782801,-0.00994943398983139,0.004238407229865564
0.335,0.0004435269699868511,-0.7848507299999987,-0.0002511739899861222,-2.356337549999984,0.00033775698898835945,1.5708451000000059,0.7859926100000005,0.0399999652,0.039999969,-9.809388400000278,0.003910900535814175,-0.011183612399761735,-0.0007285979299762411,-0.009940067213048229,0.004321730999854473
0.3375,0.000451233474986753,-0.7848515249999987,-0.0002593077249860186,-2.356346924999984,0.0003445794524882726,1.5708416500000058,0.7859923250000005,0.039999964,0.039999967500000004,-9.80922550000028,0.004015820624592024,-0.011323258499759958,-0.0007425229249760639,-0.00992855732331161,0.004407023999853387
0.34,0.00045893997998665487,-0.7848523199999987,-0.00026744145998591507,-2.356356299999984,0.00035140191598818574,1.5708382000000058,0.7859920400000006,0.039999962800000004,0.039999966000000005,-9.809062600000281,0.004120740713369873,-0.01146290459975818,-0.0007564479199758865,-0.009917047433574992,0.0044923169998523005
0.3425,0.00046664648498655675,-0.7848531149999987,-0.00027557519498581153,-2.3563656749999837,0.0003582243794880989,1.570834750000006,0.7859917550000005,0.0399999616,0.039999964500000006,-9.808899700000284,0.004225660802147722,-0.011602550699756402,-0.0007703729149757092,-0.009905537543838373,0.004577609999851215
0.34500000000000003,0.00047435298998645863,-0.7848539099999986,-0.00028370892998570794,-2.3563750499999836,0.000365046842988012,1.570831300000006,0.7859914700000006,0.039999960400000006,0.039999963000000006,-9.808736800000286,0.004330580890925572,-0.011742196799754624,-0.000784297909975532,-0.009894027654101755,0.004662902999850129
0.34750000000000003,0.0004820594949863605,-0.7848547049999987,-0.0002918426649856044,-2.3563844249999835,0.0003718693064879252,1.5708278500000061,0.7859911850000005,0.039999959200000004,0.03999996150000001,-9.808573900000289,0.004435500979703421,-0.011881842899752845,-0.0007982229049753547,-0.009882517764365136,0.004748195999849043
0.35000000000000003,0.0004897659999862624,-0.7848554999999986,-0.00029997639998550086,-2.3563937999999833,0.0003786917699878383,1.5708244000000062,0.7859909000000006,0.039999958,0.03999996,-9.808411000000289,0.00454042106848127,-0.012021488999751067,-0.0008121478999751774,-0.009871007874628518,0.0048334889998479565
0.3525,0.0004984415589844244,-0.7848570449999972,-0.00030913481498355745,-2.3564037149999826,0.0003863731154862093,1.5708204850000071,0.7859906150000006,0.039999956350000004,0.0399999585,-9.808301350000196,0.004660595487587405,-0.012158255399754457,-0.0008272200949729401,-0.009853511909054301,0.00492471344983622
0.355,0.0005071171179843139,-0.7848585899999972,-0.00031829322998344086,-2.3564136299999823,0.0003940544609861115,1.5708165700000072,0.7859903300000005,0.03999995470000001,0.039999957,-9.808191700000197,0.004780769906720735,-0.012295021799752715,-0.0008422922899727483,-0.009836015943469414,0.005015937899835059
0.3575,0.0005157926769842034,-0.7848601349999972,-0.0003274516449833242,-2.356423544999982,0.00040173580648601373,1.5708126550000072,0.7859900450000006,0.03999995305,0.0399999555,-9.808082050000198,0.004900944325854065,-0.012431788199750974,-0.0008573644849725564,-0.009818519977884526,0.005107162349833897
0.36,0.000524468235984093,-0.7848616799999971,-0.00033661005998320763,-2.3564334599999817,0.0004094171519859159,1.5708087400000073,0.7859897600000005,0.039999951400000004,0.039999954000000004,-9.807972400000201,0.0050211187449873945,-0.012568554599749232,-0.0008724366799723644,-0.009801024012299639,0.005198386799832736
0.3625,0.0005331437949839825,-0.7848632249999972,-0.00034576847498309104,-2.356443374999982,0.00041709849748581814,1.5708048250000073,0.7859894750000006,0.039999949750000006,0.039999952500000005,-9.807862750000202,0.005141293164120725,-0.01270532099974749,-0.0008875088749721726,-0.009783528046714753,0.005289611249831574
0.365,0.0005418193539838721,-0.7848647699999971,-0.00035492688998297445,-2.3564532899999815,0.0004247798429857203,1.5708009100000073,0.7859891900000006,0.0399999481,0.039999951000000006,-9.807753100000204,0.005261467583254055,-0.012842087399745749,-0.0009025810699719806,-0.009766032081129866,0.005380835699830413
0.3675,0.0005508389199818299,-0.7848665849999955,-0.0003644491349808148,-2.3564635349999796,0.00043276611698391025,1.5707968100000085,0.7859889050000006,0.03999994665,0.03999994965,-9.807636150000246,0.005386041127826942,-0.012987303249696562,-0.0009180379549696287,-0.009746726695491044,0.005474041424818126
0.37,0.0005605464999817063,-0.7848689399999955,-0.00037469903998068433,-2.3564744399999795,0.0004413622479838008,1.5707923400000086,0.7859886200000006,0.0399999456,0.0399999486,-9.807504600000248,0.005519412923352884,-0.013149417999694499,-0.0009342642199694221,-0.00972380246971394,0.005571209699816889
0.3725,0.0005702540799815827,-0.7848712949999955,-0.0003849489449805538,-2.3564853449999794,0.00044995837898369136,1.5707878700000086,0.7859883350000005,0.03999994455,0.039999947550000005,-9.80737305000025,0.005652784718878826,-0.013311532749692434,-0.0009504904849692154,-0.009700878243936837,0.005668377974815651
0.375,0.0005799616599814592,-0.7848736499999954,-0.0003951988499804233,-2.3564962499999793,0.0004585545099835819,1.5707834000000085,0.7859880500000006,0.0399999435,0.0399999465,-9.80724150000025,0.005786156514404768,-0.01347364749969037,-0.0009667167499690088,-0.009677954018159735,0.005765546249814415
0.3775,0.0005896692399813355,-0.7848760049999954,-0.0004054487549802928,-2.356507154999979,0.00046715064098347246,1.5707789300000086,0.7859877650000006,0.03999994245,0.039999945450000005,-9.807109950000253,0.00591952830993071,-0.013635762249688307,-0.0009829430149688023,-0.00965502979238263,0.005862714524813178
0.38,0.0005993768199812119,-0.7848783599999954,-0.0004156986599801623,-2.3565180599999787,0.000475746771983363,1.5707744600000086,0.7859874800000006,0.0399999414,0.0399999444,-9.806978400000254,0.006052900105456652,-0.013797876999686242,-0.0009991692799685957,-0.009632105566605528,0.00595988279981194
0.3825,0.0006090843999810884,-0.7848807149999955,-0.0004259485649800318,-2.3565289649999785,0.00048434290298325356,1.5707699900000087,0.7859871950000006,0.03999994035,0.039999943350000004,-9.806846850000257,0.006186271900982594,-0.013959991749684179,-0.001015395544968389,-0.009609181340828426,0.006057051074810704
0.385,0.0006195220239788175,-0.7848835999999938,-0.0004369706129776302,-2.356540079999978,0.0004935861919812407,1.5707651700000098,0.7859869100000006,0.0399999396,0.039999942700000006,-9.806758000000134,0.006331598479004033,-0.014113791599706571,-0.0010323967099659032,-0.009584219101867297,0.0061581811497978135
0.3875,0.0006303246699786799,-0.7848867499999937,-0.00044837873247748495,-2.356551299999978,0.0005031530599811188,1.57076017500001,0.7859866250000006,0.039999939,0.039999942250000003,-9.806690500000133,0.006482902448325736,-0.014263433999704665,-0.0010497853249656819,-0.009558237856305203,0.0062612921247965
0.39,0.0006411273159785424,-0.7848898999999937,-0.0004597868519773397,-2.3565625199999776,0.0005127199279809971,1.57075518000001,0.7859863400000006,0.0399999384,0.0399999418,-9.806623000000133,0.00663420641764744,-0.01441307639970276,-0.0010671739399654605,-0.009532256610743108,0.006364403099795188
0.3925,0.0006519299619784048,-0.7848930499999937,-0.00047119497147719445,-2.3565737399999778,0.0005222867959808752,1.57075018500001,0.7859860550000006,0.0399999378,0.03999994135,-9.806555500000135,0.006785510386969144,-0.014562718799700856,-0.001084562554965239,-0.009506275365181014,0.006467514074793875
0.395,0.0006627326079782673,-0.7848961999999936,-0.0004826030909770492,-2.3565849599999775,0.0005318536639807534,1.5707451900000102,0.7859857700000006,0.0399999372,0.0399999409,-9.806488000000135,0.006936814356290848,-0.01471236119969895,-0.0011019511699650176,-0.00948029411961892,0.006570625049792562
0.3975,0.0006735352539781298,-0.7848993499999936,-0.000494011210476904,-2.3565961799999773,0.0005414205319806316,1.5707401950000102,0.7859854850000006,0.0399999366,0.03999994045,-9.806420500000137,0.007088118325612552,-0.014862003599697044,-0.0011193397849647963,-0.009454312874056825,0.006673736024791249
0.4,0.0006843378999779922,-0.7849024999999935,-0.0005054193299767587,-2.3566073999999775,0.0005509873999805098,1.5707352000000103,0.7859852000000006,0.039999936,0.03999994,-9.806353000000136,0.007239422294934255,-0.01501164599969514,-0.001136728399964575,-0.00942833162849473,0.006776846999789936
0.4025,0.0006962984949754809,-0.7849064599999919,-0.0005180523404741024,-2.356619639999975,0.0005615807899782836,1.5707297550000112,0.7859849090000006,0.0399999366,0.03999994045,-9.806194900000325,0.00740990845917228,-0.015157234649701545,-0.0011552797699619698,-0.009395464090697773,0.006885891494776459
0.405,0.0007082590899753285,-0.7849104199999918,-0.0005306853509739416,-2.356631879999975,0.0005721741799781488,1.5707243100000112,0.7859846180000006,0.039999937199999995,0.039999940899999996,-9.806036800000326,0.007580394623449384,-0.01530282329969969,-0.0011738311399617336,-0.009362596552886788,0.006994935989775072
0.40750000000000003,0.0007202196849751763,-0.7849143799999918,-0.0005433183614737807,-2.3566441199999746,0.0005827675699780139,1.5707188650000115,0.7859843270000006,0.039999937799999996,0.03999994135,-9.805878700000328,0.007750880787726489,-0.015448411949697836,-0.0011923825099614974,-0.0093297290150758,0.007103980484773683
0.41000000000000003,0.000732180279975024,-0.7849183399999917,-0.0005559513719736199,-2.3566563599999744,0.000593360959977879,1.5707134200000115,0.7859840360000006,0.0399999384,0.0399999418,-9.80572060000033,0.007921366952003593,-0.015594000599695984,-0.0012109338799612612,-0.009296861477264814,0.007213024979772295
0.41250000000000003,0.0007441408749748718,-0.7849222999999917,-0.0005685843824734591,-2.356668599999974,0.0006039543499777441,1.5707079750000115,0.7859837450000006,0.039999939,0.039999942250000003,-9.805562500000331,0.008091853116280696,-0.015739589249694128,-0.001229485249961025,-0.009263993939453827,0.007322069474770906
0.41500000000000004,0.0007561014699747194,-0.7849262599999917,-0.0005812173929732982,-2.356680839999974,0.0006145477399776093,1.5707025300000115,0.7859834540000006,0.0399999396,0.0399999427,-9.805404400000334,0.008262339280557801,-0.015885177899692276,-0.0012480366199607888,-0.009231126401642841,0.007431113969769518
0.4175,0.0007684689099718517,-0.7849304949999898,-0.0005942808149702648,-2.3566934349999715,0.0006255018499750669,1.5706969050000128,0.7859831650000005,0.03999994035,0.03999994335,-9.805268800000194,0.00843799225946277,-0.016042647199612983,-0.0012669767599578928,-0.009196913894344641,0.00754212928475451
0.42,0.0007816500399713242,-0.7849352799999896,-0.0006082050599697076,-2.356706739999971,0.0006371773999745996,1.570690920000013,0.7859828800000006,0.039999941399999996,0.0399999444,-9.805178200000197,0.008623978867722162,-0.01622387779960573,-0.0012866944399571039,-0.009160011448046321,0.00765708623974991
0.4225,0.0007948311699707967,-0.7849400649999895,-0.0006221293049691503,-2.3567200449999706,0.0006488529499741323,1.5706849350000134,0.7859825950000006,0.03999994245,0.03999994545,-9.805087600000201,0.008809965475981556,-0.016405108399598477,-0.0013064121199563147,-0.009123109001748004,0.0077720431947453095
0.425,0.0008080122999702693,-0.7849448499999893,-0.0006360535499685932,-2.3567333499999696,0.0006605284999736652,1.5706789500000136,0.7859823100000006,0.039999943499999996,0.0399999465,-9.804997000000204,0.008995952084240947,-0.016586338999591225,-0.0013261297999555258,-0.009086206555449686,0.00788700014974071
0.4275,0.0008211934299697418,-0.784949634999989,-0.000649977794968036,-2.356746654999969,0.0006722040499731979,1.5706729650000137,0.7859820250000006,0.03999994455,0.03999994755,-9.804906400000208,0.00918193869250034,-0.016767569599583972,-0.0013458474799547366,-0.009049304109151368,0.00800195710473611
0.43,0.0008343745599692144,-0.7849544199999888,-0.0006639020399674787,-2.3567599599999687,0.0006838795999727308,1.570666980000014,0.7859817400000007,0.039999945599999996,0.039999948599999995,-9.804815800000211,0.009367925300759732,-0.01694880019957672,-0.0013655651599539477,-0.009012401662853048,0.008116914059731509
0.4325,0.0008475556899686868,-0.7849592049999886,-0.0006778262849669216,-2.356773264999968,0.0006955551499722635,1.5706609950000143,0.7859814550000006,0.03999994665,0.03999994965,-9.804725200000215,0.009553911909019126,-0.01713003079956947,-0.0013852828399531585,-0.00897549921655473,0.008231871014726909
0.435,0.0008615920859655866,-0.7849645559999866,-0.0006926554039636415,-2.3567873299999653,0.0007079890149695147,1.5706546400000156,0.7859811690000007,0.0399999473,0.0399999504,-9.804641000000194,0.009754567499708922,-0.01730608669958728,-0.0014058361999501044,-0.008935976214803971,0.008350751299712487
0.4375,0.0008760561149657971,-0.7849701899999867,-0.0007079369599638639,-2.356801774999966,0.0007208020374697012,1.5706481000000154,0.7859808825000006,0.03999994775,0.039999951,-9.804560000000192,0.009962557581692769,-0.0174795552495898,-0.0014268073999504096,-0.008895142935312909,0.008471593249714247
0.44,0.0008905201439660075,-0.7849758239999868,-0.0007232185159640863,-2.356816219999966,0.0007336150599698876,1.5706415600000154,0.7859805960000007,0.039999948199999996,0.0399999516,-9.80447900000019,0.010170547663676616,-0.017653023799592327,-0.0014477785999507148,-0.008854309655821844,0.008592435199716005
0.4425,0.000904984172966218,-0.7849814579999869,-0.0007385000719643088,-2.356830664999966,0.0007464280824700741,1.5706350200000154,0.7859803095000006,0.03999994865,0.039999952199999994,-9.80439800000019,0.010378537745660462,-0.017826492349594852,-0.00146874979995102,-0.00881347637633078,0.008713277149717764
0.445,0.0009194482019664285,-0.784987091999987,-0.0007537816279645311,-2.3568451099999663,0.0007592411049702606,1.5706284800000152,0.7859800230000007,0.0399999491,0.039999952799999995,-9.804317000000188,0.010586527827644309,-0.017999960899597375,-0.0014897209999513252,-0.008772643096839715,0.008834119099719522
0.4475,0.000933912230966639,-0.784992725999987,-0.0007690631839647535,-2.3568595549999665,0.0007720541274704471,1.5706219400000152,0.7859797365000006,0.03999994955,0.039999953399999996,-9.804236000000186,0.010794517909628156,-0.0181734294495999,-0.0015106921999516305,-0.00873180981734865,0.008954961049721282
0.45,0.0009483762599668495,-0.7849983599999871,-0.0007843447399649759,-2.3568739999999666,0.0007848671499706335,1.5706154000000152,0.7859794500000007,0.03999995,0.039999954,-9.804155000000186,0.011002507991612002,-0.018346897999602423,-0.0015316633999519357,-0.008690976537857586,0.00907580299972304
0.4525,0.0009641850059635662,-0.7850048459999851,-0.0008010492739615019,-2.356889524999964,0.0007988726214677223,1.5706082450000165,0.7859791635000006,0.0399999506,0.0399999546,-9.80407625000018,0.011230227676626655,-0.018528813799580747,-0.0015537633499490672,-0.00864648357975299,0.009202493449708023
0.455,0.000979993751963365,-0.785011331999985,-0.0008177538079612892,-2.356905049999964,0.0008128780929675439,1.5706010900000167,0.7859788770000007,0.039999951199999995,0.0399999552,-9.803997500000182,0.011457947361686524,-0.01871072959957843,-0.001575863299948786,-0.008601990621640007,0.00932918389970641
0.4575,0.0009958024979631638,-0.7850178179999849,-0.0008344583419610765,-2.3569205749999638,0.0008268835644673656,1.5705939350000166,0.7859785905000006,0.039999951799999996,0.0399999558,-9.803918750000184,0.011685667046746395,-0.018892645399576115,-0.0015979632499485046,-0.008557497663527024,0.009455874349704796
0.46,0.0010116112439629624,-0.7850243039999848,-0.0008511628759608639,-2.3569360999999636,0.0008408890359671873,1.5705867800000168,0.7859783040000007,0.0399999524,0.0399999564,-9.803840000000184,0.011913386731806266,-0.0190745611995738,-0.001620063199948223,-0.00851300470541404,0.009582564799703184
0.4625,0.0010274199899627612,-0.7850307899999848,-0.0008678674099606512,-2.3569516249999634,0.000854894507467009,1.5705796250000168,0.7859780175000006,0.039999953,0.039999957,-9.803761250000186,0.012141106416866138,-0.019256476999571483,-0.0016421631499479417,-0.008468511747301058,0.00970925524970157
0.465,0.00104322873596256,-0.7850372759999846,-0.0008845719439604385,-2.3569671499999636,0.0008688999789668306,1.570572470000017,0.7859777310000007,0.0399999536,0.0399999576,-9.803682500000187,0.012368826101926007,-0.019438392799569167,-0.0016642630999476604,-0.008424018789188074,0.009835945699699956
0.4675,0.001059506229959167,-0.7850440599999825,-0.000901772514956848,-2.3569828749999617,0.000883321101963822,1.5705651050000184,0.7859774210000008,0.03999995419999999,0.0399999581,-9.803607750000157,0.012604281445369918,-0.019618731699579728,-0.0016867813749446032,-0.008378268312777258,0.009964571249685725
0.47000000000000003,0.0010767212199594175,-0.7850514399999826,-0.0009199651599571127,-2.3569989999999623,0.000898573527964044,1.5705573200000182,0.7859770640000008,0.039999954799999994,0.0399999584,-9.803541000000157,0.012855208105747385,-0.019795916799582307,-0.0017101362999449431,-0.008330002799743882,0.010097066999687654
0.47250000000000003,0.001093936209959668,-0.7850588199999827,-0.0009381578049573775,-2.3570151249999625,0.0009138259539642659,1.5705495350000183,0.7859767070000008,0.039999955399999995,0.0399999587,-9.803474250000155,0.013106134766124851,-0.019973101899584882,-0.001733491224945283,-0.008281737286710503,0.010229562749689582
0.47500000000000003,0.0011111511999599185,-0.7850661999999828,-0.0009563504499576422,-2.3570312499999626,0.0009290783799644879,1.570541750000018,0.7859763500000008,0.039999955999999996,0.039999959,-9.803407500000155,0.013357061426502318,-0.02015028699958746,-0.0017568461499456228,-0.008233471773677127,0.01036205849969151
0.47750000000000004,0.0011283661899601691,-0.785073579999983,-0.0009745430949579069,-2.3570473749999628,0.0009443308059647099,1.5705339650000179,0.7859759930000009,0.0399999566,0.0399999593,-9.803340750000153,0.013607988086879786,-0.02032747209959004,-0.0017802010749459628,-0.00818520626064375,0.01049455424969344
0.48,0.0011455811799604193,-0.7850809599999831,-0.0009927357399581714,-2.357063499999963,0.0009595832319649314,1.5705261800000179,0.7859756360000009,0.0399999572,0.0399999596,-9.803274000000153,0.013858914747257246,-0.020504657199592616,-0.001803555999946302,-0.008136940747610373,0.010627049999695364
0.4825,0.0011627961699606697,-0.7850883399999831,-0.001010928384958436,-2.357079624999963,0.0009748356579651533,1.5705183950000177,0.7859752790000009,0.0399999578,0.0399999599,-9.803207250000153,0.014109841407634712,-0.020681842299595195,-0.001826910924946642,-0.008088675234576995,0.010759545749697293
0.485,0.0011809892299569102,-0.7850963259999808,-0.001030156089954458,-2.357096849999959,0.0009909554499618197,1.5705101200000195,0.7859747780000014,0.039999958200000005,0.0399999606,-9.80306620000041,0.014373683463158607,-0.020882846599508918,-0.0018508504799441096,-0.008035986265294158,0.010895878099681127
0.4875,0.0011996713249561625,-0.7851046149999805,-0.0010499013249536677,-2.357114624999958,0.0010075089249611572,1.57050160000002,0.7859742050000014,0.0399999585,0.0399999615,-9.802888000000417,0.014643983216321967,-0.021095760499500398,-0.00187508234994314,-0.0079810855678639,0.011034128749675595
0.49,0.001218353419955415,-0.7851129039999802,-0.0010696465599528775,-2.3571323999999576,0.0010240623999604947,1.5704930800000203,0.7859736320000014,0.0399999588,0.0399999624,-9.802709800000425,0.014914282969485325,-0.021308674399491877,-0.0018993142199421702,-0.007926184870433641,0.011172379399670062
0.4925,0.0012370355149546673,-0.7851211929999798,-0.0010893917949520875,-2.3571501749999566,0.0010406158749598324,1.5704845600000206,0.7859730590000014,0.0399999591,0.0399999633,-9.802531600000432,0.015184582722648683,-0.021521588299483356,-0.0019235460899412005,-0.007871284173003383,0.01131063004966453
0.495,0.0012557176099539198,-0.7851294819999796,-0.0011091370299512974,-2.357167949999956,0.0010571693499591699,1.570476040000021,0.7859724860000015,0.0399999594,0.039999964199999995,-9.80235340000044,0.015454882475812042,-0.021734502199474835,-0.0019477779599402307,-0.007816383475573126,0.011448880699658997
0.4975,0.001274399704953172,-0.7851377709999792,-0.0011288822649505072,-2.3571857249999555,0.0010737228249585076,1.5704675200000213,0.7859719130000015,0.0399999597,0.03999996509999999,-9.802175200000447,0.0157251822289754,-0.021947416099466314,-0.0019720098299392612,-0.007761482778142868,0.011587131349653465
0.5,0.0012930817999524244,-0.7851460599999789,-0.001148627499949717,-2.3572034999999545,0.001090276299957845,1.5704590000000218,0.7859713400000015,0.03999996,0.039999966,-9.801997000000453,0.015995481982138758,-0.022160329999457794,-0.0019962416999382915,-0.007706582080712609,0.011725381999647932
0.5025000000000001,0.001313291269948278,-0.7851552609999765,-0.0011699893299453286,-2.3572225199999512,0.001108184289954168,1.5704498350000236,0.7859707640000015,0.0399999609,0.0399999666,-9.801974425000058,0.01629231842158753,-0.022365318199475372,-0.002020661264937503,-0.00765034796218806,0.01186933129963159
0.505,0.0013335007399480202,-0.7851644619999764,-0.0011913511599450561,-2.357241539999951,0.0011260922799539398,1.5704406700000235,0.7859701880000015,0.0399999618,0.0399999672,-9.801951850000059,0.016589154861103864,-0.02257030639947276,-0.002045080829937192,-0.007594113843660117,0.012013280599629755
0.5075000000000001,0.0013537102099477633,-0.7851736629999762,-0.0012127129899447847,-2.3572605599999505,0.001144000269953712,1.5704315050000237,0.7859696120000015,0.039999962699999995,0.0399999678,-9.801929275000058,0.01688599130062021,-0.022775294599470156,-0.0020695003949368815,-0.007537879725132171,0.012157229899627925
0.51,0.0013739196799475056,-0.785182863999976,-0.0012340748199445122,-2.3572795799999504,0.0011619082599534838,1.5704223400000237,0.7859690360000016,0.039999963599999994,0.0399999684,-9.801906700000059,0.017182827740136544,-0.022980282799467542,-0.00209391995993657,-0.007481645606604229,0.012301179199626089
0.5125,0.0013941291499472478,-0.785192064999976,-0.0012554366499442399,-2.3572985999999503,0.0011798162499532553,1.5704131750000239,0.7859684600000015,0.0399999645,0.039999969,-9.80188412500006,0.01747966417965288,-0.023185270999464925,-0.0021183395249362584,-0.007425411488076286,0.012445128499624253
0.515,0.0014143386199469909,-0.7852012659999759,-0.0012767984799439682,-2.35731761999995,0.0011977242399530276,1.570404010000024,0.7859678840000015,0.0399999654,0.0399999696,-9.801861550000059,0.017776500619169223,-0.02339025919946232,-0.002142759089935948,-0.007369177369548341,0.012589077799622424
0.5175,0.0014350770449425506,-0.7852107819999733,-0.0012987202249392686,-2.357337024999947,0.0012161013549490897,1.5703946150000259,0.7859673100000015,0.03999996634999999,0.03999997035,-9.801819375000214,0.01808114694347002,-0.02360087974941517,-0.002167610029932226,-0.0073116712273749804,0.012734906599605727
0.52,0.0014568733799422736,-0.7852209279999731,-0.0013217617999389756,-2.3573571999999468,0.0012354167199488443,1.570384760000026,0.7859667400000016,0.039999967399999996,0.0399999714,-9.801738000000215,0.018401413037524714,-0.02382276499941235,-0.002193323719931899,-0.007251621037880659,0.012884494399603826
0.5225,0.0014786697149419957,-0.785231073999973,-0.0013448033749386818,-2.3573773749999463,0.001254732084948598,1.5703749050000262,0.7859661700000016,0.03999996845,0.03999997245,-9.801656625000216,0.018721679131579395,-0.02404465024940952,-0.002219037409931571,-0.00719157084838634,0.013034082199601917
0.525,0.0015004660499417187,-0.7852412199999729,-0.001367844949938389,-2.357397549999946,0.0012740474499483526,1.5703650500000264,0.7859656000000016,0.039999969499999996,0.0399999735,-9.801575250000218,0.01904194522563409,-0.0242665354994067,-0.0022447510999312444,-0.007131520658892018,0.013183669999600016
0.5275,0.0015222623849414406,-0.7852513659999728,-0.0013908865249380952,-2.3574177249999457,0.0012933628149481061,1.5703551950000265,0.7859650300000016,0.03999997055,0.03999997455,-9.801493875000219,0.01936221131968877,-0.02448842074940387,-0.002270464789930916,-0.007071470469397699,0.013333257799598108
0.53,0.0015440587199411636,-0.7852615119999726,-0.0014139280999378022,-2.3574378999999452,0.0013126781799478607,1.5703453400000265,0.7859644600000015,0.039999971599999996,0.039999975599999994,-9.80141250000022,0.019682477413743463,-0.02471030599940105,-0.0022961784799305895,-0.007011420279903377,0.013482845599596206
0.5325,0.0015658550549408857,-0.7852716579999726,-0.0014369696749375084,-2.357458074999945,0.0013319935449476144,1.5703354850000266,0.7859638900000016,0.03999997265,0.03999997665,-9.801331125000221,0.020002743507798144,-0.02493219124939822,-0.0023218921699302616,-0.006951370090409058,0.0136324333995943
0.535,0.0015887485699356979,-0.7852824609999695,-0.0014611726499320179,-2.357479079999941,0.0013522819899430137,1.570325150000029,0.7859633200000016,0.0399999734,0.039999977699999995,-9.801247500000233,0.020340478605571696,-0.02514821769941547,-0.002348381579926275,-0.006888237782000071,0.013785650499574744
0.5375,0.0016121906749347592,-0.785293592499969,-0.0014859563249310255,-2.3575004999999405,0.001373056974942182,1.5703145750000294,0.7859627500000016,0.039999974,0.03999997875,-9.801162750000236,0.020686948205311428,-0.02536131474940694,-0.002375258849925199,-0.006823564414114915,0.013940682249568537
0.54,0.0016356327799338217,-0.7853047239999686,-0.0015107399999300343,-2.3575219199999395,0.0013938319599413511,1.57030400000003,0.7859621800000016,0.0399999746,0.039999979799999995,-9.801078000000238,0.021033417805051177,-0.025574411799398414,-0.002402136119924124,-0.0067588910462297565,0.014095713999562337
0.5425,0.001659074884932883,-0.7853158554999682,-0.001535523674929042,-2.3575433399999386,0.0014146069449405192,1.5702934250000302,0.7859616100000016,0.039999975199999996,0.03999998085,-9.800993250000243,0.02137988740479091,-0.025787508849389882,-0.002429013389923048,-0.006694217678344601,0.01425074574955613
0.545,0.0016825169899319454,-0.7853269869999677,-0.0015603073499280509,-2.3575647599999376,0.0014353819299396883,1.5702828500000308,0.7859610400000017,0.0399999758,0.039999981899999995,-9.800908500000245,0.021726357004530655,-0.02600060589938136,-0.002455890659921973,-0.006629544310459442,0.014405777499549929
0.5475,0.0017059590949310068,-0.7853381184999673,-0.0015850910249270585,-2.357586179999937,0.0014561569149388566,1.5702722750000313,0.7859604700000017,0.0399999764,0.03999998295,-9.80082375000025,0.022072826604270387,-0.02621370294937283,-0.0024827679299208967,-0.006564870942574287,0.014560809249543722
0.55,0.0017294011999300692,-0.7853492499999668,-0.0016098746999260673,-2.357607599999936,0.0014769318999380257,1.5702617000000316,0.7859599000000017,0.039999977,0.039999984,-9.800739000000252,0.022419296204010137,-0.026426799999364304,-0.002509645199919822,-0.006500197574689129,0.014715840999537521
0.5525,0.001754547169926038,-0.7853613549999644,-0.0016364620949217983,-2.3576302799999334,0.0014992180749344493,1.5702503450000336,0.7859593300000017,0.0399999764,0.0399999834,-9.80062717500033,0.022791204600432283,-0.026682957099246563,-0.0025377709949172735,-0.006431492371686653,0.014876504799527438
0.555,0.0017796931399270905,-0.7853734599999649,-0.0016630494899229113,-2.3576529599999345,0.0015215042499353824,1.570238990000033,0.7859587600000016,0.039999975800000004,0.0399999828,-9.800515350000325,0.02316311299693033,-0.026939114199257284,-0.0025658967899184508,-0.006362787168672147,0.015037168599534164
0.5575,0.001804839109928142,-0.7853855649999655,-0.001689636884924023,-2.3576756399999352,0.0015437904249363142,1.5702276350000326,0.7859581900000017,0.0399999752,0.0399999822,-9.80040352500032,0.023535021393428363,-0.027195271299267996,-0.0025940225849196267,-0.006294081965657644,0.015197832399540881
0.56,0.0018299850799291947,-0.785397669999966,-0.001716224279925136,-2.3576983199999364,0.0015660765999372472,1.570216280000032,0.7859576200000017,0.0399999746,0.0399999816,-9.800291700000315,0.02390692978992641,-0.027451428399278718,-0.002622148379920804,-0.006225376762643138,0.015358496199547607
0.5625,0.001855131049930246,-0.7854097749999664,-0.0017428116749262476,-2.357720999999937,0.001588362774938179,1.5702049250000316,0.7859570500000016,0.039999974,0.039999981,-9.80017987500031,0.024278838186424442,-0.02770758549928943,-0.0026502741749219803,-0.006156671559628635,0.015519159999554324
0.5650000000000001,0.0018802770199312987,-0.7854218799999669,-0.0017693990699273606,-2.3577436799999383,0.0016106489499391119,1.5701935700000311,0.7859564800000016,0.0399999734,0.0399999804,-9.800068050000306,0.02465074658292249,-0.027963742599300154,-0.0026783999699231576,-0.006087966356614129,0.015679823799561052
0.5675,0.0019060100299271227,-0.7854343324999644,-0.0017966078999229393,-2.357766784999935,0.0016334558299354075,1.570181950000033,0.7859559085000016,0.039999973,0.03999998,-9.799959475000275,0.025032049323279824,-0.028218284799319326,-0.002706940474920452,-0.006017829291720165,0.015842296949550146
0.5700000000000001,0.0019329171199267809,-0.7854474799999642,-0.0018250595999225777,-2.3577907399999347,0.0016573041199351045,1.570169800000033,0.7859553340000016,0.039999973,0.03999998,-9.799857400000278,0.02543214075158442,-0.028469597199316132,-0.002736310399920079,-0.005944828503032428,0.016008388799548034
0.5725,0.0019598242099264375,-0.7854606274999641,-0.0018535112999222148,-2.3578146949999343,0.0016811524099348003,1.5701576500000334,0.7859547595000016,0.039999973,0.03999998,-9.799755325000278,0.025832232179888996,-0.028720909599312925,-0.0027656803249197044,-0.005871827714344694,0.016174480649545915
0.5750000000000001,0.0019867312999260955,-0.785473774999964,-0.0018819629999218533,-2.357838649999934,0.0017050006999344972,1.5701455000000335,0.7859541850000016,0.039999973,0.03999998,-9.79965325000028,0.02623232360819359,-0.02897222199930973,-0.002795050249919331,-0.005798826925656957,0.016340572499543803
0.5775,0.0020136383899257526,-0.7854869224999638,-0.0019104146999214904,-2.3578626049999336,0.001728848989934193,1.5701333500000336,0.7859536105000016,0.039999973,0.03999998,-9.799551175000282,0.02663241503649817,-0.029223534399306528,-0.0028244201749189567,-0.005725826136969223,0.016506664349541685
0.58,0.0020405454799254093,-0.7855000699999636,-0.0019388663999211275,-2.3578865599999332,0.001752697279933889,1.5701212000000337,0.7859530360000017,0.039999973,0.03999998,-9.799449100000283,0.027032506464802743,-0.02947484679930332,-0.0028537900999185822,-0.005652825348281489,0.016672756199539566
0.5825,0.002067452569925067,-0.7855132174999634,-0.001967318099920766,-2.3579105149999333,0.0017765455699335858,1.5701090500000339,0.7859524615000016,0.039999973,0.03999998,-9.799347025000284,0.02743259789310734,-0.029726159199300127,-0.0028831600249182086,-0.005579824559593752,0.016838848049537454
0.585,0.0020955713599191167,-0.7855270449999602,-0.0019970526599144673,-2.3579356699999274,0.0018014686199283084,1.5700963500000367,0.7859518230000019,0.039999972300000006,0.0399999793,-9.799245500000286,0.027851656636879135,-0.029982569599270818,-0.0029133575399138043,-0.005504005961337498,0.017008508799517243
0.5875,0.002124295999917968,-0.7855412124999596,-0.002027428649913252,-2.3579614249999263,0.00182692904992729,1.5700833750000371,0.7859511525000019,0.03999997125,0.03999997825,-9.799144250000289,0.02828019903850359,-0.030241528999260463,-0.00294396884991258,-0.005426778458279297,0.017179953999510385
0.59,0.0021530206399168177,-0.785555379999959,-0.002057804639912036,-2.3579871799999252,0.0018523894799262707,1.5700704000000376,0.785950482000002,0.039999970200000005,0.0399999772,-9.799043000000292,0.028708741440128027,-0.030500488399250094,-0.0029745801599113542,-0.005349550955221098,0.01735139919950352
0.5925,0.002181745279915669,-0.7855695474999584,-0.002088180629910821,-2.358012934999924,0.0018778499099252523,1.570057425000038,0.785949811500002,0.03999996915,0.039999976150000005,-9.798941750000298,0.029137283841752484,-0.03075944779923974,-0.0030051914699101303,-0.005272323452162897,0.017522844399496664
0.595,0.0022104699199145188,-0.7855837149999578,-0.0021185566199096047,-2.358038689999923,0.001903310339924233,1.5700444500000386,0.785949141000002,0.039999968100000005,0.0399999751,-9.798840500000301,0.02956582624337692,-0.03101840719922937,-0.0030358027799089046,-0.0051950959491047,0.0176942895994898
0.5975,0.00223919455991337,-0.7855978824999573,-0.00214893260990839,-2.3580644449999224,0.0019287707699232146,1.570031475000039,0.785948470500002,0.03999996705,0.039999974050000005,-9.798739250000306,0.029994368645001376,-0.031277366599219016,-0.00306641408990768,-0.005117868446046498,0.017865734799482943
0.6,0.0022679191999122198,-0.7856120499999567,-0.0021793085999071734,-2.3580901999999213,0.001954231199922195,1.5700185000000397,0.785947800000002,0.039999966,0.039999973,-9.79863800000031,0.03042291104662581,-0.03153632599920864,-0.0030970253999064545,-0.0050406409429883,0.01803717999947608
0.6025,0.002298516964905272,-0.7856272974999527,-0.002211667769899819,-2.3581174699999154,0.001981353074916033,1.5700046850000426,0.7859469450000026,0.039999966,0.039999973,-9.798624650000042,0.030882876923746333,-0.03178829434921993,-0.0031284314399027697,-0.00496137174802222,0.018213896199452902
0.605,0.002329114729904047,-0.7856425449999522,-0.0022440269398985233,-2.3581447399999145,0.002008474949914947,1.5699908700000433,0.7859460900000027,0.039999966,0.039999973,-9.798611300000042,0.03134284280096286,-0.03204026269920984,-0.003159837479901512,-0.004882102553049904,0.018390612399445828
0.6075,0.0023597124949028235,-0.7856577924999516,-0.002276386109897229,-2.3581720099999135,0.0020355968249138627,1.5699770550000438,0.7859452350000027,0.039999966,0.039999973,-9.798597950000042,0.03180280867817941,-0.03229223104919977,-0.0031912435199002564,-0.0048028333580775835,0.01856732859943876
0.61,0.002390310259901598,-0.785673039999951,-0.0023087452798959333,-2.358199279999912,0.0020627186999127765,1.5699632400000443,0.7859443800000028,0.039999966,0.039999973,-9.798584600000042,0.03226277455539594,-0.03254419939918968,-0.003222649559898999,-0.0047235641631052675,0.018744044799431685
0.6125,0.0024209080249003746,-0.7856882874999503,-0.002341104449894639,-2.358226549999911,0.002089840574911692,1.569949425000045,0.7859435250000028,0.039999966,0.039999973,-9.798571250000043,0.03272274043261249,-0.032796167749179594,-0.0032540555998977426,-0.004644294968132948,0.018920760999424618
0.615,0.0024515057898991497,-0.7857035349999497,-0.0023734636198933434,-2.35825381999991,0.0021169624499106057,1.5699356100000454,0.7859426700000028,0.039999966,0.039999973,-9.798557900000043,0.033182706309829016,-0.033048136099169505,-0.003285461639896485,-0.004565025773160632,0.019097477199417543
0.6175,0.0024827460348920876,-0.7857191374999458,-0.002406503159885866,-2.3582815999999043,0.0021446542649043417,1.5699215050000486,0.7859418130000029,0.039999966,0.039999973,-9.79851480000034,0.03365135919141445,-0.03331812239898467,-0.0033169929248945537,-0.004484631400829545,0.019275921599396485
0.62,0.00251527123989256,-0.785735449999946,-0.002440903439886366,-2.3583103999999047,0.0021734859599047605,1.5699068200000486,0.7859409520000028,0.039999966,0.039999973,-9.798412200000339,0.034137386081997394,-0.03362414459898912,-0.0033487746998950153,-0.0044019866737472785,0.019457822399399128
0.6225,0.002547796444893034,-0.7857517624999463,-0.0024753037198868674,-2.3583391999999055,0.002202317654905181,1.5698921350000483,0.7859400910000028,0.039999966,0.039999973,-9.798309600000337,0.03462341297258036,-0.03393016679899358,-0.0033805564748954787,-0.004319341946665009,0.01963972319940178
0.625,0.0025803216498935066,-0.7857680749999465,-0.002509703999887367,-2.358367999999906,0.0022311493499055997,1.569877450000048,0.7859392300000028,0.039999966,0.039999973,-9.798207000000335,0.03510943986316331,-0.03423618899899803,-0.0034123382498959407,-0.004236697219582744,0.019821623999404424
0.6275000000000001,0.0026128468548939805,-0.7857843874999468,-0.0025441042798878687,-2.3583967999999063,0.0022599810449060198,1.5698627650000478,0.7859383690000028,0.039999966,0.039999973,-9.798104400000334,0.03559546675374628,-0.03454221119900249,-0.0034441200248964037,-0.0041540524925004745,0.020003524799407073
0.63,0.002645372059894453,-0.7858006999999471,-0.0025785045598883684,-2.3584255999999066,0.002288812739906439,1.5698480800000476,0.7859375080000028,0.039999966,0.039999973,-9.798001800000332,0.03608149364432923,-0.03484823339900694,-0.0034759017998968657,-0.004071407765418208,0.020185425599409716
0.6325000000000001,0.002677897264894927,-0.7858170124999473,-0.00261290483988887,-2.358454399999907,0.002317644434906859,1.5698333950000476,0.7859366470000028,0.039999966,0.039999973,-9.797899200000332,0.0365675205349122,-0.0351542555990114,-0.0035076835748973287,-0.003988763038335939,0.02036732639941237
0.635,0.0027117432698884007,-0.7858340549999436,-0.0026487036598819595,-2.3584844599999006,0.002347647869901069,1.5698181300000504,0.7859357870000028,0.039999966,0.039999973,-9.797805100000291,0.03707560151647523,-0.035456878699026764,-0.0035402894798932144,-0.0039035743570888276,0.020552627699395205
0.6375000000000001,0.002746249674887962,-0.7858514624999434,-0.0026852017498814953,-2.3585151499999006,0.0023782371749006804,1.5698025750000506,0.7859349275000028,0.039999966,0.039999973,-9.79771525000029,0.037594709543688404,-0.03575780224902294,-0.003573307449892795,-0.0038171136987408265,0.02073962924939283
0.64,0.002780756079887522,-0.7858688699999432,-0.00272169983988103,-2.3585458399999,0.0024088264799002903,1.5697870200000508,0.7859340680000028,0.039999966,0.039999973,-9.797625400000292,0.03811381757090154,-0.0360587257990191,-0.003606325419892374,-0.0037306530403928293,0.020926630799390444
0.6425,0.0028152624848870817,-0.785886277499943,-0.0027581979298805645,-2.3585765299998998,0.0024394157848999,1.569771465000051,0.7859332085000028,0.039999966,0.039999973,-9.797535550000294,0.03863292559811469,-0.03635964934901526,-0.0036393433898919527,-0.003644192382044832,0.02111363234938806
0.645,0.0028497688898866435,-0.7859036849999428,-0.0027946960198801003,-2.3586072199998993,0.0024700050898995114,1.569755910000051,0.7859323490000028,0.039999966,0.039999973,-9.797445700000296,0.039152033625327855,-0.03666057289901144,-0.003672361359891533,-0.003557731723696831,0.021300633899385683
0.6475,0.002884275294886203,-0.7859210924999426,-0.002831194109879635,-2.358637909999899,0.0025005943948991213,1.5697403550000513,0.7859314895000028,0.039999966,0.039999973,-9.797355850000297,0.039671141652541,-0.0369614964490076,-0.0037053793298911122,-0.0034712710653488337,0.0214876354493833
0.65,0.0029187816998857644,-0.7859384999999424,-0.002867692199879171,-2.3586685999998984,0.0025311836998987325,1.5697248000000514,0.7859306300000029,0.039999966,0.039999973,-9.797266000000297,0.04019024967975417,-0.037262419999003774,-0.0037383972998906926,-0.0033848104070008326,0.021674636999380922
0.6525,0.002955322044878565,-0.7859570789999383,-0.0029063441098715476,-2.358700819999893,0.0025635770998923466,1.5697083300000547,0.7859297705000028,0.0399999666,0.0399999736,-9.797255350000036,0.04074336420560834,-0.03755649979902268,-0.0037726588148861385,-0.003296425543087825,0.021866652899361873
0.655,0.002991862389878101,-0.785975657999938,-0.0029449960198710563,-2.3587330399998927,0.002595970499891935,1.569691860000055,0.7859289110000028,0.0399999672,0.039999974199999996,-9.797244700000036,0.04129647873157511,-0.03785057959901894,-0.003806920329885703,-0.0032080406791684434,0.022058668799359433
0.6575,0.003028402734877635,-0.7859942369999378,-0.0029836479298705637,-2.3587652599998923,0.002628363899891522,1.569675390000055,0.7859280515000029,0.0399999678,0.0399999748,-9.797234050000036,0.04184959325754187,-0.03814465939901519,-0.0038411818448852663,-0.003119655815249066,0.022250684699356982
0.66,0.00306494307987717,-0.7860128159999376,-0.0030222998398700724,-2.358797479999892,0.00266075729989111,1.5696589200000552,0.7859271920000029,0.0399999684,0.0399999754,-9.797223400000036,0.04240270778350864,-0.03843873919901145,-0.003875443359884831,-0.0030312709513296843,0.02244270059935454
0.6625,0.003101483424876704,-0.7860313949999372,-0.0030609517498695793,-2.358829699999891,0.002693150699890697,1.5696424500000556,0.7859263325000029,0.039999968999999996,0.039999976,-9.797212750000035,0.04295582230947539,-0.038732818999007705,-0.003909704874884394,-0.0029428860874103064,0.022634716499352094
0.665,0.0031380237698762398,-0.786049973999937,-0.003099603659869088,-2.3588619199998906,0.002725544099890285,1.5696259800000558,0.7859254730000029,0.0399999696,0.0399999766,-9.797202100000037,0.043508936835442165,-0.039026898799003965,-0.003943966389883959,-0.0028545012234909247,0.022826732399349653
0.6675,0.0031752592898686835,-0.786068926999933,-0.0031389917398610867,-2.3588947799998836,0.0027585541648835828,1.5696091850000593,0.785924615000003,0.03999997,0.03999997715,-9.79715375000042,0.04407152179430907,-0.039338255898824004,-0.0039786517298791985,-0.0027647715181459832,0.023020346199330907
0.67,0.0032138851598681926,-0.7860886279999327,-0.0031798521598605674,-2.3589289199998835,0.0027927975598831473,1.5695917400000594,0.785923760000003,0.03999997,0.0399999776,-9.797030000000422,0.044653047619265716,-0.039684167598819604,-0.004014184719878747,-0.0026723521299088127,0.023217155799328405
0.6725,0.0032525110298677,-0.7861083289999325,-0.0032207125798600464,-2.358963059999883,0.0028270409548827105,1.5695742950000597,0.785922905000003,0.03999997,0.039999978049999996,-9.796906250000424,0.04523457344422234,-0.0400300792988152,-0.004049717709878294,-0.0025799327416716465,0.023413965399325897
0.675,0.003291136899867209,-0.7861280299999323,-0.003261572999859527,-2.3589971999998824,0.0028612843498822755,1.56955685000006,0.7859220500000029,0.03999997,0.0399999785,-9.796782500000425,0.04581609926917899,-0.0403759909988108,-0.004085250699877843,-0.002487513353434476,0.023610774999323396
0.6775,0.0033297627698667164,-0.786147730999932,-0.0033024334198590057,-2.359031339999882,0.0028955277448818387,1.5695394050000602,0.785921195000003,0.03999997,0.039999978949999994,-9.796658750000427,0.046397625094135614,-0.040721902698806385,-0.004120783689877389,-0.0023950939651973097,0.023807584599320884
0.68,0.0033683886398662255,-0.7861674319999318,-0.0033432938398584864,-2.359065479999882,0.0029297711398814036,1.5695219600000605,0.785920340000003,0.03999997,0.039999979399999996,-9.796535000000429,0.04697915091909226,-0.04106781439880199,-0.004156316679876937,-0.0023026745769601396,0.024004394199318383
0.6825,0.003407014509865733,-0.7861871329999315,-0.0033841542598579653,-2.3590996199998813,0.002964014534880967,1.5695045150000606,0.785919485000003,0.03999997,0.03999997985,-9.79641125000043,0.04756067674404888,-0.04141372609879758,-0.004191849669876484,-0.002210255188722973,0.024201203799315875
0.685,0.0034470645398577892,-0.7862076199999272,-0.003426522759849554,-2.3591349399998744,0.00299952129987392,1.5694864300000642,0.7859185200000036,0.03999997,0.03999998,-9.79633750000017,0.048166500774850095,-0.041757954598801994,-0.004228209429871706,-0.002116461319712786,0.024401320699296063
0.6875,0.0034878266498572694,-0.7862284999999268,-0.003469645299849004,-2.3591708499998743,0.0030356597498734593,1.5694680250000645,0.7859175000000036,0.03999997,0.03999998,-9.796288750000171,0.04878447390876383,-0.042101341498797615,-0.004264982574871237,-0.0020219802103053305,0.02460309124929349
0.6900000000000001,0.003528588759856751,-0.7862493799999266,-0.003512767839848456,-2.3592067599998736,0.003071798199873,1.5694496200000647,0.7859164800000036,0.03999997,0.03999998,-9.796240000000171,0.0494024470426776,-0.04244472839879325,-0.00430175571987077,-0.0019274991008978715,0.024804861799290926
0.6925,0.003569350869856231,-0.7862702599999264,-0.0035558903798479057,-2.3592426699998734,0.003107936649872539,1.5694312150000649,0.7859154600000036,0.03999997,0.03999998,-9.796191250000172,0.050020420176591335,-0.04278811529878887,-0.0043385288648703,-0.0018330179914904166,0.025006632349288353
0.6950000000000001,0.003610112979855713,-0.7862911399999261,-0.003599012919847358,-2.359278579999873,0.00314407509987208,1.5694128100000653,0.7859144400000035,0.03999997,0.03999998,-9.796142500000173,0.0506383933105051,-0.043131502198784505,-0.0043753020098698326,-0.0017385368820829574,0.02520840289928579
0.6975,0.003650875089855193,-0.7863120199999258,-0.0036421354598468077,-2.359314489999872,0.0031802135498716186,1.5693944050000654,0.7859134200000036,0.03999997,0.03999998,-9.796093750000173,0.05125636644441884,-0.043474889098780126,-0.0044120751548693635,-0.0016440557726755023,0.025410173449283216
0.7000000000000001,0.003691637199854675,-0.7863328999999255,-0.0036852579998462595,-2.359350399999872,0.0032163519998711595,1.5693760000000658,0.7859124000000036,0.03999997,0.03999998,-9.796045000000174,0.0518743395783326,-0.04381827599877576,-0.004448848299868896,-0.0015495746632680433,0.02561194399928065
0.7025,0.003734584914845163,-0.7863549499999205,-0.003730695549836187,-2.3593882149998637,0.0032544295298627215,1.5693566350000698,0.7859112555000041,0.03999997,0.03999998,-9.795971800000263,0.05252742785724974,-0.044178644848700786,-0.004486152804865509,-0.0014520320899342484,0.025818449299255503
0.705,0.0037775326298434436,-0.7863769999999196,-0.003776133099834368,-2.359426029999862,0.0032925070598611972,1.5693372700000707,0.7859101110000042,0.03999997,0.03999998,-9.795898600000267,0.053180516136292065,-0.04453901369868636,-0.0045234573098640145,-0.001354489516589539,0.026024954599247235
0.7075,0.003820480344841726,-0.7863990499999187,-0.0038215706498325504,-2.3594638449998606,0.0033305845898596743,1.5693179050000714,0.7859089665000042,0.03999997,0.03999998,-9.79582540000027,0.05383360441533442,-0.04489938254867195,-0.004560761814862523,-0.0012569469432448252,0.026231459899238974
0.71,0.0038634280598400066,-0.7864210999999178,-0.0038670081998307313,-2.359501659999859,0.0033686621198581496,1.569298540000072,0.7859078220000043,0.03999997,0.03999998,-9.795752200000273,0.05448669269437675,-0.04525975139865752,-0.00459806631986103,-0.0011594043699001157,0.026437965199230706
0.7125,0.003906375774838289,-0.7864431499999169,-0.003912445749828914,-2.3595394749998575,0.0034067396498566266,1.569279175000073,0.7859066775000043,0.03999997,0.03999998,-9.795679000000275,0.0551397809734191,-0.045620120248643106,-0.004635370824859537,-0.0010618617965554018,0.026644470499222448
0.715,0.003949323489836569,-0.7864651999999162,-0.003957883299827095,-2.359577289999856,0.003444817179855102,1.5692598100000736,0.7859055330000044,0.03999997,0.03999998,-9.79560580000028,0.05579286925246143,-0.045980489098628674,-0.004672675329858044,-0.0009643192232106924,0.02685097579921418
0.7175,0.003993015984827082,-0.7864876599999109,-0.004004109614817048,-2.359615719999848,0.0034835554098466863,1.569240110000078,0.7859043885000044,0.03999996980000001,0.03999997985,-9.795547300000111,0.056458222118359956,-0.04633835599864954,-0.004710212264854562,-0.0008659215051204326,0.027059028849191907
0.72,0.004038198039827738,-0.7865109399999113,-0.004051913459817743,-2.3596553799998485,0.003523615039847268,1.5692197400000776,0.7859032440000044,0.039999969200000006,0.039999979399999996,-9.795518200000112,0.05714810415839379,-0.04669121899865467,-0.004748214059855114,-0.0007658134975095929,0.027270177399194975
0.7225,0.004083380094828397,-0.7865342199999116,-0.00409971730481844,-2.359695039999849,0.003563674669847852,1.5691993700000773,0.7859020995000043,0.039999968600000005,0.03999997895,-9.795489100000111,0.05783798619842764,-0.04704408199865981,-0.004786215854855668,-0.0006657054898987489,0.02748132594919805
0.725,0.004128562149829053,-0.786557499999912,-0.004147521149819134,-2.35973469999985,0.003603734299848434,1.5691790000000772,0.7859009550000043,0.039999968000000004,0.0399999785,-9.79546000000011,0.058527868238461477,-0.04739694499866494,-0.00482421764985622,-0.0005655974822879093,0.02769247449920112
0.7275,0.004173744204829712,-0.7865807799999123,-0.004195324994819831,-2.3597743599998506,0.003643793929849018,1.5691586300000768,0.7858998105000043,0.0399999674,0.03999997805,-9.79543090000011,0.05921775027849534,-0.04774980799867008,-0.004862219444856774,-0.00046548947467706526,0.027903623049204195
0.73,0.004218926259830369,-0.7866040599999127,-0.004243128839820525,-2.359814019999851,0.0036838535598496002,1.5691382600000765,0.7858986660000044,0.0399999668,0.0399999776,-9.795401800000109,0.059907632318529164,-0.04810267099867521,-0.0049002212398573265,-0.00036538146706622567,0.028114771599207264
0.7325,0.0042641083148310275,-0.786627339999913,-0.004290932684821222,-2.3598536799998517,0.003723913189850184,1.5691178900000762,0.7858975215000042,0.0399999662,0.03999997715,-9.795372700000108,0.060597514358563025,-0.048455533998680356,-0.00493822303485788,-0.0002652734594553816,0.028325920149210343
0.735,0.00431081149982232,-0.7866514439999083,-0.004340347499812001,-2.359894699999844,0.0037653222798424597,1.56909683000008,0.7858963760000043,0.039999966399999996,0.039999977299999996,-9.795293000000393,0.06130841560391729,-0.048848549498453596,-0.004977073319852976,-0.00016309269742557187,0.02854009959919255
0.7375,0.004358275249821717,-0.7866759599999079,-0.004390567799811363,-2.3599363999998433,0.003807406099841925,1.5690754250000805,0.7858952300000043,0.039999967,0.03999997775,-9.795188000000394,0.06202982645210844,-0.04926164124844835,-0.0050163478498524774,-5.987555816885375e-05,0.02875579449918981
0.74,0.0044057389998211115,-0.7867004759999077,-0.004440788099810722,-2.359978099999843,0.003849489919841388,1.5690540200000807,0.7858940840000044,0.0399999676,0.039999978199999994,-9.795083000000396,0.06275123730029956,-0.04967473299844308,-0.005055622379851976,4.334158108785979e-05,0.028971489399187058
0.7425,0.0044532027498205085,-0.7867249919999073,-0.004491008399810084,-2.3600197999998422,0.0038915737398408532,1.5690326150000808,0.7858929380000044,0.0399999682,0.03999997865,-9.794978000000397,0.06347264814849071,-0.05008782474843783,-0.005094896909851477,0.00014655872034457788,0.029187184299184318
0.745,0.004500666499819903,-0.7867495079999071,-0.0045412286998094435,-2.360061499999842,0.003933657559840317,1.5690112100000813,0.7858917920000044,0.0399999688,0.0399999791,-9.794873000000399,0.06419405899668183,-0.05050091649843256,-0.005134171439850977,0.00024977585960129145,0.029402879199181563
0.7475,0.0045481302498193,-0.7867740239999067,-0.004591448999808805,-2.360103199999841,0.003975741379839782,1.5689898050000815,0.7858906460000044,0.0399999694,0.039999979549999995,-9.7947680000004,0.06491546984487298,-0.05091400824842731,-0.005173445969850477,0.00035299299885800954,0.029618574099178823
0.75,0.004595593999818694,-0.7867985399999063,-0.004641669299808165,-2.3601448999998405,0.004017825199839245,1.5689684000000816,0.7858895000000043,0.03999997,0.03999998,-9.794663000000401,0.0656368806930641,-0.05132709999842204,-0.005212720499849976,0.0004562101381147231,0.029834268999176072
0.7525000000000001,0.004645385794809168,-0.7868243249999012,-0.004694355779798074,-2.3601886249998323,0.004061974219830795,1.568945930000086,0.7858883600000044,0.03999997,0.03999998,-9.79460855000021,0.06639773957139705,-0.051734231498439635,-0.005253227474844754,0.0005616809135567541,0.030054416649156264
0.755,0.004695177589808534,-0.7868501099999009,-0.004747042259797402,-2.3602323499998317,0.004106123239830232,1.5689234600000863,0.7858872200000044,0.03999997,0.03999998,-9.794554100000209,0.06715859844988065,-0.05214136299843444,-0.005293734449844237,0.0006671516890073888,0.030274564299153456
0.7575000000000001,0.004744969384807901,-0.7868758949999005,-0.004799728739796733,-2.3602760749998315,0.004150272259829671,1.5689009900000865,0.7858860800000044,0.03999997,0.03999998,-9.79449965000021,0.06791945732836428,-0.052548494498429264,-0.005334241424843723,0.0007726224644580284,0.030494711949150658
0.76,0.004794761179807266,-0.7869016799999002,-0.004852415219796061,-2.360319799999831,0.004194421279829107,1.568878520000087,0.7858849400000044,0.03999997,0.03999998,-9.79444520000021,0.06868031620684788,-0.05295562599842407,-0.005374748399843206,0.0008780932399086632,0.03071485959914785
0.7625000000000001,0.004844552974806633,-0.7869274649999,-0.004905101699795391,-2.3603635249998303,0.004238570299828546,1.5688560500000872,0.7858838000000045,0.03999997,0.03999998,-9.794390750000211,0.06944117508533151,-0.0533627574984189,-0.005415255374842691,0.0009835640153593027,0.030935007249145052
0.765,0.004894344769805998,-0.7869532499998996,-0.004957788179794719,-2.3604072499998296,0.0042827193198279835,1.5688335800000874,0.7858826600000045,0.03999997,0.03999998,-9.794336300000213,0.07020203396381512,-0.05376988899841371,-0.005455762349842175,0.0010890347908099375,0.031155154899142244
0.7675000000000001,0.004944927719796087,-0.7869794579998943,-0.005011312624784223,-2.3604516149998216,0.004327570399819189,1.568810750000092,0.7858814665000051,0.03999997015,0.039999980399999996,-9.794281900000213,0.07097498811469796,-0.05418215469834833,-0.005496708049836515,0.001195214694178061,0.03137670889912295
0.77,0.004997092979795422,-0.7870065119998939,-0.005066512999783519,-2.3604972599998213,0.004373825599818599,1.5687872000000924,0.7858801660000051,0.039999970600000004,0.03999998159999999,-9.794227600000212,0.07177213281080425,-0.05460468879834294,-0.005538531199835981,0.0013028128534060687,0.03160107559912009
0.7725,0.005049258239794756,-0.7870335659998936,-0.005121713374782815,-2.3605429049998206,0.004420080799818009,1.5687636500000925,0.7858788655000051,0.03999997105,0.03999998279999999,-9.794173300000214,0.07256927750691054,-0.055027222898337544,-0.005580354349835447,0.0014104110126340764,0.031825442299117226
0.775,0.005101423499794093,-0.7870606199998933,-0.005176913749782113,-2.36058854999982,0.004466335999817422,1.568740100000093,0.7858775650000052,0.0399999715,0.039999983999999995,-9.794119000000215,0.07336642220301687,-0.05544975699833218,-0.0056221774998349155,0.0015180091718620889,0.03204980899911438
0.7775,0.0051535887597934284,-0.7870876739998929,-0.0052321141247814095,-2.3606341949998195,0.004512591199816831,1.5687165500000932,0.7858762645000051,0.03999997195,0.0399999852,-9.794064700000215,0.07416356689912315,-0.05587229109832679,-0.005664000649834382,0.0016256073310900964,0.03227417569911152
0.78,0.005205754019792765,-0.7871147279998926,-0.005287314499780708,-2.360679839999819,0.0045588463998162436,1.5686930000000936,0.7858749640000051,0.0399999724,0.03999998639999999,-9.794010400000216,0.07496071159522948,-0.056294825198321415,-0.005705823799833851,0.0017332054903181088,0.03249854239910867
0.7825,0.0052579192797921,-0.7871417819998923,-0.005342514874780003,-2.360725484999818,0.004605101599815654,1.568669450000094,0.7858736635000052,0.03999997285,0.039999987599999995,-9.793956100000218,0.07575785629133576,-0.05671735929831603,-0.005747646949833317,0.0018408036495461166,0.03272290909910581
0.785,0.005311696099781772,-0.7871696999998867,-0.005399422239769065,-2.360772549999809,0.0046527863998064925,1.5686451600000986,0.7858722770000057,0.039999973,0.039999988,-9.793904900000198,0.07658330052755366,-0.05713802729832185,-0.005789819999830687,0.0019505852363295645,0.032950195199085444
0.7875,0.0053662786997810755,-0.7871980499998863,-0.005457183099768328,-2.3608203249998083,0.004701185999805875,1.5686205000000988,0.7858708475000057,0.039999973,0.039999988,-9.793855250000199,0.07742289453408134,-0.0575577622483165,-0.005832167999830147,0.0020614585369103256,0.03317894099908253
0.79,0.005420861299780382,-0.787226399999886,-0.005514943959767594,-2.360868099999808,0.00474958559980526,1.5685958400000992,0.7858694180000058,0.039999973,0.039999988,-9.7938056000002,0.07826248854060906,-0.05797749719831116,-0.005874515999829609,0.0021723318374910912,0.03340768679907962
0.7925,0.005475443899779686,-0.7872547499998857,-0.005572704819766857,-2.360915874999807,0.004797985199804643,1.5685711800000994,0.7858679885000058,0.039999973,0.039999988,-9.7937559500002,0.07910208254713674,-0.058397232148305805,-0.005916863999829069,0.002283205138071852,0.033636432599076706
0.795,0.005530026499778992,-0.7872830999998852,-0.005630465679766123,-2.360963649999807,0.004846384799804027,1.5685465200000999,0.7858665590000058,0.039999973,0.039999988,-9.793706300000201,0.07994167655366445,-0.05881696709830047,-0.005959211999828531,0.0023940784386526177,0.0338651783990738
0.7975,0.005584609099778296,-0.7873114499998849,-0.005688226539765386,-2.361011424999806,0.00489478439980341,1.5685218600001,0.7858651295000059,0.039999973,0.039999988,-9.793656650000202,0.08078127056019213,-0.05923670204829512,-0.00600155999982799,0.002504951739233379,0.034093924199070876
0.8,0.005639191699777602,-0.7873397999998846,-0.005745987399764653,-2.3610591999998056,0.004943183999802795,1.5684972000001005,0.7858637000000058,0.039999973,0.039999988,-9.793607000000202,0.08162086456671985,-0.059656436998289784,-0.006043907999827452,0.0026158250398141446,0.03432266999906797
0.8025,0.005696234944766849,-0.7873694999998786,-0.005806354629753263,-2.361109089999796,0.004993766699793255,1.5684714450001052,0.7858622690000059,0.039999972550000006,0.039999987400000006,-9.79352375000034,0.08249511159599122,-0.06013944344802582,-0.006086958104824043,0.002728503837255261,0.034555559249048115
0.805,0.0057532781897661235,-0.7873991999998783,-0.005866721859752496,-2.3611589799997956,0.005044349399792611,1.5684456900001056,0.785860838000006,0.0399999721,0.039999986800000005,-9.79344050000034,0.08336935862540382,-0.06062244989801968,-0.0061300082098234955,0.002841182634703739,0.03478844849904516
0.8075,0.005810321434765396,-0.7874288999998779,-0.005927089089751726,-2.361208869999795,0.005094932099791966,1.5684199350001058,0.7858594070000059,0.03999997165,0.039999986200000004,-9.793357250000343,0.08424360565481638,-0.06110545634801352,-0.006173058314822946,0.002953861432152212,0.03502133774904219
0.81,0.005867364679764671,-0.7874585999998774,-0.005987456319750959,-2.361258759999794,0.005145514799791324,1.5683941800001062,0.785857976000006,0.039999971200000005,0.0399999856,-9.793274000000343,0.08511785268422897,-0.06158846279800738,-0.006216108419822399,0.0030665402296006896,0.03525422699903923
0.8125,0.005924407924763944,-0.787488299999877,-0.006047823549750188,-2.3613086499997933,0.005196097499790679,1.5683684250001066,0.7858565450000059,0.03999997075,0.039999985,-9.793190750000344,0.08599209971364154,-0.06207146924800122,-0.00625915852482185,0.003179219027049163,0.03548711624903626
0.8150000000000001,0.005981451169763219,-0.7875179999998767,-0.006108190779749421,-2.361358539999793,0.005246680199790035,1.5683426700001069,0.785855114000006,0.03999997030000001,0.03999998440000001,-9.793107500000344,0.08686634674305413,-0.06255447569799508,-0.006302208629821303,0.0032918978244976405,0.0357200054990333
0.8175,0.00603932867475207,-0.7875481479998707,-0.006169441719737613,-2.361409159999783,0.005298003049780145,1.568316550000112,0.7858536820000059,0.03999996950000001,0.03999998365000001,-9.793028250000296,0.08775428011632326,-0.0630348894980213,-0.006345695449815299,0.003405503648783779,0.03595425304901336
0.8200000000000001,0.006098874699751313,-0.7875791919998704,-0.006232460079736812,-2.3614612399997825,0.005350806199779475,1.5682897000001121,0.785852248000006,0.03999996800000001,0.039999982600000004,-9.792957000000298,0.0886695861778179,-0.06351011799801527,-0.006390055699814735,0.0035209635267799567,0.036191217199010355
0.8225,0.006158420724750553,-0.7876102359998699,-0.006295478439736008,-2.3615133199997818,0.005403609349778801,1.5682628500001126,0.785850814000006,0.03999996650000001,0.03999998155000001,-9.792885750000298,0.08958489223931249,-0.0639853464980092,-0.006434415949814169,0.003636423404776129,0.03642818134900733
0.8250000000000001,0.006217966749749797,-0.7876412799998695,-0.006358496799735207,-2.361565399999781,0.005456412499778129,1.568236000000113,0.785849380000006,0.039999965000000005,0.039999980500000004,-9.792814500000299,0.09050019830080713,-0.06446057499800316,-0.006478776199813605,0.0037518832827723066,0.03666514549900432
0.8275,0.006277512774749037,-0.7876723239998692,-0.006421515159734404,-2.3616174799997807,0.005509215649777456,1.5682091500001132,0.7858479460000061,0.039999963500000006,0.03999997945000001,-9.7927432500003,0.09141550436230172,-0.0649358034979971,-0.00652313644981304,0.003867343160768479,0.03690210964900129
0.8300000000000001,0.00633705879974828,-0.7877033679998688,-0.006484533519733602,-2.36166955999978,0.005562018799776785,1.5681823000001136,0.7858465120000061,0.03999996200000001,0.039999978400000004,-9.792672000000302,0.09233081042379636,-0.06541103199799106,-0.006567496699812475,0.0039828030387646565,0.037139073798998286
