rsonawane2002/My_IMU/logs_2/traj_336/clean_336.csv
time,j1,j2,j3,j4,j5,j6,j7,gripper1,gripper2,imu_ax,imu_ay,imu_az,imu_gx,imu_gy,imu_gz,quat_x,quat_y,quat_z,quat_w
940.2833333328068,0.00016700293,-0.785875,4.0107683e-05,-2.3551247,9.29385e-05,1.570997,0.786,0.04,0.04,0.0,-0.0,0.0,2.875329272945135e-08,-0.0011641195053377316,4.421952117202833e-08,0.9999995971961153,0.00020320632366974898,0.0008736418299892524,3.263050917662294e-05
940.2999999994735,0.00016700452,-0.78576016,4.0119674e-05,-2.3552213,9.2983e-05,1.5709941,0.786,0.04,0.04,-0.2919984600105785,-4.6581362808987246e-05,0.020128406012953626,-3.7901386656222616e-07,-0.002237034239270805,3.9403164507799117e-07,0.9999996850589271,0.00020320603226933132,0.0007665025176242788,3.260744731549245e-05
940.3166666661401,0.00016699785,-0.7856541,4.0166073e-05,-2.35531,9.308647e-05,1.5709913,0.786,0.04,0.04,0.023131099877904404,-7.574394693764101e-05,-0.0015688731308083348,-2.8209629646746966e-06,-0.0032162053197218213,2.5661180064184734e-06,0.9999997559069808,0.00020319730182008077,0.0006677078367562386,3.260490881315057e-05
940.3333333328068,0.00016697089,-0.7855565,4.0304516e-05,-2.355391,9.335049e-05,1.5709884,0.786,0.04,0.04,0.022263112098652726,-0.0002062965754094908,-0.0014234910704180592,-9.526088704498297e-06,-0.004099731053685923,8.238310105096739e-06,0.999999812404617,0.000203165772701939,0.0005769299514891678,3.265318771438017e-05
940.3499999994734,0.00016690738,-0.7854663,4.061767e-05,-2.3554654,9.3922696e-05,1.5709856,0.786,0.04,0.04,0.01958668708503808,-0.0003960649834568381,-0.0012951274213079955,-2.208779827934892e-05,-0.00488559546616122,1.891538364501111e-05,0.9999998572087334,0.00020309036593036395,0.000493215170479185,3.279651684210955e-05
940.3666666661401,0.00016678717,-0.78538275,4.1210773e-05,-2.3555331,9.499813e-05,1.5709826,0.786,0.04,0.039999995,0.01862540291557302,-0.000643600677653405,-0.0008998267633009149,-4.257005904494972e-05,-0.005571064756003007,3.671919605654865e-05,0.9999998922951844,0.00020294396218016486,0.0004160866320564294,3.3095054235585973e-05
940.3833333328067,0.00016658682,-0.7853051,4.2209438e-05,-2.3555984,9.678689e-05,1.5709796,0.786,0.04,0.039999995,0.010577895953556293,-0.0009222220359238642,-0.0023156357647380332,-7.296172954230818e-05,-0.006152516411243808,6.131048224493286e-05,0.9999999200338145,0.00020269402223779262,0.00034310052039283927,3.360849030228373e-05
940.3999999994734,0.0001662796,-0.7852325,4.3757325e-05,-2.3556576,9.9530946e-05,1.5709764,0.7859981,0.04,0.04,0.016062786761295023,-0.0012433411093605183,-0.0003078129481304259,-0.00011436610941426206,-0.006647132725016798,9.384309966060003e-05,0.999999941151956,0.00020134936214005186,0.00027562774415786355,3.4407345910321055e-05
940.41666666614,0.00016583587,-0.7851644,4.6014164e-05,-2.3557153,0.000103523314,1.5709697,0.7859962,0.04,0.04,0.006344735955821079,-0.0016166430244474238,-0.0045299266385967485,-0.00015987206326641379,-0.007031780678430433,0.00013685494967303032,0.9999999574770294,0.0001998221535004598,0.00020940650110240692,3.558038378978471e-05
940.4333333328067,0.00016522389,-0.7851,4.9154336e-05,-2.3557675,0.000109066284,1.5709629,0.7859943,0.04,0.04,0.013303343184256633,-0.002013924310953849,0.00028207086846254725,-0.00021951388320150464,-0.007337977375150344,0.0001897672063596602,0.999999968786743,0.00019806660977007766,0.00014768520351584726,3.721843003362484e-05
940.4499999994733,0.00016440946,-0.7850384,5.3364805e-05,-2.3558183,0.000116492425,1.5709553,0.78599143,0.04,0.04,0.005331811364417405,-0.0024442006328258075,-0.0016232600571708389,-0.0002950494130736545,-0.007530204809713992,0.0002545174235041536,0.9999999762567551,0.00019555711430269094,8.769220750557141e-05,3.9420569310499234e-05
940.46666666614,0.00016335634,-0.784979,5.884372e-05,-2.3558683,0.00012615582,1.5709447,0.7859876,0.04,0.04,0.002645991048866314,-0.002901687395387919,-0.0031358604087428077,-0.0003835269246504789,-0.007624660185367271,0.0003321719679634427,0.9999999802452116,0.00019224184749358367,2.7639325028712367e-05,4.229321400557817e-05
940.4833333328066,0.00016202695,-0.7849209,6.579945e-05,-2.355918,0.00013841625,1.570931,0.78598315,0.04,0.04,0.0012814651072279304,-0.0033743011178930375,-0.002858239707714816,-0.0004857897630618041,-0.00763180684635013,0.0004216281509491083,0.9999999806853843,0.00018821510002797943,-3.306954798114451e-05,4.594248728190881e-05
940.4999999994733,0.00016038184,-0.7848637,7.44486e-05,-2.3559675,0.00015365423,1.5709158,0.7859774,0.04,0.04,0.0006051915540705721,-0.003870102629974681,-0.0016256280177984195,-0.0006045616350218172,-0.007549320778418014,0.0005242101256423113,0.9999999775392691,0.0001831222327733105,-9.40172230515164e-05,5.048238185394513e-05
940.5166666661399,0.0001583805,-0.78480655,8.501535e-05,-2.356017,0.00017226394,1.5708973,0.7859698,0.039999995,0.039999995,-0.0010523371522186409,-0.004383473638694402,-0.002507426117936973,-0.0007384191253655157,-0.007366637237494235,0.0006403670478301524,0.9999999705735035,0.00017657660039255938,-0.00015663425439509403,5.6030408309824506e-05
940.5333333328066,0.00015598137,-0.78474885,9.773043e-05,-2.3560667,0.00019463834,1.570875,0.7859613,0.03999999,0.04,-0.0017952574065338567,-0.004902565850258901,-0.0025599831416700525,-0.0008853529940098505,-0.007088809537843525,0.0007688738969744702,0.999999959234621,0.0001690242801776797,-0.0002214273719713825,6.270141794884355e-05
940.5499999994732,0.00015314166,-0.7846898,0.00011282943,-2.3561165,0.0002212033,1.5708486,0.7859515,0.039999988,0.039999995,-0.0032346995214371788,-0.00545050269542731,-0.0024627154623590997,-0.0010512773345256884,-0.006715787498236757,0.0009133612512424239,0.9999999428772051,0.00016022484958470165,-0.0002891118999468698,7.062502089067707e-05
940.5666666661399,0.00014981811,-0.78462875,0.00013055289,-2.356167,0.00025238006,1.570818,0.7859399,0.039999988,0.039999995,-0.004702280942825432,-0.006000126771087504,-0.002341688162377231,-0.001235496797755491,-0.006246700389750722,0.00107242807011506,0.9999999207024461,0.00014981724891179607,-0.00036022434116857513,7.99269490871611e-05
940.5833333328065,0.00014596674,-0.7845651,0.00015114482,-2.356219,0.0002885964,1.5707821,0.78592616,0.039999984,0.039999995,-0.006979728091693893,-0.006557632633695325,-0.0030948802632657646,-0.0014359171320694883,-0.005678575808851917,0.0012454441701765565,0.999999891372002,0.00013761838059468746,-0.0004359866672794647,9.073473302824351e-05
940.5999999994732,0.00014154303,-0.78449833,0.00017485218,-2.3562763,0.0003302869,1.5707407,0.7859102,0.039999977,0.039999988,-0.014060041204100315,-0.00712187515289767,-0.004722823471903226,-0.0016528787586219049,-0.00501828649573976,0.0014343155273298276,0.9999998525480098,0.00012347465786972437,-0.0005186639400722671,0.0001031779269949846
940.6166666661398,0.00013650212,-0.78442776,0.00020192402,-2.356335,0.00037788803,1.5706941,0.78589183,0.039999966,0.039999977,-0.008292029579970439,-0.007691887513266002,-0.0024306365398407692,-0.0018864432893839623,-0.00427872882823533,0.0016383270596669471,0.9999998033834576,0.00010726106352268696,-0.0006065873265621239,0.00011738792788015205
940.6333333328065,0.00013079889,-0.7843526,0.00023261116,-2.3563995,0.0004318397,1.5706407,0.785871,0.039999958,0.03999997,-0.017329373716212793,-0.008262871989400136,-0.005193565959693558,-0.002136358672548567,-0.003439842138120127,0.001857585970437071,0.9999997399053776,8.888286047811984e-05,-0.000703184204402158,0.00013349527768913557
940.6499999994732,0.00012438807,-0.78427255,0.00026716525,-2.3564658,0.0004925829,1.5705812,0.7858477,0.03999995,0.039999966,-0.010139219978411163,-0.008838855552740187,-0.002567517346729886,-0.002403748110745057,-0.0025275649292602655,0.002091303476752665,0.9999996612761534,6.824413348876024e-05,-0.0008061003167702792,0.00015163309685990652
940.6666666661398,0.0001172242,-0.78418696,0.00030583845,-2.356539,0.00056056096,1.5705147,0.7858217,0.039999943,0.039999958,-0.020068907396120217,-0.009412360284772247,-0.005280735181933949,-0.0026888565987267417,-0.0015131436334710948,0.0023412485723143402,0.9999995621368167,4.5160973973327826e-05,-0.0009187630570227585,0.0001719334350989191
940.6833333328065,0.00010926193,-0.7840952,0.00034888272,-2.3566184,0.0006362156,1.5704408,0.7857925,0.03999994,0.039999954,-0.01961928421803094,-0.00998667477601545,-0.0049012174698770394,-0.0029916688340920865,-0.0004228535587446477,0.00260657877149753,0.9999994387468127,1.938921828944387e-05,-0.0010412917611763819,0.0001945291388047249
940.6999999994731,0.00010045617,-0.78399676,0.0003965496,-2.3567007,0.0007199877,1.5703588,0.7857605,0.03999994,0.039999958,-0.014828545066647436,-0.010561515847142272,-0.00360509573054113,-0.003310787759209695,0.0007482851938831392,0.0028864218056140175,0.9999992882759281,-9.01786551599717e-06,-0.0011726733494758208,0.00021955302496245576
940.7166666661398,9.076163e-05,-0.7838908,0.00044908986,-2.3567898,0.00081231765,1.5702685,0.7857252,0.039999936,0.039999954,-0.022597338492214014,-0.011130099463946332,-0.005101132226226213,-0.003648059960008647,0.002014558326288883,0.003182460664431837,0.9999991035323174,-4.036234666731908e-05,-0.0013153815607688942,0.0002471371931228122
940.7333333328064,8.01336e-05,-0.7837772,0.00050675275,-2.3568864,0.000913642,1.5701696,0.78568625,0.03999994,0.03999996,-0.02367935202238769,-0.011696035066718867,-0.005623550304023617,-0.004002322039766394,0.003357296041175397,0.0034929317869139926,0.9999988783398399,-7.482744884692635e-05,-0.0014699530177459824,0.00027741312279965706
940.7499999994731,6.852733e-05,-0.78365546,0.00056978635,-2.3569903,0.0010243969,1.5700611,0.78564376,0.03999994,0.03999996,-0.024457888996876065,-0.012259748186913598,-0.005998353640790377,-0.004372947335096227,0.0047803066361818605,0.0038194810378845674,0.99999860550864,-0.00011247664828933804,-0.001637043603402624,0.00031051251132904544
940.7666666661397,5.589874e-05,-0.7835246,0.0006384366,-2.357102,0.0011450114,1.5699435,0.7855975,0.039999943,0.039999966,-0.025885894029098466,-0.01281594426001979,-0.005170037180568521,-0.004760387964665411,0.006277939441698405,0.004160309382023714,0.9999982772965258,-0.00015346180939727788,-0.0018170707818173511,0.00034656489640561597
940.7833333328064,4.220396e-05,-0.7833849,0.00071294693,-2.3572214,0.0012759151,1.5698158,0.7855474,0.039999943,0.03999997,-0.026190503936596166,-0.013368711202991655,-0.0064285451184309395,-0.005164271084556469,0.007854651718801032,0.004517018567289345,0.9999978848936948,-0.00019790447708368738,-0.0020105414566131082,0.00038570066906158684
940.799999999473,2.7399548e-05,-0.78323543,0.0007935586,-2.3573484,0.0014175299,1.5696776,0.78549314,0.03999994,0.039999966,-0.026993222123916638,-0.013913759652843666,-0.005835092809935993,-0.0055850200018687365,0.009510482529291028,0.004888655173996816,0.9999974185170739,-0.0002459847494545246,-0.0022179327295632234,0.00042804800962360513
940.8166666661397,1.1442628e-05,-0.7830753,0.00088050996,-2.3574839,0.0015702738,1.5695286,0.78543454,0.03999994,0.03999997,-0.02926123041948614,-0.014451096843418098,-0.006079613737441925,-0.006021702389892425,0.011244104908463903,0.00527422027404705,0.9999968659864529,-0.00029788133991997905,-0.002440258159509516,0.00047373420230067265
940.8333333328063,-5.709068e-06,-0.78290474,0.0009740374,-2.3576283,0.0017345604,1.5693682,0.7853716,0.039999943,0.039999973,-0.030275562352333196,-0.014982460465006375,-0.0069646961757818815,-0.006473895567970904,0.013051892555774589,0.005675283371191524,0.99999621500455,-0.0003536532031813985,-0.002677965140992076,0.0005228849674783057
940.849999999473,-2.4097455e-05,-0.7827229,0.0010743727,-2.357785,0.001910797,1.5691963,0.78530407,0.039999947,0.03999998,-0.03663884623275049,-0.015499101064477949,-0.008061642457390938,-0.006941981571000528,0.014933266764965758,0.006090015164496403,0.9999954470065266,-0.00041347465459371744,-0.002933199763366097,0.0005756249429699941
940.8666666661396,-4.3763845e-05,-0.78252923,0.0011817453,-2.3579507,0.0020993866,1.5690126,0.7852319,0.03999995,0.039999984,-0.031957713367414264,-0.016018751307705248,-0.006608062905466561,-0.0074252912013040425,0.016874030040517192,0.006519963206069516,0.9999945509756433,-0.0004774335954861672,-0.0032047703432063215,0.0006320785004834351
940.8833333328063,-6.474879e-05,-0.7823234,0.0012963815,-2.3581252,0.0023007235,1.5688162,0.78515476,0.03999995,0.039999988,-0.03222006226781815,-0.016523842731816958,-0.0070601950084236975,-0.007923954519367787,0.018888724743015662,0.006963244456392002,0.9999935101089071,-0.0005457347505458838,-0.003493213678787879,0.0006923668416485055
940.8999999994729,-8.709225e-05,-0.78210515,0.0014185028,-2.3583121,0.0025151996,1.5686072,0.7850726,0.03999995,0.039999988,-0.03850891614787244,-0.017014321335357616,-0.00840565668829285,-0.008436919081851554,0.02097701128425751,0.0074214069729934854,0.9999923011715092,-0.00061845836991332,-0.0038003481534083588,0.0007566114374290464
940.9166666661396,-0.0001108335,-0.7818738,0.0015483277,-2.358509,0.002743195,1.5683851,0.7849853,0.03999995,0.03999999,-0.035277944900125036,-0.017502677832934976,-0.007488889832263368,-0.00896460409113633,0.023124458329079934,0.00789249977538325,0.9999909074734995,-0.0006957479350928568,-0.004125578165214246,0.0008249302639139603
940.9333333328062,-0.00013601131,-0.78162915,0.0016860716,-2.3587177,0.0029850893,1.5681496,0.7848927,0.039999947,0.039999988,-0.03851154543086377,-0.017977973587240282,-0.008421190727947447,-0.009506295359768335,0.02534307343057576,0.008378275913332723,0.9999893040764053,-0.0007777123556839376,-0.004470066480516357,0.0008974418855546885
940.9499999994729,-0.00016266352,-0.78137076,0.0018319456,-2.3589385,0.00324125,1.5679,0.78479457,0.03999994,0.039999988,-0.03985979511975657,-0.018441335480217595,-0.008960357911247385,-0.010061776479869692,0.027623314330177937,0.008875777125971238,0.9999874653232351,-0.0008644898273032015,-0.004834528827479028,0.0009742611388044247
940.9666666661395,-0.00019082738,-0.7810982,0.001986156,-2.359171,0.0035120414,1.567636,0.7846909,0.039999936,0.039999984,-0.03960936037281648,-0.018898167094337764,-0.008733095988566753,-0.010630582377915237,0.029964126621628628,0.009388292193912249,0.999985366306468,-0.0009561578172884068,-0.005219084970979628,0.0010555032985487627
940.9833333328062,-0.00022053943,-0.7808109,0.0021489055,-2.359416,0.0037978173,1.5673578,0.7845815,0.039999936,0.039999984,-0.04177067600747986,-0.019338691822233783,-0.008960228626064826,-0.011212502188364414,0.03236738287465273,0.00991395284234757,0.9999829769261978,-0.0010528799208431516,-0.005624480443257317,0.001141280611862495
940.9999999994728,-0.00025183527,-0.78050876,0.0023203932,-2.359674,0.0040989253,1.5670644,0.78446615,0.039999932,0.039999984,-0.04251325417623519,-0.019771016793206347,-0.009722058619754392,-0.011806809157688686,0.03482971616791062,0.0104517016113948,0.9999802653356156,-0.0011547600278177085,-0.006051311835660246,0.0012317035590920318
941.0166666661395,-0.00028474984,-0.78019136,0.0025008125,-2.3599448,0.0044157086,1.5667559,0.78434485,0.039999932,0.039999988,-0.04291942755436651,-0.020193747851893207,-0.009590347826882173,-0.012413561287185881,0.03734976746319566,0.011002209593121298,0.9999771996487806,-0.0012618697471838993,-0.006499788367255278,0.001326883003415233
941.0333333328061,-0.00031931748,-0.7798584,0.0026903544,-2.3602293,0.004748497,1.566432,0.7842174,0.039999932,0.03999999,-0.044473939941580554,-0.020599853874134124,-0.010042877587745913,-0.013032254002841987,0.039926684341978304,0.011565290348953152,0.9999737430064694,-0.0013743381120002818,-0.006970536416125316,0.0014269248252662449
941.0499999994728,-0.0003555716,-0.77950937,0.0028892036,-2.3605275,0.005097619,1.5660919,0.7840837,0.03999993,0.039999988,-0.045661734875790394,-0.02099776899035285,-0.010598344338941246,-0.01366240537363523,0.04255945808282775,0.01214160042959547,0.9999698543623671,-0.0014922628623802912,-0.007464361202794361,0.0015319366468642035
941.0666666661394,-0.00039354482,-0.7791442,0.003097543,-2.3608391,0.005463392,1.5657358,0.78394365,0.039999925,0.039999988,-0.04471534402830102,-0.02138886949644616,-0.010318972722700437,-0.014303536906738464,0.04524192877816115,0.012729241722582035,0.9999654985475032,-0.0016157416582123153,-0.007980905691510838,0.0016420224969404338
941.0833333328061,-0.00043326887,-0.7787624,0.0033155489,-2.3611648,0.005846125,1.5653627,0.78379697,0.03999992,0.039999984,-0.04683758639993929,-0.021758304829807076,-0.011259272801300568,-0.014955667170813983,0.04798228171262479,0.013329727424261863,0.9999606260045781,-0.001744927664739131,-0.0085213624020332,0.001757285062308236
941.0999999994727,-0.00047477477,-0.77836365,0.0035433937,-2.3615053,0.00624612,1.5649732,0.7836437,0.03999992,0.03999999,-0.04801431611460849,-0.02211764330891687,-0.011066459236985793,-0.015617492557840599,0.05077290325482256,0.0139403024288682,0.9999551926721323,-0.0018798218235655407,-0.009085851236679281,0.0018778246072027164
941.1166666661394,-0.0005180928,-0.77794755,0.0037812458,-2.3618605,0.0066636726,1.5645665,0.78348386,0.039999913,0.039999984,-0.048681609299516815,-0.02246827064939904,-0.011701997697244337,-0.016289290705494133,0.053612590228335616,0.01456421411742334,0.9999491466623587,-0.0020204853975476565,-0.009675058220904365,0.0020037406022625323
941.133333332806,-0.0005632526,-0.7775137,0.004029269,-2.362231,0.007099071,1.5641423,0.78331715,0.039999913,0.039999988,-0.04989457793405094,-0.022804974107229654,-0.01194606612571203,-0.01697113275488749,0.056498604675817035,0.015198723180166636,0.999942434056048,-0.002167065121694365,-0.010289490358090955,0.0021351325474849732
941.1499999994727,-0.00061028247,-0.7770621,0.0042876205,-2.3626165,0.00755259,1.5637009,0.78314346,0.03999991,0.039999984,-0.04929793838088781,-0.023127578286496857,-0.011941954271255106,-0.017661935227988805,0.059429611487054335,0.015845297128987745,0.9999350054386781,-0.0023196476644757632,-0.010928939498334164,0.002272094739497953
941.1666666661393,-0.0006592103,-0.77659225,0.004556458,-2.3630176,0.008024504,1.5632415,0.78296274,0.039999902,0.03999998,-0.05087623060080482,-0.023442971069352787,-0.012555782375400781,-0.018361473824084845,0.062409286401153424,0.016502110345296354,0.9999267970255328,-0.0024782875411329423,-0.011594300136682,0.002414722647194865
941.183333332806,-0.00071006326,-0.7761041,0.004835929,-2.363434,0.008515076,1.5627637,0.78277487,0.039999895,0.039999977,-0.05087881548790918,-0.023739921133881202,-0.013009019128129573,-0.01906924419058132,0.06543109270202793,0.017169756902848936,0.999917749107729,-0.0026430667641999016,-0.012285751420643642,0.00256310933104323
941.1999999994727,-0.0007628674,-0.77559733,0.005126181,-2.363867,0.009024557,1.5622678,0.78257984,0.03999989,0.039999977,-0.05263280232208345,-0.02402226120060743,-0.013318203060586065,-0.019784678972050954,0.0684969176930751,0.01784807140637363,0.9999077950518392,-0.0028140035302106365,-0.01300380038563264,0.0027173432303875364
941.2166666661393,-0.00081764796,-0.77507156,0.0054273554,-2.3643157,0.009553199,1.5617529,0.7823774,0.039999884,0.03999997,-0.052018302097178726,-0.02430499472267072,-0.013582313157578518,-0.02050807576796525,0.07160241804418635,0.018537814357595037,0.9998968672891695,-0.0029912382803321423,-0.013748715273831114,0.002877517536751094
941.233333332806,-0.0008744295,-0.77452666,0.005739587,-2.3647804,0.010101237,1.5612193,0.78216755,0.039999884,0.039999973,-0.05235791459590189,-0.024561956500275192,-0.013665099488568977,-0.021238132422613517,0.07474895686419206,0.01923698383524001,0.9998848982653263,-0.003174815769022031,-0.014520555855164693,0.003043718684056038
941.2499999994726,-0.00093323574,-0.77396244,0.006063009,-2.3652618,0.010668902,1.5606666,0.78195024,0.03999989,0.039999984,-0.053770463376245914,-0.024806042764176015,-0.014496867234847777,-0.021974554419935878,0.0779364142622766,0.019946264400227794,0.9998718082712674,-0.0033647489126799384,-0.015320007678967323,0.003216030754964603
941.2666666661393,-0.0009940896,-0.77337855,0.0063977484,-2.36576,0.011256424,1.5600942,0.7817253,0.039999887,0.039999984,-0.05453261056140857,-0.025045371188467044,-0.01492573761645577,-0.022717368585236014,0.08115965166933184,0.020665549739110747,0.999857515890154,-0.003561137874179167,-0.01614754728224698,0.0033945444140804537
941.2833333328059,-0.0010570132,-0.7727748,0.0067439284,-2.3662753,0.011864014,1.5595026,0.78149265,0.03999988,0.039999977,-0.05451561017071338,-0.025266877819263983,-0.014895365143319239,-0.02346601184821496,0.08441792328269539,0.021395455563371652,0.9998419442763072,-0.003764022033728495,-0.01700314467348689,0.00357934003915126
941.2999999994726,-0.0011220279,-0.77215093,0.007101667,-2.3668072,0.012491883,1.5588913,0.781252,0.039999876,0.039999977,-0.05439741386836783,-0.025481599604141453,-0.015143807627704398,-0.024219457540897674,0.08771132942553639,0.022134126269959066,0.9998250092345597,-0.00397355889690595,-0.017887007654155466,0.003770503412737228
941.3166666661392,-0.0011891538,-0.7715067,0.0074710804,-2.3673568,0.013140227,1.5582598,0.7810038,0.03999987,0.039999973,-0.05617609551833436,-0.02567059159113913,-0.016143330234186237,-0.02497714667024141,0.09103977623342484,0.022882165058803583,0.999806613206735,-0.004189572572529084,-0.018799940995382104,0.00396810890825436
941.3333333328059,-0.0012584111,-0.7708422,0.007852276,-2.367924,0.01380924,1.5576084,0.78074765,0.039999854,0.03999996,-0.055975255866025364,-0.025855076911856026,-0.0163309866595851,-0.02573988300923517,0.09439728553523495,0.023639527066279482,0.9997866687808741,-0.0044121841324910325,-0.019741884067886677,0.004172238329019094
941.3499999994725,-0.0013298191,-0.770157,0.00824536,-2.3685086,0.0144991055,1.5569366,0.78048354,0.039999846,0.039999958,-0.055863950465329104,-0.026029794885117086,-0.016491181467404026,-0.026506920073663832,0.09778585288950947,0.024405970105725976,0.9997650811597062,-0.00464145544149663,-0.020713014623536294,0.004382968208421209
941.3666666661392,-0.0014033944,-0.769451,0.008650433,-2.369111,0.01521,1.5562445,0.7802114,0.039999843,0.039999958,-0.05658255204357143,-0.026186394116752346,-0.017084495269292788,-0.027277356857616068,0.10120594571554647,0.025181340407262155,0.999741748848264,-0.004877413314824824,-0.021713659257918128,0.004600375071896595
941.3833333328058,-0.0014791552,-0.76872385,0.009067594,-2.3697317,0.015942097,1.5555316,0.779931,0.03999984,0.039999954,-0.057417333655007674,-0.026335243887424045,-0.01753514082876162,-0.028050952348965166,0.10465196155992577,0.025966324151345206,0.9997165610356339,-0.005120142332255699,-0.022744352578305024,0.004824537218946188
941.3999999994725,-0.0015571177,-0.7679757,0.009496933,-2.3703706,0.016695548,1.554798,0.7796425,0.039999828,0.039999947,-0.05735725011566384,-0.026458064748923968,-0.018100444548796446,-0.028826363588267276,0.10812478795650306,0.026758995212759366,0.9996894152198639,-0.005369575714173098,-0.023805093289893765,0.005055520495031262
941.4166666661391,-0.0016372979,-0.76720625,0.009938535,-2.3710272,0.017470513,1.5540433,0.7793457,0.039999813,0.039999936,-0.05638333501150061,-0.026591324239978384,-0.018184497720818982,-0.029604722729691772,0.11162207784470682,0.0275601653734023,0.9996602055895989,-0.0056258281195983705,-0.02489584917074795,0.005293402742742685
941.4333333328058,-0.0017197104,-0.7664152,0.010392488,-2.3717022,0.018267136,1.5532675,0.77904063,0.039999805,0.039999932,-0.05775739924349654,-0.02669469622580585,-0.018701857897318597,-0.030384086059127166,0.11514507235950609,0.028369514781584032,0.999628809690772,-0.005888825921993768,-0.02601715462732796,0.005538251580492368
941.4499999994724,-0.0018043694,-0.76560265,0.01085887,-2.372396,0.019085556,1.5524706,0.7787272,0.039999794,0.039999925,-0.05813526790785506,-0.02678404974744697,-0.01939034402023143,-0.03116527061149422,0.11869071714675108,0.02918699065231142,0.9995951092428391,-0.006158643116708147,-0.027169155604986943,0.005790136135670407
941.4666666661391,-0.0018912881,-0.76476824,0.011337753,-2.373108,0.019925905,1.5516521,0.77840537,0.03999978,0.039999913,-0.057298947136019684,-0.026876290007227244,-0.01953453699878871,-0.03194693361598108,0.12225685481035933,0.030012437919056365,0.9995589844284488,-0.006435238810200457,-0.028351938762615103,0.0060491254099046396
941.4833333328057,-0.0019804793,-0.76391184,0.011829209,-2.3738387,0.020788308,1.5508121,0.7780751,0.03999976,0.039999895,-0.058348973798239,-0.02693810040019992,-0.020124408851751596,-0.03272922930494617,0.12584371336822509,0.030846488302494923,0.9995203034139204,-0.00671864978370877,-0.029565857916775906,0.006315287331027418
941.4999999994724,-0.0020719545,-0.7630339,0.0123333065,-2.3745878,0.021672871,1.549951,0.77773637,0.039999746,0.039999884,-0.05672164683945269,-0.027004688839197058,-0.020318594297075165,-0.03351156251033109,0.1294497100905941,0.031687247330067725,0.9994789591362189,-0.007008862579623405,-0.0308103136558077,0.006588676783040299
941.516666666139,-0.0021657255,-0.7621337,0.012850106,-2.3753557,0.022579715,1.549068,0.77738905,0.03999974,0.03999988,-0.05826700093614079,-0.02704728602765799,-0.021020496918100484,-0.03429380013745137,0.13307888535558793,0.032535554679682235,0.9994347950890016,-0.00730590930470499,-0.0320862248208893,0.006869369067121796
941.5333333328057,-0.0022618005,-0.76121104,0.013379666,-2.3761425,0.023508936,1.5481633,0.7770332,0.039999727,0.03999987,-0.058162697035024635,-0.02708277990359012,-0.02124466374999745,-0.0350745831922156,0.1367233689087541,0.03339189286470909,0.9993876773178364,-0.00760973656010237,-0.03339361674401495,0.007157422406130563
941.5499999994723,-0.0023601912,-0.7602661,0.013922041,-2.3769488,0.024460623,1.5472366,0.7766689,0.03999972,0.039999865,-0.05890834599879824,-0.027084303868450677,-0.02243132856840635,-0.03585448883921476,0.14038297752981682,0.03425457202356476,0.9993374550587456,-0.007920283129383383,-0.03473290143707158,0.007452891359922444
941.566666666139,-0.0024609054,-0.759299,0.014477279,-2.3777735,0.025434872,1.5462878,0.7762959,0.03999971,0.039999858,-0.05664346143730015,-0.02712464872573067,-0.022221808017697242,-0.036633281891607763,0.14405492602673287,0.035124323416106974,0.99928400717139,-0.008237649437439123,-0.03610347669872971,0.007755843828977443
941.5833333328056,-0.002563951,-0.7583093,0.015045427,-2.3786178,0.026431756,1.545317,0.77591413,0.03999969,0.039999846,-0.05861850468484864,-0.02709560251456314,-0.023050630293908192,-0.037409855964567466,0.1477434103402559,0.036000047220842185,0.9992271652671006,-0.008561822972010339,-0.03750602091721123,0.008066335886129337
941.5999999994723,-0.0026693353,-0.7572971,0.015626524,-2.3794813,0.027451357,1.5443243,0.77552366,0.039999675,0.03999983,-0.05794815438358025,-0.027090991079510574,-0.02346000003921045,-0.03818330821501193,0.15144278033833344,0.03688405253473456,0.9991667831096067,-0.008892742192423631,-0.03894046779717811,0.008384428092380249
941.6166666661389,-0.002777065,-0.75626236,0.016220616,-2.3803642,0.028493728,1.5433092,0.7751245,0.039999656,0.039999817,-0.05769428775685981,-0.027066320422305945,-0.02409644114242937,-0.03895376914169596,0.15515324718050685,0.03777366553281314,0.9991027040618558,-0.009230375508793492,-0.0404069289526936,0.008710166293847688
941.6333333328056,-0.0028871458,-0.75520486,0.016827725,-2.381266,0.029558942,1.542272,0.77471656,0.039999634,0.039999798,-0.05720325101199464,-0.02702887502748358,-0.024220218261383764,-0.03972093757384433,0.15887309310323583,0.0386697558730828,0.9990347745151221,-0.00957471104567104,-0.041905336234102496,0.009043617252955834
941.6499999994722,-0.002999584,-0.7541247,0.017447885,-2.3821876,0.030647049,1.5412126,0.77429986,0.0399996,0.03999977,-0.05752618690122446,-0.026975012495386586,-0.025009613983373313,-0.04048423727140137,0.16260154658015213,0.039572025537895794,0.9989628278543404,-0.009925705914709083,-0.043435859329640135,0.009384830933460193
941.6666666661389,-0.003114382,-0.7530218,0.018081121,-2.383129,0.031758077,1.5401307,0.7738744,0.03999957,0.039999742,-0.057761795944499816,-0.026894758312187572,-0.02574947338951361,-0.04124314919669263,0.16633912440044268,0.04048020427624373,0.9988866876645189,-0.010283315739576174,-0.0449987862056574,0.009733851448608239
941.6833333328055,-0.0032315457,-0.751896,0.018727459,-2.3840892,0.03289207,1.5390265,0.77344024,0.039999537,0.039999712,-0.056291913353656575,-0.02684724064739713,-0.02581377612684843,-0.0419977815662257,0.17007985763383024,0.04139438069463216,0.9988062015374198,-0.010647474255962026,-0.04659377924424514,0.01009072832347319
941.6999999994722,-0.0033510767,-0.75074756,0.01938691,-2.3850694,0.03404907,1.5378999,0.77299714,0.039999504,0.03999968,-0.05697249854306197,-0.026747621258109422,-0.026765225278713167,-0.04274768979012642,0.17382758633351658,0.04231519398355035,0.9987211841029583,-0.011018244188487973,-0.04822112347744402,0.01045552339964528
941.7166666661388,-0.0034729773,-0.7495761,0.020059494,-2.3860688,0.035229098,1.5367508,0.7725453,0.03999947,0.03999965,-0.05613483933586405,-0.026668181555918047,-0.02686263620443885,-0.043491718460425405,0.17757841200703336,0.04324067457857257,0.9986314661000815,-0.01139549353541506,-0.04988071837151565,0.010828276715512413
941.7333333328055,-0.0035972495,-0.7483819,0.020745225,-2.3870876,0.03643217,1.5355792,0.7720845,0.039999433,0.039999615,-0.05545485604159239,-0.026566167495956083,-0.027604834514249887,-0.044230092021422515,0.18133344079167457,0.04417155661560455,0.9985368735131889,-0.011779263354255502,-0.051572460611836075,0.011209036344725162
941.7499999994722,-0.0037238942,-0.74716485,0.021444105,-2.388126,0.0376583,1.5343851,0.7716149,0.0399994,0.039999586,-0.055640920954869166,-0.026439727702833038,-0.02817505558221356,-0.044961668584784065,0.1850919175446674,0.045107605800202684,0.9984372157277953,-0.012169405340104716,-0.05329654537828756,0.01159784782346545
941.7666666661388,-0.0038529104,-0.74592495,0.022156136,-2.3891838,0.03890749,1.5331686,0.7711366,0.039999362,0.039999552,-0.055139726797892585,-0.026311045344232925,-0.02863703079749591,-0.045687118209539315,0.1888497141581696,0.04604886898025509,0.9983323127403062,-0.01256586452322451,-0.055052868423639184,0.011994751589963087
941.7833333328055,-0.003984299,-0.7446621,0.022881318,-2.3902612,0.040179737,1.5319296,0.7706495,0.039999317,0.03999951,-0.054849516678756594,-0.02616779149236456,-0.029115521398836997,-0.04640556959466244,0.19260951284496,0.046994986798823316,0.9982219733192766,-0.012968581160260806,-0.05684147323393852,0.012399790556883585
941.7999999994721,-0.004118056,-0.74337626,0.023619644,-2.391358,0.041475035,1.5306685,0.7701535,0.039999288,0.03999948,-0.05404138177096396,-0.02603234229104079,-0.029303959551918446,-0.047117015502839955,0.19636689594415113,0.04794676503285625,0.9981060172807041,-0.01337755749020136,-0.058662133776506385,0.012813012309153686
941.8166666661388,-0.004254184,-0.7420676,0.024371112,-2.3924744,0.042793363,1.529385,0.7696487,0.039999254,0.03999945,-0.05424112155227867,-0.025850376370990108,-0.030394701045044492,-0.04782054481247394,0.20012300342083228,0.04890226615049354,0.9979842347159352,-0.01379272610275465,-0.06051509955285099,0.013234450922197686
941.8333333328054,-0.00439268,-0.740736,0.025135705,-2.3936105,0.0441347,1.5280787,0.76913494,0.039999213,0.039999414,-0.053544211211842274,-0.025683615918118546,-0.031059044699932592,-0.04851562036983808,0.20387550196634563,0.04986230262301282,0.9978564213111621,-0.014214027506072294,-0.06240044039310721,0.013664146840666727
941.8499999994721,-0.004533537,-0.7393816,0.025913417,-2.3947656,0.045499038,1.5267502,0.76861256,0.039999172,0.039999377,-0.05211125024815466,-0.0255508499293719,-0.030893751540972403,-0.04920194043578598,0.20762204351350605,0.05082650431484596,0.9977224124775189,-0.014641284482972191,-0.0643175725106928,0.014102137960609627
941.8666666661387,-0.0046767546,-0.73800457,0.026704215,-2.39594,0.04688632,1.5253994,0.76808137,0.03999913,0.039999336,-0.05186318078518326,-0.02531445973828761,-0.03176344489810301,-0.0498800098342857,0.21136531828825295,0.05179564414678488,0.9975819987663654,-0.0150745106153514,-0.06626656215868972,0.014548457192413256
941.8833333328054,-0.0048223287,-0.7366047,0.027508084,-2.397134,0.048296515,1.5240262,0.76754135,0.03999909,0.0399993,-0.052009353238324785,-0.025117252496888176,-0.03257982876880838,-0.050548688062332287,0.21510445634892492,0.0527680029225205,0.9974349515022836,-0.015513634521943388,-0.06824771348952416,0.01500314197121657
941.899999999472,-0.0049702534,-0.73518217,0.028324995,-2.3983476,0.04972959,1.5226308,0.76699245,0.03999905,0.03999926,-0.051220280054331546,-0.02491637599385671,-0.032856231024291915,-0.05120760759040159,0.21883453683082849,0.05374401850161342,0.9972810816940265,-0.015958610220437614,-0.0702606746589986,0.015466235853848822
941.9166666661387,-0.00512052,-0.7337371,0.029154927,-2.3995802,0.05118548,1.5212133,0.7664349,0.039998997,0.039999213,-0.049846233281969354,-0.02471717707112492,-0.033280469075380736,-0.05185594292775926,0.22255637699887143,0.05472352173324785,0.9971201956333539,-0.016409258588368898,-0.0723051844424192,0.015937753776166755
941.9333333328053,-0.0052731256,-0.73226935,0.02999784,-2.4008324,0.052664127,1.5197736,0.76586866,0.039998952,0.03999917,-0.050290934185870384,-0.02445419150858552,-0.034072179514788026,-0.05249445415623211,0.22627045251222366,0.055707374514688525,0.9969520542798945,-0.01686551969954442,-0.07438154227760592,0.016417730682630603
941.949999999472,-0.005428063,-0.7307792,0.030853702,-2.4021034,0.05416547,1.5183117,0.7652938,0.039998915,0.039999135,-0.04829679586300095,-0.024252496839319293,-0.03433209102730039,-0.053122247327184825,0.22997274348394475,0.05669360488674025,0.9967764770130837,-0.017327301444787398,-0.07648921542397119,0.016906194777427084
941.9666666661386,-0.005585324,-0.72926635,0.03172247,-2.4033937,0.05568945,1.5168271,0.7647101,0.03999887,0.039999094,-0.048897297837346976,-0.023987560433542943,-0.03557697203677712,-0.05373943029509514,0.23366669162190667,0.05768306695062948,0.9965931916883553,-0.01779457756060829,-0.07862882664228064,0.017403186797675333
941.9833333328053,-0.0057448996,-0.7277312,0.032604117,-2.4047036,0.05723599,1.5153217,0.76411796,0.039998826,0.03999905,-0.04795241435449071,-0.023737405221510577,-0.03487002408779638,-0.05434445589809471,0.2373428391304538,0.058676039489494104,0.9964020606857725,-0.018267132880556043,-0.08079927745055666,0.017908715222990628
941.9999999994719,-0.0059067854,-0.72617394,0.033498578,-2.406032,0.058804993,1.513794,0.7635172,0.03999878,0.03999901,-0.04607095250077631,-0.023476771516867112,-0.03620563806441268,-0.054938886794078205,0.24101096288273194,0.059670988456344845,0.9962028354291712,-0.018744939478734925,-0.08300083197022318,0.0184228070355468
942.0166666661386,-0.006070968,-0.7245943,0.034405813,-2.4073796,0.060396384,1.5122442,0.7629077,0.039998736,0.039998967,-0.046362859377646615,-0.023202280331073577,-0.03664424599039151,-0.055521237010999494,0.24466372607135428,0.06066851442195641,0.9959952788531897,-0.019227990238973366,-0.08523354336092474,0.018945500248553383
942.0333333328052,-0.00623744,-0.72299266,0.035325773,-2.4087455,0.062010076,1.5106729,0.76228976,0.0399987,0.03999893,-0.0442021995567865,-0.02296029105275793,-0.03662663581447401,-0.056090411626653264,0.2483004194968698,0.06166900353842144,0.9957792252771022,-0.019716035934685645,-0.0874966670528321,0.01947679871545807
942.0499999994719,-0.006406189,-0.721369,0.03625838,-2.4101303,0.063645974,1.5090798,0.7616634,0.03999866,0.039998896,-0.04441878280792011,-0.02262453543293852,-0.037700513250849,-0.056647577884159875,0.2519262787863722,0.0626709151568276,0.9955544127514289,-0.020209001545575665,-0.08979052104305915,0.02001673895779727
942.0666666661385,-0.006577205,-0.71972317,0.0372036,-2.411534,0.065303974,1.5074652,0.7610286,0.03999861,0.039998844,-0.044386401432539024,-0.02233288586366844,-0.038067377878725495,-0.05719178262706749,0.2555332055014841,0.06367548395398709,0.9953206018576561,-0.020706762385233436,-0.09211512646816229,0.02056533454600103
942.0833333328052,-0.006750476,-0.7180555,0.03816137,-2.4129565,0.06698394,1.5058295,0.7603852,0.039998565,0.039998803,-0.04254278050601634,-0.022034063404653692,-0.03831253883745944,-0.05772313872030592,0.25911999934194924,0.06468108601254048,0.9950776063793066,-0.02120932970202489,-0.09446987749796298,0.021122591260083243
942.0999999994718,-0.006925991,-0.71636635,0.03913162,-2.4143972,0.0686858,1.5041722,0.7597335,0.039998516,0.039998755,-0.04121407842585523,-0.02175166098782738,-0.0390560438396248,-0.05824053445400211,0.26268895039877693,0.06568823795480296,0.9948252087171026,-0.021716496691612096,-0.09685455625269994,0.0216885408801299
942.1166666661385,-0.0071037346,-0.71465576,0.040114276,-2.4158566,0.07040941,1.5024939,0.75907356,0.03999847,0.039998714,-0.04090641580207777,-0.02139532668868488,-0.0395055493088714,-0.05874404617719884,0.2662402126056406,0.06669745489212672,0.9945631784522955,-0.02222810068017949,-0.09926906088521312,0.02226317942224234
942.1333333328051,-0.0072836974,-0.7129235,0.041109275,-2.417334,0.07215463,1.5007945,0.75840527,0.039998412,0.039998654,-0.03969163163961564,-0.0210835814524718,-0.039595048195972815,-0.05923405182620152,0.26977206736495135,0.06770703086686812,0.9942912950318479,-0.02274411226388495,-0.10171313717103032,0.02284652507594103
942.1499999994718,-0.0074658613,-0.7111701,0.04211656,-2.4188304,0.07392138,1.4990741,0.75772876,0.039998375,0.03999862,-0.039750450554754124,-0.020755857981398507,-0.04090595608021719,-0.059709254417411435,0.2732831441127284,0.0687184280773542,0.9940092965597629,-0.02326436753695185,-0.10418694644301102,0.023438595238455946
942.1666666661384,-0.0076502147,-0.7093954,0.043136034,-2.4203448,0.075709514,1.4973328,0.7570441,0.039998326,0.039998572,-0.037934932241667774,-0.020422114788491708,-0.04079604431213024,-0.06016995569635073,0.2767683904581003,0.06972977829710464,0.9937169888445067,-0.023788744099609665,-0.10668996586368441,0.024039403486267555
942.1833333328051,-0.007836744,-0.70759964,0.044167627,-2.4218767,0.077518865,1.495571,0.7563512,0.03999829,0.03999854,-0.03598227547858546,-0.020103961288721328,-0.04061935475834222,-0.060615981668609285,0.2802307555818536,0.07074240125814626,0.993414191702673,-0.02431718979319302,-0.10922155196130783,0.024648947065748925
942.1999999994717,-0.008025431,-0.7057829,0.045211256,-2.423426,0.0793493,1.4937886,0.7556502,0.039998252,0.0399985,-0.03521278501044112,-0.019757412961374232,-0.04130594817706168,-0.06104634458314534,0.2836728066937788,0.07175511690721006,0.9931006647101343,-0.024849517674623827,-0.11178165444003438,0.02526723083910576
942.2166666661384,-0.008216263,-0.70394546,0.046266824,-2.4249935,0.08120068,1.4919859,0.7549413,0.03999821,0.039998464,-0.0356559359445896,-0.019322797177499795,-0.04234469046044964,-0.06146155497563071,0.2870914021988846,0.0727673017979007,0.9927761477767927,-0.02538556025251962,-0.11437036675382171,0.025894264707341373
942.233333332805,-0.008409221,-0.70208746,0.047334254,-2.4265778,0.08307284,1.490163,0.75422454,0.039998166,0.03999842,-0.03226157066054114,-0.019063550866094126,-0.04175159875630108,-0.06186134866370109,0.2904852087978408,0.07378002837315956,0.9924404985564681,-0.02592517763994323,-0.11698674825596858,0.026530034335093947
942.2499999994717,-0.008604291,-0.70020896,0.04841346,-2.4281805,0.08496563,1.4883196,0.7535,0.03999813,0.039998382,-0.03410563944681311,-0.018582482872565864,-0.04359123162454015,-0.062245547210259856,0.2938544896090386,0.07479250083654225,0.9920933716956952,-0.0264682154488347,-0.11963159791330626,0.02717455039426508
942.2666666661383,-0.008801454,-0.69831014,0.049504347,-2.4297996,0.086878896,1.4864568,0.7527667,0.03999809,0.03999835,-0.030166200525738596,-0.018338985800710195,-0.04215181654940725,-0.06261455798169206,0.2971925143491988,0.07580392259499395,0.9917346801397715,-0.027015060215009764,-0.12230339501981642,0.02782786905731986
942.283333332805,-0.009000691,-0.69639117,0.05060682,-2.4314368,0.08881246,1.4845738,0.7520258,0.03999805,0.039998308,-0.031906863983910405,-0.01782730474467198,-0.04432111911498726,-0.06296338825238107,0.30050961197824594,0.07681409940295379,0.9913640728426092,-0.02756505570187934,-0.1250030659366178,0.028489933090684812
942.2999999994717,-0.009201984,-0.69445217,0.051720787,-2.4330902,0.09076616,1.4826715,0.75127727,0.039997995,0.039998252,-0.028067112078478118,-0.017574582553223084,-0.04301443313576847,-0.063296091444294,0.3037926105757829,0.07782252240093462,0.9909814648964467,-0.028118088697041892,-0.12772924930010404,0.029160730322643744
942.3166666661383,-0.009405314,-0.6924935,0.052846123,-2.434761,0.0927398,1.4807498,0.7505217,0.03999795,0.03999821,-0.028795089831157306,-0.017054794595260103,-0.04441065210400996,-0.0636126100915237,0.30704958869072774,0.07883049076983845,0.990586575036197,-0.0286737400849907,-0.13048224108753675,0.029840220313686334
942.333333332805,-0.009610662,-0.6905154,0.053982746,-2.436449,0.09473321,1.478809,0.7497586,0.039997905,0.039998166,-0.027444697435052845,-0.016698703087129896,-0.04472134228779012,-0.06391495057035212,0.3102763808521296,0.07983771643259364,0.9901791866057785,-0.02923217859903329,-0.13326167118291432,0.03052843167622445
942.3499999994716,-0.009818015,-0.68851775,0.05513055,-2.438153,0.09674619,1.4768491,0.7489879,0.03999787,0.03999813,-0.025009495573891094,-0.016357294002064537,-0.04418670416181936,-0.06420028801746144,0.3134719001001771,0.08084315402185477,0.9897591317815434,-0.029793324874118517,-0.13606688041586196,0.031225356713515992
942.3666666661383,-0.010027343,-0.6865007,0.056289416,-2.4398735,0.098778576,1.4748703,0.7482097,0.03999783,0.03999809,-0.02479178303849139,-0.015922155688458117,-0.044884332827654916,-0.06446819238157914,0.3166375871278261,0.08184653722777142,0.989326162802747,-0.030357019344183094,-0.13889782741577855,0.03193099606504703
942.3833333328049,-0.010238629,-0.68446475,0.05745925,-2.4416096,0.100830145,1.4728726,0.74742407,0.0399978,0.039998062,-0.02255857355255575,-0.015554082093829913,-0.04503383544893769,-0.06471806086662969,0.31977144360122617,0.08284737873001452,0.9888801051663092,-0.030923155685602458,-0.1417539395103752,0.03264531638692346
942.3999999994716,-0.010451854,-0.68241,0.05863993,-2.4433622,0.10290073,1.4708564,0.74663126,0.039997756,0.039998017,-0.022663540478307098,-0.015081384349857618,-0.0457023211061669,-0.06494993788077837,0.3228731615030448,0.08384554224878984,0.9884207161193154,-0.031491435037890446,-0.14463517490648217,0.03336830300158014
942.4166666661382,-0.010666994,-0.68033665,0.05983134,-2.445131,0.1049901,1.4688218,0.7458312,0.03999772,0.03999798,-0.021370174981005796,-0.014660581730657762,-0.04602409906804272,-0.06516468569520674,0.3259414074922785,0.08484127636223583,0.9879477790514634,-0.032061814016239115,-0.14754124860889412,0.03409994000284656
942.4333333328049,-0.01088403,-0.67824495,0.061033357,-2.4469156,0.10709808,1.4667696,0.74502414,0.03999768,0.03999794,-0.019576978722524174,-0.014277314843130773,-0.045392434566937645,-0.06536131816508912,0.3289727827773568,0.0858338783590827,0.9874611788530442,-0.032634031311160154,-0.15047126206821468,0.03484020020231277
942.4499999994715,-0.011102938,-0.676135,0.06224587,-2.4487152,0.109224424,1.464699,0.7442101,0.039997656,0.039997917,-0.017705989105887276,-0.01388228343519593,-0.045959592762545576,-0.06554076602615277,0.3319729608568998,0.08682314430706468,0.9869606753024185,-0.03320801443674734,-0.15342513613868441,0.03558905428062199
942.4666666661382,-0.011323698,-0.674007,0.06346877,-2.450531,0.11136897,1.462611,0.74338895,0.03999763,0.03999789,-0.018474774652710302,-0.01339770444398758,-0.046686316649213744,-0.06570219840316435,0.3349373859743548,0.0878092511236134,0.9864460123398189,-0.0337836806193987,-0.1564028721943006,0.036346516092323256
942.4833333328048,-0.011546282,-0.6718613,0.0647019,-2.4523616,0.11353146,1.4605055,0.74256086,0.0399976,0.039997865,-0.01521648868767489,-0.013022323886949239,-0.045956373098410275,-0.06584488262520932,0.33786322684592807,0.08879026946317346,0.9859171020593409,-0.03436084499907661,-0.15940344946689247,0.03711253825752827
942.4999999994715,-0.011770666,-0.6696978,0.06594515,-2.4542072,0.11571168,1.4583827,0.7417262,0.039997566,0.03999783,-0.014862115454716829,-0.012568732163042995,-0.04641515341174962,-0.0659689118215003,0.3407542302197114,0.08976798163627611,0.9853737014105025,-0.034939205247331025,-0.16242687706499845,0.03788707051439394
942.5166666661381,-0.011996829,-0.66751707,0.06719842,-2.4560673,0.11790942,1.4562428,0.74088466,0.039997537,0.0399978,-0.01291176690325635,-0.01220281079338803,-0.046435942557154775,-0.06607542086428482,0.3436077360235489,0.09074141522223186,0.9848156551576719,-0.0355188525819952,-0.1654725329561365,0.03867010867200195
942.5333333328048,-0.012224748,-0.6653193,0.06846153,-2.457942,0.12012441,1.4540862,0.74003667,0.039997503,0.039997768,-0.01182229572278537,-0.011684115974641696,-0.04647411714424621,-0.06616236140151355,0.34642333361106675,0.09170990426582484,0.984242805061432,-0.036099414944438066,-0.16853995397192398,0.03946158689935062
942.5499999994714,-0.012454397,-0.6631046,0.06973438,-2.4598315,0.12235643,1.4519129,0.739182,0.03999748,0.039997745,-0.011405746965098551,-0.0112382380983711,-0.04701382318830216,-0.06623166021241975,0.3492031391174866,0.09267383784355256,0.9836548962913463,-0.03668088785811365,-0.17162916202786138,0.04026149785608314
942.5666666661381,-0.012685751,-0.6608732,0.07101682,-2.4617343,0.12460527,1.449723,0.738321,0.03999745,0.039997716,-0.00824592468147145,-0.010923747372659776,-0.04614344436868478,-0.06628163614245872,0.35194055607319746,0.09363253484213599,0.983051861753478,-0.037263037620099894,-0.1747391631685373,0.041069794076705066
942.5833333328047,-0.012918784,-0.6586254,0.07230873,-2.4636514,0.12687065,1.4475175,0.73745346,0.039997425,0.03999769,-0.008486405896213078,-0.010366445139997627,-0.0465536493822416,-0.06631313502829049,0.35464050741811065,0.09458550867466037,0.9824335076671029,-0.037845815539169984,-0.17786968212393162,0.04188643503831647
942.5999999994714,-0.013153469,-0.6563615,0.07360993,-2.4655828,0.12915234,1.445296,0.7365799,0.0399974,0.039997663,-0.007551408537476156,-0.009886062035802112,-0.04718440666524604,-0.06632491339820075,0.35730237201775333,0.09553262365576344,0.9817996040940569,-0.03842883530088636,-0.1810207206106995,0.042711365322987506
942.616666666138,-0.013389784,-0.6540816,0.074920334,-2.4675274,0.13145013,1.4430587,0.7357001,0.03999736,0.039997626,-0.0049424718423951575,-0.009589991780589724,-0.04640413222918305,-0.06631922114110757,0.3599198258119546,0.0964741215536752,0.9811500508013,-0.039012158493338306,-0.1841914754423872,0.04354457115018399
942.6333333328047,-0.013627699,-0.651786,0.07623978,-2.4694853,0.13376373,1.4408064,0.7348141,0.03999734,0.039997604,-0.0041006260417253415,-0.009079650790722038,-0.04628557406090028,-0.0662941195560553,0.3624970441472869,0.09740912977529027,0.9804847283597977,-0.039595589312790336,-0.18738135259804037,0.04438598268277277
942.6499999994713,-0.013867188,-0.6494752,0.07756813,-2.4714565,0.13609295,1.4385389,0.7339223,0.03999731,0.039997574,-0.0029945439212308855,-0.008657160220942872,-0.046711314315950325,-0.06624969581588812,0.3650350172158321,0.09833710127299633,0.9798034501094711,-0.04017886817381266,-0.19059014099938124,0.045235559681344246
942.666666666138,-0.014108225,-0.6471491,0.07890523,-2.4734402,0.13843744,1.4362562,0.7330247,0.03999728,0.039997544,-0.0009401055825808413,-0.00821924641227767,-0.046207125114761105,-0.06618720598111708,0.36753006552246875,0.09925845540897238,0.9791060785005115,-0.040761896030106555,-0.1938173620653384,0.04609322116553076
942.6833333328046,-0.014350783,-0.6448078,0.08025092,-2.475437,0.14079697,1.4339591,0.73212135,0.03999725,0.039997514,-0.0010169312781860285,-0.007684855545120328,-0.04630133561516203,-0.06610563180613863,0.3699818513764813,0.10017287062455699,0.978392446857373,-0.04134449303899268,-0.1970627055552703,0.04695894916869529
942.6999999994713,-0.014594831,-0.64245224,0.08160505,-2.4774458,0.14317134,1.4316474,0.7312124,0.039997224,0.03999749,0.0018889446089298545,-0.007358906857005132,-0.04614251599890373,-0.06600560436725972,0.3723884427295825,0.10107965739465617,0.9776624907405348,-0.04192652896447447,-0.2003253725202411,0.047832682264655355
942.7166666661379,-0.014840341,-0.640082,0.08296749,-2.4794672,0.1455602,1.4293215,0.7302978,0.039997205,0.03999747,0.0019462190333330298,-0.006834609655126389,-0.04607021148053114,-0.06588660799723108,0.37475384908814147,0.10197855628043367,0.9769159989753652,-0.04250786435091528,-0.2036053159292188,0.04871434839604441
942.7333333328046,-0.015087285,-0.6376978,0.08433808,-2.4815009,0.14796332,1.4269818,0.72937775,0.039997187,0.03999745,0.00337643545322841,-0.0063618416216548734,-0.04609181997432543,-0.06574858543681814,0.37707361248831583,0.10286953001244681,0.9761528835352131,-0.04308832436338759,-0.20690190606851694,0.049603886285844806
942.7499999994712,-0.015335638,-0.6352998,0.08571666,-2.483546,0.1503804,1.4246285,0.7284523,0.03999717,0.039997436,0.005555591328376686,-0.006004128293046751,-0.04522499930688095,-0.06559153293638131,0.37934640762622684,0.10375216769868739,0.9753730859494287,-0.043667781373388205,-0.2102143986242316,0.0505012345043861
942.7666666661379,-0.015585368,-0.63288826,0.08710306,-2.4856038,0.15281124,1.4222618,0.72752154,0.039997153,0.039997417,0.004910492988430271,-0.005419940628928477,-0.04628156457255894,-0.06541557672344543,0.3815753549236749,0.1046261467093675,0.9745763485958318,-0.044246047620950905,-0.2135430007854792,0.05140636967413088
942.7833333328045,-0.015836446,-0.6304636,0.08849715,-2.4876716,0.15525548,1.4198819,0.72658557,0.039997134,0.0399974,0.009657988090472358,-0.0052122260112974494,-0.04402604485616024,-0.06522109014336586,0.3837546553385829,0.10549083108714377,0.9737628193014009,-0.04482308070663963,-0.21688607198902315,0.05231916435997178
942.7999999994712,-0.016088843,-0.6280258,0.089898765,-2.4897516,0.1577129,1.4174893,0.7256447,0.03999712,0.039997384,0.007391993146388387,-0.004546318757209233,-0.0456640277972431,-0.06500715268086485,0.38589304675788105,0.10634620941643846,0.9729321488144793,-0.04539848769963215,-0.22024431782965198,0.05323956781921905
942.8166666661378,-0.016342528,-0.6255755,0.091307715,-2.4918418,0.16018315,1.4150841,0.7246989,0.039997105,0.039997365,0.011222546335432071,-0.004207283990947941,-0.043911278936992204,-0.0647750688490112,0.38798024911500706,0.10719298274047483,0.9720844473612333,-0.045972290959357655,-0.22361632133597487,0.05416748558424865
942.8333333328045,-0.016597476,-0.62311256,0.09272387,-2.493943,0.16266596,1.4126668,0.7237482,0.03999709,0.03999735,0.010921144725761778,-0.003710003809440088,-0.044334292937819875,-0.06452500875396028,0.3900232050428942,0.10802928303817556,0.971219505673493,-0.0465443040424338,-0.22700214446800973,0.055102867143788876
942.8499999994712,-0.016853651,-0.6206374,0.09414708,-2.496054,0.16516107,1.4102377,0.72279286,0.03999708,0.03999734,0.013549773780585639,-0.0034142968731276646,-0.043054391614694154,-0.06425597766431572,0.39201729791046896,0.108855366612212,0.9703373724841214,-0.04711437678220855,-0.2304007560429538,0.05604561245869908
942.8666666661378,-0.017111026,-0.6181503,0.09557713,-2.4981754,0.16766824,1.407797,0.7218328,0.039997067,0.039997328,0.013473024483867668,-0.002847695327395927,-0.043574585749861505,-0.0639689031313462,0.3939655145280876,0.10967120748999723,0.9694378573473212,-0.04768236213077266,-0.23381215177032463,0.05699570832962321
942.8833333328045,-0.01736956,-0.6156518,0.097013876,-2.5003064,0.17018715,1.405345,0.7208683,0.039997052,0.039997313,0.015963759588033533,-0.002517553047257093,-0.04259974020057733,-0.06366356202538571,0.3958652358199284,0.11047565777491161,0.9685210118709402,-0.048248114025952915,-0.23723535944618168,0.05795302654624618
942.8999999994711,-0.017629229,-0.613142,0.09845719,-2.5024474,0.17271745,1.4028817,0.71989954,0.039997045,0.039997302,0.016074023540602056,-0.0019721410017548013,-0.042957839604507164,-0.06333958291125433,0.39771827375675384,0.11126960342732799,0.9675866621871816,-0.04881138735522555,-0.2406703870438074,0.05891743733489326
942.9166666661378,-0.017890003,-0.61062115,0.09990684,-2.504598,0.17525887,1.4004073,0.7189265,0.039997045,0.039997302,0.01754254817709633,-0.0015248509915993802,-0.04250063099113799,-0.06299875563539231,0.39951955540607453,0.11205216347302291,0.966634730701976,-0.04937211411629829,-0.24411679699079317,0.05988890694745947
942.9333333328044,-0.018151857,-0.6080896,0.101362705,-2.506757,0.17781115,1.3979224,0.71794915,0.039997034,0.03999729,0.019775972471003378,-0.0012537313466148836,-0.0410368239877279,-0.0626397577131873,0.40126918761544833,0.11282302166009747,0.9656653218437105,-0.04993025345571911,-0.24757346689314882,0.060867351419605045
942.9499999994711,-0.018414745,-0.6055478,0.1028246,-2.5089254,0.18037394,1.3954271,0.716968,0.039997023,0.03999728,0.019765298670959552,-0.0006705326633688058,-0.04160390273448833,-0.06226252375195439,0.4029721051200893,0.1135815299599964,0.9646782818346957,-0.050485430804863736,-0.2510404086470182,0.06185262370542443
942.9666666661377,-0.018678645,-0.6029959,0.104292355,-2.5111024,0.18294694,1.3929222,0.7159829,0.039997023,0.039997276,0.02147636924159091,-0.00030587175025298396,-0.040295038068838274,-0.061868012876603845,0.4046222430336161,0.11432883850038103,0.963673679551144,-0.05103763356126978,-0.2545166977064527,0.06284464885275895
942.9833333328044,-0.018943522,-0.6004341,0.105765775,-2.5132878,0.18552984,1.3904076,0.7149941,0.039997015,0.03999727,0.022604792537994634,0.00013910708889786072,-0.03999222989570228,-0.06145690763520135,0.40622311009025264,0.11506321672679254,0.9626514498612756,-0.05158668439065866,-0.2580019923822938,0.06384333951423105
942.999999999471,-0.019209348,-0.5978628,0.10724468,-2.5154815,0.18812233,1.3878834,0.7140014,0.03999701,0.039997265,0.023396109795115194,0.000621081127027967,-0.039810724046451806,-0.06102851143141685,0.4077725438655977,0.11578483025682447,0.9616115120178796,-0.05213251003729335,-0.26149600112657834,0.06484861406928717
943.0166666661377,-0.019476084,-0.5952823,0.1087289,-2.5176828,0.19072409,1.3853505,0.71300536,0.039997008,0.039997257,0.025248370738539805,0.0009534433571406487,-0.038466935594339,-0.060582633601776834,0.40926887589152805,0.1164940030793573,0.9605540038519704,-0.05267486109367892,-0.2649977050493837,0.06586031438787923
943.0333333328043,-0.019743687,-0.592693,0.11021831,-2.519892,0.1933349,1.3828088,0.7120058,0.039997008,0.039997257,0.025697537713353924,0.0013191197857032044,-0.03849354738720834,-0.060120700046300615,0.4107163935787256,0.11718937769585884,0.9594788229997803,-0.053213696174770994,-0.26850692704023277,0.06687840373234594
943.049999999471,-0.02001214,-0.5900951,0.11171268,-2.522108,0.19595438,1.3802584,0.71100277,0.03999701,0.03999726,0.027782128388031957,0.0017544670197655599,-0.037413659685847644,-0.059642345114899756,0.4121103178830235,0.11787100473454544,0.9583860364418544,-0.05374894716359752,-0.27202292395270805,0.06790275897411385
943.0666666661376,-0.020281412,-0.5874891,0.113211825,-2.5243316,0.19858219,1.3777002,0.70999676,0.039997023,0.039997272,0.027962228424316393,0.0022801129961613764,-0.03707567672972534,-0.05914656818995255,0.4134538323343318,0.11853817868743793,0.9572756644151278,-0.05428024475640786,-0.275545223047239,0.06893320972947178
943.0833333328043,-0.020551467,-0.5848751,0.114715576,-2.5265617,0.20121808,1.3751341,0.7089876,0.03999704,0.039997287,0.029442917140354297,0.002553569826141411,-0.03617566509630521,-0.058635498690470925,0.4147433395863268,0.11919258108541075,0.9561477057097304,-0.0548076321848584,-0.2790733326142393,0.06996973162654108
943.0999999994709,-0.02082226,-0.5822534,0.11622375,-2.5287986,0.20386164,1.3725604,0.70797527,0.039997056,0.0399973,0.03020903817216869,0.003073719580559686,-0.03581014924382009,-0.05810828420002308,0.41598220437057026,0.11983196352249793,0.955002154313437,-0.05533103245982415,-0.28260685441883004,0.07101216754274
943.1166666661376,-0.021093763,-0.5796245,0.1177362,-2.5310416,0.20651264,1.3699796,0.70696026,0.03999707,0.039997313,0.031626217262248346,0.0033311840483052357,-0.03467368721503661,-0.05756515018265014,0.4171663335575857,0.12045599735270396,0.9538391514834597,-0.05585016230787709,-0.28614495086667074,0.07206038829348448
943.1333333328042,-0.021365948,-0.5769884,0.119252704,-2.5332906,0.20917077,1.367392,0.7059426,0.03999709,0.03999733,0.03242128804386013,0.003763922497479477,-0.03409296968607256,-0.05700729569617576,0.4182981629313879,0.1210651704285808,0.9526586768620103,-0.05636493764568936,-0.28968730869280757,0.07311431040527777
943.1499999994709,-0.021638775,-0.57434595,0.12077309,-2.535545,0.21183564,1.3647976,0.7049223,0.03999711,0.039997347,0.034078076333621254,0.0041635810870022105,-0.03322165668762089,-0.05643379794448644,0.41937635978095145,0.12165948629662322,0.9514608754752215,-0.056875277516367,-0.29323311272526303,0.07417376118826914
943.1666666661375,-0.021912212,-0.5716968,0.12229723,-2.5378046,0.21450697,1.3621972,0.70389956,0.039997127,0.039997365,0.03473739795791797,0.004428520068405772,-0.031971936954422464,-0.0558463562108473,0.42040304683629137,0.12223812946138451,0.9502457924148126,-0.05738109348146589,-0.29678188756311197,0.07523865577808207
943.1833333328042,-0.022186227,-0.56904185,0.123824835,-2.54007,0.21718442,1.3595906,0.7028744,0.039997146,0.03999738,0.03469330752481348,0.005104307537390218,-0.032707768224737865,-0.0552430877085648,0.42137687804592194,0.12280100813855686,0.94901335755403,-0.057882165026851604,-0.30033357654294496,0.07630887862335647
943.1999999994708,-0.022460783,-0.5663811,0.12535578,-2.54234,0.21986769,1.3569784,0.7018471,0.039997157,0.03999739,0.03682400666553676,0.00523694108528483,-0.03066684560832922,-0.05462658088240299,0.4222941318353995,0.12334761027098853,0.947763786252594,-0.058378451199416086,-0.3038872054315202,0.07738428961181794
943.2166666661375,-0.022735843,-0.5637149,0.12688991,-2.5446143,0.2225564,1.3543609,0.70081776,0.039997175,0.03999741,0.03768418986540567,0.005618312496885602,-0.029755767049632897,-0.05399535969371484,0.4231578575551789,0.1238781100355357,0.9464972001040891,-0.05886979391588177,-0.30744217057654494,0.07846470104833245
943.2333333328041,-0.023011379,-0.56104386,0.12842703,-2.5468936,0.22525029,1.3517386,0.69978654,0.03999719,0.03999742,0.037564057217975844,0.006116413079965133,-0.029919531054489745,-0.05335095014697028,0.4239682133739727,0.12439216424318585,0.945213587887655,-0.059356023204182914,-0.31099827816055503,0.07955002679509887
943.2499999994708,-0.023287356,-0.558368,0.12996684,-2.5491765,0.22794896,1.3491113,0.6987534,0.039997224,0.039997455,0.03972316227791595,0.006418583579637094,-0.0280703153623163,-0.052693492997367815,0.424723292337557,0.12489024033862894,0.9439131448679503,-0.059837160790350986,-0.31455469007012243,0.08064016424173934
943.2666666661374,-0.023563731,-0.55568767,0.13150926,-2.5514636,0.2306521,1.3464798,0.69771856,0.039997246,0.039997477,0.03924857697785722,0.006863452342864562,-0.028038995872115002,-0.05202286850808634,0.4254250060818407,0.12537041953616884,0.9425958677895382,-0.06031301483511715,-0.3181112561856204,0.08173493106128595
943.2833333328041,-0.023840476,-0.55300343,0.13305408,-2.5537536,0.23335943,1.3438442,0.69668186,0.03999728,0.039997507,0.041739915107652514,0.006974924869324051,-0.026000829515826496,-0.0513391327615698,0.42606900141424553,0.12583422264367108,0.9412620849862707,-0.06078369886227911,-0.32166677509985636,0.0828342629397787
943.2999999994707,-0.024117561,-0.5503154,0.13460103,-2.5560474,0.23607056,1.3412048,0.69564396,0.03999731,0.039997537,0.040886070706469546,0.007663216600584111,-0.026434461770030726,-0.05064257899400807,0.42666188599111365,0.12627902337178232,0.9399117020294021,-0.06124872269018955,-0.3252214755922708,0.08393794237768043
943.3166666661374,-0.024394937,-0.5476238,0.13615003,-2.5583434,0.23878516,1.3385623,0.69460464,0.039997343,0.039997566,0.043166881621203856,0.007651136651043444,-0.02375384753634524,-0.04993489041276508,0.42719707515343114,0.12670760054688915,0.9385451219231007,-0.06170831531623054,-0.32877400027605924,0.08504583868516118
943.333333332804,-0.024672583,-0.5449292,0.13770086,-2.5606427,0.24150293,1.3359164,0.6935641,0.03999737,0.039997593,0.04244863662952181,0.008300848368519853,-0.02482123021368965,-0.0492148682846462,0.4276808919380034,0.12711721705252,0.9371621968501889,-0.062162194766359265,-0.3323247033525214,0.08615781960110018
943.3499999994707,-0.024950454,-0.5422319,0.13925342,-2.562944,0.24422355,1.3332682,0.69252276,0.039997395,0.039997615,0.0443761537034737,0.008294521663709808,-0.022177725052818786,-0.04848372796478989,0.42810615286042697,0.12750974918094304,0.9357633803728592,-0.06261028797770944,-0.33587223083640577,0.08727366352734386
943.3666666661373,-0.025228517,-0.53953224,0.14080738,-2.5652473,0.24694665,1.3306174,0.6914803,0.03999743,0.03999765,0.04456285096932078,0.008890530837973865,-0.022080368603716316,-0.047742264145857694,0.42848048505565217,0.127884027425978,0.9343486644420037,-0.06305261861096426,-0.33941649701848786,0.0883933373815192
943.383333332804,-0.025506737,-0.53683037,0.14236261,-2.5675528,0.24967186,1.3279642,0.690437,0.03999747,0.039997686,0.04486204363536306,0.00923488828098451,-0.021684315112513453,-0.046989081658432096,0.4287988004482716,0.12823982331917544,0.9329180989334881,-0.06348899764004474,-0.34295734853943427,0.08951661825488003
943.3999999994707,-0.025785081,-0.5341267,0.1439189,-2.5698597,0.25239888,1.3253095,0.6893929,0.039997507,0.039997723,0.04589980209632749,0.009462658926129297,-0.01964665717263392,-0.04622624461760576,0.42905790398625154,0.1285772424986478,0.9314720717185107,-0.06391943899514312,-0.3464936642130994,0.0906433979236868
943.4166666661373,-0.02606351,-0.53142184,0.14547607,-2.5721679,0.25512746,1.3226535,0.68834823,0.039997548,0.03999776,0.04672922228865506,0.009700093386022512,-0.01886547539746708,-0.045452652478889445,0.42926524999390403,0.12889573760419096,0.9300107749652894,-0.06434382443980345,-0.3500249256744853,0.09177353709807969
943.433333332804,-0.026341997,-0.5287157,0.14703394,-2.5744762,0.25785717,1.3199961,0.6873031,0.039997593,0.039997805,0.04786109904617586,0.009966556043061736,-0.01746087903874427,-0.04467015442770805,0.4294171261553624,0.129194459428194,0.9285343748281804,-0.06476212055102472,-0.35355070451227527,0.0929068449741388
943.4499999994706,-0.026620502,-0.5260089,0.14859231,-2.5767858,0.26058763,1.3173381,0.6862578,0.03999764,0.03999785,0.04706836948438209,0.010541968087274256,-0.017419253789197064,-0.043877527247513225,0.42951628666694547,0.12947428073717304,0.9270429982537586,-0.06517410488638405,-0.35707073167240766,0.09404311789744146
943.4666666661373,-0.026898986,-0.52330166,0.15015097,-2.5790951,0.2633186,1.3146797,0.68521225,0.03999769,0.039997894,0.04888093858259612,0.010540497656746917,-0.015195967999426241,-0.04307704089527077,0.4295585413318796,0.12973507378663138,0.9255370237806393,-0.065579847726814,-0.3605840236609998,0.09518226233835658
943.4833333328039,-0.027177412,-0.52059436,0.15170969,-2.5814059,0.26604977,1.3120209,0.68416655,0.039997727,0.03999793,0.04740395639784012,0.011231141152240331,-0.016665169243190725,-0.042267582553371534,0.42954883726617976,0.12997686002783784,0.924016252225494,-0.06597914323884775,-0.3640911570667416,0.09632417986373479
943.4999999994706,-0.027455758,-0.5178872,0.15326837,-2.5837162,0.2687807,1.3093626,0.6831211,0.039997768,0.03999797,0.04932092807963251,0.011217019753190227,-0.013281650703944603,-0.04145057115300674,0.4294768216192778,0.1301980336195115,0.9224813106190565,-0.06637195520793496,-0.3675906324760188,0.09746856947910983
943.5166666661372,-0.027733983,-0.51518065,0.15482683,-2.5860262,0.27151114,1.3067048,0.6820758,0.039997812,0.039998014,0.049522588224215625,0.011543325892798828,-0.013257651572862184,-0.04062607533535867,0.42935177343449493,0.13040088601442798,0.9209322656043311,-0.06675828911654287,-0.37108235119072963,0.09861532151682018
943.5333333328039,-0.028012037,-0.51247495,0.15638487,-2.5883348,0.27424067,1.3040475,0.68103087,0.03999786,0.03999806,0.05083434387431751,0.011687647905539444,-0.011253320959980773,-0.039794135233300304,0.42917123459209433,0.13058411591742075,0.9193694757195165,-0.06713815490962834,-0.374565519460868,0.09976425663313493
943.5499999994705,-0.028289901,-0.50977045,0.15794218,-2.5906425,0.276969,1.3013916,0.6799865,0.039997905,0.039998103,0.05029926548711927,0.012171225887697146,-0.010637594717388676,-0.03895549104661799,0.42893647283104186,0.13074654561932603,0.9177931602772925,-0.06751134197710293,-0.37803974447743327,0.10091523793812031
943.5666666661372,-0.028567538,-0.50706756,0.15949868,-2.592949,0.2796958,1.2987373,0.6789425,0.03999796,0.039998155,0.05073589859379002,0.012321648918178774,-0.0098172035921551,-0.038110590305589456,0.42864734998618775,0.13088972578658614,0.9162035315888022,-0.06787795064402262,-0.3815046120666108,0.10206813162040027
943.5833333328038,-0.02884491,-0.5043667,0.16105415,-2.5952535,0.2824208,1.2960843,0.6778993,0.03999801,0.0399982,0.051774944228721864,0.012521028057027594,-0.008676135616547676,-0.037259342688638376,0.4283034562308104,0.13101222554750472,0.9146008438966227,-0.06823788616482308,-0.3849596753434224,0.10322274746793576
943.5999999994705,-0.02912198,-0.50166786,0.16260843,-2.5975566,0.28514358,1.2934338,0.6768569,0.03999805,0.039998237,0.05076993964476806,0.012953945604787798,-0.007850502955208949,-0.036402001803464874,0.4279057821529547,0.1311140261181424,0.9129853321882022,-0.06859105411893505,-0.3884045543364355,0.1043788899862717
943.6166666661371,-0.029398717,-0.49897185,0.16416126,-2.5998578,0.28786382,1.290786,0.6758154,0.0399981,0.03999828,0.05164339958974029,0.013177657847118773,-0.006599578223109859,-0.035539832103304546,0.42745004678402554,0.13119609970331375,0.9113573845199573,-0.06893741185677946,-0.3918385113369181,0.10553640111686284
943.6333333328038,-0.029675083,-0.49627855,0.16571249,-2.6021562,0.29058117,1.2881407,0.67477506,0.039998148,0.03999833,0.052483104081280096,0.01329749396979385,-0.005293776865167299,-0.03467360395966732,0.4269422861423835,0.13125715458283138,0.9097171857762972,-0.06927698386451882,-0.39526129931769366,0.10669511081384128
943.6499999994704,-0.029951043,-0.49358854,0.16726191,-2.6044517,0.29329532,1.2854985,0.67373616,0.039998204,0.039998382,0.05242679221131308,0.013550513021104438,-0.004157924989811601,-0.033802475367398666,0.4263790738503498,0.1312983011659022,0.9080651272757144,-0.06960962081180073,-0.3986722525704946,0.10785481142047205
943.6666666661371,-0.030226564,-0.4909021,0.16880935,-2.606745,0.29600596,1.2828598,0.67269844,0.039998252,0.03999843,0.05162660648823092,0.01399098361335449,-0.004308466974989322,-0.03292828918801959,0.4257621267576997,0.1313186324165523,0.9064012804148777,-0.06993534947750264,-0.40207139695231964,0.10901540032738606
943.6833333328037,-0.030501608,-0.48821953,0.17035468,-2.6090343,0.29871267,1.280225,0.67166215,0.039998315,0.039998487,0.05334743518956575,0.013888707178483228,-0.00127142735200092,-0.0320503444274555,0.42508850828480205,0.13131904954992712,0.9047262872930764,-0.07025429347864018,-0.40545750876810416,0.11017662144150962
943.6999999994704,-0.030776147,-0.48554102,0.17189763,-2.6113207,0.3014153,1.2775942,0.6706275,0.03999836,0.039998535,0.052062085747683895,0.014340261073408911,-0.0021292862904864762,-0.03116907195398565,0.424364005459457,0.13129808699430945,0.9030400737934147,-0.07056620538712899,-0.40883100837884956,0.11133841371412936
943.716666666137,-0.031050138,-0.48286718,0.17343804,-2.6136029,0.30411327,1.2749678,0.66959465,0.03999842,0.039998587,0.05344720491424759,0.014469610537348743,0.00038715821228940683,-0.03028514701994152,0.4235813100127036,0.13125674131553566,0.9013432811438413,-0.07087118001176963,-0.41219075147081,0.11250044347700446
943.7333333328037,-0.031323545,-0.4801982,0.17497574,-2.6158807,0.3068065,1.2723463,0.66856366,0.039998475,0.039998643,0.05312743235201811,0.014525552114519336,0.001231289176917283,-0.029399350372171097,0.4227483688478936,0.13119486618847512,0.899636165613941,-0.07116920590597081,-0.4155364131221042,0.11366267205980647
943.7499999994703,-0.031596333,-0.4775344,0.17651053,-2.6181545,0.30949447,1.26973,0.66753465,0.039998535,0.039998703,0.052644982457583644,0.01501097924341277,0.0017060747289909806,-0.02851154418269507,0.4218622981370702,0.1311122984089252,0.8979189700070102,-0.07146022327409701,-0.4188677835896541,0.11482482162780284
943.766666666137,-0.031868488,-0.47487614,0.17804214,-2.6204233,0.312177,1.2671187,0.6665076,0.039998602,0.039998766,0.05358787514611052,0.014991972591660296,0.0031881133452205113,-0.027622949616098465,0.4209226993531482,0.13100909770965105,0.8961920292952678,-0.07174433116009073,-0.42218436955052796,0.11598687719412264
943.7833333328036,-0.032139964,-0.4722237,0.17957044,-2.6226869,0.31485367,1.2645133,0.6654829,0.039998665,0.039998826,0.05334437294370886,0.015236717958283519,0.004549624374539096,-0.026732814911028177,0.4199298418391482,0.13088449154808943,0.8944557987945471,-0.07202142380097958,-0.42548555925399206,0.11714852701936167
943.7999999994703,-0.032410715,-0.46957737,0.18109529,-2.6249459,0.3175241,1.2619138,0.66446054,0.03999873,0.03999889,0.05240893524260937,0.01563399697686596,0.004254377146573063,-0.025842193304201694,0.41888667026751447,0.13073934940936913,0.8927103662919681,-0.07229143995558773,-0.4287714971671661,0.11830956360765986
943.8166666661369,-0.03268073,-0.46693754,0.18261649,-2.6271992,0.32018802,1.2593207,0.66344076,0.039998803,0.03999896,0.053233928297280464,0.01560649967238259,0.006509601139825794,-0.0249516329038411,0.4177876666507463,0.13057402764221812,0.8909563141005158,-0.07255444452696151,-0.4320412718909086,0.11946982182414494
943.8333333328036,-0.032949965,-0.4643046,0.1841338,-2.6294467,0.32284525,1.2567345,0.6624236,0.039998874,0.03999903,0.05296702317088009,0.015723379609311472,0.007272462064356056,-0.02406244181570273,0.41663660326194474,0.13038811817969315,0.8891939551147334,-0.07281041653444022,-0.4352945453180806,0.12062923463167662
943.8499999994702,-0.033218365,-0.46167868,0.18564712,-2.631688,0.32549524,1.254155,0.6614092,0.03999895,0.0399991,0.053030122729658125,0.01599108219286216,0.008266746528318158,-0.023173477263533863,0.41543473814234244,0.13018214505471673,0.8874235904547799,-0.07305944252711447,-0.4385310681534098,0.12178748386514816
943.8666666661369,-0.033485927,-0.4590603,0.18715626,-2.6339233,0.32813776,1.2515827,0.6603976,0.039999004,0.039999153,0.05277891614972052,0.016168432387142495,0.009022572748029756,-0.022285206384230247,0.41418123344882896,0.12995551488338458,0.8856455730533024,-0.07330151804664983,-0.44175046304201404,0.12294443779736589
943.8833333328035,-0.03375261,-0.45644954,0.188661,-2.6361523,0.3307725,1.2490181,0.659389,0.039999068,0.039999213,0.05217685202256739,0.01639195941862681,0.009820291650264323,-0.021398282392891033,0.4128749092403859,0.12970847097771443,0.8838601964567324,-0.07353653659285699,-0.4449525120616172,0.12409993116617828
943.8999999994702,-0.034018368,-0.453847,0.1901611,-2.638374,0.33339927,1.2464615,0.65838337,0.03999914,0.03999928,0.052791968045684534,0.016278339358316574,0.011796630675497966,-0.02051375033660926,0.41151532990938666,0.1294413599435954,0.8820680667543356,-0.07376470221395307,-0.448136311500618,0.12525390466638806
943.9166666661368,-0.03428318,-0.45125273,0.19165646,-2.6405885,0.3360174,1.2439127,0.65738094,0.03999921,0.039999343,0.05262069772395961,0.016712769428184338,0.012237592019537225,-0.019630761541741606,0.4101088094416122,0.12915303533931677,0.8802693659509927,-0.07398600985437845,-0.45130194735894985,0.12640595723337086
943.9333333328035,-0.03454701,-0.44866714,0.19314696,-2.6427958,0.33862698,1.2413723,0.6563819,0.039999273,0.039999403,0.05188622955207833,0.01660431153876485,0.012904425583004642,-0.018750796464622837,0.40864918034471304,0.1288445855869864,0.8784644606348005,-0.07420037150894407,-0.4544490608965787,0.1275560555981623
943.9499999994702,-0.034809817,-0.44609052,0.19463228,-2.6449955,0.3412275,1.2388412,0.65538645,0.03999934,0.03999946,0.05165327340250769,0.016900071055592214,0.01444756271018477,-0.0178728567710891,0.4071388389982734,0.12851632893730477,0.876653882995061,-0.07440777428090173,-0.45757703430952407,0.1287039635316068
943.9666666661368,-0.035071585,-0.44352326,0.19611235,-2.647187,0.34381875,1.2363188,0.6543943,0.03999941,0.039999522,0.05191151785473025,0.01686862920396992,0.015194813027208376,-0.017000656750231657,0.4055801059417486,0.1281677823681504,0.8748379099697307,-0.07460848154541382,-0.4606856702764835,0.12984960132086773
943.9833333328035,-0.03533227,-0.44096553,0.1975869,-2.6493704,0.34640032,1.233806,0.653406,0.03999949,0.039999597,0.051145271937413916,0.017171652792641323,0.016125912795794672,-0.016132089278877784,0.40397023268105037,0.12779767993098695,0.8730169612901303,-0.0748022966141971,-0.46377463958104376,0.1309926921719746
943.9999999994701,-0.035591833,-0.43841782,0.19905582,-2.6515458,0.34897184,1.2313029,0.6524217,0.039999556,0.03999966,0.05078341844184653,0.017354875899128208,0.016611505150621042,-0.015268090651938182,0.4023121635527989,0.127408530894106,0.8711913736565274,-0.07498924251674291,-0.46684374308205917,0.13213297664985255
944.0166666661368,-0.035850268,-0.43588027,0.20051894,-2.653712,0.35153317,1.2288097,0.65144116,0.039999638,0.03999974,0.050968265577844285,0.017192074198707497,0.018429777689454863,-0.014410670037648246,0.40060260474968046,0.12699977336650398,0.8693616522228741,-0.0751695681136154,-0.4698923683408321,0.13327046127694875
944.0333333328034,-0.03610752,-0.4333532,0.20197608,-2.655869,0.35408387,1.226327,0.6504647,0.039999716,0.039999828,0.05054903324599458,0.01739605239314268,0.01934719637597393,-0.013560395457184411,0.39884609968928314,0.1265682886526756,0.8675282212963312,-0.07534323089450866,-0.4729202084964143,0.13440483327808034
944.0499999994701,-0.036363587,-0.43083692,0.20342706,-2.658017,0.3566237,1.2238549,0.64949244,0.039999787,0.03999992,0.04978613560173706,0.01756382420033953,0.01971408837855293,-0.01271715699970375,0.3970428096381037,0.12611714421913275,0.8656913981919393,-0.07551021519858009,-0.4759271055459259,0.13553597568109574
944.0666666661367,-0.036618408,-0.42833182,0.20487171,-2.660156,0.35915238,1.2213935,0.64852434,0.039999846,0.04,0.049221117744036036,0.0178170858072757,0.019728613259151206,-0.011885407449421875,0.39518955730743743,0.12564327778937368,0.8638513861620452,-0.07567057924227916,-0.4789131153946774,0.13666372586028663
944.0833333328034,-0.036871962,-0.4258382,0.20630987,-2.6622846,0.3616696,1.2189435,0.6475608,0.03999993,0.04,0.04975061888856658,0.017502200291413805,0.022696691065382524,-0.011066786108167213,0.3932831867170872,0.12514590138544512,0.8620090484158635,-0.07582444361689647,-0.48187712034411645,0.137787862630304
944.09999999947,-0.037124224,-0.42335615,0.20774132,-2.6644037,0.36417502,1.2165049,0.6466016,0.03999998,0.04,0.04834686854719994,0.01798030764267322,0.021889010396236586,-0.010264448555814182,0.3913313993911652,0.12462442028774304,0.8601643991107761,-0.07597178486374123,-0.4848195425882446,0.13890826300670484
944.1166666661367,-0.037375167,-0.42088616,0.20916598,-2.6665127,0.36666837,1.2140778,0.645647,0.04,0.04,0.048355907556940636,0.01796349460386204,0.02283032816017272,-0.009446218410315087,0.38933818649872465,0.12409828328167301,0.8583178770643566,-0.07611273054667705,-0.48774004229191215,0.14002473104972818
944.1333333328033,-0.037624735,-0.41842842,0.21058358,-2.6686108,0.36914945,1.2116625,0.6446973,0.04,0.04,0.04840574461681957,0.017815193726833378,0.024595736043453442,-0.008627545759097147,0.3872985389608248,0.12355769916048145,0.8564700517288782,-0.07624728025852046,-0.49063807667109616,0.14113709811810243
944.14999999947,-0.037872933,-0.41598326,0.21199407,-2.6706982,0.37161785,1.2092597,0.64375234,0.04,0.04,0.04732356473211574,0.018046514842395833,0.025085824454906813,-0.00782006395378447,0.38521352508867834,0.12299636967221508,0.8546213384298178,-0.0763755859778938,-0.49351336821226893,0.14224518678233602
944.1666666661366,-0.03811971,-0.41355103,0.21339719,-2.6727746,0.37407333,1.2068697,0.6428125,0.04,0.04,0.04690493675543195,0.018127385827104714,0.025886202952385418,-0.007023113507743303,0.38308367848314184,0.12241562266699765,0.8527721702842811,-0.07649757216257434,-0.496365665430055,0.14334878173199614
944.1833333328033,-0.038365036,-0.4111318,0.21479283,-2.6748402,0.37651563,1.2044923,0.64187765,0.04,0.04,0.04610129396531715,0.01827633936475892,0.025792238911437337,-0.006230410437475367,0.3809117286276166,0.12181940714638353,0.8509226836669304,-0.07661334501631634,-0.4991951696831118,0.1444477910925935
944.1999999994699,-0.0386089,-0.40872604,0.21618086,-2.676895,0.37894443,1.2021284,0.6409478,0.04,0.04,0.045410207189711116,0.018346909986455273,0.026939917304558136,-0.005445149094762458,0.3786910008267126,0.12120632751690454,0.8490734850563916,-0.07672301442337477,-0.5020013105223325,0.1455420223366609
944.2166666661366,-0.038851265,-0.40633377,0.21756107,-2.678937,0.38135943,1.1997776,0.64002323,0.04,0.04,0.046174400565490714,0.01807870891735175,0.02904737944335878,-0.004675261381253494,0.37642635322161844,0.12057155803000123,0.8472251045013205,-0.07682680879594468,-0.5047836356060884,0.1466313233155102
944.2333333328032,-0.039092105,-0.4039555,0.21893327,-2.6809676,0.3837605,1.1974406,0.6391041,0.04,0.04,0.04443719369193744,0.018375656965702314,0.028357932543887632,-0.003906352706230361,0.37412176214095494,0.11992310183011087,0.8453777930323355,-0.07692451131229652,-0.507542238125084,0.14771554801754122
944.2499999994699,-0.039331384,-0.40159163,0.22029734,-2.6829865,0.38614726,1.1951175,0.63819057,0.04,0.04,0.04409190512519867,0.018532073597749,0.028923756871579442,-0.0031515929052326613,0.37177169075668287,0.11925536198803913,0.8435319484113332,-0.0770162630190625,-0.5102769408515258,0.14879445848272344
944.2666666661365,-0.03956908,-0.39924204,0.22165316,-2.6849926,0.38851944,1.1928089,0.6372825,0.04,0.04,0.04379248883883413,0.018242457006439894,0.031038634028979217,-0.002406294747074003,0.3693797278135012,0.11857140032640852,0.8416882176446945,-0.07710232399516685,-0.5129871081070426,0.14986795130585823
944.2833333328032,-0.03980517,-0.39690727,0.22300057,-2.6869862,0.39087674,1.1905141,0.63638026,0.04,0.04,0.04332485725937474,0.01855684833411142,0.030299109950804315,-0.0016698552242574438,0.3669486025395338,0.1178708323661706,0.839846675343224,-0.07718260948709026,-0.5156731438606701,0.1509357989628348
944.2999999994698,-0.040039618,-0.39458755,0.22433938,-2.6889672,0.39321896,1.1882339,0.63548374,0.04,0.04,0.042509252103761774,0.018524428286015304,0.03128503678687666,-0.0009448257528146195,0.3644712736789588,0.1171534814358586,0.8380078430813525,-0.07725727195037066,-0.518334640730226,0.15199792460423092
944.3166666661365,-0.0402724,-0.39228302,0.22566946,-2.6909359,0.39554578,1.1859688,0.634593,0.04,0.04,0.04132049338569921,0.018708053651728118,0.03155671326948717,-0.00023095806141254505,0.3619528308246162,0.11641909169990135,0.8361720895854128,-0.07732633235352657,-0.5209715021458322,0.1530541370725787
944.3333333328031,-0.04050349,-0.38999408,0.22699068,-2.6928906,0.3978569,1.1837193,0.6337083,0.04,0.04,0.04152310206753107,0.018405460796355744,0.033840521878514274,0.0004723206992331211,0.35939218818449514,0.11566932159570177,0.8343402225516454,-0.07739001965599991,-0.5235829157834911,0.15410421210911987
944.3499999994698,-0.040732864,-0.38772085,0.22830287,-2.6948316,0.40015215,1.1814855,0.63282967,0.04,0.04,0.04075266739986816,0.01842394317038698,0.034122824273374874,0.0011643232365046718,0.35679619810903707,0.11490362617032593,0.8325125303532726,-0.07744838072624419,-0.5261688959190903,0.1551480844063491
944.3666666661364,-0.040960517,-0.38546365,0.2296059,-2.6967597,0.40243137,1.1792673,0.6319572,0.04,0.04,0.03958570395699024,0.018724444358669823,0.03299379239388722,0.001844570791799574,0.35416410756770655,0.11412224430349059,0.8306890281398595,-0.07750135898574861,-0.528729917962435,0.15618563229328952
944.3833333328031,-0.041186396,-0.38322273,0.23089963,-2.6986737,0.40469414,1.1770647,0.63109106,0.04,0.04,0.03968472304312076,0.01859128454634318,0.03471001017867348,0.002513580032907921,0.35149036555803415,0.11332579567627216,0.8288703398468086,-0.07754917148225225,-0.5312654969097843,0.1572165942827032
944.3999999994697,-0.04141049,-0.3809983,0.23218393,-2.7005732,0.40694025,1.1748786,0.63023126,0.039999995,0.04,0.03882822587633061,0.018458271578553065,0.03604820516889262,0.003170674783809807,0.3487766233152233,0.1125144241462828,0.8270571286318744,-0.07759198740619505,-0.5337750628797517,0.15824086614169264
944.4166666661364,-0.041632775,-0.37879053,0.2334587,-2.7024584,0.40916958,1.1727086,0.62937796,0.039999995,0.04,0.03820107502208181,0.018510310217900727,0.035606758772055436,0.0038163687915400285,0.3460297735872121,0.11168879480056278,0.8252494626389572,-0.07762981559991174,-0.5362590009466325,0.15925834373041725
944.433333332803,-0.041853223,-0.37659982,0.2347237,-2.7043293,0.41138187,1.1705554,0.628531,0.039999988,0.04,0.037305795382658324,0.01860583587558473,0.0361644394444971,0.0044500974585969105,0.34324492160599335,0.11084831364885003,0.8234478463849373,-0.07766281386072223,-0.5387169895994764,0.16026895127915705
944.4499999994697,-0.04207181,-0.37442628,0.23597886,-2.7061853,0.41357672,1.1684191,0.627691,0.03999999,0.04,0.036649789991649584,0.01861597161877948,0.03705428714322334,0.005070860244255834,0.3404233068331683,0.10999246547115377,0.8216527778253392,-0.07769090653029634,-0.5411488500343595,0.1612723095912471
944.4666666661363,-0.042288516,-0.37227014,0.23722401,-2.708027,0.41575408,1.1663,0.6268575,0.03999998,0.04,0.03577080634618035,0.018606429492740162,0.03696966370406729,0.005678921943925379,0.3375670755334043,0.1091245512612632,0.819864495214637,-0.07771431779549244,-0.5435546228665022,0.16226850050605682
944.483333332803,-0.042503312,-0.37013167,0.23845907,-2.7098532,0.41791365,1.1641982,0.62603104,0.03999997,0.04,0.03557105573053221,0.018502839521788994,0.037968171666280526,0.006274613452048973,0.3346751767203333,0.10824260123236448,0.8180834915594901,-0.07773312520720808,-0.545934088420197,0.16325726073949243
944.4999999994697,-0.042716183,-0.36801112,0.23968391,-2.7116642,0.42005515,1.1621137,0.62521136,0.03999996,0.04,0.03473944416552133,0.018566937403191597,0.03819972245122649,0.006856815951565849,0.33174903838422043,0.10734789213548727,0.8163101168962168,-0.07774752089929463,-0.5482871818089535,0.16423849217188424
944.5166666661363,-0.042927124,-0.36590865,0.24089836,-2.7134597,0.42217845,1.1600469,0.6243984,0.039999966,0.04,0.034003913788516194,0.018503251066637194,0.03882943282447204,0.007426434953806328,0.3287903456525851,0.10643959782819339,0.814544798526817,-0.07775763595707391,-0.5506137133835565,0.1652121662506883
944.533333332803,-0.043136094,-0.3638244,0.24210231,-2.7152398,0.42428324,1.1579982,0.6235927,0.03999996,0.04,0.03310917517251877,0.018571855890808786,0.03900251427984003,0.007983744739324082,0.32579792536052427,0.10551783732141254,0.8127878792452728,-0.07776340387099126,-0.5529137302953506,0.16617798657237765
944.5499999994696,-0.043343075,-0.36175874,0.24329573,-2.7170043,0.4263694,1.1559675,0.6227943,0.039999958,0.04,0.03250054401164881,0.018509344359757263,0.039077887724725535,0.008527947850506569,0.3227728934645884,0.10458479144910415,0.811039685206255,-0.07776491855845771,-0.5551872332207648,0.16713582060948934
944.5666666661363,-0.04354804,-0.35971177,0.24447839,-2.7187529,0.42843676,1.1539553,0.62200284,0.039999947,0.04,0.0317360011642176,0.018383759534768007,0.04009425539125422,0.009058426673832908,0.3197146763317063,0.10364051101925548,0.8093007368566981,-0.07776246272650114,-0.5574338602952355,0.16808571655636542
944.5833333328029,-0.043750983,-0.35768366,0.24565016,-2.7204854,0.43048504,1.1519617,0.6212188,0.039999943,0.04,0.031089841129738893,0.018481808473586048,0.04007890142845305,0.009578261530290469,0.31662671377790974,0.10268489262256254,0.8075712875178699,-0.07775598566010845,-0.5596537731875598,0.16902744282418206
944.5999999994696,-0.043951876,-0.35567468,0.24681097,-2.7222018,0.4325141,1.1499865,0.6204423,0.039999932,0.04,0.030578952488946598,0.018373612972227837,0.040410356475861775,0.01008111817541743,0.3135073711484624,0.10171690958147206,0.8058516898949372,-0.07774561703484109,-0.5618469331644484,0.169960867905085
944.6166666661362,-0.044150718,-0.35368493,0.24796072,-2.7239013,0.43452364,1.1480304,0.61967283,0.03999993,0.04,0.029917211797303445,0.018237597113951454,0.04165170071835922,0.010570053226192935,0.31035590277512803,0.10073823229780782,0.8041425295290033,-0.07773173861814014,-0.5640129025397822,0.1708859701167631
944.6333333328029,-0.044347476,-0.3517147,0.2490993,-2.7255845,0.43651357,1.1460935,0.61891097,0.03999992,0.04,0.028762851958186175,0.01836482326316724,0.040850045373752586,0.011046024030096836,0.3071786035862102,0.09974727977349143,0.8024439690393961,-0.07771415981753144,-0.5661519872665197,0.1718025413965882
944.6499999994695,-0.044542126,-0.3497641,0.25022665,-2.7272503,0.43848366,1.1441762,0.61815673,0.03999992,0.04,0.02847777933747686,0.018020246847716415,0.04258533516841023,0.011508659963280078,0.30397168542431574,0.09874658375571546,0.8007567054328045,-0.07769317578379588,-0.5682636476598718,0.1727104394335382
944.6666666661362,-0.04473467,-0.34783337,0.2513426,-2.7288995,0.44043368,1.1422781,0.61741024,0.03999992,0.04,0.02771583771927766,0.01832753735395709,0.041398580972445975,0.011957168304013527,0.3007422868505445,0.09773563433024338,0.7990806566194106,-0.07766873901557725,-0.5703484815540919,0.17360956421051058
944.6833333328028,-0.04492509,-0.34592268,0.252447,-2.7305317,0.4423635,1.1403996,0.6166716,0.039999917,0.04,0.026839666886790958,0.018211346331004075,0.04203112891132399,0.0123914899695007,0.2974818900234293,0.09671512683914453,0.7974163307233461,-0.07764093321315092,-0.5724062361586866,0.17449980456193112
944.6999999994695,-0.04511335,-0.34403223,0.25353986,-2.7321465,0.44427288,1.1385411,0.6159407,0.039999906,0.04,0.02620321550479421,0.018066745780670468,0.04276473260526603,0.012812573116964626,0.2941957384775915,0.09568681668628962,0.7957642111036709,-0.077610050943374,-0.5744366668638389,0.17538105964294473
944.7166666661361,-0.045299448,-0.3421621,0.25462106,-2.7337444,0.44616187,1.1367024,0.61521745,0.0399999,0.04,0.025385055862958694,0.018041928767925652,0.0420252550063116,0.013219878054655895,0.29088597655229226,0.09464847503530399,0.7941243215809296,-0.07757610652404322,-0.5764401635081952,0.17625336157033641
944.7333333328028,-0.045483377,-0.34031245,0.25569046,-2.7353249,0.44803002,1.1348839,0.6145023,0.039999887,0.04,0.02472752676658807,0.018115361237031058,0.04277598621770795,0.013613045345735701,0.2875492299673925,0.09360071238580059,0.792497169878728,-0.07753913152523641,-0.578416546208529,0.1771163964423265
944.7499999994694,-0.045665096,-0.33848354,0.25674796,-2.7368865,0.4498774,1.1330858,0.61379516,0.039999884,0.04,0.024747320158913233,0.01746638376976528,0.04475119233027791,0.013991695817777379,0.28418850399074386,0.0925459301488081,0.7908835013387999,-0.07749952816487661,-0.5803651526762256,0.17797022223788808
944.7666666661361,-0.045844615,-0.33667544,0.25779346,-2.738432,0.45170382,1.1313081,0.6130961,0.039999884,0.04,0.022645785549380015,0.01831777851112326,0.04127440414877226,0.014357437593578729,0.2808101568045665,0.09148163661899542,0.7892827798261015,-0.07745689538028866,-0.5822872381374631,0.17881469495059493
944.7833333328027,-0.046021923,-0.33488822,0.25882703,-2.7399578,0.4535091,1.1295512,0.61240506,0.03999988,0.04,0.023493538258212432,0.017191735943933306,0.04565328202327246,0.014708389862541759,0.2774025203155527,0.09041152394213675,0.787696280064633,-0.07741200876322779,-0.5841814111188248,0.17964974304128456
944.7999999994694,-0.046197,-0.33312216,0.25984842,-2.741468,0.45529297,1.1278149,0.61172223,0.039999876,0.04,0.020841786710668053,0.018497791458271795,0.04073344725684103,0.015046245105647862,0.2739807586539649,0.08933211755628515,0.7861232127807692,-0.07736419651559161,-0.5860493020453706,0.18047518111051236
944.816666666136,-0.046369836,-0.33137736,0.26085767,-2.7429585,0.4570555,1.1260992,0.6110476,0.039999872,0.04,0.02236034265425957,0.01710835681763001,0.04542939373086696,0.01536890065126146,0.27052954574240984,0.08824809722421367,0.7845647927110193,-0.07731426979896507,-0.5878895712799126,0.18129104143362584
944.8333333328027,-0.04654041,-0.329654,0.26185453,-2.744431,0.45879644,1.1244047,0.6103812,0.039999865,0.04,0.020622853322649348,0.01764736576990167,0.04386272361957544,0.015679211177567733,0.26706241873773184,0.08715598937914658,0.7830210444148802,-0.0772620649245112,-0.589702645586327,0.18209724631503243
944.8499999994693,-0.046708718,-0.3279521,0.26283905,-2.745885,0.4605156,1.1227311,0.60972315,0.039999854,0.04,0.020226217351182463,0.017469013059850935,0.04423594105103512,0.015975756966218172,0.2635771323210364,0.08605725395008096,0.78149224672702,-0.07720772151281094,-0.5914886007365542,0.18289360634824828
944.866666666136,-0.046874765,-0.32627186,0.26381114,-2.7473204,0.462213,1.1210788,0.6090734,0.03999985,0.04,0.01931410772755271,0.017348601593752955,0.044080452979367024,0.016262405707375596,0.2600746063047617,0.08495371245791493,0.7799786969942968,-0.07715132506108498,-0.5932474183671462,0.18368017279258464
944.8833333328026,-0.047038514,-0.3246133,0.26477084,-2.7487376,0.46388838,1.119448,0.6084322,0.039999835,0.04,0.018571970656555692,0.017424959134143547,0.04388148279508841,0.016531093857995473,0.25655456195159276,0.08384287300342336,0.7784805854524719,-0.07709294435026637,-0.5949793194562703,0.1844566762801955
944.8999999994693,-0.047199972,-0.32297662,0.26571786,-2.7501361,0.4655417,1.1178387,0.60779923,0.039999835,0.04,0.017931484285016452,0.017266840211038748,0.0443750810626975,0.016787471477693924,0.25301584261580184,0.08272825272942598,0.7769983161733511,-0.07703274764990192,-0.5966841007909405,0.18522326073306827
944.9166666661359,-0.047359128,-0.32136193,0.2666523,-2.7515156,0.4671728,1.1162515,0.6071748,0.03999983,0.04,0.01739015193147342,0.01704359823113677,0.04492677749928231,0.017029801055265983,0.24946205309780395,0.08160792986279472,0.7755323143748717,-0.0769708716660603,-0.5983616412331666,0.18597973162705977
944.9333333328026,-0.04751597,-0.31976923,0.26757398,-2.7528768,0.46878168,1.1146853,0.60655904,0.03999983,0.04,0.0169073510220219,0.017227502036171183,0.04351840125880191,0.017258609009177816,0.24589732741465498,0.08048302140795467,0.7740823029223717,-0.07690725020139694,-0.6000126950402105,0.18672608001947816
944.9499999994692,-0.04767051,-0.3181988,0.26848295,-2.7542186,0.47036818,1.113141,0.6059517,0.039999824,0.04,0.016396229336845813,0.01685693184748649,0.04495732090034066,0.01747492854883223,0.24231341120813052,0.07935456251438956,0.7726490094264477,-0.07684223728121703,-0.6016366698665695,0.18746225293058577
944.9666666661359,-0.047822714,-0.31665072,0.26937908,-2.7555413,0.4719323,1.1116177,0.605353,0.03999982,0.04,0.016151808494280218,0.016857136798692496,0.04421572410921448,0.017677699994404078,0.23871797570899478,0.07822118484915391,0.7712323407075119,-0.07677586081061243,-0.603234056098938,0.18818824991487965
944.9833333328025,-0.04797259,-0.31512493,0.27026236,-2.756845,0.4734739,1.1101172,0.6047629,0.03999981,0.04,0.01440989097865053,0.016692489109959574,0.04484903100209214,0.017868475254916083,0.23510851377652997,0.0770834338384745,0.7698329706296202,-0.07670814051220272,-0.6048044001523272,0.18890393343474357
944.9999999994692,-0.04812013,-0.31362155,0.27113274,-2.7581298,0.4749929,1.1086397,0.6041815,0.03999981,0.04,0.013548786502726173,0.016715179588355777,0.044527489094792205,0.01804581979129372,0.2314918190291666,0.07594247574006129,0.7684511145314827,-0.07663910936217067,-0.606347818234256,0.1896092160577983
945.0166666661358,-0.048265338,-0.3121406,0.27199015,-2.7593954,0.47648913,1.1071826,0.6036087,0.0399998,0.04,0.01490201443403727,0.016740379453050735,0.04374049946872516,0.018208997759590142,0.22786698900925326,0.07480046409456298,0.76708624372505,-0.07656910417652198,-0.6078652751504428,0.1903041624339177
945.0333333328025,-0.048408203,-0.31068218,0.27283466,-2.7606413,0.47796252,1.1057483,0.6030447,0.039999794,0.04,0.012881453742674687,0.016384292863586003,0.04498722864801907,0.018361413651252045,0.22422552876876523,0.07365331038085404,0.7657393546061605,-0.0764981395071315,-0.6093559223857592,0.19098857377521009
945.0499999994692,-0.048548717,-0.30924642,0.27366608,-2.7618682,0.47941312,1.1043365,0.6024895,0.03999979,0.04,0.012305069433993232,0.016441633534847178,0.0442143278045426,0.018501835007276868,0.22057985472216007,0.07250515834758935,0.76441045020815,-0.07642617502497917,-0.6108200984621522,0.19166249163128188
945.0666666661358,-0.04868688,-0.30783334,0.27448443,-2.7630756,0.48084083,1.1029469,0.60194284,0.039999794,0.04,0.012196572163625241,0.016248571348009833,0.04447420671618296,0.01862952050031065,0.21692593087581158,0.07135571655789737,0.7630996907210372,-0.07635351173611998,-0.6122578959326166,0.1923259528383641
945.0833333328025,-0.0488227,-0.306443,0.27528968,-2.7642636,0.48224556,1.1015797,0.60140514,0.039999783,0.04,0.011364668624169738,0.01624440580869635,0.04412186638097504,0.018745012274575642,0.21326522481169408,0.07020343420089808,0.7618072682210539,-0.07628006568294503,-0.6136694780301899,0.19297877966018692
945.0999999994691,-0.048956167,-0.3050754,0.2760818,-2.7654324,0.48362726,1.1002345,0.6008763,0.039999783,0.04,0.011052004824718686,0.016196833004900046,0.04380518982554649,0.018848988170846313,0.20959979668852646,0.06905094447726834,0.7605332088001024,-0.07620598471442287,-0.6150551150073374,0.19362100017620984
945.1166666661358,-0.049087293,-0.30373067,0.2768609,-2.7665813,0.48498607,1.0989118,0.600356,0.03999978,0.04,0.010563064903967856,0.01574409169405877,0.044399217087376375,0.018941823011138576,0.20592782967918583,0.06789783077525571,0.7592779164887102,-0.07613154812124452,-0.6164145712463459,0.19425269436589307
945.1333333328024,-0.049216058,-0.30240875,0.27762687,-2.7677107,0.48632178,1.0976115,0.5998446,0.03999977,0.04,0.009802234365996476,0.015862856461379415,0.0439822181324101,0.0190230529644568,0.20225327181544098,0.06674217151064704,0.7580415134257181,-0.07605668912577367,-0.617748081155902,0.19487368265282368
945.1499999994691,-0.04934247,-0.30110973,0.27837953,-2.7688208,0.4876344,1.0963339,0.5993421,0.039999757,0.04,0.0092176938202293,0.0158764519480159,0.04361689707690353,0.019094501194009773,0.19857615494616104,0.06558725641234057,0.7568240908958873,-0.07598137513906005,-0.6190558342054687,0.19548401522314401
945.1666666661357,-0.049466524,-0.29983363,0.27911904,-2.769911,0.48892385,1.0950792,0.5988485,0.039999753,0.04,0.00859720736920977,0.015558811328408861,0.04418259785012868,0.01915536479168175,0.19489678496716178,0.064433004596975,0.7556260738668811,-0.07590584752339981,-0.6203376211879273,0.19608359070350756
945.1833333328024,-0.04958824,-0.2985804,0.27984533,-2.7709818,0.49019015,1.0938467,0.5983637,0.039999746,0.04,0.008545229094325535,0.015603173766032263,0.04337879685591406,0.019205069104961215,0.19121979114202503,0.06327988350630201,0.7544472429561084,-0.07583019270642469,-0.6215939723363294,0.19667250195483796
945.199999999469,-0.0497076,-0.2973501,0.2805585,-2.7720335,0.49143338,1.0926367,0.5978878,0.03999974,0.04,0.007602950157448163,0.015499354496650852,0.04272725684592027,0.01924321734836082,0.18754127897078604,0.06212657248592308,0.7532877150788858,-0.07575435331292707,-0.6228250776372934,0.19725065001533174
945.2166666661357,-0.04982462,-0.29614267,0.28125843,-2.7730644,0.49265346,1.0914493,0.5974209,0.03999973,0.04,0.007902309869667334,0.01495798327809661,0.04470376707755297,0.01927078838415418,0.1838611719008552,0.06097529966175569,0.752148065442792,-0.0756787020775231,-0.6240304728492565,0.19781807464956397
945.2333333328023,-0.049939305,-0.2949581,0.28194517,-2.7740774,0.49385044,1.0902843,0.5969627,0.03999973,0.04,0.0061016139492942045,0.015703456041415986,0.04092950174328647,0.019288160440560673,0.18018837908882668,0.059824749622843655,0.7510276146902084,-0.07560283755953728,-0.6252113077299747,0.19837478068609726
945.249999999469,-0.050051652,-0.2937965,0.28261864,-2.7750704,0.49502423,1.0891418,0.59651345,0.039999727,0.04,0.006756188454892786,0.01499856928185439,0.04343974230455183,0.01929576417772609,0.17651096272152877,0.05867674520065692,0.7499270699802475,-0.07552719291293052,-0.6263669660215885,0.19892072973535044
945.2666666661356,-0.050161675,-0.2926577,0.28327903,-2.7760437,0.49617496,1.0880218,0.59607285,0.039999727,0.04,0.006147778565024353,0.01482276866808796,0.042894102425522496,0.019293923970639705,0.1728395023541774,0.05753137800786269,0.74884641223053,-0.07545193044795195,-0.6274976984206532,0.19945599905223066
945.2833333328023,-0.050269354,-0.29154173,0.28392616,-2.776997,0.49730256,1.0869241,0.5956411,0.039999727,0.04,0.005738292034940251,0.014804212087216051,0.04279692467362706,0.019283865824830382,0.16917512929650858,0.05638716118676329,0.7477857732557671,-0.0753770296321468,-0.6286036233478584,0.19998056264060435
945.2999999994689,-0.050374735,-0.29044864,0.28456014,-2.7779317,0.49840733,1.0858489,0.5952183,0.03999972,0.04,0.004851775445002815,0.014747443967111362,0.041503636674683486,0.019265318441596523,0.16551625692308447,0.05524582392833956,0.7467450431582091,-0.0753022932653913,-0.6296851477252513,0.20049443853096205
945.3166666661356,-0.050477806,-0.28937832,0.28518096,-2.7788465,0.49948892,1.0847962,0.5948043,0.039999712,0.04,0.00486622718440799,0.014625060207484886,0.042431072155046934,0.01923506183632219,0.16186328578758075,0.054108123972013575,0.7457245273690299,-0.07522810460926345,-0.6307421352643514,0.20099756306806585
945.3333333328022,-0.05057858,-0.28833067,0.2857887,-2.7797415,0.50054765,1.0837657,0.594399,0.039999705,0.04,0.004558570617985147,0.01424736267053861,0.04220487188373312,0.019197151885252645,0.15821867542031695,0.05297437643636689,0.7447242406685046,-0.07515454554401838,-0.6317747632434575,0.20149006966464753
945.3499999994689,-0.050677065,-0.28730577,0.2863833,-2.7806175,0.5015832,1.0827574,0.5940025,0.03999971,0.04,0.003992104013561537,0.014665554949044868,0.04107066640549606,0.019151202268433337,0.15458604609096716,0.051842955289908656,0.7437440436794428,-0.07508151478644806,-0.6327834934464202,0.20197181499027983
945.3666666661355,-0.050773263,-0.28630355,0.28696486,-2.781474,0.50259626,1.0817713,0.5936147,0.039999705,0.04,0.0036299601582578944,0.013947020016491507,0.041331184731807635,0.019098395049866965,0.15096186130391648,0.05071664097212104,0.742784120928025,-0.07500912527928637,-0.6337682419525272,0.2024430693168338
945.3833333328022,-0.05086719,-0.28532383,0.28753343,-2.7823114,0.5035865,1.0808074,0.5932355,0.0399997,0.04,0.0031520021436914902,0.014078807414585892,0.04110092193193027,0.019036766785242437,0.14734843969529562,0.049594475154752925,0.7418445205024887,-0.07493751091598778,-0.634729198097798,0.2029037257919996
945.3999999994688,-0.05095885,-0.28436664,0.28808904,-2.7831297,0.5045539,1.0798657,0.5928651,0.039999694,0.04,0.0028688947719457403,0.014030635842854355,0.040552347765887564,0.018968679088701392,0.14374900522074685,0.048476120796175484,0.7409252029704478,-0.07486661180283552,-0.6356666555312752,0.2033537240525664
