rsonawane2002/My_IMU/logs_2/traj_336/imu_400hz_336.csv
time,j1,j2,j3,j4,j5,j6,j7,gripper1,gripper2,imu_ax,imu_ay,imu_az,imu_gx,imu_gy,imu_gz
0.0,0.00016700293,-0.785875,4.0107683e-05,-2.3551247,9.29385e-05,1.570997,0.786,0.04,0.04,-9.473121,-0.051017764955759,0.10832527,-1.4415264e-07,-0.0011641272576525,8.4620126e-07
0.0025,0.0001670031685,-0.7858577740000001,4.010948164999999e-05,-2.35513919,9.294517499999996e-05,1.570996565,0.786,0.04,0.04,-9.52731254999968,-0.0432680640457423,0.093441527500088,-2.0105250899966363e-07,-0.0013250710617274887,9.146826109995951e-07
0.005,0.000167003407,-0.7858405480000002,4.0111280299999976e-05,-2.35515368,9.295184999999992e-05,1.57099613,0.786,0.04,0.04,-9.58150409999936,-0.0355183631357256,0.07855778500017598,-2.5795237799932724e-07,-0.0014860148658024771,9.831639619991903e-07
0.0075,0.0001670036455,-0.7858233220000003,4.011307894999997e-05,-2.35516817,9.295852499999988e-05,1.570995695,0.786,0.04,0.04,-9.63569564999904,-0.0277686622257089,0.06367404250026397,-3.148522469989909e-07,-0.0016469586698774658,1.0516453129987855e-06
0.01,0.000167003884,-0.7858060960000004,4.011487759999996e-05,-2.3551826599999997,9.296519999999984e-05,1.5709952600000001,0.786,0.04,0.04,-9.689887199998719,-0.0200189613156922,0.048790300000351956,-3.717521159986545e-07,-0.0018079024739524542,1.1201266639983807e-06
0.0125,0.0001670041225,-0.7857888700000005,4.011667624999995e-05,-2.35519715,9.29718749999998e-05,1.570994825,0.786,0.04,0.04,-9.744078749998398,-0.012269260405675497,0.03390655750043994,-4.2865198499831813e-07,-0.001968846278027443,1.188608014997976e-06
0.015,0.000167004361,-0.7857716440000007,4.011847489999993e-05,-2.35521164,9.297854999999977e-05,1.57099439,0.786,0.04,0.04,-9.798270299998078,-0.004519559495658798,0.019022815000527937,-4.855518539979817e-07,-0.0021297900821024315,1.2570893659975709e-06
0.0175,0.00016700418650000004,-0.7857548570000006,4.012199394999976e-05,-2.355225735,9.298817349999947e-05,1.57099396,0.786,0.04,0.04,-9.834292150000012,0.0006495276145866683,0.009025639470007743,-6.486076749870273e-07,-0.0022860384080507397,1.4313906199866618e-06
0.02,0.00016700318600000003,-0.7857389480000003,4.012895379999986e-05,-2.35523904,9.300369399999968e-05,1.5709935400000001,0.786,0.04,0.04,-9.833974600000007,0.0006573871243743027,0.008801597880004484,-1.0239753999924893e-06,-0.0024328957777440216,1.817331679992278e-06
0.0225,0.00016700218550000002,-0.7857230390000001,4.0135913649999963e-05,-2.355252345,9.301921449999991e-05,1.57099312,0.786,0.04,0.04,-9.833657050000001,0.0006652466341619371,0.008577556290001223,-1.3993431249979514e-06,-0.0025797531474373034,2.203272739997894e-06
0.025,0.000167001185,-0.7857071299999999,4.014287350000006e-05,-2.35526565,9.303473500000014e-05,1.5709927,0.786,0.04,0.04,-9.833339499999997,0.0006731061439495715,0.008353514699997962,-1.7747108500034143e-06,-0.0027266105171305857,2.5892138000035107e-06
0.0275,0.0001670001845,-0.7856912209999997,4.014983335000016e-05,-2.355278955,9.305025550000037e-05,1.57099228,0.786,0.04,0.04,-9.833021949999992,0.0006809656537372058,0.008129473109994702,-2.1500785750088763e-06,-0.0028734678868238676,2.975154860009127e-06
0.03,0.00016699918399999995,-0.7856753119999994,4.015679320000026e-05,-2.3552922600000006,9.306577600000059e-05,1.57099186,0.786,0.04,0.04,-9.832704399999988,0.0006888251635248402,0.007905431519991441,-2.5254463000143384e-06,-0.0030203252565171495,3.3610959200147425e-06
0.0325,0.00016699818349999993,-0.7856594029999991,4.016375305000037e-05,-2.3553055650000005,9.308129650000082e-05,1.57099144,0.786,0.04,0.04,-9.832386849999983,0.0006966846733124746,0.007681389929988181,-2.900814025019801e-06,-0.0031671826262104318,3.747036980020359e-06
0.035,0.0001669951539999998,-0.7856443399999993,4.017991730000112e-05,-2.3553181000000003,9.311287200000213e-05,1.57099101,0.786,0.04,0.04,-9.832072199999983,0.0007098710397266305,0.007475499459989438,-3.7015279400543797e-06,-0.003304494987249022,4.4794685000486e-06
0.0375,0.0001669911099999998,-0.7856296999999993,4.020068375000099e-05,-2.3553302500000006,9.315247500000189e-05,1.570990575,0.786,0.04,0.04,-9.831758999999986,0.0007257208344533568,0.007278684549990602,-4.714914950048387e-06,-0.0034370348439615034,5.385145250043244e-06
0.04,0.00016698706599999982,-0.7856150599999994,4.022145020000087e-05,-2.3553424000000005,9.319207800000165e-05,1.57099014,0.786,0.04,0.04,-9.831445799999987,0.000741570629180083,0.0070818696399917655,-5.728301960042398e-06,-0.003569574700673985,6.2908220000378905e-06
0.0425,0.00016698302199999985,-0.7856004199999995,4.024221665000075e-05,-2.3553545500000004,9.323168100000143e-05,1.570989705,0.786,0.04,0.04,-9.831132599999988,0.0007574204239068094,0.006885054729992929,-6.741688970036407e-06,-0.0037021145573864667,7.1964987500325375e-06
0.045,0.00016697897799999989,-0.7855857799999996,4.026298310000062e-05,-2.3553667000000003,9.327128400000119e-05,1.57098927,0.786,0.04,0.04,-9.83081939999999,0.0007732702186335357,0.006688239819994093,-7.755075980030415e-06,-0.0038346544140989477,8.102175500027181e-06
0.0475,0.00016697493399999992,-0.7855711399999996,4.02837495500005e-05,-2.35537885,9.331088700000095e-05,1.570988835,0.786,0.04,0.04,-9.830506199999991,0.000789120013360262,0.006491424909995256,-8.768462990024423e-06,-0.003967194270811429,9.00785225002183e-06
0.05,0.00016697088999999984,-0.7855564999999998,4.030451600000085e-05,-2.355391,9.335049000000156e-05,1.5709884,0.786,0.04,0.04,-9.830192999999994,0.0008049698080871264,0.006294609999996818,-9.781850000034397e-06,-0.004099734127523644,9.913529000030033e-06
0.0525,0.00016696136349999982,-0.7855429699999997,4.03514891000009e-05,-2.35540216,9.343632090000164e-05,1.57098798,0.786,0.04,0.04,-9.829877249999994,0.0008284111798279276,0.006119652399996659,-1.1672688200036112e-05,-0.004217611695642021,1.1564486600031532e-05
0.055,0.0001669518369999998,-0.7855294399999997,4.039846220000094e-05,-2.3554133200000003,9.352215180000172e-05,1.57098756,0.786,0.04,0.04,-9.829561499999993,0.000851852551568729,0.005944694799996499,-1.3563526400037833e-05,-0.004335489263760399,1.3215444200033033e-05
0.0575,0.0001669423104999998,-0.7855159099999997,4.0445435300000984e-05,-2.3554244800000004,9.360798270000179e-05,1.57098714,0.786,0.04,0.04,-9.829245749999993,0.0008752939233095304,0.005769737199996339,-1.5454364600039557e-05,-0.004453366831878776,1.4866401800034538e-05
0.06,0.0001669327839999998,-0.7855023799999997,4.0492408400001024e-05,-2.35543564,9.369381360000188e-05,1.57098672,0.786,0.04,0.04,-9.828929999999993,0.0008987352950503316,0.005594779599996181,-1.734520280004127e-05,-0.004571244399997153,1.6517359400036036e-05
0.0625,0.00016692325749999979,-0.7854888499999997,4.053938150000107e-05,-2.3554468,9.377964450000195e-05,1.5709863,0.786,0.04,0.04,-9.828614249999992,0.000922176666791133,0.005419821999996022,-1.923604100004299e-05,-0.00468912196811553,1.816831700003754e-05
0.065,0.00016691373099999977,-0.7854753199999996,4.058635460000111e-05,-2.3554579600000003,9.386547540000202e-05,1.57098588,0.786,0.04,0.04,-9.828298499999992,0.0009456180385319343,0.005244864399995862,-2.112687920004471e-05,-0.004806999536233907,1.9819274600039042e-05
0.0675,0.0001669013694999995,-0.7854621224999996,4.064732515000239e-05,-2.3554687850000002,9.397646770000433e-05,1.57098545,0.786,0.04,0.03999999975,-9.82798269999999,0.0009713593404748141,0.005075395669995747,-2.3413297450082578e-05,-0.004919855971823368,2.1824601050072824e-05
0.07,0.00016688333799999938,-0.7854495899999995,4.073629060000308e-05,-2.3554789400000002,9.413778280000557e-05,1.570985,0.786,0.04,0.039999999,-9.827666799999989,0.0010017005028213487,0.004916904679994522,-2.6490875800106372e-05,-0.005022670142356093,2.4538665200093807e-05
0.0725,0.00016686530649999925,-0.7854370574999995,4.082525605000376e-05,-2.3554890950000003,9.429909790000681e-05,1.57098455,0.786,0.04,0.03999999825,-9.827350899999987,0.001032041665167883,0.004758413689993297,-2.956845415013015e-05,-0.005125484312888818,2.7252729350114777e-05
0.075,0.0001668472749999991,-0.7854245249999994,4.091422150000445e-05,-2.3554992500000007,9.446041300000807e-05,1.5709841,0.786,0.04,0.0399999975,-9.827034999999984,0.0010623828275144176,0.004599922699992072,-3.264603250015395e-05,-0.0052282984834215425,2.996679350013576e-05
0.0775,0.00016682924349999896,-0.7854119924999993,4.100318695000514e-05,-2.3555094050000007,9.462172810000931e-05,1.57098365,0.786,0.04,0.03999999675,-9.82671909999998,0.0010927239898609522,0.0044414317099908465,-3.572361085017774e-05,-0.005331112653954268,3.2680857650156744e-05
0.08,0.00016681121199999883,-0.7853994599999992,4.109215240000583e-05,-2.3555195600000007,9.478304320001056e-05,1.5709832,0.786,0.04,0.039999996,-9.826403199999978,0.001123065152207487,0.004282940719989622,-3.8801189200201536e-05,-0.005433926824486993,3.539492180017773e-05
0.0825,0.00016679318049999867,-0.785386927499999,4.118111785000651e-05,-2.3555297150000007,9.49443583000118e-05,1.57098275,0.786,0.04,0.03999999525,-9.826087299999976,0.0011534063145540216,0.004124449729988397,-4.187876755022533e-05,-0.005536740995019718,3.810898595019871e-05
0.085,0.00016676713499999798,-0.7853749849999992,4.1310639500010085e-05,-2.355539630000001,9.517700600001806e-05,1.5709823,0.786,0.04,0.039999995,-9.825765699999979,0.0011866224580467423,0.003975281159990274,-4.594705530030716e-05,-0.00562915918417858,4.149747160025075e-05
0.08750000000000001,0.00016673708249999837,-0.7853633374999994,4.146043925000818e-05,-2.3555494250000004,9.544532000001464e-05,1.57098185,0.786,0.04,0.039999995,-9.825441249999983,0.0012212760921120661,0.003830773799992114,-5.0510697750249054e-05,-0.0057163793826522855,4.522316800020332e-05
0.09,0.00016670702999999876,-0.7853516899999995,4.1610239000006265e-05,-2.3555592200000004,9.571363400001122e-05,1.5709814,0.786,0.04,0.039999995,-9.825116799999986,0.0012559297261773897,0.0036862664399939546,-5.507434020019092e-05,-0.005803599581125989,4.8948864400155864e-05
0.0925,0.00016667697749999912,-0.7853400424999997,4.176003875000436e-05,-2.3555690150000004,9.59819480000078e-05,1.57098095,0.786,0.04,0.039999995,-9.82479234999999,0.0012905833602427136,0.0035417590799957945,-5.963798265013282e-05,-0.005890819779599693,5.267456080010843e-05
0.095,0.0001666469249999995,-0.7853283949999998,4.190983850000245e-05,-2.35557881,9.62502620000044e-05,1.5709805000000001,0.786,0.04,0.039999995,-9.824467899999995,0.0013252369943080372,0.003397251719997634,-6.420162510007471e-05,-0.0059780399780733975,5.6400257200060995e-05
0.0975,0.0001666168724999999,-0.7853167474999999,4.2059638250000545e-05,-2.355588605,9.651857600000098e-05,1.57098005,0.786,0.04,0.039999995,-9.82414345,0.001359890628373361,0.003252744359999474,-6.87652675500166e-05,-0.006065260176547103,6.0125953600013554e-05
0.1,0.00016658682000000028,-0.7853051000000001,4.220943799999864e-05,-2.3555984,9.678688999999756e-05,1.5709796,0.786,0.04,0.039999995,-9.823819000000004,0.0013945442624386849,0.003108237000001314,-7.33289099999585e-05,-0.006152480375020807,6.385164999996612e-05
0.10250000000000001,0.00016654073700000008,-0.78529421,4.2441621049999685e-05,-2.3556072799999996,9.719849839999944e-05,1.57097912,0.785999715,0.04,0.03999999575,-9.823574950000001,0.001435673213563779,0.002974470540000182,-7.954484249999153e-05,-0.006226665875874264,6.876289089999331e-05
0.105,0.0001664946539999997,-0.7852833199999999,4.267380410000148e-05,-2.35561616,9.761010680000262e-05,1.57097864,0.78599943,0.04,0.0399999965,-9.823330899999998,0.0014768021646889317,0.0028407040799991487,-8.576077500003956e-05,-0.006300851376727602,7.367413180003126e-05
0.1075,0.00016644857099999937,-0.7852724299999998,4.290598715000327e-05,-2.35562504,9.80217152000058e-05,1.57097816,0.785999145,0.04,0.03999999725,-9.823086849999996,0.0015179311158140848,0.0027069376199981145,-9.197670750008762e-05,-0.006375036877580941,7.858537270006923e-05
0.11,0.000166402487999999,-0.7852615399999997,4.313817020000507e-05,-2.35563392,9.843332360000898e-05,1.57097768,0.7859988600000001,0.04,0.039999998,-9.822842799999995,0.0015590600669392377,0.0025731711599970802,-9.819264000013568e-05,-0.00644922237843428,8.34966136001072e-05
0.1125,0.00016635640499999864,-0.7852506499999997,4.337035325000686e-05,-2.3556428,9.884493200001216e-05,1.5709772,0.785998575,0.04,0.03999999875,-9.822598749999992,0.0016001890180643908,0.002439404699996046,-0.00010440857250018374,-0.006523407879287619,8.840785450014517e-05
0.115,0.0001663103219999983,-0.7852397599999996,4.3602536300008655e-05,-2.3556516800000002,9.925654040001536e-05,1.57097672,0.78599829,0.04,0.0399999995,-9.822354699999991,0.0016413179691895437,0.0023056382399950118,-0.0001106245050002318,-0.006597593380140957,9.331909540018313e-05
0.11750000000000001,0.00016625741349999716,-0.7852290949999996,4.387016695001447e-05,-2.355660485,9.97305644000256e-05,1.570976065,0.785998005,0.04,0.04,-9.822078749999985,0.0016843388672005857,0.0021755453899947527,-0.00011704557900029204,-0.006666284194218512,9.875072020027668e-05
0.12,0.0001661908539999971,-0.7852188799999995,4.420869280001477e-05,-2.3556691400000003,0.00010032941960002615,1.5709750599999999,0.78599772,0.04,0.04,-9.821738999999985,0.0017311436589826832,0.002052799759994642,-0.00012387693600029821,-0.006723985634746599,0.00010522311280028255
0.1225,0.00016612429449999703,-0.7852086649999995,4.4547218650015085e-05,-2.355677795,0.0001009282748000267,1.570974055,0.785997435,0.04,0.04,-9.821399249999985,0.0017779484507647809,0.00193005412999453,-0.00013070829300030443,-0.0067816870752746864,0.00011169550540028844
0.125,0.00016605773499999698,-0.7851984499999995,4.488574450001539e-05,-2.3556864500000003,0.00010152713000002723,1.5709730499999999,0.78599715,0.04,0.04,-9.821059499999985,0.0018247532425468783,0.0018073084999944184,-0.00013753965000031065,-0.006839388515802774,0.00011816789800029433
0.1275,0.0001659911754999969,-0.7851882349999996,4.52242703500157e-05,-2.355695105,0.00010212598520002778,1.570972045,0.785996865,0.04,0.04,-9.820719749999984,0.001871558034328976,0.0016845628699943063,-0.00014437100700031687,-0.006897089956330861,0.00012464029060030022
0.13,0.00016592461599999685,-0.7851780199999995,4.556279620001601e-05,-2.3557037600000004,0.00010272484040002832,1.5709710399999999,0.7859965800000001,0.04,0.04,-9.820379999999984,0.0019183628261110735,0.0015618172399941947,-0.00015120236400032307,-0.006954791396858949,0.00013111268320030613
0.1325,0.00016585805649999678,-0.7851678049999995,4.590132205001632e-05,-2.355712415,0.00010332369560002887,1.570970035,0.785996295,0.04,0.04,-9.820040249999984,0.0019651676178931714,0.001439071609994083,-0.0001580337210003293,-0.007012492837387036,0.000137585075800312
0.135,0.0001657746719999959,-0.7851579599999996,4.632818120002099e-05,-2.35572052,0.00010407761100003705,1.57096902,0.78599601,0.04,0.04,-9.819767949999989,0.002015679958278714,0.001326255479995193,-0.00016628000500039906,-0.007062339270489386,0.00014504312400035436
0.1375,0.00016568287499999645,-0.7851482999999996,4.679920700001821e-05,-2.35572835,0.00010490905650003215,1.570968,0.785995725,0.04,0.04,-9.819529374999991,0.002068046072965574,0.0012184040999958306,-0.00017523375250034614,-0.007108258199879725,0.00015299400000030736
0.14,0.00016559107799999699,-0.7851386399999997,4.727023280001542e-05,-2.35573618,0.00010574050200002723,1.57096698,0.78599544,0.04,0.04,-9.819290799999992,0.0021204121876524347,0.0011105527199964682,-0.00018418750000029322,-0.007154177129270064,0.00016094487600026036
0.14250000000000002,0.00016549928099999754,-0.7851289799999998,4.774125860001264e-05,-2.35574401,0.00010657194750002231,1.57096596,0.7859951550000001,0.04,0.04,-9.819052224999993,0.0021727783023392953,0.0010027013399971057,-0.00019314124750024027,-0.0072000960586604025,0.00016889575200021336
0.145,0.00016540748399999808,-0.7851193199999998,4.8212284400009855e-05,-2.35575184,0.00010740339300001739,1.57096494,0.78599487,0.04,0.04,-9.818813649999994,0.002225144417026155,0.0008948499599977444,-0.00020209499500018727,-0.0072460149880507405,0.00017684662800016628
0.1475,0.00016531568699999864,-0.7851096599999998,4.868331020000707e-05,-2.35575967,0.00010823483850001247,1.57096392,0.7859945850000001,0.04,0.04,-9.818575074999996,0.0022775105317130156,0.0007869985799983818,-0.00021104874250013432,-0.007291933917441079,0.00018479750400011928
0.15,0.0001652238899999989,-0.7850999999999999,4.915433600000574e-05,-2.3557675,0.00010906628400001013,1.5709629,0.7859943,0.04,0.04,-9.818336499999996,0.002329876646399918,0.0006791471999989483,-0.0002200024900001031,-0.007337852846831262,0.00019274838000008835
0.1525,0.00016510172549999712,-0.7850907599999998,4.9785906350014936e-05,-2.35577512,0.00011018020515002634,1.57096176,0.7859938695,0.04,0.04,-9.818001624999992,0.0023868326563400667,0.000563481230997265,-0.00023134185100026812,-0.0073666780022910265,0.00020246572800022977
0.155,0.00016497956099999534,-0.7850815199999996,5.041747670002413e-05,-2.35578274,0.00011129412630004255,1.57096062,0.7859934390000001,0.04,0.04,-9.817666749999987,0.0024437886662802156,0.00044781526199558176,-0.00024268121200043315,-0.007395503157750791,0.00021218307600037118
0.1575,0.00016485739649999356,-0.7850722799999995,5.1049047050033315e-05,-2.3557903600000003,0.00011240804745005876,1.57095948,0.7859930085,0.04,0.04,-9.817331874999981,0.0025007446762203645,0.00033214929299389846,-0.0002540205730005982,-0.007424328313210556,0.00022190042400051257
0.16,0.00016473523199999178,-0.7850630399999994,5.168061740004251e-05,-2.3557979800000006,0.00011352196860007498,1.57095834,0.785992578,0.04,0.04,-9.816996999999978,0.0025577006861605134,0.00021648332399221523,-0.0002653599340007632,-0.00745315346867032,0.00023161777200065398
0.1625,0.00016461306749999,-0.7850537999999992,5.23121877500517e-05,-2.3558056000000005,0.00011463588975009118,1.5709572,0.7859921475,0.04,0.04,-9.816662124999972,0.0026146566961006623,0.00010081735499053199,-0.0002766992950009282,-0.007481978624130085,0.0002413351200007954
0.165,0.00016449090299998823,-0.7850445599999991,5.294375810006089e-05,-2.355813220000001,0.0001157498109001074,1.5709560599999999,0.785991717,0.04,0.04,-9.816327249999967,0.002671612706040811,-1.4848614011151308e-05,-0.0002880386560010932,-0.007510803779589849,0.0002510524680009368
0.1675,0.00016435680399998356,-0.7850354299999991,5.363875075008559e-05,-2.355820800000001,0.00011697559475015095,1.57095477,0.7859912385,0.04,0.04,-9.816013949999972,0.002730265189899957,-0.00012870056401147884,-0.00030002596850138335,-0.007534744101577906,0.0002614115450012124
0.17,0.0001641988359999845,-0.7850265199999992,5.446058800008073e-05,-2.3558283000000007,0.00011842510400014239,1.5709531799999998,0.785990664,0.04,0.04,-9.815743799999973,0.002792310621595475,-0.00023892447601082733,-0.0003133091840013048,-0.007548914756627213,0.0002730540800011436
0.17250000000000001,0.0001640408679999854,-0.7850176099999991,5.528242525007587e-05,-2.355835800000001,0.00011987461325013382,1.57095159,0.7859900894999999,0.04,0.04,-9.815473649999975,0.002854356053290993,-0.00034914838801017577,-0.00032659239950122627,-0.007563085411676518,0.00028469661500107483
0.17500000000000002,0.00016388289999998633,-0.7850086999999992,5.6104262500071013e-05,-2.3558433000000005,0.00012132412250012526,1.5709499999999998,0.785989515,0.04,0.04,-9.815203499999976,0.0029164014849865113,-0.00045937230000952427,-0.0003398756150011478,-0.007577256066725825,0.000296339150001006
0.1775,0.00016372493199998727,-0.7849997899999993,5.692609975006615e-05,-2.3558508000000007,0.00012277363175011667,1.57094841,0.7859889405,0.04,0.04,-9.81493334999998,0.002978446916682029,-0.0005695962120088715,-0.00035315883050106913,-0.007591426721775131,0.000307981685000937
0.18,0.0001635669639999882,-0.7849908799999993,5.774793700006129e-05,-2.3558583000000004,0.0001242231410001081,1.5709468199999999,0.785988366,0.04,0.04,-9.81466319999998,0.003040492348377547,-0.00067982012400822,-0.0003664420460009906,-0.0076055973768244375,0.00031962422000086823
0.1825,0.00016340899599998914,-0.7849819699999994,5.856977425005643e-05,-2.3558658000000006,0.00012567265025009955,1.57094523,0.7859877915,0.04,0.04,-9.814393049999982,0.003102537780073065,-0.0007900440360075684,-0.0003797252615009121,-0.007619768031873743,0.0003312667550007994
0.185,0.00016322340099998657,-0.7849731899999994,5.9539293000070224e-05,-2.3558732700000005,0.00012738186300012376,1.57094333,0.7859871549999999,0.04,0.04,-9.814134599999983,0.0031665993388785892,-0.0008958594160069732,-0.0003943897380010334,-0.007625202508643302,0.00034408203700090197
0.1875,0.0001630239924999864,-0.7849644749999994,6.058265250007117e-05,-2.3558807250000005,0.00012922092750012544,1.570941275,0.7859864875,0.04,0.04,-9.813881999999984,0.0032316689612388134,-0.0009994705300070674,-0.0004097448450010474,-0.007626268896274298,0.00035748369250091416
0.19,0.00016282458399998623,-0.7849557599999994,6.162601200007212e-05,-2.3558881800000004,0.0001310599920001271,1.5709392199999999,0.78598582,0.04,0.04,-9.813629399999982,0.0032967385835990376,-0.001103081644007162,-0.0004250999520010614,-0.007627335283905294,0.00037088534800092636
0.1925,0.00016262517549998603,-0.7849470449999995,6.266937150007307e-05,-2.3558956350000004,0.00013289905650012878,1.570937165,0.7859851524999999,0.04,0.04,-9.813376799999983,0.0033618082059592618,-0.0012066927580072562,-0.00044045505900107537,-0.00762840167153629,0.00038428700350093855
0.195,0.00016242576699998585,-0.7849383299999994,6.371273100007402e-05,-2.3559030900000004,0.00013473812100013046,1.57093511,0.785984485,0.04,0.04,-9.813124199999983,0.003426877828319486,-0.0013103038720073505,-0.00045581016600108935,-0.007629468059167286,0.00039768865900095075
0.1975,0.00016222635849998568,-0.7849296149999994,6.475609050007498e-05,-2.3559105450000004,0.00013657718550013213,1.570933055,0.7859838174999999,0.04,0.04,-9.812871599999982,0.00349194745067971,-0.0014139149860074448,-0.00047116527300110334,-0.007630534446798282,0.00041109031450096295
0.2,0.00016202694999998207,-0.7849208999999994,6.579945000009441e-05,-2.3559180000000004,0.0001384162500001663,1.5709309999999999,0.7859831499999999,0.04,0.04,-9.81261899999998,0.003557017073040367,-0.0015175261000081306,-0.00048652038000129784,-0.007631600834428298,0.00042449197000111766
0.2025,0.00016178018349998014,-0.7849123199999993,6.709682250010444e-05,-2.3559254250000006,0.00014070194700018397,1.57092872,0.7859822874999999,0.04,0.04,-9.81236264999998,0.003628030163241631,-0.0016292652550089946,-0.0005043566130014357,-0.007619209028779397,0.0004398518470012364
0.20500000000000002,0.00016153341699997822,-0.7849037399999993,6.839419500011447e-05,-2.3559328500000007,0.00014298764400020165,1.5709264399999998,0.7859814249999999,0.04,0.04,-9.812106299999977,0.003699043253442895,-0.0017410044100098585,-0.0005221928460015736,-0.007606817223130497,0.00045521172400135514
0.20750000000000002,0.00016128665049997633,-0.7848951599999993,6.96915675001245e-05,-2.355940275000001,0.00014527334100021932,1.57092416,0.7859805624999999,0.04,0.04,-9.811849949999976,0.003770056343644159,-0.0018527435650107222,-0.0005400290790017116,-0.0075944254174815954,0.00047057160100147393
0.21,0.0001610398839999744,-0.7848865799999991,7.098894000013451e-05,-2.355947700000001,0.00014755903800023698,1.5709218799999998,0.7859797,0.04,0.04,-9.811593599999973,0.0038410694338454226,-0.001964482720011585,-0.0005578653120018492,-0.007582033611832695,0.0004859314780015925
0.2125,0.0001607931174999725,-0.7848779999999991,7.228631250014454e-05,-2.355955125000001,0.00014984473500025467,1.5709195999999999,0.7859788375,0.04,0.04,-9.811337249999971,0.003912082524046686,-0.002076221875012449,-0.0005757015450019871,-0.007569641806183794,0.0005012913550017113
0.215,0.0001605463509999706,-0.784869419999999,7.358368500015458e-05,-2.355962550000001,0.00015213043200027233,1.5709173199999997,0.7859779749999999,0.04,0.04,-9.81108089999997,0.00398309561424795,-0.002187961030013313,-0.0005935377780021251,-0.007557250000534893,0.00051665123200183
0.2175,0.00016028177299996397,-0.784860842499999,7.49769375001903e-05,-2.355969975000001,0.00015458471550033512,1.5709148749999997,0.7859770199999999,0.03999999975,0.03999999975,-9.810821299999969,0.004055692465053566,-0.002302372740014377,-0.0006121299800024135,-0.007539849309247348,0.0005326854225020868
0.22,0.00015998157199996778,-0.7848522699999991,7.656195000017011e-05,-2.355977400000001,0.0001573761720002996,1.5709120999999997,0.78597588,0.039999999,0.039999999,-9.810555199999971,0.004131456837066111,-0.0024221295600128524,-0.0006322341200021576,-0.007512430846688117,0.0005500682400018655
0.2225,0.0001596813709999716,-0.7848436974999993,7.814696250014993e-05,-2.355984825000001,0.00016016762850026405,1.5709093249999997,0.7859747399999999,0.03999999825,0.03999999825,-9.810289099999975,0.004207221209078656,-0.0025418863800113277,-0.0006523382600019015,-0.007485012384128886,0.0005674510575016441
0.225,0.0001593811699999754,-0.7848351249999993,7.973197500012975e-05,-2.355992250000001,0.00016295908500022852,1.5709065499999997,0.7859735999999999,0.0399999975,0.0399999975,-9.810022999999978,0.004282985581091202,-0.002661643200009803,-0.0006724424000016456,-0.007457593921569655,0.0005848338750014229
0.2275,0.00015908096899997924,-0.7848265524999994,8.131698750010956e-05,-2.3559996750000005,0.00016575054150019296,1.570903775,0.78597246,0.03999999675,0.03999999675,-9.809756899999982,0.004358749953103747,-0.0027814000200082783,-0.0006925465400013897,-0.007430175459010424,0.0006022166925012016
0.23,0.00015878076799998307,-0.7848179799999995,8.290200000008938e-05,-2.3560071000000007,0.00016854199800015742,1.5709009999999999,0.78597132,0.039999996,0.039999996,-9.809490799999985,0.004434514325116293,-0.0029011568400067536,-0.0007126506800011336,-0.007402756996451193,0.0006195995100009802
0.2325,0.00015848056699998688,-0.7848094074999996,8.44870125000692e-05,-2.3560145250000004,0.00017133345450012189,1.5708982249999999,0.78597018,0.03999999525,0.03999999525,-9.809224699999989,0.004510278697128838,-0.003020913660005229,-0.0007327548200008777,-0.007375338533891962,0.0006369823275007588
0.23500000000000001,0.00015814058699998397,-0.7848007799999996,8.628685800008501e-05,-2.3560219700000005,0.0001745013800001496,1.5708950699999997,0.78596895,0.039999994500000004,0.0399999955,-9.808956499999988,0.004587714467201069,-0.0031432422900055097,-0.0007541701960009836,-0.007338419789446452,0.0006555910230008567
0.23750000000000002,0.00015778071749998117,-0.7847921249999995,8.819412000009976e-05,-2.3560294250000005,0.00017785754000017556,1.5708917249999998,0.785967675,0.039999993750000004,0.03999999625,-9.808687249999986,0.004665985936302994,-0.0032668568250064653,-0.0007762411900011543,-0.007296750904058645,0.0006748126575010053
0.24,0.0001574208479999784,-0.7847834699999995,9.010138200011448e-05,-2.3560368800000004,0.00018121370000020147,1.5708883799999998,0.7859664,0.039999993000000005,0.039999997,-9.808417999999984,0.004744257405404918,-0.0033904713600074196,-0.0007983121840013247,-0.007255082018670839,0.0006940342920011537
0.2425,0.00015706097849997562,-0.7847748149999995,9.200864400012923e-05,-2.3560443350000004,0.0001845698600002274,1.5708850349999997,0.7859651249999999,0.03999999225,0.03999999775,-9.808148749999981,0.004822528874506843,-0.0035140858950083753,-0.0008203831780014954,-0.007213413133283031,0.0007132559265013023
0.245,0.00015670110899997284,-0.7847661599999994,9.391590600014398e-05,-2.3560517900000004,0.00018792602000025334,1.5708816899999998,0.7859638499999999,0.0399999915,0.0399999985,-9.807879499999979,0.0049008003436087685,-0.003637700430009331,-0.000842454172001666,-0.007171744247895224,0.000732477561001451
0.2475,0.00015634123949997007,-0.7847575049999993,9.582316800015873e-05,-2.3560592450000004,0.0001912821800002793,1.5708783449999997,0.7859625749999999,0.03999999075,0.03999999925,-9.807610249999977,0.004979071812710694,-0.003761314965010287,-0.0008645251660018367,-0.007130075362507418,0.0007516991955015995
0.25,0.00015598136999996128,-0.7847488499999993,9.773043000020599e-05,-2.356066700000001,0.00019463834000036243,1.5708749999999996,0.7859612999999999,0.03999999,0.04,-9.807340999999974,0.005057343281813369,-0.0038849295000118415,-0.0008865961600022671,-0.00708840647711831,0.0007709208300019649
0.2525,0.00015555541349996087,-0.7847399924999993,9.999528000020806e-05,-2.3560741700000007,0.00019862308400036606,1.5708710399999997,0.7859598299999998,0.0399999897,0.03999999925,-9.807070999999974,0.005143873998903214,-0.00401512842001196,-0.0009115230160022898,-0.007032440579491094,0.0007925257005019846
0.255,0.0001551294569999605,-0.7847311349999992,0.00010226013000021011,-2.3560816400000006,0.00020260782800036968,1.5708670799999995,0.7859583599999999,0.0399999894,0.0399999985,-9.806800999999973,0.0052304047159930575,-0.004145327340012078,-0.0009364498720023125,-0.006976474681863878,0.0008141305710020043
0.2575,0.0001547035004999601,-0.7847222774999992,0.00010452498000021218,-2.3560891100000005,0.0002065925720003733,1.5708631199999996,0.7859568899999999,0.0399999891,0.03999999775,-9.806530999999975,0.005316935433082901,-0.0042755262600121975,-0.0009613767280023352,-0.006920508784236662,0.000835735441502024
0.26,0.00015427754399995972,-0.7847134199999992,0.00010678983000021424,-2.356096580000001,0.00021057731600037692,1.5708591599999997,0.7859554199999998,0.0399999888,0.039999997,-9.806260999999974,0.005403466150172745,-0.004405725180012316,-0.0009863035840023578,-0.006864542886609446,0.0008573403120020436
0.2625,0.00015385158749995931,-0.7847045624999992,0.0001090546800002163,-2.356104050000001,0.00021456206000038054,1.5708551999999996,0.7859539499999999,0.0399999885,0.03999999625,-9.805990999999974,0.005489996867262589,-0.004535924100012434,-0.0010112304400023806,-0.0068085769889822305,0.0008789451825020633
0.265,0.00015342563099995894,-0.7846957049999992,0.00011131953000021836,-2.3561115200000007,0.00021854680400038416,1.5708512399999996,0.7859524799999998,0.0399999882,0.0399999955,-9.805720999999973,0.005576527584352432,-0.004666123020012553,-0.0010361572960024034,-0.006752611091355014,0.0009005500530020829
0.2675,0.0001529754824999526,-0.7846867474999991,0.0001137156030002527,-2.356119025000001,0.00022276213800044448,1.5708470699999995,0.7859509199999999,0.039999988,0.039999995,-9.805450699999975,0.0056641626637513745,-0.004800952785013696,-0.0010620012400026308,-0.006691846530877782,0.0009228787150022599
0.27,0.00015247694999995557,-0.7846775899999991,0.00011637412200023697,-2.356126600000001,0.00022743865200041685,1.5708424799999996,0.7859491799999999,0.039999988,0.039999995,-9.805179799999976,0.0057540064677675485,-0.004945044240012844,-0.0010896793600024672,-0.006621484644704708,0.0009466549600021194
0.2725,0.0001519784174999585,-0.7846684324999992,0.00011903264100022127,-2.3561341750000007,0.0002321151660003892,1.5708378899999995,0.7859474399999998,0.039999988,0.039999995,-9.804908899999978,0.0058438502717837225,-0.005089135695011992,-0.0011173574800023036,-0.006551122758531634,0.0009704312050019788
0.275,0.00015147988499996143,-0.7846592749999993,0.00012169116000020555,-2.356141750000001,0.00023679168000036155,1.5708332999999997,0.7859456999999999,0.039999988,0.039999995,-9.80463799999998,0.0059336940757998965,-0.005233227150011141,-0.00114503560000214,-0.00648076087235856,0.0009942074500018383
0.2775,0.0001509813524999644,-0.7846501174999994,0.00012434967900018984,-2.3561493250000005,0.00024146819400033392,1.5708287099999996,0.7859439599999999,0.039999988,0.039999995,-9.80436709999998,0.0060235378798160705,-0.005377318605010289,-0.0011727137200019764,-0.006410398986185486,0.0010179836950016978
0.28,0.00015048281999996733,-0.7846409599999994,0.0001270081980001741,-2.3561569000000007,0.0002461447080003063,1.5708241199999997,0.7859422199999999,0.039999988,0.039999995,-9.804096199999982,0.0061133816838322445,-0.0055214100600094376,-0.0012003918400018128,-0.006340037100012411,0.0010417599400015572
0.28250000000000003,0.0001499842874999703,-0.7846318024999994,0.0001296667170001584,-2.3561644750000004,0.00025082122200027865,1.5708195299999999,0.7859404799999999,0.039999988,0.039999995,-9.803825299999984,0.0062032254878484185,-0.005665501515008586,-0.0012280699600016492,-0.0062696752138393375,0.0010655361850014167
0.28500000000000003,0.0001494329729999611,-0.7846223849999994,0.0001326120830002079,-2.3561722000000005,0.0002560016940003657,1.5708144099999997,0.7859385259999999,0.0399999876,0.039999995,-9.803548099999981,0.006295934598899177,-0.0058180062000105495,-0.0012573736200020271,-0.006189392646768862,0.0010906968300017402
0.28750000000000003,0.0001488552674999527,-0.7846128374999992,0.00013570087250025286,-2.3561800000000006,0.00026143414500044476,1.5708090249999995,0.7859364649999998,0.039999987,0.039999995,-9.803267749999977,0.006390076363466858,-0.00597471750001283,-0.0012874900500024656,-0.006104149739250971,0.0011165496750021164
0.29,0.0001482775619999443,-0.7846032899999991,0.00013878966200029776,-2.3561878000000007,0.00026686659600052366,1.5708036399999994,0.7859344039999998,0.0399999864,0.039999995,-9.802987399999973,0.006484218128034535,-0.006131428800015107,-0.0013176064800029031,-0.006018906831733083,0.001142402520002492
0.2925,0.00014769985649993589,-0.7845937424999989,0.00014187845150034271,-2.356195600000001,0.0002722990470006027,1.5707982549999995,0.7859323429999998,0.0399999858,0.039999995,-9.802707049999968,0.006578359892602215,-0.006288140100017388,-0.0013477229100033413,-0.005933663924215192,0.0011682553650028684
0.295,0.0001471221509999275,-0.7845841949999988,0.00014496724100038767,-2.356203400000001,0.0002777314980006818,1.5707928699999993,0.7859302819999998,0.039999985200000004,0.039999995,-9.802426699999964,0.006672501657169896,-0.006444851400019668,-0.0013778393400037797,-0.005848421016697301,0.0011941082100032445
0.2975,0.0001465444454999191,-0.7845746474999987,0.00014805603050043262,-2.356211200000001,0.00028316394900076085,1.5707874849999992,0.7859282209999997,0.0399999846,0.039999995,-9.80214634999996,0.0067666434217375756,-0.0066015627000219484,-0.001407955770004218,-0.005763178109179411,0.0012199610550036209
0.3,0.0001459667399998974,-0.7845650999999985,0.0001511448200005498,-2.356219000000001,0.0002885964000009668,1.570782099999999,0.7859261599999997,0.039999984,0.039999995,-9.801865999999961,0.006860785186306213,-0.0067582740000261664,-0.0014380722000050413,-0.005677935201659387,0.0012458139000043622
0.3025,0.00014530318349990134,-0.7845550844999986,0.0001547009240005288,-2.3562275950000013,0.0002948499750009299,1.570775889999999,0.7859237659999997,0.03999998295,0.03999999395,-9.801608449999963,0.0069611200597286,-0.006927516900025166,-0.0014706791100048485,-0.005578894703634243,0.0012740278350041954
0.305,0.00014463962699990527,-0.7845450689999985,0.00015825702800050778,-2.356236190000001,0.0003011035500008929,1.570769679999999,0.7859213719999997,0.0399999819,0.0399999929,-9.801350899999964,0.007061454933150987,-0.007096759800024166,-0.0015032860200046559,-0.0054798542056090985,0.0013022417700040286
0.3075,0.0001439760704999092,-0.7845350534999986,0.00016181313200048676,-2.3562447850000012,0.000307357125000856,1.570763469999999,0.7859189779999997,0.03999998085,0.03999999185,-9.801093349999965,0.007161789806573373,-0.007266002700023166,-0.001535892930004463,-0.005380813707583954,0.0013304557050038618
0.31,0.0001433125139999131,-0.7845250379999987,0.00016536923600046573,-2.3562533800000014,0.000313610700000819,1.5707572599999993,0.7859165839999998,0.0399999798,0.0399999908,-9.800835799999966,0.00726212467999576,-0.007435245600022166,-0.0015684998400042705,-0.0052817732095588096,0.001358669640003695
0.3125,0.00014264895749991702,-0.7845150224999987,0.0001689253400004447,-2.356261975000001,0.000319864275000782,1.5707510499999993,0.7859141899999997,0.03999997875,0.03999998975,-9.800578249999967,0.007362459553418147,-0.0076044885000211655,-0.0016011067500040777,-0.005182732711533664,0.0013868835750035283
0.315,0.00014198540099992095,-0.7845050069999988,0.0001724814440004237,-2.3562705700000013,0.00032611785000074504,1.5707448399999993,0.7859117959999997,0.0399999777,0.0399999887,-9.800320699999968,0.007462794426840534,-0.007773731400020165,-0.001633713660003885,-0.00508369221350852,0.0014150975100033615
0.3175,0.00014129098449991266,-0.7844948014999988,0.00017620577200046906,-2.356279235000001,0.00033266695650082474,1.5707383699999993,0.7859092814999997,0.03999997645,0.03999998745,-9.800081399999977,0.007564867893246042,-0.007948799400021567,-0.0016671539550040552,-0.004980679950663949,0.0014440628450035193
0.32,0.00014053484799991198,-0.7844842159999988,0.00018026654800047274,-2.3562880400000012,0.0003398071260008312,1.5707313799999991,0.7859065259999997,0.0399999748,0.0399999858,-9.799878599999976,0.007670418545615988,-0.008135517600021737,-0.0017022610200040872,-0.004869724158184643,0.001474530980003547
0.3225,0.0001397787114999113,-0.7844736304999987,0.00018432732400047646,-2.356296845000001,0.00034694729550083773,1.5707243899999992,0.7859037704999997,0.03999997315,0.03999998415,-9.799675799999976,0.007775969197985934,-0.008322235800021907,-0.001737368085004119,-0.004758768365705337,0.0015049991150035747
0.325,0.0001390225749999106,-0.7844630449999987,0.00018838810000048015,-2.3563056500000013,0.00035408746500084425,1.5707173999999993,0.7859010149999996,0.039999971499999995,0.039999982499999996,-9.799472999999976,0.00788151985035588,-0.008508954000022077,-0.001772475150004151,-0.00464781257322603,0.0015354672500036025
0.3275,0.00013826643849990992,-0.7844524594999988,0.00019244887600048383,-2.356314455000001,0.0003612276345008507,1.5707104099999991,0.7858982594999997,0.03999996985,0.03999998085,-9.799270199999976,0.007987070502725827,-0.008695672200022247,-0.001807582215004183,-0.004536856780746725,0.0015659353850036302
0.33,0.00013751030199990921,-0.7844418739999988,0.00019650965200048755,-2.3563232600000013,0.00036836780400085724,1.5707034199999992,0.7858955039999996,0.0399999682,0.0399999792,-9.799067399999975,0.008092621155095773,-0.008882390400022417,-0.001842689280004215,-0.004425900988267418,0.001596403520003658
0.3325,0.00013675416549990854,-0.7844312884999988,0.00020057042800049123,-2.356332065000001,0.00037550797350086376,1.5706964299999993,0.7858927484999996,0.039999966549999995,0.039999977549999996,-9.798864599999975,0.008198171807465718,-0.009069108600022587,-0.0018777963450042467,-0.004314945195788113,0.0016268716550036856
0.335,0.00013593179699989183,-0.7844202439999985,0.00020499273400058195,-2.3563414500000013,0.00038328319700102313,1.570688759999999,0.7858897469999996,0.0399999652,0.0399999763,-9.798612599999965,0.008307366538806796,-0.009273910100027035,-0.00191454573000475,-0.004194051143697367,0.0016588518800041386
0.3375,0.00013507631249988521,-0.7844089699999985,0.00020959580500061754,-2.3563511250000015,0.0003913759475010857,1.570680749999999,0.7858866224999995,0.039999964,0.03999997525,-9.798335999999964,0.008418383309632444,-0.009487753250028689,-0.0019521162750050403,-0.004068187961803614,0.0016915881500043919
0.34,0.00013422082799987862,-0.7843976959999984,0.00021419887600065314,-2.3563608000000014,0.0003994686980011483,1.570672739999999,0.7858834979999996,0.0399999628,0.0399999742,-9.79805939999996,0.008529400080458093,-0.009701596400030342,-0.0019896868200053306,-0.003942324779909861,0.001724324420004645
0.3425,0.000133365343499872,-0.7843864219999983,0.00021880194700068872,-2.3563704750000016,0.00040756144850121086,1.570664729999999,0.7858803734999995,0.0399999616,0.03999997315,-9.79778279999996,0.008640416851283741,-0.009915439550031995,-0.0020272573650056214,-0.0038164615980161077,0.001757060690004898
0.34500000000000003,0.00013250985899986538,-0.7843751479999982,0.00022340501800072432,-2.356380150000002,0.0004156541990012734,1.5706567199999988,0.7858772489999994,0.0399999604,0.0399999721,-9.797506199999956,0.00875143362210939,-0.010129282700033649,-0.0020648279100059118,-0.0036905984161223547,0.001789796960005151
0.34750000000000003,0.00013165437449985876,-0.7843638739999981,0.00022800808900075992,-2.3563898250000017,0.00042374694950133603,1.5706487099999986,0.7858741244999995,0.039999959200000004,0.03999997105,-9.797229599999955,0.008862450392935038,-0.010343125850035302,-0.002102398455006202,-0.0035647352342286017,0.0018225332300054044
0.35000000000000003,0.00013079888999983382,-0.7843525999999978,0.00023261116000089575,-2.356399500000002,0.00043183970000157466,1.5706406999999984,0.7858709999999994,0.039999958,0.03999997,-9.796952999999968,0.008973467163761503,-0.010556969000040009,-0.0021399690000069474,-0.0034388720523329487,0.001855269500006029
0.3525,0.00012983726699983953,-0.784340592499998,0.000237794273500865,-2.356409445000002,0.00044095118000152055,1.5706317749999985,0.7858675049999994,0.0399999568,0.0399999694,-9.79676384999997,0.009089214680735626,-0.010788488000038636,-0.002180170530006709,-0.0033020143629754603,0.0018901568450058223
0.355,0.0001288756439998452,-0.784328584999998,0.00024297738700083436,-2.356419390000002,0.0004500626600014667,1.5706228499999986,0.7858640099999994,0.0399999556,0.0399999688,-9.79657469999997,0.009204962197709752,-0.011020007000037267,-0.002220372060006471,-0.0031651566736179693,0.001925044190005616
0.3575,0.0001279140209998509,-0.7843165774999981,0.0002481605005008037,-2.356429335000002,0.0004591741400014128,1.5706139249999986,0.7858605149999994,0.0399999544,0.0399999682,-9.796385549999972,0.009320709714683878,-0.0112515260000359,-0.0022605735900062336,-0.0030282989842604783,0.00195993153500541
0.36,0.00012695239799985657,-0.7843045699999982,0.0002533436140007731,-2.356439280000002,0.000468285620001359,1.5706049999999987,0.7858570199999995,0.0399999532,0.0399999676,-9.796196399999973,0.009436457231658004,-0.01148304500003453,-0.002300775120005996,-0.0028914412949029872,0.001994818880005204
0.3625,0.00012599077499986225,-0.7842925624999982,0.00025852672750074245,-2.3564492250000013,0.0004773971000013051,1.5705960749999985,0.7858535249999995,0.039999952,0.039999967,-9.796007249999974,0.00955220474863213,-0.011714564000033163,-0.0023409766500057582,-0.0027545836055454962,0.0020297062250049973
0.365,0.00012502915199986796,-0.7842805549999983,0.0002637098410007118,-2.3564591700000013,0.00048650858000125126,1.5705871499999986,0.7858500299999995,0.039999950799999996,0.039999966399999996,-9.795818099999975,0.009667952265606254,-0.011946083000031794,-0.0023811781800055208,-0.0026177259161880052,0.002064593570004791
0.3675,0.00012402987649985634,-0.7842682704999983,0.0002690989100007756,-2.3564694600000013,0.0004959818030013632,1.5705778749999986,0.7858463999999995,0.03999994965,0.0399999656,-9.795599049999963,0.009784995205716324,-0.012187339525034858,-0.0024222699600057315,-0.0024757628794555655,0.0021002856400049873
0.37,0.00012295529599985535,-0.7842554319999983,0.00027489989000078086,-2.3564804400000017,0.0005061785120013725,1.5705678999999986,0.7858424999999994,0.0399999486,0.0399999644,-9.795320199999964,0.009904628992096723,-0.012448071100035095,-0.0024651422400057705,-0.0023235891479793567,0.002137587160005021
0.3725,0.00012188071549985438,-0.7842425934999983,0.00028070087000078614,-2.3564914200000016,0.0005163752210013818,1.5705579249999986,0.7858385999999995,0.03999994755,0.0399999632,-9.795041349999963,0.010024262778477122,-0.012708802675035331,-0.0025080145200058095,-0.0021714154165031483,0.002174888680005055
0.375,0.0001208061349998534,-0.7842297549999983,0.0002865018500007914,-2.3565024000000014,0.0005265719300013911,1.5705479499999986,0.7858346999999994,0.0399999465,0.039999962,-9.794762499999962,0.01014389656485752,-0.01296953425003557,-0.0025508868000058485,-0.00201924168502694,0.002212190200005089
0.3775,0.00011973155449985243,-0.7842169164999983,0.0002923028300007967,-2.3565133800000018,0.0005367686390014004,1.5705379749999986,0.7858307999999995,0.039999945450000005,0.0399999608,-9.794483649999961,0.010263530351237919,-0.013230265825035807,-0.0025937590800058875,-0.0018670679535507312,0.0022494917200051225
0.38,0.00011865697399985145,-0.7842040779999983,0.000298103810000802,-2.3565243600000016,0.0005469653480014096,1.5705279999999986,0.7858268999999994,0.0399999444,0.0399999596,-9.79420479999996,0.010383164137618318,-0.013490997400036044,-0.002636631360005927,-0.0017148942220745226,0.0022867932400051564
0.3825,0.00011758239349985047,-0.7841912394999982,0.00030390479000080725,-2.3565353400000015,0.0005571620570014189,1.5705180249999986,0.7858229999999994,0.039999943350000004,0.0399999584,-9.793925949999961,0.010502797923998717,-0.013751728975036282,-0.002679503640005966,-0.0015627204905983142,0.0023240947600051904
0.385,0.00011642797299983271,-0.784177783999998,0.00031014287700090437,-2.3565469400000016,0.0005681264240015896,1.5705073099999984,0.7858187799999994,0.0399999427,0.039999957600000004,-9.793702299999971,0.01063135685401031,-0.014026831150039538,-0.0027241549400063786,-0.0014029599609555216,0.002362921120005545
0.3875,0.00011523363249983163,-0.7841640199999981,0.0003165995175009102,-2.3565588500000016,0.0005794746200015998,1.5704962249999983,0.7858143999999994,0.039999942250000003,0.039999957,-9.793506249999972,0.010764378355834702,-0.014309118625039795,-0.0027696957500064202,-0.0012394060322318177,0.002402509900005581
0.39,0.00011403929199983053,-0.784150255999998,0.0003230561580009161,-2.3565707600000017,0.0005908228160016102,1.5704851399999984,0.7858100199999993,0.0399999418,0.0399999564,-9.793310199999972,0.010897399857659093,-0.014591406100040052,-0.0028152365600064614,-0.001075852103508114,0.002442098680005617
0.3925,0.00011284495149982945,-0.784136491999998,0.00032951279850092197,-2.3565826700000017,0.0006021710120016205,1.5704740549999985,0.7858056399999993,0.03999994135,0.0399999558,-9.793114149999973,0.011030421359483485,-0.014873693575040309,-0.002860777370006503,-0.0009122981747844099,0.002481687460005653
0.395,0.00011165061099982836,-0.784122727999998,0.0003359694390009279,-2.3565945800000017,0.0006135192080016308,1.5704629699999983,0.7858012599999994,0.039999940899999996,0.0399999552,-9.792918099999971,0.011163442861307877,-0.015155981050040566,-0.0029063181800065446,-0.000748744246060706,0.002521276240005689
0.3975,0.00011045627049982728,-0.784108963999998,0.0003424260795009337,-2.3566064900000017,0.0006248674040016411,1.5704518849999984,0.7857968799999994,0.03999994045,0.0399999546,-9.792722049999972,0.011296464363132266,-0.015438268525040823,-0.0029518589900065857,-0.000585190317337002,0.0025608650200057252
0.4,0.00010926192999980776,-0.7840951999999979,0.0003488827200010405,-2.3566184000000017,0.0006362156000018287,1.5704407999999983,0.7857924999999993,0.03999994,0.039999954,-9.79252599999997,0.011429485864956852,-0.015720556000045904,-0.0029973998000069847,-0.0004216363886115317,0.002600453800006075
0.4025,0.00010794106599981557,-0.7840804339999979,0.00035603275200099825,-2.3566307450000017,0.0006487814150017544,1.5704284999999985,0.7857876999999993,0.03999994,0.0399999546,-9.792314499999971,0.011563840089384584,-0.01603598200004404,-0.0030453975350067013,-0.0002459431852667152,0.002642198710005828
0.405,0.00010662020199982338,-0.784065667999998,0.000363182784000956,-2.3566430900000017,0.0006613472300016801,1.5704161999999984,0.7857828999999994,0.03999994,0.0399999552,-9.792102999999972,0.011698194313812313,-0.016351408000042172,-0.0030933952700064175,-7.02499819218987e-05,0.0026839436200055814
0.40750000000000003,0.00010529933799983119,-0.784050901999998,0.0003703328160009137,-2.3566554350000017,0.0006739130450016058,1.5704038999999985,0.7857780999999994,0.03999994,0.0399999558,-9.791891499999974,0.011832548538240045,-0.01666683400004031,-0.0031413930050061337,0.00010544322142291786,0.0027256885300053347
0.41000000000000003,0.000103978473999839,-0.7840361359999982,0.00037748284800087146,-2.3566677800000018,0.0006864788600015316,1.5703915999999984,0.7857732999999995,0.03999994,0.0399999564,-9.791679999999975,0.011966902762667776,-0.016982260000038444,-0.00318939074000585,0.0002811364247677343,0.002767433440005088
0.41250000000000003,0.00010265760999984681,-0.7840213699999983,0.0003846328800008292,-2.3566801250000013,0.0006990446750014573,1.5703792999999986,0.7857684999999994,0.03999994,0.039999957,-9.791468499999976,0.012101256987095505,-0.01729768600003658,-0.0032373884750055665,0.00045682962811255086,0.0028091783500048414
0.41500000000000004,0.00010133674599985462,-0.7840066039999983,0.0003917829120007869,-2.3566924700000014,0.000711610490001383,1.5703669999999985,0.7857636999999994,0.03999994,0.039999957600000004,-9.791256999999977,0.012235611211523237,-0.017613112000034715,-0.0032853862100052826,0.0006325228314573674,0.0028509232600045947
0.4175,9.997144299984196e-05,-0.7839914619999983,0.00039917661300085646,-2.3567051550000016,0.0007246041975015051,1.5703542849999985,0.7857587349999994,0.039999939799999995,0.0399999578,-9.79102444999997,0.012372959917426717,-0.017938734550037604,-0.0033342965100055136,0.00081297380095075,0.0028934709400047984
0.42,9.851726199983072e-05,-0.7839755679999981,0.0004070576520009174,-2.3567185200000016,0.0007384536900016122,1.5703407399999985,0.7857534399999994,0.0399999392,0.0399999572,-9.790749799999968,0.012516297586278846,-0.01828475020004028,-0.0033850319400059057,0.0010029403027367338,0.00293762416000514
0.4225,9.706308099981947e-05,-0.783959673999998,0.00041493869100097834,-2.3567318850000016,0.0007523031825017193,1.5703271949999984,0.7857481449999993,0.0399999386,0.0399999566,-9.790475149999967,0.012659635255130974,-0.018630765850042953,-0.0034357673700062983,0.0011929068045227176,0.002981777380005481
0.425,9.560889999980824e-05,-0.7839437799999979,0.0004228197300010393,-2.3567452500000017,0.0007661526750018263,1.5703136499999981,0.7857428499999993,0.039999938,0.039999955999999996,-9.790200499999964,0.012802972923983101,-0.018976781500045628,-0.0034865028000066905,0.0013828733063087012,0.0030259306000058224
0.4275,9.415471899979699e-05,-0.7839278859999977,0.0004307007690011002,-2.356758615000002,0.0007800021675019335,1.570300104999998,0.7857375549999993,0.0399999374,0.0399999554,-9.789925849999962,0.01294631059283523,-0.019322797150048306,-0.0035372382300070827,0.001572839808094685,0.003070083820006164
0.43,9.270053799978574e-05,-0.7839119919999976,0.00043858180800116116,-2.356771980000002,0.0007938516600020406,1.570286559999998,0.7857322599999992,0.0399999368,0.0399999548,-9.789651199999959,0.013089648261687358,-0.01966881280005098,-0.003587973660007475,0.0017628063098806689,0.0031142370400065052
0.4325,9.12463569997745e-05,-0.7838960979999975,0.0004464628470012221,-2.3567853450000023,0.0008077011525021476,1.570273014999998,0.7857269649999992,0.0399999362,0.0399999542,-9.789376549999957,0.013232985930539487,-0.020014828450053656,-0.0036387090900078674,0.0019527728116666525,0.003158390260006847
0.435,8.969882699974772e-05,-0.7838794399999973,0.00045485614900136876,-2.356799460000002,0.0008224500850024052,1.5702586099999978,0.785721304999999,0.0399999364,0.0399999546,-9.789154099999969,0.013379610981815624,-0.020383079000060037,-0.0036911530100084346,0.002150379214467626,0.0032039721700073266
0.4375,8.810462249974626e-05,-0.7838623999999973,0.00046350558250137663,-2.3568139500000025,0.000837648737502419,1.5702437749999978,0.7857154624999991,0.039999937,0.039999955499999996,-9.788957749999968,0.013527879724302598,-0.020762447000060382,-0.003744451175008483,0.002351805567773384,0.0032502684250073684
0.44,8.651041799974481e-05,-0.7838453599999973,0.0004721550160013845,-2.3568284400000024,0.0008528473900024329,1.5702289399999978,0.7857096199999991,0.0399999376,0.0399999564,-9.788761399999968,0.013676148466789573,-0.021141815000060727,-0.0037977493400085313,0.0025532319210791426,0.0032965646800074107
0.4425,8.491621349974335e-05,-0.7838283199999972,0.0004808044495013924,-2.3568429300000022,0.0008680460425024467,1.5702141049999976,0.7857037774999991,0.0399999382,0.0399999573,-9.788565049999969,0.013824417209276548,-0.021521183000061072,-0.00385104750500858,0.002754658274384901,0.003342860935007453
0.445,8.332200899974191e-05,-0.7838112799999972,0.0004894538830014002,-2.3568574200000025,0.0008832446950024606,1.5701992699999976,0.7856979349999991,0.039999938799999996,0.0399999582,-9.78836869999997,0.013972685951763524,-0.021900551000061417,-0.0039043456700086285,0.0029560846276906593,0.003389157190007495
0.4475,8.172780449974045e-05,-0.7837942399999972,0.0004981033165014082,-2.3568719100000024,0.0008984433475024744,1.5701844349999976,0.785692092499999,0.0399999394,0.0399999591,-9.788172349999968,0.014120954694250499,-0.022279919000061762,-0.003957643835008677,0.003157510980996418,0.003435453445007537
0.45,8.013359999971499e-05,-0.783777199999997,0.0005067527500015479,-2.3568864000000027,0.0009136420000027198,1.5701695999999974,0.785686249999999,0.03999994,0.03999996,-9.787975999999967,0.014269223436738962,-0.022659287000067568,-0.00401094200000913,0.0033589373343041492,0.00348174970000797
0.4525,7.839265949972528e-05,-0.783758938999997,0.000516207790001492,-2.3569019850000026,0.0009302552350026216,1.5701533249999975,0.785679876499999,0.03999994,0.03999996,-9.787767349999967,0.014426588360245008,-0.023071996550065126,-0.0040667094950088,0.0035724144196473823,0.0035304346150076826
0.455,7.665171899973557e-05,-0.7837406779999971,0.0005256628300014362,-2.3569175700000025,0.0009468684700025235,1.5701370499999976,0.785673502999999,0.03999994,0.03999996,-9.787558699999968,0.014583953283751052,-0.02348470610006269,-0.004122476990008471,0.0037858915049906157,0.0035791195300073947
0.4575,7.491077849974586e-05,-0.7837224169999973,0.0005351178700013803,-2.3569331550000023,0.0009634817050024252,1.5701207749999977,0.7856671294999991,0.03999994,0.03999996,-9.78735004999997,0.014741318207257097,-0.023897415650060247,-0.004178244485008141,0.003999368590333848,0.003627804445007107
0.46,7.316983799975615e-05,-0.7837041559999974,0.0005445729100013244,-2.356948740000002,0.000980094940002327,1.5701044999999978,0.7856607559999992,0.03999994,0.03999996,-9.787141399999971,0.014898683130763143,-0.02431012520005781,-0.004234011980007811,0.004212845675677082,0.0036764893600068193
0.4625,7.142889749976644e-05,-0.7836858949999975,0.0005540279500012684,-2.356964325000002,0.0009967081750022289,1.570088224999998,0.7856543824999992,0.03999994,0.03999996,-9.786932749999972,0.015056048054269187,-0.024722834750055368,-0.004289779475007482,0.004426322761020315,0.0037251742750065314
0.465,6.968795699977673e-05,-0.7836676339999976,0.0005634829900012125,-2.356979910000002,0.0010133214100021305,1.570071949999998,0.7856480089999992,0.03999994,0.03999996,-9.786724099999974,0.015213412977775233,-0.02513554430005293,-0.004345546970007152,0.004639799846363548,0.003773859190006244
0.4675,6.789590049975533e-05,-0.7836489169999974,0.00057321886250133,-2.356995885000002,0.0010304276250023368,1.5700552199999978,0.7856414469999992,0.039999940149999996,0.0399999603,-9.786519349999976,0.015372961759588412,-0.02555936565005761,-0.004402160685007531,0.004857007856509723,0.003823250410006562
0.47000000000000003,6.600161199972777e-05,-0.7836292879999972,0.0005835164000014798,-2.3570126400000024,0.0010485198000026001,1.5700375799999975,0.785634507999999,0.0399999406,0.0399999612,-9.786322399999973,0.015536878258013417,-0.026005410600064102,-0.004460466840008379,0.005081677716257608,0.0038740542400073014
0.47250000000000003,6.41073234997002e-05,-0.7836096589999969,0.0005938139375016297,-2.3570293950000027,0.0010666119750028632,1.5700199399999972,0.7856275689999989,0.03999994105,0.0399999621,-9.78612544999997,0.015700794756438423,-0.026451455550070592,-0.004518772995009228,0.005306347576005492,0.003924858070008041
0.47500000000000003,6.221303499967263e-05,-0.7835900299999966,0.0006041114750017796,-2.357046150000003,0.0010847041500031266,1.570002299999997,0.7856206299999988,0.039999941500000004,0.039999963,-9.785928499999967,0.01586471125486343,-0.026897500500077085,-0.004577079150010077,0.005531017435753377,0.00397566190000878
0.47750000000000004,6.0318746499645066e-05,-0.7835704009999963,0.0006144090125019295,-2.357062905000003,0.00110279632500339,1.5699846599999967,0.7856136909999987,0.03999994195,0.0399999639,-9.785731549999964,0.016028627753288432,-0.027343545450083575,-0.004635385305010925,0.005755687295501261,0.00402646573000952
0.48,5.842445799961754e-05,-0.783550771999996,0.0006247065500020791,-2.3570796600000032,0.0011208885000036529,1.5699670199999964,0.7856067519999985,0.0399999424,0.039999964799999996,-9.785534599999961,0.016192544251713435,-0.027789590400090054,-0.004693691460011772,0.005980357155249141,0.0040772695600102575
0.4825,5.653016949958997e-05,-0.7835311429999957,0.000635004087502229,-2.3570964150000036,0.001138980675003916,1.5699493799999962,0.7855998129999985,0.039999942850000005,0.0399999657,-9.785337649999958,0.01635646075013844,-0.028235635350096547,-0.004751997615012621,0.006205027014997026,0.004128073390010997
0.485,5.452926199955349e-05,-0.7835106299999954,0.0006458876330024294,-2.3571139400000036,0.001158101770004268,1.5699307299999958,0.7855924899999983,0.039999943,0.039999966399999996,-9.785135599999956,0.01652611177418402,-0.028716285300108238,-0.004811957760013213,0.006437606317973854,0.004180450040011556
0.4875,5.2475044999565626e-05,-0.7834896749999956,0.0006570641825023633,-2.3571318500000036,0.001177737325004152,1.569911574999996,0.7855849749999984,0.039999943,0.039999967,-9.784930999999958,0.01669863006103703,-0.029214237750105294,-0.004872744900012853,0.006674140342561216,0.004233613100011242
0.49,5.042082799957777e-05,-0.7834687199999957,0.0006682407320022973,-2.3571497600000035,0.001197372880004036,1.569892419999996,0.7855774599999984,0.039999943,0.0399999676,-9.78472639999996,0.01687114834789004,-0.02971219020010235,-0.004933532040012494,0.0069106743671485775,0.004286776160010927
0.4925,4.8366610999589916e-05,-0.7834477649999958,0.0006794172815022312,-2.3571676700000035,0.0012170084350039197,1.5698732649999962,0.7855699449999984,0.039999943,0.0399999682,-9.78452179999996,0.017043666634743052,-0.030210142650099407,-0.004994319180012135,0.007147208391735939,0.004339939220010613
0.495,4.6312393999602055e-05,-0.783426809999996,0.0006905938310021651,-2.3571855800000034,0.0012366439900038037,1.5698541099999963,0.7855624299999985,0.039999943,0.0399999688,-9.784317199999961,0.017216184921596062,-0.030708095100096464,-0.005055106320011776,0.007383742416323301,0.004393102280010299
0.4975,4.42581769996142e-05,-0.7834058549999962,0.000701770380502099,-2.357203490000003,0.0012562795450036877,1.5698349549999964,0.7855549149999986,0.039999943,0.0399999694,-9.784112599999961,0.017388703208449072,-0.031206047550093523,-0.005115893460011416,0.007620276440910663,0.004446265340009984
0.5,4.220395999959607e-05,-0.7833848999999959,0.0007129469300021995,-2.3572214000000034,0.0012759151000038638,1.5698157999999962,0.7855473999999986,0.039999943,0.03999997,-9.783907999999961,0.01756122149530341,-0.03170400000009542,-0.00517668060001152,0.007856810465500186,0.004499428400010073
0.5025000000000001,3.998329819959399e-05,-0.7833624794999959,0.0007250386805022107,-2.3572404500000035,0.0012971573200038836,1.569795069999996,0.7855392609999985,0.03999994255,0.0399999694,-9.783693949999961,0.01774105103689736,-0.032228547000095906,-0.005240014410011579,0.008105220180050197,0.004554805640010124
0.505,3.776263639959202e-05,-0.7833400589999959,0.0007371304310022214,-2.357259500000003,0.0013183995400039025,1.5697743399999962,0.7855311219999985,0.0399999421,0.0399999688,-9.78347989999996,0.0179208805784913,-0.03275309400009637,-0.005303348220011635,0.008353629894600197,0.004610182880010174
0.5075000000000001,3.554197459958995e-05,-0.7833176384999959,0.0007492221815022327,-2.3572785500000033,0.0013396417600039223,1.569753609999996,0.7855229829999986,0.03999994165,0.0399999682,-9.78326584999996,0.018100710120085246,-0.033277641000096864,-0.005366682030011695,0.00860203960915021,0.004665560120010226
0.51,3.332131279958798e-05,-0.7832952179999958,0.0007613139320022435,-2.3572976000000034,0.0013608839800039413,1.5697328799999961,0.7855148439999985,0.0399999412,0.0399999676,-9.78305179999996,0.018280539661679186,-0.03380218800009733,-0.005430015840011751,0.00885044932370021,0.004720937360010275
0.5125,3.110065099958601e-05,-0.7832727974999958,0.0007734056825022542,-2.357316650000003,0.00138212620000396,1.569712149999996,0.7855067049999985,0.03999994075,0.039999967,-9.782837749999961,0.018460369203273125,-0.034326735000097794,-0.005493349650011807,0.009098859038250211,0.004776314600010324
0.515,2.8879989199583932e-05,-0.7832503769999958,0.0007854974330022655,-2.3573357000000033,0.0014033684200039798,1.569691419999996,0.7854985659999985,0.039999940299999995,0.039999966399999996,-9.782623699999961,0.01864019874486707,-0.03485128200009828,-0.005556683460011866,0.009347268752800224,0.004831691840010375
0.5175,2.6601701999543973e-05,-0.7832274234999954,0.0007979061680024849,-2.3573551750000035,0.001425167095004365,1.5696701499999957,0.7854902099999984,0.03999994,0.0399999662,-9.78241124999996,0.018823109846598077,-0.0353922131001093,-0.005620818850012524,0.009599563106943989,0.004887757550010944
0.52,2.4208163999525415e-05,-0.7832034039999952,0.000810948872002586,-2.357375500000004,0.0014480786800045427,1.5696477999999954,0.7854814199999983,0.03999994,0.0399999668,-9.782201999999959,0.019012184068598007,-0.03596591240011375,-0.005686557400013034,0.009859626740268725,0.00494520020001139
0.5225,2.1814625999506963e-05,-0.783179384499995,0.0008239915760026866,-2.357395825000004,0.0014709902650047195,1.5696254499999953,0.7854726299999982,0.03999994,0.0399999674,-9.781992749999958,0.01920125829059793,-0.03653961170011817,-0.005752295950013541,0.01011969037359345,0.0050026428500118325
0.525,1.9421087999488406e-05,-0.7831553649999948,0.0008370342800027877,-2.357416150000004,0.001493901850004897,1.569603099999995,0.7854638399999981,0.03999994,0.039999968000000004,-9.781783499999955,0.019390332512597863,-0.03711331100012262,-0.005818034500014051,0.010379754006918186,0.005060085500012278
0.5275,1.7027549999469953e-05,-0.7831313454999946,0.0008500769840028882,-2.3574364750000045,0.0015168134350050737,1.569580749999995,0.785455049999998,0.03999994,0.0399999686,-9.781574249999954,0.019579406734597786,-0.03768701030012705,-0.005883773050014558,0.010639817640242912,0.005117528150012721
0.53,1.4634011999451394e-05,-0.7831073259999946,0.0008631196880029894,-2.3574568000000045,0.0015397250200052514,1.569558399999995,0.785446259999998,0.03999994,0.0399999692,-9.781364999999953,0.019768480956597716,-0.03826070960013149,-0.005949511600015067,0.010899881273567648,0.005174970800013166
0.5325,1.2240473999432942e-05,-0.7830833064999944,0.0008761623920030899,-2.357477125000005,0.001562636605005428,1.5695360499999946,0.785437469999998,0.03999994,0.0399999698,-9.78115574999995,0.01995755517859764,-0.03883440890013592,-0.006015250150015574,0.011159944906892372,0.005232413450013609
0.535,9.727458399405631e-06,-0.7830582439999941,0.0008898627040032411,-2.357498340000005,0.001586702460005693,1.5695125599999944,0.7854282459999978,0.0399999403,0.0399999703,-9.780953699999955,0.020152147673116003,-0.03944081330014387,-0.006082552550015729,0.011427433695706764,0.0052913906000138025
0.5375,7.154703999438445e-06,-0.7830326599999944,0.0009038918200030621,-2.357520000000005,0.0016113454500053788,1.5694884999999947,0.7854188049999979,0.03999994075,0.03999997075,-9.780755249999958,0.0203494993038906,-0.040063570250135926,-0.006150636875014861,0.01169863506226197,0.005351135000013041
0.54,4.5819495994711444e-06,-0.7830070759999948,0.0009179209360028838,-2.3575416600000043,0.0016359884400050655,1.569464439999995,0.7854093639999981,0.0399999412,0.039999971200000005,-9.78055679999996,0.020546850934665208,-0.04068632720012801,-0.006218721200013995,0.011969836428817188,0.0054108794000122815
0.5425,2.0091951995039577e-06,-0.7829814919999951,0.0009319500520027048,-2.357563320000004,0.0016606314300047513,1.5694403799999954,0.7853999229999982,0.03999994165,0.03999997165,-9.780358349999963,0.020744202565439806,-0.04130908415012007,-0.006286805525013127,0.012241037795372394,0.00547062380001152
0.545,-5.635592004633425e-07,-0.7829559079999954,0.0009459791680025266,-2.357584980000004,0.001685274420004438,1.5694163199999955,0.7853904819999983,0.039999942100000005,0.0399999721,-9.780159899999965,0.02094155419621441,-0.04193184110011216,-0.006354889850012262,0.012512239161927612,0.00553036820001076
0.5475,-3.136313600430529e-06,-0.7829303239999957,0.0009600082840023476,-2.3576066400000038,0.0017099174100041238,1.5693922599999959,0.7853810409999984,0.03999994255,0.03999997255,-9.779961449999968,0.021138905826989008,-0.04255459805010421,-0.006422974175011393,0.012783440528482818,0.005590112600009998
0.55,-5.709068000426515e-06,-0.7829047399999958,0.0009740374000023272,-2.3576283000000036,0.0017345604000040878,1.569368199999996,0.7853715999999984,0.039999943,0.039999973,-9.77976299999997,0.021336257457765007,-0.043177355000101954,-0.0064910585000109,0.013054641895039742,0.005649857000009552
0.5525,-8.467326050447779e-06,-0.7828774639999956,0.0009890876950024432,-2.3576518050000037,0.0017609958900042916,1.5693424149999957,0.7853614704999983,0.039999943600000004,0.03999997405,-9.77956619999997,0.021542598959091965,-0.04383668555010704,-0.006561547100011443,0.013336875103459819,0.005711624750010027
0.555,-1.1225584100469166e-05,-0.7828501879999954,0.00100413799000256,-2.357675310000004,0.0017874313800044965,1.5693166299999957,0.7853513409999983,0.039999944200000005,0.0399999751,-9.779369399999966,0.021748940460418937,-0.04449601610011215,-0.00663203570001199,0.013619108311879907,0.0057733925000105065
0.5575,-1.3983842150490431e-05,-0.7828229119999951,0.001019188285002676,-2.357698815000004,0.0018138668700047004,1.5692908449999954,0.7853412114999981,0.0399999448,0.03999997615,-9.779172599999965,0.0219552819617459,-0.04515534665011723,-0.006702524300012533,0.013901341520299983,0.005835160250010983
0.56,-1.6742100200511818e-05,-0.7827956359999949,0.0010342385800027926,-2.357722320000004,0.0018403023600049053,1.569265059999995,0.7853310819999981,0.0399999454,0.0399999772,-9.778975799999964,0.022161623463072867,-0.04581467720012234,-0.00677301290001308,0.014183574728720071,0.005896928000011461
0.5625,-1.950035825053308e-05,-0.7827683599999947,0.0010492888750029087,-2.3577458250000043,0.001866737850005109,1.569239274999995,0.785320952499998,0.039999946,0.03999997825,-9.778778999999963,0.022367964964399828,-0.04647400775012742,-0.006843501500013623,0.014465807937140147,0.005958695750011938
0.5650000000000001,-2.225861630055447e-05,-0.7827410839999945,0.0010643391700030254,-2.3577693300000044,0.0018931733400053142,1.5692134899999948,0.785310822999998,0.0399999466,0.039999979299999995,-9.778582199999962,0.022574306465726796,-0.04713333830013254,-0.00691399010001417,0.014748041145560236,0.006020463500012416
0.5675,-2.508077450060904e-05,-0.782713216499994,0.0010797413300033252,-2.357793285000005,0.0019202264800058406,1.5691871149999943,0.7853004614999978,0.03999994715,0.0399999802,-9.778404799999972,0.022784465458289004,-0.047811500750147784,-0.006985245940015028,0.015033240476683266,0.006082983050013218
0.5700000000000001,-2.803073300061179e-05,-0.782684165999994,0.00109584722000334,-2.357818140000005,0.0019485149200058668,1.5691595599999943,0.7852896359999978,0.0399999476,0.0399999808,-9.77826619999997,0.023002259433314628,-0.04852732700014845,-0.0070580362600150956,0.015324372053206718,0.006147006200013278
0.5725,-3.098069150061441e-05,-0.7826551154999939,0.0011119531100033545,-2.357842995000005,0.001976803360005892,1.5691320049999942,0.7852788104999977,0.03999994805,0.0399999814,-9.778127599999971,0.02322005340834024,-0.049243153250149094,-0.007130826580015161,0.015615503629730156,0.006211029350013334
0.5750000000000001,-3.393065000061716e-05,-0.7826260649999939,0.0011280590000033695,-2.357867850000005,0.0020050918000059184,1.5691044499999942,0.7852679849999977,0.0399999485,0.039999982,-9.777988999999971,0.023437847383365865,-0.049958979500149756,-0.0072036169000152285,0.015906635206253607,0.006275052500013394
0.5775,-3.688060850061978e-05,-0.7825970144999939,0.0011441648900033837,-2.357892705000005,0.0020333802400059435,1.5690768949999943,0.7852571594999977,0.03999994895,0.0399999826,-9.77785039999997,0.023655641358391478,-0.050674805750150397,-0.007276407220015293,0.016197766782777047,0.006339075650013451
0.58,-3.98305670006224e-05,-0.7825679639999938,0.0011602707800033982,-2.357917560000005,0.0020616686800059686,1.569049339999994,0.7852463339999977,0.0399999494,0.0399999832,-9.77771179999997,0.02387343533341709,-0.05139063200015103,-0.007349197540015358,0.016488898359300484,0.006403098800013508
0.5825,-4.278052550062515e-05,-0.7825389134999938,0.0011763766700034132,-2.357942415000005,0.002089957120005995,1.5690217849999941,0.7852355084999977,0.03999994985,0.0399999838,-9.77757319999997,0.024091229308442715,-0.0521064582501517,-0.007421987860015426,0.016780029935823934,0.006467121950013568
0.585,-4.586233950065555e-05,-0.7825086469999936,0.0011932089200035812,-2.3579681500000054,0.0021195202900062896,1.5689929599999939,0.7852241859999975,0.03999995,0.0399999844,-9.777393999999958,0.024313854426192397,-0.052857164100159976,-0.007496323970015642,0.017078577540877778,0.006532461500013745
0.5875,-4.901008125063701e-05,-0.7824777724999937,0.00121040435000348,-2.3579943250000053,0.002149720825006112,1.568963499999994,0.7852126149999976,0.03999995,0.039999985,-9.77719449999996,0.024538895115301815,-0.053625309750155455,-0.0075714329750152,0.01738083316019329,0.0065984592500133565
0.59,-5.2157823000618334e-05,-0.7824468979999939,0.0012275997800033779,-2.358020500000005,0.0021799213600059326,1.5689340399999943,0.7852010439999977,0.03999995,0.0399999856,-9.77699499999996,0.024763935804411226,-0.05439345540015089,-0.007646541980014754,0.017683088779508794,0.006664457000012965
0.5925,-5.53055647505998e-05,-0.7824160234999941,0.0012447952100032766,-2.358046675000005,0.0022101218950057546,1.5689045799999943,0.7851894729999978,0.03999995,0.039999986200000004,-9.776795499999961,0.024988976493520644,-0.05516160105014637,-0.007721650985014312,0.01798534439882431,0.006730454750012576
0.595,-5.8453306500581125e-05,-0.7823851489999943,0.0012619906400031745,-2.3580728500000045,0.0022403224300055757,1.5688751199999946,0.7851779019999978,0.03999995,0.0399999868,-9.776595999999962,0.025214017182630055,-0.05592974670014181,-0.007796759990013866,0.01828760001813981,0.006796452500012184
0.5975,-6.160104825056258e-05,-0.7823542744999945,0.0012791860700030733,-2.3580990250000045,0.0022705229650053977,1.568845659999995,0.7851663309999979,0.03999995,0.0399999874,-9.776396499999963,0.025439057871739473,-0.05669789235013729,-0.007871868995013425,0.018589855637455327,0.006862450250011796
0.6,-6.474879000057913e-05,-0.7823233999999943,0.0012963815000031653,-2.358125200000005,0.002300723500005559,1.5688161999999948,0.7851547599999978,0.03999995,0.039999988,-9.776196999999964,0.02566409856085093,-0.057466038000141086,-0.007946978000013354,0.018892111256772735,0.006928448000011786
0.6025,-6.810030900062797e-05,-0.7822906624999939,0.0013146996950034323,-2.3581532350000054,0.002332894915006028,1.5687848499999941,0.7851424359999977,0.03999995,0.039999988,-9.77598692499996,0.025900976732417532,-0.058282532550152984,-0.00802425800001448,0.01920538907876516,0.00699665285001278
0.605,-7.145182800067667e-05,-0.7822579249999934,0.0013330178900036985,-2.3581812700000055,0.0023650663300064955,1.5687534999999937,0.7851301119999975,0.03999995,0.039999988,-9.775776849999957,0.026137854903984126,-0.05909902710016485,-0.008101538000015604,0.019518666900757573,0.007064857700013771
0.6075,-7.480334700072553e-05,-0.7822251874999929,0.0013513360850039655,-2.358209305000006,0.002397237745006964,1.5687221499999933,0.7851177879999973,0.03999995,0.039999988,-9.775566774999955,0.026374733075550726,-0.059915521650176745,-0.00817881800001673,0.01983194472275,0.0071330625500147645
0.61,-7.815486600077422e-05,-0.7821924499999925,0.0013696542800042317,-2.3582373400000063,0.0024294091600074318,1.5686907999999928,0.7851054639999971,0.03999995,0.039999988,-9.775356699999952,0.02661161124711732,-0.060732016200188615,-0.008256098000017852,0.02014522254474241,0.007201267400015756
0.6125,-8.150638500082307e-05,-0.7821597124999919,0.0013879724750044985,-2.358265375000007,0.0024615805750079003,1.5686594499999924,0.785093139999997,0.03999995,0.039999988,-9.775146624999948,0.02684848941868392,-0.061548510750200514,-0.008333378000018979,0.020458500366734838,0.007269472250016749
0.615,-8.485790400087178e-05,-0.7821269749999915,0.0014062906700047647,-2.3582934100000075,0.002493751990008368,1.5686280999999918,0.7850808159999968,0.03999995,0.039999988,-9.774936549999946,0.027085367590250514,-0.06236500530021238,-0.008410658000020102,0.020771778188727247,0.0073376771000177405
0.6175,-8.827931250095392e-05,-0.7820935824999907,0.0014249940450052163,-2.358321945000008,0.0025265993700091605,1.568596094999991,0.7850682349999965,0.03999995,0.0399999881,-9.774755524999968,0.027322842180792766,-0.06320067625023412,-0.008488679150021296,0.021088010724720142,0.007406518450018781
0.62,-9.184050000093279e-05,-0.7820588799999909,0.0014444677800051007,-2.3583514800000076,0.002560798680008958,1.5685627799999913,0.7850551399999965,0.03999995,0.0399999884,-9.774632599999968,0.027561509609284853,-0.06407470000022894,-0.008568182600020825,0.02141015268870678,0.0074766328000183645
0.6225,-9.540168750091182e-05,-0.7820241774999911,0.001463941515004986,-2.3583810150000075,0.0025949979900087563,1.5685294649999915,0.7850420449999966,0.03999995,0.0399999887,-9.774509674999969,0.027800177037776954,-0.06494872375022379,-0.008647686050020358,0.021732294652693433,0.007546747150017952
0.625,-9.896287500089069e-05,-0.7819894749999913,0.0014834152500048706,-2.3584105500000074,0.0026291973000085534,1.5684961499999917,0.7850289499999967,0.03999995,0.039999989,-9.77438674999997,0.02803884446626904,-0.0658227475002186,-0.008727189500019885,0.022054436616680072,0.007616861500017536
0.6275000000000001,-0.00010252406250086972,-0.7819547724999915,0.001502888985004756,-2.3584400850000073,0.002663396610008352,1.5684628349999918,0.7850158549999968,0.03999995,0.0399999893,-9.77426382499997,0.028277511894761142,-0.06669677125021346,-0.008806692950019417,0.022376578580666724,0.007686975850017123
0.63,-0.0001060852500008486,-0.7819200699999918,0.0015223627200046403,-2.3584696200000073,0.002697595920008149,1.568429519999992,0.7850027599999969,0.03999995,0.0399999896,-9.77414089999997,0.028516179323253232,-0.06757079500020827,-0.008886196400018946,0.022698720544653363,0.0077570902000167075
0.6325000000000001,-0.00010964643750082761,-0.7818853674999919,0.0015418364550045258,-2.358499155000007,0.002731795230007948,1.5683962049999922,0.784989664999997,0.03999995,0.0399999899,-9.774017974999971,0.02875484675174533,-0.06844481875020313,-0.008965699850018476,0.023020862508640015,0.007827204550016294
0.635,-0.00011335128100087247,-0.7818493349999914,0.001562102090004773,-2.3585298700000075,0.002767384430008382,1.5683615499999919,0.7849760399999968,0.0399999497,0.039999989799999996,-9.77383089999995,0.02901138532912899,-0.06935150100021323,-0.009046619550018857,0.023350127972739297,0.0078987719000167
0.6375000000000001,-0.00011712795250087599,-0.7818126374999914,0.0015827636750047923,-2.3585611750000073,0.002803668575008416,1.5683262249999919,0.7849621499999968,0.03999994925,0.0399999895,-9.773611749999949,0.029276859480949175,-0.07027451250021409,-0.009128247375018933,0.023682955186891223,0.007971065750016769
0.64,-0.00012090462400087934,-0.7817759399999914,0.0016034252600048108,-2.3585924800000075,0.002839952720008448,1.5682908999999918,0.7849482599999967,0.0399999488,0.0399999892,-9.77339259999995,0.02954233363276935,-0.07119752400021491,-0.009209875200019006,0.024015782401043136,0.008043359600016833
0.6425,-0.00012468129550088268,-0.7817392424999914,0.001624086845004829,-2.3586237850000074,0.0028762368650084805,1.5682555749999918,0.7849343699999968,0.03999994835,0.0399999889,-9.773173449999948,0.029807807784589527,-0.07212053550021573,-0.009291503025019078,0.024348609615195044,0.008115653450016897
0.645,-0.00012845796700088622,-0.7817025449999914,0.0016447484300048483,-2.3586550900000076,0.0029125210100085144,1.5682202499999915,0.7849204799999967,0.0399999479,0.0399999886,-9.772954299999949,0.030073281936409714,-0.07304354700021659,-0.009373130850019154,0.02468143682934697,0.008187947300016964
0.6475,-0.00013223463850088957,-0.7816658474999914,0.0016654100150048667,-2.3586863950000074,0.0029488051550085465,1.5681849249999915,0.7849065899999967,0.039999947450000004,0.0399999883,-9.772735149999948,0.03033875608822989,-0.07396655850021741,-0.009454758675019227,0.025014264043498883,0.008260241150017028
0.65,-0.0001360113100009454,-0.7816291499999908,0.0016860716000051744,-2.358717700000008,0.0029850893000090864,1.568149599999991,0.7848926999999966,0.039999947,0.039999988,-9.77251599999996,0.030604230240050427,-0.07488957000023234,-0.009536386500019797,0.025347091257652995,0.008332535000017505
0.6525,-0.0001400091415009762,-0.7815903914999905,0.001707952700005343,-2.358750820000008,0.0030235134050093826,1.5681121599999908,0.7848779804999964,0.03999994595,0.039999988,-9.77235294999996,0.03087117346010163,-0.07587207600023992,-0.009620103525020443,0.025689165666782875,0.008406558350018075
0.655,-0.0001440069730010072,-0.7815516329999902,0.0017298338000055126,-2.3587839400000084,0.0030619375100096806,1.5680747199999905,0.7848632609999963,0.0399999449,0.039999988,-9.772189899999958,0.031138116680152844,-0.07685458200024753,-0.009703820550021091,0.026031240075912773,0.00848058170001865
0.6575,-0.00014800480450103803,-0.78151287449999,0.0017517149000056814,-2.3588170600000087,0.003100361615009977,1.5680372799999902,0.7848485414999962,0.03999994385,0.039999988,-9.772026849999957,0.03140505990020405,-0.0778370880002551,-0.009787537575021737,0.026373314485042654,0.00855460505001922
0.66,-0.00015200263600106902,-0.7814741159999896,0.0017735960000058511,-2.358850180000009,0.0031387857200102748,1.56799983999999,0.7848338219999961,0.0399999428,0.039999988,-9.771863799999956,0.03167200312025526,-0.07881959400026273,-0.009871254600022385,0.02671538889417255,0.008628628400019794
0.6625,-0.00015600046750109984,-0.7814353574999894,0.0017954771000060197,-2.358883300000009,0.003177209825010571,1.5679623999999897,0.784819102499996,0.03999994175,0.039999988,-9.771700749999955,0.031938946340306466,-0.0798021000002703,-0.009954971625023032,0.027057463303302436,0.008702651750020364
0.665,-0.00015999829900113086,-0.781396598999989,0.0018173582000061894,-2.3589164200000092,0.003215633930010869,1.5679249599999894,0.7848043829999958,0.0399999407,0.039999988,-9.771537699999953,0.032205889560357685,-0.08078460600027791,-0.01003868865002368,0.02739953771243233,0.008776675100020939
0.6675,-0.00016407171300119873,-0.7813571319999885,0.0018396561200065638,-2.3589501250000096,0.003254789570011526,1.5678867999999888,0.7847893864999955,0.039999939799999995,0.0399999878,-9.771374949999954,0.03247771784671186,-0.08178612925029498,-0.010123079300024328,0.027744639758120266,0.008851440750021637
0.67,-0.00016829629200114504,-0.781316247999989,0.0018627876800062697,-2.3589850000000094,0.0032954082800110097,1.5678471999999892,0.7847738359999957,0.0399999392,0.0399999872,-9.771212799999956,0.03275931626565931,-0.08282568700028177,-0.010208817200023238,0.02809579707691648,0.008927691000020667
0.6725,-0.00017252087100109117,-0.7812753639999894,0.0018859192400059747,-2.359019875000009,0.0033360269900104917,1.5678075999999899,0.7847582854999959,0.0399999386,0.0399999866,-9.771050649999959,0.03304091468460675,-0.0838652447502685,-0.010294555100022145,0.028446954395712674,0.009003941250019696
0.675,-0.00017674545000103748,-0.78123447999999,0.0019090508000056809,-2.3590547500000083,0.0033766457000099755,1.5677679999999903,0.7847427349999961,0.039999938,0.039999986,-9.77088849999996,0.033322513103554205,-0.0849048025002553,-0.010380293000021055,0.028798111714508887,0.009080191500018726
0.6775,-0.0001809700290009836,-0.7811935959999905,0.0019321823600053857,-2.359089625000008,0.0034172644100094575,1.567728399999991,0.7847271844999963,0.0399999374,0.0399999854,-9.770726349999963,0.03360411152250165,-0.08594436025024205,-0.010466030900019963,0.029149269033305083,0.009156441750017754
0.68,-0.0001851946080009299,-0.781152711999991,0.001955313920005092,-2.3591245000000076,0.003457883120008941,1.5676887999999913,0.7847116339999965,0.0399999368,0.0399999848,-9.770564199999965,0.033885709941449106,-0.08698391800022882,-0.010551768800018872,0.029500426352101296,0.009232692000016784
0.6825,-0.00018941918700087602,-0.7811118279999915,0.001978445480004797,-2.359159375000007,0.003498501830008423,1.5676491999999917,0.7846960834999968,0.0399999362,0.039999984200000005,-9.770402049999966,0.034167308360396546,-0.08802347575021557,-0.01063750670001778,0.02985158367089749,0.009308942250015812
0.685,-0.00019379858500092833,-0.7810694699999909,0.0020024309500050854,-2.3591955000000078,0.003540618990008929,1.5676081799999912,0.7846799599999965,0.039999936,0.039999984,-9.770231699999965,0.0344556387514483,-0.08910411150022937,-0.010724572200018274,0.03020897973336329,0.009386487800016288
0.6875,-0.00019825539250096269,-0.7810263749999906,0.0020268433750052733,-2.359232250000008,0.0035834853750092593,1.567566449999991,0.7846635499999964,0.039999936,0.039999984,-9.770057249999963,0.034747335128549106,-0.09020528625023787,-0.01081230150001895,0.030569495167661023,0.00946468100001689
0.6900000000000001,-0.00020271220000099726,-0.7809832799999903,0.0020512558000054626,-2.3592690000000083,0.0036263517600095916,1.5675247199999907,0.7846471399999964,0.039999936,0.039999984,-9.76988279999996,0.03503903150564993,-0.0913064610002464,-0.01090003080001963,0.03093001060195877,0.009542874200017497
0.6925,-0.0002071690075010316,-0.78094018499999,0.002075668225005651,-2.3593057500000083,0.003669218145009922,1.5674829899999903,0.7846307299999962,0.039999936,0.039999984,-9.76970834999996,0.03533072788275074,-0.09240763575025489,-0.010987760100020307,0.0312905260362565,0.009621067400018099
0.6950000000000001,-0.00021162581500106615,-0.7808970899999896,0.00210008065000584,-2.359342500000009,0.0037120845300102545,1.56744125999999,0.7846143199999961,0.039999936,0.039999984,-9.769533899999958,0.035622424259851564,-0.09350881050026343,-0.011075489400020988,0.031651041470554246,0.009699260600018706
0.6975,-0.00021608262250110053,-0.7808539949999893,0.002124493075006028,-2.359379250000009,0.003754950915010585,1.5673995299999897,0.784597909999996,0.039999936,0.039999984,-9.769359449999957,0.035914120636952374,-0.09460998525027192,-0.011163218700021663,0.032011556904851975,0.009777453800019308
0.7000000000000001,-0.00022053943000119558,-0.7808108999999884,0.0021489055000065514,-2.3594160000000097,0.003797817300011503,1.5673577999999888,0.7845814999999956,0.039999936,0.039999984,-9.76918499999996,0.03620581701405603,-0.09571116000029717,-0.011250948000022822,0.03237207233915198,0.00985564700002037
0.7025,-0.00022523380600119976,-0.7807655789999884,0.0021746286550065742,-2.35945470000001,0.0038429835000115434,1.5673137899999887,0.7845641974999956,0.0399999354,0.039999984,-9.76902524999996,0.036508656852024646,-0.09687797550029821,-0.011340557250022903,0.03274145834157367,0.00993562760002044
0.705,-0.00022992818200120394,-0.7807202579999883,0.002200351810006597,-2.35949340000001,0.0038881497000115835,1.5672697799999886,0.7845468949999956,0.0399999348,0.039999984,-9.76886549999996,0.036811496689993256,-0.09804479100029924,-0.011430166500022982,0.033110844343995374,0.010015608200020513
0.7075,-0.0002346225580012083,-0.7806749369999884,0.0022260749650066212,-2.35953210000001,0.003933315900011626,1.5672257699999885,0.7845295924999955,0.039999934200000004,0.039999984,-9.76870574999996,0.03711433652796189,-0.09921160650030034,-0.011519775750023066,0.03348023034641709,0.010095588800020587
0.71,-0.00023931693400121247,-0.7806296159999883,0.002251798120006644,-2.35957080000001,0.003978482100011666,1.5671817599999887,0.7845122899999956,0.0399999336,0.039999984,-9.768545999999958,0.0374171763659305,-0.10037842200030136,-0.011609385000023145,0.03384961634883878,0.010175569400020658
0.7125,-0.00024401131000121687,-0.7805842949999883,0.002277521275006668,-2.35960950000001,0.004023648300011708,1.5671377499999886,0.7844949874999955,0.039999933,0.039999984,-9.768386249999958,0.03772001620389912,-0.10154523750030245,-0.011698994250023229,0.0342190023512605,0.010255550000020732
0.715,-0.00024870568600122105,-0.7805389739999883,0.0023032444300066907,-2.3596482000000103,0.004068814500011748,1.5670937399999885,0.7844776849999955,0.0399999324,0.039999984,-9.768226499999958,0.03802285604186774,-0.10271205300030349,-0.01178860350002331,0.0345883883536822,0.010335530600020803
0.7175,-0.0002534809985012776,-0.7804928899999877,0.002329414165007003,-2.3596875400000106,0.004114764465012296,1.567048974999988,0.7844600849999953,0.039999932,0.039999984200000005,-9.768066349999959,0.038330201059661624,-0.10389839350031708,-0.011878843250023677,0.034960664808847894,0.010416139550021183
0.72,-0.00025841818400124827,-0.780445279999988,0.0023564770600068424,-2.35972816000001,0.004162281960012014,1.5670026999999884,0.7844418899999954,0.039999932,0.0399999848,-9.76790539999996,0.03864655643709544,-0.1051237840003098,-0.011970344000023135,0.03533872216949476,0.010498005200020697
0.7225,-0.0002633553695012192,-0.7803976699999883,0.002383539955006683,-2.3597687800000102,0.004209799455011734,1.5669564249999886,0.7844236949999955,0.039999932,0.0399999854,-9.76774444999996,0.03896291181452927,-0.1063491745003026,-0.012061844750022595,0.03571677953014165,0.010579870850020216
0.725,-0.0002682925550011899,-0.7803500599999885,0.002410602850006522,-2.35980940000001,0.004257316950011452,1.566910149999989,0.7844054999999956,0.039999932,0.039999986,-9.767583499999962,0.03927926719196309,-0.10757456500029533,-0.012153345500022053,0.03609483689078852,0.01066173650001973
0.7275,-0.0002732297405011608,-0.7803024499999888,0.002437665745006363,-2.3598500200000094,0.0043048344450111724,1.566863874999989,0.7843873049999956,0.039999932,0.0399999866,-9.767422549999962,0.03959562256939693,-0.1087999555002881,-0.012244846250021514,0.0364728942514354,0.010743602150019248
0.73,-0.0002781669260011315,-0.7802548399999891,0.0024647286400062023,-2.3598906400000095,0.00435235194001089,1.5668175999999894,0.7843691099999958,0.039999932,0.0399999872,-9.767261599999962,0.03991197794683075,-0.11002534600028084,-0.01233634700002097,0.03685095161208227,0.010825467800018761
0.7325,-0.00028310411150110246,-0.7802072299999894,0.002491791535006043,-2.359931260000009,0.004399869435010611,1.5667713249999897,0.7843509149999959,0.039999932,0.0399999878,-9.767100649999964,0.04022833332426458,-0.11125073650027363,-0.012427847750020432,0.03722900897272915,0.01090733345001828
0.735,-0.0002882066040011978,-0.7801580639999884,0.0025197666900065676,-2.3599732500000097,0.004448987440011531,1.5667235099999888,0.7843321049999956,0.039999932,0.0399999882,-9.766940199999963,0.040552841499523706,-0.11251943000029807,-0.012520559800021556,0.03761273659774643,0.01099043920001934
0.7375,-0.0002933917500012734,-0.7801081199999877,0.002548197975006982,-2.3600159250000106,0.004498905700012259,1.566674924999988,0.7843129874999952,0.039999932,0.0399999885,-9.76677999999996,0.04088142607369145,-0.11380977500031689,-0.012613877500022916,0.03799929935494611,0.011074165000020562
0.74,-0.0002985768960013487,-0.780058175999987,0.0025766292600073954,-2.360058600000011,0.0045488239600129845,1.5666263399999873,0.784293869999995,0.039999932,0.0399999888,-9.766619799999958,0.04121001064785917,-0.11510012000033563,-0.012707195200024272,0.03838586211214577,0.011157890800021778
0.7425,-0.00030376204200142427,-0.7800082319999863,0.00260506054500781,-2.360101275000012,0.0045987422200137115,1.5665777549999866,0.7842747524999947,0.039999932,0.0399999891,-9.766459599999957,0.04153859522202691,-0.11639046500035444,-0.012800512900025634,0.03877242486934545,0.011241616600023
0.745,-0.00030894718800149963,-0.7799582879999856,0.0026334918300082227,-2.3601439500000123,0.004648660480014437,1.566529169999986,0.7842556349999944,0.039999932,0.0399999894,-9.766299399999953,0.041867179796194635,-0.11768081000037318,-0.01289383060002699,0.039158987626545114,0.011325342400024216
0.7475,-0.0003141323340015752,-0.7799083439999848,0.0026619231150086372,-2.3601866250000128,0.004698578740015165,1.5664805849999852,0.7842365174999941,0.039999932,0.0399999897,-9.766139199999952,0.04219576437036237,-0.11897115500039199,-0.01298714830002835,0.03954555038374479,0.011409068200025435
0.75,-0.0003193174800017311,-0.7798583999999833,0.0026903544000094945,-2.360229300000014,0.00474849700001667,1.5664319999999838,0.7842173999999935,0.039999932,0.03999999,-9.76597899999995,0.04252434894453474,-0.12026150000043201,-0.013080466000030261,0.03993211314094713,0.011492794000027276
0.7525000000000001,-0.000324755598001699,-0.7798060454999836,0.002720181780009319,-2.360274030000014,0.004800865300016362,1.5663809849999841,0.7841973449999937,0.039999931700000005,0.0399999897,-9.76582089999995,0.04286751914780126,-0.12161867150042402,-0.013175527150029702,0.040327077917878,0.01157847580002677
0.755,-0.00033019371600166676,-0.7797536909999839,0.002750009160009142,-2.3603187600000135,0.004853233600016051,1.5663299699999844,0.7841772899999938,0.0399999314,0.0399999894,-9.765662799999951,0.04321068935106776,-0.12297584300041597,-0.013270588300029137,0.040722042694808856,0.011664157600026263
0.7575000000000001,-0.00033563183400163476,-0.7797013364999842,0.0027798365400089667,-2.3603634900000134,0.004905601900015742,1.5662789549999847,0.784157234999994,0.039999931100000004,0.0399999891,-9.765504699999953,0.04355385955433428,-0.12433301450040798,-0.013365649450028577,0.04111700747173973,0.011749839400025757
0.76,-0.0003410699520016025,-0.7796489819999846,0.0028096639200087896,-2.360408220000013,0.004957970200015432,1.566227939999985,0.7841371799999941,0.0399999308,0.0399999888,-9.765346599999953,0.043897029757600785,-0.12569018600039994,-0.013460710600028014,0.041511972248670585,0.01183552120002525
0.7625000000000001,-0.0003465080700015705,-0.7795966274999848,0.002839491300008614,-2.360452950000013,0.0050103385000151235,1.5661769249999853,0.7841171249999942,0.0399999305,0.0399999885,-9.765188499999955,0.0442401999608673,-0.12704735750039195,-0.013555771750027453,0.041906937025601464,0.011921203000024744
0.765,-0.00035194618800153823,-0.7795442729999852,0.002869318680008437,-2.3604976800000124,0.005062706800014813,1.5661259099999856,0.7840970699999944,0.039999930200000006,0.0399999882,-9.765030399999954,0.04458337016413381,-0.1284045290003839,-0.01365083290002689,0.042301901802532314,0.012006884800024237
0.7675000000000001,-0.00035747026100159054,-0.7794911114999847,0.0028996205700087267,-2.360543080000013,0.005115907650015321,1.566074094999985,0.7840766974999942,0.03999992975,0.039999988,-9.76487704999996,0.04493024740378021,-0.12978409750039777,-0.013746452450027013,0.042699343152456576,0.012093124500024394
0.77,-0.0003631662440015956,-0.7794363359999846,0.0029308714800087544,-2.360589820000013,0.00517077360001537,1.566020679999985,0.7840556899999942,0.039999929000000004,0.039999988,-9.76473319999996,0.04528453871617705,-0.131208460000399,-0.0138431888000271,0.04310173764836138,0.012180480000024472
0.7725,-0.0003688622270016007,-0.7793815604999845,0.002962122390008782,-2.360636560000013,0.005225639550015418,1.565967264999985,0.7840346824999941,0.039999928250000004,0.039999988,-9.764589349999959,0.04563883002857389,-0.1326328225004003,-0.013939925150027186,0.04350413214426618,0.012267835500024549
0.775,-0.000374558210001606,-0.7793267849999845,0.0029933733000088113,-2.360683300000013,0.00528050550001547,1.565913849999985,0.7840136749999941,0.0399999275,0.039999988,-9.76444549999996,0.04599312134097074,-0.13405718500040162,-0.014036661500027275,0.04390652664017101,0.012355191000024631
0.7775,-0.00038025419300161107,-0.7792720094999844,0.003024624210008839,-2.3607300400000133,0.005335371450015518,1.5658604349999847,0.7839926674999941,0.03999992675,0.039999988,-9.76430164999996,0.04634741265336758,-0.13548154750040287,-0.014133397850027362,0.04430892113607581,0.012442546500024708
0.78,-0.00038595017600161636,-0.7792172339999844,0.0030558751200088683,-2.3607767800000135,0.005390237400015569,1.5658070199999847,0.7839716599999941,0.039999926,0.039999988,-9.764157799999959,0.04670170396576444,-0.1369059100004042,-0.014230134200027451,0.04471131563198063,0.01252990200002479
0.7825,-0.00039164615900162144,-0.7791624584999843,0.003087126030008896,-2.3608235200000136,0.005445103350015619,1.5657536049999847,0.783950652499994,0.03999992525,0.039999988,-9.764013949999958,0.047055995278161275,-0.13833027250040547,-0.014326870550027538,0.04511371012788543,0.012617257500024867
0.785,-0.00039751722500172885,-0.7791060199999833,0.003119343590009488,-2.3608716700000145,0.005501665300016657,1.5656984899999837,0.7839289819999936,0.0399999245,0.0399999876,-9.76385039999995,0.047420817986238074,-0.13979986000043296,-0.014424723400028552,0.04552191123378282,0.012705879900025897
0.7875,-0.00040347583250177475,-0.7790487499999829,0.00315204447500974,-2.3609205250000147,0.005559075250017099,1.5656425249999832,0.7839069799999935,0.03999992375,0.039999987,-9.763676999999948,0.04779090639214808,-0.14129206000044445,-0.014523134500029311,0.045933015644672746,0.012795135750026585
0.79,-0.00040943444000182097,-0.7789914799999824,0.0031847453600099937,-2.360969380000015,0.005616485200017545,1.565586559999983,0.7838849779999932,0.039999923,0.0399999864,-9.763503599999947,0.0481609947980581,-0.14278426000045602,-0.014621545600030074,0.046344120055562696,0.012884391600027276
0.7925,-0.0004153930475018669,-0.778934209999982,0.0032174462450102457,-2.3610182350000155,0.005673895150017988,1.5655305949999825,0.7838629759999931,0.03999992225,0.0399999858,-9.763330199999945,0.0485310832039681,-0.14427646000046754,-0.014719956700030833,0.046755224466452625,0.012973647450027966
0.795,-0.0004213516550019131,-0.7788769399999815,0.003250147130010499,-2.3610670900000157,0.005731305100018433,1.565474629999982,0.783840973999993,0.0399999215,0.039999985200000004,-9.763156799999944,0.04890117160987812,-0.14576866000047908,-0.014818367800031595,0.047166328877342574,0.013062903300028657
0.7975,-0.00042731026250195905,-0.7788196699999811,0.0032828480150107514,-2.3611159450000163,0.005788715050018875,1.5654186649999817,0.7838189719999928,0.03999992075,0.0399999846,-9.762983399999943,0.049271260015788125,-0.1472608600004906,-0.014916778900032355,0.0475774332882325,0.013152159150029345
0.8,-0.0004332688700020952,-0.7787623999999799,0.0033155489000115017,-2.3611648000000174,0.005846125000020191,1.5653626999999803,0.7837969699999923,0.03999992,0.039999984,-9.762809999999947,0.049641348421701925,-0.14875306000052513,-0.015015190000033617,0.04798853769912497,0.01324141500003054
0.8025,-0.00043949475500205823,-0.7787025874999802,0.003349725620011299,-2.361215875000017,0.005906124250019835,1.5653042749999808,0.7837739794999924,0.03999992,0.0399999849,-9.762653324999947,0.05002267472458567,-0.15031351600051587,-0.015115081900033023,0.04840714670731551,0.01333216410003
0.805,-0.0004457206400020216,-0.7786427749999806,0.0033839023400110977,-2.3612669500000165,0.005966123500019482,1.565245849999981,0.7837509889999926,0.03999992,0.0399999858,-9.76249664999995,0.05040400102746944,-0.15187397200050667,-0.015214973800032434,0.04882575571550606,0.013422913200029467
0.8075,-0.00045194652500198465,-0.7785829624999809,0.0034180790600108948,-2.3613180250000165,0.006026122750019126,1.5651874249999815,0.7837279984999928,0.03999992,0.039999986700000004,-9.76233997499995,0.05078532733035319,-0.15343442800049742,-0.015314865700031842,0.0492443647236966,0.013513662300028928
0.81,-0.000458172410001948,-0.7785231499999813,0.0034522557800106936,-2.361369100000016,0.0060861220000187725,1.5651289999999818,0.7837050079999929,0.03999992,0.0399999876,-9.76218329999995,0.05116665363323695,-0.15499488400048825,-0.015414757600031253,0.049662973731887154,0.013604411400028394
0.8125,-0.00046439829500191106,-0.7784633374999816,0.0034864325000104907,-2.3614201750000157,0.006146121250018417,1.565070574999982,0.783682017499993,0.03999992,0.0399999885,-9.762026624999951,0.051547979936120696,-0.156555340000479,-0.015514649500030661,0.05008158274007769,0.013695160500027856
0.8150000000000001,-0.0004706241800018744,-0.778403524999982,0.0035206092200102896,-2.3614712500000157,0.006206120500018063,1.5650121499999825,0.7836590269999931,0.03999992,0.0399999894,-9.761869949999952,0.051929306239004464,-0.1581157960004698,-0.015614541400030072,0.050500191748268246,0.013785909600027322
0.8175,-0.0004769406715019324,-0.7783428449999814,0.003555286305010611,-2.361523060000016,0.006266997630018627,1.564952864999982,0.7836357079999929,0.03999991965,0.0399999897,-9.761717074999956,0.052316566184281765,-0.1597014885004866,-0.01571494320003016,0.0509212629870847,0.013877315850027576
0.8200000000000001,-0.0004834383760019385,-0.7782804299999814,0.003590964120010644,-2.361576340000016,0.006329630520018686,1.564891859999982,0.7836117319999929,0.0399999186,0.0399999888,-9.761571799999956,0.052715693414330314,-0.16133765400048813,-0.015816364800030257,0.05134725868714641,0.013970036400027662
0.8225,-0.0004899360805019443,-0.7782180149999813,0.003626641935010676,-2.361629620000016,0.006392263410018742,1.5648308549999819,0.7835877559999929,0.03999991755,0.0399999879,-9.761426524999957,0.05311482064437885,-0.1629738195004896,-0.015917786400030345,0.051773254387208104,0.014062756950027745
0.8250000000000001,-0.0004964337850019504,-0.7781555999999813,0.003662319750010709,-2.3616829000000163,0.0064548963000188,1.5647698499999818,0.7835637799999928,0.039999916499999996,0.039999987,-9.761281249999955,0.053513947874427405,-0.16460998500049112,-0.01601920800003044,0.05219925008726982,0.014155477500027831
0.8275,-0.0005029314895019561,-0.7780931849999813,0.003697997565010741,-2.3617361800000163,0.006517529190018856,1.5647088449999815,0.7835398039999928,0.03999991545,0.0399999861,-9.761135974999956,0.05391307510447594,-0.16624615050049257,-0.01612062960003053,0.05262524578733151,0.014248198050027914
0.8300000000000001,-0.0005094291940019622,-0.7780307699999812,0.0037336753800107743,-2.361789460000016,0.006580162080018914,1.5646478399999815,0.7835158279999928,0.039999914399999996,0.039999985200000004,-9.760990699999956,0.05431220233452449,-0.16788231600049408,-0.016222051200030625,0.05305124148739322,0.014340918600028
0.8325,-0.0005159268985019679,-0.7779683549999812,0.0037693531950108057,-2.361842740000016,0.006642794970018969,1.5645868349999814,0.7834918519999927,0.03999991335,0.0399999843,-9.760845424999957,0.05471132956457302,-0.16951848150049556,-0.016323472800030717,0.05347723718745492,0.014433639150028082
0.835,-0.0005226087800020577,-0.7779041649999803,0.003806048120011301,-2.361897550000017,0.006707212440019838,1.5645240799999807,0.7834671889999925,0.039999913,0.0399999844,-9.760697699999955,0.0551187094302235,-0.17120119800051822,-0.016425918900031273,0.053907855227721055,0.014527399800028639
0.8375,-0.0005293827500020639,-0.7778390874999802,0.0038432516000113355,-2.361953125000017,0.0067725222000198995,1.5644604499999806,0.7834421824999924,0.039999913,0.039999985,-9.760548749999955,0.05553021561366933,-0.1729071900005198,-0.016528877250031368,0.054340784438086286,0.014621680500028727
0.84,-0.00053615672000207,-0.7777740099999801,0.0038804550800113687,-2.362008700000017,0.006837831960019958,1.5643968199999805,0.7834171759999924,0.039999913,0.0399999856,-9.760399799999956,0.05594172179711515,-0.1746131820005213,-0.01663183560003146,0.05477371364845149,0.014715961200028809
