rsonawane2002/My_IMU/logs_2/traj_451/imu_400hz_451.csv
time,j1,j2,j3,j4,j5,j6,j7,gripper1,gripper2,imu_ax,imu_ay,imu_az,imu_gx,imu_gy,imu_gz
0.0,0.00016700293,-0.785875,4.0107683e-05,-2.3551247,9.29385e-05,1.570997,0.786,0.04,0.04,-9.470977,-0.0299883764237165,0.11994126,3.3755492e-07,-0.0011641273740679,5.9784986e-07
0.0025,0.0001670039515,-0.7858577739999998,4.0107217549999995e-05,-2.3551391900000005,9.294294300000007e-05,1.570996565,0.786,0.04,0.04,-9.525457600000792,-0.025395024561954842,0.10332692159975823,3.465021740001302e-07,-0.0013255208497890336,6.674635610010131e-07
0.005,0.00016700497300000002,-0.7858405479999995,4.010675209999999e-05,-2.355153680000001,9.294738600000013e-05,1.57099613,0.786,0.04,0.04,-9.579938200001585,-0.02080167270019319,0.08671258319951645,3.554494280002604e-07,-0.0014869143255101672,7.37077262002026e-07
0.0075,0.00016700599450000003,-0.7858233219999993,4.010628664999998e-05,-2.3551681700000007,9.29518290000002e-05,1.570995695,0.786,0.04,0.04,-9.634418800002377,-0.01620832083843153,0.07009824479927469,3.6439668200039063e-07,-0.0016483078012313008,8.06690963003039e-07
0.01,0.00016700701600000007,-0.7858060959999991,4.010582119999997e-05,-2.355182660000001,9.295627200000026e-05,1.57099526,0.786,0.04,0.04,-9.688899400003171,-0.011614968976669873,0.053483906399032916,3.7334393600052084e-07,-0.0018097012769524344,8.76304664004052e-07
0.0125,0.00016700803750000008,-0.7857888699999988,4.010535574999997e-05,-2.3551971500000013,9.296071500000033e-05,1.570994825,0.786,0.04,0.04,-9.743380000003963,-0.007021617114908212,0.03686956799879115,3.82291190000651e-07,-0.001971094752673568,9.45918365005065e-07
0.015,0.0001670090590000001,-0.7857716439999985,4.010489029999996e-05,-2.3552116400000016,9.296515800000039e-05,1.57099439,0.786,0.04,0.04,-9.797860600004755,-0.002428265253146558,0.02025522959854939,3.912384440007812e-07,-0.0021324882283947017,1.015532066006078e-06
0.0175,0.00016701143900000047,-0.7857548669999985,4.010094099999899e-05,-2.355225735000001,9.296742474999981e-05,1.57099396,0.786,0.04,0.04,-9.83410724999998,0.0006296304520207075,0.009095768899976835,5.647567760466314e-07,-0.0022899595555056105,1.1075698250126986e-06
0.02,0.0001670165360000004,-0.7857389879999988,4.009002399999913e-05,-2.355239040000001,9.296533899999984e-05,1.57099354,0.786,0.04,0.04,-9.833885999999982,0.0006166138453398182,0.008846063599980015,1.0674172640402308e-06,-0.0024395865853994955,1.2444557000109557e-06
0.0225,0.00016702163300000034,-0.785723108999999,4.007910699999927e-05,-2.355252345000001,9.296325324999987e-05,1.57099312,0.786,0.04,0.04,-9.833664749999985,0.000603597238658929,0.008596358299983193,1.5700777520338303e-06,-0.0025892136152933804,1.3813415750092127e-06
0.025,0.00016702673000000028,-0.7857072299999992,4.006818999999941e-05,-2.3552656500000007,9.296116749999989e-05,1.5709927,0.786,0.04,0.04,-9.833443499999987,0.0005905806319780397,0.008346652999986373,2.0727382400274306e-06,-0.002738840645187265,1.51822745000747e-06
0.0275,0.0001670318270000002,-0.7856913509999993,4.0057272999999546e-05,-2.3552789550000006,9.295908174999992e-05,1.57099228,0.786,0.04,0.04,-9.83322224999999,0.0005775640252971505,0.008096947699989553,2.5753987280210297e-06,-0.00288846767508115,1.6551133250057268e-06
0.03,0.00016703692400000015,-0.7856754719999995,4.0046355999999685e-05,-2.35529226,9.295699599999995e-05,1.57099186,0.786,0.04,0.04,-9.833000999999994,0.0005645474186162612,0.007847242399992732,3.0780592160146296e-06,-0.003038094704975035,1.7919992000039838e-06
0.0325,0.00016704202100000008,-0.7856595929999998,4.003543899999982e-05,-2.355305565,9.295491024999996e-05,1.57099144,0.786,0.04,0.04,-9.832779749999997,0.000551530811935372,0.007597537099995911,3.5807197040082295e-06,-0.0031877217348689198,1.928885075002241e-06
0.035,0.00016705406600000004,-0.785644573,4.000614999999986e-05,-2.3553181,9.294274809999994e-05,1.57099101,0.786,0.04,0.0399999995,-9.832558599999999,0.0005335086083503753,0.00737508763999924,4.6263172800047934e-06,-0.0033311648992826407,2.2164668700013207e-06
0.0375,0.00016706958499999985,-0.7856299825000002,3.996767500000035e-05,-2.3553302499999997,9.292554775000015e-05,1.570990575,0.786,0.04,0.03999999875,-9.832337500000001,0.0005129836063134617,0.007166266100001899,5.943383399988021e-06,-0.0034715161309564484,2.5793966249966993e-06
0.04,0.00016708510399999964,-0.7856153920000003,3.992920000000084e-05,-2.3553423999999996,9.290834740000038e-05,1.57099014,0.786,0.04,0.039999998,-9.832116400000006,0.000492458604276548,0.006957444560004558,7.260449519971252e-06,-0.0036118673626302565,2.9423263799920783e-06
0.0425,0.00016710062299999946,-0.7856008015000006,3.989072500000133e-05,-2.3553545499999995,9.28911470500006e-05,1.5709897050000001,0.786,0.04,0.03999999725,-9.831895300000008,0.00047193360223963437,0.006748623020007217,8.577515639954483e-06,-0.0037522185943040646,3.3052561349874573e-06
0.045,0.00016711614199999925,-0.7855862110000007,3.985225000000182e-05,-2.3553666999999994,9.287394670000081e-05,1.57098927,0.786,0.04,0.0399999965,-9.83167420000001,0.00045140860020272073,0.006539801480009876,9.894581759937711e-06,-0.0038925698259778723,3.668185889982836e-06
0.0475,0.00016713166099999906,-0.7855716205000008,3.981377500000231e-05,-2.3553788499999992,9.285674635000103e-05,1.570988835,0.786,0.04,0.03999999575,-9.831453100000013,0.00043088359816580705,0.006330979940012535,1.1211647879920941e-05,-0.00403292105765168,4.031115644978215e-06
0.05,0.00016714717999999885,-0.7855570300000011,3.97753000000028e-05,-2.355390999999999,9.283954600000124e-05,1.5709884,0.786,0.04,0.039999995,-9.831232000000016,0.00041035859612889336,0.006122158400015194,1.2528713999904173e-05,-0.0041732722893254885,4.394045399973595e-06
0.0525,0.000167182083499997,-0.7855436365000011,3.9684829000007734e-05,-2.355402024999999,9.278956360000427e-05,1.5709879800000002,0.786,0.04,0.03999999575,-9.831040750000016,0.00037790512433544954,0.005928271490016576,1.5104167949779817e-05,-0.004305819864373463,4.6853246399750975e-06
0.055,0.00016721698699999655,-0.7855302430000013,3.9594358000008884e-05,-2.355413049999999,9.27395812000049e-05,1.57098756,0.786,0.04,0.0399999965,-9.830849500000019,0.00034545165254113775,0.0057343845800190444,1.7679621899747026e-05,-0.004438367439420871,4.976603879971389e-06
0.0575,0.0001672518904999961,-0.7855168495000014,3.950388700001004e-05,-2.355424074999999,9.268959880000554e-05,1.5709871400000002,0.786,0.04,0.03999999725,-9.830658250000022,0.0003129981807468259,0.005540497670021513,2.0255075849714234e-05,-0.004570915014468278,5.26788311996768e-06
0.06,0.00016728679399999569,-0.7855034560000016,3.941341600001119e-05,-2.355435099999999,9.263961640000618e-05,1.57098672,0.786,0.04,0.039999998,-9.830467000000024,0.00028054470895251424,0.005346610760023982,2.2830529799681438e-05,-0.004703462589515685,5.559162359963971e-06
0.0625,0.00016732169749999524,-0.7854900625000018,3.9322945000012345e-05,-2.3554461249999985,9.258963400000681e-05,1.5709863000000002,0.786,0.04,0.03999999875,-9.830275750000027,0.00024809123715820245,0.005152723850026451,2.5405983749648648e-05,-0.004836010164563092,5.850441599960262e-06
0.065,0.0001673566009999948,-0.785476669000002,3.9232474000013495e-05,-2.3554571499999986,9.253965160000745e-05,1.57098588,0.786,0.04,0.0399999995,-9.830084500000028,0.00021563776536389064,0.004958836940028919,2.798143769961586e-05,-0.0049685577396105,6.141720839956553e-06
0.0675,0.00016740168749998938,-0.785463658000002,3.911426315002812e-05,-2.3554678349999985,9.24731632000161e-05,1.57098556,0.786,0.04,0.04,-9.829887525000034,0.00018212099094512893,0.004773595225027189,3.107750714933022e-05,-0.005098925810286791,6.543151849899348e-06
0.07,0.00016746713999998857,-0.7854514120000021,3.8940572600030335e-05,-2.3554778399999985,9.237366280001738e-05,1.57098544,0.786,0.04,0.04,-9.829679100000037,0.00014647761127595883,0.0046056439000293275,3.5214807599277544e-05,-0.005224934872217756,7.164886399891432e-06
0.0725,0.00016753259249998773,-0.7854391660000023,3.876688205003254e-05,-2.355487844999998,9.227416240001864e-05,1.57098532,0.786,0.04,0.04,-9.829470675000039,0.00011083423160678894,0.004437692575031467,3.9352108049224846e-05,-0.005350943934148721,7.786620949883514e-06
0.075,0.0001675980449999869,-0.7854269200000025,3.859319150003476e-05,-2.355497849999998,9.217466200001991e-05,1.5709852,0.786,0.04,0.04,-9.829262250000042,7.519085193761884e-05,0.0042697412500336054,4.348940849917217e-05,-0.005476952996079687,8.408355499875597e-06
0.0775,0.00016766349749998608,-0.7854146740000025,3.8419500950036965e-05,-2.355507854999998,9.207516160002118e-05,1.57098508,0.786,0.04,0.04,-9.829053825000045,3.954747226844873e-05,0.004101789925035743,4.76267089491195e-05,-0.005602962058010653,9.030090049867682e-06
0.08,0.00016772894999998524,-0.7854024280000027,3.824581040003918e-05,-2.3555178599999977,9.197566120002244e-05,1.57098496,0.786,0.04,0.04,-9.828845400000047,3.904092599278636e-06,0.003933838600037882,5.176400939906682e-05,-0.0057289711199416185,9.651824599859765e-06
0.0825,0.0001677944024999844,-0.7853901820000029,3.807211985004139e-05,-2.355527864999998,9.187616080002371e-05,1.57098484,0.786,0.04,0.04,-9.82863697500005,-3.173928706989146e-05,0.00376588727504002,5.590130984901414e-05,-0.005854980181872584,1.0273559149851848e-05
0.085,0.00016788906799997257,-0.7853786540000027,3.781816940007382e-05,-2.355537109999998,9.172910360004288e-05,1.5709848499999999,0.78600017,0.04,0.04,-9.82851535000002,-7.553180329230796e-05,0.003586653290046407,6.135609599846539e-05,-0.005977293569564351,1.1061441299781375e-05
0.08750000000000001,0.0001679983399999712,-0.785367485000003,3.7524089000077567e-05,-2.355545974999998,9.155826800004506e-05,1.5709849249999999,0.786000425,0.04,0.04,-9.82843712500002,-0.0001233988877957946,0.003401777975048761,6.746962499838756e-05,-0.0060977591201345025,1.1932397249770285e-05
0.09,0.0001681076119999698,-0.7853563160000031,3.7230008600081314e-05,-2.3555548399999977,9.138743240004723e-05,1.570985,0.78600068,0.04,0.04,-9.828358900000023,-0.000171265972299281,0.0032169026600511155,7.358315399830969e-05,-0.006218224670704653,1.2803353199759192e-05
0.0925,0.00016821688399996842,-0.7853451470000032,3.6935928200085055e-05,-2.3555637049999976,9.12165968000494e-05,1.570985075,0.7860009349999999,0.04,0.04,-9.828280675000023,-0.00021913305680276764,0.0030320273450534694,7.969668299823184e-05,-0.006338690221274804,1.3674309149748102e-05
0.095,0.00016832615599996701,-0.7853339780000034,3.6641847800088796e-05,-2.3555725699999974,9.104576120005158e-05,1.57098515,0.7860011899999999,0.04,0.04,-9.828202450000024,-0.0002670001413062543,0.002847152030055823,8.581021199815401e-05,-0.006459155771844955,1.4545265099737014e-05
0.0975,0.00016843542799996564,-0.7853228090000035,3.6347767400092544e-05,-2.3555814349999973,9.087492560005375e-05,1.570985225,0.7860014449999999,0.04,0.04,-9.828124225000025,-0.0003148672258097409,0.002662276715058177,9.192374099807618e-05,-0.006579621322415107,1.5416221049725924e-05
0.1,0.00016854469999996423,-0.7853116400000036,3.6053687000096285e-05,-2.3555902999999967,9.070409000005593e-05,1.5709853,0.7860016999999999,0.04,0.04,-9.828046000000025,-0.00036273431031322756,0.002477401400060531,9.803726999799833e-05,-0.006700086872985258,1.6287176999714834e-05
0.10250000000000001,0.00016871285449994282,-0.7853015240000034,3.5596664450155456e-05,-2.355598609999997,9.043697900009086e-05,1.57098539,0.786001985,0.04,0.04,-9.82792900000004,-0.00041490586007095394,0.002321813015052923,0.00010529210399753229,-0.006815869733651822,1.7445592199605966e-05
0.105,0.00016888100899994067,-0.7852914080000035,3.5139641900161277e-05,-2.355606919999997,9.016986800009426e-05,1.57098548,0.7860022699999999,0.04,0.04,-9.827812000000042,-0.0004670774098300894,0.002166224630054905,0.00011254693799743988,-0.006931652594316853,1.860400739959121e-05
0.1075,0.00016904916349993852,-0.7852812920000036,3.46826193501671e-05,-2.355615229999997,8.990275700009766e-05,1.57098557,0.7860025549999999,0.04,0.04,-9.827695000000043,-0.0005192489595892252,0.002010636245056886,0.0001198017719973475,-0.007047435454981883,1.9762422599576462e-05
0.11,0.00016921731799993638,-0.7852711760000037,3.422559680017292e-05,-2.3556235399999967,8.963564600010106e-05,1.5709856599999998,0.7860028399999999,0.04,0.04,-9.827578000000045,-0.0005714205093483609,0.0018550478600588669,0.00012705660599725513,-0.007163218315646914,2.0920837799561713e-05
0.1125,0.00016938547249993426,-0.785261060000004,3.376857425017873e-05,-2.355631849999997,8.936853500010446e-05,1.57098575,0.7860031249999999,0.04,0.04,-9.827461000000046,-0.0006235920591074967,0.0016994594750608478,0.00013431143999716278,-0.007279001176311944,2.2079252999546965e-05
0.115,0.0001695536269999321,-0.7852509440000041,3.3311551700184553e-05,-2.355640159999997,8.910142400010786e-05,1.5709858399999999,0.78600341,0.04,0.04,-9.827344000000046,-0.0006757636088666325,0.0015438710900628288,0.0001415662739970704,-0.007394784036976976,2.3237668199532213e-05
0.11750000000000001,0.00016974698699989848,-0.7852411525000038,3.278443065027797e-05,-2.355648189999997,8.879290500016301e-05,1.57098594,0.7860036949999999,0.04,0.04,-9.827261350000006,-0.000730047922091308,0.0013955518900557258,0.00014961894249598102,-0.007510575302828236,2.450303909938381e-05
0.12,0.00016999075799989534,-0.7852320100000039,3.211711260028647e-05,-2.355655659999997,8.840157000016799e-05,1.5709860599999999,0.7860039799999999,0.04,0.04,-9.827247400000006,-0.0007885577622549027,0.00126177106005743,0.00015926727999585814,-0.007626383379051986,2.5982321399364967e-05
0.1225,0.00017023452899989224,-0.785222867500004,3.1449794550294966e-05,-2.355663129999997,8.801023500017297e-05,1.5709861799999998,0.7860042649999999,0.04,0.04,-9.827233450000007,-0.0008470676024184979,0.0011279902300591334,0.0001689156174957353,-0.007742191455275736,2.7461603699346132e-05
0.125,0.00017047829999988914,-0.7852137250000041,3.0782476500303466e-05,-2.3556705999999967,8.761890000017797e-05,1.5709863,0.7860045499999999,0.04,0.04,-9.827219500000007,-0.0009055774425820928,0.0009942094000608365,0.00017856395499561245,-0.007857999531499486,2.8940885999327298e-05
0.1275,0.00017072207099988603,-0.7852045825000042,3.011515845031196e-05,-2.3556780699999966,8.722756500018295e-05,1.5709864199999999,0.7860048349999998,0.04,0.04,-9.827205550000006,-0.000964087282745688,0.0008604285700625398,0.0001882122924954896,-0.007973807607723237,3.0420168299308463e-05
0.13,0.00017096584199988293,-0.7851954400000044,2.9447840400320455e-05,-2.3556855399999965,8.683623000018793e-05,1.5709865399999998,0.7860051199999999,0.04,0.04,-9.827191600000006,-0.0010225971229092829,0.0007266477400642431,0.00019786062999536675,-0.008089615683946987,3.1899450599289625e-05
0.1325,0.00017120961299987983,-0.7851862975000045,2.878052235032895e-05,-2.3556930099999964,8.644489500019291e-05,1.57098666,0.7860054049999999,0.04,0.04,-9.827177650000007,-0.001081106963072878,0.0005928669100659465,0.0002075089674952439,-0.008205423760170739,3.337873289927079e-05
0.135,0.00017151592299982928,-0.7851778150000042,2.793859670046989e-05,-2.3556997899999965,8.595047400027608e-05,1.5709867999999998,0.7860057799999998,0.04,0.04,-9.827135900000028,-0.001139885676063559,0.0004692856930599132,0.0002191134619936373,-0.008321298938185938,3.509132809907499e-05
0.1375,0.00017185350249982498,-0.7851696625000042,2.700936725048172e-05,-2.3557062249999965,8.540451000028304e-05,1.57098695,0.7860061999999998,0.04,0.04,-9.827080250000028,-0.001198798825468084,0.00035080428256142166,0.0002316960349934771,-0.008437207667096937,3.69205797490517e-05
0.14,0.0001721910819998207,-0.7851615100000043,2.608013780049355e-05,-2.3557126599999965,8.485854600028999e-05,1.5709871,0.7860066199999998,0.04,0.04,-9.82702460000003,-0.001257711974872609,0.0002323228720629302,0.0002442786079933169,-0.008553116396007936,3.874983139902841e-05
0.14250000000000002,0.0001725286614998164,-0.7851533575000045,2.5150908350505383e-05,-2.3557190949999964,8.431258200029693e-05,1.57098725,0.7860070399999998,0.04,0.04,-9.826968950000031,-0.0013166251242771338,0.00011384146156443868,0.0002568611809931567,-0.008669025124918935,4.0579083049005124e-05
0.145,0.0001728662409998121,-0.7851452050000045,2.4221678900517222e-05,-2.3557255299999964,8.37666180003039e-05,1.5709874,0.7860074599999998,0.04,0.04,-9.826913300000031,-0.001375538273681658,-4.639948934051529e-06,0.00026944375399299636,-0.008784933853829934,4.240833469898181e-05
0.1475,0.0001732038204998078,-0.7851370525000047,2.3292449450529054e-05,-2.3557319649999964,8.322065400031084e-05,1.57098755,0.7860078799999998,0.04,0.04,-9.826857650000033,-0.0014344514230861828,-0.000123121359432543,0.00028202632699283613,-0.008900842582740933,4.4237586348958526e-05
0.15,0.0001735413999998035,-0.7851289000000048,2.2363220000540886e-05,-2.3557383999999963,8.267469000031779e-05,1.5709877,0.7860082999999998,0.04,0.04,-9.826802000000033,-0.0014933645724907077,-0.00024160276993103456,0.00029460889999267595,-0.009016751311651932,4.6066837998935234e-05
0.1525,0.00017399225049973184,-0.7851216925000043,2.1116678300741457e-05,-2.3557438299999967,8.19415050004361e-05,1.57098794,0.7860088699999996,0.04,0.04,-9.826818499999991,-0.0015655347145664324,-0.00036332895942759597,0.00030975162499099297,-0.00913317524821089,4.82732490486876e-05
0.155,0.0001744431009997261,-0.7851144850000044,1.9870136600757328e-05,-2.3557492599999965,8.120832000044544e-05,1.5709881799999998,0.7860094399999996,0.04,0.04,-9.82683499999999,-0.0016377048566498735,-0.0004850551489260461,0.00032489434999080017,-0.009249599184770148,5.047966009865951e-05
0.1575,0.00017489395149972037,-0.7851072775000045,1.86235949007732e-05,-2.355754689999997,8.047513500045478e-05,1.57098842,0.7860100099999996,0.04,0.04,-9.82685149999999,-0.0017098749987333147,-0.0006067813384244964,0.0003400370749906074,-0.009366023121329404,5.268607114863142e-05
0.16,0.00017534480199971463,-0.7851000700000046,1.737705320078907e-05,-2.3557601199999967,7.974195000046411e-05,1.5709886599999998,0.7860105799999997,0.04,0.04,-9.82686799999999,-0.0017820451408167557,-0.0007285075279229464,0.0003551797999904146,-0.009482447057888662,5.489248219860333e-05
0.1625,0.00017579565249970888,-0.7850928625000047,1.613051150080494e-05,-2.3557655499999965,7.900876500047345e-05,1.5709889,0.7860111499999997,0.04,0.04,-9.82688449999999,-0.001854215282900197,-0.0008502337174213966,0.0003703225249902218,-0.00959887099444792,5.709889324857523e-05
0.165,0.00017624650299970313,-0.7850856550000048,1.4883969800820812e-05,-2.3557709799999964,7.827558000048279e-05,1.5709891399999998,0.7860117199999996,0.04,0.04,-9.826900999999989,-0.0019263854249836382,-0.0009719599069198468,0.000385465249990029,-0.009715294931007177,5.9305304298547144e-05
0.1675,0.00017674198549960752,-0.7850787575000042,1.351208735608907e-05,-2.355776129999997,7.746775700064241e-05,1.5709895299999994,0.7860123869999994,0.0399999995,0.0399999995,-9.826909250000005,-0.001998248835977747,-0.0010863714649330257,0.0004015259599879877,-0.009832017542715519,6.166048374821949e-05
0.17,0.00017732673199960007,-0.7850724800000043,1.188952342110973e-05,-2.355780719999997,7.65106580006546e-05,1.5709902199999994,0.7860132479999994,0.039999998,0.039999998,-9.826901000000007,-0.00206949878479135,-0.0011861537599317552,0.00041942263998775986,-0.00994933750472382,6.431319999818572e-05
0.17250000000000001,0.00017791147849959262,-0.7850662025000045,1.0266959486130387e-05,-2.355785309999997,7.555355900066679e-05,1.5709909099999995,0.7860141089999994,0.0399999965,0.0399999965,-9.826892750000006,-0.0021407487336049524,-0.001285936054930485,0.00043731931998753195,-0.010066657466732121,6.696591624815194e-05
0.17500000000000002,0.00017849622499958517,-0.7850599250000045,8.644395551151045e-06,-2.355789899999997,7.459646000067896e-05,1.5709915999999995,0.7860149699999993,0.039999995,0.039999995,-9.826884500000006,-0.0022119986824185554,-0.0013857183499292145,0.0004552159999873041,-0.010183977428740424,6.961863249811817e-05
0.1775,0.00017908097149957772,-0.7850536475000046,7.021831616171721e-06,-2.3557944899999965,7.363936100069116e-05,1.5709922899999995,0.7860158309999994,0.039999993500000004,0.039999993500000004,-9.826876250000007,-0.0022832486312321576,-0.001485500644927943,0.000473112679987076,-0.010301297390748722,7.227134874808435e-05
0.18,0.00017966571799957028,-0.7850473700000047,5.399267681192379e-06,-2.3557990799999966,7.268226200070335e-05,1.5709929799999995,0.7860166919999994,0.039999992,0.039999992,-9.826868000000006,-0.0023544985800457606,-0.0015852829399266724,0.0004910093599868482,-0.010418617352757025,7.492406499805058e-05
0.1825,0.00018025046449956283,-0.7850410925000048,3.7767037462130385e-06,-2.3558036699999962,7.172516300071553e-05,1.5709936699999993,0.7860175529999993,0.0399999905,0.0399999905,-9.826859750000006,-0.002425748528859363,-0.0016850652349254022,0.0005089060399866203,-0.010535937314765325,7.75767812480168e-05
0.185,0.00018093886899943717,-0.7850354360000041,1.8623370915665008e-06,-2.3558078199999968,7.059584240092413e-05,1.5709943799999995,0.7860184119999993,0.03999999,0.03999999,-9.826880799999973,-0.0024992768186507777,-0.001780243999929382,0.0005284308549845355,-0.010654208995311531,8.046318399771651e-05
0.1875,0.00018167910249942775,-0.7850300900000041,-1.9793092340726772e-07,-2.355811749999997,6.938041100093961e-05,1.5709950999999993,0.7860192699999993,0.03999999,0.03999999,-9.826916499999973,-0.002573944278934952,-0.0018731209999281995,0.0005487697374842766,-0.0107729565351283,8.346642999767828e-05
0.19,0.00018241933599941833,-0.7850247440000042,-2.2581989383810365e-06,-2.355815679999997,6.816497960095509e-05,1.5709958199999994,0.7860201279999993,0.03999999,0.03999999,-9.826952199999972,-0.0026486117392191264,-0.001965997999927017,0.0005691086199840176,-0.010891704074945068,8.646967599764004e-05
0.1925,0.0001831595694994089,-0.7850193980000043,-4.3184669533548044e-06,-2.3558196099999966,6.694954820097057e-05,1.5709965399999994,0.7860209859999993,0.03999999,0.03999999,-9.826987899999972,-0.0027232791995033005,-0.0020588749999258344,0.0005894475024837587,-0.011010451614761836,8.94729219976018e-05
0.195,0.00018389980299939946,-0.7850140520000044,-6.378734968328574e-06,-2.3558235399999967,6.573411680098604e-05,1.5709972599999995,0.7860218439999993,0.03999999,0.03999999,-9.82702359999997,-0.002797946659787475,-0.002151751999924652,0.0006097863849834997,-0.011129199154578604,9.247616799756356e-05
0.1975,0.00018464003649939004,-0.7850087060000045,-8.439002983302343e-06,-2.355827469999997,6.451868540100152e-05,1.5709979799999996,0.7860227019999992,0.03999999,0.03999999,-9.82705929999997,-0.002872614120071649,-0.0022446289999234694,0.0006301252674832408,-0.011247946694395373,9.547941399752533e-05
0.2,0.00018538026999938062,-0.7850033600000045,-1.0499270998276112e-05,-2.355831399999997,6.330325400101698e-05,1.5709986999999994,0.7860235599999993,0.03999999,0.03999999,-9.82709499999997,-0.0029472815803558237,-0.002337505999922287,0.0006504641499829818,-0.011366694234212141,9.848265999748709e-05
0.2025,0.00018629850549921998,-0.7849989410000038,-1.3061443797823529e-05,-2.3558342649999977,6.1791704451284e-05,1.570999929999999,0.786024705999999,0.0399999891,0.0399999885,-9.827137149999963,-0.003014533850307207,-0.002392090144953633,0.0006747381624793801,-0.01149037200947023,0.00010209021999693551
0.20500000000000002,0.00018721674099920831,-0.7849945220000039,-1.5623616597790908e-05,-2.3558371299999976,6.028015490130325e-05,1.571001159999999,0.786025851999999,0.0399999882,0.039999987,-9.827179299999964,-0.0030817861202523857,-0.0024466742899529378,0.000699012174979071,-0.011614049784732447,0.00010569777999688959
0.20750000000000002,0.00018813497649919662,-0.7849901030000039,-1.8185789397758284e-05,-2.3558399949999975,5.87686053513225e-05,1.571002389999999,0.786026997999999,0.039999987300000005,0.0399999855,-9.827221449999962,-0.003149038390197564,-0.0025012584349522428,0.000723286187478762,-0.011737727559994662,0.00010930533999684365
0.21,0.00018905321199918492,-0.7849856840000039,-2.0747962197725636e-05,-2.3558428599999974,5.7257055801341755e-05,1.5710036199999988,0.786028143999999,0.0399999864,0.039999984,-9.827263599999963,-0.0032162906601427422,-0.0025558425799515473,0.0007475601999784526,-0.011861405335256876,0.00011291289999679769
0.2125,0.00018997144749917323,-0.784981265000004,-2.3310134997693016e-05,-2.3558457249999973,5.5745506251361e-05,1.571004849999999,0.786029289999999,0.0399999855,0.039999982499999996,-9.827305749999962,-0.0032835429300879207,-0.0026104267249508527,0.0007718342124781436,-0.011985083110519091,0.00011652045999675175
0.215,0.00019088968299916154,-0.7849768460000041,-2.587230779766039e-05,-2.3558485899999972,5.423395670138025e-05,1.571006079999999,0.786030435999999,0.0399999846,0.039999981,-9.82734789999996,-0.0033507952000330996,-0.0026650108699501577,0.0007961082249778346,-0.012108760885781306,0.00012012801999670581
0.2175,0.00019187499749895334,-0.7849727475000032,-2.8623915197073128e-05,-2.355851094999998,5.2610632001726756e-05,1.5710073299999987,0.7860316749999987,0.03999998365,0.039999979649999996,-9.827402849999924,-0.0034255022415052667,-0.0027250000749338057,0.000821353294974581,-0.012233090679975052,0.0001238452374963195
0.22,0.00019299446999890854,-0.7849692900000034,-3.175439179694785e-05,-2.3558528799999983,5.076375700180066e-05,1.5710086199999986,0.7860330999999986,0.039999982600000004,0.0399999786,-9.82748339999992,-0.0035151188260932457,-0.0027957993999309723,0.0008485404799734931,-0.01235872451203727,0.00012778176999616198
0.2225,0.00019411394249886375,-0.7849658325000035,-3.4884868396822584e-05,-2.355854664999998,4.891688200187457e-05,1.5710099099999986,0.7860345249999986,0.03999998155,0.03999997755,-9.827563949999918,-0.0036047354106812242,-0.0028665987249281394,0.0008757276649724051,-0.012484358344099488,0.00013171830249600444
0.225,0.00019523341499881895,-0.7849623750000037,-3.8015344996697315e-05,-2.355856449999998,4.707000700194847e-05,1.5710111999999985,0.7860359499999985,0.039999980500000004,0.0399999765,-9.827644499999915,-0.0036943519952692032,-0.002937398049925306,0.0009029148499713172,-0.012609992176161705,0.0001356548349958469
0.2275,0.00019635288749877413,-0.7849589175000038,-4.114582159657204e-05,-2.355858234999998,4.5223132002022374e-05,1.5710124899999984,0.7860373749999985,0.03999997945,0.03999997545,-9.827725049999913,-0.003783968579857182,-0.003008197374922473,0.0009301020349702293,-0.012735626008223923,0.00013959136749568937
0.23,0.00019747235999872934,-0.7849554600000039,-4.4276298196446764e-05,-2.355860019999998,4.337625700209628e-05,1.5710137799999984,0.7860387999999984,0.039999978400000004,0.0399999744,-9.827805599999909,-0.0038735851644451607,-0.0030789966999196397,0.0009572892199691413,-0.012861259840286141,0.00014352789999553186
0.2325,0.00019859183249868454,-0.7849520025000041,-4.74067747963215e-05,-2.3558618049999978,4.1529382002170186e-05,1.5710150699999983,0.7860402249999984,0.03999997735,0.03999997335,-9.827886149999905,-0.00396320174903314,-0.0031497960249168063,0.0009844764049680534,-0.012986893672348357,0.00014746443249537432
0.23500000000000001,0.00019986137499841515,-0.784949165000003,-5.096165129555975e-05,-2.3558628699999993,3.943218870261948e-05,1.5710166799999978,0.786041846999998,0.039999976300000004,0.039999971700000005,-9.827955399999926,-0.004046458890567123,-0.0031916678799676942,0.0010137404299642827,-0.013115674722785992,0.00015180092299465285
0.23750000000000002,0.0002012059524984347,-0.7849466375000029,-5.472872774561457e-05,-2.355863574999999,3.720983625258714e-05,1.5710184499999977,0.786043567499998,0.03999997525,0.03999996975,-9.828018999999927,-0.004126536310557103,-0.003219075999968093,0.0010440428749647235,-0.013246029382419748,0.00015633739249471887
0.24,0.00020255052999845427,-0.7849441100000029,-5.8495804195669355e-05,-2.355864279999999,3.4987483802554824e-05,1.5710202199999979,0.7860452879999981,0.0399999742,0.0399999678,-9.828082599999927,-0.004206613730547083,-0.0032464841199684917,0.0010743453199651642,-0.013376384042053505,0.00016087386199478484
0.2425,0.00020389510749847383,-0.7849415825000029,-6.226288064572417e-05,-2.3558649849999993,3.276513135252248e-05,1.571021989999998,0.7860470084999981,0.03999997315,0.039999965850000006,-9.828146199999928,-0.0042866911505370624,-0.0032738922399688903,0.0011046477649656052,-0.013506738701687261,0.0001654103314948509
0.245,0.00020523968499849338,-0.7849390550000028,-6.602995709577899e-05,-2.3558656899999995,3.054277890249014e-05,1.5710237599999979,0.7860487289999981,0.0399999721,0.039999963900000005,-9.828209799999929,-0.004366768570527043,-0.0033013003599692893,0.0011349502099660463,-0.013637093361321018,0.0001699468009949169
0.2475,0.00020658426249851297,-0.7849365275000028,-6.979703354583382e-05,-2.355866394999999,2.83204264524578e-05,1.571025529999998,0.7860504494999981,0.039999971050000006,0.03999996195,-9.82827339999993,-0.004446845990517024,-0.003328708479969688,0.0011652526549664872,-0.013767448020954776,0.00017448327049498293
0.25,0.00020792883999853253,-0.7849340000000028,-7.356410999588863e-05,-2.3558670999999993,2.609807400242546e-05,1.571027299999998,0.7860521699999982,0.03999997,0.03999996,-9.82833699999993,-0.004526923410507004,-0.0033561165999700868,0.0011955550999669282,-0.013897802680588532,0.00017901973999504895
0.2525,0.0002095229514982399,-0.7849324700000017,-7.803767849506062e-05,-2.3558667850000004,2.3458972652913897e-05,1.571029159999998,0.7860541844999979,0.0399999694,0.039999959700000004,-9.82837209999996,-0.004597709001895054,-0.003368442054986391,0.0012292136149628368,-0.01403196384184148,0.00018391179949459857
0.255,0.0002111170629982196,-0.7849309400000017,-8.251124699500366e-05,-2.3558664700000005,2.08198713029475e-05,1.571031019999998,0.7860561989999978,0.0399999688,0.0399999594,-9.82840719999996,-0.0046684945932729625,-0.003380767509986234,0.0012628721299624082,-0.014166125003098582,0.00018880385899453628
0.2575,0.00021271117449819931,-0.7849294100000017,-8.69848154949467e-05,-2.3558661550000006,1.81807699529811e-05,1.571032879999998,0.7860582134999977,0.0399999682,0.0399999591,-9.82844229999996,-0.004739280184650871,-0.0033930929649860775,0.0012965306449619798,-0.014300286164355684,0.000193695918494474
0.26,0.000214305285998179,-0.7849278800000017,-9.145838399488975e-05,-2.3558658400000003,1.55416686030147e-05,1.5710347399999978,0.7860602279999978,0.0399999676,0.0399999588,-9.82847739999996,-0.00481006577602878,-0.0034054184199859205,0.0013301891599615512,-0.014434447325612785,0.0001985879779944117
0.2625,0.0002158993974981587,-0.7849263500000018,-9.593195249483279e-05,-2.3558655250000005,1.2902567253048303e-05,1.5710365999999978,0.7860622424999977,0.039999967,0.0399999585,-9.82851249999996,-0.004880851367406689,-0.0034177438749857635,0.0013638476749611226,-0.014568608486869887,0.0002034800374943494
0.265,0.00021749350899813842,-0.7849248200000017,-0.00010040552099477583,-2.3558652100000006,1.0263465903081905e-05,1.5710384599999978,0.7860642569999977,0.039999966399999996,0.039999958200000005,-9.82854759999996,-0.0049516369587845974,-0.0034300693299856065,0.001397506189960694,-0.014702769648126989,0.0002083720969942871
0.2675,0.00021917909749779414,-0.7849236100000007,-0.00010513832399380078,-2.3558645500000015,7.471493753656906e-06,1.5710405049999971,0.7860664064999972,0.039999966,0.039999958,-9.828618099999833,-0.005030750343462968,-0.0034372446350036893,0.001432346764956079,-0.014839038671759756,0.00021342936749363972
0.27,0.00022104763999777034,-0.7849230400000007,-0.00011038959599373391,-2.3558632000000017,4.3737800036963466e-06,1.5710429199999971,0.7860688259999972,0.039999966,0.039999958,-9.828759399999832,-0.005126519314830423,-0.003434119640003729,0.0014695514599556054,-0.014979523420166167,0.00021881705999357112
0.2725,0.00022291618249774657,-0.7849224700000006,-0.00011564086799366707,-2.355861850000002,1.2760662537357877e-06,1.571045334999997,0.7860712454999971,0.039999966,0.039999958,-9.82890069999983,-0.005222288286197879,-0.003430994645003769,0.0015067561549551318,-0.015120008168572579,0.00022420475249350252
0.275,0.00022478472499772278,-0.7849219000000006,-0.0001208921399936002,-2.3558605000000017,-1.821647496224772e-06,1.571047749999997,0.7860736649999971,0.039999966,0.039999958,-9.829041999999829,-0.005318057257565335,-0.0034278696500038086,0.0015439608499546581,-0.01526049291697899,0.00022959244499343393
0.2775,0.00022665326749769899,-0.7849213300000006,-0.00012614341199353334,-2.355859150000002,-4.919361246185331e-06,1.571050164999997,0.7860760844999971,0.039999966,0.039999958,-9.829183299999826,-0.00541382622893279,-0.0034247446550038484,0.0015811655449541845,-0.015400977665385401,0.00023498013749336533
0.28,0.0002285218099976752,-0.7849207600000007,-0.00013139468399346648,-2.3558578000000017,-8.017074996145891e-06,1.5710525799999968,0.786078503999997,0.039999966,0.039999958,-9.829324599999824,-0.005509595200300246,-0.0034216196600038882,0.0016183702399537108,-0.015541462413791814,0.00024036782999329673
0.28250000000000003,0.00023039035249765142,-0.7849201900000007,-0.0001366459559933996,-2.355856450000002,-1.1114788746106449e-05,1.5710549949999968,0.786080923499997,0.039999966,0.039999958,-9.829465899999823,-0.0056053641716677025,-0.003418494665003928,0.0016555749349532372,-0.015681947162198225,0.00024575552249322816
0.28500000000000003,0.00023245866799724717,-0.7849203099999994,-0.00014246389099225356,-2.3558543700000034,-1.4546578295430778e-05,1.5710575899999966,0.7860836269999965,0.039999966399999996,0.039999958,-9.829584899999864,-0.00569233177219277,-0.003404447670024768,0.0016948852399487533,-0.015825814008527915,0.00025156580399235477
0.28750000000000003,0.00023462686999721954,-0.7849207749999993,-0.00014856515749217587,-2.355851925000003,-1.8145405745384956e-05,1.5710602749999965,0.7860864724999964,0.039999967,0.039999958,-9.829692749999863,-0.005774898687271668,-0.0033849396750250164,0.0017352483499482394,-0.015971371903828843,0.0002575873799922781
0.29,0.00023679507199719188,-0.7849212399999994,-0.00015466642399209808,-2.3558494800000034,-2.1744233195339057e-05,1.5710629599999963,0.7860893179999964,0.0399999676,0.039999958,-9.82980059999986,-0.005857465602350565,-0.0033654316800252656,0.0017756114599477245,-0.016116929799129764,0.0002636089559922013
0.2925,0.00023896327399716428,-0.7849217049999994,-0.0001607676904920204,-2.3558470350000036,-2.5343060645293235e-05,1.5710656449999965,0.7860921634999963,0.0399999682,0.039999958,-9.82990844999986,-0.005940032517429464,-0.003345923685025514,0.0018159745699472107,-0.016262487694430693,0.00026963053199212465
0.295,0.00024113147599713668,-0.7849221699999993,-0.0001668689569919427,-2.3558445900000033,-2.8941888095247414e-05,1.5710683299999963,0.7860950089999963,0.0399999688,0.039999958,-9.830016299999858,-0.0060225994325083625,-0.0033264156900257623,0.0018563376799466968,-0.016408045589731617,0.00027565210799204796
0.2975,0.00024329967799710907,-0.7849226349999994,-0.000172970223491865,-2.3558421450000036,-3.254071554520159e-05,1.5710710149999962,0.7860978544999963,0.0399999694,0.039999958,-9.830124149999858,-0.0061051663475872615,-0.0033069076950260107,0.001896700789946183,-0.016553603485032545,0.0002816736839919713
0.3,0.00024546787999708147,-0.7849230999999993,-0.00017907148999178732,-2.3558397000000033,-3.613954299515577e-05,1.5710736999999964,0.7861006999999962,0.03999997,0.039999958,-9.830231999999855,-0.0061877332626661605,-0.003287399700026259,0.001937063899945669,-0.01669916138033347,0.00028769525999189463
0.3025,0.00024796129099661195,-0.784924584999998,-0.0001860958954904553,-2.355836145000005,-4.028271114437031e-05,1.5710766999999959,0.7861039339999956,0.03999997,0.039999958,-9.830352449999836,-0.006271621095833909,-0.0032360439150697817,0.001980769204940614,-0.016851461678536402,0.000294102425991294
0.305,0.0002504547019965802,-0.7849260699999979,-0.00019312030099036587,-2.355832590000005,-4.4425879294317556e-05,1.5710796999999959,0.7861071679999956,0.03999997,0.039999958,-9.830472899999835,-0.006355508929003436,-0.0031846881300704355,0.0020244745099400573,-0.017003761976748407,0.00030050959199121247
0.3075,0.0002529481129965485,-0.7849275549999979,-0.00020014470649027644,-2.355829035000005,-4.856904744426481e-05,1.5710826999999958,0.7861104019999955,0.03999997,0.039999958,-9.830593349999834,-0.006439396762172963,-0.0031333323450710897,0.0020681798149395007,-0.017156062274960415,0.00030691675799113087
0.31,0.0002554415239965167,-0.784929039999998,-0.000207169111990187,-2.355825480000005,-5.271221559421206e-05,1.5710856999999958,0.7861136359999955,0.03999997,0.039999958,-9.830713799999831,-0.00652328459534249,-0.0030819765600717435,0.002111885119938944,-0.01730836257317242,0.0003133239239910493
0.3125,0.000257934934996485,-0.7849305249999979,-0.00021419351749009757,-2.355821925000005,-5.68553837441593e-05,1.5710886999999958,0.7861168699999954,0.03999997,0.039999958,-9.83083424999983,-0.006607172428512017,-0.0030306207750723973,0.002155590424938388,-0.017460662871384425,0.0003197310899909677
0.315,0.00026042834599645327,-0.7849320099999979,-0.00022121792299000813,-2.355818370000005,-6.099855189410656e-05,1.5710916999999958,0.7861201039999953,0.03999997,0.039999958,-9.830954699999829,-0.006691060261681544,-0.002979264990073051,0.0021992957299378315,-0.017612963169596433,0.00032613825599088616
0.3175,0.0002630387489959178,-0.7849338449999963,-0.0002285746484884879,-2.355814410000007,-6.533761579321037e-05,1.5710948899999948,0.7861234919999947,0.03999997015,0.0399999581,-9.831064199999874,-0.006769031472409205,-0.002917719990117575,0.0022442163499320424,-0.01776773259020763,0.0003327193934900555
0.32,0.00026588313599588156,-0.7849363799999963,-0.00023659601398838575,-2.355809640000007,-7.006847119315014e-05,1.5710984599999949,0.7861271879999946,0.039999970600000004,0.0399999584,-9.831151799999873,-0.006835169438176938,-0.002835796560118618,0.0022915675999314396,-0.01792744025564902,0.0003396484739899673
0.3225,0.0002687275229958453,-0.7849389149999962,-0.0002446173794882836,-2.3558048700000067,-7.47993265930899e-05,1.5711020299999947,0.7861308839999945,0.03999997105,0.039999958700000005,-9.831239399999872,-0.006901307403944671,-0.002753873130119661,0.002338918849930837,-0.018087147921090407,0.0003465775544898791
0.325,0.00027157190999580914,-0.7849414499999963,-0.0002526387449881815,-2.355800100000007,-7.953018199302967e-05,1.5711055999999948,0.7861345799999945,0.0399999715,0.039999959,-9.83132699999987,-0.006967445369712404,-0.0026719497001207043,0.0023862700999302336,-0.01824685558653179,0.00035350663498979085
0.3275,0.0002744162969957729,-0.7849439849999962,-0.00026066011048807937,-2.355795330000007,-8.426103739296944e-05,1.5711091699999946,0.7861382759999945,0.039999971950000004,0.0399999593,-9.831414599999869,-0.007033583335480137,-0.002590026270121747,0.002433621349929631,-0.01840656325197318,0.00036043571548970263
0.33,0.0002772606839957367,-0.7849465199999962,-0.0002686814759879772,-2.355790560000007,-8.89918927929092e-05,1.5711127399999947,0.7861419719999945,0.0399999724,0.0399999596,-9.831502199999868,-0.007099721301247869,-0.0025081028401227902,0.002480972599929028,-0.018566270917414564,0.0003673647959896144
0.3325,0.0002801050709957005,-0.7849490549999961,-0.00027670284148787513,-2.355785790000007,-9.372274819284898e-05,1.5711163099999945,0.7861456679999944,0.03999997285,0.0399999599,-9.831589799999868,-0.0071658592670156025,-0.0024261794101238334,0.0025283238499284252,-0.018725978582855952,0.0003742938764895262
0.335,0.00028320071499508977,-0.7849523399999944,-0.00028543833698614016,-2.355780140000009,-9.887452299182632e-05,1.5711202699999935,0.7861496899999936,0.039999973,0.0399999598,-9.831735299999734,-0.007254913495700308,-0.0023446987301238642,0.002578030069922438,-0.018889877199873527,0.0003816596849884394
0.3375,0.00028642198749504876,-0.7849559999999943,-0.0002945308974860244,-2.3557740500000093,-0.00010423675749175805,1.5711244249999936,0.7861538749999936,0.039999973,0.0399999595,-9.831909749999731,-0.007355425855921659,-0.0022634394251248987,0.00262891377492179,-0.019055871292693486,0.0003892438574883428
0.34,0.00028964325999500775,-0.7849596599999943,-0.00030362345798590863,-2.3557679600000094,-0.00010959899199168978,1.5711285799999934,0.7861580599999934,0.039999973,0.039999959200000004,-9.832084199999729,-0.0074559382161430085,-0.002182180120125933,0.002679797479921142,-0.01922186538551345,0.00039682802998824626
0.3425,0.00029286453249496673,-0.7849633199999942,-0.00031271601848579286,-2.3557618700000096,-0.0001149612264916215,1.5711327349999935,0.7861622449999934,0.039999973,0.0399999589,-9.832258649999728,-0.007556450576364359,-0.0021009208151269677,0.0027306811849204943,-0.019387859478333408,0.0004044122024881497
0.34500000000000003,0.0002960858049949257,-0.7849669799999942,-0.0003218085789856771,-2.3557557800000093,-0.00012032346099155323,1.5711368899999933,0.7861664299999934,0.039999973,0.0399999586,-9.832433099999726,-0.00765696293658571,-0.002019661510128002,0.0027815648899198464,-0.01955385357115337,0.00041199637498805317
0.34750000000000003,0.0002993070774948847,-0.7849706399999942,-0.0003309011394855613,-2.3557496900000094,-0.00012568569549148496,1.5711410449999934,0.7861706149999933,0.039999973,0.0399999583,-9.832607549999723,-0.00775747529680706,-0.0019384022051290371,0.0028324485949191985,-0.019719847663973333,0.00041958054748795657
0.35000000000000003,0.0003025283499948437,-0.7849742999999941,-0.00033999369998544555,-2.3557436000000096,-0.0001310479299914167,1.5711451999999932,0.7861747999999933,0.039999973,0.039999958,-9.832781999999721,-0.00785798765702841,-0.0018571429001300716,0.0028833322999185502,-0.019885841756793293,0.00042716471998786
0.3525,0.00030615252249415256,-0.7849790804999923,-0.0003502320354834809,-2.3557362350000117,-0.00013708552749025862,1.5711499099999924,0.7861795174999924,0.0399999736,0.0399999583,-9.8329061999998,-0.007940224604548385,-0.0017353012901965856,0.002937796234912125,-0.020058139878978396,0.0004351513724871139
0.355,0.0003097766949941064,-0.7849838609999922,-0.0003604703709833506,-2.3557288700000116,-0.00014312312499018174,1.5711546199999924,0.7861842349999923,0.039999974199999996,0.0399999586,-9.833030399999798,-0.008022461552039107,-0.0016134596801981368,0.0029922601699114313,-0.020230438001173592,0.0004431380249870122
0.3575,0.0003134008674940603,-0.7849886414999921,-0.0003707087064832202,-2.355721505000012,-0.00014916072249010487,1.5711593299999922,0.7861889524999922,0.0399999748,0.0399999589,-9.833154599999796,-0.008104698499529831,-0.0014916180701996882,0.003046724104910738,-0.02040273612336879,0.00045112467748691055
0.36,0.00031702503999401414,-0.7849934219999921,-0.0003809470419830899,-2.355714140000012,-0.00015519831999002802,1.5711640399999922,0.7861936699999922,0.0399999754,0.039999959200000004,-9.833278799999794,-0.008186935447020554,-0.0013697764602012396,0.003101188039910045,-0.020575034245563985,0.0004591113299868089
0.3625,0.000320649212493968,-0.784998202499992,-0.00039118537748295955,-2.3557067750000122,-0.00016123591748995114,1.5711687499999922,0.7861983874999922,0.039999976,0.0399999595,-9.833402999999793,-0.008269172394511276,-0.0012479348502027908,0.0031556519749093514,-0.02074733236775918,0.0004670979824867072
0.365,0.00032427338499392186,-0.7850029829999919,-0.00040142371298282917,-2.355699410000012,-0.00016727351498987427,1.571173459999992,0.7862031049999921,0.0399999766,0.0399999598,-9.833527199999791,-0.008351409342001999,-0.001126093240204342,0.003210115909908658,-0.020919630489954377,0.00047508463498660547
0.3675,0.00032804054499315085,-0.7850081514999899,-0.00041206886398063646,-2.3556916050000143,-0.00017355087048858195,1.571178364999991,0.7862080124999911,0.03999997715,0.0399999603,-9.833657749999759,-0.008433458395164245,-0.0009950720692524294,0.0032657487349020387,-0.021094342879647513,0.00048325125398559143
0.37,0.00033209367999309926,-0.7850140959999898,-0.00042352764598049055,-2.3556829200000147,-0.00018030774198849592,1.571183659999991,0.786213299999991,0.0399999776,0.039999961199999996,-9.833800999999756,-0.008515131659666685,-0.0008456917762543313,0.0033237193399013004,-0.02127388380437316,0.0004917778059854829
0.3725,0.00033614681499304766,-0.7850200404999897,-0.0004349864279803447,-2.3556742350000146,-0.0001870646134884099,1.571188954999991,0.786218587499991,0.039999978049999996,0.0399999621,-9.833944249999755,-0.008596804924169124,-0.0006963114832562332,0.0033816899449005625,-0.0214534247290988,0.0005003043579853743
0.375,0.000340199949992996,-0.7850259849999897,-0.00044644520998019877,-2.355665550000015,-0.00019382148498832386,1.571194249999991,0.7862238749999909,0.0399999785,0.039999963,-9.834087499999752,-0.008678478188671564,-0.000546931190258135,0.0034396605498998242,-0.021632965653824447,0.0005088309099852658
0.3775,0.0003442530849929444,-0.7850319294999897,-0.0004579039919800529,-2.355656865000015,-0.00020057835648823783,1.5711995449999907,0.7862291624999909,0.039999978949999994,0.0399999639,-9.834230749999751,-0.008760151453174006,-0.000397550897260037,0.0034976311548990864,-0.02181250657855009,0.0005173574619851572
0.38,0.0003483062199928928,-0.7850378739999896,-0.000469362773979907,-2.3556481800000153,-0.0002073352279881518,1.5712048399999907,0.7862344499999907,0.039999979399999996,0.039999964799999996,-9.834373999999748,-0.008841824717676446,-0.0002481706042619389,0.0035556017598983485,-0.021992047503275734,0.0005258840139850487
0.3825,0.0003523593549928412,-0.7850438184999895,-0.00048082155597976113,-2.3556394950000152,-0.00021409209948806577,1.5712101349999907,0.7862397374999907,0.03999997985,0.039999965699999994,-9.834517249999747,-0.008923497982178886,-9.879031126384073e-05,0.00361357236489761,-0.022171588428001376,0.0005344105659849402
0.385,0.00035671582999198016,-0.7850505749999873,-0.0004931437779773112,-2.355629850000018,-0.00022135776098662207,1.5712158099999896,0.7862454129999896,0.0399999797,0.0399999652,-9.834627399999833,-0.008987606875499975,7.656495766494422e-05,0.0036738798098906364,-0.022356158308352,0.0005433840849836389
0.3875,0.00036122397499192274,-0.7850577374999872,-0.0005058977199771488,-2.355619725000018,-0.0002288778174865263,1.5712216749999894,0.7862512824999895,0.03999997925,0.039999964,-9.834720999999831,-0.00904293358316042,0.0002649077146625462,0.0037353556748898537,-0.02254324266653515,0.0005525810874835217
0.39,0.00036573211999186536,-0.7850648999999871,-0.0005186516619769863,-2.3556096000000184,-0.00023639787398643057,1.5712275399999893,0.7862571519999895,0.0399999788,0.039999962800000004,-9.83481459999983,-0.009098260290820866,0.0004532504716601482,0.003796831539889071,-0.0227303270247183,0.0005617780899834046
0.3925,0.000370240264991808,-0.785072062499987,-0.0005314056039768239,-2.355599475000018,-0.0002439179304863348,1.5712334049999894,0.7862630214999894,0.03999997835,0.0399999616,-9.834908199999829,-0.009153586998481313,0.0006415932286577502,0.0038583074048882883,-0.022917411382901445,0.0005709750924832876
0.395,0.00037474840999175056,-0.785079224999987,-0.0005441595459766616,-2.3555893500000185,-0.0002514379869862391,1.5712392699999893,0.7862688909999893,0.0399999779,0.039999960400000006,-9.835001799999828,-0.009208913706141759,0.0008299359856553521,0.003919783269887506,-0.023104495741084596,0.0005801720949831704
0.3975,0.0003792565549916932,-0.7850863874999868,-0.0005569134879764992,-2.3555792250000187,-0.00025895804348614334,1.5712451349999892,0.7862747604999892,0.03999997745,0.039999959200000004,-9.835095399999828,-0.009264240413802204,0.001018278742652954,0.003981259134886723,-0.023291580099267743,0.0005893690974830533
0.4,0.00038376469999163576,-0.7850935499999867,-0.0005696674299763368,-2.3555691000000185,-0.00026647809998604755,1.571250999999989,0.7862806299999892,0.039999977,0.039999958,-9.835188999999826,-0.00931956712146265,0.001206621499650556,0.004042734999885941,-0.023478664457450893,0.0005985660999829362
0.4025,0.0003887538889905436,-0.785101987499984,-0.0005837909754732306,-2.355557475000022,-0.0002748052509842169,1.5712574499999876,0.7862871354999877,0.039999977449999995,0.0399999583,-9.835386999999624,-0.009422273514597618,0.0014071866196198534,0.004107800124876678,-0.023673200606931077,0.000608180550981777
0.405,0.00039374307799034395,-0.7851104249999837,-0.0005979145209726654,-2.3555458500000226,-0.00028313240198388364,1.5712638999999875,0.7862936409999874,0.0399999779,0.0399999586,-9.835584999999616,-0.009524979907820494,0.0016077517396118274,0.004172865249874073,-0.023867736756425086,0.0006177950019813922
0.40750000000000003,0.0003987322669901443,-0.7851188624999833,-0.0006120380664721001,-2.355534225000023,-0.00029145955298355043,1.5712703499999872,0.7863001464999871,0.03999997835,0.0399999589,-9.835782999999608,-0.009627686301043369,0.0018083168596038015,0.00423793037487147,-0.024062272905919096,0.0006274094529810075
0.41000000000000003,0.00040372145598994465,-0.785127299999983,-0.0006261616119715349,-2.3555226000000236,-0.0002997867039832172,1.571276799999987,0.786306651999987,0.039999978799999995,0.039999959200000004,-9.8359809999996,-0.009730392694266243,0.0020088819795957757,0.004302995499868866,-0.024256809055413105,0.0006370239039806228
0.41250000000000003,0.000408710644989745,-0.7851357374999827,-0.0006402851574709698,-2.355510975000024,-0.00030811385498288397,1.5712832499999867,0.7863131574999866,0.03999997925,0.0399999595,-9.836178999999593,-0.009833099087489118,0.0022094470995877493,0.004368060624866262,-0.024451345204907115,0.0006466383549802381
0.41500000000000004,0.00041369983398954535,-0.7851441749999823,-0.0006544087029704046,-2.3554993500000245,-0.00031644100598255076,1.5712896999999864,0.7863196629999863,0.039999979699999993,0.0399999598,-9.836376999999585,-0.009935805480711993,0.0024100122195797238,0.004433125749863659,-0.024645881354401128,0.0006562528059798534
0.4175,0.0004188579894883631,-0.7851530299999795,-0.0006690135549670388,-2.355487220000028,-0.00032505172298056764,1.571296349999985,0.7863263949999848,0.03999998,0.0399999599,-9.836559149999681,-0.010029469430286582,0.002625558404480183,0.004499372989854728,-0.024843046254981082,0.0006660934349782065
0.42,0.00042435407798844307,-0.7851627199999797,-0.0006845810199672653,-2.3554740800000276,-0.0003342295719807012,1.5713033999999853,0.7863335799999849,0.03999998,0.0399999596,-9.836709599999683,-0.010105048492391897,0.002871066719483756,0.004567984459855727,-0.025045468657783156,0.0006763864199783564
0.4225,0.00042985016648852307,-0.7851724099999797,-0.0007001484849674919,-2.3554609400000275,-0.0003434074209808348,1.5713104499999853,0.7863407649999851,0.03999998,0.0399999593,-9.836860049999686,-0.010180627554497211,0.0031165750344873287,0.004636595929856725,-0.025247891060585226,0.0006866794049785062
0.425,0.000435346254988603,-0.7851820999999799,-0.0007157159499677184,-2.3554478000000274,-0.00035258526998096834,1.5713174999999855,0.7863479499999851,0.03999998,0.039999959,-9.837010499999687,-0.010256206616602526,0.003362083349490901,0.004705207399857724,-0.025450313463387296,0.0006969723899786559
0.4275,0.000440842343488683,-0.7851917899999801,-0.000731283414967945,-2.3554346600000273,-0.0003617631189811019,1.5713245499999855,0.7863551349999852,0.03999998,0.039999958700000005,-9.83716094999969,-0.010331785678707841,0.0036075916644944745,0.004773818869858722,-0.025652735866189366,0.0007072653749788057
0.43,0.000446338431988763,-0.7852014799999801,-0.0007468508799681715,-2.355421520000027,-0.0003709409679812355,1.5713315999999857,0.7863623199999853,0.03999998,0.0399999584,-9.837311399999692,-0.010407364740813156,0.003853099979498047,0.00484243033985972,-0.02585515826899144,0.0007175583599789556
0.4325,0.00045183452048884297,-0.7852111699999803,-0.0007624183449683981,-2.3554083800000267,-0.00038011881698136904,1.5713386499999857,0.7863695049999855,0.03999998,0.0399999581,-9.837461849999695,-0.010482943802918471,0.004098608294501619,0.004911041809860719,-0.02605758067179351,0.0007278513449791053
0.435,0.0004576857449877397,-0.7852217499999775,-0.0007789976699652548,-2.3553941000000305,-0.000389892855979517,1.5713462099999842,0.786377143999984,0.03999998,0.039999958,-9.83761699999968,-0.010558644961411578,0.004362244899445427,0.004981986969853351,-0.026265407166946884,0.0007384260459782086
0.4375,0.0004637145374876629,-0.7852327749999775,-0.0007960829249650373,-2.3553792500000306,-0.00039996498997938877,1.571354024999984,0.786385009999984,0.03999998,0.039999958,-9.837774499999679,-0.010634407168099139,0.004634945649441956,0.005054098974852432,-0.026475935708300532,0.0007491416049780721
0.44,0.00046974332998758614,-0.7852437999999773,-0.0008131681799648198,-2.3553644000000307,-0.0004100371239792605,1.571361839999984,0.7863928759999839,0.03999998,0.039999958,-9.837931999999675,-0.010710169374786698,0.004907646399438483,0.005126210979851514,-0.026686464249654183,0.0007598571639779357
0.4425,0.00047577212248750935,-0.7852548249999771,-0.0008302534349646023,-2.3553495500000308,-0.00042010925797913225,1.5713696549999838,0.7864007419999838,0.03999998,0.039999958,-9.838089499999674,-0.01078593158147426,0.005180347149435011,0.005198322984850596,-0.026896992791007834,0.0007705727229777992
0.445,0.0004818009149874326,-0.7852658499999771,-0.0008473386899643848,-2.355334700000031,-0.000430181391979004,1.5713774699999838,0.7864086079999837,0.03999998,0.039999958,-9.838246999999672,-0.01086169378816182,0.005453047899431539,0.005270434989849678,-0.02710752133236148,0.0007812882819776628
0.4475,0.00048782970748735587,-0.7852768749999769,-0.0008644239449641673,-2.355319850000031,-0.0004402535259788758,1.5713852849999836,0.7864164739999836,0.03999998,0.039999958,-9.838404499999669,-0.01093745599484938,0.005725748649428067,0.00534254699484876,-0.027318049873715132,0.0007920038409775264
0.45,0.000493858499987279,-0.7852878999999767,-0.0008815091999639497,-2.3553050000000315,-0.00045032565997874755,1.5713930999999837,0.7864243399999835,0.03999998,0.039999958,-9.838561999999667,-0.01101321820153694,0.005998449399424594,0.005414658999847842,-0.02752857841506878,0.00080271939997739
0.4525,0.0005004455459860173,-0.7853002899999737,-0.0009001856699603544,-2.355288500000035,-0.00046133523097662937,1.5714016499999819,0.7864329439999818,0.0399999806,0.039999958,-9.838635799999842,-0.011055979458524344,0.006319140789319251,0.005490309474839412,-0.027746181841477733,0.0008141188824758017
0.455,0.0005070325919859334,-0.7853126799999736,-0.0009188621399601166,-2.3552720000000353,-0.00047234480197648915,1.5714101999999819,0.7864415479999817,0.0399999812,0.039999958,-9.838709599999842,-0.011098740715442115,0.006639832179315167,0.005565959949838449,-0.027963785267901612,0.0008255183649756566
0.4575,0.0005136196379858496,-0.7853250699999734,-0.0009375386099598789,-2.3552555000000357,-0.000483354372976349,1.5714187499999817,0.7864501519999815,0.0399999818,0.039999958,-9.838783399999842,-0.011141501972359885,0.006960523569311084,0.005641610424837486,-0.02818138869432549,0.0008369178474755114
0.46,0.0005202066839857658,-0.7853374599999732,-0.000956215079959641,-2.3552390000000356,-0.0004943639439762088,1.5714272999999817,0.7864587559999814,0.0399999824,0.039999958,-9.838857199999842,-0.011184263229277656,0.007281214959307001,0.005717260899836523,-0.02839899212074937,0.0008483173299753663
0.4625,0.0005267937299856818,-0.785349849999973,-0.0009748915499594032,-2.355222500000036,-0.0005053735149760687,1.5714358499999814,0.7864673599999813,0.039999983,0.039999958,-9.83893099999984,-0.011227024486195426,0.007601906349302918,0.00579291137483556,-0.02861659554717325,0.0008597168124752212
0.465,0.000533380775985598,-0.7853622399999729,-0.0009935680199591654,-2.3552060000000363,-0.0005163830859759284,1.5714443999999814,0.7864759639999811,0.039999983600000004,0.039999958,-9.83900479999984,-0.011269785743113197,0.007922597739298834,0.005868561849834597,-0.02883419897359713,0.000871116294975076
0.4675,0.0005401623929842305,-0.7853751099999695,-0.0010127991649552682,-2.35518892500004,-0.0005277194419736323,1.5714531949999797,0.7864848249999793,0.039999984,0.039999958,-9.83912674999952,-0.011331239156207592,0.008248012999263586,0.00594537552482596,-0.02905441177959335,0.0008826599524739796
0.47000000000000003,0.0005473331519841391,-0.7853889399999694,-0.0010331396599550092,-2.3551707000000404,-0.0005397093679734797,1.5714624799999795,0.7864941999999793,0.039999984,0.039999958,-9.839344999999518,-0.011430076882024482,0.008582875999259323,0.006024515599824952,-0.029279843344785794,0.000894491959973829
0.47250000000000003,0.0005545039109840479,-0.7854027699999692,-0.0010534801549547503,-2.3551524750000405,-0.000551699293973327,1.5714717649999794,0.7865035749999791,0.039999984,0.039999958,-9.839563249999514,-0.011528914607841374,0.008917738999255059,0.0061036556748239445,-0.029505274909978237,0.0009063239674736783
0.47500000000000003,0.0005616746699839565,-0.785416599999969,-0.0010738206499544913,-2.3551342500000407,-0.0005636892199731744,1.5714810499999792,0.786512949999979,0.039999984,0.039999958,-9.839781499999512,-0.011627752333658266,0.009252601999250796,0.006182795749822937,-0.029730706475170683,0.0009181559749735277
0.47750000000000004,0.0005688454289838653,-0.7854304299999688,-0.0010941611449542324,-2.355116025000041,-0.0005756791459730217,1.5714903349999791,0.7865223249999789,0.039999984,0.039999958,-9.83999974999951,-0.011726590059475158,0.009587464999246533,0.006261935824821929,-0.029956138040363126,0.0009299879824733771
0.48,0.0005760161879837738,-0.7854442599999687,-0.001114501639953973,-2.355097800000041,-0.0005876690719728688,1.5714996199999791,0.7865316999999789,0.039999984,0.039999958,-9.840217999999506,-0.011825427785292046,0.009922327999242262,0.006341075899820919,-0.030181569605555566,0.0009418199899732262
0.4825,0.0005831869469836824,-0.7854580899999685,-0.001134842134953714,-2.3550795750000417,-0.0005996589979727162,1.5715089049999789,0.7865410749999787,0.039999984,0.039999958,-9.840436249999504,-0.011924265511108938,0.010257190999237997,0.006420215974819911,-0.030407001170748012,0.0009536519974730755
0.485,0.0005907636399821978,-0.785472865999965,-0.001156340139949482,-2.3550602200000457,-0.0006123307559702232,1.571518759999977,0.7865509799999767,0.0399999844,0.039999958,-9.840609399999655,-0.012001561280187641,0.010626924199114044,0.006501623119811123,-0.03063768092489492,0.0009659354999713752
0.4875,0.0005985432999820987,-0.7854881149999648,-0.0011784168999492007,-2.355040300000046,-0.0006253434299700575,1.5715288999999766,0.7865611499999766,0.039999985,0.039999958,-9.840759999999655,-0.01206808607078675,0.011014092499109115,0.006584163799810072,-0.03087098477354599,0.000978444749971216
0.49,0.0006063229599819997,-0.7855033639999647,-0.0012004936599489197,-2.355020380000046,-0.0006383561039698918,1.5715390399999765,0.7865713199999764,0.0399999856,0.039999958,-9.840910599999653,-0.012134610861385857,0.011401260799104185,0.0066667044798090205,-0.03110428862219705,0.0009909539999710566
0.4925,0.0006141026199819006,-0.7855186129999645,-0.0012225704199486387,-2.3550004600000465,-0.0006513687779697261,1.5715491799999763,0.7865814899999763,0.0399999862,0.039999958,-9.84106119999965,-0.012201135651984966,0.011788429099099256,0.00674924515980797,-0.031337592470848115,0.0010034632499708973
0.495,0.0006218822799818017,-0.7855338619999643,-0.0012446471799483574,-2.3549805400000468,-0.0006643814519695604,1.5715593199999762,0.7865916599999762,0.0399999868,0.039999958,-9.841211799999648,-0.012267660442584075,0.012175597399094327,0.006831785839806919,-0.031570896319499185,0.0010159724999707382
0.4975,0.0006296619399817026,-0.785549110999964,-0.0012667239399480764,-2.354960620000047,-0.0006773941259693949,1.571569459999976,0.7866018299999761,0.0399999874,0.039999958,-9.841362399999646,-0.012334185233183182,0.012562765699089398,0.006914326519805869,-0.03180420016815025,0.0010284817499705788
0.5,0.0006374415999816036,-0.7855643599999639,-0.0012888006999477954,-2.3549407000000473,-0.0006904067999692292,1.571579599999976,0.7866119999999759,0.039999988,0.039999958,-9.841512999999646,-0.012400710023782291,0.012949933999084468,0.006996867199804817,-0.03203750401680131,0.0010409909999704195
0.5025000000000001,0.0006458550459799979,-0.7855811149999601,-0.001312685214943217,-2.354918845000052,-0.0007044842024665325,1.571590519999974,0.7866230024999739,0.039999988,0.039999958,-9.841616349999756,-0.01243312004945917,0.0133821717489724,0.007082870974795535,-0.0322791017586209,0.0010539600299691674
0.505,0.0006542684919798906,-0.78559786999996,-0.0013365697299429122,-2.3548969900000523,-0.0007185616049663529,1.5716014399999738,0.7866340049999737,0.039999988,0.039999958,-9.841719699999754,-0.012465530075055376,0.013814409498966887,0.007168874749794438,-0.03252069950046009,0.001066929059969002
0.5075000000000001,0.0006626819379797836,-0.7856146249999597,-0.0013604542449426088,-2.3548751350000527,-0.000732639007466174,1.5716123599999738,0.7866450074999736,0.039999988,0.039999958,-9.841823049999752,-0.012497940100651583,0.014246647248961393,0.007254878524793345,-0.03276229724229929,0.0010798980899688372
0.51,0.0006710953839796763,-0.7856313799999595,-0.0013843387599423041,-2.354853280000053,-0.0007467164099659944,1.5716232799999736,0.7866560099999734,0.039999988,0.039999958,-9.841926399999751,-0.01253035012624779,0.01467888499895588,0.007340882299792248,-0.03300389498413848,0.001092867119968672
0.5125,0.000679508829979569,-0.7856481349999593,-0.0014082232749419996,-2.3548314250000533,-0.000760793812465815,1.5716341999999734,0.7866670124999733,0.039999988,0.039999958,-9.84202974999975,-0.012562760151843997,0.015111122748950366,0.007426886074791151,-0.03324549272597766,0.0011058361499685066
0.515,0.000687922275979462,-0.7856648899999591,-0.001432107789941696,-2.3548095700000538,-0.000774871214965636,1.5716451199999735,0.7866780149999731,0.039999988,0.039999958,-9.842133099999748,-0.012595170177440206,0.015543360498944872,0.007512889849790058,-0.033487090467816866,0.0011188051799683417
0.5175,0.000696555212977739,-0.7856821669999551,-0.0014566184199367822,-2.3547871050000584,-0.0007893174124627416,1.571656344999971,0.7866893074999708,0.0399999881,0.039999958,-9.842271099999492,-0.012648103898160512,0.015982197048890784,0.007600023314780644,-0.0337311312550158,0.0011319973349665337
0.52,0.0007056271319776237,-0.7857004879999548,-0.0014823812799364547,-2.3547634200000584,-0.0008045011999625486,1.5716681799999708,0.7867011799999707,0.0399999884,0.039999958,-9.84247839999949,-0.012742085009581492,0.016434231198885037,0.007689416159779508,-0.03398005813298809,0.0011456357399663604
0.5225,0.000714699050977508,-0.7857188089999546,-0.0015081441399361262,-2.354739735000059,-0.0008196849874623549,1.5716800149999708,0.7867130524999705,0.039999988699999996,0.039999958,-9.842685699999485,-0.012836066121002469,0.016886265348879274,0.007778809004778368,-0.034228985010960375,0.0011592741449661863
0.525,0.0007237709699773927,-0.7857371299999544,-0.0015339069999357987,-2.354716050000059,-0.0008348687749621619,1.5716918499999706,0.7867249249999704,0.039999989,0.039999958,-9.842892999999483,-0.012930047232423449,0.017338299498873527,0.007868201849777233,-0.03447791188893267,0.001172912549966013
0.5275,0.000732842888977277,-0.7857554509999541,-0.0015596698599354701,-2.3546923650000595,-0.0008500525624619682,1.5717036849999704,0.7867367974999703,0.0399999893,0.039999958,-9.843100299999481,-0.013024028343844425,0.017790333648867764,0.007957594694776093,-0.03472683876690496,0.001186550954965839
0.53,0.0007419148079771617,-0.7857737719999539,-0.0015854327199351427,-2.3546686800000596,-0.0008652363499617752,1.5717155199999702,0.7867486699999701,0.0399999896,0.039999958,-9.843307599999479,-0.013118009455265405,0.018242367798862017,0.008046987539774956,-0.034975765644877255,0.0012001893599656657
0.5325,0.000750986726977046,-0.7857920929999537,-0.001611195579934814,-2.35464499500006,-0.0008804201374615815,1.57172735499997,0.78676054249997,0.0399999899,0.039999958,-9.843514899999475,-0.013211990566686382,0.018694401948856253,0.008136380384773816,-0.035224692522849536,0.0012138277649654918
0.535,0.0007605138299751945,-0.7858114599999494,-0.0016382571999295327,-2.354620090000065,-0.0008963690899584699,1.5717397399999677,0.7867730059999676,0.0399999905,0.0399999592,-9.843694899999576,-0.01328456131725668,0.019183265198710026,0.008228015499764126,-0.03547900803321801,0.0012274184999655
0.5375,0.00077026852497507,-0.7858313499999492,-0.0016659681999291792,-2.3545945750000654,-0.0009127006249582616,1.5717523999999676,0.7867857649999673,0.03999999125,0.039999961,-9.843861249999575,-0.013346426887279541,0.019690542998703556,0.008320771749762944,-0.03573601785981529,0.0012409853999653271
0.54,0.000780023219974946,-0.7858512399999489,-0.001693679199928827,-2.3545690600000655,-0.0009290321599580541,1.5717650599999675,0.7867985239999672,0.039999992,0.0399999628,-9.844027599999572,-0.013408292457302405,0.02019782079869711,0.008413527999761765,-0.035993027686412576,0.0012545522999651546
0.5425,0.0007897779149748216,-0.7858711299999487,-0.0017213901999284737,-2.354543545000066,-0.0009453636949578458,1.5717777199999672,0.786811282999967,0.03999999275,0.0399999646,-9.84419394999957,-0.013470158027325265,0.02070509859869064,0.008506284249760581,-0.03625003751300985,0.0012681191999649817
0.545,0.0007995326099746976,-0.7858910199999485,-0.0017491011999281215,-2.354518030000066,-0.0009616952299576383,1.571790379999967,0.7868240419999669,0.0399999935,0.039999966399999996,-9.844360299999568,-0.013532023597348128,0.02121237639868419,0.008599040499759403,-0.03650704733960714,0.0012816860999648092
0.5475,0.0008092873049745732,-0.7859109099999482,-0.001776812199927768,-2.3544925150000666,-0.00097802676495743,1.571803039999967,0.7868368009999667,0.039999994250000004,0.0399999682,-9.844526649999565,-0.01359388916737099,0.02171965419867772,0.00869179674975822,-0.036764057166204414,0.0012952529999646363
0.55,0.0008190419999744492,-0.785930799999948,-0.001804523199927416,-2.3544670000000667,-0.0009943582999572223,1.5718156999999668,0.7868495599999665,0.039999995,0.039999969999999996,-9.844692999999564,-0.013655754737393853,0.022226931998671276,0.008784552999757042,-0.03702106699280171,0.0013088198999644638
0.5525,0.00082950349497275,-0.785952339999944,-0.0018342512199225646,-2.3544392500000724,-0.0010118774299543662,1.5718293349999644,0.7868632609999643,0.039999995,0.039999968500000004,-9.844859649999565,-0.013705474370960945,0.022776171248569343,0.008880669999749635,-0.037286581657135234,0.0013238766599607801
0.555,0.0008399649899729024,-0.7859738799999442,-0.001863979239922998,-2.354411500000072,-0.0010293965599546216,1.5718429699999645,0.7868769619999645,0.039999995,0.039999967000000004,-9.845026299999567,-0.013755194004496225,0.02332541049857735,0.008976786999751036,-0.03755209632149105,0.0013389334199609996
0.5575,0.0008504264849730544,-0.7859954199999445,-0.00189370725992343,-2.3543837500000717,-0.001046915689954876,1.5718566049999647,0.7868906629999647,0.039999995,0.039999965500000005,-9.84519294999957,-0.013804913638031501,0.02387464974858533,0.009072903999752432,-0.03781761098584685,0.0013539901799612185
0.56,0.0008608879799732069,-0.7860169599999448,-0.001923435279923863,-2.354356000000071,-0.0010644348199551315,1.5718702399999651,0.7869043639999649,0.039999995,0.039999964000000006,-9.845359599999572,-0.013854633271566781,0.024423888998593338,0.009169020999753833,-0.038083125650202665,0.001369046939961438
0.5625,0.0008713494749733589,-0.7860384999999451,-0.001953163299924295,-2.3543282500000706,-0.001081953949955386,1.5718838749999653,0.7869180649999651,0.039999995,0.03999996250000001,-9.845526249999574,-0.01390435290510206,0.024973128248601317,0.00926513799975523,-0.038348640314558466,0.0013841036999616568
0.5650000000000001,0.0008818109699735114,-0.7860600399999454,-0.0019828913199247283,-2.35430050000007,-0.0010994730799556414,1.5718975099999655,0.7869317659999654,0.039999995,0.03999996100000001,-9.845692899999577,-0.01395407253863734,0.02552236749860932,0.009361254999756631,-0.03861415497891428,0.0013991604599618763
0.5675,0.0008925159949716206,-0.786082139999941,-0.0020133143399193327,-2.3542720650000755,-0.0011174015699524633,1.5719114749999628,0.786945779999963,0.03999999525,0.0399999603,-9.845818849999887,-0.013992785569237989,0.026090885598460657,0.009458458499748013,-0.03888186365296984,0.0014142378299616643
0.5700000000000001,0.0009037080799711729,-0.7861053599999401,-0.0020451273599180605,-2.3542422600000767,-0.0011361487799517135,1.5719260999999622,0.7869604199999624,0.039999996,0.039999961199999996,-9.845863399999885,-0.014009485393719526,0.026697961398436377,0.009557834999744039,-0.03915396034647473,0.0014293564199610595
0.5725,0.0009149001649707249,-0.7861285799999392,-0.0020769403799167866,-2.354212455000078,-0.0011548959899509628,1.5719407249999617,0.7869750599999618,0.03999999675,0.039999962099999994,-9.845907949999884,-0.014026185218201063,0.027305037198412072,0.00965721149974006,-0.0394260570399796,0.0014444750099604543
0.5750000000000001,0.0009260922499702772,-0.7861517999999383,-0.0021087533999155144,-2.3541826500000793,-0.0011736431999502131,1.5719553499999612,0.7869896999999612,0.0399999975,0.039999963,-9.845952499999882,-0.0140428850426826,0.027912112998387792,0.009756587999736086,-0.039698153733484495,0.0014595935999598495
0.5775,0.0009372843349698291,-0.7861750199999373,-0.0021405664199142405,-2.3541528450000806,-0.0011923904099494624,1.5719699749999605,0.7870043399999606,0.03999999825,0.0399999639,-9.84599704999988,-0.014059584867164137,0.028519188798363484,0.009855964499732108,-0.03997025042698937,0.0014747121899592443
0.58,0.000948476419969381,-0.7861982399999364,-0.0021723794399129666,-2.3541230400000814,-0.0012111376199487119,1.57198459999996,0.78701897999996,0.039999999,0.039999964799999996,-9.846041599999879,-0.014076284691645673,0.029126264598339176,0.009955340999728128,-0.040242347120494244,0.0014898307799586388
0.5825,0.0009596685049689334,-0.7862214599999355,-0.0022041924599116944,-2.3540932350000827,-0.001229884829947962,1.5719992249999595,0.7870336199999594,0.03999999975,0.039999965699999994,-9.846086149999877,-0.014092984516127212,0.029733340398314895,0.010054717499724154,-0.040514443813999136,0.0015049493699580343
0.585,0.0009713631599665798,-0.7862458199999303,-0.002237440099904979,-2.354062060000089,-0.0012494768699440073,1.5720144899999564,0.7870489249999563,0.04,0.039999966399999996,-9.846257799999343,-0.01415610723173304,0.03035389009824509,0.010156290999712764,-0.040791638194731986,0.0015204536699560854
0.5875,0.000983309099966428,-0.7862707499999299,-0.0022714050499045473,-2.3540302000000897,-0.0012694913249437529,1.5720300749999563,0.787064562499956,0.04,0.039999967,-9.84649299999934,-0.014242441393192348,0.030981176748237117,0.01025896299971146,-0.04107138141911083,0.0015361508249558857
0.59,0.0009952550399662757,-0.7862956799999296,-0.002305369999904114,-2.35399834000009,-0.0012895057799434976,1.572045659999956,0.7870801999999558,0.04,0.0399999676,-9.846728199999337,-0.014328775554651651,0.03160846339822912,0.01036163499971015,-0.04135112464348966,0.0015518479799556857
0.5925,0.0010072009799661239,-0.7863206099999293,-0.0023393349499036824,-2.3539664800000906,-0.0013095202349432432,1.5720612449999558,0.7870958374999556,0.04,0.0399999682,-9.846963399999334,-0.01441510971611096,0.03223575004822114,0.010464306999708843,-0.04163086786786851,0.001567545134955486
0.595,0.0010191469199659715,-0.786345539999929,-0.0023732998999032493,-2.3539346200000906,-0.001329534689942988,1.5720768299999557,0.7871114749999555,0.04,0.0399999688,-9.84719859999933,-0.014501443877570262,0.032863036698213145,0.010566978999707535,-0.041910611092247335,0.0015832422899552858
0.5975,0.0010310928599658196,-0.7863704699999287,-0.0024072648499028175,-2.353902760000091,-0.0013495491449427336,1.5720924149999556,0.7871271124999553,0.04,0.0399999694,-9.847433799999328,-0.01458777803902957,0.03349032334820517,0.010669650999706229,-0.04219035431662618,0.0015989394449550864
0.6,0.0010430387999656673,-0.7863953999999284,-0.0024412297999023844,-2.3538709000000915,-0.0013695635999424784,1.5721079999999552,0.787142749999955,0.04,0.03999997,-9.847668999999323,-0.014674112200488873,0.03411760999819717,0.01077232299970492,-0.04247009754100502,0.0016146365999548861
0.6025,0.0010557614849632732,-0.786422074499923,-0.002477412379895551,-2.3538368200000983,-0.0013908837749384546,1.5721246199999521,0.7871594164999519,0.04,0.039999968500000004,-9.84782814999954,-0.014714681310462068,0.034805806548013365,0.010878195849694374,-0.04275790527379869,0.0016315650299511323
0.605,0.001068484169963111,-0.7864487489999227,-0.0025135949598950893,-2.353802740000099,-0.0014122039499381827,1.572141239999952,0.7871760829999517,0.04,0.039999967000000004,-9.847987299999538,-0.01475525042030373,0.03549400309800459,0.010984068699693025,-0.04304571300661553,0.0016484934599509163
0.6075,0.0010812068549629493,-0.7864754234999223,-0.0025497775398946295,-2.353768660000099,-0.0014335241249379116,1.5721578599999515,0.7871927494999514,0.04,0.039999965500000005,-9.848146449999536,-0.014795819530145395,0.03618219964799584,0.011089941549691678,-0.04333352073943238,0.0016654218899507013
0.61,0.001093929539962787,-0.786502097999922,-0.002585960119894168,-2.3537345800000997,-0.0014548442999376397,1.5721744799999513,0.7872094159999512,0.04,0.039999964000000006,-9.848305599999534,-0.014836388639987057,0.036870396197987064,0.011195814399690328,-0.04362132847224922,0.0016823503199504854
0.6125,0.0011066522249626252,-0.7865287724999216,-0.002622142699893708,-2.3537005000001003,-0.0014761644749373688,1.572191099999951,0.7872260824999511,0.04,0.03999996250000001,-9.848464749999533,-0.014876957749828723,0.03755859274797832,0.011301687249688983,-0.04390913620506607,0.00169927874995027
0.615,0.001119374909962463,-0.7865554469999213,-0.002658325279893247,-2.3536664200001005,-0.0014974846499370969,1.572207719999951,0.7872427489999508,0.04,0.03999996100000001,-9.84862389999953,-0.014917526859670386,0.03824678929796954,0.011407560099687632,-0.044196943937882906,0.0017162071799500544
0.6175,0.0011323640649599325,-0.7865827284999156,-0.002695268669886024,-2.353631575000108,-0.0015192529049328427,1.5722246899999475,0.7872597619999475,0.04,0.0399999599,-9.848777499999578,-0.014958701189481779,0.038951056647817936,0.011514481149676969,-0.044487185589094626,0.0017332332349489713
0.62,0.00114588615995976,-0.7866112239999152,-0.002733733679885533,-2.3535952000001084,-0.0015419173199325536,1.5722423599999473,0.7872774679999472,0.04,0.0399999596,-9.848919999999575,-0.015001085959248749,0.039687465597808544,0.011623498599675578,-0.04478229507716087,0.0017504545399487518
0.6225,0.0011594082549595882,-0.7866397194999148,-0.0027721986898850445,-2.3535588250001087,-0.0015645817349322657,1.5722600299999472,0.7872951739999471,0.04,0.039999959300000006,-9.849062499999574,-0.015043470729015719,0.04042387454779918,0.011732516049674194,-0.04507740456522713,0.0017676758449485328
0.625,0.0011729303499594156,-0.7866682149999145,-0.0028106636998845537,-2.353522450000109,-0.0015872461499319766,1.572277699999947,0.7873128799999468,0.04,0.039999959,-9.849204999999571,-0.01508585549878269,0.04116028349778979,0.011841533499672803,-0.04537251405329338,0.001784897149948313
0.6275000000000001,0.0011864524449592439,-0.7866967104999141,-0.002849128709884065,-2.35348607500011,-0.0016099105649316884,1.5722953699999467,0.7873305859999467,0.04,0.039999958700000005,-9.84934749999957,-0.015128240268549661,0.04189669244778043,0.011950550949671417,-0.045667623541359635,0.0018021184549480943
0.63,0.0011999745399590713,-0.7867252059999138,-0.0028875937198835746,-2.3534497000001102,-0.0016325749799313994,1.5723130399999465,0.7873482919999464,0.04,0.0399999584,-9.849489999999568,-0.01517062503831663,0.04263310139777104,0.012059568399670026,-0.045962733029425884,0.0018193397599478745
0.6325000000000001,0.0012134966349588994,-0.7867537014999134,-0.0029260587298830854,-2.3534133250001106,-0.0016552393949311114,1.5723307099999464,0.7873659979999462,0.04,0.0399999581,-9.849632499999567,-0.015213009808083601,0.04336951034776168,0.01216858584966864,-0.04625784251749214,0.0018365610649476558
0.635,0.0012275664899559582,-0.7867834349999068,-0.0029660878598746915,-2.353375430000119,-0.001678824669926169,1.5723490999999425,0.7873844199999424,0.04,0.039999957200000005,-9.849713849999844,-0.015222433861366626,0.04415004099753568,0.012279745499655402,-0.046557709573771276,0.0018542360999450331
0.6375000000000001,0.0012419102249553845,-0.7868137874999056,-0.003006899049873059,-2.35333677500012,-0.0017028703749252072,1.5723678499999418,0.7874031999999416,0.04,0.039999956,-9.84976462499984,-0.015215377556181948,0.04495263249750358,0.012391976249650912,-0.046859955414189455,0.001872137999944317
0.64,0.0012562539599548102,-0.7868441399999043,-0.003047710239871425,-2.3532981200001215,-0.0017269160799242445,1.572386599999941,0.7874219799999408,0.04,0.03999995480000001,-9.849815399999839,-0.01520832125099727,0.04575522399747145,0.01250420699964642,-0.04716220125460762,0.0018900398999436004
0.6425,0.001270597694954236,-0.7868744924999032,-0.003088521429869791,-2.3532594650001233,-0.0017509617849232816,1.5724053499999402,0.78744075999994,0.04,0.039999953600000006,-9.849866174999837,-0.015201264945812594,0.046557815497439314,0.012616437749641926,-0.04746444709502578,0.0019079417999428837
0.645,0.0012849414299536622,-0.786904844999902,-0.003129332619868159,-2.3532208100001246,-0.00177500748992232,1.5724240999999395,0.7874595399999393,0.04,0.039999952400000004,-9.849916949999836,-0.015194208640627916,0.04736040699740721,0.012728668499637438,-0.04776669293544396,0.0019258436999421676
0.6475,0.001299285164953088,-0.7869351974999007,-0.003170143809866525,-2.3531821550001264,-0.0017990531949213572,1.5724428499999388,0.7874783199999386,0.04,0.0399999512,-9.849967724999834,-0.015187152335443238,0.048162998497375084,0.012840899249632944,-0.04806893877586212,0.0019437455999414509
0.65,0.0013136288999525143,-0.7869655499998995,-0.0032109549998648925,-2.3531435000001277,-0.0018230988999203956,1.5724615999999378,0.7874970999999378,0.04,0.039999950000000006,-9.85001849999983,-0.01518009603025856,0.04896558999734298,0.012953129999628454,-0.048371184616280295,0.001961647499940735
0.6525,0.001328816039949943,-0.7869978074998937,-0.003254174724857547,-2.3531023700001352,-0.00184856294491607,1.5724814449999347,0.7875169899999344,0.04,0.03999994895,-9.850250624999234,-0.015256291441368168,0.04979086179727989,0.013068439949619936,-0.04868076909231422,0.001979964674939626
0.655,0.0013440031799501642,-0.7870300649998941,-0.0032973944498581767,-2.3530612400001347,-0.0018740269899164411,1.5725012899999349,0.7875368799999347,0.04,0.039999947900000006,-9.850482749999237,-0.015332486852753388,0.05061613359729192,0.013183749899621617,-0.048990353568372454,0.0019982818499398934
0.6575,0.001359190319950385,-0.7870623224998946,-0.003340614174858805,-2.3530201100001342,-0.0018994910349168113,1.572521134999935,0.787556769999935,0.04,0.03999994685,-9.850714874999241,-0.015408682264138607,0.05144140539730391,0.013299059849623292,-0.04929993804443067,0.0020165990249401593
0.66,0.0013743774599506062,-0.7870945799998951,-0.003383833899859435,-2.3529789800001337,-0.0019249550799171824,1.5725409799999355,0.7875766599999353,0.04,0.039999945800000006,-9.850946999999245,-0.015484877675523825,0.05226667719731593,0.013414369799624973,-0.049609522520488905,0.002034916199940426
0.6625,0.001389564599950827,-0.7871268374998955,-0.0034270536248600628,-2.3529378500001332,-0.0019504191249175523,1.5725608249999357,0.7875965499999356,0.04,0.03999994475,-9.851179124999248,-0.015561073086909044,0.05309194899732793,0.013529679749626648,-0.04991910699654712,0.0020532333749406924
0.665,0.0014047517399510482,-0.787159094999896,-0.0034702733498606928,-2.3528967200001327,-0.0019758831699179234,1.572580669999936,0.7876164399999359,0.04,0.039999943700000005,-9.851411249999252,-0.015637268498294263,0.05391722079733995,0.013644989699628329,-0.05022869147260536,0.0020715505499409592
0.6675,0.0014202271199483484,-0.78719199649989,-0.0035143163798529798,-2.35285481500014,-0.0020018319349133827,1.5726008949999324,0.7876367164999323,0.04,0.039999943,-9.851608649999589,-0.01569760758420548,0.05476552974712205,0.013761308749619216,-0.0505405500521015,0.002090047209939326
0.67,0.0014362789799481444,-0.7872261859998896,-0.0035600060198523993,-2.3528113600001404,-0.0020287501399130405,1.572621879999932,0.787657765999932,0.04,0.039999943,-9.851736599999587,-0.0157262340187101,0.055659912997110685,0.013879645999617711,-0.05085695683853928,0.0021089028399390868
0.6725,0.0014523308399479395,-0.7872603754998891,-0.0036056956598518163,-2.352767905000141,-0.002055668344912697,1.572642864999932,0.7876788154999317,0.04,0.039999943,-9.851864549999584,-0.01575486045321472,0.056554296247099275,0.013997983249616201,-0.05117336362497705,0.002127758469938846
0.675,0.0014683826999477355,-0.7872945649998887,-0.003651385299851236,-2.3527244500001414,-0.0020825865499123552,1.5726638499999317,0.7876998649999315,0.04,0.039999943,-9.851992499999582,-0.015783486887719342,0.05744867949708791,0.014116320499614698,-0.05148977041141484,0.0021466140999386062
0.6775,0.0014844345599475308,-0.7873287544998883,-0.003697074939850653,-2.352680995000142,-0.0021095047549120117,1.5726848349999314,0.7877209144999312,0.04,0.039999943,-9.852120449999582,-0.015812113322223962,0.058343062747076506,0.014234657749613189,-0.051806177197852604,0.002165469729938366
0.68,0.0015004864199473268,-0.7873629439998878,-0.0037427645798500725,-2.3526375400001425,-0.0021364229599116695,1.572705819999931,0.7877419639999309,0.04,0.039999943,-9.85224839999958,-0.015840739756728586,0.05923744599706514,0.014352994999611684,-0.052122583984290385,0.002184325359938126
0.6825,0.0015165382799471221,-0.7873971334998874,-0.0037884542198494894,-2.352594085000143,-0.002163341164911326,1.5727268049999308,0.7877630134999307,0.04,0.039999943,-9.852376349999577,-0.015869366191233206,0.06013182924705373,0.014471332249610174,-0.05243899077072816,0.002203180989937886
0.685,0.001533180609943989,-0.7874326519998803,-0.0038358302898405436,-2.3525490600001513,-0.0021912523099060586,1.5727485499999267,0.7877848299999266,0.03999999900000001,0.03999994170000001,-9.852515299999522,-0.015893639810310178,0.06106110729686927,0.01459159299959913,-0.05276029594135508,0.002222573869934981
0.6875,0.001550118174943773,-0.7874688349998799,-0.0038840495748399284,-2.352503250000152,-0.0022196599249056964,1.5727706749999264,0.7878070299999264,0.0399999975,0.03999993975000001,-9.85265974999952,-0.01591573702164102,0.0620078327468572,0.014712815499597583,-0.05308405030411292,0.0022422353749347304
0.6900000000000001,0.0015670557399435577,-0.7875050179998795,-0.003932268859839315,-2.3524574400001526,-0.0022480675399053356,1.5727927999999263,0.787829229999926,0.039999996,0.03999993780000001,-9.852804199999518,-0.015937834232971865,0.06295455819684516,0.014834037999596043,-0.05340780466687077,0.0022618968799344805
0.6925,0.0015839933049433417,-0.787541200999879,-0.003980488144838701,-2.3524116300001534,-0.002276475154904973,1.572814924999926,0.7878514299999257,0.039999994500000004,0.03999993585000001,-9.852948649999517,-0.01595993144430271,0.06390128364683309,0.014955260499594497,-0.0537315590296286,0.00228155838493423
0.6950000000000001,0.0016009308699431264,-0.7875773839998785,-0.004028707429838087,-2.352365820000154,-0.002304882769904612,1.5728370499999256,0.7878736299999255,0.039999993000000005,0.039999933900000006,-9.853093099999514,-0.015982028655633553,0.06484800909682106,0.015076482999592956,-0.05405531339238646,0.00230121988993398
0.6975,0.0016178684349429104,-0.7876135669998781,-0.004076926714837473,-2.3523200100001547,-0.00233329038490425,1.5728591749999254,0.7878958299999252,0.039999991500000005,0.03999993195000001,-9.853237549999513,-0.016004125866964394,0.06579473454680898,0.01519770549959141,-0.05437906775514429,0.0023208813949337293
0.7000000000000001,0.001634805999942695,-0.7876497499998776,-0.004125145999836859,-2.352274200000155,-0.0023616979999038887,1.572881299999925,0.7879180299999249,0.039999990000000006,0.03999993000000001,-9.853381999999511,-0.01602622307829524,0.06674145999679695,0.015318927999589869,-0.054702822117902145,0.0023405428999334794
0.7025,0.0016526498349394014,-0.7876879174998704,-0.004175954059827453,-2.3522258400001643,-0.002391629509898351,1.5729046099999209,0.7879414194999206,0.0399999891,0.03999992805000001,-9.853431499999832,-0.015998232271617247,0.06776134074653643,0.015443182449578027,-0.05503394305593567,0.002360706394931524
0.705,0.001670493669939174,-0.78772608499987,-0.004226762119826805,-2.352177480000165,-0.0024215610198979696,1.5729279199999204,0.7879648089999203,0.0399999882,0.039999926100000006,-9.853480999999832,-0.015970241464769795,0.06878122149652344,0.015567436899576442,-0.05536506399399411,0.0023808698899312666
0.7075,0.001688337504938947,-0.7877642524998695,-0.00427757017982616,-2.3521291200001655,-0.002451492529897589,1.5729512299999202,0.78798819849992,0.039999987300000005,0.03999992415000001,-9.853530499999831,-0.01594225065792234,0.06980110224651047,0.015691691349574863,-0.05569618493205257,0.00240103338493101
0.71,0.0017061813399387195,-0.787802419999869,-0.004328378239825511,-2.3520807600001663,-0.0024814240398972074,1.57297453999992,0.7880115879999197,0.03999998640000001,0.03999992220000001,-9.85357999999983,-0.015914259851074888,0.07082098299649746,0.015815945799573277,-0.05602730587011102,0.0024211968799307533
0.7125,0.0017240251749384926,-0.7878405874998685,-0.004379186299824866,-2.3520324000001667,-0.0025113555498968267,1.5729978499999198,0.7880349774999194,0.0399999855,0.03999992025000001,-9.85362949999983,-0.015886269044227432,0.0718408637464845,0.015940200249571698,-0.05635842680816948,0.002441360374930497
0.715,0.0017418690099382651,-0.787878754999868,-0.004429994359824218,-2.3519840400001675,-0.0025412870598964447,1.5730211599999193,0.788058366999919,0.0399999846,0.039999918300000006,-9.853678999999829,-0.01585827823737998,0.0728607444964715,0.016064454699570116,-0.056689547746227927,0.0024615238699302396
0.7175,0.001760021604934822,-0.7879176169998603,-0.004481684459814383,-2.3519347800001773,-0.0025717379048906543,1.5730448799999148,0.7880821619999145,0.039999983450000005,0.039999916450000006,-9.853788499999203,-0.015860272757493767,0.07388636474639874,0.01618967724955845,-0.057023025489169155,0.002481857889928207
0.72,0.0017787917199345825,-0.7879578679998598,-0.004535138639813701,-2.351883720000178,-0.002603227419890253,1.5730694199999145,0.7881067679999142,0.03999998180000001,0.03999991480000001,-9.8540179999992,-0.015922237932466,0.07492346399638551,0.016316835999556828,-0.057361216841949475,0.0025025329599279436
0.7225,0.001797561834934344,-0.7879981189998593,-0.004588592819813022,-2.351832660000179,-0.0026347169348898527,1.5730939599999143,0.788131373999914,0.03999998015000001,0.03999991315000001,-9.854247499999197,-0.01598420310743823,0.07596056324637233,0.016443994749555213,-0.05769940819472981,0.0025232080299276804
0.725,0.0018163319499341045,-0.7880383699998588,-0.00464204699981234,-2.351781600000179,-0.002666206449889451,1.573118499999914,0.7881559799999136,0.039999978500000005,0.039999911500000006,-9.854476999999195,-0.016046168282410463,0.0769976624963591,0.01657115349955359,-0.05803759954751012,0.002543883099927417
0.7275,0.001835102064933866,-0.7880786209998583,-0.004695501179811662,-2.35173054000018,-0.0026976959648890506,1.5731430399999136,0.7881805859999133,0.03999997685000001,0.03999990985000001,-9.854706499999192,-0.016108133457382694,0.07803476174634592,0.016698312249551973,-0.05837579090029046,0.002564558169927154
0.73,0.0018538721799336267,-0.7881188719998578,-0.00474895535981098,-2.3516794800001803,-0.002729185479888649,1.5731675799999134,0.788205191999913,0.03999997520000001,0.03999990820000001,-9.854935999999189,-0.016170098632354926,0.07907186099633269,0.016825470999550354,-0.05871398225307077,0.0025852332399268906
0.7325,0.0018726422949333881,-0.7881591229998572,-0.0048024095398103,-2.351628420000181,-0.002760674994888249,1.573192119999913,0.7882297979999127,0.039999973550000005,0.039999906550000006,-9.855165499999186,-0.016232063807327158,0.0801089602463195,0.016952629749548736,-0.059052173605851105,0.002605908309926628
0.735,0.0018920430899297793,-0.7882007689998493,-0.004857665469799993,-2.351575680000191,-0.0027932251698821807,1.573217519999908,0.788255236999908,0.039999972700000004,0.0399999056,-9.855309899999638,-0.01625871080901995,0.08119968999601976,0.017081701399536894,-0.05939415618654792,0.002627081119923705
0.7375,0.0019117592249295288,-0.7882431124998487,-0.004913822274799279,-2.3515221000001914,-0.0028263056748817606,1.5732433499999077,0.7882810924999076,0.03999997225,0.039999905,-9.855411749999636,-0.016267698723790674,0.08231723499600556,0.01721172949953524,-0.059738034381233304,0.0026485027999234327
0.74,0.0019314753599292773,-0.7882854559998481,-0.004969979079798563,-2.3514685200001924,-0.0028593861798813388,1.5732691799999075,0.7883069479999073,0.039999971800000006,0.0399999044,-9.855513599999636,-0.0162766866385614,0.0834347799959913,0.017341757599533582,-0.06008191257591867,0.0026699244799231595
0.7425,0.0019511914949290267,-0.7883277994998477,-0.005026135884797849,-2.351414940000193,-0.0028924666848809183,1.573295009999907,0.788332803499907,0.03999997135,0.0399999038,-9.855615449999634,-0.016285674553332127,0.0845523249959771,0.01747178569953193,-0.06042579077060405,0.0026913461599228873
0.745,0.0019709076299287754,-0.7883701429998471,-0.005082292689797132,-2.3513613600001935,-0.0029255471898804964,1.5733208399999068,0.7883586589999066,0.0399999709,0.0399999032,-9.855717299999633,-0.01629466246810285,0.08566986999596285,0.01760181379953027,-0.060769668965289424,0.0027127678399226137
0.7475,0.0019906237649285246,-0.7884124864998465,-0.005138449494796419,-2.3513077800001945,-0.002958627694880076,1.5733466699999064,0.7883845144999063,0.039999970450000005,0.0399999026,-9.85581914999963,-0.016303650382873576,0.08678741499594865,0.017731841899528616,-0.06111354715997481,0.0027341895199223414
0.75,0.0020103398999282733,-0.788454829999846,-0.005194606299795702,-2.351254200000195,-0.002991708199879654,1.5733724999999061,0.788410369999906,0.03999997,0.039999902,-9.85592099999963,-0.0163126382976443,0.0879049599959344,0.01786186999952696,-0.06145742535466018,0.0027556111999220683
0.7525000000000001,0.0020310211949244993,-0.7884993154998376,-0.005253520704784922,-2.3511979200002053,-0.0030264122448733066,1.5733995749999012,0.7884374794999011,0.03999997,0.0399999017,-9.855955499999874,-0.01626676414178664,0.08909587599565234,0.017994695899515092,-0.06180825605860419,0.00277754953991991
0.755,0.002051702489924235,-0.788543800999837,-0.00531243510978417,-2.3511416400002063,-0.003061116289872864,1.5734266499999008,0.7884645889999007,0.03999997,0.039999901399999996,-9.855989999999874,-0.016220889985729396,0.09028679199563715,0.018127521799513397,-0.062159086762573486,0.00279948787991963
0.7575000000000001,0.0020723837849239723,-0.7885882864998365,-0.005371349514783422,-2.351085360000207,-0.0030958203348724228,1.5734537249999005,0.7884916984999003,0.03999997,0.0399999011,-9.856024499999874,-0.016175015829672148,0.091477707995622,0.018260347699511712,-0.06250991746654279,0.0028214262199193515
0.76,0.0020930650799237086,-0.788632771999836,-0.0054302639197826704,-2.3510290800002074,-0.00313052437987198,1.5734807999999,0.7885188079999,0.03999997,0.0399999008,-9.856058999999874,-0.016129141673614903,0.09266862399560682,0.018393173599510017,-0.06286074817051208,0.0028433645599190717
0.7625000000000001,0.0021137463749234457,-0.7886772574998353,-0.005489178324781922,-2.3509728000002084,-0.003165228424871539,1.5735078749998999,0.7885459174998997,0.03999997,0.0399999005,-9.856093499999872,-0.016083267517557658,0.09385953999559168,0.01852599949950833,-0.0632115788744814,0.002865302899918793
0.765,0.002134427669923182,-0.7887217429998348,-0.00554809272978117,-2.350916520000209,-0.0031999324698710964,1.5735349499998994,0.7885730269998993,0.03999997,0.0399999002,-9.856127999999872,-0.016037393361500413,0.09505045599557649,0.018658825399506633,-0.06356240957845068,0.002887241239918513
0.7675000000000001,0.0021554369649192514,-0.7887669549998261,-0.0056079442997699425,-2.35085931500022,-0.0032351882248644864,1.5735624449998944,0.7886005674998942,0.03999997,0.03999989975,-9.856223849999186,-0.01602314291503644,0.09625071124545694,0.01879260859949424,-0.06391537077591786,0.002909436844915358
0.77,0.0021771022599189754,-0.7888136199998255,-0.005669670199769155,-2.350800260000221,-0.0032715473998640226,1.573590779999894,0.7886289699998937,0.03999997,0.039999899,-9.856442399999183,-0.016072139888818577,0.09746964499544139,0.01892830639949251,-0.06427259296045215,0.002932146979915068
0.7725,0.002198767554918699,-0.7888602849998249,-0.005731396099768368,-2.3507412050002214,-0.003307906574863559,1.5736191149998937,0.7886573724998934,0.03999997,0.03999989825,-9.856660949999181,-0.016121136862600718,0.09868857874542585,0.01906400419949078,-0.06462981514498645,0.002954857114914778
0.775,0.0022204328499184234,-0.7889069499998242,-0.005793121999767584,-2.3506821500002224,-0.003344265749863097,1.5736474499998934,0.788685774999893,0.03999997,0.0399998975,-9.856879499999177,-0.016170133836382862,0.09990751249541034,0.019199701999489057,-0.06498703732952076,0.0029775672499144897
0.7775,0.0022420981449181475,-0.7889536149998237,-0.0058548478997667965,-2.350623095000223,-0.003380624924862633,1.5736757849998928,0.7887141774998927,0.03999997,0.03999989675,-9.857098049999175,-0.016219130810165003,0.1011264462453948,0.019335399799487327,-0.06534425951405505,0.0030002773849142
0.78,0.002263763439917872,-0.7890002799998231,-0.005916573799766012,-2.350564040000224,-0.0034169840998621707,1.5737041199998925,0.7887425799998923,0.03999997,0.039999896,-9.857316599999173,-0.016268127783947144,0.10234537999537931,0.0194710975994856,-0.06570148169858936,0.0030229875199139114
0.7825,0.0022854287349175955,-0.7890469449998225,-0.005978299699765224,-2.3505049850002244,-0.003453343274861707,1.5737324549998921,0.788770982499892,0.03999997,0.03999989525,-9.857535149999169,-0.016317124757729284,0.10356431374536376,0.01960679539948387,-0.06605870388312365,0.0030456976549136216
0.785,0.002307762189913908,-0.7890950739998144,-0.006041934839754686,-2.3504441700002343,-0.003490826259855504,1.573761709999887,0.7888002689998871,0.03999997,0.039999894200000004,-9.857677099999608,-0.016328734904554474,0.10483508599507511,0.019744267499474506,-0.06641991510849332,0.0030689337999107494
0.7875,0.0023304297249142373,-0.7891439349998152,-0.006106524599755624,-2.3503824750002336,-0.0035288711498560566,1.5737914249998874,0.7888299974998875,0.03999997,0.039999893,-9.857780749999609,-0.016321651637580877,0.10613177749509395,0.019882626749476516,-0.06678312085431484,0.0030924329499110908
0.79,0.0023530972599145675,-0.7891927959998158,-0.006171114359756566,-2.3503207800002324,-0.0035669160398566113,1.5738211399998878,0.788859725999888,0.03999997,0.039999891800000006,-9.85788439999961,-0.016314568370607276,0.10742846899511285,0.020020985999478533,-0.06714632660013636,0.0031159320999114334
0.7925,0.002375764794914897,-0.7892416569998165,-0.006235704119757504,-2.3502590850002316,-0.0036049609298571643,1.5738508549998884,0.7888894544998883,0.03999997,0.039999890600000004,-9.857988049999612,-0.016307485103633678,0.1087251604951317,0.020159345249480543,-0.06750953234595788,0.0031394312499117747
0.795,0.0023984323299152273,-0.7892905179998172,-0.006300293879758445,-2.350197390000231,-0.0036430058198577185,1.5738805699998888,0.7889191829998887,0.03999997,0.0399998894,-9.858091699999614,-0.01630040183666008,0.11002185199515059,0.02029770449948256,-0.0678727380917794,0.0031629303999121173
0.7975,0.0024210998649155566,-0.789339378999818,-0.006364883639759384,-2.35013569500023,-0.0036810507098582715,1.5739102849998892,0.7889489114998892,0.03999997,0.0399998882,-9.858195349999615,-0.016293318569686483,0.11131854349516944,0.020436063749484572,-0.06823594383760091,0.0031864295499124586
0.8,0.002443767399915887,-0.7893882399998187,-0.006429473399760325,-2.3500740000002294,-0.003719095599858826,1.5739399999998895,0.7889786399998896,0.03999997,0.039999887000000005,-9.858298999999615,-0.016286235302712886,0.11261523499518833,0.02057442299948659,-0.06859914958342245,0.0032099286999128012
0.8025,0.002467455069911153,-0.7894393449998083,-0.006496977749746807,-2.3500093200002428,-0.003758856414850867,1.5739710499998834,0.7890097079998835,0.03999997,0.03999988655,-9.858425899999524,-0.016275171190541674,0.11397133774491358,0.020715464999470988,-0.06896882057051286,0.0032339666499098395
0.805,0.002491142739910206,-0.7894904499998062,-0.006564482099744108,-2.3499446400002455,-0.0037986172298492766,1.5740020999998823,0.7890407759998822,0.03999997,0.0399998861,-9.858552799999519,-0.016264107078355693,0.11532744049485934,0.020856506999465344,-0.06933849155762727,0.0032580045999088783
0.8075,0.0025148304099092576,-0.7895415549998043,-0.006631986449741405,-2.349879960000248,-0.0038383780448476845,1.574033149999881,0.789071843999881,0.03999997,0.03999988565,-9.858679699999515,-0.01625304296616971,0.11668354324480505,0.020997548999459697,-0.06970816254474167,0.003282042549907916
0.81,0.00253851807990831,-0.7895926599998022,-0.006699490799738705,-2.3498152800002505,-0.0038781388598460942,1.5740641999998797,0.7891029119998797,0.03999997,0.0399998852,-9.85880659999951,-0.016241978853983728,0.11803964599475081,0.021138590999454056,-0.07007783353185608,0.0033060804999069542
0.8125,0.0025622057499073616,-0.7896437649998002,-0.006766995149736002,-2.349750600000253,-0.003917899674844502,1.5740952499998786,0.7891339799998784,0.03999997,0.03999988475,-9.858933499999504,-0.016230914741797744,0.11939574874469652,0.02127963299944841,-0.07044750451897047,0.0033301184499059918
0.8150000000000001,0.002585893419906414,-0.7896948699997981,-0.0068344994997333024,-2.3496859200002556,-0.003957660489842912,1.5741262999998773,0.7891650479998772,0.03999997,0.0399998843,-9.859060399999498,-0.016219850629611763,0.12075185149464228,0.02142067499944277,-0.07081717550608489,0.0033541563999050306
0.8175,0.002609926939901325,-0.789746737999787,-0.006902992104718768,-2.3496203100002693,-0.003998002984834356,1.5741577899998709,0.7891965694998705,0.03999997,0.039999884,-9.859134900000122,-0.01618811944528767,0.12213582649425428,0.02156260929942644,-0.07118860296755398,0.0033784189099013793
0.8200000000000001,0.0026346521599003364,-0.7898001319997848,-0.006973461219715949,-2.3495528400002716,-0.004039508839832696,1.5741901599998696,0.7892289979998692,0.03999997,0.039999884,-9.859104600000123,-0.016115054115947516,0.1235755459941967,0.02170632819942069,-0.07156354337779539,0.003403130539900391
0.8225,0.0026593773798993465,-0.7898535259997826,-0.007043930334713127,-2.3494853700002745,-0.004081014694831034,1.5742225299998682,0.789261426499868,0.03999997,0.039999884,-9.859074300000124,-0.016041988786607366,0.12501526549413905,0.021850047099414936,-0.07193848378803676,0.0034278421698994014
0.8250000000000001,0.0026841025998983574,-0.7899069199997805,-0.007114399449710309,-2.3494179000002773,-0.004122520549829374,1.574254899999867,0.7892938549998667,0.03999997,0.039999884,-9.859044000000125,-0.015968923457267213,0.12645498499408148,0.021993765999409186,-0.07231342419827816,0.0034525537998984133
0.8275,0.0027088278198973675,-0.7899603139997784,-0.007184868564707488,-2.34935043000028,-0.0041640264048277125,1.5742872699998656,0.7893262834998654,0.03999997,0.039999884,-9.859013700000126,-0.015895858127927064,0.12789470449402385,0.022137484899403433,-0.07268836460851953,0.003477265429897424
