rsonawane2002/My_IMU/logs_2/traj_365/clean_365.csv
time,j1,j2,j3,j4,j5,j6,j7,gripper1,gripper2,imu_ax,imu_ay,imu_az,imu_gx,imu_gy,imu_gz,quat_x,quat_y,quat_z,quat_w
1260.7333333325155,0.00016700293,-0.785875,4.0107683e-05,-2.3551247,9.29385e-05,1.570997,0.786,0.04,0.04,0.0,-0.0,0.0,2.875329272945135e-08,-0.0011641195053377316,4.421952117202833e-08,0.9999995971961153,0.00020320632366974898,0.0008736418299892524,3.263050917662294e-05
1260.7499999991821,0.00016700536,-0.78576016,4.0113093e-05,-2.3552213,9.298401e-05,1.5709941,0.786,0.04,0.04,-0.29199845941785263,-4.048087966329302e-05,0.020128407454400588,-1.2903628319099768e-07,-0.002238579097876395,7.22330907129603e-07,0.9999996850584483,0.00020320793768883753,0.0007665025166231298,3.2610279147872136e-05
1260.7666666658488,0.00016700468,-0.7856543,4.0107465e-05,-2.35531,9.309545e-05,1.5709913,0.786,0.04,0.04,0.02332872941803732,-3.282328193642795e-05,-0.0016704406198275734,-1.1232783131008265e-06,-0.0032299913302559404,5.154896162356459e-06,0.9999997558429439,0.00020321461389666143,0.0006677972347990089,3.2630145921937956e-05
1260.7833333325154,0.0001669958,-0.78555703,4.0073515e-05,-2.355391,9.338559e-05,1.5709884,0.786,0.04,0.04,0.022460757556852506,-9.081308646915185e-05,-0.0015249090902003104,-3.557666650300059e-06,-0.004146581977050448,1.6793842579507806e-05,0.9999998122325411,0.00020323500602559453,0.0005771981373562294,3.275248070636873e-05
1260.799999999182,0.0001669711,-0.78546757,3.998651e-05,-2.3554645,9.4016206e-05,1.5709856,0.786,0.04,0.04,0.021602940121967507,-0.0001737522156779268,-0.0010718172645418633,-8.629666444491171e-06,-0.004993735622472063,3.875060018604566e-05,0.9999998566165382,0.00020328168411946047,0.000494317761251334,3.3066763562218693e-05
1260.8166666658487,0.00016692074,-0.7853855,3.9814713e-05,-2.3555312,9.520437e-05,1.5709827,0.786,0.04,0.039999995,0.01951957904011703,-0.00028701242786572214,-0.0012498077930578333,-1.703373163818384e-05,-0.005777263450083748,7.457643512973874e-05,0.9999998911937275,0.00020337084407673524,0.00041847060797392207,3.3692480526909186e-05
1260.8333333325154,0.00016683318,-0.78531027,3.9520884e-05,-2.3555903,9.7173e-05,1.5709797,0.786,0.04,0.04,0.020508647385741874,-0.000396520103207172,-0.0005981851186387388,-2.977464769445905e-05,-0.006502738428869285,0.00012447030115440914,0.9999999175035857,0.0002035214294500535,0.0003498056418202606,3.475431642900011e-05
1260.849999999182,0.00016669472,-0.78524137,3.90617e-05,-2.355646,0.00010022334,1.5709765,0.7859981,0.04,0.039999995,0.012988527754931312,-0.0005541315571887544,-0.002187474859849381,-4.789966741146775e-05,-0.007173261392719665,0.00019381155763958187,0.9999999378835711,0.00020280212191503926,0.0002859684507685283,3.6417006386436655e-05
1260.8666666658487,0.00016649038,-0.7851785,3.8389506e-05,-2.355696,0.00010464584,1.5709726,0.7859962,0.04,0.04,0.01574906079728766,-0.0006979208547477358,-0.0015144553615176193,-6.316340640688778e-05,-0.007810786089624591,0.000281489826279342,0.9999999529211574,0.00020219093899262656,0.0002275251870586405,3.884322611752337e-05
1260.8833333325153,0.00016620358,-0.78512126,3.7451937e-05,-2.3557389,0.00011078696,1.5709659,0.7859943,0.04,0.04,0.017546966357517846,-0.0008758851110733743,-0.00206843463277373,-8.545525931694117e-05,-0.008411017131243747,0.00039104217494029286,0.9999999636055711,0.00020171467825287238,0.00017411815294047768,4.2224562432011406e-05
1260.899999999182,0.00016581654,-0.7850695,3.6193054e-05,-2.355775,0.00011901505,1.5709589,0.7859905,0.04,0.04,0.01729454962640098,-0.0010648696718889704,-0.0003984880547536207,-0.00011564197907281253,-0.008979861801482638,0.0005243325952266548,0.9999999708014677,0.000200448468105987,0.0001266115876146705,4.676516910396091e-05
1260.9166666658487,0.00016531024,-0.78502285,3.4553243e-05,-2.3558066,0.00012971985,1.5709484,0.78598666,0.04,0.04,0.012609287150011639,-0.0012632600041845039,-0.0033214214448795687,-0.0001461212843215995,-0.00951118813586245,0.0006832123243752542,0.9999999753507776,0.00019937665499430394,8.229337203862012e-05,5.2680115978456646e-05
1260.9333333325153,0.00016466505,-0.7849811,3.2470245e-05,-2.3558333,0.00014330253,1.5709375,0.78598094,0.04,0.04,0.013393994077048887,-0.0014673552914307207,-0.0009072297713075272,-0.00018658709060433813,-0.010028885350338634,0.0008671872814380353,0.9999999777615963,0.0001975775285650474,4.262380818033606e-05,6.019250941204707e-05
1260.949999999182,0.00016386024,-0.7849441,2.9879138e-05,-2.3558528,0.00016018366,1.5709232,0.7859743,0.039999995,0.039999995,0.0163972072332097,-0.0016811135571910617,-0.0021111363027737085,-0.00022921632737477713,-0.010524872811249862,0.0010781200957624695,0.9999999784284765,0.0001955908959569283,7.2153895972344e-06,6.953550172689574e-05
1260.9666666658486,0.0001628745,-0.78491163,2.671269e-05,-2.3558652,0.0001807955,1.5709076,0.7859667,0.03999999,0.039999995,0.01668162654651084,-0.0019005061458872007,-0.00030649836089136073,-0.00027936422801445887,-0.011000432658512955,0.0013160989907319805,0.999999977758069,0.00019339163117780247,-2.3037851768712298e-05,8.094934124011493e-05
1260.9833333325153,0.00016168568,-0.78488356,2.2901933e-05,-2.3558707,0.0002055919,1.5708886,0.78595716,0.039999988,0.03999999,0.015568550858491292,-0.0021325753403975646,-0.0018874191587636702,-0.00033747550530114094,-0.011450027422649153,0.0015835849715406683,0.9999999761441473,0.00019056799974221536,-4.9298193229366814e-05,9.46849015248206e-05
1260.999999999182,0.00016027132,-0.7848599,1.8376106e-05,-2.3558705,0.00023503142,1.5708661,0.7859457,0.039999988,0.03999999,0.01346763286851349,-0.0023657710351257426,-0.002598014891219691,-0.0004009944158295832,-0.011887121488348706,0.0018803976891127202,0.9999999737139473,0.00018715613089501432,-7.228087997556843e-05,0.00011099622358663442
1261.0166666658486,0.0001586084,-0.78484035,1.3063113e-05,-2.3558633,0.00026958156,1.5708395,0.78593236,0.039999988,0.03999999,0.015013072839109576,-0.002603774856870569,-0.002248769330948086,-0.0004701294030352257,-0.01231843042147769,0.0022070887128143755,0.999999970540137,0.00018319266891452874,-9.177725751547184e-05,0.00013014263778399305
1261.0333333325152,0.0001566736,-0.78482515,6.889778e-06,-2.3558488,0.00030971717,1.570809,0.7859166,0.039999984,0.039999988,0.01612488860596173,-0.0028455436198530732,-0.0020802483537751826,-0.0005462053194366746,-0.012742754570173329,0.0025641050691735403,0.9999999666979666,0.00017847626905304265,-0.00010736998615041677,0.00015238757513364126
1261.0499999991819,0.00015444336,-0.78481406,-2.1774787e-07,-2.3558269,0.0003559179,1.570774,0.7858983,0.03999998,0.039999988,0.01567304852760909,-0.003089834561656598,-0.002389219084975025,-0.0006278188828535381,-0.01315870689579382,0.002950943625590245,0.9999999620646074,0.00017295482384184122,-0.00011947615536878394,0.00017799680009467582
1261.0666666658485,0.00015189382,-0.7848071,-8.33421e-06,-2.355797,0.000408669,1.5707337,0.7858774,0.039999973,0.03999998,0.016257332308566852,-0.0033370103035237964,-0.002708688880992405,-0.0007155022752111365,-0.013571236802725654,0.0033695909753790067,0.9999999564226447,0.00016663601899577954,-0.00012821478540259103,0.0002072392694548256
1261.0833333325152,0.00014900103,-0.78480434,-1.7534798e-05,-2.3557591,0.00046845767,1.570688,0.78585386,0.039999966,0.039999973,0.016757125244803994,-0.0035850384120450106,-0.0027589857402698925,-0.0008092562332038322,-0.013981327134908444,0.0038193760269380475,0.9999999494715746,0.00015955737663714983,-0.00013346642460866472,0.00024038511899708302
1261.0999999991818,0.00014574091,-0.7848058,-2.7894825e-05,-2.3557124,0.00053577335,1.5706371,0.78582746,0.03999996,0.039999966,0.017945059899049376,-0.0038344947764340476,-0.0023171436845270676,-0.0009107417100138775,-0.01439089284725064,0.004301274269675116,0.9999999408515113,0.00015163706497359203,-0.00013484330384721914,0.00027770570318158127
1261.1166666658485,0.0001420893,-0.78481126,-3.948996e-05,-2.3556569,0.00061110494,1.5705799,0.78579783,0.039999954,0.03999996,0.017474611557166675,-0.004083175991986951,-0.0030514886819377196,-0.0010191660366928217,-0.014796348193104974,0.00481275858386937,0.9999999299457629,0.0001427334545476539,-0.00013294102113806282,0.0003194719318515356
1261.1333333325151,0.00013802208,-0.7848208,-5.239583e-05,-2.3555925,0.0006949443,1.5705165,0.78576475,0.039999947,0.039999954,0.01751354403920491,-0.00433414333164228,-0.002965522665232534,-0.0011342918656517993,-0.015204571955943432,0.00535639344641338,0.9999999160712314,0.00013276431522123757,-0.0001276994319751044,0.0003659563115699746
1261.1499999991818,0.00013351513,-0.7848346,-6.6687666e-05,-2.3555183,0.0007877792,1.5704465,0.78572816,0.03999994,0.039999947,0.019285508045330246,-0.0045826605582396625,-0.002943295663992984,-0.0012553554635077403,-0.0156160355336888,0.005931251789988837,0.9999998984216458,0.0001217360718376606,-0.00011870068333150767,0.00041742924489077663
1261.1666666658484,0.00012854458,-0.7848528,-8.244077e-05,-2.355434,0.0008900971,1.5703692,0.7856879,0.039999936,0.039999943,0.019936653337415677,-0.004831203385617525,-0.003301164775337817,-0.0013837979332394874,-0.01602843995143781,0.0065372123050525845,0.9999998759554393,0.00010962481579271735,-0.00010603343627553945,0.00047416074932802574
1261.183333332515,0.0001230865,-0.78487533,-9.972975e-05,-2.3553398,0.001002383,1.5702844,0.78564376,0.03999994,0.039999947,0.019015118680831833,-0.0050789037233964045,-0.003786860211607568,-0.0015194185422348658,-0.01644361522386205,0.007174116417134346,0.9999998474284106,9.631681450040284e-05,-9.011400072736974e-05,0.0005364193261631558
1261.1999999991817,0.00011711716,-0.78490204,-0.00011862889,-2.3552346,0.0011251188,1.5701916,0.78559554,0.039999943,0.03999995,0.020769472231063624,-0.005324971166449503,-0.0033357073984996433,-0.001661759909201112,-0.016866404926227773,0.007841750217855275,0.9999998114733242,8.178678661693021e-05,-7.055391321065613e-05,0.0006044719869456694
1261.2166666658484,0.0001106131,-0.7849334,-0.00013921187,-2.3551183,0.0012587821,1.5700907,0.785543,0.03999994,0.039999947,0.02159063420048568,-0.005568774141720759,-0.0037736160558354825,-0.0018112006925759666,-0.01729396476118005,0.008539867456703322,0.9999997664751727,6.594890003158416e-05,-4.7173130195809494e-05,0.0006785831109661444
1261.233333332515,0.000103551014,-0.7849691,-0.00016155187,-2.354991,0.0014038458,1.5699815,0.785486,0.03999994,0.03999995,0.020858997973682847,-0.005810175010099615,-0.003719958883530161,-0.0019675724988698464,-0.017725882731125235,0.009267322026942264,0.9999997105569481,4.871699869928706e-05,-2.0238455212055633e-05,0.000759014544608831
1261.2499999991817,9.5907744e-05,-0.7850095,-0.000185721,-2.3548512,0.0015607793,1.5698633,0.78542435,0.039999943,0.039999954,0.023461084712961267,-0.006050324300503813,-0.0038261573381603853,-0.0021307380372103477,-0.018165285235954495,0.010025520642281969,0.9999996416090552,3.0092254679274973e-05,1.0788099591730905e-05,0.0008460259063177576
1261.2666666658483,8.766052e-05,-0.7850545,-0.00021179084,-2.3546991,0.001730046,1.5697359,0.78535783,0.039999947,0.039999958,0.02321951295496394,-0.006287577176786966,-0.004036685414332553,-0.0023013686204774973,-0.01860947318419396,0.010813266383655384,0.9999995572262508,9.956238278484072e-06,4.5669962334805064e-05,0.0009398736246305668
1261.283333332515,7.878681e-05,-0.78510433,-0.00023983205,-2.3545358,0.0019121041,1.5695988,0.78528637,0.039999947,0.039999958,0.02134821448438462,-0.006522740723319698,-0.004983369660127579,-0.002478496158095312,-0.019059227704425325,0.011630178653620192,0.9999994547803177,-1.1691064746139003e-05,8.375345293918821e-05,0.0010408110997096396
1261.2999999991816,6.926445e-05,-0.785159,-0.00026991428,-2.3543582,0.0021074049,1.569452,0.7852096,0.039999954,0.039999966,0.02661822043341644,-0.006753038088165141,-0.003614032435317327,-0.0026631232356118632,-0.019524263539175947,0.012475853072793907,0.9999993311733573,-3.5001501633015805e-05,0.00012659065046795708,0.0011490876991724678
1261.3166666658483,5.907138e-05,-0.78521866,-0.00030210623,-2.3541675,0.0023163932,1.5692948,0.7851275,0.039999954,0.039999966,0.024530744326045628,-0.006981856303231362,-0.004885759830908221,-0.0028543015516124697,-0.01998876527644098,0.013349875009523603,0.9999991831448447,-5.994813669984062e-05,0.00017326011403990984,0.0012649493259529224
1261.333333332515,4.8186124e-05,-0.7852834,-0.00033647555,-2.3539631,0.002539509,1.569127,0.78503996,0.039999954,0.039999966,0.025374087526919276,-0.0072081339712361855,-0.004813435690231849,-0.0030527483091924786,-0.020463134712016044,0.01425181597479708,0.9999990070091811,-8.659526880113607e-05,0.0002239732479340096,0.0013886388643548659
1261.3499999991816,3.6587346e-05,-0.7853531,-0.00037308905,-2.3537447,0.0027771832,1.5689483,0.7849467,0.03999996,0.039999977,0.02604847896141571,-0.007429134642666351,-0.004764104576637784,-0.0032586375622714985,-0.02094749766605363,0.015180351548761954,0.9999987987119665,-0.00011503829922617892,0.00027882258280776697,0.0015203942846940854
1261.3666666658482,2.4254226e-05,-0.78542817,-0.000412012,-2.3535123,0.0030298415,1.5687582,0.7848475,0.03999997,0.039999984,0.02623269070107792,-0.00764923614040864,-0.005310148651194169,-0.0034716144568706572,-0.021439610714933208,0.016136734401545266,0.999998553860606,-0.00014534477421785494,0.0003377221101209338,0.001660450351431336
1261.383333332515,1.1166173e-05,-0.7855085,-0.00045330898,-2.3532653,0.0032979003,1.5685568,0.78474224,0.03999997,0.039999984,0.027011775066898558,-0.00786336057410293,-0.00520992270924836,-0.0036915910151594862,-0.021943188118114076,0.017119586231571306,0.9999982675814301,-0.00017758349171384999,0.0004008543683300442,0.001809036765140986
1261.3999999991815,-2.6969685e-06,-0.78559434,-0.00049704313,-2.3530028,0.0035817688,1.5683435,0.78463084,0.039999966,0.03999998,0.028723365090810304,-0.008074134251530654,-0.005180416415240252,-0.003918510407943189,-0.022456335886289376,0.018128446818241755,0.9999979344546037,-0.0002117662104756569,0.00046861073824951344,0.0019663787972116877
1261.4166666658482,-1.735492e-05,-0.7856856,-0.000543276,-2.3527246,0.0038818496,1.5681179,0.7845131,0.039999966,0.03999998,0.028881352893450618,-0.008283559565592678,-0.005512695183940153,-0.004152858520524931,-0.022975371337596265,0.01916276264584201,0.9999975488278682,-0.00024796585436489383,0.0005407870041454466,0.0021326979642813607
1261.4333333325148,-3.2827058e-05,-0.78578246,-0.00059206894,-2.35243,0.004198535,1.5678797,0.7843888,0.039999966,0.039999984,0.02985963571700001,-0.008485444398090162,-0.00552278527710115,-0.004394571061670672,-0.023504832163280275,0.020221165798257112,0.9999971043405317,-0.0002863164384450805,0.0006176563003743672,0.002308210160135409
1261.4499999991815,-4.913238e-05,-0.7858851,-0.00064348127,-2.3521197,0.0045322124,1.5676284,0.7842579,0.03999996,0.03999998,0.02947190104203301,-0.00868833987831409,-0.006206973785949366,-0.004643330432731581,-0.024041094683536896,0.02130483600288499,0.9999965945303662,-0.00032677522342669806,0.0006988957092387177,0.002493128639138981
1261.4666666658482,-6.6289496e-05,-0.78599346,-0.0006975711,-2.3517928,0.004883258,1.5673643,0.7841201,0.039999966,0.039999984,0.030339775306087446,-0.00888240951558662,-0.005730446649399035,-0.004899902352961416,-0.02458991876898132,0.02241236943220162,0.9999960119338496,-0.00036950924839731505,0.0007848984488573031,0.00268765952758897
1261.4833333325148,-8.431646e-05,-0.7861077,-0.00075439556,-2.3514493,0.005252041,1.5670869,0.7839753,0.039999966,0.039999984,0.030763460578153712,-0.009075114059566448,-0.006208817405606304,-0.005163164910069824,-0.025146061466948224,0.02354323422360459,0.9999953488991188,-0.0004145397317665856,0.0008755809706170974,0.002892005343087381
1261.4999999991815,-0.00010323112,-0.78622794,-0.00081401056,-2.3510885,0.0056389244,1.5667962,0.7838235,0.039999966,0.039999984,0.031650788989900924,-0.009264547140335009,-0.006072978234294979,-0.005433917883995904,-0.025713662576060458,0.02469681635115369,0.999994596930681,-0.0004618892390161233,0.0009712177528192783,0.003106365054541088
1261.516666665848,-0.00012305069,-0.78635424,-0.00087647,-2.35071,0.0060442574,1.5664912,0.78366435,0.039999966,0.039999988,0.032744084242830596,-0.009447859015946757,-0.006491646272333007,-0.0057126735626099115,-0.02628914657612639,0.025871744228747807,0.9999937471200324,-0.0005117037881763675,0.0010718158571682585,0.0033309294255843575
1261.5333333325148,-0.00014379228,-0.78648686,-0.00094182696,-2.3503141,0.0064683845,1.5661725,0.78349787,0.039999966,0.039999988,0.03191878557882166,-0.00962848540859906,-0.006722214601362353,-0.00599837009166263,-0.026873057306802985,0.02706914474593278,0.9999927901187357,-0.0005639787366531805,0.0011773227459903996,0.00356588694192451
1261.5499999991814,-0.00016547205,-0.78662586,-0.0010101333,-2.3498995,0.00691164,1.5658392,0.7833238,0.039999966,0.039999988,0.03460567463866582,-0.009803698974006347,-0.006607056198948413,-0.006291734803389533,-0.027466424350624873,0.028286624092958734,0.9999917152301492,-0.0006188359387463463,0.001288252987574535,0.003811419339959025
1261.566666665848,-0.0001881064,-0.7867711,-0.0010814394,-2.349467,0.0073743574,1.5654914,0.78314215,0.039999966,0.04,0.03290651356182561,-0.009981604522581265,-0.006919111509939846,-0.006592878667664078,-0.028066681190068117,0.02952386846922321,0.9999905123331572,-0.000676304313254309,0.0014041378638210088,0.004067708569340884
1261.5833333325147,-0.00021171072,-0.78692275,-0.0011557945,-2.3490155,0.007856844,1.5651288,0.7829528,0.03999997,0.04,0.03492647855849462,-0.010141385873756268,-0.0068774353546130484,-0.006901696748897728,-0.0286775794934583,0.03078175958441457,0.9999891695838382,-0.0007364201241863951,0.0015254031738434098,0.004334921635223693
1261.5999999991814,-0.00023630039,-0.787081,-0.0012332463,-2.3485456,0.008359426,1.5647507,0.7827555,0.03999997,0.04,0.03380033790036929,-0.01032102348893539,-0.00782870967992455,-0.007218500737501705,-0.02929695831050516,0.03206061088984896,0.9999876757425215,-0.0007993088885315088,0.0016515219644106629,0.004613235694344069
1261.616666665848,-0.0002618898,-0.78724587,-0.0013138405,-2.3480558,0.008882386,1.5643576,0.7825502,0.03999997,0.04,0.03643755853104391,-0.010464333196626065,-0.006825356338913124,-0.007543296684929887,-0.02992819934657787,0.03335642540565947,0.9999860165771911,-0.0008650102416655771,0.0017835171071274485,0.00490280267724204
1261.6333333325147,-0.0002884935,-0.7874174,-0.0013976229,-2.3475473,0.009426018,1.5639491,0.78233683,0.03999997,0.04,0.03471078811319028,-0.010625010174528538,-0.0077824436279350095,-0.007876104884213028,-0.030564527535325212,0.034670380225627864,0.9999841799412983,-0.0009335936644610792,0.0019206538358958545,0.005203783127844353
1261.6499999991813,-0.00031612563,-0.7875958,-0.0014846362,-2.3470185,0.009990615,1.5635247,0.78211516,0.03999997,0.04,0.03724249615100206,-0.01078219784061184,-0.007602233911985223,-0.008216975885782522,-0.031211490794124417,0.03600348106223263,0.9999821505426141,-0.0010051661666494818,0.0020635689956660453,0.00551633212797251
1261.666666665848,-0.00034479934,-0.78778106,-0.0015749238,-2.3464696,0.010576445,1.5630842,0.7818852,0.03999997,0.04,0.03678062952345851,-0.010926889954922941,-0.007956238076767264,-0.008565897679134592,-0.031865147909665714,0.03735264365164797,0.9999799140483715,-0.0010797435300696854,0.002212035243091618,0.005840595329596842
1261.6833333325146,-0.00037452782,-0.78797317,-0.0016685256,-2.3459008,0.011183776,1.5626277,0.7816469,0.039999966,0.04,0.03680105010068768,-0.011073263555474132,-0.008032335942576019,-0.008923143069504952,-0.03252716391059037,0.03871810300664738,0.999977454947842,-0.001157373929725487,0.002366064339013804,0.006176716050378832
1261.6999999991813,-0.0004053234,-0.7881723,-0.0017654815,-2.3453114,0.011812845,1.5621548,0.7813999,0.03999996,0.04,0.03775290710610335,-0.0111977755713164,-0.008189220484133841,-0.009289604783825265,-0.03319949794176167,0.04009762216054809,0.9999747563671249,-0.0012382593164640865,0.002525878143404776,0.006524820455709644
1261.716666665848,-0.0004371984,-0.78837854,-0.0018658297,-2.344701,0.012463907,1.5616654,0.7811444,0.039999958,0.04,0.038612607797738896,-0.011336881092374653,-0.008193421969893144,-0.009663670252060086,-0.03387934855307122,0.04149313627332385,0.9999718007895618,-0.0013223355012058414,0.002691697469040555,0.006885043154431248
1261.7333333325146,-0.00047016444,-0.7885919,-0.0019696075,-2.3440695,0.013137203,1.5611593,0.78088015,0.039999958,0.04,0.03899162260767586,-0.011470892241870027,-0.008481857619857536,-0.010046757700371582,-0.034565089120696765,0.04290319633207517,0.9999685702738117,-0.0014097200130702636,0.0028635064050309095,0.007257512321864973
1261.7499999991812,-0.000504233,-0.78881246,-0.0020768496,-2.3434172,0.013832963,1.5606363,0.7806071,0.039999966,0.04,0.03820550120630095,-0.011600248186723321,-0.008777064983211957,-0.01043885434122605,-0.03525923744876541,0.04432720431251197,0.999965046799836,-0.001500500065978746,0.003041080855338423,0.007642349467622959
1261.7666666658479,-0.0005394152,-0.7890404,-0.002187591,-2.3427436,0.014551446,1.5600961,0.7803251,0.039999966,0.04,0.0391883387428571,-0.011749693051152105,-0.00907625181272298,-0.010839782593283019,-0.035961633402697035,0.04576777776271477,0.9999612102341007,-0.0015947700088240853,0.003224614648196345,0.008039688808796325
1261.7833333325145,-0.0005757215,-0.7892759,-0.0023018646,-2.3420486,0.01529284,1.5595387,0.78003407,0.03999996,0.04,0.03977703674060695,-0.01185124344517171,-0.00927033268509625,-0.011249540196671778,-0.036672398015532355,0.047219518741457286,0.9999570398455626,-0.0016926256116309546,0.0034142723427378003,0.0084496287615708
1261.7999999991812,-0.0006131611,-0.7895185,-0.0024197008,-2.3413317,0.016057335,1.5589641,0.7797341,0.03999996,0.04,0.04012698851836305,-0.011953672254871352,-0.008804393891548301,-0.01166815367396459,-0.03739075210638647,0.048680519453174455,0.9999525145017893,-0.001794043810461794,0.0036101286874275665,0.008872266858876245
1261.8166666658478,-0.00065174396,-0.7897686,-0.0025411313,-2.340593,0.016845113,1.558372,0.77942485,0.03999996,0.04,0.04009324173859241,-0.012056132103398752,-0.0095262029724541,-0.01209651515018879,-0.038116106885306686,0.05015326469518011,0.999947612402032,-0.0018992148686541857,0.0038121118275937726,0.00930769776970166
1261.8333333325145,-0.00069147995,-0.79002625,-0.0026661842,-2.3398323,0.01765641,1.5577621,0.7791064,0.039999966,0.04,0.04092070121732849,-0.012200059107871086,-0.009652665410175842,-0.01253418124968374,-0.03884891711186103,0.05164129010148994,0.9999423100075885,-0.002008184669816194,0.004020387808416209,0.009756040840917279
1261.8499999991811,-0.00073237706,-0.7902914,-0.0027948874,-2.3390493,0.018491354,1.5571346,0.7787787,0.03999996,0.04,0.04092187512410028,-0.012263248233006577,-0.009647211454688609,-0.01298079050623107,-0.03958842289736804,0.05313422941170375,0.9999365838191316,-0.002120997315597167,0.004235003816217679,0.010217360382629471
1261.8666666658478,-0.0007744436,-0.79056424,-0.0029272663,-2.338244,0.019350132,1.556489,0.77844155,0.039999966,0.04,0.0413339929905332,-0.012379444740959547,-0.010095819787570015,-0.013437326755387658,-0.04033558189554645,0.05463970624778801,0.9999304093466126,-0.0022377945345780055,0.004455919302627048,0.010691750217127201
1261.8833333325144,-0.0008176882,-0.79084474,-0.003063347,-2.3374155,0.020232936,1.5558251,0.778095,0.039999958,0.04,0.04260670690539037,-0.012492540490006629,-0.010052557787787464,-0.013903522729548916,-0.041090797323758255,0.05615507324925489,0.9999237596061425,-0.002358630905903469,0.004683480913548769,0.01117930417778909
1261.899999999181,-0.0008621178,-0.7911329,-0.0032031524,-2.3365643,0.02113988,1.5551434,0.77773905,0.03999996,0.04,0.04194317229693212,-0.012553686926932914,-0.010117417568134002,-0.01437964769870554,-0.0418504238287023,0.057677291767847694,0.9999166087619209,-0.002483556089891599,0.004917648263029273,0.011680077344311715
1261.9166666658477,-0.0009077396,-0.791429,-0.0033467056,-2.3356903,0.022071125,1.5544435,0.7773738,0.03999996,0.04,0.042499826175923516,-0.01265212370708188,-0.010440966744584834,-0.014865861063171892,-0.04261525392409798,0.05920833468556016,0.9999089292641753,-0.0026125701203259352,0.0051585299536656614,0.012194147114668227
1261.9333333325144,-0.0009545604,-0.7917328,-0.0034940268,-2.3347929,0.023026817,1.5537251,0.7769987,0.03999996,0.04,0.0430958225162037,-0.012744175344510042,-0.010582567955341737,-0.015363524430379192,-0.043384778576203126,0.060746698353057876,0.9999006922540343,-0.0027460044696063766,0.005406149788520264,0.012721581419774673
1261.949999999181,-0.0010025867,-0.7920446,-0.003645136,-2.3338723,0.024007067,1.5529877,0.77661395,0.039999954,0.04,0.04279193574485696,-0.012818101012242698,-0.011413541667781857,-0.01587020193565164,-0.04416002052966621,0.06229213238975994,0.9998918707235357,-0.0028838358220782023,0.005660229898294864,0.01326243376752585
1261.9666666658477,-0.0010518238,-0.79236424,-0.0038000522,-2.3329294,0.025011992,1.5522324,0.7762195,0.039999973,0.04,0.0418676034917187,-0.012881009644285374,-0.010896845631425123,-0.01638713561696894,-0.044943985969037537,0.06384355315597937,0.9998824339947362,-0.0030261461144392605,0.005920971243796515,0.013816755334960325
1261.9833333325143,-0.0011022778,-0.7926918,-0.003958794,-2.331963,0.026041728,1.5514581,0.7758153,0.039999966,0.04,0.0432392157143191,-0.01297435577356787,-0.01149784190976888,-0.016914632647123014,-0.045733414363686324,0.06540043138256192,0.9998723514305415,-0.003173014982052931,0.006188366523788782,0.014384607761443024
1261.999999999181,-0.0011539537,-0.79302734,-0.0041213743,-2.3309736,0.027096357,1.5506654,0.7754013,0.039999973,0.04,0.04302442539159124,-0.01302534984468362,-0.01140047743608541,-0.017452809909087662,-0.0465297159590089,0.06696318511766727,0.9998615907867157,-0.003324567994408283,0.006462558700745594,0.014966023257641741
1262.0166666658477,-0.0012068558,-0.79337066,-0.0042878115,-2.3299608,0.028175993,1.5498539,0.7749775,0.039999977,0.04,0.043257507420069174,-0.013098734905029295,-0.011573318371049801,-0.018001217049037413,-0.0473324163605688,0.0685296419398698,0.9998501199949569,-0.003480849680568776,0.006743511412681019,0.015561050266572058
1262.0333333325143,-0.001260989,-0.7937222,-0.004458117,-2.3289247,0.029280715,1.5490237,0.7745439,0.039999977,0.04,0.043751087500876196,-0.013153810375252789,-0.011998711844896093,-0.018561009536862648,-0.048142078745447556,0.0700999855711696,0.9998379043199567,-0.0036419686186397976,0.007031457820136663,0.0161697170841544
1262.049999999181,-0.0013163566,-0.7940817,-0.0046323035,-2.3278642,0.030410612,1.5481745,0.77410036,0.039999977,0.04,0.04496414211883071,-0.013213780495522492,-0.011880958892707127,-0.01913171048754543,-0.04895537386871935,0.07167352610124501,0.9998249081932016,-0.0038080400090204376,0.00732657218708088,0.01679205549458706
1262.0666666658476,-0.0013729623,-0.7944492,-0.004810383,-2.32678,0.031565752,1.5473063,0.77364695,0.03999997,0.04,0.04395632266374072,-0.01326418244755323,-0.012329557433621297,-0.01971350245129657,-0.04977192942922584,0.07324964895499814,0.9998110981495727,-0.003979139974781666,0.007628641444217717,0.017428089158658948
1262.0833333325143,-0.0014308091,-0.79482484,-0.004992363,-2.3256721,0.03274619,1.5464191,0.77318364,0.039999973,0.04,0.04446379517135668,-0.013305241388968797,-0.012458792042036038,-0.0203067353141936,-0.05059401550570734,0.07482809992171237,0.9997964371741785,-0.004155354983799836,0.007937840386412879,0.018077829758500166
1262.099999999181,-0.0014899005,-0.7952085,-0.005178255,-2.3245404,0.033951975,1.5455124,0.7727103,0.03999998,0.04,0.04424078964850864,-0.013351781281314978,-0.013053716570277096,-0.020911392220090575,-0.05142091201951545,0.07640808904643294,0.9997808907209033,-0.004336834587778301,0.00825386879701066,0.01874129304389483
1262.1166666658476,-0.0015502383,-0.7956004,-0.0053680674,-2.323385,0.035183184,1.5445867,0.77222705,0.039999984,0.04,0.044226770637356694,-0.013403070368295592,-0.013098945027656406,-0.021527138272773055,-0.052255357958473796,0.07798907430237943,0.9997644194472523,-0.004523633751445408,0.008576961814843109,0.019418498165619885
1262.1333333325142,-0.0016118247,-0.7960004,-0.0055618053,-2.322206,0.03643985,1.543642,0.7717337,0.03999998,0.04,0.044213488704203385,-0.013433762281840622,-0.013047032869084596,-0.022154554685903723,-0.05309462363875086,0.07957043574693717,0.9997469840614361,-0.004715900054027327,0.008907207710310798,0.020109445480876342
1262.1499999991809,-0.0016746612,-0.79640853,-0.0057594744,-2.3210025,0.03772199,1.5426784,0.77123046,0.039999984,0.04,0.045792269828437426,-0.01344655913986699,-0.013065722993532702,-0.022793517703631617,-0.05393779508738502,0.08115250460553988,0.999728542439501,-0.004913647500578523,0.009244990224412686,0.020814121547193636
1262.1666666658475,-0.001738749,-0.79682463,-0.005961078,-2.3197753,0.03902965,1.5416957,0.77071726,0.039999988,0.04,0.04412226582415357,-0.013495372869840733,-0.013475283631736445,-0.023444446037416578,-0.05478342180323627,0.08273307323177995,0.9997090581370699,-0.005116992288055309,0.00958986179797818,0.0215325339733178
1262.1833333325142,-0.0018040898,-0.797249,-0.0061666197,-2.3185244,0.040362846,1.5406936,0.7701939,0.04,0.04,0.04473384093750532,-0.013525640077000078,-0.014139141609326167,-0.024107893113519366,-0.05563374410949351,0.08431071418761735,0.9996884891710432,-0.005326162180820661,0.00994188390285481,0.02226467066459006
1262.1999999991808,-0.0018706834,-0.7976816,-0.0063761007,-2.3172495,0.041721582,1.5396721,0.76966053,0.04,0.04,0.04470699150402879,-0.013541710737952073,-0.014321027376174023,-0.02478217407059528,-0.05649016986468028,0.08588818369401696,0.9996667946572737,-0.005541139001657219,0.010301053706495453,0.023010513483020707
1262.2166666658475,-0.0019385305,-0.7981223,-0.006589523,-2.3159502,0.043105878,1.5386314,0.7691172,0.04,0.04,0.04584393498938688,-0.013556064081553243,-0.0139916539632301,-0.0254689210247595,-0.05735106549224289,0.08746338454044114,0.9996439275838188,-0.005762057890786521,0.010667789271986087,0.023770044293364552
1262.2333333325141,-0.0020076304,-0.7985711,-0.0068068863,-2.314627,0.044515725,1.5375717,0.7685638,0.04,0.04,0.04483833065118681,-0.013571338284718015,-0.014475004658498491,-0.02616778356220565,-0.05821472581027633,0.08903543509981475,0.9996198467086138,-0.005989018216030397,0.011041882678447941,0.024543238457275192
1262.2499999991808,-0.002077983,-0.7990281,-0.007028188,-2.31328,0.04595111,1.5364927,0.76800036,0.04,0.04,0.044432702681573844,-0.013582819510282035,-0.014883122634112844,-0.02687906462509696,-0.0590817740733873,0.09060418826501976,0.9995945094792204,-0.00622215680091242,0.011423186811039519,0.025330064879935436
1262.2666666658474,-0.0021495868,-0.79949313,-0.0072534275,-2.3119092,0.04741202,1.5353945,0.7674269,0.04,0.04,0.045150604817312257,-0.013586340688531012,-0.014871027382312718,-0.027602130945225813,-0.05995304164358482,0.09216884415808471,0.999567868900373,-0.006461557154207654,0.011811911110678213,0.026130489796846134
1262.283333332514,-0.0022224418,-0.7999664,-0.0074826004,-2.3105133,0.04889841,1.5342773,0.76684344,0.04,0.04,0.047039795511194527,-0.013558451258637375,-0.01480342463830997,-0.02833785924924906,-0.06082862189093986,0.09372892440261565,0.9995398717743986,-0.006707342031045572,0.012208712793858488,0.026944454494650442
1262.2999999991807,-0.002296546,-0.8004478,-0.007715701,-2.3090942,0.050410282,1.5331407,0.76625,0.04,0.04,0.043658424412473806,-0.013611325825237455,-0.015962445871897657,-0.029085815331419098,-0.061701966456089566,0.09528468621097415,0.999510484730815,-0.006959581546337215,0.012612461548102557,0.027771945404822338
1262.3166666658474,-0.0023718977,-0.8009375,-0.007952724,-2.3076515,0.051947583,1.5319849,0.7656465,0.04,0.04,0.04468798747048197,-0.013582493529430348,-0.015817613207436132,-0.02984635212514808,-0.06258252628076966,0.09683402582178263,0.9994796550024723,-0.007218452401493006,0.013023638303923175,0.02861289965024887
1262.333333332514,-0.0024484943,-0.801435,-0.008193661,-2.3061845,0.05351027,1.5308102,0.7650331,0.04,0.04,0.045589362328035676,-0.013563735496693874,-0.015502844576475994,-0.030618970407319486,-0.06346832628381577,0.09837715347517664,0.9994473319451916,-0.0074839852926079226,0.01344251175061281,0.029467261657855588
1262.3499999991807,-0.0025263336,-0.8019408,-0.008438506,-2.3046937,0.0550983,1.5296166,0.7644098,0.04,0.04,0.04526981772645655,-0.013559566020666936,-0.01620811313363113,-0.031404465917138774,-0.06435369300275715,0.09991357889925638,0.9994134665274438,-0.0077563313050991066,0.013869086099528471,0.03033497484830941
1262.3666666658473,-0.0026054124,-0.8024546,-0.008687255,-2.3031793,0.056711607,1.528404,0.7637765,0.04,0.04,0.044577440410176195,-0.013536871075022286,-0.01636185756681563,-0.03220240284423624,-0.06524149507864672,0.10144278689035141,0.9993780126706231,-0.008035603332663111,0.014303126873831045,0.031215980382285475
1262.383333332514,-0.0026857269,-0.8029763,-0.008939894,-2.3016417,0.05835012,1.5271724,0.76313335,0.04,0.04,0.04373864693469898,-0.013521352796001113,-0.016753984004935774,-0.033012642193162446,-0.0661322255765965,0.10296423671824466,0.9993409247352019,-0.00832186016032475,0.014744397808912988,0.03211020906372575
1262.3999999991806,-0.0027672744,-0.8035062,-0.009196408,-2.3000805,0.06001378,1.5259218,0.7624803,0.04,0.04,0.04479923613036618,-0.013507150017841307,-0.01711116265379342,-0.03383565245493547,-0.06702900768189078,0.1044780993367073,0.9993021473661735,-0.00861527028400077,0.015193231782178499,0.033017587666289906
1262.4166666658473,-0.002850051,-0.804044,-0.00945679,-2.298495,0.06170251,1.5246522,0.7618174,0.04,0.04,0.04582599958262712,-0.01346258521082791,-0.01690752826444264,-0.0346712142654127,-0.06792785108042507,0.10598088890870408,0.9992616244185258,-0.008915963998023906,0.015649961068069606,0.033938035726935704
1262.433333332514,-0.0029340535,-0.80458975,-0.009721028,-2.2968864,0.06341624,1.5233641,0.7611447,0.04,0.04,0.043959114226721496,-0.013449462873842133,-0.017328653252524084,-0.03551908205212308,-0.06882745098853484,0.10747722254206553,0.9992193101686079,-0.009223988691040822,0.016114201374945524,0.034871488824633944
1262.4499999991806,-0.003019276,-0.8051434,-0.009989103,-2.2952547,0.065154836,1.5220572,0.7604623,0.04,0.04,0.04394664104943047,-0.013382143020899961,-0.01770219957459851,-0.03637980366464499,-0.06972972968807392,0.10896154145301616,0.9991751542293276,-0.009539447075831518,0.016585926244570066,0.03581783314072345
1262.4666666658472,-0.0031057138,-0.80570495,-0.0102610085,-2.2935991,0.06691825,1.5207316,0.7597701,0.04,0.04,0.04512644301515323,-0.013366355870125801,-0.01772151294330282,-0.037253080221762935,-0.07063537271012567,0.11043709168817926,0.9991290966953521,-0.00986250978613624,0.017065499764798472,0.036777000356549114
1262.483333332514,-0.0031933635,-0.80627453,-0.010536723,-2.2919207,0.06870638,1.5193875,0.75906825,0.04,0.04,0.043813067922071625,-0.013340222518717915,-0.018275215027285796,-0.03813890491117219,-0.07154077272800595,0.11190093498925058,0.9990810885057211,-0.010193236723422622,0.017552686772530284,0.03774890332697396
1262.4999999991805,-0.003282219,-0.806852,-0.010816229,-2.2902195,0.0705191,1.518025,0.75835687,0.04,0.04,0.04328239080222396,-0.013277477252922332,-0.01844009317362172,-0.03903714245443492,-0.07244769040717501,0.11335401194609221,0.9990310791010736,-0.010531693486554018,0.0180473709542133,0.0387334328983506
1262.5166666658472,-0.0033722734,-0.8074372,-0.011099513,-2.2884948,0.072356276,1.5166441,0.75763565,0.04,0.04,0.044752877575771066,-0.013201268422188828,-0.018448789278457944,-0.03994835205404382,-0.073358482389208,0.11479087823474182,0.9989790059858559,-0.010878177880229056,0.01854995063909202,0.03973046912389428
1262.5333333325138,-0.0034635223,-0.8080301,-0.011386551,-2.2867472,0.074217804,1.5152451,0.75690436,0.04,0.04,0.04368795283737903,-0.013160825362787398,-0.01872189368974375,-0.04087090630526068,-0.074269512438398,0.11621972791714424,0.9989248153239981,-0.011232929408991456,0.0190602876756801,0.040739907468343245
1262.5499999991805,-0.0035559586,-0.80863094,-0.011677329,-2.284977,0.076103576,1.5138276,0.7561642,0.04,0.04,0.04331355699065398,-0.013130263703471645,-0.019451944113257902,-0.04180349414758784,-0.07517940352493845,0.11763526924676959,0.9988684616837229,-0.01159549582407121,0.019578155512911054,0.04176166372283638
1262.5666666658472,-0.003649576,-0.80923945,-0.011971825,-2.2831843,0.07801345,1.5123919,0.7554147,0.04,0.04,0.042859801875172465,-0.013058825763976462,-0.019452799442465363,-0.042751050802604884,-0.07609261440650156,0.11903725869436908,0.9988098878067393,-0.011966210073055174,0.020103567638158695,0.042795611973593904
1262.5833333325138,-0.0037443682,-0.80985564,-0.012270017,-2.2813692,0.07994727,1.5109375,0.7546557,0.04,0.04,0.04263045809840271,-0.013003731957028641,-0.020293336494225933,-0.04371157320550513,-0.07700728960289342,0.1204239390686734,0.9987490431781042,-0.012345345731351104,0.020636207156472648,0.04384162569739158
1262.5999999991805,-0.0038403273,-0.8104794,-0.012571881,-2.2795317,0.08190489,1.5094663,0.75388724,0.04,0.04,0.04325816152483952,-0.01286286511435683,-0.018960878950324833,-0.04468316169704051,-0.07792741416727222,0.12179625469272375,0.9986858519942878,-0.012732964334121325,0.021177120139284168,0.044899557106009444
1262.616666665847,-0.003937446,-0.81111056,-0.012877399,-2.277672,0.08388623,1.5079769,0.7531093,0.04,0.04,0.04214917475242608,-0.012897457465708972,-0.02036313077218299,-0.045666531290109585,-0.07884268815855747,0.12315777414762204,0.9986202743286797,-0.013129234092520327,0.021725360871846067,0.04596933333043169
1262.6333333325138,-0.0040357173,-0.8117491,-0.013186545,-2.2757905,0.085891075,1.5064688,0.75232226,0.04,0.04,0.04158834567884462,-0.012802369791811707,-0.02110617815740401,-0.0466604557538237,-0.07976267539055162,0.12450092436505211,0.9985522647407024,-0.013534094514494903,0.0222805973505449,0.04705080072209113
1262.6499999991804,-0.004135133,-0.8123951,-0.013499297,-2.2738864,0.08791928,1.5049443,0.751526,0.04,0.04,0.043296080142285476,-0.012634403435731606,-0.01960090608021936,-0.047666785689835366,-0.08068850981930895,0.1258295751354495,0.9984817336881119,-0.013947730804177291,0.02284432707446511,0.04814379520884832
1262.666666665847,-0.0042356853,-0.8130484,-0.013815624,-2.2719605,0.08997068,1.5034021,0.7507207,0.04,0.04,0.04187451568773426,-0.012619851033567053,-0.021033692960559236,-0.048684492616473396,-0.08160705900690264,0.1271402254767522,0.998408645365798,-0.014370220351192332,0.023415568851890122,0.04924819551245246
1262.6833333325137,-0.0043373657,-0.8137093,-0.0141355,-2.2700129,0.09204511,1.5018426,0.74990654,0.04,0.04,0.04189859361458659,-0.012531759878071924,-0.021261843326958463,-0.04971414601379234,-0.08252728973133838,0.12843548279655004,0.9983329376575591,-0.01480157755169701,0.023994589624202315,0.050363861634859695
1262.6999999991804,-0.0044401637,-0.8143775,-0.014458905,-2.268044,0.09414238,1.5002662,0.7490834,0.04,0.04,0.04090053971625984,-0.012409005615510865,-0.021256252195400727,-0.05075562943013012,-0.08344593220254855,0.129712926721739,0.9982545565654144,-0.015242006505210614,0.0245812196018163,0.051490631934073626
1262.716666665847,-0.004544071,-0.81505305,-0.014785803,-2.2660542,0.096262276,1.4986724,0.74825126,0.04,0.04,0.04045790800697446,-0.012338988844292492,-0.022094274167216987,-0.051808236220200435,-0.08436491260307476,0.1309729156536631,0.9981734508589749,-0.01569166246939791,0.02517519542416573,0.05262835038823793
1262.7333333325137,-0.00464908,-0.8157355,-0.015116172,-2.264043,0.09840468,1.4970616,0.7474102,0.04,0.04,0.04052253816220208,-0.012253635504209243,-0.021676024708150443,-0.05287113521528443,-0.0852873865534462,0.13221664877925768,0.9980895584013768,-0.016150639013658312,0.02577666979521287,0.05377688689263714
1262.7499999991803,-0.0047551827,-0.8164251,-0.015449979,-2.2620113,0.10056937,1.4954343,0.7465606,0.04,0.04,0.04002628968229338,-0.012123088830331974,-0.02201580732839048,-0.05394425494462304,-0.08620915551243671,0.1334402767740904,0.9980028244330178,-0.016618854388411753,0.02638569446409317,0.05493606493173262
1262.766666665847,-0.0048623653,-0.81712186,-0.015787194,-2.2599587,0.102756165,1.4937904,0.74570215,0.04,0.04,0.04014868850377162,-0.012051601635081066,-0.022451079194740764,-0.05502890350447952,-0.08713055721114012,0.1346460005621017,0.9979131852156582,-0.017096608006190606,0.027002370663963212,0.05610572828105747
1262.7833333325136,-0.004970622,-0.81782573,-0.016127784,-2.2578852,0.10496486,1.49213,0.74483514,0.04,0.04,0.04045431777845998,-0.01191839024568056,-0.022568542241030443,-0.056123329054037586,-0.08805157988938705,0.13583313280654258,0.9978205810975589,-0.01758392046198885,0.02762684387264709,0.05728569783944941
1262.7999999991803,-0.0050799404,-0.8185363,-0.016471721,-2.2557912,0.1071952,1.4904535,0.74395967,0.04,0.04,0.03927436143622565,-0.01176972670964907,-0.022557817142820902,-0.05722768017908489,-0.08896796033197976,0.13699760530705749,0.9977249644386569,-0.01808084299067499,0.028258815575558954,0.058475788108362424
1262.816666665847,-0.0051903105,-0.8192539,-0.016818969,-2.2536776,0.10944706,1.4887604,0.74307567,0.04,0.04,0.03797404214997968,-0.011773620299487114,-0.023714310989908505,-0.05834252369462779,-0.08988574730063179,0.13814685814337016,0.9976262852235693,-0.018587554883369172,0.028897874902557776,0.05967588005714977
1262.8333333325136,-0.00530172,-0.81997806,-0.017169498,-2.2515433,0.1117202,1.4870516,0.7421834,0.04,0.04,0.039668220589517134,-0.011549872354540275,-0.022638624941873076,-0.05946629127987513,-0.09080496240230107,0.13927316973680617,0.997524467695516,-0.019104058136343402,0.02954481948386893,0.060885753285694934
1262.8499999991802,-0.0054141614,-0.8207091,-0.017523281,-2.2493894,0.114014335,1.485327,0.74128276,0.04,0.04,0.03798946472559628,-0.011423502314464318,-0.02376870743665549,-0.06059960956596011,-0.09171881686319944,0.1403772077445515,0.997419467769107,-0.01963050848352936,0.030199176536517627,0.062105218688815945
1262.8666666658469,-0.00552762,-0.8214466,-0.017880268,-2.2472162,0.1163293,1.4835865,0.740374,0.04,0.04,0.03706252606536786,-0.011363785560672413,-0.023815158237061596,-0.06174193824319135,-0.09263324939251803,0.14146156533960977,0.9973112389931543,-0.020166916657824722,0.03086061308877257,0.06333411884790752
1262.8833333325135,-0.005642088,-0.82219106,-0.018240437,-2.2450237,0.11866487,1.4818306,0.73945725,0.04,0.04,0.03772852090944134,-0.011214118405078466,-0.024321174431807258,-0.062893276953034,-0.09354828387740444,0.142525187334856,0.9971997103595279,-0.020713393220758845,0.031529604099699564,0.06457226235367532
1262.8999999991802,-0.0057575507,-0.82294184,-0.018603742,-2.2428124,0.12102079,1.4800596,0.73853236,0.04,0.04,0.036370676834662774,-0.011065372019269937,-0.023935867881941242,-0.06405320814915673,-0.09445937924328404,0.14356622023085602,0.9970848348070477,-0.021270060724876215,0.032205853645717056,0.06581944777581435
1262.9166666658468,-0.005873998,-0.82369924,-0.018970147,-2.2405815,0.123396814,1.4782733,0.7375997,0.04,0.04,0.037723038488124416,-0.010930081836013628,-0.024628559196249178,-0.06522111911403915,-0.09537033830249919,0.14458404715547515,0.9969665473789624,-0.02183694838430639,0.03288970826391395,0.06707546632597415
1262.9333333325135,-0.0059914184,-0.8244629,-0.019339623,-2.2383323,0.12579273,1.4764719,0.7366592,0.04,0.04,0.03543312850009528,-0.010810266989993988,-0.02470888818950634,-0.06639743284315434,-0.09627716348423457,0.1455784393132628,0.9968448096535383,-0.022414106215922148,0.03358060067189641,0.06834015340820432
1262.9499999991801,-0.0061097997,-0.8252327,-0.019712118,-2.236065,0.12820828,1.474656,0.73571104,0.04,0.04,0.03503662411676878,-0.010672213682046128,-0.024674110708411412,-0.06758148969403543,-0.09718293944169724,0.14655230874810327,0.9967195639346064,-0.023001646938588673,0.03427861787815189,0.06961329947994362
1262.9666666658468,-0.006229128,-0.8260087,-0.02008761,-2.2337794,0.13064323,1.4728255,0.73475534,0.04,0.04,0.03505571439812449,-0.01052048730663252,-0.025075172909461152,-0.06877278717998511,-0.0980888821233608,0.14750196967417295,0.9965907548718884,-0.023599583570722418,0.03498380939891691,0.07089471093888668
1262.9833333325134,-0.0063493922,-0.8267909,-0.02046605,-2.2314756,0.13309729,1.4709803,0.733792,0.04,0.04,0.035375445521701465,-0.010361398918931619,-0.025607903376800856,-0.0699716361187604,-0.09899149538506787,0.14842861810835767,0.9964583255523867,-0.02420812749858615,0.035696234767556054,0.0721841452381706
1262.99999999918,-0.00647058,-0.8275792,-0.0208474,-2.2291539,0.13557021,1.4691211,0.73282135,0.04,0.04,0.034575338967490765,-0.010191200368965536,-0.025271626024836458,-0.07117624142576712,-0.09989219938413256,0.14933077745866272,0.9963222218610513,-0.024827209049980405,0.036415969108326215,0.07348140656348338
1263.0166666658467,-0.0065926784,-0.82837343,-0.021231623,-2.2268145,0.13806175,1.4672477,0.7318434,0.04,0.04,0.033969260846200555,-0.010064985266720894,-0.025801227707344943,-0.07238796019566558,-0.10078727284618809,0.15020853063574277,0.9961823979554495,-0.025456929155259704,0.03714276823041524,0.07478629239303354
1263.0333333325134,-0.006715671,-0.8291736,-0.021618672,-2.224458,0.14057162,1.465361,0.73085827,0.04,0.04,0.03341073135554318,-0.009889087078955583,-0.02564665052449122,-0.07360581193075469,-0.10167925115261878,0.15106260353052056,0.996038794652309,-0.026097343968500476,0.03787683199687117,0.07609857937731916
1263.04999999918,-0.0068395473,-0.82997954,-0.02200851,-2.2220852,0.14309958,1.4634604,0.7298659,0.04,0.04,0.03132601848401251,-0.009777087851176036,-0.026320630858234217,-0.07482920840999233,-0.10256705538040291,0.15189087261525347,0.9958913874152343,-0.026748557037427182,0.03861735325314878,0.07741808055161628
1263.0666666658467,-0.006964294,-0.83079123,-0.022401096,-2.2196956,0.14564534,1.4615465,0.7288665,0.04,0.04,0.03269190676848943,-0.009574883842064508,-0.026248894078917395,-0.07605708026735578,-0.10345579892707948,0.15269429443768603,0.995740103235644,-0.02741061015381916,0.03936497171098256,0.0787445506778581
1263.0833333325133,-0.0070898975,-0.83160824,-0.022796385,-2.217289,0.14820862,1.4596198,0.7278602,0.04,0.04,0.03229761514753626,-0.009379929779970708,-0.02587311882380483,-0.07728992923179324,-0.10433847813177906,0.1534726848325222,0.995584891916825,-0.028083529351793198,0.040119704578082546,0.08007776015023406
1263.09999999918,-0.007216343,-0.8324311,-0.023194324,-2.2148662,0.15078908,1.4576796,0.7268472,0.04,0.04,0.03139345188807319,-0.009232971465091,-0.027130743103520594,-0.07852711886856831,-0.10521603994496452,0.15422491342653719,0.9954257179306782,-0.028767364720816615,0.040881237634356256,0.08141746261519532
1263.1166666658467,-0.0073436173,-0.8332591,-0.02359488,-2.2124276,0.15338652,1.4557269,0.7258275,0.04,0.04,0.030109183651916283,-0.009080293315467947,-0.026501078031637704,-0.07976824174517926,-0.1060905253877735,0.15495146406749444,0.9952625380400485,-0.029462106339331065,0.041649380405462795,0.08276348093194082
1263.1333333325133,-0.007471707,-0.8340927,-0.023998009,-2.2099736,0.15600063,1.4537613,0.72480136,0.04,0.04,0.029948639310095615,-0.008917959194335023,-0.027264854287678553,-0.08101337563963495,-0.10696166212223564,0.15565179178338287,0.9950953038948189,-0.030167822281008762,0.04242414704726002,0.08411557770479741
1263.14999999918,-0.007600596,-0.83493143,-0.024403658,-2.2075038,0.15863113,1.4517838,0.7237687,0.04,0.04,0.03015284547007724,-0.008711019722339175,-0.026765061538891466,-0.08226182603741752,-0.10782955139703143,0.15632560426900863,0.9949239549652323,-0.030884594349973992,0.04320585231362649,0.08547350463173436
1263.1666666658466,-0.0077302703,-0.8357753,-0.024811788,-2.2050192,0.16127776,1.4497939,0.7227297,0.04,0.04,0.028320468458753467,-0.008592284387237692,-0.027368330338206626,-0.08351300357700149,-0.10869040296663388,0.15697295556674135,0.9947484678768601,-0.031612450757542536,0.04399388662083462,0.08683706900704556
1263.1833333325133,-0.007860715,-0.83662415,-0.025222354,-2.2025197,0.1639401,1.4477922,0.72168463,0.04,0.04,0.02855504783787488,-0.008302372247592782,-0.02726455432722208,-0.08476610476496546,-0.10954926288329075,0.1575939252738108,0.9945687977122825,-0.032351299896960464,0.04478845643408438,0.08820597588811072
1263.19999999918,-0.007991916,-0.8374781,-0.025635308,-2.2000055,0.16661792,1.4457787,0.7206334,0.04,0.04,0.02793444120539057,-0.008162677169187837,-0.027649701964604922,-0.08602205892091211,-0.11040225997221637,0.15818759495311407,0.9943848940760845,-0.03310132283661742,0.04558955606880687,0.08958000467296913
1263.2166666658466,-0.008123856,-0.8383368,-0.026050607,-2.197477,0.16931088,1.4437542,0.7195761,0.04,0.04,0.027285564718448896,-0.00793882477611585,-0.027284519154213704,-0.08727870390252969,-0.11125017923784128,0.15875328962039523,0.9941967153759059,-0.03386248278268971,0.04639719199417672,0.09095891364021094
1263.2333333325132,-0.008256523,-0.8392005,-0.026468191,-2.1949353,0.17201877,1.4417183,0.7185131,0.04,0.04,0.025688908042376113,-0.007870103864454636,-0.02805682974429402,-0.08853642411444737,-0.11209068084443095,0.15929336850320303,0.9940042391887504,-0.034634756859779056,0.04721086387017555,0.09234251688517647
1263.2499999991799,-0.008389901,-0.8400687,-0.026888024,-2.1923792,0.17474121,1.4396716,0.71744436,0.04,0.04,0.02690815425276938,-0.007564965145162583,-0.027567866044564404,-0.08979497583526468,-0.11292892073588187,0.15980479172233342,0.9938074049849622,-0.03541817130699004,0.04803108181139965,0.09373051860707032
1263.2666666658465,-0.0085239755,-0.84094137,-0.027310053,-2.1898098,0.17747785,1.4376143,0.71637005,0.04,0.04,0.025223851215727677,-0.007364791342504007,-0.027782906614715053,-0.09105393324063091,-0.11375974897411015,0.16028861729545263,0.9936061909778366,-0.03621274159140183,0.048857467686617966,0.0951226705270626
1263.2833333325132,-0.0086587295,-0.8418185,-0.027734235,-2.1872272,0.18022847,1.4355464,0.71529025,0.04,0.04,0.024717878657876113,-0.007244897303669562,-0.028128943994865097,-0.09231279725349982,-0.11458293670283122,0.16074412114039907,0.993400558430945,-0.037018499761890346,0.049689909834234804,0.09651877560936742
1263.2999999991798,-0.008794147,-0.8427001,-0.028160509,-2.1846318,0.18299262,1.4334683,0.714205,0.04,0.04,0.024352615115663667,-0.006947865028530953,-0.028130850290986054,-0.0935705560731806,-0.11540200593139395,0.16117290568996787,0.9931904702201674,-0.03783546863898426,0.050528529314639484,0.09791851153898756
1263.3166666658465,-0.008930212,-0.843586,-0.028588833,-2.1820238,0.18577006,1.43138,0.7131147,0.04,0.04,0.023610415370400872,-0.006818558614442305,-0.02839656247684008,-0.09482699380335494,-0.11621222648960804,0.16157272784718452,0.9929759007925828,-0.03866358093421821,0.05137305532977402,0.09932168514773519
1263.3333333325131,-0.00906691,-0.844476,-0.029019164,-2.179404,0.18856046,1.4292821,0.7120194,0.04,0.04,0.02187569234197717,-0.006594062261497391,-0.02815359600749634,-0.09608167587764951,-0.11701719604809672,0.1619457812830043,0.992756832582713,-0.03950274969075348,0.05222318941337391,0.10072806269706583
1263.3499999991798,-0.009204224,-0.84536994,-0.029451435,-2.1767724,0.19136351,1.4271747,0.7109189,0.04,0.04,0.02216803469070605,-0.006421619266626377,-0.02820868066233384,-0.09733476021353048,-0.11781669677303654,0.16228893663069127,0.9925332130834041,-0.04035317811074446,0.053079156722834746,0.10213738328491238
1263.3666666658464,-0.009342136,-0.8462679,-0.029885605,-2.1741285,0.1941789,1.425058,0.7098136,0.04,0.04,0.02246083093675466,-0.0061837489707533555,-0.02840635328120733,-0.09858423658646547,-0.11860968485587431,0.16260477987989852,0.9923050056296344,-0.04121476902544198,0.0539411211966382,0.103549379817554
1263.383333332513,-0.00948063,-0.8471699,-0.03032163,-2.1714737,0.19700624,1.4229324,0.70870334,0.04,0.04,0.020530850517674892,-0.005971176292468572,-0.02859466400322308,-0.09983009161337444,-0.11939288368536545,0.16288922996981825,0.9920721944768048,-0.04208758746777112,0.054808707477337654,0.10496381048620018
1263.3999999991797,-0.009619697,-0.8480756,-0.030759443,-2.1688085,0.19984524,1.4207981,0.7075891,0.04,0.04,0.01938557744969316,-0.005796186911158352,-0.02847325144341717,-0.10107208316971848,-0.12016803824650726,0.163151632573136,0.9918347812200198,-0.04297118815339989,0.055681601538810924,0.10638046343663768
1263.4166666658464,-0.009759309,-0.84898514,-0.031199,-2.1661325,0.20269552,1.4186552,0.7064701,0.04,0.04,0.019663032672090353,-0.005543560020414284,-0.028652610454060756,-0.10231178456987933,-0.12093728254684036,0.16338044291261314,0.9915927113352351,-0.04386602730675442,0.0565600213806362,0.10779902808737211
1263.433333332513,-0.009899453,-0.84989804,-0.03164025,-2.163446,0.20555677,1.4165039,0.7053469,0.04,0.04,0.018847179250869317,-0.005342507444489053,-0.028448843835682247,-0.10354530730508027,-0.12169801514312739,0.16358153674604362,0.9913459769885017,-0.04477183402512678,0.0574437584345842,0.1092192812815051
1263.4499999991797,-0.010040121,-0.8508144,-0.032083128,-2.1607494,0.2084287,1.4143447,0.7042193,0.04,0.04,0.018102094112482092,-0.0051785798833636765,-0.028549035348168772,-0.10477421336321739,-0.12245138884432567,0.16375636088503764,0.991094543919751,-0.04568875770595207,0.058332795859707645,0.11064098408355422
1263.4666666658463,-0.010181286,-0.85173404,-0.032527596,-2.158043,0.21131086,1.4121779,0.70308775,0.04,0.04,0.017923165808708674,-0.004839578478016415,-0.028311584950024837,-0.1059957596518995,-0.12319595681787662,0.16390023132130804,0.9908383949350655,-0.04661657285900602,0.05922725026802331,0.11206383485796442
1263.483333332513,-0.010322938,-0.85265684,-0.0329736,-2.1553268,0.21420297,1.4100037,0.7019522,0.04,0.04,0.016854918682351894,-0.004679184709474593,-0.02848412565434888,-0.10721246332695596,-0.12392865221394447,0.16401651293524017,0.9905775170205192,-0.04755533983108725,0.06012682680701835,0.11348760780425081
1263.4999999991796,-0.010465056,-0.8535828,-0.03342108,-2.1526022,0.21710467,1.407822,0.7008132,0.04,0.04,0.015157350307282158,-0.004506066443077383,-0.028686888169326963,-0.1084215203716409,-0.12465221495026187,0.16410437583450674,0.9903119212056994,-0.048504827301471175,0.0610310795536875,0.11491208715728156
1263.5166666658463,-0.010607622,-0.85451174,-0.03386999,-2.1498687,0.22001569,1.4056337,0.69967043,0.04,0.04,0.015484809025023694,-0.004276406999639826,-0.028249907712907252,-0.10962439646907002,-0.1253694597846717,0.1641640208778682,0.990041557797668,-0.049465137553448474,0.06194039792065002,0.11633701520073765
1263.533333332513,-0.010750621,-0.8554435,-0.03432026,-2.1471272,0.22293559,1.4034382,0.6985241,0.04,0.04,0.013750057385486514,-0.004072975254040823,-0.028671677884495317,-0.11081892152308186,-0.12607516250937462,0.1641945548182498,0.9897664528557414,-0.05043623545826172,0.06285408598771018,0.11776212816016676
1263.5499999991796,-0.010894036,-0.85637796,-0.034771856,-2.144378,0.225864,1.4012368,0.6973746,0.04,0.04,0.01318900554210245,-0.003752980225291136,-0.028008390664546745,-0.11200434635145284,-0.12677552793363683,0.16419532642691226,0.9894865826783572,-0.05141787912102041,0.06377243908123913,0.11918716549961426
1263.5666666658462,-0.011037847,-0.8573153,-0.035224717,-2.141621,0.22880055,1.3990285,0.6962217,0.04,0.04,0.01278717787935868,-0.0036021374237665826,-0.028931338088833414,-0.11318220372752097,-0.12746502316870728,0.1641714384913047,0.9892019462226489,-0.05241022544122304,0.06469509958351907,0.12061186487407596
1263.583333332513,-0.011182041,-0.8582551,-0.03567878,-2.1388566,0.23174496,1.3968143,0.6950658,0.04,0.04,0.012523410722842243,-0.003367618225230684,-0.028162612600368675,-0.1143491182891776,-0.1281478525175902,0.1641159942297148,0.9889125236406915,-0.053413091928763805,0.06562224656386563,0.12203599040086331
1263.5999999991795,-0.011326598,-0.8591974,-0.03613401,-2.1360848,0.2346969,1.3945947,0.693907,0.04,0.04,0.012189109261928621,-0.003127656319709682,-0.028100385542462192,-0.11550668914582889,-0.12881876267208112,0.1640350250154368,0.988618295802709,-0.05442638240228899,0.06655400545100708,0.12345929880399611
1263.6166666658462,-0.011471498,-0.8601418,-0.03659033,-2.1333058,0.23765595,1.3923701,0.69274527,0.04,0.04,0.011478385586816131,-0.0028529338689464723,-0.027542045831396855,-0.11665391216873011,-0.12947665744543618,0.16392472295472132,0.9883192527348407,-0.055450111009112076,0.06749036774565399,0.12488150433222536
1263.6333333325128,-0.011616727,-0.86108845,-0.03704769,-2.130521,0.24062176,1.3901403,0.69158095,0.04,0.04,0.008857090187275318,-0.0027113118198085484,-0.028031919212456735,-0.11778984813721315,-0.1301215405279451,0.1637856761202539,0.9880154487412086,-0.05648404613952877,0.06843043768592591,0.12630241794410893
1263.6499999991795,-0.011762269,-0.8620371,-0.03750604,-2.1277304,0.24359404,1.3879056,0.69041425,0.04,0.04,0.009027830350083477,-0.002504913563097788,-0.027789101412789563,-0.11891466494179344,-0.13075736227980636,0.16361938082941138,0.9877068645330301,-0.05752810335918577,0.06937439675191674,0.12772180766624333
1263.6666666658462,-0.011908101,-0.8629879,-0.03796532,-2.1249337,0.24657229,1.3856661,0.68924505,0.04,0.04,0.008897390855677756,-0.0021798978789566714,-0.02794041058318264,-0.12002770272764064,-0.13138315069290085,0.16342481815723695,0.9873934941843927,-0.05858234006189806,0.07032231939984325,0.1291393374206095
1263.6833333325128,-0.012054206,-0.8639406,-0.03842547,-2.1221309,0.24955623,1.3834227,0.6880735,0.04,0.04,0.009305318549701624,-0.0019452942480097102,-0.027426784777895286,-0.12112750038135903,-0.13199752344598792,0.16320259362147257,0.9870753045936286,-0.05964663954519254,0.07127464896444506,0.1305547619482198
1263.6999999991795,-0.012200572,-0.8648949,-0.03888644,-2.1193244,0.25254542,1.3811753,0.68689984,0.04,0.04,0.004427647795202105,-0.001780940536943998,-0.027227945884744642,-0.12221423643523739,-0.13259345284593693,0.16295447612778038,0.986752404993068,-0.0607207563324692,0.0722298216263975,0.1319679273862706
1263.716666665846,-0.012347175,-0.86585075,-0.03934817,-2.1165125,0.2555397,1.3789241,0.68572426,0.04,0.04,0.007382082252682665,-0.0015935218062840262,-0.027077357240190558,-0.12328743602767239,-0.13318453173964484,0.16267969050214953,0.9864247191445223,-0.06180466919030271,0.07318886663886656,0.13337858196519212
1263.7333333325128,-0.012493997,-0.8668083,-0.039810613,-2.1136968,0.25853848,1.3766692,0.684547,0.04,0.04,0.004599376465685978,-0.0013159559673708854,-0.02747249957184561,-0.12434595065727504,-0.13376078837328728,0.16237557689952628,0.9860923192295161,-0.06289817366812143,0.07415097539747871,0.13478646279716508
1263.7499999991794,-0.012641021,-0.8677672,-0.040273692,-2.1108768,0.26154155,1.3744115,0.6833679,0.04,0.04,0.005263786774856172,-0.001078910773147368,-0.026522879028645363,-0.1253903738369157,-0.13432703744769858,0.16204541110552936,0.9857551609523303,-0.06400129798813702,0.0751167272716242,0.13619131321666417
1263.766666665846,-0.012788233,-0.86872745,-0.04073738,-2.108054,0.2645484,1.3721508,0.6821875,0.04,0.04,0.002558768872384931,-0.0008194648552978245,-0.026668210749702936,-0.12641969962591276,-0.134876960990461,0.1616899504385892,0.9854133318868677,-0.06511368007975726,0.07608520773201631,0.13759293285074234
1263.7833333325127,-0.0129356105,-0.86968875,-0.041201603,-2.1052263,0.26755875,1.3698875,0.6810058,0.04,0.04,0.005353361715121352,-0.0005748703645613862,-0.026413996093377357,-0.12743384716914108,-0.1354179255663788,0.1613058714254583,0.9850667645606558,-0.06623539147331803,0.07705739206606567,0.13899100907020812
1263.7999999991794,-0.013083138,-0.8706511,-0.04166629,-2.1023967,0.27057225,1.3676218,0.6798227,0.04,0.04,0.0006058409334208648,-0.00047340247646965317,-0.02617485922427054,-0.12843231738019234,-0.1359398504676569,0.16089583421204148,0.9847155591570257,-0.06736627273389156,0.07803196382435383,0.1403854175964296
1263.816666665846,-0.013230795,-0.87161434,-0.0421314,-2.0995646,0.2735885,1.3653543,0.6786385,0.04,0.04,0.0015588183847725645,-0.00015877317530721413,-0.025652561578137778,-0.1294137260088837,-0.13645258243584124,0.1604617804817219,0.9843597012266442,-0.06850613446624663,0.07900940509509741,0.14177588669447067
1263.8333333325127,-0.013378564,-0.87257844,-0.042596888,-2.0967295,0.276607,1.3630848,0.6774534,0.04,0.04,0.0016353596920648528,0.0001959611621221713,-0.025984295017256187,-0.13037805439321914,-0.13695060044586288,0.15999921885623358,0.9839992173923963,-0.06965490526397922,0.07998970310694871,0.1431620820632336
1263.8499999991793,-0.013526428,-0.8735432,-0.043062676,-2.0938926,0.2796276,1.3608139,0.67626745,0.04,0.04,-5.728138883220879e-05,0.00023066502635449293,-0.025338737902891317,-0.13132524922534713,-0.1374315780030742,0.1595148216629627,0.9836341336611384,-0.07081241983110201,0.08097253233803296,0.14454390786585145
1263.866666665846,-0.013674366,-0.87450856,-0.043528702,-2.0910547,0.2826497,1.358541,0.67508096,0.04,0.04,-0.002111703622365013,0.0005022563967477245,-0.025578767484701892,-0.13225370844423742,-0.13789872855550792,0.15900225564720116,0.9832645466764355,-0.0719784551470581,0.08195709998913434,0.1459210985608244
1263.8833333325126,-0.013822363,-0.8754745,-0.043994926,-2.0882168,0.28567326,1.3562678,0.6738939,0.04,0.04,-0.003152690665730873,0.0005915807512607563,-0.024474379024819193,-0.13316349153453277,-0.13835903325427568,0.15846774824038715,0.982890434781797,-0.07315283866583437,0.08294368047946168,0.14729358872028797
1263.8999999991793,-0.013970402,-0.8764406,-0.044461288,-2.0853775,0.28869766,1.3539937,0.67270666,0.04,0.04,-0.0018369329049860994,0.0010294159386414758,-0.02455494047213236,-0.13405433796524296,-0.13880551924006385,0.15790452138716402,0.9825118375935726,-0.07433544485685131,0.08393238642640403,0.14866097381358687
1263.916666665846,-0.014118464,-0.8774069,-0.044927724,-2.0825372,0.29172245,1.3517191,0.67151916,0.04,0.04,-0.0024957602244857213,0.0013188829583204997,-0.024264100554982626,-0.13492640485907553,-0.1392360590314025,0.15732071625669833,0.982128778018562,-0.07552616018386608,0.08492329788205952,0.1500229848805917
1263.9333333325126,-0.014266527,-0.8783733,-0.045394193,-2.0796964,0.29474756,1.3494445,0.6703316,0.04,0.04,-0.0034239925019274864,0.0013183678603562177,-0.023970308445742106,-0.13577862809620417,-0.13964941483359958,0.1567112430549448,0.9817412751503708,-0.07672483546690233,0.08591620270158477,0.15137957062312202
1263.9499999991792,-0.014414578,-0.87933975,-0.04586062,-2.0768561,0.29777238,1.3471701,0.66914403,0.04,0.04,-0.005198684773866091,0.0016843916339964737,-0.023493729545398523,-0.1366103295406622,-0.1400468722949077,0.15607739909378485,0.9813494102397871,-0.07793126844481331,0.08691069948776492,0.15273042504737636
1263.9666666658459,-0.014562593,-0.88030595,-0.046326965,-2.074017,0.30079654,1.3448964,0.66795677,0.04,0.04,-0.006576084917009339,0.0019266203353685007,-0.02282032078844143,-0.13742149733400907,-0.1404280202555967,0.15542255062253504,0.9809532439311835,-0.07914515529505681,0.0879064976608824,0.15407538831106923
1263.9833333325125,-0.014710557,-0.8812719,-0.04679315,-2.0711787,0.30381975,1.3426234,0.66676974,0.04,0.04,-0.006082066187884649,0.002065114785951283,-0.0229646332486233,-0.13821188270455612,-0.14079735778307775,0.1547432825361429,0.9805527856613924,-0.080366525764654,0.08890374034321272,0.1554142239989288
1263.9999999991792,-0.014858454,-0.8822374,-0.047259133,-2.0683405,0.30684158,1.340351,0.66558343,0.04,0.04,-0.005736009938228648,0.002370521539138415,-0.02268113909926761,-0.13898036991207463,-0.1411496301665074,0.1540416787830765,0.9801480787126985,-0.08159507726412504,0.08990252718495126,0.15674668343485354
1264.0166666658458,-0.015006265,-0.8832023,-0.04772484,-2.0655036,0.30986175,1.3380802,0.6643978,0.04,0.04,-0.007167938906027516,0.002532139058156191,-0.02190521843584703,-0.13972721212214706,-0.14148365013837444,0.1533172095075702,0.9797391606813884,-0.08283066016225428,0.0909027375341648,0.15807261329277852
1264.0333333325125,-0.015153968,-0.88416684,-0.04819023,-2.0626683,0.31287977,1.3358109,0.66321284,0.04,0.04,-0.008070982927188552,0.0028145934372170167,-0.021937545626271593,-0.14045263574091102,-0.14179706632776082,0.15257173212436256,0.9793260936387618,-0.08407314020371852,0.09190414814080672,0.15939177196154689
1264.0499999991791,-0.015301546,-0.8851306,-0.04865522,-2.059837,0.31589532,1.3335438,0.66202885,0.04,0.04,-0.01211996446683905,0.002891179259650878,-0.02072444580307753,-0.14115444591634418,-0.1420923978772191,0.1518042578247109,0.9789090159329009,-0.08532211462869797,0.09290564861192419,0.1607041248274742
1264.0666666658458,-0.015448987,-0.8860935,-0.04911979,-2.0570073,0.318908,1.3312786,0.660846,0.04,0.04,-0.008363443010939164,0.00328088306837393,-0.02117236747832818,-0.14183330986157996,-0.1423791633730646,0.1510146028177527,0.9784878818847259,-0.08657758808139722,0.09390832405988515,0.16200929886587978
1264.0833333325124,-0.015596266,-0.88705546,-0.049583852,-2.0541804,0.32191756,1.3290156,0.65966433,0.04,0.04,-0.010778152199941715,0.003323552243766903,-0.020521941373152774,-0.14248987931195567,-0.1426426981324,0.15020697835067287,0.978062779761321,-0.08783935257200655,0.09491154454024288,0.16330721263396114
1264.099999999179,-0.015743362,-0.8880163,-0.05004738,-2.0513568,0.32492357,1.326755,0.65848416,0.04,0.04,-0.011868312830509709,0.0035872444710455254,-0.020084058190239507,-0.14312101111815076,-0.14288940046450282,0.14937689871298815,0.9776337953899304,-0.08910711354809428,0.09591498083489694,0.1645976940240902
1264.1166666658457,-0.015890267,-0.8889758,-0.05051029,-2.0485368,0.32792565,1.3244977,0.6573056,0.04,0.04,-0.0122750772050928,0.0038476161263567565,-0.01918801525978564,-0.14372854385150058,-0.1431200357811016,0.1485276460659149,0.9772009724189405,-0.09038062659853759,0.09691878282300721,0.16588053344271375
1264.1333333325124,-0.01603696,-0.889934,-0.050972547,-2.045721,0.3309236,1.3222436,0.65612864,0.04,0.04,-0.013569077304564914,0.003910378496133071,-0.018976569232498353,-0.14431224718357483,-0.1433329316173541,0.14765853909120683,0.9767643746348148,-0.09165978006419956,0.09792256346378587,0.16715565418950853
1264.149999999179,-0.01618342,-0.8908908,-0.05143407,-2.0429103,0.3339167,1.3199927,0.6549535,0.04,0.04,-0.015095027047928866,0.004278889602837843,-0.018580108504251402,-0.14487016529983232,-0.14352830131831854,0.14676927063890496,0.9763241302892781,-0.09294429941966126,0.09892584135796346,0.16842276488614008
1264.1666666658457,-0.016329624,-0.8918461,-0.05189482,-2.0401034,0.3369048,1.3177456,0.65378034,0.04,0.04,-0.013143702677043123,0.004475580906182497,-0.018305317093825213,-0.14540294454385144,-0.14371174149651966,0.14586243826796058,0.975880210573964,-0.09423402831116671,0.09992943347561326,0.16968167503772702
1264.1833333325123,-0.016475566,-0.89279974,-0.052354738,-2.0373025,0.33988762,1.3155023,0.6526092,0.04,0.04,-0.016935270306905892,0.004488305999661435,-0.01742591220621481,-0.14591031925530537,-0.1438705256872352,0.14493739168293715,0.975432769935795,-0.09552871609768625,0.10093210474216392,0.1709324017511802
1264.199999999179,-0.016621223,-0.8937516,-0.052813765,-2.0345066,0.34286457,1.313264,0.65144056,0.04,0.04,-0.01520980678644257,0.005010332689187047,-0.01665729483236733,-0.14639120512279596,-0.14401730302711122,0.14399323495504532,0.97498182079772,-0.09682798224192499,0.10193481285447285,0.17217457680285933
1264.2166666658457,-0.016766578,-0.8947014,-0.05327184,-2.0317154,0.3458355,1.3110304,0.6502742,0.04,0.04,-0.015454944050929953,0.00502425889837288,-0.016421689566670228,-0.1468482543567871,-0.14414022006176383,0.14303223988592656,0.9745274153185441,-0.0981318382903664,0.10293729503230109,0.1734081093771107
1264.2333333325123,-0.016911617,-0.8956494,-0.053728916,-2.0289314,0.34879985,1.3088015,0.6491102,0.04,0.04,-0.019156391000674233,0.005252200501665305,-0.01594151966083368,-0.14727851839549008,-0.14424133987859578,0.14205372486475767,0.974069725543569,-0.09943999168155288,0.1039385085897467,0.1746328842629251
1264.249999999179,-0.01705631,-0.8965951,-0.054184936,-2.0261543,0.35175735,1.3065773,0.64794904,0.04,0.04,-0.01931538499384544,0.0053745261711091175,-0.015491565059255752,-0.14768121550749505,-0.1443275861695854,0.1410599945824974,0.9736088439697577,-0.1007520901626483,0.10493824628379225,0.17584879794474526
1264.2666666658456,-0.01720065,-0.8975385,-0.05463984,-2.0233836,0.35470772,1.3043592,0.6467906,0.04,0.04,-0.018281630636529655,0.005646640605294628,-0.014253511615991421,-0.14805700659057497,-0.14439996291418483,0.14004915796173967,0.9731447513381623,-0.10206798011287374,0.1059373186041432,0.17705565482533672
1264.2833333325123,-0.017344622,-0.89847976,-0.055093575,-2.0206199,0.35765043,1.3021463,0.6456352,0.04,0.04,-0.01937390651067794,0.005866437719029283,-0.014870915605225132,-0.14840671070195746,-0.14444972145577573,0.13902337312071852,0.9726775844853619,-0.10338747395171533,0.10693515379459209,0.17825324612060217
1264.299999999179,-0.017488196,-0.8994184,-0.055546083,-2.0178635,0.3605853,1.2999395,0.644483,0.04,0.04,-0.020341530257006468,0.005954576604694228,-0.013389763953197686,-0.1487286968519928,-0.14448057703671507,0.1379824580656804,0.9722074212806261,-0.10471021968697315,0.10793160195382921,0.17944154814217683
1264.3166666658456,-0.017631363,-0.9003544,-0.055997312,-2.015115,0.36351186,1.2977389,0.64333385,0.04,0.04,-0.02129191931286023,0.006224248817579547,-0.012911263369741466,-0.14902356206247713,-0.1444919840449198,0.1369257824205086,0.971734359329226,-0.10603608309823284,0.10892641809496356,0.18062037377107967
1264.3333333325122,-0.017774109,-0.90128785,-0.056447215,-2.0123749,0.3664298,1.2955447,0.6421882,0.04,0.04,-0.021934971702597394,0.006363202965367631,-0.012640475001213236,-0.14929027877702034,-0.14448406385948487,0.13585578898472642,0.9712584867883778,-0.10736473688271188,0.10991949502152157,0.18178963042448348
1264.3499999991789,-0.017916413,-0.9022184,-0.056895725,-2.0096426,0.3693388,1.2933573,0.6410459,0.04,0.04,-0.021624170791589847,0.006553889935331791,-0.011890462509900335,-0.1495294935783663,-0.14445840119583,0.13477110875515938,0.9707798611400543,-0.10869607341221814,0.11091093316337267,0.18294914521388758
1264.3666666658455,-0.018058253,-0.90314585,-0.0573428,-2.006919,0.37223843,1.2911769,0.6399074,0.04,0.04,-0.02285912680344282,0.0068204427110835075,-0.010939511013952075,-0.14973998751250336,-0.14441007110055407,0.13367328149846838,0.9702986104510583,-0.11002966334916786,0.11190044534602975,0.18409880518725405
1264.3833333325122,-0.01819962,-0.9040704,-0.057788383,-2.0042043,0.37512842,1.2890038,0.6387728,0.04,0.04,-0.02352589351648504,0.006886253830037936,-0.010726820086981448,-0.14992323357037804,-0.14434194434304215,0.1325632271450793,0.9698148150359989,-0.11136531203381368,0.1128878878647102,0.1852385396880116
1264.3999999991788,-0.018340494,-0.9049918,-0.058232415,-2.0014992,0.37800834,1.2868382,0.637642,0.04,0.04,-0.024543591966397216,0.00710909458081499,-0.010050922847404387,-0.15007817602342255,-0.14425410354562634,0.13143979331475922,0.9693285923189902,-0.11270281494349876,0.11387294579532412,0.18636820499374707
1264.4166666658455,-0.018480856,-0.90591,-0.05867485,-1.9988041,0.38087788,1.2846804,0.6365153,0.04,0.04,-0.02530080778044841,0.00726394328447455,-0.009205297131753554,-0.15020442982331336,-0.14414668627627814,0.1303055870651272,0.9688400366810316,-0.11404187029766548,0.1148554980552547,0.18748773215703218
1264.4333333325121,-0.018620694,-0.90682477,-0.059115622,-1.9961188,0.38373682,1.2825305,0.6353926,0.04,0.04,-0.0252073898166838,0.007366422297799824,-0.008650583986136162,-0.15030241309699008,-0.1440195044750129,0.1291597865266647,0.9683492112871993,-0.11538237942694474,0.11583556176182623,0.18859701521645977
1264.4499999991788,-0.018759988,-0.9077361,-0.05955469,-1.9934438,0.3865846,1.2803892,0.6342746,0.04,0.04,-0.026059807489131614,0.007688043403497602,-0.007950404148626689,-0.15037034499579163,-0.14387242196323838,0.12800213807517416,0.9678562676545457,-0.11672374132257779,0.11681298360090764,0.18969591517933804
1264.4666666658454,-0.018898718,-0.9086438,-0.059992,-1.9907795,0.3894211,1.2782565,0.6331608,0.04,0.04,-0.026643558217687158,0.007722056437337033,-0.007098554186357742,-0.15041162345164763,-0.1437046542263143,0.12683441941933787,0.9673612588904618,-0.11806601697279298,0.11778762248570009,0.19078439774574701
1264.483333332512,-0.019036874,-0.9095477,-0.0604275,-1.9881263,0.3922458,1.2761323,0.63205165,0.04,0.04,-0.027710892343169036,0.007954215441857704,-0.006740713642860996,-0.1504230047529485,-0.14351471181737654,0.12565564183276506,0.9668643498636766,-0.11940884824398337,0.11875901152623664,0.1918623285198179
1264.4999999991787,-0.01917444,-0.91044796,-0.06086115,-1.9854842,0.39505848,1.2740175,0.63094723,0.04,0.04,-0.02751801226565931,0.008095007771452556,-0.006017307260364202,-0.15040480390621574,-0.14330762544246595,0.1244686849078598,0.9663655860178677,-0.12075194773905117,0.11972749552096432,0.19292964545099392
1264.5166666658454,-0.019311395,-0.91134423,-0.061292876,-1.9828538,0.3978588,1.2719115,0.6298476,0.04,0.04,-0.028645744154331965,0.008180006415026142,-0.0054048153105057395,-0.15035837296129476,-0.14307776750596207,0.12327181363952974,0.9658651141394152,-0.12209515832603579,0.12069250040642716,0.1939862725747351
1264.533333332512,-0.019447722,-0.9122363,-0.06172266,-1.9802353,0.40064633,1.2698154,0.6287531,0.04,0.04,-0.029266101956659796,0.008510085976659587,-0.004000840656770421,-0.15028193410712085,-0.1428281418140064,0.12206695335159022,0.9653630547601213,-0.12343795076832563,0.12165405468936957,0.1950321404075732
1264.5499999991787,-0.01958341,-0.9131244,-0.06215042,-1.9776293,0.40342084,1.267729,0.62766385,0.04,0.04,-0.029769624386410953,0.008495716465428682,-0.004118723251755885,-0.1501778869107308,-0.1425589495192927,0.12085338930341659,0.9648595021363149,-0.12478023585702558,0.12261196342013561,0.19606718313625873
1264.5666666658453,-0.019718442,-0.91400826,-0.0625761,-1.9750354,0.40618202,1.2656528,0.62657964,0.04,0.04,-0.029541597395921215,0.008671050312494821,-0.003188892608074756,-0.15004492558144622,-0.14227035465509794,0.11963306199991655,0.9643545214663289,-0.12612187535057798,0.12356639190000036,0.1970912891994886
1264.583333332512,-0.019852802,-0.9148878,-0.062999666,-1.9724545,0.40892953,1.2635868,0.62550086,0.04,0.04,-0.03094370721337114,0.008820034281631361,-0.002357328319346763,-0.14988163186672754,-0.14195871102737637,0.11840380797491551,0.9638482776475912,-0.12746245396491387,0.12451685316345315,0.1981044516998173
1264.5999999991786,-0.019986477,-0.91576296,-0.0634211,-1.969887,0.4116631,1.2615314,0.6244276,0.04,0.04,-0.03139258537001588,0.008983343280805078,-0.0016682206774976116,-0.14968971419853336,-0.14162763720998484,0.11716888878971422,0.963340868137507,-0.12880170048473338,0.12546329383238175,0.19910664385962834
1264.6166666658453,-0.020119447,-0.9166337,-0.06384031,-1.9673328,0.41438216,1.2594867,0.62335986,0.04,0.04,-0.031560548583353665,0.009214320295494738,-0.0011548389328819297,-0.14946914473047562,-0.14127528587871324,0.11592642726810187,0.962832411467159,-0.1301394558485189,0.12640568419941703,0.2000976573122836
1264.633333332512,-0.0202517,-0.9174996,-0.06425725,-1.9647923,0.4170867,1.2574532,0.622298,0.04,0.04,-0.03207354873251411,0.00921839153901205,0.00016899282793136905,-0.14921890263490672,-0.14090249927685788,0.11467981463377115,0.9623230195300072,-0.13147529793551033,0.12734383385497314,0.2010775971970404
1264.6499999991786,-0.02038322,-0.91836077,-0.06467189,-1.9622658,0.41977626,1.2554307,0.621242,0.04,0.04,-0.03304220830226967,0.009377669830293311,0.0003531764261044401,-0.14894087314776025,-0.14050865168738444,0.11342709893151878,0.9618128311417238,-0.13280908255483043,0.12827737986713317,0.20204637897401007
1264.6666666658452,-0.020513987,-0.9192172,-0.065084174,-1.9597538,0.42245057,1.2534199,0.6201918,0.04,0.04,-0.032967612964762694,0.009542916508883947,0.0012223897625118774,-0.14863311937880908,-0.1400957289291514,0.1121690527637984,0.9613019164795474,-0.13414057960617354,0.1292065633190579,0.2030039267377534
1264.683333332512,-0.020643994,-0.9200688,-0.06549406,-1.9572563,0.42510936,1.2514207,0.6191478,0.04,0.04,-0.03369165064337487,0.00963067077049129,0.0019389348120069094,-0.14829569165693668,-0.13966119118584383,0.1109060418005375,0.9607904209561701,-0.13546945367375052,0.1301310510974624,0.20395024800296457
1264.6999999991785,-0.020773225,-0.9209153,-0.065901496,-1.9547735,0.4277522,1.2494332,0.61811,0.04,0.04,-0.03398850010398746,0.009816087310338117,0.0024719282815666155,-0.14793019640585484,-0.1392063034988007,0.10963930538325863,0.9602784845082761,-0.13679547464384217,0.1310506339703426,0.20488524017953463
1264.7166666658452,-0.020901658,-0.9217567,-0.06630644,-1.952306,0.430379,1.2474579,0.61707854,0.04,0.04,-0.034570032800784745,0.009821596072559502,0.0035834497404407806,-0.14753560483619926,-0.13873107230528736,0.10836994935066668,0.9597661875430772,-0.13811837216547532,0.13196530063254883,0.20580898898820524
1264.7333333325118,-0.02102929,-0.9225928,-0.066708855,-1.949854,0.43298924,1.245495,0.61605364,0.04,0.04,-0.03508543344694637,0.010119019518606276,0.0043168292112927276,-0.14711244305922402,-0.13823591744593872,0.10709678640468755,0.9592536949449033,-0.13943778437312973,0.13287485680860583,0.2067213715409108
1264.7499999991785,-0.021156102,-0.9234235,-0.067108676,-1.9474174,0.43558273,1.2435445,0.6150352,0.04,0.04,-0.035059498416822876,0.010131842600602514,0.0048697127584373945,-0.14666202956560054,-0.137720122508448,0.10582229145766009,0.9587410913045274,-0.14075363959402865,0.13377924295009563,0.20762236618663554
1264.7666666658452,-0.021282079,-0.924249,-0.06750587,-1.9449973,0.43815926,1.241607,0.6140236,0.04,0.04,-0.036401949368825015,0.010172892462312344,0.00585432261688279,-0.14618159232760508,-0.13718406347442239,0.10454386167482538,0.9582285290272915,-0.14206542815551296,0.13467817122544085,0.20851208712339678
1264.7833333325118,-0.021407206,-0.9250688,-0.06790038,-1.9425932,0.44071847,1.2396824,0.6130187,0.04,0.04,-0.03590111230780124,0.010372393633995003,0.0065768087953665955,-0.14567471402462373,-0.13662922148639156,0.10326542228526091,0.9577160933384127,-0.14337313332186533,0.1355717104391939,0.20939040219329724
1264.7999999991785,-0.021531472,-0.92588305,-0.068292186,-1.9402053,0.4432601,1.2377712,0.6120207,0.04,0.04,-0.036074218871684494,0.010479398446405774,0.007057168084512178,-0.14513932604004162,-0.13605313454085888,0.10198488342929934,0.9572039013639371,-0.14467642789724608,0.13645984467349606,0.21025730240882606
1264.816666665845,-0.021654863,-0.92669165,-0.06868125,-1.9378345,0.44578388,1.2358731,0.6110297,0.04,0.04,-0.03738906809758191,0.010546329131050358,0.007938567402843155,-0.14457606007859836,-0.1354553765110697,0.10070444150433175,0.9566921197400767,-0.14597502193580203,0.13734206340614996,0.21111285753696302
1264.8333333325118,-0.021777362,-0.92749435,-0.06906748,-1.9354806,0.44828942,1.233989,0.61004585,0.04,0.04,-0.03711884506043539,0.01072715517493883,0.009088117645139615,-0.14398425821997624,-0.13484019732298147,0.09942004710467071,0.9561808525420379,-0.14726860504648678,0.13821858849951252,0.21195696967272826
1264.8499999991784,-0.021898959,-0.9282913,-0.069450855,-1.9331439,0.45077664,1.2321187,0.60906917,0.04,0.04,-0.037335636861346444,0.010690977221006204,0.009245399554735911,-0.14336613938969722,-0.13420381326268496,0.0981375684859724,0.9556701875652751,-0.14855706955796696,0.13908930175555223,0.2127896985769147
1264.866666665845,-0.022019636,-0.92908245,-0.069831364,-1.9308252,0.45324507,1.2302623,0.6080999,0.04,0.04,-0.03885499700464479,0.010896843465407757,0.010226459094941909,-0.14271964030316003,-0.1335470945641559,0.09685433970269608,0.9551603341557005,-0.149840016801843,0.13995361840396678,0.21361107208202237
1264.8833333325117,-0.022139385,-0.92986745,-0.07020894,-1.9285239,0.45569468,1.22842,0.6071379,0.04,0.04,-0.037636160782694716,0.010886631757078824,0.010895436764002397,-0.14204622634064137,-0.13287361629864664,0.09557050147623615,0.9546513207684107,-0.15111737126399052,0.14081193898857236,0.21442106635232688
1264.8999999991784,-0.022258203,-0.9306465,-0.0705836,-1.9262408,0.45812508,1.2265925,0.6061835,0.04,0.04,-0.03860967253430658,0.011137763397012224,0.011869717919155143,-0.14134519606815954,-0.13217852597621457,0.09428892329333655,0.9541432961374364,-0.15238869406562716,0.14166412007779805,0.21521973292322494
1264.916666665845,-0.02237606,-0.9314192,-0.070955224,-1.9239757,0.46053603,1.2247794,0.60523677,0.04,0.04,-0.03875469612983906,0.011075082148570559,0.012341938392079754,-0.1406187051929243,-0.13146362860271385,0.09300704171706521,0.9536364086532498,-0.15365387956721813,0.14250981525314524,0.2160070321572636
1264.9333333325117,-0.022492955,-0.9321857,-0.07132382,-1.9217292,0.46292722,1.2229812,0.6042979,0.04,0.04,-0.039172781629259745,0.011280393423501733,0.01332535069856755,-0.13986494468851704,-0.13072967286135623,0.0917271423240802,0.9531307792159296,-0.15491251676351478,0.14334908154585072,0.21678300367231224
1264.9499999991783,-0.022608865,-0.9329458,-0.07168934,-1.9195015,0.46529847,1.2211981,0.60336673,0.04,0.04,-0.03963162744380355,0.011284512693776616,0.014154156127155204,-0.13908600821756634,-0.12997682192265614,0.0904489114294778,0.9526265254115756,-0.1561644900226087,0.14418166777073316,0.21754770009608757
1264.966666665845,-0.022723788,-0.9336995,-0.07205172,-1.9172931,0.46764946,1.21943,0.6024435,0.04,0.04,-0.04009928552326514,0.011368304778547333,0.014658110130083557,-0.13828100985744954,-0.12920575100466636,0.08917316723577424,0.9521237977941397,-0.1574095302092468,0.14500736882408607,0.21830111419799003
1264.9833333325116,-0.022837711,-0.93444675,-0.07241096,-1.9151036,0.4699801,1.2176771,0.6015283,0.04,0.04,-0.03959337657453155,0.011421313462639526,0.015188095899953957,-0.13745022895747178,-0.12841693566984305,0.08790047730005499,0.9516226615981025,-0.15864746947342498,0.1458263529265756,0.21904329516046758
1264.9999999991783,-0.022950621,-0.93518734,-0.07276703,-1.9129331,0.47229007,1.21594,0.6006211,0.04,0.04,-0.039683119800182354,0.011562349258881222,0.016299130504071613,-0.1365943020195327,-0.12760825732580358,0.08663100422164642,0.9511232350608136,-0.15987803172133,0.14663863300461122,0.2197742432836587
1265.016666665845,-0.023062509,-0.93592143,-0.07311986,-1.9107829,0.4745792,1.2142186,0.59972215,0.04,0.04,-0.04119099417514427,0.011517204179956053,0.016996864079488194,-0.13571296153944867,-0.12677984365586814,0.08536415786649498,0.9506256954007297,-0.1611009151536919,0.1474436712206715,0.22049409560687205
1265.0333333325116,-0.023173362,-0.93664885,-0.07346942,-1.9086523,0.4768471,1.212513,0.59883153,0.04,0.04,-0.04028405296820914,0.011702080865816367,0.017359350298429277,-0.1348074028695398,-0.1259352965124282,0.08410103253359998,0.9501301404240579,-0.16231593977606948,0.14824167039589434,0.2212027556578052
1265.0499999991782,-0.02328317,-0.93736917,-0.073815696,-1.9065417,0.47909364,1.2108234,0.5979493,0.04,0.04,-0.04100458386155914,0.011776789194040127,0.01879873926974307,-0.13387770027274098,-0.12507115439673955,0.08284198277377941,0.9496367181577218,-0.1635228059882621,0.14903233961896575,0.22190033167179896
1265.0666666658449,-0.023391925,-0.93808275,-0.07415863,-1.9044515,0.4813187,1.2091501,0.59707546,0.04,0.04,-0.04108715975528199,0.01168412312122502,0.018936553768156283,-0.13292400244411934,-0.1241924071094335,0.08158723076136229,0.9491454961216697,-0.16472143397134387,0.14981571522493786,0.22258689955613756
1265.0833333325115,-0.023499615,-0.9387893,-0.07449823,-1.9023813,0.48352197,1.2074932,0.59621024,0.039999995,0.04,-0.040647082085376596,0.011940146521555173,0.01978342094614005,-0.13194583952216785,-0.12329497295342268,0.08033654082629302,0.9486566086202931,-0.16591146916531305,0.1505918728850625,0.2232624266226194
1265.0999999991782,-0.023606226,-0.93948865,-0.074834436,-1.9003321,0.48570326,1.2058527,0.59535366,0.039999988,0.04,-0.04200890815169167,0.011868822967292525,0.02087801652401744,-0.13094591398990846,-0.12237808313762437,0.07909168481753245,0.9481702233332239,-0.16709269324063655,0.15136024397832634,0.22392707739939857
1265.1166666658448,-0.023711754,-0.9401811,-0.075167246,-1.8983035,0.4878625,1.204229,0.5945058,0.039999984,0.04,-0.04106737452063136,0.011907605878375138,0.020851568784219232,-0.12992254808039586,-0.12144747768095275,0.07785094152761439,0.9476863741852214,-0.16826499091794753,0.15212122551955,0.2245808579587352
1265.1333333325115,-0.023816185,-0.9408666,-0.075496584,-1.8962959,0.4899993,1.2026218,0.59366655,0.039999984,0.04,-0.04161667546696002,0.011986544596837012,0.02137994117815678,-0.12887701959180406,-0.1204980882836083,0.07661517611225821,0.9472052156939955,-0.16942821572823458,0.1528745517554009,0.22522373432394652
1265.1499999991781,-0.023919515,-0.941545,-0.07582244,-1.8943096,0.49211347,1.2010319,0.5928363,0.039999977,0.04,-0.04178701376162941,0.012105193592865104,0.02267430214936139,-0.12780812960593768,-0.11953197066267833,0.07538602395003663,0.9467268742093577,-0.17058191685128712,0.15362024844053818,0.22585582693875
1265.1666666658448,-0.02402173,-0.9422161,-0.076144814,-1.8923444,0.49420497,1.1994591,0.592015,0.039999977,0.04,-0.04141797924508417,0.012088796663450863,0.023073668265738423,-0.12671920145817303,-0.11854915545872038,0.07416263248445311,0.9462514324773124,-0.17172604923275353,0.15435824431119904,0.2264772018608242
1265.1833333325114,-0.02412282,-0.9428799,-0.07646365,-1.8904011,0.4962735,1.1979036,0.5912028,0.039999973,0.04,-0.04263649399378622,0.012142583068330826,0.02416307053803024,-0.1256086575103755,-0.11754871268106798,0.0729448036283406,0.9457790630882275,-0.17286027603199713,0.1550881828912725,0.22708796604307285
1265.199999999178,-0.024222784,-0.94353646,-0.076778896,-1.8884795,0.49831894,1.1963652,0.5903993,0.039999973,0.04,-0.042017214142386905,0.012087643505481749,0.024095652909850163,-0.12447769809469002,-0.116535089650425,0.07173334660111728,0.9453098162772422,-0.17398471908501076,0.15581012749252826,0.22768810453240304
1265.2166666658447,-0.024321612,-0.9441856,-0.07709057,-1.8865795,0.5003411,1.1948445,0.5896051,0.03999996,0.04,-0.04186665962913061,0.01224361132544094,0.025117103550120756,-0.12332449818214855,-0.11550432387633935,0.07052941878377439,0.9448438188690726,-0.1750989087333567,0.15652417531323642,0.22827770948519235
1265.2333333325114,-0.024419293,-0.9448271,-0.07739864,-1.8847015,0.5023397,1.1933413,0.5888201,0.039999958,0.04,-0.0423784014612405,0.012355184613449532,0.02600530049381433,-0.12215210697982443,-0.11445827848491294,0.06933176607233185,0.9443812314891701,-0.1762026505439335,0.1572299856025248,0.22885682681475955
1265.249999999178,-0.02451582,-0.9454606,-0.07770307,-1.8828455,0.5043149,1.1918555,0.5880442,0.03999995,0.04,-0.04246873450548527,0.012136354670533311,0.02674635701276351,-0.12096023170256467,-0.11339830615426402,0.0681417437247049,0.9439221196236446,-0.1772959150549191,0.15792739227398403,0.2294256510497121
1265.2666666658447,-0.024611184,-0.9460867,-0.07800383,-1.8810118,0.5062662,1.1903884,0.5872779,0.039999954,0.04,-0.0419576754300266,0.012436002907706412,0.027325534560584952,-0.11974841535831401,-0.11232554932532021,0.06695919129474567,0.943466583702975,-0.17837821250657063,0.15861693489065054,0.22998410098242208
1265.2833333325113,-0.024705378,-0.94670546,-0.07830091,-1.8792006,0.5081935,1.1889383,0.5865211,0.03999995,0.04,-0.04270311312239983,0.012266231416740991,0.026526277704985723,-0.11852002660045735,-0.11123504540527365,0.06578315228501751,0.9430147937825247,-0.1794496557346837,0.15929779651278403,0.23053227928031556
1265.299999999178,-0.024798391,-0.94731635,-0.078594305,-1.877412,0.510097,1.1875068,0.58577394,0.03999995,0.04,-0.042240242161639685,0.012247262212433663,0.028885661161692777,-0.11727272085409626,-0.11013408406019187,0.06461645322680529,0.942566760273634,-0.1805098257732013,0.15997045488075531,0.2310704628286331
1265.3166666658447,-0.02489023,-0.94791955,-0.07888393,-1.8756459,0.51197636,1.1860932,0.58503604,0.03999994,0.04,-0.04235562997934039,0.012290666653275162,0.0284685066582524,-0.11600869360889586,-0.1090188811282488,0.06345525246228408,0.9421226076550971,-0.18155889763535935,0.16063465527270407,0.23159850249950342
1265.3333333325113,-0.024980877,-0.9485152,-0.07916982,-1.8739028,0.5138313,1.1846982,0.5843075,0.03999994,0.04,-0.042446442269028495,0.01243865661071375,0.029390791195393895,-0.11472586266508425,-0.1078902082196657,0.062302899339750535,0.9416824226002005,-0.18259655703385147,0.16129054390561998,0.23211650689218516
1265.349999999178,-0.025070328,-0.94910276,-0.079451926,-1.8721827,0.51566195,1.1833214,0.5835885,0.039999932,0.04,-0.0427739099699842,0.012268912743351734,0.030114242056711316,-0.11342673227813202,-0.10674678999806672,0.061159160164016076,0.941246345119364,-0.18362266290730703,0.161937635992576,0.23262467090875055
1265.3666666658446,-0.025158577,-0.94968265,-0.07973028,-1.8704859,0.517468,1.181963,0.5828791,0.039999932,0.04,-0.04260726478193533,0.012467250328507262,0.030363437456626396,-0.11210985522311603,-0.10559262003588973,0.06002340595799827,0.940814466592213,-0.18463697105375126,0.16257612488617615,0.2331229975525801
1265.3833333325113,-0.025245614,-0.95025444,-0.080004826,-1.8688122,0.5192493,1.1806233,0.5821794,0.03999993,0.04,-0.0424254587533035,0.012420506935151288,0.03140958869985999,-0.11077752372121641,-0.10442707340001667,0.0588964640506278,0.9403868765086145,-0.18563933055950615,0.16320596614541982,0.23361158801380152
1265.399999999178,-0.025331441,-0.95081836,-0.080275536,-1.8671618,0.5210058,1.1793021,0.5814896,0.03999992,0.04,-0.04243474909979561,0.012420432809395754,0.03135415774143668,-0.10943037333516958,-0.10324999417470852,0.057778263586846956,0.9399636956714055,-0.18662955947381732,0.16382705274899595,0.23409048493678689
1265.4166666658446,-0.025416054,-0.9513744,-0.08054242,-1.8655349,0.5227374,1.1779996,0.58080953,0.039999925,0.04,-0.04262257413332193,0.012440117686474128,0.03204994114672788,-0.10806881902613717,-0.10206185692701639,0.05666879457498261,0.9395449925206802,-0.18760757507253317,0.1644393442480418,0.234559815117579
1265.4333333325112,-0.025499452,-0.95192254,-0.080805466,-1.8639313,0.5244441,1.1767161,0.5801391,0.03999992,0.04,-0.0418472009492632,0.012360148979218,0.03242197818000836,-0.10669292267935018,-0.10086350647489448,0.055568617307552665,0.9391307853242431,-0.18857333677543875,0.16504309452724084,0.23501966228917878
1265.4499999991779,-0.025581619,-0.9524625,-0.0810646,-1.862351,0.52612567,1.1754512,0.57947844,0.039999917,0.04,-0.04210078326640776,0.012389281983027356,0.03292087777844177,-0.10530315981663987,-0.09965249144508168,0.05447667224635026,0.9387212371736017,-0.18952668559415775,0.16563797404600095,0.23547003181061565
1265.4666666658445,-0.025662558,-0.9529946,-0.08131989,-1.8607944,0.52778226,1.1742052,0.5788278,0.03999991,0.04,-0.04226439545300664,0.01232754213699172,0.03333712631717889,-0.10389945659842921,-0.09843137715742922,0.053395407883037205,0.9383163995835877,-0.1904673767036947,0.16622400103917392,0.23591119973972088
1265.4833333325112,-0.025742255,-0.9535185,-0.08157128,-1.8592618,0.5294135,1.1729783,0.5781871,0.039999906,0.04,-0.04233495952719046,0.012440952405068373,0.03423338901513695,-0.10248331413291856,-0.0972011674350978,0.05232245176219655,0.937916405417348,-0.191395252538398,0.16680106579251322,0.23634313657317274
1265.4999999991778,-0.02582072,-0.9540345,-0.08181879,-1.8577526,0.5310195,1.1717705,0.5775563,0.0399999,0.04,-0.041492031479428704,0.012405691504668859,0.034005856424068615,-0.1010558854058328,-0.09596185620292969,0.051258544297315654,0.9375212583743853,-0.19231032615139168,0.16736945625295516,0.23676590477778808
1265.5166666658445,-0.02589794,-0.9545422,-0.08206239,-1.8562671,0.53260016,1.1705816,0.5769354,0.0399999,0.04,-0.04191763373406765,0.012356436366600665,0.03490552961041837,-0.09961686756610538,-0.09471226409171563,0.050203933310852156,0.937131081290951,-0.19321246917708634,0.1679288250844515,0.2371796532983005
1265.5333333325111,-0.02597392,-0.955042,-0.08230206,-1.8548057,0.5341552,1.1694118,0.5763246,0.039999895,0.04,-0.04204481837009055,0.012452833547338393,0.03502164522923845,-0.09816661297934356,-0.0934536389193201,0.04915980305420205,0.9367459900997481,-0.19410145607291007,0.1684791844026882,0.23758438333658158
1265.5499999991778,-0.02604866,-0.9555335,-0.082537815,-1.8533685,0.53568494,1.1682612,0.57572377,0.0399999,0.04,-0.04202577574701216,0.01220675537619842,0.035925614488585556,-0.09670635111087639,-0.0921886343486458,0.048125149501270253,0.9363660116237361,-0.19497724793324314,0.16902039241879485,0.23798040257725517
1265.5666666658444,-0.026122143,-0.95601696,-0.08276963,-1.851955,0.5371892,1.1671299,0.5751327,0.039999895,0.04,-0.041090896570139535,0.012320027188728044,0.03573176153599533,-0.09523637139062102,-0.09091691700001536,0.04710067585944006,0.9359911596323428,-0.1958398983839883,0.16955284849567942,0.23836760446430727
1265.583333332511,-0.026194392,-0.95649207,-0.082997516,-1.8505648,0.53866786,1.1660179,0.5745519,0.039999887,0.04,-0.04046750412927125,0.012368173087395906,0.036218839741264386,-0.09375705644277277,-0.08963592090154754,0.0460863251963668,0.9356215359711397,-0.19668912471640487,0.17007658299804446,0.2387460692053571
1265.5999999991777,-0.02626538,-0.9569591,-0.08322145,-1.8491989,0.54012084,1.1649251,0.57398105,0.039999884,0.04,-0.04163331449071883,0.012299039442636994,0.03660770607589736,-0.09226916741282809,-0.08834581906374736,0.04508040282514354,0.9352572545925046,-0.19752488109958535,0.17059118439463639,0.23911594862225458
1265.6166666658444,-0.026335122,-0.95741796,-0.083441444,-1.8478574,0.5415485,1.1638511,0.57342017,0.03999988,0.04,-0.04159402526884293,0.012009966523235382,0.03686438381286239,-0.09077343187501402,-0.08704996118263983,0.04408472827607738,0.9348983440323075,-0.19834723121335945,0.17109642327868083,0.2394775065363883
1265.633333332511,-0.026403612,-0.95786846,-0.08365749,-1.8465399,0.5429504,1.1627964,0.5728695,0.039999865,0.04,-0.04113700753998195,0.012289083760558261,0.03750106096436223,-0.08926867903437709,-0.08575100079146931,0.043100147581108667,0.9345449237428379,-0.19915586142950287,0.17159247367491573,0.23983067223124188
1265.6499999991777,-0.02647085,-0.95831084,-0.08386959,-1.8452466,0.5443268,1.1617613,0.5723288,0.039999865,0.04,-0.04063959035773834,0.012120613585148154,0.03774157495948227,-0.08775782080932581,-0.08444854275009459,0.042125742211446965,0.9341969517842788,-0.1999507979563659,0.17207965083852192,0.24017561791503086
1265.6666666658443,-0.026536832,-0.95874494,-0.08407774,-1.8439772,0.5456775,1.1607453,0.5717982,0.039999865,0.04,-0.0406169821520308,0.012151487335954059,0.03780367751148317,-0.08624210372059948,-0.0831387683171044,0.041162767783428617,0.9338545500589401,-0.20073199446308154,0.172557677485266,0.2405123565931254
1265.683333332511,-0.026601562,-0.959171,-0.08428194,-1.8427321,0.5470027,1.1597487,0.5712776,0.039999858,0.04,-0.040363643294538676,0.012012250772674982,0.03803788014157261,-0.08471946218410087,-0.08182614147394157,0.04020899848939083,0.933517711419457,-0.20149941364417298,0.1730267401329094,0.2408410595521715
1265.6999999991776,-0.026665041,-0.95958877,-0.084482186,-1.8415108,0.5483022,1.1587713,0.5707671,0.03999985,0.04,-0.040039594838869874,0.012105762952624444,0.0383369806728151,-0.08319180440319615,-0.08050887251632141,0.03926451554091996,0.9331865313869372,-0.20225296092834605,0.17348676342040864,0.2411617306946625
1265.7166666658443,-0.026727272,-0.9599983,-0.08467849,-1.8403136,0.5495761,1.1578131,0.57026666,0.03999985,0.04,-0.04009557954893772,0.011987633963034261,0.03861476353282933,-0.08165946449207531,-0.07918784948449895,0.038329425100512175,0.9328610524823812,-0.20299258656237637,0.17393767051216497,0.24147453973241542
1265.733333332511,-0.026788255,-0.9603997,-0.08487087,-1.8391403,0.5508245,1.1568741,0.5697762,0.039999846,0.04,-0.03970778009039222,0.011926072656831543,0.038694020773599735,-0.08012377889268563,-0.07786525471686312,0.03740645979375426,0.9325412882820143,-0.20371831906640672,0.17437956212760367,0.24177956993564198
1265.7499999991776,-0.02684798,-0.9607929,-0.08505934,-1.8379908,0.5520474,1.1559542,0.5692958,0.03999984,0.04,-0.03924082105015714,0.01198406332829638,0.0388129085137523,-0.07858427791008459,-0.07653961679199786,0.03649281763349937,0.9322272959836602,-0.20443002146521708,0.1748125275216652,0.24207687863199773
1265.7666666658442,-0.026906466,-0.96117795,-0.08524385,-1.8368654,0.5532448,1.1550536,0.5688255,0.039999835,0.04,-0.03963962399642362,0.011733489899540261,0.039284159629382476,-0.07704288502935977,-0.07521100392333856,0.03558961311600193,0.9319191184559051,-0.20512770271929048,0.17523636139962637,0.24236666412049046
1265.783333332511,-0.026963709,-0.96155494,-0.085424446,-1.8357642,0.5544168,1.1541721,0.5683651,0.039999835,0.04,-0.039346860448619125,0.01182967602250673,0.039225239849727256,-0.07549992158563021,-0.07388253935513805,0.0346974962173543,0.9316168024278665,-0.2058113392367282,0.1756511244848223,0.2426489409473683
1265.7999999991775,-0.027019713,-0.96192354,-0.08560116,-1.8346863,0.5555633,1.1533095,0.56791455,0.039999835,0.04,-0.0384823565969139,0.011854865186311514,0.03948890797216276,-0.07395550923132417,-0.07255362527040961,0.033815673669120895,0.9313203560805755,-0.2064809749765769,0.1760569501404624,0.2429237568248752
1265.8166666658442,-0.027074477,-0.96228415,-0.085773945,-1.8336325,0.55668455,1.152466,0.5674741,0.03999983,0.04,-0.03881910808800626,0.011557248438365253,0.039589853689747656,-0.07240986150721099,-0.07122440536681612,0.03294497978529119,0.9310298171147283,-0.20713644590294994,0.17645378126800404,0.24319135572267642
1265.8333333325108,-0.027128004,-0.9626369,-0.08594284,-1.8326023,0.5577807,1.1516416,0.5670434,0.03999983,0.04,-0.03806761256179847,0.011544305533917054,0.03918941186614733,-0.07086436426828333,-0.06989594792779134,0.03208273218700389,0.9307451440243649,-0.2077779907821064,0.17684184077955045,0.24345173396654063
1265.8499999991775,-0.027180307,-0.9629813,-0.08610787,-1.8315955,0.5588516,1.150836,0.56662273,0.03999983,0.04,-0.03810056390025629,0.01161200623536196,0.039989420651265206,-0.06931962590459066,-0.06856690374853677,0.03123279562242074,0.9304664589721916,-0.20840536420823666,0.17722087296523997,0.2437050165310953
1265.8666666658441,-0.027231392,-0.9633178,-0.086269066,-1.8306128,0.5598975,1.1500492,0.5662119,0.03999983,0.04,-0.038228985814159344,0.011467852679869495,0.03972167935533122,-0.06777710195035946,-0.06723971150965316,0.030393663195820566,0.9301937467678845,-0.20901864850974144,0.17759091394470278,0.24395135853971198
1265.8833333325108,-0.027281245,-0.96364623,-0.08642642,-1.8296531,0.5609184,1.149281,0.56581074,0.03999983,0.04,-0.03723295748194744,0.011421327687810567,0.039619703234683445,-0.06623566743721347,-0.06591580318718845,0.02956407045434574,0.9299269979868584,-0.20961795817240847,0.17795214295158376,0.24419075503736615
1265.8999999991775,-0.027329888,-0.9639666,-0.08657991,-1.8287166,0.56191444,1.1485314,0.5654194,0.03999983,0.04,-0.03701944220408926,0.011274289243290436,0.03969519400991439,-0.06469670631032165,-0.06459425828730947,0.028746142260117343,0.9296662353576222,-0.21020325968865045,0.1783045842354301,0.24442331249879273
