rsonawane2002/My_IMU/logs_2/traj_365/imu_365.csv
time,j1,j2,j3,j4,j5,j6,j7,gripper1,gripper2,imu_ax,imu_ay,imu_az,imu_gx,imu_gy,imu_gz
1260.7333333325155,0.00016700293,-0.785875,4.0107683e-05,-2.3551247,9.29385e-05,1.570997,0.786,0.04,0.04,-9.489094,0.050797343254089355,0.10769246,3.463722e-07,-0.0011641276068985462,1.1473101e-07
1260.7499999991821,0.00016700536,-0.78576016,4.0113093e-05,-2.3552213,9.298401e-05,1.5709941,0.786,0.04,0.04,-9.834526,0.0006439567659981549,0.009059223,-2.7308354e-07,-0.0022386338096112013,1.6312744e-06
1260.7666666658488,0.00016700468,-0.7856543,4.0107465e-05,-2.35531,9.309545e-05,1.5709913,0.786,0.04,0.04,-9.832481,0.0006410200148820877,0.0075711193,-1.3255565e-06,-0.0032299505546689034,6.4676883e-06
1260.7833333325154,0.0001669958,-0.78555703,4.0073515e-05,-2.355391,9.338559e-05,1.5709884,0.786,0.04,0.04,-9.831043,0.0006512445397675037,0.006108805,-3.806327e-06,-0.004146558698266745,1.84809e-05
1260.799999999182,0.0001669711,-0.78546757,3.998651e-05,-2.3554645,9.4016206e-05,1.5709856,0.786,0.04,0.04,-9.829465,0.0006715102354064584,0.004858505,-8.916577e-06,-0.00499364361166954,4.0785297e-05
1260.8166666658487,0.00016692074,-0.7853855,3.9814713e-05,-2.3555312,9.520437e-05,1.5709827,0.786,0.04,0.039999995,-9.828346,0.0007071748259477317,0.0035848916,-1.735453e-05,-0.005777258891612291,7.69357e-05
1260.8333333325154,0.00016683318,-0.78531027,3.9520884e-05,-2.3555903,9.7173e-05,1.5709797,0.786,0.04,0.04,-9.827148,0.0007345666526816785,0.002478635,-3.0129479e-05,-0.006502761505544186,0.00012712977
1260.849999999182,0.00016669472,-0.78524137,3.90617e-05,-2.355646,0.00010022334,1.5709765,0.7859981,0.04,0.039999995,-9.826293,0.0007926528342068195,0.001365927,-4.829606e-05,-0.007173255551606417,0.00019674956
1260.8666666658487,0.00016649038,-0.7851785,3.8389506e-05,-2.355696,0.00010464584,1.5709726,0.7859962,0.04,0.04,-9.825819,0.0008478692034259439,0.00039236294,-6.3620944e-05,-0.007810691837221384,0.0002846735
1260.8833333325153,0.00016620358,-0.78512126,3.7451937e-05,-2.3557389,0.00011078696,1.5709659,0.7859943,0.04,0.04,-9.825456,0.0009356541559100151,-0.0005982267,-8.600207e-05,-0.008410888724029064,0.00039445623
1260.899999999182,0.00016581654,-0.7850695,3.6193054e-05,-2.355775,0.00011901505,1.5709589,0.7859905,0.04,0.04,-9.824822,0.001037693815305829,-0.0014134774,-0.000116310555,-0.008979697711765766,0.00052796124
1260.9166666658487,0.00016531024,-0.78502285,3.4553243e-05,-2.3558066,0.00012971985,1.5709484,0.78598666,0.04,0.04,-9.824538,0.0011773849837481976,-0.0022919693,-0.00014696013,-0.009510967880487442,0.0006870195
1260.9333333325153,0.00016466505,-0.7849811,3.2470245e-05,-2.3558333,0.00014330253,1.5709375,0.78598094,0.04,0.04,-9.824403,0.0013313585659489036,-0.002996388,-0.00018766326,-0.010028494521975517,0.00087116344
1260.949999999182,0.00016386024,-0.7849441,2.9879138e-05,-2.3558528,0.00016018366,1.5709232,0.7859743,0.039999995,0.039999995,-9.824608,0.00152592861559242,-0.0037897192,-0.00023058889,-0.010524412617087364,0.001082231
1260.9666666658486,0.0001628745,-0.78491163,2.671269e-05,-2.3558652,0.0001807955,1.5709076,0.7859667,0.03999999,0.039999995,-9.824345,0.0017473547486588359,-0.004395938,-0.00028111666,-0.010999858379364014,0.0013203268
1260.9833333325153,0.00016168568,-0.78488356,2.2901933e-05,-2.3558707,0.0002055919,1.5708886,0.78595716,0.039999988,0.03999999,-9.824298,0.002026146277785301,-0.005047188,-0.00033969205,-0.011449433863162994,0.0015878999
1260.999999999182,0.00016027132,-0.7848599,1.8376106e-05,-2.3558705,0.00023503142,1.5708661,0.7859457,0.039999988,0.03999999,-9.824534,0.0023481585085392,-0.005606927,-0.0004037734,-0.011886350810527802,0.0018847708
1261.0166666658486,0.0001586084,-0.78484035,1.3063113e-05,-2.3558633,0.00026958156,1.5708395,0.78593236,0.039999988,0.03999999,-9.824766,0.0027171773836016655,-0.0060522333,-0.00047358562,-0.012317545711994171,0.0022114913
1261.0333333325152,0.0001566736,-0.78482515,6.889778e-06,-2.3558488,0.00030971717,1.570809,0.7859166,0.039999984,0.039999988,-9.825159,0.0031494712457060814,-0.0065308884,-0.0005504592,-0.012741685844957829,0.0025685162
1261.0499999991819,0.00015444336,-0.78481406,-2.1774787e-07,-2.3558269,0.0003559179,1.570774,0.7858983,0.03999998,0.039999988,-9.825339,0.003629053244367242,-0.006881061,-0.0006329953,-0.01315737422555685,0.0029553242
1261.0666666658485,0.00015189382,-0.7848071,-8.33421e-06,-2.355797,0.000408669,1.5707337,0.7858774,0.039999973,0.03999998,-9.825853,0.004198373761028051,-0.0072389953,-0.0007217439,-0.013569873757660389,0.0033739042
1261.0833333325152,0.00014900103,-0.78480434,-1.7534798e-05,-2.3557591,0.00046845767,1.570688,0.78585386,0.039999966,0.039999973,-9.826121,0.004823016934096813,-0.0074718003,-0.00081671344,-0.01397974044084549,0.0038235884
1261.0999999991818,0.00014574091,-0.7848058,-2.7894825e-05,-2.3557124,0.00053577335,1.5706371,0.78582746,0.03999996,0.039999966,-9.82672,0.005535969045013189,-0.0077236127,-0.0009195617,-0.01438904833048582,0.004305352
1261.1166666658485,0.0001420893,-0.78481126,-3.948996e-05,-2.3556569,0.00061110494,1.5705799,0.78579783,0.039999954,0.03999996,-9.826984,0.006312916986644268,-0.007845048,-0.0010295248,-0.014794320799410343,0.0048166756
1261.1333333325151,0.00013802208,-0.7848208,-5.239583e-05,-2.3555925,0.0006949443,1.5705165,0.78576475,0.039999947,0.039999954,-9.82764,0.007200609426945448,-0.007988976,-0.0011463593,-0.015202241949737072,0.0053600995
1261.1499999991818,0.00013351513,-0.7848346,-6.6687666e-05,-2.3555183,0.0007877792,1.5704465,0.78572816,0.03999994,0.039999947,-9.828065,0.008167284540832043,-0.008009088,-0.0012693225,-0.015613451600074768,0.0059347027
1261.1666666658484,0.00012854458,-0.7848528,-8.244077e-05,-2.355434,0.0008900971,1.5703692,0.7856879,0.039999936,0.039999943,-9.828718,0.00924713909626007,-0.008016745,-0.0013998491,-0.01602563075721264,0.006540384
1261.183333332515,0.0001230865,-0.78487533,-9.972975e-05,-2.3553398,0.001002383,1.5702844,0.78564376,0.03999994,0.039999947,-9.829083,0.01041329000145197,-0.007880187,-0.0015377452,-0.016440460458397865,0.0071769524
1261.1999999991817,0.00011711716,-0.78490204,-0.00011862889,-2.3552346,0.0011251188,1.5701916,0.78559554,0.039999943,0.03999995,-9.829874,0.011707805097103119,-0.0077745975,-0.0016825813,-0.01686307229101658,0.007844211
1261.2166666658484,0.0001106131,-0.7849334,-0.00013921187,-2.3551183,0.0012587821,1.5700907,0.785543,0.03999994,0.039999947,-9.830288,0.01309836283326149,-0.0075250003,-0.0018347276,-0.017290377989411354,0.008541908
1261.233333332515,0.000103551014,-0.7849691,-0.00016155187,-2.354991,0.0014038458,1.5699815,0.785486,0.03999994,0.03999995,-9.830834,0.01460890844464302,-0.0072325957,-0.001994022,-0.0177218709141016,0.009268894
1261.2499999991817,9.5907744e-05,-0.7850095,-0.000185721,-2.3548512,0.0015607793,1.5698633,0.78542435,0.039999943,0.039999954,-9.831654,0.016272425651550293,-0.006949344,-0.0021603415,-0.018160924315452576,0.010026585
1261.2666666658483,8.766052e-05,-0.7850545,-0.00021179084,-2.3546991,0.001730046,1.5697359,0.78535783,0.039999947,0.039999958,-9.832027,0.01803329773247242,-0.0064688725,-0.0023343451,-0.018604740500450134,0.010813763
1261.283333332515,7.878681e-05,-0.78510433,-0.00023983205,-2.3545358,0.0019121041,1.5695988,0.78528637,0.039999947,0.039999958,-9.832742,0.019954677671194077,-0.006021558,-0.0025151053,-0.01905415952205658,0.011630063
1261.2999999991816,6.926445e-05,-0.785159,-0.00026991428,-2.3543582,0.0021074049,1.569452,0.7852096,0.039999954,0.039999966,-9.8334,0.021991636604070663,-0.005398282,-0.0027036087,-0.01951872743666172,0.012475083
1261.3166666658483,5.907138e-05,-0.78521866,-0.00030210623,-2.3541675,0.0023163932,1.5692948,0.7851275,0.039999954,0.039999966,-9.833959,0.024201087653636932,-0.004815055,-0.002898912,-0.019982878118753433,0.013348383
1261.333333332515,4.8186124e-05,-0.7852834,-0.00033647555,-2.3539631,0.002539509,1.569127,0.78503996,0.039999954,0.039999966,-9.834429,0.026534181088209152,-0.0040317755,-0.003101745,-0.020456895232200623,0.014249558
1261.3499999991816,3.6587346e-05,-0.7853531,-0.00037308905,-2.3537447,0.0027771832,1.5689483,0.7849467,0.03999996,0.039999977,-9.835234,0.029040496796369553,-0.0032681162,-0.0033122739,-0.020940696820616722,0.015177267
1261.3666666658482,2.4254226e-05,-0.78542817,-0.000412012,-2.3535123,0.0030298415,1.5687582,0.7848475,0.03999997,0.039999984,-9.835638,0.031694721430540085,-0.0023452798,-0.0035301894,-0.021432342007756233,0.016132765
1261.383333332515,1.1166173e-05,-0.7855085,-0.00045330898,-2.3532653,0.0032979003,1.5685568,0.78474224,0.03999997,0.039999984,-9.836478,0.034536056220531464,-0.0014254963,-0.0037554072,-0.02193544991314411,0.017114671
1261.3999999991815,-2.6969685e-06,-0.78559434,-0.00049704313,-2.3530028,0.0035817688,1.5683435,0.78463084,0.039999966,0.03999998,-9.836903,0.03751218318939209,-0.00032970216,-0.0039878218,-0.022448072209954262,0.018122526
1261.4166666658482,-1.735492e-05,-0.7856856,-0.000543276,-2.3527246,0.0038818496,1.5681179,0.7845131,0.039999966,0.03999998,-9.837595,0.04069581255316734,0.00075240526,-0.0042279516,-0.02296655811369419,0.019155795
1261.4333333325148,-3.2827058e-05,-0.78578246,-0.00059206894,-2.35243,0.004198535,1.5678797,0.7843888,0.039999966,0.039999984,-9.837961,0.044021692126989365,0.0020393068,-0.004475764,-0.02349548228085041,0.020213071
1261.4499999991815,-4.913238e-05,-0.7858851,-0.00064348127,-2.3521197,0.0045322124,1.5676284,0.7842579,0.03999996,0.03999998,-9.838668,0.04756902903318405,0.0032915678,-0.0047309063,-0.024031106382608414,0.021295559
1261.4666666658482,-6.6289496e-05,-0.78599346,-0.0006975711,-2.3517928,0.004883258,1.5673643,0.7841201,0.039999966,0.039999984,-9.8390465,0.05127231404185295,0.0047843615,-0.004994206,-0.024579429998993874,0.02240185
1261.4833333325148,-8.431646e-05,-0.7861077,-0.00075439556,-2.3514493,0.005252041,1.5670869,0.7839753,0.039999966,0.039999984,-9.83957,0.055174704641103745,0.006259557,-0.0052644974,-0.02513478882610798,0.023531402
1261.4999999991815,-0.00010323112,-0.78622794,-0.00081401056,-2.3510885,0.0056389244,1.5667962,0.7838235,0.039999966,0.039999984,-9.840357,0.0592937171459198,0.0077928975,-0.0055426187,-0.025701703503727913,0.024683617
1261.516666665848,-0.00012305069,-0.78635424,-0.00087647,-2.35071,0.0060442574,1.5664912,0.78366435,0.039999966,0.039999988,-9.840637,0.06356573104858398,0.009543548,-0.0058290428,-0.02627645805478096,0.025857095
1261.5333333325148,-0.00014379228,-0.78648686,-0.00094182696,-2.3503141,0.0064683845,1.5661725,0.78349787,0.039999966,0.039999988,-9.8413,0.06810032576322556,0.011274661,-0.00612279,-0.026859575882554054,0.027052997
1261.5499999991814,-0.00016547205,-0.78662586,-0.0010101333,-2.3498995,0.00691164,1.5658392,0.7833238,0.039999966,0.039999988,-9.841597,0.07277485728263855,0.01323671,-0.0064244764,-0.027452144771814346,0.028268905
1261.566666665848,-0.0001881064,-0.7867711,-0.0010814394,-2.349467,0.0073743574,1.5654914,0.78314215,0.039999966,0.04,-9.842216,0.07771461457014084,0.015170384,-0.006734335,-0.028051523491740227,0.029504538
1261.5833333325147,-0.00021171072,-0.78692275,-0.0011557945,-2.3490155,0.007856844,1.5651288,0.7829528,0.03999997,0.04,-9.842486,0.08282504975795746,0.017323498,-0.0070522083,-0.028661511838436127,0.03076073
1261.5999999991814,-0.00023630039,-0.787081,-0.0012332463,-2.3485456,0.008359426,1.5647507,0.7827555,0.03999997,0.04,-9.8431425,0.08821068704128265,0.019456487,-0.0073784464,-0.029279839247465134,0.03203781
1261.616666665848,-0.0002618898,-0.78724587,-0.0013138405,-2.3480558,0.008882386,1.5643576,0.7825502,0.03999997,0.04,-9.84336,0.093741774559021,0.02185114,-0.0077130725,-0.029910042881965637,0.03333178
1261.6333333325147,-0.0002884935,-0.7874174,-0.0013976229,-2.3475473,0.009426018,1.5639491,0.78233683,0.03999997,0.04,-9.843942,0.09955913573503494,0.024173466,-0.008056036,-0.030545217916369438,0.034643836
1261.6499999991813,-0.00031612563,-0.7875958,-0.0014846362,-2.3470185,0.009990615,1.5635247,0.78211516,0.03999997,0.04,-9.8441305,0.1055651307106018,0.026780741,-0.008407469,-0.031191077083349228,0.035974998
1261.666666665848,-0.00034479934,-0.78778106,-0.0015749238,-2.3464696,0.010576445,1.5630842,0.7818852,0.03999997,0.04,-9.844677,0.11183109134435654,0.029346295,-0.008767293,-0.03184320777654648,0.037322134
1261.6833333325146,-0.00037452782,-0.78797317,-0.0016685256,-2.3459008,0.011183776,1.5626277,0.7816469,0.039999966,0.04,-9.844731,0.11828476190567017,0.032183573,-0.009135886,-0.032503917813301086,0.03868551
1261.6999999991813,-0.0004053234,-0.7881723,-0.0017654815,-2.3453114,0.011812845,1.5621548,0.7813999,0.03999996,0.04,-9.84537,0.12502135336399078,0.034958236,-0.009514101,-0.033174626529216766,0.040062893
1261.716666665848,-0.0004371984,-0.78837854,-0.0018658297,-2.344701,0.012463907,1.5616654,0.7811444,0.039999958,0.04,-9.845386,0.13195344805717468,0.03802578,-0.009900349,-0.033852916210889816,0.0414562
1261.7333333325146,-0.00047016444,-0.7885919,-0.0019696075,-2.3440695,0.013137203,1.5611593,0.78088015,0.039999958,0.04,-9.845604,0.13914325833320618,0.04111711,-0.0102959685,-0.03453679382801056,0.042864043
1261.7499999991812,-0.000504233,-0.78881246,-0.0020768496,-2.3434172,0.013832963,1.5606363,0.7806071,0.039999966,0.04,-9.846121,0.14661294221878052,0.044255756,-0.010701037,-0.03522900491952896,0.044285733
1261.7666666658479,-0.0005394152,-0.7890404,-0.002187591,-2.3427436,0.014551446,1.5600961,0.7803251,0.039999966,0.04,-9.84608,0.15428593754768372,0.047671482,-0.011115388,-0.035929273813962936,0.04572397
1261.7833333325145,-0.0005757215,-0.7892759,-0.0023018646,-2.3420486,0.01529284,1.5595387,0.78003407,0.03999996,0.04,-9.846571,0.16223923861980438,0.051053543,-0.011538999,-0.03663778305053711,0.047173306
1261.7999999991812,-0.0006131611,-0.7895185,-0.0024197008,-2.3413317,0.016057335,1.5589641,0.7797341,0.03999996,0.04,-9.846473,0.17036667466163635,0.05475104,-0.0119719375,-0.0373537540435791,0.048631843
1261.8166666658478,-0.00065174396,-0.7897686,-0.0025411313,-2.340593,0.016845113,1.558372,0.77942485,0.03999996,0.04,-9.846879,0.17883534729480743,0.05833216,-0.012415094,-0.03807642310857773,0.0501021
1261.8333333325145,-0.00069147995,-0.79002625,-0.0026661842,-2.3398323,0.01765641,1.5577621,0.7791064,0.039999966,0.04,-9.846732,0.18751627206802368,0.06225843,-0.012867991,-0.03880628943443298,0.05158762
1261.8499999991811,-0.00073237706,-0.7902914,-0.0027948874,-2.3390493,0.018491354,1.5571346,0.7787787,0.03999996,0.04,-9.847081,0.19645804166793823,0.06613572,-0.013330349,-0.03954261168837547,0.05307798
1261.8666666658478,-0.0007744436,-0.79056424,-0.0029272663,-2.338244,0.019350132,1.556489,0.77844155,0.039999966,0.04,-9.846877,0.20563499629497528,0.07031022,-0.013803117,-0.040286462754011154,0.05458087
1261.8833333325144,-0.0008176882,-0.79084474,-0.003063347,-2.3374155,0.020232936,1.5558251,0.778095,0.039999958,0.04,-9.847205,0.21513865888118744,0.074443534,-0.014286016,-0.041037965565919876,0.05609361
1261.899999999181,-0.0008621178,-0.7911329,-0.0032031524,-2.3365643,0.02113988,1.5551434,0.77773905,0.03999996,0.04,-9.846836,0.2248038798570633,0.07889502,-0.014779356,-0.04179367423057556,0.05761323
1261.9166666658477,-0.0009077396,-0.791429,-0.0033467056,-2.3356903,0.022071125,1.5544435,0.7773738,0.03999996,0.04,-9.847083,0.23482729494571686,0.083273016,-0.015283225,-0.04255420342087746,0.059141632
1261.9333333325144,-0.0009545604,-0.7917328,-0.0034940268,-2.3347929,0.023026817,1.5537251,0.7769987,0.03999996,0.04,-9.84669,0.24502421915531158,0.08800314,-0.015799016,-0.04331902414560318,0.06067744
1261.949999999181,-0.0010025867,-0.7920446,-0.003645136,-2.3338723,0.024007067,1.5529877,0.77661395,0.039999954,0.04,-9.846852,0.2555760145187378,0.09266445,-0.016324269,-0.04408927261829376,0.06222021
1261.9666666658477,-0.0010518238,-0.79236424,-0.0038000522,-2.3329294,0.025011992,1.5522324,0.7762195,0.039999973,0.04,-9.846427,0.26630109548568726,0.09768786,-0.016860563,-0.04486788809299469,0.06376909
1261.9833333325143,-0.0011022778,-0.7926918,-0.003958794,-2.331963,0.026041728,1.5514581,0.7758153,0.039999966,0.04,-9.846312,0.2773326635360718,0.10270485,-0.017407808,-0.04565143585205078,0.06532336
1261.999999999181,-0.0011539537,-0.79302734,-0.0041213743,-2.3309736,0.027096357,1.5506654,0.7754013,0.039999973,0.04,-9.846402,0.2886950373649597,0.10778199,-0.017966436,-0.046441450715065,0.06688355
1262.0166666658477,-0.0012068558,-0.79337066,-0.0042878115,-2.3299608,0.028175993,1.5498539,0.7749775,0.039999977,0.04,-9.845887,0.30020570755004883,0.11319241,-0.01853588,-0.0472373329102993,0.068447426
1262.0333333325143,-0.001260989,-0.7937222,-0.004458117,-2.3289247,0.029280715,1.5490237,0.7745439,0.039999977,0.04,-9.845936,0.3121020197868347,0.118514165,-0.01911737,-0.048039741814136505,0.07001527
1262.049999999181,-0.0013163566,-0.7940817,-0.0046323035,-2.3278642,0.030410612,1.5481745,0.77410036,0.039999977,0.04,-9.845286,0.3241482079029083,0.12423143,-0.019710245,-0.04884519800543785,0.07158642
1262.0666666658476,-0.0013729623,-0.7944492,-0.004810383,-2.32678,0.031565752,1.5473063,0.77364695,0.03999997,0.04,-9.845142,0.3365750312805176,0.12986334,-0.020314835,-0.04965329170227051,0.07316023
1262.0833333325143,-0.0014308091,-0.79482484,-0.004992363,-2.3256721,0.03274619,1.5464191,0.77318364,0.039999973,0.04,-9.844422,0.34916096925735474,0.1358592,-0.02093144,-0.050466280430555344,0.07473638
1262.099999999181,-0.0014899005,-0.7952085,-0.005178255,-2.3245404,0.033951975,1.5455124,0.7727103,0.03999998,0.04,-9.844272,0.36213335394859314,0.14178427,-0.021560138,-0.05128338560461998,0.076314144
1262.1166666658476,-0.0015502383,-0.7956004,-0.0053680674,-2.323385,0.035183184,1.5445867,0.77222705,0.039999984,0.04,-9.843486,0.3752496838569641,0.1480895,-0.02220071,-0.0521073155105114,0.07789304
1262.1333333325142,-0.0016118247,-0.7960004,-0.0055618053,-2.322206,0.03643985,1.543642,0.7717337,0.03999998,0.04,-9.843236,0.38876375555992126,0.15431121,-0.022853734,-0.05293537676334381,0.079472385
1262.1499999991809,-0.0016746612,-0.79640853,-0.0057594744,-2.3210025,0.03772199,1.5426784,0.77123046,0.039999984,0.04,-9.842355,0.40242382884025574,0.16089782,-0.023518821,-0.05376655235886574,0.081052616
1262.1666666658475,-0.001738749,-0.79682463,-0.005961078,-2.3197753,0.03902965,1.5416957,0.77071726,0.039999988,0.04,-9.841949,0.4164688289165497,0.16740747,-0.024196597,-0.05459943413734436,0.08263146
1262.1833333325142,-0.0018040898,-0.797249,-0.0061666197,-2.3185244,0.040362846,1.5406936,0.7701939,0.04,0.04,-9.840968,0.43064725399017334,0.17429894,-0.024887625,-0.055435847491025925,0.08420757
1262.1999999991808,-0.0018706834,-0.7976816,-0.0063761007,-2.3172495,0.041721582,1.5396721,0.76966053,0.04,0.04,-9.840563,0.44524121284484863,0.18113159,-0.025590293,-0.056277692317962646,0.08578363
1262.2166666658475,-0.0019385305,-0.7981223,-0.006589523,-2.3159502,0.043105878,1.5386314,0.7691172,0.04,0.04,-9.8394375,0.4599607586860657,0.18834777,-0.026306216,-0.05712289363145828,0.08735761
1262.2333333325141,-0.0020076304,-0.7985711,-0.0068068863,-2.314627,0.044515725,1.5375717,0.7685638,0.04,0.04,-9.838526,0.47500964999198914,0.19558765,-0.027035093,-0.05796986445784569,0.08892872
1262.2499999991808,-0.002077983,-0.7990281,-0.007028188,-2.31328,0.04595111,1.5364927,0.76800036,0.04,0.04,-9.837922,0.49040189385414124,0.20287712,-0.027777016,-0.05881904065608978,0.09049669
1262.2666666658474,-0.0021495868,-0.79949313,-0.0072534275,-2.3119092,0.04741202,1.5353945,0.7674269,0.04,0.04,-9.836657,0.5059083104133606,0.21055946,-0.028531713,-0.05967132747173309,0.09206078
1262.283333332514,-0.0022224418,-0.7999664,-0.0074826004,-2.3105133,0.04889841,1.5342773,0.76684344,0.04,0.04,-9.835935,0.5218281745910645,0.21814124,-0.029299824,-0.06052675470709801,0.09362063
1262.2999999991807,-0.002296546,-0.8004478,-0.007715701,-2.3090942,0.050410282,1.5331407,0.76625,0.04,0.04,-9.834383,0.5378524661064148,0.22616449,-0.03008073,-0.06137877330183983,0.09517639
1262.3166666658474,-0.0023718977,-0.8009375,-0.007952724,-2.3076515,0.051947583,1.5319849,0.7656465,0.04,0.04,-9.833611,0.5542903542518616,0.23410235,-0.030875333,-0.06223665550351143,0.09672603
1262.333333332514,-0.0024484943,-0.801435,-0.008193661,-2.3061845,0.05351027,1.5308102,0.7650331,0.04,0.04,-9.832139,0.5708342790603638,0.2424338,-0.03168308,-0.06309833377599716,0.09826976
1262.3499999991807,-0.0025263336,-0.8019408,-0.008438506,-2.3046937,0.0550983,1.5296166,0.7644098,0.04,0.04,-9.83106,0.5877900123596191,0.250655,-0.032504365,-0.06395809352397919,0.09980715
1262.3666666658473,-0.0026054124,-0.8024546,-0.008687255,-2.3031793,0.056711607,1.528404,0.7637765,0.04,0.04,-9.829394,0.604840099811554,0.25933418,-0.03333909,-0.06481882929801941,0.10133765
1262.383333332514,-0.0026857269,-0.8029763,-0.008939894,-2.3016417,0.05835012,1.5271724,0.76313335,0.04,0.04,-9.82828,0.6223183274269104,0.26789656,-0.034187093,-0.06568093597888947,0.1028608
1262.3999999991806,-0.0027672744,-0.8035062,-0.009196408,-2.3000805,0.06001378,1.5259218,0.7624803,0.04,0.04,-9.826559,0.6398731470108032,0.27688506,-0.035049014,-0.06654740124940872,0.104376696
1262.4166666658473,-0.002850051,-0.804044,-0.00945679,-2.298495,0.06170251,1.5246522,0.7618174,0.04,0.04,-9.825266,0.6578342318534851,0.28579202,-0.035924595,-0.06741425395011902,0.10588201
1262.433333332514,-0.0029340535,-0.80458975,-0.009721028,-2.2968864,0.06341624,1.5233641,0.7611447,0.04,0.04,-9.823255,0.6758877635002136,0.29511693,-0.036813315,-0.06827998161315918,0.10738133
1262.4499999991806,-0.003019276,-0.8051434,-0.009989103,-2.2952547,0.065154836,1.5220572,0.7604623,0.04,0.04,-9.821861,0.6943491101264954,0.3043495,-0.037716042,-0.06914671510457993,0.10886897
1262.4666666658472,-0.0031057138,-0.80570495,-0.0102610085,-2.2935991,0.06691825,1.5207316,0.7597701,0.04,0.04,-9.819793,0.7128798961639404,0.314016,-0.03863242,-0.07001476734876633,0.110348396
1262.483333332514,-0.0031933635,-0.80627453,-0.010536723,-2.2919207,0.06870638,1.5193875,0.75906825,0.04,0.04,-9.817848,0.7317298650741577,0.32372963,-0.039562345,-0.07088058441877365,0.11181669
1262.4999999991805,-0.003282219,-0.806852,-0.010816229,-2.2902195,0.0705191,1.518025,0.75835687,0.04,0.04,-9.816182,0.7509379982948303,0.33348635,-0.04050589,-0.07174583524465561,0.113274716
1262.5166666658472,-0.0033722734,-0.8074372,-0.011099513,-2.2884948,0.072356276,1.5166441,0.75763565,0.04,0.04,-9.813917,0.7701428532600403,0.3436712,-0.041463796,-0.07261275500059128,0.114717126
1262.5333333325138,-0.0034635223,-0.8080301,-0.011386551,-2.2867472,0.074217804,1.5152451,0.75690436,0.04,0.04,-9.812031,0.7898381948471069,0.35375428,-0.042434018,-0.07347770780324936,0.116152115
1262.5499999991805,-0.0035559586,-0.80863094,-0.011677329,-2.284977,0.076103576,1.5138276,0.7561642,0.04,0.04,-9.809493,0.8095137476921082,0.36429334,-0.043415207,-0.07433959096670151,0.1175743
1262.5666666658472,-0.003649576,-0.80923945,-0.011971825,-2.2831843,0.07801345,1.5123919,0.7554147,0.04,0.04,-9.80749,0.8296402096748352,0.37475097,-0.044412892,-0.07520207017660141,0.11898363
1262.5833333325138,-0.0037443682,-0.80985564,-0.012270017,-2.2813692,0.07994727,1.5109375,0.7546557,0.04,0.04,-9.804838,0.8497607707977295,0.3856358,-0.045424946,-0.0760633647441864,0.12037836
1262.5999999991805,-0.0038403273,-0.8104794,-0.012571881,-2.2795317,0.08190489,1.5094663,0.75388724,0.04,0.04,-9.802661,0.8703420758247375,0.39644605,-0.046449874,-0.07692765444517136,0.12175936
1262.616666665847,-0.003937446,-0.81111056,-0.012877399,-2.277672,0.08388623,1.5079769,0.7531093,0.04,0.04,-9.799789,0.8909226059913635,0.40765053,-0.04748718,-0.07778462767601013,0.123130344
1262.6333333325138,-0.0040357173,-0.8117491,-0.013186545,-2.2757905,0.085891075,1.5064688,0.75232226,0.04,0.04,-9.79745,0.9119195342063904,0.41879523,-0.048536953,-0.07864374667406082,0.12448339
1262.6499999991804,-0.004135133,-0.8123951,-0.013499297,-2.2738864,0.08791928,1.5049443,0.751526,0.04,0.04,-9.794437,0.9329016804695129,0.43039837,-0.049601093,-0.0795058012008667,0.12582292
1262.666666665847,-0.0042356853,-0.8130484,-0.013815624,-2.2719605,0.08997068,1.5034021,0.7507207,0.04,0.04,-9.791767,0.9543178081512451,0.44187203,-0.05067716,-0.08035759627819061,0.12714513
1262.6833333325137,-0.0043373657,-0.8137093,-0.0141355,-2.2700129,0.09204511,1.5018426,0.74990654,0.04,0.04,-9.788533,0.9757059812545776,0.45382723,-0.051766783,-0.08120821416378021,0.12845294
1262.6999999991804,-0.0044401637,-0.8143775,-0.014458905,-2.268044,0.09414238,1.5002662,0.7490834,0.04,0.04,-9.785712,0.9975285530090332,0.46571302,-0.052869588,-0.08205398917198181,0.12974395
1262.716666665847,-0.004544071,-0.81505305,-0.014785803,-2.2660542,0.096262276,1.4986724,0.74825126,0.04,0.04,-9.782306,1.0192965269088745,0.47803158,-0.05398511,-0.08289699256420135,0.13101809
1262.7333333325137,-0.00464908,-0.8157355,-0.015116172,-2.264043,0.09840468,1.4970616,0.7474102,0.04,0.04,-9.77911,1.041406273841858,0.4904175,-0.055112813,-0.08374040573835373,0.13227697
1262.7499999991803,-0.0047551827,-0.8164251,-0.015449979,-2.2620113,0.10056937,1.4954343,0.7465606,0.04,0.04,-9.775973,1.0638002157211304,0.50280577,-0.05625243,-0.08457992225885391,0.13351661
1262.766666665847,-0.0048623653,-0.81712186,-0.015787194,-2.2599587,0.102756165,1.4937904,0.74570215,0.04,0.04,-9.772251,1.0861295461654663,0.515673,-0.05740517,-0.0854155570268631,0.1347393
1262.7833333325136,-0.004970622,-0.81782573,-0.016127784,-2.2578852,0.10496486,1.49213,0.74483514,0.04,0.04,-9.768942,1.108912706375122,0.5284474,-0.05856926,-0.08624737709760666,0.13594437
1262.7999999991803,-0.0050799404,-0.8185363,-0.016471721,-2.2557912,0.1071952,1.4904535,0.74395967,0.04,0.04,-9.76489,1.1315454244613647,0.5416964,-0.059744723,-0.08707103133201599,0.13712804
1262.816666665847,-0.0051903105,-0.8192539,-0.016818969,-2.2536776,0.10944706,1.4887604,0.74307567,0.04,0.04,-9.761379,1.1547071933746338,0.55482984,-0.0609323,-0.08789245784282684,0.13829738
1262.8333333325136,-0.00530172,-0.81997806,-0.017169498,-2.2515433,0.1117202,1.4870516,0.7421834,0.04,0.04,-9.757267,1.1776834726333618,0.5684638,-0.06213113,-0.0887116864323616,0.1394447
1262.8499999991802,-0.0054141614,-0.8207091,-0.017523281,-2.2493894,0.114014335,1.485327,0.74128276,0.04,0.04,-9.753378,1.2011115550994873,0.5819525,-0.0633407,-0.08952181786298752,0.14057097
1262.8666666658469,-0.00552762,-0.8214466,-0.017880268,-2.2472162,0.1163293,1.4835865,0.740374,0.04,0.04,-9.749033,1.2244324684143066,0.59595287,-0.06456135,-0.0903284102678299,0.14167869
1262.8833333325135,-0.005642088,-0.82219106,-0.018240437,-2.2450237,0.11866487,1.4818306,0.73945725,0.04,0.04,-9.745038,1.248192548751831,0.6098273,-0.06579304,-0.09113189578056335,0.14276671
1262.8999999991802,-0.0057575507,-0.82294184,-0.018603742,-2.2428124,0.12102079,1.4800596,0.73853236,0.04,0.04,-9.740369,1.2717828750610352,0.6242172,-0.06703511,-0.09192724525928497,0.14383338
1262.9166666658468,-0.005873998,-0.82369924,-0.018970147,-2.2405815,0.123396814,1.4782733,0.7375997,0.04,0.04,-9.736163,1.2958226203918457,0.6384581,-0.06828709,-0.09271854907274246,0.14487794
1262.9333333325135,-0.0059914184,-0.8244629,-0.019339623,-2.2383323,0.12579273,1.4764719,0.7366592,0.04,0.04,-9.731241,1.3196773529052734,0.65320563,-0.06954934,-0.09350138902664185,0.1459004
1262.9499999991801,-0.0061097997,-0.8252327,-0.019712118,-2.236065,0.12820828,1.474656,0.73571104,0.04,0.04,-9.726731,1.3440057039260864,0.66784304,-0.07082133,-0.09427895396947861,0.14690346
1262.9666666658468,-0.006229128,-0.8260087,-0.02008761,-2.2337794,0.13064323,1.4728255,0.73475534,0.04,0.04,-9.721722,1.36812162399292,0.6829322,-0.072102875,-0.09505243599414825,0.14788362
1262.9833333325134,-0.0063493922,-0.8267909,-0.02046605,-2.2314756,0.13309729,1.4709803,0.733792,0.04,0.04,-9.716722,1.392522931098938,0.69807106,-0.073393874,-0.09581808000802994,0.14884204
1262.99999999918,-0.00647058,-0.8275792,-0.0208474,-2.2291539,0.13557021,1.4691211,0.73282135,0.04,0.04,-9.7117815,1.4171885251998901,0.7133054,-0.07469288,-0.09657743573188782,0.14977714
1263.0166666658467,-0.0065926784,-0.82837343,-0.021231623,-2.2268145,0.13806175,1.4672477,0.7318434,0.04,0.04,-9.7062845,1.4416371583938599,0.72896636,-0.076000534,-0.09732656180858612,0.15068936
1263.0333333325134,-0.006715671,-0.8291736,-0.021618672,-2.224458,0.14057162,1.465361,0.73085827,0.04,0.04,-9.701097,1.4665273427963257,0.7445554,-0.07731653,-0.09806804358959198,0.15157932
1263.04999999918,-0.0068395473,-0.82997954,-0.02200851,-2.2220852,0.14309958,1.4634604,0.7298659,0.04,0.04,-9.695422,1.4911730289459229,0.7605967,-0.07864007,-0.09880078583955765,0.15244474
1263.0666666658467,-0.006964294,-0.83079123,-0.022401096,-2.2196956,0.14564534,1.4615465,0.7288665,0.04,0.04,-9.690083,1.516271948814392,0.776557,-0.07997086,-0.09952974319458008,0.15328646
1263.0833333325133,-0.0070898975,-0.83160824,-0.022796385,-2.217289,0.14820862,1.4596198,0.7278602,0.04,0.04,-9.684083,1.5410860776901245,0.79297984,-0.081308365,-0.10024798661470413,0.15410471
1263.09999999918,-0.007216343,-0.8324311,-0.023194324,-2.2148662,0.15078908,1.4576796,0.7268472,0.04,0.04,-9.678341,1.56633460521698,0.8092935,-0.082652174,-0.10095616430044174,0.15489823
1263.1166666658467,-0.0073436173,-0.8332591,-0.02359488,-2.2124276,0.15338652,1.4557269,0.7258275,0.04,0.04,-9.672148,1.591302514076233,0.82613,-0.084002376,-0.10165656358003616,0.15566748
1263.1333333325133,-0.007471707,-0.8340927,-0.023998009,-2.2099736,0.15600063,1.4537613,0.72480136,0.04,0.04,-9.666206,1.6167125701904297,0.842826,-0.08535895,-0.10234852880239487,0.15641193
1263.14999999918,-0.007600596,-0.83493143,-0.024403658,-2.2075038,0.15863113,1.4517838,0.7237687,0.04,0.04,-9.659745,1.6418074369430542,0.860007,-0.086721264,-0.10303232073783875,0.15713122
1263.1666666658466,-0.0077302703,-0.8357753,-0.024811788,-2.2050192,0.16127776,1.4497939,0.7227297,0.04,0.04,-9.6534605,1.6673210859298706,0.8770918,-0.08808818,-0.10370407998561859,0.15782568
1263.1833333325133,-0.007860715,-0.83662415,-0.025222354,-2.2025197,0.1639401,1.4477922,0.72168463,0.04,0.04,-9.646804,1.6925393342971802,0.89463335,-0.089459725,-0.10436893999576569,0.15849504
1263.19999999918,-0.007991916,-0.8374781,-0.025635308,-2.2000055,0.16661792,1.4457787,0.7206334,0.04,0.04,-9.640253,1.7181535959243774,0.91208404,-0.09083636,-0.1050226092338562,0.15913858
1263.2166666658466,-0.008123856,-0.8383368,-0.026050607,-2.197477,0.16931088,1.4437542,0.7195761,0.04,0.04,-9.633277,1.7434264421463013,0.93001443,-0.092216074,-0.10566634684801102,0.15975575
1263.2333333325132,-0.008256523,-0.8392005,-0.026468191,-2.1949353,0.17201877,1.4417183,0.7185131,0.04,0.04,-9.626301,1.7689343690872192,0.9479637,-0.09359859,-0.10629752278327942,0.16034888
1263.2499999991799,-0.008389901,-0.8400687,-0.026888024,-2.1923792,0.17474121,1.4396716,0.71744436,0.04,0.04,-9.6194515,1.7946643829345703,0.965998,-0.09498497,-0.10692101716995239,0.16091466
1263.2666666658465,-0.0085239755,-0.84094137,-0.027310053,-2.1898098,0.17747785,1.4376143,0.71637005,0.04,0.04,-9.612027,1.8200124502182007,0.9844405,-0.096373826,-0.10753203928470612,0.16145445
1263.2833333325132,-0.0086587295,-0.8418185,-0.027734235,-2.1872272,0.18022847,1.4355464,0.71529025,0.04,0.04,-9.604801,1.8457705974578857,1.0028305,-0.09776473,-0.10813020169734955,0.16196764
1263.2999999991798,-0.008794147,-0.8427001,-0.028160509,-2.1846318,0.18299262,1.4334683,0.714205,0.04,0.04,-9.5971985,1.8711596727371216,1.0216582,-0.099157065,-0.10871909558773041,0.1624555
1263.3166666658465,-0.008930212,-0.843586,-0.028588833,-2.1820238,0.18577006,1.43138,0.7131147,0.04,0.04,-9.5896635,1.8969095945358276,1.0404134,-0.10055011,-0.10929390788078308,0.16291593
1263.3333333325131,-0.00906691,-0.844476,-0.029019164,-2.179404,0.18856046,1.4292821,0.7120194,0.04,0.04,-9.581784,1.9222921133041382,1.0596087,-0.10194398,-0.10985837131738663,0.16335101
1263.3499999991798,-0.009204224,-0.84536994,-0.029451435,-2.1767724,0.19136351,1.4271747,0.7109189,0.04,0.04,-9.574048,1.9480431079864502,1.078716,-0.10333909,-0.11041171103715897,0.16375785
1263.3666666658464,-0.009342136,-0.8462679,-0.029885605,-2.1741285,0.1941789,1.425058,0.7098136,0.04,0.04,-9.565917,1.9733995199203491,1.0982448,-0.10473285,-0.11095356941223145,0.16413856
1263.383333332513,-0.00948063,-0.8471699,-0.03032163,-2.1714737,0.19700624,1.4229324,0.70870334,0.04,0.04,-9.557817,1.9990814924240112,1.1177108,-0.106125206,-0.1114804670214653,0.16448961
1263.3999999991797,-0.009619697,-0.8480756,-0.030759443,-2.1688085,0.19984524,1.4207981,0.7075891,0.04,0.04,-9.549416,2.0244147777557373,1.1376292,-0.10751531,-0.11199483275413513,0.16482013
1263.4166666658464,-0.009759309,-0.84898514,-0.031199,-2.1661325,0.20269552,1.4186552,0.7064701,0.04,0.04,-9.54113,2.0500426292419434,1.1574458,-0.10890634,-0.11249686777591705,0.16511866
1263.433333332513,-0.009899453,-0.84989804,-0.03164025,-2.163446,0.20555677,1.4165039,0.7053469,0.04,0.04,-9.532455,2.0752484798431396,1.1776938,-0.11029322,-0.11298570781946182,0.16539085
1263.4499999991797,-0.010040121,-0.8508144,-0.032083128,-2.1607494,0.2084287,1.4143447,0.7042193,0.04,0.04,-9.523864,2.100825309753418,1.1978618,-0.11167783,-0.11346220225095749,0.16563812
1263.4666666658463,-0.010181286,-0.85173404,-0.032527596,-2.158043,0.21131086,1.4121779,0.70308775,0.04,0.04,-9.514945,2.1259217262268066,1.2184333,-0.11305765,-0.11392493546009064,0.16585588
1263.483333332513,-0.010322938,-0.85265684,-0.0329736,-2.1553268,0.21420297,1.4100037,0.7019522,0.04,0.04,-9.505933,2.1511611938476562,1.2390547,-0.11443401,-0.11437052488327026,0.16604795
1263.4999999991796,-0.010465056,-0.8535828,-0.03342108,-2.1526022,0.21710467,1.407822,0.7008132,0.04,0.04,-9.496903,2.176527261734009,1.2597513,-0.11580484,-0.11480232328176498,0.1662129
1263.5166666658463,-0.010607622,-0.85451174,-0.03386999,-2.1498687,0.22001569,1.4056337,0.69967043,0.04,0.04,-9.487683,2.2014553546905518,1.2808144,-0.117172346,-0.11522235721349716,0.16635107
1263.533333332513,-0.010750621,-0.8554435,-0.03432026,-2.1471272,0.22293559,1.4034382,0.6985241,0.04,0.04,-9.478383,2.226667642593384,1.3018456,-0.118533365,-0.11562634259462357,0.16646148
1263.5499999991796,-0.010894036,-0.85637796,-0.034771856,-2.144378,0.225864,1.4012368,0.6973746,0.04,0.04,-9.468907,2.251415491104126,1.3232259,-0.11988874,-0.11601970344781876,0.16654296
1263.5666666658462,-0.011037847,-0.8573153,-0.035224717,-2.141621,0.22880055,1.3990285,0.6962217,0.04,0.04,-9.459399,2.2764923572540283,1.3445493,-0.12123789,-0.11639758944511414,0.16660142
1263.583333332513,-0.011182041,-0.8582551,-0.03567878,-2.1388566,0.23174496,1.3968143,0.6950658,0.04,0.04,-9.44965,2.3010239601135254,1.3662792,-0.122579634,-0.11676406115293503,0.16662918
1263.5999999991795,-0.011326598,-0.8591974,-0.03613401,-2.1360848,0.2346969,1.3945947,0.693907,0.04,0.04,-9.439819,2.325885772705078,1.3879243,-0.123913504,-0.11711420863866806,0.16663285
1263.6166666658462,-0.011471498,-0.8601418,-0.03659033,-2.1333058,0.23765595,1.3923701,0.69274527,0.04,0.04,-9.429765,2.350208044052124,1.4099447,-0.12523845,-0.1174466535449028,0.16660893
1263.6333333325128,-0.011616727,-0.86108845,-0.03704769,-2.130521,0.24062176,1.3901403,0.69158095,0.04,0.04,-9.419694,2.374817132949829,1.43189,-0.12655368,-0.11776165664196014,0.16655754
1263.6499999991795,-0.011762269,-0.8620371,-0.03750604,-2.1277304,0.24359404,1.3879056,0.69041425,0.04,0.04,-9.409507,2.398940086364746,1.4541931,-0.12786025,-0.11806324869394302,0.16647989
1263.6666666658462,-0.011908101,-0.8629879,-0.03796532,-2.1249337,0.24657229,1.3856661,0.68924505,0.04,0.04,-9.39922,2.4233155250549316,1.4764538,-0.12915736,-0.11835025250911713,0.1663752
1263.6833333325128,-0.012054206,-0.8639406,-0.03842547,-2.1221309,0.24955623,1.3834227,0.6880735,0.04,0.04,-9.388752,2.4471499919891357,1.4990636,-0.13044292,-0.11862195283174515,0.16624387
1263.6999999991795,-0.012200572,-0.8648949,-0.03888644,-2.1193244,0.25254542,1.3811753,0.68689984,0.04,0.04,-9.37809,2.4712228775024414,1.5216455,-0.13171548,-0.11887141317129135,0.1660882
1263.716666665846,-0.012347175,-0.86585075,-0.03934817,-2.1165125,0.2555397,1.3789241,0.68572426,0.04,0.04,-9.367599,2.494845390319824,1.5444857,-0.13297805,-0.11911202222108841,0.16590638
1263.7333333325128,-0.012493997,-0.8668083,-0.039810613,-2.1136968,0.25853848,1.3766692,0.684547,0.04,0.04,-9.356749,2.518425703048706,1.5673996,-0.13422742,-0.11933387070894241,0.16569634
1263.7499999991794,-0.012641021,-0.8677672,-0.040273692,-2.1108768,0.26154155,1.3744115,0.6833679,0.04,0.04,-9.345903,2.542083740234375,1.5903903,-0.13546495,-0.11954189091920853,0.16546121
1263.766666665846,-0.012788233,-0.86872745,-0.04073738,-2.108054,0.2645484,1.3721508,0.6821875,0.04,0.04,-9.334877,2.565185785293579,1.6136501,-0.13668777,-0.11973043531179428,0.16520181
1263.7833333325127,-0.0129356105,-0.86968875,-0.041201603,-2.1052263,0.26755875,1.3698875,0.6810058,0.04,0.04,-9.323868,2.588515043258667,1.6368796,-0.13789815,-0.11990600824356079,0.16491479
1263.7999999991794,-0.013083138,-0.8706511,-0.04166629,-2.1023967,0.27057225,1.3676218,0.6798227,0.04,0.04,-9.312524,2.61124849319458,1.6603956,-0.13909282,-0.12005941569805145,0.16460294
1263.816666665846,-0.013230795,-0.87161434,-0.0421314,-2.0995646,0.2735885,1.3653543,0.6786385,0.04,0.04,-9.30133,2.6342544555664062,1.683892,-0.14027263,-0.12020061910152435,0.16426742
1263.8333333325127,-0.013378564,-0.87257844,-0.042596888,-2.0967295,0.276607,1.3630848,0.6774534,0.04,0.04,-9.289939,2.6566543579101562,1.7076184,-0.14143682,-0.12032389640808105,0.16390447
1263.8499999991793,-0.013526428,-0.8735432,-0.043062676,-2.0938926,0.2796276,1.3608139,0.67626745,0.04,0.04,-9.278336,2.679245710372925,1.7313806,-0.14258374,-0.12042797356843948,0.16352074
1263.866666665846,-0.013674366,-0.87450856,-0.043528702,-2.0910547,0.2826497,1.358541,0.67508096,0.04,0.04,-9.266796,2.701272487640381,1.7553437,-0.14371358,-0.12051514536142349,0.16310917
1263.8833333325126,-0.013822363,-0.8754745,-0.043994926,-2.0882168,0.28567326,1.3562678,0.6738939,0.04,0.04,-9.255199,2.7235236167907715,1.7793103,-0.1448279,-0.12059295922517776,0.16267534
1263.8999999991793,-0.013970402,-0.8764406,-0.044461288,-2.0853775,0.28869766,1.3539937,0.67270666,0.04,0.04,-9.243562,2.745192527770996,1.803458,-0.14592522,-0.12065398693084717,0.16221316
1263.916666665846,-0.014118464,-0.8774069,-0.044927724,-2.0825372,0.29172245,1.3517191,0.67151916,0.04,0.04,-9.231615,2.766998052597046,1.8276198,-0.14700367,-0.12069755792617798,0.1617312
1263.9333333325126,-0.014266527,-0.8783733,-0.045394193,-2.0796964,0.29474756,1.3494445,0.6703316,0.04,0.04,-9.219658,2.7882094383239746,1.8519988,-0.14806266,-0.1207217201590538,0.16122444
1263.9499999991792,-0.014414578,-0.87933975,-0.04586062,-2.0768561,0.29777238,1.3471701,0.66914403,0.04,0.04,-9.207586,2.8095827102661133,1.8763648,-0.14910182,-0.12072811275720596,0.16069357
1263.9666666658459,-0.014562593,-0.88030595,-0.046326965,-2.074017,0.30079654,1.3448964,0.66795677,0.04,0.04,-9.195534,2.830406904220581,1.900922,-0.1501207,-0.12071726471185684,0.160142
1263.9833333325125,-0.014710557,-0.8812719,-0.04679315,-2.0711787,0.30381975,1.3426234,0.66676974,0.04,0.04,-9.183487,2.8512134552001953,1.9254812,-0.15112068,-0.12069237977266312,0.15956597
1263.9999999991792,-0.014858454,-0.8822374,-0.047259133,-2.0683405,0.30684158,1.340351,0.66558343,0.04,0.04,-9.171117,2.87190580368042,1.9501239,-0.15209891,-0.12064956873655319,0.15896781
1264.0166666658458,-0.015006265,-0.8832023,-0.04772484,-2.0655036,0.30986175,1.3380802,0.6643978,0.04,0.04,-9.158796,2.8920156955718994,1.974946,-0.15305494,-0.12058743834495544,0.15834741
1264.0333333325125,-0.015153968,-0.88416684,-0.04819023,-2.0626683,0.31287977,1.3358109,0.66321284,0.04,0.04,-9.146249,2.912233352661133,1.9997427,-0.15398824,-0.12050414830446243,0.15770687
1264.0499999991791,-0.015301546,-0.8851306,-0.04865522,-2.059837,0.31589532,1.3335438,0.66202885,0.04,0.04,-9.133853,2.9318957328796387,2.024714,-0.15489809,-0.1204025149345398,0.15704416
1264.0666666658458,-0.015448987,-0.8860935,-0.04911979,-2.0570073,0.318908,1.3312786,0.660846,0.04,0.04,-9.121477,2.9517228603363037,2.0496254,-0.15578759,-0.12029119580984116,0.15635832
1264.0833333325124,-0.015596266,-0.88705546,-0.049583852,-2.0541804,0.32191756,1.3290156,0.65966433,0.04,0.04,-9.108839,2.9708802700042725,2.074731,-0.15665202,-0.12015733867883682,0.15565528
1264.099999999179,-0.015743362,-0.8880163,-0.05004738,-2.0513568,0.32492357,1.326755,0.65848416,0.04,0.04,-9.096098,2.9901158809661865,2.0998168,-0.15749165,-0.12000658363103867,0.15492937
1264.1166666658457,-0.015890267,-0.8889758,-0.05051029,-2.0485368,0.32792565,1.3244977,0.6573056,0.04,0.04,-9.0835285,3.0088346004486084,2.1250029,-0.1583076,-0.11984004825353622,0.15418397
1264.1333333325124,-0.01603696,-0.889934,-0.050972547,-2.045721,0.3309236,1.3222436,0.65612864,0.04,0.04,-9.070693,3.027590274810791,2.1501887,-0.15909931,-0.11965595930814743,0.15341839
1264.149999999179,-0.01618342,-0.8908908,-0.05143407,-2.0429103,0.3339167,1.3199927,0.6549535,0.04,0.04,-9.05803,3.045795440673828,2.1754677,-0.15986502,-0.11945522576570511,0.15263206
1264.1666666658457,-0.016329624,-0.8918461,-0.05189482,-2.0401034,0.3369048,1.3177456,0.65378034,0.04,0.04,-9.045211,3.0640759468078613,2.2007444,-0.16060685,-0.11924353986978531,0.15182689
1264.1833333325123,-0.016475566,-0.89279974,-0.052354738,-2.0373025,0.33988762,1.3155023,0.6526092,0.04,0.04,-9.0323105,3.0817179679870605,2.2261317,-0.16132037,-0.11900866776704788,0.15100382
1264.199999999179,-0.016621223,-0.8937516,-0.052813765,-2.0345066,0.34286457,1.313264,0.65144056,0.04,0.04,-9.01943,3.0994672775268555,2.251477,-0.16200902,-0.11876310408115387,0.15016
1264.2166666658457,-0.016766578,-0.8947014,-0.05327184,-2.0317154,0.3458355,1.3110304,0.6502742,0.04,0.04,-9.006531,3.116636037826538,2.276881,-0.16267057,-0.11849511414766312,0.14930019
1264.2333333325123,-0.016911617,-0.8956494,-0.053728916,-2.0289314,0.34879985,1.3088015,0.6491102,0.04,0.04,-8.993475,3.1336207389831543,2.3023233,-0.16330296,-0.11820767819881439,0.14842239
1264.249999999179,-0.01705631,-0.8965951,-0.054184936,-2.0261543,0.35175735,1.3065773,0.64794904,0.04,0.04,-8.98044,3.1505627632141113,2.3277948,-0.16390814,-0.1179077997803688,0.14752741
1264.2666666658456,-0.01720065,-0.8975385,-0.05463984,-2.0233836,0.35470772,1.3043592,0.6467906,0.04,0.04,-8.9676285,3.166971445083618,2.3532453,-0.16448723,-0.11759600788354874,0.14661384
1264.2833333325123,-0.017344622,-0.89847976,-0.055093575,-2.0206199,0.35765043,1.3021463,0.6456352,0.04,0.04,-8.954396,3.183307647705078,2.3787184,-0.16503696,-0.11726443469524384,0.14568523
1264.299999999179,-0.017488196,-0.8994184,-0.055546083,-2.0178635,0.3605853,1.2999395,0.644483,0.04,0.04,-8.941458,3.199136734008789,2.4042296,-0.16555758,-0.11691713333129883,0.14474015
1264.3166666658456,-0.017631363,-0.9003544,-0.055997312,-2.015115,0.36351186,1.2977389,0.64333385,0.04,0.04,-8.928212,3.214904546737671,2.429743,-0.16604951,-0.11655323207378387,0.1437783
1264.3333333325122,-0.017774109,-0.90128785,-0.056447215,-2.0123749,0.3664298,1.2955447,0.6421882,0.04,0.04,-8.915288,3.2302305698394775,2.4551973,-0.16651139,-0.1161738932132721,0.14280188
1264.3499999991789,-0.017916413,-0.9022184,-0.056895725,-2.0096426,0.3693388,1.2933573,0.6410459,0.04,0.04,-8.902047,3.245452880859375,2.4807258,-0.16694464,-0.11577997356653214,0.1418092
1264.3666666658455,-0.018058253,-0.90314585,-0.0573428,-2.006919,0.37223843,1.2911769,0.6399074,0.04,0.04,-8.889028,3.26017689704895,2.5061858,-0.16734588,-0.11536796391010284,0.14080246
1264.3833333325122,-0.01819962,-0.9040704,-0.057788383,-2.0042043,0.37512842,1.2890038,0.6387728,0.04,0.04,-8.875739,3.2748425006866455,2.5316653,-0.16771758,-0.11494032293558121,0.13978235
1264.3999999991788,-0.018340494,-0.9049918,-0.058232415,-2.0014992,0.37800834,1.2868382,0.637642,0.04,0.04,-8.862795,3.2890384197235107,2.557093,-0.16805883,-0.1144971027970314,0.13874748
1264.4166666658455,-0.018480856,-0.90591,-0.05867485,-1.9988041,0.38087788,1.2846804,0.6365153,0.04,0.04,-8.849502,3.303133726119995,2.5825572,-0.16836889,-0.1140393540263176,0.13769996
1264.4333333325121,-0.018620694,-0.90682477,-0.059115622,-1.9961188,0.38373682,1.2825305,0.6353926,0.04,0.04,-8.836589,3.3167972564697266,2.6079118,-0.1686483,-0.11356670409440994,0.1366393
1264.4499999991788,-0.018759988,-0.9077361,-0.05955469,-1.9934438,0.3865846,1.2803892,0.6342746,0.04,0.04,-8.823301,3.3303072452545166,2.6333063,-0.16889524,-0.11307957023382187,0.13556485
1264.4666666658454,-0.018898718,-0.9086438,-0.059992,-1.9907795,0.3894211,1.2782565,0.6331608,0.04,0.04,-8.81039,3.343412399291992,2.6585836,-0.16911215,-0.11257658153772354,0.13447924
1264.483333332512,-0.019036874,-0.9095477,-0.0604275,-1.9881263,0.3922458,1.2761323,0.63205165,0.04,0.04,-8.797292,3.3562917709350586,2.6838539,-0.16929594,-0.11205761134624481,0.13338068
1264.4999999991787,-0.01917444,-0.91044796,-0.06086115,-1.9854842,0.39505848,1.2740175,0.63094723,0.04,0.04,-8.784083,3.368973731994629,2.7091436,-0.16944806,-0.1115276962518692,0.1322713
1264.5166666658454,-0.019311395,-0.91134423,-0.061292876,-1.9828538,0.3978588,1.2719115,0.6298476,0.04,0.04,-8.771209,3.381223440170288,2.7342803,-0.1695677,-0.11098087579011917,0.13115081
1264.533333332512,-0.019447722,-0.9122363,-0.06172266,-1.9802353,0.40064633,1.2698154,0.6287531,0.04,0.04,-8.7579975,3.393329381942749,2.7594523,-0.16965464,-0.11042111366987228,0.1300198
1264.5499999991787,-0.01958341,-0.9131244,-0.06215042,-1.9776293,0.40342084,1.267729,0.62766385,0.04,0.04,-8.745231,3.4050729274749756,2.7844343,-0.16971067,-0.10984782129526138,0.12887825
1264.5666666658453,-0.019718442,-0.91400826,-0.0625761,-1.9750354,0.40618202,1.2656528,0.62657964,0.04,0.04,-8.732097,3.4166135787963867,2.8094952,-0.16973436,-0.10926219075918198,0.1277276
1264.583333332512,-0.019852802,-0.9148878,-0.062999666,-1.9724545,0.40892953,1.2635868,0.62550086,0.04,0.04,-8.719343,3.427767753601074,2.8343625,-0.1697237,-0.10866077989339828,0.12656616
1264.5999999991786,-0.019986477,-0.91576296,-0.0634211,-1.969887,0.4116631,1.2615314,0.6244276,0.04,0.04,-8.706259,3.4387624263763428,2.8592787,-0.16968085,-0.10804730653762817,0.12539643
1264.6166666658453,-0.020119447,-0.9166337,-0.06384031,-1.9673328,0.41438216,1.2594867,0.62335986,0.04,0.04,-8.693632,3.449397325515747,2.883976,-0.16960515,-0.107419952750206,0.12421731
1264.633333332512,-0.0202517,-0.9174996,-0.06425725,-1.9647923,0.4170867,1.2574532,0.622298,0.04,0.04,-8.6806135,3.459817409515381,2.9087632,-0.16949555,-0.10678049921989441,0.123031296
1264.6499999991786,-0.02038322,-0.91836077,-0.06467189,-1.9622658,0.41977626,1.2554307,0.621242,0.04,0.04,-8.668062,3.469930410385132,2.9332519,-0.16935396,-0.10612768679857254,0.12183712
1264.6666666658452,-0.020513987,-0.9192172,-0.065084174,-1.9597538,0.42245057,1.2534199,0.6201918,0.04,0.04,-8.6551485,3.479794979095459,2.9578316,-0.1691792,-0.10546398907899857,0.12063465
1264.683333332512,-0.020643994,-0.9200688,-0.06549406,-1.9572563,0.42510936,1.2514207,0.6191478,0.04,0.04,-8.64271,3.4893670082092285,2.982172,-0.16897017,-0.10478734225034714,0.119424626
1264.6999999991785,-0.020773225,-0.9209153,-0.065901496,-1.9547735,0.4277522,1.2494332,0.61811,0.04,0.04,-8.629885,3.4987077713012695,3.0065594,-0.16872852,-0.10409893840551376,0.118208446
1264.7166666658452,-0.020901658,-0.9217567,-0.06630644,-1.952306,0.430379,1.2474579,0.61707854,0.04,0.04,-8.617536,3.5077502727508545,3.0306802,-0.16845314,-0.10339946299791336,0.11698679
1264.7333333325118,-0.02102929,-0.9225928,-0.066708855,-1.949854,0.43298924,1.245495,0.61605364,0.04,0.04,-8.605072,3.5165648460388184,3.054757,-0.16814508,-0.10268896073102951,0.11575834
1264.7499999991785,-0.021156102,-0.9234235,-0.067108676,-1.9474174,0.43558273,1.2435445,0.6150352,0.04,0.04,-8.592405,3.5251054763793945,3.078812,-0.16780426,-0.10196717083454132,0.11452627
1264.7666666658452,-0.021282079,-0.924249,-0.06750587,-1.9449973,0.43815926,1.241607,0.6140236,0.04,0.04,-8.580254,3.533374547958374,3.1025722,-0.16742931,-0.10123459249734879,0.11328685
1264.7833333325118,-0.021407206,-0.9250688,-0.06790038,-1.9425932,0.44071847,1.2396824,0.6130187,0.04,0.04,-8.567762,3.5414295196533203,3.1263962,-0.16702294,-0.10049262642860413,0.112044744
1264.7999999991785,-0.021531472,-0.92588305,-0.068292186,-1.9402053,0.4432601,1.2377712,0.6120207,0.04,0.04,-8.555755,3.5492262840270996,3.1498759,-0.1665829,-0.09973955899477005,0.11079765
1264.816666665845,-0.021654863,-0.92669165,-0.06868125,-1.9378345,0.44578388,1.2358731,0.6110297,0.04,0.04,-8.543317,3.5567078590393066,3.1734548,-0.16610885,-0.09897518903017044,0.10954801
1264.8333333325118,-0.021777362,-0.92749435,-0.06906748,-1.9354806,0.44828942,1.233989,0.61004585,0.04,0.04,-8.53152,3.564021587371826,3.196685,-0.1656031,-0.09820272773504257,0.10829058
1264.8499999991784,-0.021898959,-0.9282913,-0.069450855,-1.9331439,0.45077664,1.2321187,0.60906917,0.04,0.04,-8.519255,3.5710387229919434,3.2199519,-0.16506448,-0.09741978347301483,0.10703272
1264.866666665845,-0.022019636,-0.92908245,-0.069831364,-1.9308252,0.45324507,1.2302623,0.6080999,0.04,0.04,-8.507563,3.5778558254241943,3.2429194,-0.16449235,-0.09662705659866333,0.10577068
1264.8833333325117,-0.022139385,-0.92986745,-0.07020894,-1.9285239,0.45569468,1.22842,0.6071379,0.04,0.04,-8.495516,3.584394693374634,3.265917,-0.16388942,-0.09582743793725967,0.10450442
1264.8999999991784,-0.022258203,-0.9306465,-0.0705836,-1.9262408,0.45812508,1.2265925,0.6061835,0.04,0.04,-8.48396,3.590756893157959,3.288564,-0.16325237,-0.09501805156469345,0.1032374
1264.916666665845,-0.02237606,-0.9314192,-0.070955224,-1.9239757,0.46053603,1.2247794,0.60523677,0.04,0.04,-8.4720335,3.5967941284179688,3.3112648,-0.16258405,-0.09419877827167511,0.101967365
1264.9333333325117,-0.022492955,-0.9321857,-0.07132382,-1.9217292,0.46292722,1.2229812,0.6042979,0.04,0.04,-8.460692,3.602719783782959,3.333577,-0.16188316,-0.09337195008993149,0.10069576
1264.9499999991783,-0.022608865,-0.9329458,-0.07168934,-1.9195015,0.46529847,1.2211981,0.60336673,0.04,0.04,-8.448934,3.608306646347046,3.3559656,-0.16115147,-0.09253677725791931,0.099422894
1264.966666665845,-0.022723788,-0.9336995,-0.07205172,-1.9172931,0.46764946,1.21943,0.6024435,0.04,0.04,-8.437806,3.6138226985931396,3.3779302,-0.16038847,-0.09169463068246841,0.09814881
1264.9833333325116,-0.022837711,-0.93444675,-0.07241096,-1.9151036,0.4699801,1.2176771,0.6015283,0.04,0.04,-8.426512,3.619034767150879,3.3998666,-0.15959431,-0.09084632992744446,0.09687417
1264.9999999991783,-0.022950621,-0.93518734,-0.07276703,-1.9129331,0.47229007,1.21594,0.6006211,0.04,0.04,-8.414995,3.623929500579834,3.4217644,-0.15876848,-0.0899895653128624,0.095599696
1265.016666665845,-0.023062509,-0.93592143,-0.07311986,-1.9107829,0.4745792,1.2142186,0.59972215,0.04,0.04,-8.404123,3.6287949085235596,3.4432037,-0.15791109,-0.08912491798400879,0.09432458
1265.0333333325116,-0.023173362,-0.93664885,-0.07346942,-1.9086523,0.4768471,1.212513,0.59883153,0.04,0.04,-8.392891,3.6333205699920654,3.464733,-0.15702471,-0.08825521916151047,0.09304972
1265.0499999991782,-0.02328317,-0.93736917,-0.073815696,-1.9065417,0.47909364,1.2108234,0.5979493,0.04,0.04,-8.382193,3.637768507003784,3.485835,-0.15610732,-0.0873776450753212,0.09177576
1265.0666666658449,-0.023391925,-0.93808275,-0.07415863,-1.9044515,0.4813187,1.2091501,0.59707546,0.04,0.04,-8.371157,3.6418840885162354,3.506961,-0.15516151,-0.08649686723947525,0.090501904
1265.0833333325115,-0.023499615,-0.9387893,-0.07449823,-1.9023813,0.48352197,1.2074932,0.59621024,0.039999995,0.04,-8.360706,3.645969867706299,3.527679,-0.15418504,-0.08560936897993088,0.08922874
1265.0999999991782,-0.023606226,-0.93948865,-0.074834436,-1.9003321,0.48570326,1.2058527,0.59535366,0.039999988,0.04,-8.349786,3.6496472358703613,3.5484607,-0.15317945,-0.08471444249153137,0.08795887
1265.1166666658448,-0.023711754,-0.9401811,-0.075167246,-1.8983035,0.4878625,1.204229,0.5945058,0.039999984,0.04,-8.339615,3.653409242630005,3.5687377,-0.15214634,-0.0838167816400528,0.08668888
1265.1333333325115,-0.023816185,-0.9408666,-0.075496584,-1.8962959,0.4899993,1.2026218,0.59366655,0.039999984,0.04,-8.328925,3.6567020416259766,3.589146,-0.15108408,-0.08291228115558624,0.0854209
1265.1499999991781,-0.023919515,-0.941545,-0.07582244,-1.8943096,0.49211347,1.2010319,0.5928363,0.039999977,0.04,-8.318908,3.6600630283355713,3.6090908,-0.14999256,-0.08200382441282272,0.08415572
1265.1666666658448,-0.02402173,-0.9422161,-0.076144814,-1.8923444,0.49420497,1.1994591,0.592015,0.039999977,0.04,-8.30848,3.6630284786224365,3.6290698,-0.14887442,-0.08108983188867569,0.08289363
1265.1833333325114,-0.02412282,-0.9428799,-0.07646365,-1.8904011,0.4962735,1.1979036,0.5912028,0.039999973,0.04,-8.29867,3.666050672531128,3.6485713,-0.1477282,-0.08017008006572723,0.081634015
1265.199999999178,-0.024222784,-0.94353646,-0.076778896,-1.8884795,0.49831894,1.1963652,0.5903993,0.039999973,0.04,-8.288507,3.6686947345733643,3.668137,-0.1465568,-0.07924845814704895,0.080376916
1265.2166666658447,-0.024321612,-0.9441856,-0.07709057,-1.8865795,0.5003411,1.1948445,0.5896051,0.03999996,0.04,-8.278944,3.6714022159576416,3.6872323,-0.14535657,-0.07832290232181549,0.079123504
1265.2333333325114,-0.024419293,-0.9448271,-0.07739864,-1.8847015,0.5023397,1.1933413,0.5888201,0.039999958,0.04,-8.269233,3.673827648162842,3.706231,-0.14413099,-0.07739315927028656,0.077873446
1265.249999999178,-0.02451582,-0.9454606,-0.07770307,-1.8828455,0.5043149,1.1918555,0.5880442,0.03999995,0.04,-8.259375,3.6759631633758545,3.7251565,-0.1428803,-0.0764612928032875,0.07662741
1265.2666666658447,-0.024611184,-0.9460867,-0.07800383,-1.8810118,0.5062662,1.1903884,0.5872779,0.039999954,0.04,-8.250224,3.678283214569092,3.7435186,-0.14160489,-0.07552844285964966,0.07538462
1265.2833333325113,-0.024705378,-0.94670546,-0.07830091,-1.8792006,0.5081935,1.1889383,0.5865211,0.03999995,0.04,-8.240557,3.680091619491577,3.7620256,-0.1403051,-0.07458880543708801,0.07414695
1265.299999999178,-0.024798391,-0.94731635,-0.078594305,-1.877412,0.510097,1.1875068,0.58577394,0.03999995,0.04,-8.231635,3.6820812225341797,3.7800517,-0.13898209,-0.0736507773399353,0.07291381
1265.3166666658447,-0.02489023,-0.94791955,-0.07888393,-1.8756459,0.51197636,1.1860932,0.58503604,0.03999994,0.04,-8.222265,3.683645725250244,3.7980626,-0.13763654,-0.07270853221416473,0.0716839
1265.3333333325113,-0.024980877,-0.9485152,-0.07916982,-1.8739028,0.5138313,1.1846982,0.5843075,0.03999994,0.04,-8.213556,3.685375928878784,3.815579,-0.13626644,-0.07176523655653,0.07045893
1265.349999999178,-0.025070328,-0.94910276,-0.079451926,-1.8721827,0.51566195,1.1833214,0.5835885,0.039999932,0.04,-8.204432,3.6866703033447266,3.833192,-0.13487323,-0.07081876695156097,0.06923993
1265.3666666658446,-0.025158577,-0.94968265,-0.07973028,-1.8704859,0.517468,1.181963,0.5828791,0.039999932,0.04,-8.196006,3.688183069229126,3.850233,-0.13345788,-0.06987283378839493,0.068024725
1265.3833333325113,-0.025245614,-0.95025444,-0.080004826,-1.8688122,0.5192493,1.1806233,0.5821794,0.03999993,0.04,-8.187146,3.6892364025115967,3.867373,-0.13202181,-0.06892644613981247,0.06681505
1265.399999999178,-0.025331441,-0.95081836,-0.080275536,-1.8671618,0.5210058,1.1793021,0.5814896,0.03999992,0.04,-8.178965,3.6905410289764404,3.8839262,-0.13056542,-0.06797932833433151,0.06561106
1265.4166666658446,-0.025416054,-0.9513744,-0.08054242,-1.8655349,0.5227374,1.1779996,0.58080953,0.039999925,0.04,-8.170339,3.6913325786590576,3.90061,-0.12908931,-0.0670316219329834,0.06441289
1265.4333333325112,-0.025499452,-0.95192254,-0.080805466,-1.8639313,0.5244441,1.1767161,0.5801391,0.03999992,0.04,-8.162426,3.6924357414245605,3.9167194,-0.12759383,-0.06608447432518005,0.063220695
1265.4499999991779,-0.025581619,-0.9524625,-0.0810646,-1.862351,0.52612567,1.1754512,0.57947844,0.039999917,0.04,-8.154036,3.6930136680603027,3.932897,-0.1260784,-0.06513534486293793,0.062034328
1265.4666666658445,-0.025662558,-0.9529946,-0.08131989,-1.8607944,0.52778226,1.1742052,0.5788278,0.03999991,0.04,-8.146353,3.6938886642456055,3.9485407,-0.124543555,-0.06418732553720474,0.060855128
1265.4833333325112,-0.025742255,-0.9535185,-0.08157128,-1.8592618,0.5294135,1.1729783,0.5781871,0.039999906,0.04,-8.138531,3.694488763809204,3.964098,-0.12299182,-0.06323971599340439,0.05968144
1265.4999999991778,-0.02582072,-0.9540345,-0.08181879,-1.8577526,0.5310195,1.1717705,0.5775563,0.0399999,0.04,-8.130576,3.6948115825653076,3.9795487,-0.121423796,-0.06229256093502045,0.058514267
1265.5166666658445,-0.02589794,-0.9545422,-0.08206239,-1.8562671,0.53260016,1.1705816,0.5769354,0.0399999,0.04,-8.123264,3.6954281330108643,3.9944718,-0.11983863,-0.061345189809799194,0.05735401
1265.5333333325111,-0.02597392,-0.955042,-0.08230206,-1.8548057,0.5341552,1.1694118,0.5763246,0.039999895,0.04,-8.115536,3.6955647468566895,4.009459,-0.11823703,-0.06039895862340927,0.056201406
1265.5499999991778,-0.02604866,-0.9555335,-0.082537815,-1.8533685,0.53568494,1.1682612,0.57572377,0.0399999,0.04,-8.108533,3.6960487365722656,4.023887,-0.116621554,-0.0594552718102932,0.055055335
1265.5666666658444,-0.026122143,-0.95601696,-0.08276963,-1.851955,0.5371892,1.1671299,0.5751327,0.039999895,0.04,-8.101117,3.6960666179656982,4.03836,-0.1149921,-0.05851392075419426,0.05391661
1265.583333332511,-0.026194392,-0.95649207,-0.082997516,-1.8505648,0.53866786,1.1660179,0.5745519,0.039999887,0.04,-8.094324,3.696394920349121,4.0523,-0.11334757,-0.057573094964027405,0.052786056
1265.5999999991777,-0.02626538,-0.9569591,-0.08322145,-1.8491989,0.54012084,1.1649251,0.57398105,0.039999884,0.04,-8.087074,3.6961870193481445,4.066308,-0.11168921,-0.05663158372044563,0.05166243
1265.6166666658444,-0.026335122,-0.95741796,-0.083441444,-1.8478574,0.5415485,1.1638511,0.57342017,0.03999988,0.04,-8.080593,3.6964213848114014,4.0797524,-0.110018805,-0.05569281429052353,0.05054655
1265.633333332511,-0.026403612,-0.95786846,-0.08365749,-1.8465399,0.5429504,1.1627964,0.5728695,0.039999865,0.04,-8.073713,3.69616436958313,4.0932736,-0.108336754,-0.054759684950113297,0.049437907
1265.6499999991777,-0.02647085,-0.95831084,-0.08386959,-1.8452466,0.5443268,1.1617613,0.5723288,0.039999865,0.04,-8.067484,3.6962997913360596,4.10619,-0.106645346,-0.05383065342903137,0.048336867
1265.6666666658443,-0.026536832,-0.95874494,-0.08407774,-1.8439772,0.5456775,1.1607453,0.5717982,0.039999865,0.04,-8.060832,3.695934534072876,4.1192064,-0.10494325,-0.05290253832936287,0.0472464
1265.683333332511,-0.026601562,-0.959171,-0.08428194,-1.8427321,0.5470027,1.1597487,0.5712776,0.039999858,0.04,-8.054847,3.695946455001831,4.1316504,-0.10323182,-0.05197881534695625,0.046162218
1265.6999999991776,-0.026665041,-0.95958877,-0.084482186,-1.8415108,0.5483022,1.1587713,0.5707671,0.03999985,0.04,-8.04847,3.6954691410064697,4.1441817,-0.10151146,-0.051057495176792145,0.045085654
1265.7166666658443,-0.026727272,-0.9599983,-0.08467849,-1.8403136,0.5495761,1.1578131,0.57026666,0.03999985,0.04,-8.042731,3.695399522781372,4.156119,-0.09978294,-0.05013915151357651,0.044016805
1265.733333332511,-0.026788255,-0.9603997,-0.08487087,-1.8391403,0.5508245,1.1568741,0.5697762,0.039999846,0.04,-8.036883,3.695099115371704,4.167985,-0.09804786,-0.0492263026535511,0.0429577
1265.7499999991776,-0.02684798,-0.9607929,-0.08505934,-1.8379908,0.5520474,1.1559542,0.5692958,0.03999984,0.04,-8.0309,3.6945011615753174,4.1797714,-0.09630582,-0.04831688851118088,0.041906357
1265.7666666658442,-0.026906466,-0.96117795,-0.08524385,-1.8368654,0.5532448,1.1550536,0.5688255,0.039999835,0.04,-8.025525,3.694331169128418,4.190987,-0.09455803,-0.04741043597459793,0.04086443
1265.783333332511,-0.026963709,-0.96155494,-0.085424446,-1.8357642,0.5544168,1.1541721,0.5683651,0.039999835,0.04,-8.019842,3.693711519241333,4.2022696,-0.092806324,-0.046509962528944016,0.03983153
1265.7999999991775,-0.027019713,-0.96192354,-0.08560116,-1.8346863,0.5555633,1.1533095,0.56791455,0.039999835,0.04,-8.014781,3.6935267448425293,4.21298,-0.09105068,-0.04561452567577362,0.0388074
1265.8166666658442,-0.027074477,-0.96228415,-0.085773945,-1.8336325,0.55668455,1.152466,0.5674741,0.03999983,0.04,-8.009295,3.692824125289917,4.2237697,-0.08929104,-0.044724468141794205,0.03779263
1265.8333333325108,-0.027128004,-0.9626369,-0.08594284,-1.8326023,0.5577807,1.1516416,0.5670434,0.03999983,0.04,-8.004498,3.692586660385132,4.2339907,-0.08752988,-0.04383900389075279,0.03678529
1265.8499999991775,-0.027180307,-0.9629813,-0.08610787,-1.8315955,0.5588516,1.150836,0.56662273,0.03999983,0.04,-7.9992876,3.691859245300293,4.2443166,-0.08576592,-0.04295853525400162,0.03578924
1265.8666666658441,-0.027231392,-0.9633178,-0.086269066,-1.8306128,0.5598975,1.1500492,0.5662119,0.03999983,0.04,-7.9947147,3.6916122436523438,4.2540355,-0.084002204,-0.042083967477083206,0.03480306
1265.8833333325108,-0.027281245,-0.96364623,-0.08642642,-1.8296531,0.5609184,1.149281,0.56581074,0.03999983,0.04,-7.9898076,3.6908748149871826,4.2638636,-0.082238704,-0.04121609777212143,0.03382488
1265.8999999991775,-0.027329888,-0.9639666,-0.08657991,-1.8287166,0.56191444,1.1485314,0.5654194,0.03999983,0.04,-7.985482,3.6906070709228516,4.2731104,-0.08047567,-0.04035479202866554,0.032857202
1265.916666665844,-0.027377326,-0.96427923,-0.08672958,-1.8278036,0.5628858,1.1478008,0.5650377,0.03999983,0.04,-7.980795,3.6898369789123535,4.282434,-0.07871431,-0.039499398320913315,0.031899467
1265.9333333325108,-0.027423553,-0.9645839,-0.08687547,-1.826914,0.56383246,1.1470885,0.56466573,0.039999824,0.04,-7.97673,3.6895456314086914,4.291219,-0.07695494,-0.03864922747015953,0.030950647
1265.9499999991774,-0.027468586,-0.9648806,-0.08701759,-1.8260474,0.5647547,1.1463947,0.56430346,0.03999982,0.04,-7.9723396,3.6888246536254883,4.3000674,-0.07520004,-0.037807807326316833,0.03001246
1265.966666665844,-0.02751243,-0.9651698,-0.08715596,-1.8252034,0.56565255,1.1457194,0.5639508,0.039999828,0.04,-7.968542,3.688575506210327,4.308345,-0.07345047,-0.036974113434553146,0.02908413
1265.9833333325107,-0.02755509,-0.96545106,-0.0872906,-1.8243822,0.5665263,1.1450621,0.5636077,0.039999828,0.04,-7.9645543,3.6880290508270264,4.3166,-0.07170484,-0.0361442044377327,0.028167915
1265.9999999991774,-0.027596572,-0.9657247,-0.087421544,-1.8235835,0.567376,1.1444229,0.56327397,0.03999983,0.04,-7.9605165,3.687286376953125,4.3247457,-0.0699653,-0.03532290831208229,0.027260847
1266.016666665844,-0.027636893,-0.96599054,-0.087548815,-1.8228073,0.5682017,1.1438016,0.5629495,0.03999983,0.04,-7.957068,3.6870508193969727,4.3323402,-0.068232685,-0.034509655088186264,0.02636492
1266.0333333325107,-0.02767605,-0.9662487,-0.08767242,-1.8220533,0.5690039,1.1431984,0.5626342,0.039999824,0.04,-7.953278,3.68631911277771,4.340012,-0.06650754,-0.03370414301753044,0.025477065
1266.0499999991773,-0.027714055,-0.96649927,-0.08779241,-1.8213216,0.5697824,1.1426128,0.5623284,0.039999824,0.04,-7.9500647,3.6861095428466797,4.3471327,-0.06479039,-0.03290627896785736,0.024601694
1266.066666665844,-0.027750919,-0.96674234,-0.08790879,-1.8206115,0.5705372,1.1420445,0.56203175,0.039999824,0.04,-7.9465203,3.6854491233825684,4.3543487,-0.063084185,-0.03211684897542,0.02373821
1266.0833333325106,-0.027786657,-0.9669781,-0.0880216,-1.8199233,0.5712691,1.1414939,0.56174415,0.039999824,0.04,-7.9435234,3.685246706008911,4.36105,-0.06138839,-0.0313371904194355,0.022887677
1266.0999999991773,-0.027821274,-0.9672064,-0.088130884,-1.8192567,0.5719784,1.1409606,0.5614655,0.03999983,0.04,-7.940219,3.684579372406006,4.3678145,-0.05970352,-0.0305649321526289,0.022046415
1266.116666665844,-0.027854774,-0.96742743,-0.088236675,-1.8186116,0.57266474,1.1404442,0.56119573,0.03999983,0.04,-7.9374785,3.684441328048706,4.3740554,-0.05803038,-0.029801709577441216,0.021217022
1266.1333333325106,-0.02788718,-0.96764135,-0.088339016,-1.8179872,0.5733288,1.1399444,0.56093484,0.039999828,0.04,-7.9344225,3.683833599090576,4.3803678,-0.056370765,-0.029048670083284378,0.02039709
1266.1499999991772,-0.027918499,-0.96784824,-0.08843794,-1.8173839,0.5739706,1.1394618,0.56068265,0.039999828,0.04,-7.9318576,3.6836836338043213,4.3862033,-0.054723583,-0.028304463252425194,0.019590234
1266.1666666658439,-0.027948746,-0.968048,-0.08853345,-1.816801,0.57459056,1.1389956,0.5604391,0.039999824,0.04,-7.9290295,3.6831276416778564,4.392092,-0.053091396,-0.027568811550736427,0.018794375
1266.1833333325105,-0.027977936,-0.9682407,-0.08862564,-1.8162386,0.5751885,1.1385459,0.56020415,0.039999828,0.04,-7.926698,3.6830408573150635,4.397468,-0.051474188,-0.026841770857572556,0.018010885
1266.1999999991772,-0.028006067,-0.9684266,-0.08871448,-1.8156965,0.57576513,1.1381122,0.5599776,0.039999828,0.04,-7.9241123,3.682579755783081,4.4029255,-0.049874764,-0.026126522570848465,0.017240582
1266.2166666658438,-0.02803316,-0.96860564,-0.088800065,-1.8151742,0.5763206,1.1376944,0.55975926,0.039999828,0.04,-7.9220104,3.68253493309021,4.4079065,-0.04829212,-0.025420833379030228,0.016483154
1266.2333333325105,-0.028059235,-0.96877784,-0.08888242,-1.8146719,0.57685506,1.1372924,0.55954933,0.039999835,0.04,-7.919835,3.6823058128356934,4.4128146,-0.046727154,-0.024726837873458862,0.015736504
1266.2499999991771,-0.028084302,-0.96894336,-0.088961616,-1.814189,0.57736886,1.1369059,0.55934745,0.03999984,0.04,-7.917597,3.68194580078125,4.4176197,-0.045183558,-0.024044591933488846,0.015002898
1266.2666666658438,-0.028108373,-0.96910256,-0.08903767,-1.8137251,0.57786256,1.1365343,0.5591535,0.03999984,0.04,-7.9158144,3.6820099353790283,4.4219837,-0.043659963,-0.023373179137706757,0.014282255
1266.2833333325104,-0.02813146,-0.96925515,-0.08911065,-1.8132799,0.5783359,1.136178,0.5589674,0.039999835,0.04,-7.913759,3.6816391944885254,4.426444,-0.04215629,-0.022714203223586082,0.013573108
1266.299999999177,-0.028153583,-0.96940166,-0.089180574,-1.8128533,0.57878953,1.1358365,0.55878913,0.039999843,0.04,-7.91218,3.681776523590088,4.430407,-0.040675603,-0.022066490724682808,0.012878831
1266.3166666658437,-0.028174767,-0.9695417,-0.08924753,-1.812445,0.5792239,1.1355097,0.5586185,0.039999846,0.04,-7.910332,3.681501626968384,4.4344654,-0.03921747,-0.021429814398288727,0.012200154
1266.3333333325104,-0.028195018,-0.9696756,-0.08931153,-1.8120543,0.5796393,1.1351973,0.5584553,0.03999985,0.04,-7.9089737,3.6816978454589844,4.4380293,-0.037784275,-0.02080569975078106,0.011532637
1266.349999999177,-0.028214358,-0.9698035,-0.08937269,-1.8116812,0.58003604,1.1348989,0.55829936,0.03999985,0.04,-7.9073186,3.68147611618042,4.4416966,-0.036374766,-0.020193498581647873,0.010879364
1266.3666666658437,-0.028232804,-0.9699257,-0.089431,-1.8113254,0.58041424,1.1346145,0.5581506,0.039999854,0.04,-7.9061217,3.681696653366089,4.4449377,-0.034990493,-0.019592847675085068,0.0102391625
1266.3833333325103,-0.028250374,-0.97004205,-0.08948655,-1.8109863,0.5807749,1.1343431,0.5580088,0.039999854,0.04,-7.9047055,3.6816153526306152,4.448244,-0.033633716,-0.019005773589015007,0.009616227
1266.399999999177,-0.028267084,-0.9701527,-0.0895394,-1.8106636,0.5811177,1.1340853,0.5578741,0.039999854,0.04,-7.9036784,3.6818599700927734,4.451142,-0.03230225,-0.01843208819627762,0.009005237
1266.4166666658436,-0.028282952,-0.9702578,-0.08958962,-1.8103576,0.5814434,1.1338401,0.557746,0.039999858,0.04,-7.9024296,3.681830883026123,4.454077,-0.031001015,-0.01787070371210575,0.008411149
1266.4333333325103,-0.028298002,-0.97035754,-0.08963726,-1.8100669,0.5817525,1.1336079,0.5576246,0.039999858,0.04,-7.901656,3.6822280883789062,4.456627,-0.02972937,-0.01732643134891987,0.007830801
1266.449999999177,-0.028312255,-0.970452,-0.08968236,-1.8097917,0.5820451,1.1333876,0.55750954,0.03999986,0.04,-7.900571,3.682220935821533,4.4592366,-0.028487502,-0.016793450340628624,0.007264737
1266.4666666658436,-0.02832573,-0.97054136,-0.08972501,-1.8095313,0.5823218,1.1331791,0.5574008,0.039999865,0.04,-7.899901,3.682649612426758,4.461475,-0.027276633,-0.016275566071271896,0.006715816
1266.4833333325103,-0.028338443,-0.9706256,-0.08976528,-1.8092859,0.58258307,1.1329824,0.55729806,0.03999987,0.04,-7.8991814,3.682921886444092,4.4636626,-0.026098011,-0.01577349379658699,0.006182199
1266.499999999177,-0.028350422,-0.97070503,-0.089803234,-1.8090543,0.58282924,1.1327971,0.55720127,0.039999872,0.04,-7.8984423,3.68310809135437,4.46576,-0.024953157,-0.015287737362086773,0.005663204
1266.5166666658436,-0.02836169,-0.97077966,-0.08983895,-1.8088366,0.58306086,1.1326231,0.5571102,0.039999876,0.04,-7.897976,3.683595895767212,4.4675636,-0.023841344,-0.014815237373113632,0.00516323
1266.5333333325102,-0.028372262,-0.97085,-0.089872494,-1.8086319,0.5832783,1.1324593,0.5570247,0.039999876,0.04,-7.897384,3.683828830718994,4.469364,-0.022765178,-0.014357891865074635,0.0046772026
1266.5499999991769,-0.028382165,-0.97091585,-0.089903936,-1.8084403,0.58348215,1.1323059,0.55694455,0.039999876,0.04,-7.897078,3.6843667030334473,4.4709105,-0.021723937,-0.013916470110416412,0.004209956
1266.5666666658435,-0.02839143,-0.9709774,-0.08993333,-1.8082609,0.5836729,1.1321623,0.55686957,0.03999988,0.04,-7.896659,3.684704065322876,4.4724383,-0.020719795,-0.013491956517100334,0.0037591157
1266.5833333325102,-0.028400075,-0.971035,-0.08996078,-1.8080933,0.58385086,1.1320286,0.5567997,0.03999988,0.039999995,-7.8964972,3.685304641723633,4.473684,-0.019752465,-0.013082827441394329,0.003326684
1266.5999999991768,-0.028408123,-0.9710887,-0.089986354,-1.807937,0.5840166,1.1319036,0.55673456,0.039999887,0.04,-7.896183,3.6856465339660645,4.4749784,-0.018824128,-0.012689277529716492,0.0029097637
1266.6166666658435,-0.028415604,-0.97113854,-0.090010144,-1.8077918,0.58417076,1.1317872,0.5566739,0.03999989,0.04,-7.8961716,3.68634033203125,4.475993,-0.017934896,-0.012313327752053738,0.002514643
1266.6333333325101,-0.028422544,-0.97118485,-0.090032235,-1.8076571,0.5843139,1.1316798,0.5566176,0.039999895,0.04,-7.896049,3.6868176460266113,4.4770217,-0.017086033,-0.011957219801843166,0.0021369164
1266.6499999991768,-0.028428966,-0.97122777,-0.09005269,-1.8075324,0.58444643,1.1315802,0.55656546,0.039999895,0.04,-7.8961515,3.6875433921813965,4.4777856,-0.016278736,-0.011615773662924767,0.0017776021
1266.6666666658434,-0.0284349,-0.97126704,-0.09007159,-1.8074169,0.58456916,1.1314881,0.55651724,0.039999895,0.04,-7.8961368,3.688072681427002,4.4786024,-0.015513648,-0.01129271648824215,0.0014378241
1266.68333333251,-0.028440366,-0.97130376,-0.09008906,-1.8073106,0.58468235,1.1314031,0.5564727,0.0399999,0.04,-7.896375,3.68886137008667,4.4791465,-0.01479185,-0.010989712551236153,0.001115795
1266.6999999991767,-0.028445404,-0.9713373,-0.09010517,-1.8072125,0.5847866,1.1313244,0.55643165,0.0399999,0.04,-7.8964868,3.689455509185791,4.479786,-0.014113624,-0.010704315267503262,0.000814494
1266.7166666658434,-0.028450044,-0.97136843,-0.09012,-1.8071223,0.58488274,1.131252,0.556394,0.039999906,0.04,-7.8968234,3.6902825832366943,4.4801707,-0.013481057,-0.01043981034308672,0.00053237367
1266.73333333251,-0.028454302,-0.971397,-0.09013364,-1.807039,0.5849711,1.1311857,0.5563592,0.039999895,0.039999995,-7.8971305,3.6910502910614014,4.4805417,-0.012894753,-0.010194477625191212,0.00027151033
1266.7499999991767,-0.02845821,-0.97142303,-0.090146184,-1.8069625,0.5850524,1.1311241,0.5563273,0.0399999,0.04,-7.897362,3.691697359085083,4.48088,-0.012353092,-0.009966438636183739,3.0311454e-05
1266.7666666658433,-0.02846181,-0.97144705,-0.09015772,-1.8068923,0.5851271,1.1310674,0.5562979,0.039999902,0.04,-7.897779,3.6925525665283203,4.4810824,-0.011856036,-0.009760069660842419,-0.00018928085
1266.78333333251,-0.02846511,-0.97146916,-0.090168364,-1.8068272,0.585196,1.1310154,0.55627084,0.03999991,0.04,-7.8980427,3.693136692047119,4.4813623,-0.0113988845,-0.009571341797709465,-0.00039439346
1266.7999999991766,-0.02846815,-0.9714894,-0.09017814,-1.8067678,0.58525944,1.1309681,0.5562458,0.039999906,0.04,-7.8983135,3.6937899589538574,4.481555,-0.010976789,-0.009394831024110317,-0.00058098027
1266.8166666658433,-0.028470946,-0.97150815,-0.09018713,-1.8067135,0.5853177,1.1309245,0.55622274,0.039999906,0.04,-7.898555,3.694338083267212,4.481754,-0.010588999,-0.009232169948518276,-0.00075367786
1266.83333333251,-0.028473511,-0.9715255,-0.0901954,-1.806663,0.58537126,1.1308838,0.5562016,0.039999906,0.04,-7.898852,3.694920778274536,4.481918,-0.010232677,-0.009083837270736694,-0.00091322535
1266.8499999991766,-0.028475864,-0.97154135,-0.09020301,-1.8066164,0.58542037,1.1308459,0.55618227,0.039999902,0.04,-7.89899,3.6953041553497314,4.4821534,-0.0099037625,-0.008947746828198433,-0.0010589744
1266.8666666658432,-0.028478032,-0.97155577,-0.090210035,-1.8065736,0.5854656,1.1308115,0.5561645,0.039999902,0.04,-7.8992233,3.695791482925415,4.482288,-0.0096019665,-0.008824759162962437,-0.0011921318
1266.88333333251,-0.028480025,-0.9715693,-0.09021653,-1.8065344,0.5855072,1.1307805,0.55614805,0.039999906,0.04,-7.899373,3.6961822509765625,4.4824243,-0.009324831,-0.008710259571671486,-0.0013146827
1266.8999999991765,-0.028481849,-0.9715816,-0.090222485,-1.8064986,0.5855457,1.1307511,0.55613285,0.03999991,0.04,-7.89955,3.6965763568878174,4.4825425,-0.009069215,-0.008601436391472816,-0.00142822
1266.9166666658432,-0.028483523,-0.97159296,-0.090227984,-1.8064656,0.58558106,1.1307243,0.5561192,0.03999991,0.04,-7.8997345,3.6969187259674072,4.482678,-0.008834346,-0.008506625890731812,-0.0015337545
1266.9333333325098,-0.028485063,-0.97160333,-0.090233035,-1.8064346,0.58561355,1.1307007,0.55610615,0.03999991,0.04,-7.8998756,3.6972506046295166,4.4827747,-0.008619455,-0.008417822420597076,-0.0016304688
1266.9499999991765,-0.028486483,-0.97161293,-0.09023765,-1.8064066,0.5856435,1.130678,0.5560945,0.039999906,0.04,-7.899899,3.697483539581299,4.482879,-0.008418355,-0.008329669944941998,-0.0017171788
1266.9666666658431,-0.028487787,-0.9716216,-0.09024195,-1.8063805,0.585671,1.1306578,0.5560834,0.03999991,0.04,-7.9001126,3.6978001594543457,4.4829793,-0.008236005,-0.008254420012235641,-0.0017983346
1266.9833333325098,-0.028488979,-0.97162974,-0.09024586,-1.8063565,0.5856964,1.1306386,0.55607367,0.039999913,0.04,-7.9001775,3.698042392730713,4.4830475,-0.008065914,-0.008181873708963394,-0.0018726698
1266.9999999991765,-0.02849008,-0.97163725,-0.09024946,-1.8063346,0.5857198,1.1306201,0.5560643,0.039999913,0.04,-7.9002714,3.698219060897827,4.4831758,-0.007911245,-0.008117196150124073,-0.001941586
1267.016666665843,-0.028491087,-0.971644,-0.090252794,-1.8063143,0.58574134,1.1306046,0.5560561,0.039999913,0.04,-7.9004107,3.6984541416168213,4.483256,-0.0077671353,-0.008061561733484268,-0.0020057461
1267.0333333325098,-0.028492019,-0.9716503,-0.09025588,-1.8062958,0.5857612,1.1305897,0.55604845,0.039999913,0.04,-7.9004426,3.69865083694458,4.4832783,-0.007636748,-0.008004053495824337,-0.0020637156
1267.0499999991764,-0.028492868,-0.97165614,-0.09025872,-1.806279,0.5857795,1.1305754,0.5560411,0.039999913,0.04,-7.9005456,3.69882869720459,4.483366,-0.0075162295,-0.007953621447086334,-0.002117871
1267.066666665843,-0.028493648,-0.9716615,-0.09026132,-1.806263,0.58579606,1.1305637,0.5560347,0.039999913,0.04,-7.9006476,3.6989896297454834,4.483435,-0.007404416,-0.00791079830378294,-0.0021695807
1267.0833333325097,-0.028494367,-0.9716664,-0.09026369,-1.8062487,0.58581144,1.1305522,0.55602884,0.039999913,0.04,-7.900639,3.6991355419158936,4.4834604,-0.0073022987,-0.007863390259444714,-0.0022130033
1267.0999999991764,-0.028495027,-0.9716709,-0.09026586,-1.8062356,0.5858257,1.1305411,0.5560232,0.039999913,0.04,-7.9007506,3.6992766857147217,4.4835224,-0.007209446,-0.007824774831533432,-0.0022556372
1267.116666665843,-0.028495632,-0.9716752,-0.09026787,-1.8062229,0.58583844,1.1305306,0.55601776,0.039999913,0.04,-7.900832,3.6994168758392334,4.4835734,-0.0071224947,-0.0077913240529596806,-0.0022953209
1267.1333333325097,-0.028496189,-0.9716791,-0.090269744,-1.8062115,0.5858504,1.1305226,0.5560131,0.039999913,0.04,-7.900818,3.6994760036468506,4.4836574,-0.0070405146,-0.00775967538356781,-0.0023293323
1267.1499999991763,-0.028496709,-0.9716826,-0.09027143,-1.8062016,0.5858612,1.1305149,0.5560091,0.039999913,0.04,-7.7379193,3.4977476596832275,4.596223,0.0,-0.0,0.0
1267.166666665843,-0.028496709,-0.9716826,-0.09027143,-1.8062016,0.5858612,1.1305149,0.5560091,0.039999913,0.04,-7.9020705,3.701033115386963,4.4828277,0.0,-0.0,0.0
1267.1833333325096,-0.028496709,-0.9716826,-0.09027143,-1.8062016,0.5858612,1.1305149,0.5560091,0.039999913,0.04,-7.9020705,3.701033115386963,4.4828277,0.0,-0.0,0.0
1267.1999999991763,-0.028496709,-0.9716826,-0.09027143,-1.8062016,0.5858612,1.1305149,0.5560091,0.039999913,0.04,-7.9020705,3.701033115386963,4.4828277,0.0,-0.0,0.0
1267.216666665843,-0.028496709,-0.9716826,-0.09027143,-1.8062016,0.5858612,1.1305149,0.5560091,0.039999913,0.04,-7.9020705,3.701033115386963,4.4828277,0.0,-0.0,0.0
1267.2333333325096,-0.028496709,-0.9716826,-0.09027143,-1.8062016,0.5858612,1.1305149,0.5560091,0.039999913,0.04,-7.9020705,3.701033115386963,4.4828277,0.0,-0.0,0.0
1267.2499999991762,-0.028496709,-0.9716826,-0.09027143,-1.8062016,0.5858612,1.1305149,0.5560091,0.039999913,0.04,-7.9020705,3.701033115386963,4.4828277,0.0,-0.0,0.0
1267.2666666658429,-0.028496709,-0.9716826,-0.09027143,-1.8062016,0.5858612,1.1305149,0.5560091,0.039999913,0.04,-7.9020705,3.701033115386963,4.4828277,0.0,-0.0,0.0
1267.2833333325095,-0.028496709,-0.9716826,-0.09027143,-1.8062016,0.5858612,1.1305149,0.5560091,0.039999913,0.04,-7.9020705,3.701033115386963,4.4828277,0.0,-0.0,0.0
1267.2999999991762,-0.028496709,-0.9716826,-0.09027143,-1.8062016,0.5858612,1.1305149,0.5560091,0.039999913,0.04,-7.9020705,3.701033115386963,4.4828277,0.0,-0.0,0.0
1267.3166666658428,-0.028496709,-0.9716826,-0.09027143,-1.8062016,0.5858612,1.1305149,0.5560091,0.039999913,0.04,-7.9020705,3.701033115386963,4.4828277,0.0,-0.0,0.0
1267.3333333325095,-0.028496709,-0.9716826,-0.09027143,-1.8062016,0.5858612,1.1305149,0.5560091,0.039999913,0.04,-7.9020705,3.701033115386963,4.4828277,0.0,-0.0,0.0
1267.3499999991761,-0.028496709,-0.9716826,-0.09027143,-1.8062016,0.5858612,1.1305149,0.5560091,0.039999913,0.04,-7.9020705,3.701033115386963,4.4828277,0.0,-0.0,0.0
1267.3666666658428,-0.028496709,-0.9716826,-0.09027143,-1.8062016,0.5858612,1.1305149,0.5560091,0.039999913,0.04,-7.9020705,3.701033115386963,4.4828277,0.0,-0.0,0.0
1267.3833333325094,-0.028496709,-0.9716826,-0.09027143,-1.8062016,0.5858612,1.1305149,0.5560091,0.039999913,0.04,-7.9020705,3.701033115386963,4.4828277,0.0,-0.0,0.0
1267.399999999176,-0.028496709,-0.9716826,-0.09027143,-1.8062016,0.5858612,1.1305149,0.5560091,0.039999913,0.04,-7.9020705,3.701033115386963,4.4828277,0.0,-0.0,0.0
1267.4166666658427,-0.028496709,-0.9716826,-0.09027143,-1.8062016,0.5858612,1.1305149,0.5560091,0.039999913,0.04,-7.9020705,3.701033115386963,4.4828277,0.0,-0.0,0.0
1267.4333333325094,-0.028496709,-0.9716826,-0.09027143,-1.8062016,0.5858612,1.1305149,0.5560091,0.039999913,0.04,-7.9020705,3.701033115386963,4.4828277,0.0,-0.0,0.0
1267.449999999176,-0.028496709,-0.9716826,-0.09027143,-1.8062016,0.5858612,1.1305149,0.5560091,0.039999913,0.04,-7.9020705,3.701033115386963,4.4828277,0.0,-0.0,0.0
1267.4666666658427,-0.028496709,-0.9716826,-0.09027143,-1.8062016,0.5858612,1.1305149,0.5560091,0.039999913,0.04,-7.9020705,3.701033115386963,4.4828277,0.0,-0.0,0.0
1267.4833333325093,-0.028496709,-0.9716826,-0.09027143,-1.8062016,0.5858612,1.1305149,0.5560091,0.039999913,0.04,-7.9020705,3.701033115386963,4.4828277,0.0,-0.0,0.0
1267.499999999176,-0.028496709,-0.9716826,-0.09027143,-1.8062016,0.5858612,1.1305149,0.5560091,0.039999913,0.04,-7.9020705,3.701033115386963,4.4828277,0.0,-0.0,0.0
1267.5166666658426,-0.028496709,-0.9716826,-0.09027143,-1.8062016,0.5858612,1.1305149,0.5560091,0.039999913,0.04,-7.9020705,3.701033115386963,4.4828277,0.0,-0.0,0.0
1267.5333333325093,-0.028496709,-0.9716826,-0.09027143,-1.8062016,0.5858612,1.1305149,0.5560091,0.039999913,0.04,-7.9020705,3.701033115386963,4.4828277,0.0,-0.0,0.0
1267.549999999176,-0.028496709,-0.9716826,-0.09027143,-1.8062016,0.5858612,1.1305149,0.5560091,0.039999913,0.04,-7.9020705,3.701033115386963,4.4828277,0.0,-0.0,0.0
1267.5666666658426,-0.028496709,-0.9716826,-0.09027143,-1.8062016,0.5858612,1.1305149,0.5560091,0.039999913,0.04,-7.9020705,3.701033115386963,4.4828277,0.0,-0.0,0.0
1267.5833333325093,-0.028496709,-0.9716826,-0.09027143,-1.8062016,0.5858612,1.1305149,0.5560091,0.039999913,0.04,-7.9020705,3.701033115386963,4.4828277,0.0,-0.0,0.0
1267.599999999176,-0.028496709,-0.9716826,-0.09027143,-1.8062016,0.5858612,1.1305149,0.5560091,0.039999913,0.04,-7.9020705,3.701033115386963,4.4828277,0.0,-0.0,0.0
1267.6166666658426,-0.028496709,-0.9716826,-0.09027143,-1.8062016,0.5858612,1.1305149,0.5560091,0.039999913,0.04,-7.9020705,3.701033115386963,4.4828277,0.0,-0.0,0.0
1267.6333333325092,-0.028496709,-0.9716826,-0.09027143,-1.8062016,0.5858612,1.1305149,0.5560091,0.039999913,0.04,-7.9020705,3.701033115386963,4.4828277,0.0,-0.0,0.0
1267.6499999991759,-0.028496709,-0.9716826,-0.09027143,-1.8062016,0.5858612,1.1305149,0.5560091,0.039999913,0.04,-7.9020705,3.701033115386963,4.4828277,0.0,-0.0,0.0
1267.6666666658425,-0.028496709,-0.9716826,-0.09027143,-1.8062016,0.5858612,1.1305149,0.5560091,0.039999913,0.04,-7.9020705,3.701033115386963,4.4828277,0.0,-0.0,0.0
1267.6833333325092,-0.028496709,-0.9716826,-0.09027143,-1.8062016,0.5858612,1.1305149,0.5560091,0.039999913,0.04,-7.9020705,3.701033115386963,4.4828277,0.0,-0.0,0.0
1267.6999999991758,-0.028496709,-0.9716826,-0.09027143,-1.8062016,0.5858612,1.1305149,0.5560091,0.039999913,0.04,-7.9020705,3.701033115386963,4.4828277,0.0,-0.0,0.0
1267.7166666658425,-0.028496709,-0.9716826,-0.09027143,-1.8062016,0.5858612,1.1305149,0.5560091,0.039999913,0.04,-7.9020705,3.701033115386963,4.4828277,0.0,-0.0,0.0
1267.7333333325091,-0.028496709,-0.9716826,-0.09027143,-1.8062016,0.5858612,1.1305149,0.5560091,0.039999913,0.04,-7.9020705,3.701033115386963,4.4828277,0.0,-0.0,0.0
1267.7499999991758,-0.028496709,-0.9716826,-0.09027143,-1.8062016,0.5858612,1.1305149,0.5560091,0.039999913,0.04,-7.9020705,3.701033115386963,4.4828277,0.0,-0.0,0.0
1267.7666666658424,-0.028496709,-0.9716826,-0.09027143,-1.8062016,0.5858612,1.1305149,0.5560091,0.039999913,0.04,-7.9020705,3.701033115386963,4.4828277,0.0,-0.0,0.0
1267.783333332509,-0.028496709,-0.9716826,-0.09027143,-1.8062016,0.5858612,1.1305149,0.5560091,0.039999913,0.04,-7.9020705,3.701033115386963,4.4828277,0.0,-0.0,0.0
1267.7999999991757,-0.028496709,-0.9716826,-0.09027143,-1.8062016,0.5858612,1.1305149,0.5560091,0.039999913,0.04,-7.9020705,3.701033115386963,4.4828277,0.0,-0.0,0.0
1267.8166666658424,-0.028496709,-0.9716826,-0.09027143,-1.8062016,0.5858612,1.1305149,0.5560091,0.039999913,0.04,-7.9020705,3.701033115386963,4.4828277,0.0,-0.0,0.0
1267.833333332509,-0.028496709,-0.9716826,-0.09027143,-1.8062016,0.5858612,1.1305149,0.5560091,0.039999913,0.04,-7.9020705,3.701033115386963,4.4828277,0.0,-0.0,0.0
1267.8499999991757,-0.028496709,-0.9716826,-0.09027143,-1.8062016,0.5858612,1.1305149,0.5560091,0.039999913,0.04,-7.9020705,3.701033115386963,4.4828277,0.0,-0.0,0.0
1267.8666666658423,-0.028496709,-0.9716826,-0.09027143,-1.8062016,0.5858612,1.1305149,0.5560091,0.039999913,0.04,-7.9020705,3.701033115386963,4.4828277,0.0,-0.0,0.0
1267.883333332509,-0.028496709,-0.9716826,-0.09027143,-1.8062016,0.5858612,1.1305149,0.5560091,0.039999913,0.04,-7.9020705,3.701033115386963,4.4828277,0.0,-0.0,0.0
1267.8999999991756,-0.028496709,-0.9716826,-0.09027143,-1.8062016,0.5858612,1.1305149,0.5560091,0.039999913,0.04,-7.9020705,3.701033115386963,4.4828277,0.0,-0.0,0.0
1267.9166666658423,-0.028496709,-0.9716826,-0.09027143,-1.8062016,0.5858612,1.1305149,0.5560091,0.039999913,0.04,-7.9020705,3.701033115386963,4.4828277,0.0,-0.0,0.0
1267.933333332509,-0.028496709,-0.9716826,-0.09027143,-1.8062016,0.5858612,1.1305149,0.5560091,0.039999913,0.04,-7.9020705,3.701033115386963,4.4828277,0.0,-0.0,0.0
1267.9499999991756,-0.028496709,-0.9716826,-0.09027143,-1.8062016,0.5858612,1.1305149,0.5560091,0.039999913,0.04,-7.9020705,3.701033115386963,4.4828277,0.0,-0.0,0.0
1267.9666666658422,-0.028496709,-0.9716826,-0.09027143,-1.8062016,0.5858612,1.1305149,0.5560091,0.039999913,0.04,-7.9020705,3.701033115386963,4.4828277,0.0,-0.0,0.0
1267.983333332509,-0.028496709,-0.9716826,-0.09027143,-1.8062016,0.5858612,1.1305149,0.5560091,0.039999913,0.04,-7.9020705,3.701033115386963,4.4828277,0.0,-0.0,0.0
1267.9999999991755,-0.028496709,-0.9716826,-0.09027143,-1.8062016,0.5858612,1.1305149,0.5560091,0.039999913,0.04,-7.9020705,3.701033115386963,4.4828277,0.0,-0.0,0.0
1268.0166666658422,-0.028496709,-0.9716826,-0.09027143,-1.8062016,0.5858612,1.1305149,0.5560091,0.039999913,0.04,-7.9020705,3.701033115386963,4.4828277,0.0,-0.0,0.0
1268.0333333325088,-0.028496709,-0.9716826,-0.09027143,-1.8062016,0.5858612,1.1305149,0.5560091,0.039999913,0.04,-7.9020705,3.701033115386963,4.4828277,0.0,-0.0,0.0
1268.0499999991755,-0.028496709,-0.9716826,-0.09027143,-1.8062016,0.5858612,1.1305149,0.5560091,0.039999913,0.04,-7.9020705,3.701033115386963,4.4828277,0.0,-0.0,0.0
1268.0666666658421,-0.028496709,-0.9716826,-0.09027143,-1.8062016,0.5858612,1.1305149,0.5560091,0.039999913,0.04,-7.9020705,3.701033115386963,4.4828277,0.0,-0.0,0.0
1268.0833333325088,-0.028496709,-0.9716826,-0.09027143,-1.8062016,0.5858612,1.1305149,0.5560091,0.039999913,0.04,-7.9020705,3.701033115386963,4.4828277,0.0,-0.0,0.0
1268.0999999991755,-0.028496709,-0.9716826,-0.09027143,-1.8062016,0.5858612,1.1305149,0.5560091,0.039999913,0.04,-7.9020705,3.701033115386963,4.4828277,0.0,-0.0,0.0
1268.116666665842,-0.028496709,-0.9716826,-0.09027143,-1.8062016,0.5858612,1.1305149,0.5560091,0.039999913,0.04,-7.9020705,3.701033115386963,4.4828277,0.0,-0.0,0.0
1268.1333333325088,-0.028496709,-0.9716826,-0.09027143,-1.8062016,0.5858612,1.1305149,0.5560091,0.039999913,0.04,-7.9020705,3.701033115386963,4.4828277,0.0,-0.0,0.0
1268.1499999991754,-0.028496709,-0.9716826,-0.09027143,-1.8062016,0.5858612,1.1305149,0.5560091,0.039999913,0.04,-7.9020705,3.701033115386963,4.4828277,0.0,-0.0,0.0
1268.166666665842,-0.028496709,-0.9716826,-0.09027143,-1.8062016,0.5858612,1.1305149,0.5560091,0.039999913,0.04,-7.9020705,3.701033115386963,4.4828277,0.0,-0.0,0.0
1268.1833333325087,-0.028496709,-0.9716826,-0.09027143,-1.8062016,0.5858612,1.1305149,0.5560091,0.039999913,0.04,-7.9020705,3.701033115386963,4.4828277,0.0,-0.0,0.0
1268.1999999991754,-0.028496709,-0.9716826,-0.09027143,-1.8062016,0.5858612,1.1305149,0.5560091,0.039999913,0.04,-7.9020705,3.701033115386963,4.4828277,0.0,-0.0,0.0
1268.216666665842,-0.028496709,-0.9716826,-0.09027143,-1.8062016,0.5858612,1.1305149,0.5560091,0.039999913,0.04,-7.9020705,3.701033115386963,4.4828277,0.0,-0.0,0.0
1268.2333333325087,-0.028496709,-0.9716826,-0.09027143,-1.8062016,0.5858612,1.1305149,0.5560091,0.039999913,0.04,-7.9020705,3.701033115386963,4.4828277,0.0,-0.0,0.0
1268.2499999991753,-0.028496709,-0.9716826,-0.09027143,-1.8062016,0.5858612,1.1305149,0.5560091,0.039999913,0.04,-7.9020705,3.701033115386963,4.4828277,0.0,-0.0,0.0
1268.266666665842,-0.028496709,-0.9716826,-0.09027143,-1.8062016,0.5858612,1.1305149,0.5560091,0.039999913,0.04,-7.9020705,3.701033115386963,4.4828277,0.0,-0.0,0.0
1268.2833333325086,-0.028496709,-0.9716826,-0.09027143,-1.8062016,0.5858612,1.1305149,0.5560091,0.039999913,0.04,-7.9020705,3.701033115386963,4.4828277,0.0,-0.0,0.0
1268.2999999991753,-0.028496709,-0.9716826,-0.09027143,-1.8062016,0.5858612,1.1305149,0.5560091,0.039999913,0.04,-7.9020705,3.701033115386963,4.4828277,0.0,-0.0,0.0
1268.316666665842,-0.028496709,-0.9716826,-0.09027143,-1.8062016,0.5858612,1.1305149,0.5560091,0.039999913,0.04,-7.9020705,3.701033115386963,4.4828277,0.0,-0.0,0.0
1268.3333333325086,-0.028496709,-0.9716826,-0.09027143,-1.8062016,0.5858612,1.1305149,0.5560091,0.039999913,0.04,-7.9020705,3.701033115386963,4.4828277,0.0,-0.0,0.0
1268.3499999991752,-0.028496709,-0.9716826,-0.09027143,-1.8062016,0.5858612,1.1305149,0.5560091,0.039999913,0.04,-7.9020705,3.701033115386963,4.4828277,0.0,-0.0,0.0
1268.3666666658419,-0.028496709,-0.9716826,-0.09027143,-1.8062016,0.5858612,1.1305149,0.5560091,0.039999913,0.04,-7.9020705,3.701033115386963,4.4828277,0.0,-0.0,0.0
1268.3833333325085,-0.028496709,-0.9716826,-0.09027143,-1.8062016,0.5858612,1.1305149,0.5560091,0.039999913,0.04,-7.9020705,3.701033115386963,4.4828277,0.0,-0.0,0.0
1268.3999999991752,-0.028496709,-0.9716826,-0.09027143,-1.8062016,0.5858612,1.1305149,0.5560091,0.039999913,0.04,-7.9020705,3.701033115386963,4.4828277,0.0,-0.0,0.0
1268.4166666658418,-0.028496709,-0.9716826,-0.09027143,-1.8062016,0.5858612,1.1305149,0.5560091,0.039999913,0.04,-7.9020705,3.701033115386963,4.4828277,0.0,-0.0,0.0
1268.4333333325085,-0.028496709,-0.9716826,-0.09027143,-1.8062016,0.5858612,1.1305149,0.5560091,0.039999913,0.04,-7.9020705,3.701033115386963,4.4828277,0.0,-0.0,0.0
1268.4499999991751,-0.028496709,-0.9716826,-0.09027143,-1.8062016,0.5858612,1.1305149,0.5560091,0.039999913,0.04,-7.9020705,3.701033115386963,4.4828277,0.0,-0.0,0.0
1268.4666666658418,-0.028496709,-0.9716826,-0.09027143,-1.8062016,0.5858612,1.1305149,0.5560091,0.039999913,0.04,-7.9020705,3.701033115386963,4.4828277,0.0,-0.0,0.0
1268.4833333325084,-0.028496709,-0.9716826,-0.09027143,-1.8062016,0.5858612,1.1305149,0.5560091,0.039999913,0.04,-7.9020705,3.701033115386963,4.4828277,0.0,-0.0,0.0
1268.499999999175,-0.028496709,-0.9716826,-0.09027143,-1.8062016,0.5858612,1.1305149,0.5560091,0.039999913,0.04,-7.9020705,3.701033115386963,4.4828277,0.0,-0.0,0.0
1268.5166666658417,-0.028496709,-0.9716826,-0.09027143,-1.8062016,0.5858612,1.1305149,0.5560091,0.039999913,0.04,-7.9020705,3.701033115386963,4.4828277,0.0,-0.0,0.0
1268.5333333325084,-0.028496709,-0.9716826,-0.09027143,-1.8062016,0.5858612,1.1305149,0.5560091,0.039999913,0.04,-7.9020705,3.701033115386963,4.4828277,0.0,-0.0,0.0
1268.549999999175,-0.028496709,-0.9716826,-0.09027143,-1.8062016,0.5858612,1.1305149,0.5560091,0.039999913,0.04,-7.9020705,3.701033115386963,4.4828277,0.0,-0.0,0.0
1268.5666666658417,-0.028496709,-0.9716826,-0.09027143,-1.8062016,0.5858612,1.1305149,0.5560091,0.039999913,0.04,-7.9020705,3.701033115386963,4.4828277,0.0,-0.0,0.0
1268.5833333325083,-0.028496709,-0.9716826,-0.09027143,-1.8062016,0.5858612,1.1305149,0.5560091,0.039999913,0.04,-7.9020705,3.701033115386963,4.4828277,0.0,-0.0,0.0
1268.599999999175,-0.028496709,-0.9716826,-0.09027143,-1.8062016,0.5858612,1.1305149,0.5560091,0.039999913,0.04,-7.9020705,3.701033115386963,4.4828277,0.0,-0.0,0.0
1268.6166666658416,-0.028496709,-0.9716826,-0.09027143,-1.8062016,0.5858612,1.1305149,0.5560091,0.039999913,0.04,-7.9020705,3.701033115386963,4.4828277,0.0,-0.0,0.0
1268.6333333325083,-0.028496709,-0.9716826,-0.09027143,-1.8062016,0.5858612,1.1305149,0.5560091,0.039999913,0.04,-7.9020705,3.701033115386963,4.4828277,0.0,-0.0,0.0
1268.649999999175,-0.028496709,-0.9716826,-0.09027143,-1.8062016,0.5858612,1.1305149,0.5560091,0.039999913,0.04,-7.9020705,3.701033115386963,4.4828277,0.0,-0.0,0.0
1268.6666666658416,-0.028496709,-0.9716826,-0.09027143,-1.8062016,0.5858612,1.1305149,0.5560091,0.039999913,0.04,-7.9020705,3.701033115386963,4.4828277,0.0,-0.0,0.0
1268.6833333325083,-0.028496709,-0.9716826,-0.09027143,-1.8062016,0.5858612,1.1305149,0.5560091,0.039999913,0.04,-7.9020705,3.701033115386963,4.4828277,0.0,-0.0,0.0
1268.699999999175,-0.028496709,-0.9716826,-0.09027143,-1.8062016,0.5858612,1.1305149,0.5560091,0.039999913,0.04,-7.9020705,3.701033115386963,4.4828277,0.0,-0.0,0.0
1268.7166666658416,-0.028496709,-0.9716826,-0.09027143,-1.8062016,0.5858612,1.1305149,0.5560091,0.039999913,0.04,-7.9020705,3.701033115386963,4.4828277,0.0,-0.0,0.0
1268.7333333325082,-0.028496709,-0.9716826,-0.09027143,-1.8062016,0.5858612,1.1305149,0.5560091,0.039999913,0.04,-7.9020705,3.701033115386963,4.4828277,0.0,-0.0,0.0
1268.7499999991749,-0.028496709,-0.9716826,-0.09027143,-1.8062016,0.5858612,1.1305149,0.5560091,0.039999913,0.04,-7.9020705,3.701033115386963,4.4828277,0.0,-0.0,0.0
