rsonawane2002/My_IMU/logs_2/traj_276/clean_276.csv
time,j1,j2,j3,j4,j5,j6,j7,gripper1,gripper2,imu_ax,imu_ay,imu_az,imu_gx,imu_gy,imu_gz,quat_x,quat_y,quat_z,quat_w
277.2833333334098,0.00016700293,-0.785875,4.0107683e-05,-2.3551247,9.29385e-05,1.570997,0.786,0.04,0.04,0.0,-0.0,0.0,2.875329272945135e-08,-0.0011641195053377316,4.421952117202833e-08,0.9999995971961153,0.00020320632366974898,0.0008736418299892524,3.263050917662294e-05
277.30000000007647,0.00016699792,-0.78576016,4.0116858e-05,-2.3552213,9.297634e-05,1.5709941,0.786,0.04,0.04,-0.291998460098708,-3.1003528187811564e-05,0.020128409757758092,1.4801145487408008e-07,-0.0022384545585996713,1.245903113807888e-07,0.9999996850581299,0.00020321032610686848,0.0007665025187225696,3.260511117052439e-05
277.3166666667431,0.00016693887,-0.7856543,4.014101e-05,-2.35531,9.302732e-05,1.5709913,0.786,0.04,0.04,0.023328724725391048,3.2023456793739066e-05,-0.0016704248720245118,2.157428256613061e-06,-0.003227408220283831,4.4159545767312615e-07,0.9999997558401509,0.00020323566676256046,0.0006677972534552932,3.258420621301136e-05
277.33333333340977,0.00016673665,-0.78555703,4.02055e-05,-2.355391,9.3117465e-05,1.5709884,0.786,0.04,0.04,0.022460745106811508,8.114245065411144e-05,-0.001524867330604529,6.674185672140128e-06,-0.00413736082850132,1.216084569024854e-06,0.9999998122215427,0.00020331795159344473,0.0005771982107745235,3.2571698254127834e-05
277.3500000000764,0.00016626336,-0.7854676,4.0346447e-05,-2.3554652,9.3294024e-05,1.5709856,0.786,0.04,0.039999995,0.020453074787218917,0.00014459351746405635,-0.001425134159482866,1.5490319620021587e-05,-0.004970161284336799,3.40710287738312e-06,0.9999998567483653,0.00020350837721159185,0.0004939901341813505,3.257816282852254e-05
277.3666666667431,0.00016535642,-0.78538567,4.060987e-05,-2.3555324,9.359386e-05,1.5709827,0.786,0.04,0.039999995,0.019990740974384913,0.00024238947790859353,-0.0011772562896528171,2.9398150695622304e-05,-0.005733287086178193,5.626661826993515e-06,0.9999998913394146,0.0002038719711576336,0.00041796440981849923,3.260568433680376e-05
277.3833333334097,0.0001638218,-0.78531075,4.1050753e-05,-2.3555975,9.406158e-05,1.5709798,0.786,0.04,0.04,0.011424323922271107,0.00035924959366289105,-0.003063444932727144,4.9024919844088834e-05,-0.006428354755057266,8.091535193892128e-06,0.9999999185185175,0.00020448646989491275,0.00034652823803467164,3.2656118172944046e-05
277.4000000000764,0.0001614373,-0.7852423,4.1731546e-05,-2.355656,9.477405e-05,1.570977,0.786,0.04,0.04,0.0185299134032757,0.00047306927724128853,-0.0007264645361271249,7.539081617438382e-05,-0.0070770339642663785,1.2507341788172669e-05,0.9999999386895243,0.00020544074546192479,0.0002816783707257838,3.274665091797937e-05
277.416666666743,0.00015795571,-0.7851803,4.272198e-05,-2.3557112,9.57999e-05,1.5709741,0.7859997,0.04,0.04,0.012319465747334668,0.0006132795780917997,-0.002252146152370571,0.0001088327305749199,-0.00766233659859282,1.759595485617622e-05,0.9999999535539464,0.0002066848690786415,0.00022156706844659089,3.2886228960298105e-05
277.4333333334097,0.0001531074,-0.78512424,4.4097847e-05,-2.355762,9.7219694e-05,1.5709713,0.7859978,0.04,0.04,0.014354847142361571,0.0007614940399545695,-0.0014037482856110728,0.00015120060560741634,-0.008198994760907628,2.4492606032510425e-05,0.9999999639893365,0.00020767117693039133,0.0001667307927571205,3.308852775531199e-05
277.45000000007633,0.00014660318,-0.7850739,4.594052e-05,-2.3558116,9.911951e-05,1.5709683,0.7859959,0.04,0.04,0.008249010826810732,0.0009212618231233818,-0.0027802379007013656,0.00020916560901115637,-0.008683769815879998,3.3816253483606314e-05,0.999999970893138,0.00020932026841254312,0.00011526216702578217,3.336736639994817e-05
277.466666666743,0.00013813647,-0.7850291,4.833629e-05,-2.355856,0.00010159662,1.5709653,0.785994,0.04,0.039999995,0.015108338071812,0.0010851568811430339,-0.0008379922292078845,0.00027530465647714324,-0.009131853803800018,4.468628979887511e-05,0.9999999746151593,0.00021175482599429093,6.921754840232248e-05,3.374174244341325e-05
277.48333333340963,0.0001273854,-0.7849897,5.1375977e-05,-2.3558989,0.00010472027,1.5709621,0.7859921,0.04,0.04,0.008286441909044484,0.001282511802971583,-0.002586337421628393,0.00034977464413152,-0.009525469158391291,5.56164642381221e-05,0.9999999759300632,0.0002151038125725969,2.645117341334543e-05,3.4213422525359955e-05
277.5000000000763,0.00011401487,-0.78495574,5.515362e-05,-2.3559413,0.00010860041,1.5709581,0.7859883,0.04,0.04,0.006580630165586854,0.0014600090078185283,-0.0034006023217347803,0.0004329149876021814,-0.009883083222320314,6.906869784411134e-05,0.9999999754185949,0.00021854790929497033,-1.3722381383043771e-05,3.480398460144204e-05
277.51666666674294,9.767816e-05,-0.7849269,5.9766815e-05,-2.3559833,0.00011333671,1.5709515,0.78598446,0.04,0.04,0.005609389901573003,0.0016537415104575666,-0.004740168035288761,0.000533208786361658,-0.01021065086719251,8.428065691800922e-05,0.999999973087974,0.0002231796465664502,-5.246543833691653e-05,3.552850239482884e-05
277.5333333334096,7.801874e-05,-0.78490317,6.53159e-05,-2.356023,0.000119031654,1.5709447,0.78598,0.04,0.04,0.009275959293075786,0.001852307853438082,-0.0020351703312604386,0.0006420599959875634,-0.01051818105530403,0.00010130091605907045,0.999999969319759,0.00022881400554651925,-8.763221733344686e-05,3.6403663563606064e-05
277.55000000007624,5.4671928e-05,-0.78488463,7.190339e-05,-2.356062,0.00012579092,1.5709376,0.78597426,0.04,0.04,0.00727819969152943,0.0020555473596070954,-0.0026905530875254158,0.0007623182115530955,-0.010786540317379242,0.00012016303860380332,0.9999999644342187,0.0002352991380914634,-0.0001198485529415379,3.7445978404154466e-05
277.5666666667429,2.7266018e-05,-0.78487116,7.963386e-05,-2.3561006,0.00013372122,1.5709295,0.7859681,0.04,0.04,0.005666701557593967,0.0022632383493105296,-0.003564426771340834,0.0008964980490860912,-0.011019939921201117,0.0001408992627784812,0.9999999584364961,0.00024320121830684883,-0.00014994892038730682,3.867162481807902e-05
277.58333333340954,-4.57616e-06,-0.7848629,8.861352e-05,-2.3561397,0.00014293157,1.570919,0.7859605,0.04,0.04,0.004167953489941922,0.002473177887721668,-0.0049290632503584675,0.00104047229446604,-0.011227150991622135,0.00016353710558481758,0.9999999514098209,0.0002521348914380457,-0.00017888696615436225,4.0097453374277085e-05
277.6000000000762,-4.123632e-05,-0.7848596,9.894992e-05,-2.35618,0.00015352061,1.5709082,0.78595155,0.039999995,0.04,0.0033964439364986276,0.0026941211540273415,-0.0036376796505033226,0.001199109186519465,-0.011415027371654306,0.00018728517755419626,0.9999999434794156,0.00026234253844801056,-0.0002060964371457423,4.1735077376902065e-05
277.61666666674284,-8.3099774e-05,-0.78486186,0.00011075113,-2.356222,0.00016561087,1.5708942,0.785942,0.039999988,0.039999984,0.0023112083670895345,0.0029004781623708314,-0.006198051331374188,0.0013711926303378258,-0.011578725563553523,0.0002155543187763351,0.9999999342935076,0.0002743362736955069,-0.00023291844152774498,4.36072117612824e-05
277.6333333334095,-0.00013055369,-0.78486943,0.00012412631,-2.3562644,0.0001793139,1.5708798,0.7859306,0.039999984,0.03999998,0.0049028442272058825,0.0031154456575444044,-0.003572298446852251,0.0015529962541323808,-0.01172952327933175,0.00024403291414375747,0.9999999244231476,0.0002876155018932442,-0.000257564795073642,4.5731812308836474e-05
277.65000000007615,-0.00018398724,-0.7848825,0.00013918482,-2.3563073,0.00019474162,1.5708641,0.78591776,0.03999998,0.039999977,0.004835901615951599,0.003332126830840915,-0.004294511282787461,0.0017503465377780355,-0.011852924930649399,0.000274452435853671,0.9999999137554233,0.0003026044281445931,-0.0002803633130699434,4.8126070038055514e-05
277.6666666667428,-0.00024379004,-0.78490114,0.00015603632,-2.356351,0.00021200695,1.5708458,0.78590375,0.039999977,0.03999997,0.004184889615643783,0.0035478608062780082,-0.0053568118113300756,0.0019602577341108225,-0.011948262908823067,0.00030766810402926663,0.9999999020608258,0.00031954855468739103,-0.00030196962524244107,5.0807533641877815e-05
277.68333333340945,-0.00031035158,-0.78492534,0.00017479036,-2.356399,0.00023122114,1.570826,0.78588825,0.039999973,0.039999966,-0.002060732574182822,0.003765306560527444,-0.0063256841864589575,0.002181365625106361,-0.012024067119113954,0.00034196148454815843,0.9999998888396778,0.0003384553304869824,-0.0003238440069952401,5.3792941217631716e-05
277.7000000000761,-0.00038406064,-0.7849553,0.00019555661,-2.3564494,0.00025249668,1.5708038,0.785871,0.03999997,0.03999996,0.0019510708738623705,0.003979576035396306,-0.006099793877201165,0.0024149939710692743,-0.012091663359491751,0.00037817810445161463,0.9999998742346521,0.0003593610931855927,-0.00034515194960008376,5.71000571701891e-05
277.71666666674275,-0.00046530462,-0.784991,0.00021844389,-2.3565006,0.00027594517,1.570779,0.78585196,0.039999966,0.039999958,0.003909683991754065,0.004194023445987932,-0.005529917457547384,0.002661364848418091,-0.012144338920888433,0.00041630505870486655,0.9999998583228138,0.00038236148006856157,-0.00036532716084808776,6.074632903498623e-05
277.7333333334094,-0.000554469,-0.7850329,0.00024356067,-2.3565578,0.0003016782,1.5707524,0.785831,0.039999966,0.039999954,-0.003844009694553563,0.0044073327118896,-0.007516040053334727,0.002920657482312793,-0.012176081799723761,0.0004571901309242271,0.9999998402373717,0.0004075817934006088,-0.0003862769350093601,6.474907091961317e-05
277.75000000007606,-0.00065193634,-0.78508073,0.0002710148,-2.3566163,0.00032980533,1.5707227,0.78580797,0.039999966,0.039999954,0.0035118337504025376,0.004617692733652525,-0.006181745752487089,0.0031930325230901573,-0.012203137981218371,0.0004990894689993319,0.9999998203589278,0.0004351152065928161,-0.0004064216846456017,6.912512734555045e-05
277.7666666667427,-0.0007580866,-0.78513485,0.0003009132,-2.3566792,0.00036043668,1.570691,0.7857828,0.039999966,0.039999954,-0.0013595808594946135,0.00482718029296459,-0.007117690350511019,0.0034778096769776242,-0.012212080605312953,0.0005428494612515341,0.9999997981017902,0.0004650549690785442,-0.00042668520755411316,7.38917339966728e-05
277.78333333340936,-0.00087329635,-0.7851955,0.00033336174,-2.3567452,0.00039368003,1.5706567,0.7857556,0.03999997,0.039999958,0.0011441383238830483,0.0050341793827889635,-0.007053463623973855,0.0037756490178517442,-0.012210107847374472,0.0005884392547305685,0.9999997733855681,0.0004975817268989917,-0.00044653098457677406,7.906527160755294e-05
277.800000000076,-0.0009979383,-0.7852628,0.00036846552,-2.356817,0.00042964323,1.5706191,0.78572613,0.039999973,0.03999996,-0.003435127814999106,0.005237963991361026,-0.00871014384078439,0.004085576585094116,-0.012193185664531543,0.0006358459979138153,0.9999997451896309,0.000532785792102013,-0.00046753844423262793,8.466272045926853e-05
277.81666666674266,-0.0011323807,-0.78533685,0.00040632795,-2.3568912,0.00046843293,1.5705787,0.7856945,0.039999973,0.039999958,0.002478074068146263,0.005438799504896372,-0.007010159010878425,0.004407369491367878,-0.01217497816458811,0.0006858804837839201,0.9999997139976202,0.0005708144390510789,-0.0004878001371395041,9.070049595697928e-05
277.8333333334093,-0.0012769877,-0.785418,0.00044705186,-2.3569717,0.0005101532,1.5705357,0.78566045,0.039999973,0.039999958,-0.0039386138968255935,0.005638229416047233,-0.008856261990763947,0.004740584404206661,-0.012137593056294766,0.0007368245284706467,0.99999967860959,0.000611725142299276,-0.0005090444767681944,9.719458678445027e-05
277.85000000007597,-0.0014321181,-0.7855062,0.00049073825,-2.3570545,0.00055490766,1.5704894,0.7856238,0.039999977,0.03999996,0.003160755561282258,0.005832081804751357,-0.00737104003674105,0.005085798852433114,-0.012095771333546512,0.0007894762715237155,0.9999996395630285,0.0006555418231668787,-0.0005294235810035032,0.00010416046819525334
277.8666666667426,-0.0015981263,-0.78560174,0.00053748686,-2.3571434,0.0006027988,1.5704397,0.7855847,0.03999998,0.039999966,-0.003538575681072409,0.006023837024612261,-0.009505362035278075,0.005443078667022721,-0.012033540537527688,0.0008438339993432089,0.9999995952393507,0.0007024970536681255,-0.0005509638752526776,0.00011161466101099814
277.88333333340927,-0.001775361,-0.7857047,0.0005873958,-2.3572392,0.00065392733,1.5703864,0.78554296,0.039999977,0.039999958,-0.004727816235905458,0.006212060428637282,-0.009949247109775072,0.005811624550399717,-0.011969887410503892,0.0009007078075127873,0.9999995448478971,0.0007526419127296308,-0.0005740526248749233,0.00011957313136212653
277.9000000000759,-0.001964166,-0.7858153,0.00064056186,-2.3573375,0.0007083916,1.5703297,0.78549844,0.03999998,0.03999996,0.0033304085367502623,0.006396595064913327,-0.007991820655650628,0.006191178614329997,-0.011905630520225917,0.0009583316059423681,0.9999994892274969,0.0008060239093502833,-0.0005962160566437542,0.00012804927405388894
277.9166666667426,-0.0021648782,-0.7859337,0.0006970801,-2.3574421,0.0007662891,1.5702696,0.7854512,0.039999984,0.039999966,-0.0034538223059543682,0.006576792149190556,-0.009758540591797704,0.006582033729614892,-0.011819720595497836,0.0010175653635443411,0.999999426564628,0.0008628092677979284,-0.0006193911366395753,0.0001370591198835179
277.9333333334092,-0.0023778288,-0.78606,0.0007570437,-2.357554,0.0008277154,1.5702059,0.78540105,0.03999998,0.03999996,-0.004549968255562753,0.006753021941153692,-0.010358532006549126,0.006983953549752333,-0.011730743702411402,0.001078354265110655,0.9999993558748828,0.0009230720503062172,-0.0006439650823102169,0.00014661781024961548
277.9500000000759,-0.0026033432,-0.7861944,0.00082054455,-2.3576732,0.00089276495,1.5701386,0.7853479,0.039999984,0.03999996,-0.004798813065121088,0.0069242228531221466,-0.010655226152800346,0.007396354918044514,-0.011638854971950188,0.0011415107262956231,0.9999992763075877,0.0009868538604015694,-0.0006700270639369924,0.00015674020799630282
277.9666666667425,-0.0028417413,-0.78633714,0.00088767265,-2.357795,0.00096152857,1.5700674,0.7852918,0.039999984,0.03999996,0.003521095708403088,0.0070930429821237494,-0.008734664511877988,0.0078195011144668,-0.0115476568547715,0.0012052600815046898,0.9999991885592616,0.0010543413604445085,-0.0006951330617426555,0.00016743697453049008
277.9833333334092,-0.0030933367,-0.7864883,0.0009585162,-2.3579237,0.001034097,1.5699923,0.7852326,0.039999988,0.039999966,-0.003744052107146345,0.007257228449987852,-0.01078621669361457,0.00825260272182235,-0.011433298961928615,0.0012704946322004015,0.9999990903199433,0.0011255730769920505,-0.0007214583678602357,0.00017872425023100592
278.00000000007583,-0.0033584347,-0.78664815,0.0010331615,-2.3580596,0.0011105592,1.5699133,0.7851701,0.039999984,0.03999996,-0.003824950999731236,0.007414455284801731,-0.011061180620641764,0.008695897327037872,-0.011314824598558518,0.0013371303887935431,0.9999989806884967,0.001200552892560393,-0.0007489728757364541,0.00019061571640478743
278.0166666667425,-0.0036373371,-0.7868168,0.0011116932,-2.358203,0.0011910017,1.5698302,0.78510445,0.039999988,0.03999996,-0.0042067999589834315,0.007571019583227541,-0.011290459446167134,0.009149892934013117,-0.01119308274428795,0.001405985106564631,0.9999988582748915,0.001279522191491732,-0.0007778253148181259,0.00020312472633746733
278.03333333340913,-0.0039303354,-0.7869943,0.0011941938,-2.3583534,0.0012755077,1.5697429,0.7850355,0.03999999,0.039999966,-0.003713491246304379,0.0077196752757047096,-0.011338997102461335,0.009612939352788672,-0.01106851549153209,0.00147529926376194,0.9999987220915246,0.0013624791172046676,-0.0008078961295823999,0.00021626330392296247
278.0500000000758,-0.0042377175,-0.7871808,0.001280744,-2.3585112,0.0013641606,1.5696512,0.7849632,0.039999988,0.03999996,-0.004067965001053331,0.007865685003986475,-0.01169075384199747,0.010085586654161711,-0.010939325233435857,0.0015459128410229557,0.9999985706892452,0.0014495403929057813,-0.0008393637848801824,0.00023004467532770204
278.06666666674244,-0.0045597632,-0.78737664,0.0013714231,-2.3586762,0.0014570425,1.5695552,0.78488743,0.039999988,0.039999958,-0.0032752068890973263,0.00800364218346704,-0.011784771298617436,0.010567162793245294,-0.010808663012866903,0.0016186010540543984,0.999998403012894,0.0015407592364677502,-0.0008719298731717758,0.00024448094635151743
278.0833333334091,-0.004896746,-0.78758204,0.0014663078,-2.3588479,0.0015542303,1.5694543,0.7848081,0.03999999,0.03999996,-0.00238813044379782,0.008140397052220846,-0.01193745621472786,0.01105800635349611,-0.010672957771957425,0.001691635876773549,0.9999982178383761,0.0016361865158313219,-0.0009054449748725966,0.0002595826544894562
278.10000000007574,-0.0052489326,-0.7877969,0.0015654729,-2.3590267,0.0016558006,1.5693492,0.7847251,0.03999999,0.03999996,-0.00312025058670784,0.008273927447794783,-0.011762033463602606,0.011558067575323525,-0.010529547486449981,0.0017658415750054892,0.9999980136679263,0.0017359009491147762,-0.0009399384635462793,0.00027536118395345984
278.1166666667424,-0.0056165825,-0.7880212,0.0016689921,-2.359213,0.0017618296,1.5692396,0.7846386,0.03999999,0.039999958,-0.004040606913857658,0.008398586670308513,-0.012031083562402678,0.012067009919894598,-0.010380143350726373,0.0018420314395037442,0.9999977885140586,0.001840037704238708,-0.0009757377250627651,0.00029182894141698966
278.13333333340904,-0.0059999446,-0.7882555,0.0017769363,-2.3594072,0.0018723893,1.5691255,0.78454834,0.039999995,0.03999996,-0.0034299833245654554,0.008514862439776413,-0.01245523364385992,0.01258395340291563,-0.010225449702879426,0.001918452548991566,0.9999975409795522,0.001948638007946445,-0.0010126038568453208,0.0003089954558732149
278.1500000000757,-0.0063992674,-0.7884997,0.0018893747,-2.3596096,0.0019875506,1.5690063,0.7844544,0.03999999,0.039999958,-0.004971975064060885,0.0086324542830786,-0.013153295760170991,0.01310923835025013,-0.010065657581566013,0.0019958572900072085,0.9999972684911651,0.002061803605797332,-0.0010512516136345954,0.0003268732850875571
278.16666666674234,-0.006814789,-0.7887542,0.0020063745,-2.3598204,0.0021073841,1.5688825,0.78435665,0.039999995,0.039999958,-0.004371454098106575,0.008742238027842353,-0.013031859022305525,0.013642367272708452,-0.009905856911615024,0.002075252532640264,0.9999969696577297,0.0021795719900744373,-0.001091233418164632,0.0003454720315898614
278.183333333409,-0.0072467416,-0.78901905,0.0021280004,-2.360039,0.0022319527,1.5687537,0.7842551,0.04,0.03999996,-0.0036466665685130906,0.008851617636357811,-0.01299458883636806,0.014183242235162374,-0.009742131869945218,0.002154665086182777,0.9999966425682006,0.0023020376119667037,-0.0011324295163965686,0.00036479932849038384
278.20000000007565,-0.00769535,-0.78929394,0.0022543166,-2.360266,0.0023613225,1.5686198,0.7841495,0.039999995,0.039999958,-0.004803300514133468,0.008950709075386618,-0.013251552966142555,0.014731496999945666,-0.00957355036595877,0.0022350325653835747,0.999996284734198,0.002429203023741031,-0.0011753161301004402,0.00038486681417675893
278.2166666667423,-0.00816083,-0.78957963,0.0023853842,-2.3605013,0.0024955592,1.5684811,0.78404,0.04,0.039999958,-0.003952314800637069,0.009040797205544723,-0.013475382936101177,0.015287190438688439,-0.009403789608714654,0.0023170921114717864,0.9999958944539638,0.002561156313708805,-0.0012194158136809548,0.00040568291456914544
278.23333333340895,-0.008643393,-0.7898759,0.002521262,-2.3607452,0.002634719,1.5683372,0.78392637,0.04,0.03999996,-0.004639768825143165,0.009137394758654271,-0.0136586103577363,0.015850551147455826,-0.00922869592195455,0.002399301958902288,0.9999954690509766,0.0026979555295504015,-0.0012650557483800118,0.000427255697858982
278.2500000000756,-0.009143245,-0.7901828,0.0026620089,-2.3609977,0.0027788633,1.5681882,0.7838087,0.04,0.039999958,-0.004651189201188011,0.009220099379027551,-0.013657494503327428,0.01642082598705138,-0.009051478293752054,0.0024823776441543982,0.9999950060364862,0.0028396840567710153,-0.0013122352676793443,0.00044959442600127987
278.26666666674225,-0.009660583,-0.79050064,0.002807679,-2.3612585,0.0029280495,1.5680342,0.783687,0.04,0.03999996,-0.0038937737478317302,0.009301566749000262,-0.013627977511476708,0.016997718947503498,-0.008870122159150845,0.0025661409243911953,0.9999945032457838,0.002986423336993181,-0.0013606258552574795,0.00047270620118871704
278.2833333334089,-0.010195595,-0.7908295,0.0029583268,-2.3615286,0.0030823306,1.5678747,0.78356105,0.04,0.039999958,-0.005544249617406294,0.009372549478946484,-0.01447765738074036,0.017580939553368792,-0.008684095244437097,0.002650637362332015,0.9999939573492179,0.0031381625157461727,-0.0014108823983851027,0.0004966003757884522
278.30000000007556,-0.010748468,-0.7911692,0.0031140025,-2.3618076,0.0032417607,1.5677099,0.7834309,0.04,0.039999954,-0.004803797398866827,0.009449479738863568,-0.01401728595096241,0.018170447496215467,-0.008498729603116442,0.002736465768030773,0.9999933659110439,0.0032949790818559296,-0.0014627061150559936,0.000521284540500037
278.3166666667422,-0.011319371,-0.7915201,0.0032747574,-2.3620949,0.0034063905,1.5675397,0.78329647,0.04,0.03999995,-0.0038217910923954435,0.009501334265175475,-0.014113649625002722,0.01876645824383557,-0.008309807693290887,0.002822025570984498,0.9999927263658173,0.0034569408703889327,-0.001515857819363216,0.0005467635226680287
278.33333333340886,-0.011908474,-0.79188246,0.0034406376,-2.3623917,0.0035762675,1.567364,0.7831578,0.04,0.03999995,-0.005532285872411613,0.009564473561563588,-0.014814659408823871,0.019368212856696126,-0.008115848700156492,0.0029083984268039867,0.999992034968422,0.0036241214934835315,-0.0015707837304811641,0.0005730458854108342
278.3500000000755,-0.012515938,-0.7922561,0.0036116894,-2.3626978,0.0037514395,1.5671828,0.7830149,0.04,0.03999995,-0.005273260198301877,0.009614941371861602,-0.014638840053349256,0.019975367185133878,-0.007921832167870055,0.00299580417485197,0.9999912887033768,0.0037965569199817093,-0.0016274233895803949,0.0006001383372844586
278.36666666674216,-0.013141922,-0.7926413,0.0037879574,-2.3630137,0.0039319512,1.5669962,0.7828675,0.04,0.03999995,-0.005864312402481531,0.009668635170983347,-0.014862419353822709,0.020587908701426544,-0.007725938474921869,0.003083276131949462,0.9999904844268044,0.003974225808455279,-0.0016858652809721576,0.0006280472299556169
278.3833333334088,-0.013786575,-0.7930379,0.0039694826,-2.3633385,0.0041178446,1.5668039,0.78271574,0.04,0.039999947,-0.00443998714334537,0.009712559786654619,-0.014665922812584498,0.021206292250172322,-0.00752964168435033,0.0031716302772316404,0.9999896189293354,0.004157249080202811,-0.0017458403306589917,0.0006567763605071418
278.40000000007547,-0.014450043,-0.79344624,0.004156304,-2.3636727,0.00430916,1.5666063,0.7825596,0.04,0.039999943,-0.005231550388495876,0.009758754967272108,-0.014885186836921527,0.021829482007016194,-0.007330416008207056,0.0032600307102159092,0.9999886887212787,0.0043456606098289455,-0.0018073773953143294,0.0006863310518788564
278.4166666667421,-0.015132451,-0.7938662,0.004348462,-2.3640163,0.0045059365,1.5664028,0.782399,0.04,0.03999995,-0.005124608598272573,0.009774891290080523,-0.015064819089194437,0.022457072094658366,-0.007128592666810414,0.003348835724472799,0.9999876898297798,0.004539510792623796,-0.001870654345177497,0.0007167168090786273
278.43333333340877,-0.015833937,-0.79429805,0.0045459913,-2.36437,0.0047082156,1.5661938,0.7822339,0.03999999,0.039999932,-0.006386998995688842,0.009813075119149452,-0.015356992398940505,0.023089396666334527,-0.006924543467622111,0.003438349324058584,0.9999866183245415,0.004738801827656953,-0.0019358489373368334,0.0007479424963897672
278.4500000000754,-0.016554618,-0.79474175,0.004748929,-2.364733,0.004916028,1.565979,0.7820643,0.039999995,0.039999936,-0.004495842280460849,0.009831167669401182,-0.015086632565819436,0.02372640437462918,-0.0067204560268556875,0.0035289288080700264,0.9999854709546159,0.004943611189900804,-0.00200254299690907,0.0007800061690007563
278.46666666674207,-0.01729461,-0.79519725,0.004957304,-2.3651052,0.005129409,1.5657586,0.7818901,0.039999995,0.039999932,-0.004909603468372659,0.009853546429680442,-0.014979577666673904,0.02436727924874519,-0.0065129444866350306,0.003618538062512987,0.999984244084393,0.005153899976157745,-0.0020707651988891226,0.0008129141972085017
278.4833333334087,-0.01805402,-0.7956649,0.0051711495,-2.3654878,0.005348387,1.5655322,0.7817113,0.039999995,0.039999932,-0.006672665595863769,0.00985807603489635,-0.01597837736622143,0.025012534226333927,-0.0063020440111395334,0.00370841101090672,0.9999829321618587,0.0053697463482911085,-0.002141110545004503,0.0008466727588410059
278.5000000000754,-0.018832956,-0.79614455,0.005390493,-2.3658795,0.005572994,1.5653002,0.78152806,0.04,0.039999936,-0.00435018000422005,0.009879345526467471,-0.014966916333891689,0.025661668934821923,-0.006094079697000706,0.0037992870871186007,0.9999815320860876,0.005591284911931835,-0.002212773381910592,0.0008812796121838251
278.516666666742,-0.019631509,-0.7966364,0.005615361,-2.3662817,0.0058032568,1.5650623,0.7813401,0.04,0.039999936,-0.006648868940417607,0.009872108403908425,-0.016005190798096258,0.02631373085703042,-0.005880287103832843,0.003889146299058713,0.999980038538331,0.005818410068018416,-0.0022865272845930913,0.0009167454038455274
278.5333333334087,-0.020449763,-0.79714036,0.00584578,-2.366694,0.0060392013,1.5648181,0.7811476,0.04,0.039999936,-0.006066395928394641,0.009861304317139441,-0.015899117135442786,0.026969589356459836,-0.0056683733541423465,0.003979641980535357,0.9999784467244518,0.006051216781857534,-0.00236231157189367,0.0009530719012323429
278.55000000007533,-0.021287808,-0.7976564,0.0060817725,-2.3671155,0.006280851,1.5645685,0.78095037,0.04,0.039999936,-0.0046517537320101,0.009872791243994462,-0.01504113640977689,0.02762843846570763,-0.005457049461485414,0.004070691410648463,0.9999767539992058,0.006289684933285332,-0.0024394098017382114,0.0009902547505522522
278.566666666742,-0.022145722,-0.7981849,0.0063233613,-2.3675475,0.0065282285,1.5643127,0.7807484,0.04,0.039999932,-0.006594989327846079,0.009848809191714478,-0.016271897393504986,0.028290553674373924,-0.00524069920568551,0.004161431438382867,0.9999749536308298,0.006533852514641589,-0.0025186254013051957,0.001028303663517577
278.58333333340863,-0.023023574,-0.7987256,0.0065705637,-2.36799,0.006781355,1.564051,0.78054184,0.04,0.039999932,-0.006635904701135509,0.00983953301790571,-0.015933959814384835,0.02895564458005219,-0.005026621260413694,0.004252639084226406,0.9999730407245867,0.006783782522064448,-0.0025998379544319972,0.001067221311756666
278.6000000000753,-0.023921425,-0.7992786,0.0068233986,-2.3684416,0.007040246,1.5637833,0.7803306,0.04,0.03999993,-0.004309926631185235,0.009814114307675308,-0.015467045271555513,0.029623392730444918,-0.004813995340242893,0.0043433128731400015,0.9999710118098618,0.0070394993098770505,-0.0026824502583510323,0.001107000469263984
278.61666666674193,-0.024839329,-0.7998441,0.007081884,-2.3689039,0.00730492,1.5635096,0.7801146,0.04,0.039999932,-0.006931405273147284,0.009780158718594202,-0.01622044140683343,0.030292932646642727,-0.004596324590259071,0.004433808535499843,0.9999688603072763,0.007300973520940179,-0.002767146384240838,0.0011476507751972552
278.6333333334086,-0.02577734,-0.8004219,0.007346035,-2.3693762,0.007575392,1.56323,0.7798939,0.04,0.03999993,-0.005836584576845993,0.009755247240351463,-0.015739715414220257,0.03096526396615347,-0.004380035412197565,0.004525108642090334,0.9999665816811536,0.007568259426392206,-0.0028535674898361655,0.0011891689302005553
278.65000000007524,-0.026735507,-0.8010121,0.0076158606,-2.3698587,0.007851671,1.5629444,0.77966833,0.04,0.039999925,-0.00627602242455616,0.009725936340233485,-0.016052778270259083,0.031639415946768466,-0.004162987609767802,0.004614850756810495,0.9999641703600243,0.007841324033350307,-0.002941920793042732,0.001231558216166583
278.6666666667419,-0.027713872,-0.80161506,0.007891376,-2.3703516,0.008133775,1.5626525,0.7794381,0.04,0.039999925,-0.005989253691796037,0.00967251776382589,-0.01642459871988855,0.03231606524312354,-0.003946210672684823,0.004705809724454774,0.9999616205171242,0.008120247858468292,-0.003032145454302424,0.0012748181939970765
278.68333333340854,-0.028712464,-0.8022303,0.00817259,-2.3708546,0.008421711,1.5623549,0.77920306,0.04,0.039999925,-0.006309606109389243,0.009641049449139044,-0.01561876279090324,0.032994044041303724,-0.00372889435255842,0.004796294879918832,0.9999589271197094,0.008405017405895228,-0.0031241208925582784,0.001318948314082483
278.7000000000752,-0.029731309,-0.80285764,0.008459506,-2.371368,0.008715489,1.5620513,0.7789634,0.04,0.039999925,-0.006678841716478701,0.009592765177554932,-0.01586965021034281,0.03367364602829877,-0.0035110384130616,0.0048865998283261665,0.9999560828387721,0.008695710110367967,-0.003218173545277004,0.0013639569082613376
278.71666666674184,-0.030770427,-0.803498,0.00875213,-2.3718915,0.009015111,1.5617415,0.77871895,0.04,0.039999925,-0.0057123529938252204,0.009520877500787325,-0.016483217803076045,0.0343540123157214,-0.0032957045818190964,0.004975565198186526,0.9999530836340821,0.008992278450803208,-0.003313884877262478,0.0014098318955966822
278.7333333334085,-0.03182984,-0.8041507,0.0090504745,-2.3724246,0.009320584,1.5614257,0.7784697,0.04,0.039999917,-0.005293686906426842,0.009480591839686539,-0.015547456491438183,0.03503586774520946,-0.0030776751087971607,0.005066333710071966,0.9999499241618179,0.009294704232987012,-0.00341116407311792,0.001456571887002246
278.75000000007515,-0.03290955,-0.804816,0.009354534,-2.3729687,0.009631909,1.5611038,0.7782155,0.04,0.039999913,-0.007395810811772208,0.00940519870566009,-0.016467984541823633,0.035718484840766285,-0.0028567894358148445,0.005155909547186617,0.9999465966054901,0.009602968628563448,-0.0035106055943798335,0.001504187148111443
278.7666666667418,-0.03400958,-0.8054937,0.009664313,-2.3735228,0.009949089,1.5607761,0.77795666,0.04,0.039999917,-0.005993798785297599,0.00936855162852468,-0.015724060990462974,0.03640257055834277,-0.0026404720659881295,0.005244262966670465,0.999943095505254,0.009917175483718186,-0.0036117313993597917,0.0015526680567652495
278.78333333340845,-0.035129894,-0.8061843,0.009979812,-2.3740864,0.010272123,1.5604422,0.77769303,0.04,0.03999992,-0.004814402131358975,0.00924223201477746,-0.016034770493189576,0.037087180732862005,-0.002421090852023886,0.005332828467257753,0.999939416209822,0.010237279514981244,-0.003714242122279534,0.0016020061015977235
278.8000000000751,-0.03627052,-0.80688703,0.010301029,-2.3746605,0.0106010055,1.5601022,0.77742463,0.04,0.039999913,-0.007193436006658338,0.009226496414716998,-0.01596764843727616,0.0377720842962391,-0.002199135497817993,0.005421963529834,0.9999355492465766,0.010563307235918832,-0.003818910990480113,0.0016522142819399086
278.81666666674175,-0.037431434,-0.8076023,0.010627961,-2.3752449,0.010935741,1.5597563,0.7771514,0.039999995,0.039999906,-0.006398433189880315,0.009118741853355802,-0.015961799485753048,0.038457233663343755,-0.001978812528198478,0.0055096559589952535,0.9999314898521563,0.010895219899745588,-0.00392537891969999,0.0017032867403739083
278.8333333334084,-0.038612604,-0.80833006,0.010960599,-2.3758395,0.01127632,1.5594041,0.7768735,0.04,0.03999991,-0.006504356606518158,0.009026666145828602,-0.016131250397055652,0.03914288446081177,-0.0017595814424377389,0.005597726349934638,0.9999272300274473,0.01123310255311516,-0.0040337638043576205,0.0017552225608975598
278.85000000007506,-0.039814018,-0.8090704,0.011298941,-2.3764443,0.011622733,1.559046,0.7765909,0.04,0.039999906,-0.006398642742255767,0.008951837438004803,-0.015977125511001944,0.03982759826956207,-0.0015413946861115267,0.005684128962595153,0.9999227642824674,0.011576896022960815,-0.004143915155063529,0.0018080142063250744
278.8666666667417,-0.04103566,-0.80982316,0.011642974,-2.3770595,0.011974969,1.5586818,0.77630347,0.04,0.03999991,-0.0066604624411770175,0.008886096007552219,-0.015958340851573993,0.04051261705931197,-0.0013219134627743614,0.005770660747483161,0.9999180851258777,0.011926603968883674,-0.004255980450973915,0.001861662259513681
278.88333333340836,-0.042277463,-0.81058836,0.011992687,-2.3776848,0.012333024,1.5583117,0.7760112,0.04,0.03999991,-0.006592597838239733,0.008751586884356288,-0.01589151655627674,0.04119688565221599,-0.0011040872508887196,0.00585739890771959,0.9999131866228486,0.012282172991735918,-0.004369868727436373,0.001916165871298504
278.900000000075,-0.043539405,-0.811366,0.012348077,-2.37832,0.012696886,1.5579356,0.7757143,0.04,0.03999991,-0.005820016917401638,0.00866573939859866,-0.01566877652026122,0.04188130253720385,-0.0008878726674523274,0.005942543432138885,0.9999080621663196,0.0126436573886562,-0.00448534035197102,0.0019715132667114214
278.91666666674166,-0.04482144,-0.81215614,0.012709127,-2.3789654,0.013066545,1.5575536,0.77541256,0.04,0.039999913,-0.006623911585434961,0.008569532842092956,-0.01578176417549315,0.042564706999663034,-0.0006689625021220648,0.006027766605893409,0.999902704306676,0.013011020245476448,-0.004602572474120032,0.002027707816301219
278.9333333334083,-0.046123512,-0.8129584,0.013075818,-2.3796206,0.013441979,1.5571655,0.7751062,0.04,0.039999906,-0.006281671209595885,0.008460469368337664,-0.015661114832976608,0.04324763295732753,-0.0004506308770862513,0.00611195800790788,0.999897104850755,0.013384301744045316,-0.004721653142582816,0.0020847468680514217
278.95000000007497,-0.047445577,-0.81377304,0.013448138,-2.3802862,0.013823179,1.5567715,0.77479506,0.04,0.03999991,-0.007223777824116873,0.00836500008783471,-0.01580004684107461,0.043929138829311154,-0.00023292564551384565,0.006195812526506559,0.9998912568144976,0.0137634379321414,-0.004842670057088682,0.00214263131002567
278.9666666667416,-0.048787557,-0.8146001,0.013826073,-2.380962,0.014210121,1.5563716,0.7744793,0.04,0.039999917,-0.006362859582620395,0.008225466673874096,-0.01572985014721695,0.04460967795229281,-1.739282775832865e-05,0.006278633980213846,0.9998851530745421,0.014148487623290377,-0.004965383771591263,0.0022013457416007365
278.98333333340827,-0.050149404,-0.8154394,0.014209606,-2.381647,0.014602786,1.5559657,0.77415884,0.04,0.039999917,-0.0058473541229009385,0.008134394902253178,-0.015374182405558656,0.045288561992711834,0.00019830737333716847,0.006360847408481328,0.999878788144372,0.014539348216279944,-0.005089673439978723,0.0022608840443483435
279.0000000000749,-0.05153103,-0.81629074,0.014598708,-2.3823428,0.015001157,1.5555539,0.77383363,0.04,0.03999991,-0.007648615663624625,0.008013324441018613,-0.015598624237278536,0.045966405636769195,0.00041509934660423353,0.006443343539398457,0.9998721516517902,0.014936029833681877,-0.005216043918792825,0.0023212604041654263
279.01666666674157,-0.05293237,-0.8171544,0.014993362,-2.3830483,0.015405213,1.5551361,0.77350384,0.04,0.039999917,-0.006232616783474754,0.007874225732067489,-0.015608953095447298,0.04664267300080539,0.00062718857337829,0.0065241509509669955,0.9998652373418905,0.015338565017883249,-0.005344106710119492,0.0023824571156447955
279.0333333334082,-0.05435335,-0.81803024,0.015393549,-2.3837633,0.015814932,1.5547125,0.7731694,0.04,0.03999991,-0.005946939242851279,0.0077718713422381125,-0.01512352319537058,0.04731712044143492,0.0008407896597856963,0.006604270227976966,0.999858039325311,0.01574690217561442,-0.005473651759595541,0.002444464119355694
279.0500000000749,-0.05579387,-0.81891793,0.015799241,-2.3844886,0.01623028,1.5542831,0.7728303,0.04,0.03999991,-0.007545680500831153,0.007644006946882012,-0.015353424749164901,0.04798998007166072,0.001054416083444705,0.006684591564344141,0.9998505470061467,0.016161014556886264,-0.005605243663303199,0.002507290066272421
279.0666666667415,-0.057253852,-0.8198177,0.01621041,-2.3852236,0.016651247,1.5538478,0.7724867,0.04,0.039999902,-0.006560819539846996,0.007500531601274674,-0.015346457180442918,0.04866049902997921,0.0012643028410788335,0.006763720943950419,0.9998427534289382,0.016580934868473885,-0.005738582987986456,0.002570929757307694
279.0833333334082,-0.0587332,-0.8207295,0.01662703,-2.3859684,0.01707779,1.5534068,0.77213854,0.04,0.039999906,-0.006614968805318533,0.007391287400145691,-0.014998971367718994,0.04932890308878532,0.001473685378181027,0.006841846693609897,0.9998346516835888,0.017006632522939408,-0.005873549358306854,0.002635367321992781
279.10000000007483,-0.060231794,-0.8216531,0.017049082,-2.3867226,0.017509889,1.55296,0.7717859,0.04,0.03999991,-0.006047796636288183,0.007216373429038553,-0.014883336922100199,0.04999462788724185,0.0016826082251490855,0.006918824361041052,0.999826234255873,0.01743809030087219,-0.006010081964019129,0.0027005953351599966
279.1166666667415,-0.061749544,-0.82258844,0.017476523,-2.3874865,0.017947508,1.5525076,0.7714288,0.04,0.0399999,-0.007006453472602203,0.007117509997622146,-0.014804305740101498,0.050657836097054446,0.0018917759405581366,0.006995314087184259,0.9998174919664916,0.01787528770261689,-0.006148387717310472,0.002766618127010333
279.13333333340813,-0.06328635,-0.8235355,0.01790933,-2.3882604,0.018390622,1.5520496,0.7710673,0.04,0.0399999,-0.007384009676303371,0.006971759894885271,-0.014926260147274384,0.05131801147763914,0.0020991726608121826,0.007070694059192417,0.9998084158640921,0.01831822323285293,-0.006288554649748172,0.0028334334901698273
279.1500000000748,-0.06484209,-0.8244942,0.01834747,-2.3890436,0.018839194,1.5515859,0.7707011,0.04,0.039999895,-0.006377708075255839,0.006820192826676591,-0.014615415222674066,0.051974870420200214,0.0023042789541995352,0.007146037420717018,0.9997990026291967,0.018766701326361688,-0.006430342811844894,0.002901026424030699
279.16666666674143,-0.066416666,-0.8254645,0.01879091,-2.3898363,0.019293193,1.5511167,0.77033067,0.04,0.039999895,-0.006745538960606368,0.0066984838654922385,-0.014526119708491159,0.05263020245386413,0.0025081362493667055,0.0072198560385274314,0.9997892399154802,0.019220932654351548,-0.006573751394784029,0.0029693921470284584
279.1833333334081,-0.068009906,-0.8264464,0.019239616,-2.390638,0.019752579,1.5506418,0.76995575,0.04,0.039999895,-0.006053442949305321,0.006489071937269136,-0.014473248597202115,0.05328128880329863,0.0027110500599174803,0.007293413450301579,0.9997791235908381,0.019680727986980194,-0.006718659823506663,0.003038517403930296
279.20000000007474,-0.06962171,-0.8274399,0.01969355,-2.3914495,0.020217314,1.5501615,0.76957655,0.04,0.039999902,-0.0068503696275534764,0.00638601108602227,-0.014367490903399727,0.05392967137017597,0.0029138152724598083,0.007364561611582381,0.9997686432195259,0.020146154003223574,-0.006865156320582779,0.003108398713271376
279.2166666667414,-0.071251966,-0.82844454,0.020152679,-2.3922696,0.02068737,1.5496757,0.7691929,0.04,0.039999895,-0.006158003400003054,0.006244040133671774,-0.01389331396588478,0.054574383723700465,0.003116589187167753,0.00743659764837255,0.999757793500642,0.020617075900484207,-0.007013149826733816,0.0031790321717558197
279.23333333340804,-0.07290053,-0.8294605,0.020616965,-2.3930998,0.021162704,1.5491842,0.7688049,0.04,0.0399999,-0.008092481196553258,0.00606948889806877,-0.014678704878590132,0.05521588179765945,0.003318049144170429,0.007507037916863409,0.9997465601832519,0.0210935472499725,-0.0071632647545510275,0.0032504313905798166
279.2500000000747,-0.07456724,-0.8304877,0.021086361,-2.3939388,0.02164327,1.5486872,0.7684127,0.04,0.0399999,-0.0061109190052199835,0.005903906652572621,-0.013918602577489558,0.055853951051245146,0.0035144298293346317,0.007576726109389805,0.9997349402049299,0.02157552731838546,-0.007314815059345705,0.0033225645255251643
279.26666666674134,-0.076251976,-0.8315261,0.021560833,-2.3947868,0.022129033,1.548185,0.7680162,0.04,0.039999906,-0.006604637337637165,0.00577078781957216,-0.013761116112620542,0.05648804715486432,0.0037098384412997815,0.007645074880383261,0.9997229258203629,0.022062949485899166,-0.007467858932351106,0.0033954281206097317
279.283333333408,-0.07795456,-0.8325754,0.022040337,-2.3956437,0.022619944,1.5476775,0.7676156,0.04,0.039999902,-0.0064914083644396214,0.0055980502827603085,-0.013504833734900856,0.057118390299770824,0.0039047959008726082,0.007712453201411021,0.999710507677855,0.0225558389516381,-0.007622395570256218,0.003469013324252834
279.30000000007465,-0.07967486,-0.8336357,0.022524826,-2.3965096,0.023115972,1.5471647,0.7672108,0.04,0.039999902,-0.006844303945996444,0.005436877642145399,-0.01374334916091069,0.05774441797055345,0.004099183754179236,0.0077790151169749855,0.9996976781877089,0.023054096166666045,-0.007778542341253228,0.003543325427811193
279.3166666667413,-0.08141274,-0.8347068,0.023014273,-2.3973846,0.023617059,1.5466467,0.7668018,0.04,0.039999902,-0.0070601297110561845,0.005296010831067066,-0.013414159114688573,0.0583663233820388,0.004290493113847573,0.00784486619589039,0.9996844289842756,0.023557698997455745,-0.007936298744355563,0.0036183458331695323
279.33333333340795,-0.083168015,-0.83578855,0.02350862,-2.398268,0.024123162,1.5461235,0.7663887,0.04,0.039999895,-0.006054453480763833,0.005120144794383552,-0.013099883712386351,0.05898443304077062,0.004480344254429256,0.007909184718434301,0.9996707532184478,0.02406663949463309,-0.008095425372339251,0.003694064311512363
279.3500000000746,-0.08494052,-0.83688104,0.024007816,-2.39916,0.024634233,1.5455953,0.76597154,0.04,0.03999989,-0.006360973479146992,0.004962087654594716,-0.01303662541678463,0.05959771833906018,0.004670070365235878,0.007972665295913207,0.9996566442571048,0.02458083391778331,-0.008255891261689114,0.0037704715893061634
279.36666666674125,-0.08673011,-0.8379841,0.02451182,-2.400061,0.025150228,1.5450617,0.7655504,0.04,0.03999989,-0.0074978244087420265,0.004780792094068176,-0.01339551671506456,0.06020688568203156,0.0048583139495479676,0.008035876814299438,0.9996420886123972,0.0251002918570967,-0.008418201545650148,0.0038475844460544445
279.3833333334079,-0.0885366,-0.83909744,0.025020584,-2.4009707,0.025671098,1.544523,0.7651252,0.04,0.039999887,-0.007309622675344407,0.00462923673695409,-0.012959322252314998,0.06081115182829211,0.005042107495070218,0.00809719029237142,0.9996270796711644,0.02562495100478114,-0.00858223606094402,0.003925391483202884
279.40000000007456,-0.09035981,-0.84022117,0.025534073,-2.4018886,0.026196789,1.5439798,0.7646961,0.04,0.03999989,-0.005902218709974427,0.004463095047629179,-0.012203426236934156,0.06141078887698015,0.005223109578359263,0.008157460755472898,0.9996116156551179,0.02615476314110249,-0.008747309762488114,0.0040038461904709135
279.4166666667412,-0.092199564,-0.841355,0.026052214,-2.4028149,0.026727255,1.5434314,0.76426315,0.04,0.039999887,-0.006769270195983168,0.004289707884196081,-0.012603710291436698,0.062005388659075525,0.0054039895000152945,0.008216817123270253,0.9995956833658687,0.026689707015204952,-0.008913956860664903,0.004082977939044624
279.43333333340786,-0.09405569,-0.842499,0.026574956,-2.4037492,0.027262444,1.5428778,0.76382643,0.04,0.039999887,-0.006442604803647001,0.004109964695631768,-0.01256277120471605,0.06259515439903358,0.005582896724190732,0.008275090806460505,0.9995792743546974,0.027229776561120685,-0.00908211716077211,0.0041627751375846326
279.4500000000745,-0.09592801,-0.843653,0.027102267,-2.404692,0.027802298,1.5423198,0.7633859,0.04,0.03999989,-0.006753107896084742,0.003980405321290376,-0.01195336328538854,0.0631788933796483,0.00575955236235513,0.008332161478743619,0.9995623842152966,0.02777488094586153,-0.009251552010264615,0.0042432105387882335
279.46666666674116,-0.097816296,-0.8448168,0.027634075,-2.4056425,0.028346762,1.5417567,0.7629415,0.04,0.039999895,-0.0064145291174710906,0.003749227857986759,-0.012034358645007792,0.06375779707164976,0.005934761717219211,0.008388299900909425,0.999545005626833,0.028324898318925533,-0.00942243859571294,0.004324293304916273
279.4833333334078,-0.0997204,-0.8459904,0.028170334,-2.4066007,0.028895784,1.5411893,0.7624933,0.04,0.03999989,-0.005810576233167275,0.0036496700223424827,-0.011490288650750635,0.06433152001952223,0.006106977157512853,0.0084436480415205,0.9995271335609932,0.028879843555578474,-0.00959433005160155,0.0044059893792898815
279.50000000007446,-0.101640105,-0.8471736,0.028710986,-2.407567,0.029449303,1.540617,0.76204157,0.04,0.039999895,-0.007100052898012521,0.003427036612684703,-0.011870869441232834,0.06489996719654033,0.006281478397498541,0.008497894713757725,0.9995087526520112,0.02943972512426347,-0.009767850831424896,0.004488323380004951
279.5166666667411,-0.1035752,-0.8483663,0.02925598,-2.408541,0.03000726,1.5400404,0.7615861,0.04,0.039999895,-0.006095101367820099,0.0032701526256458113,-0.011217897370818797,0.0654624437234087,0.006449944714071374,0.00855066541747948,0.9994898635735997,0.030004403667536487,-0.009942434851300546,0.004571254030355297
279.53333333340777,-0.105525516,-0.84956837,0.02980526,-2.4095225,0.030569604,1.5394589,0.7611272,0.04,0.039999895,-0.006617110187190356,0.003095263398632947,-0.011479240973177873,0.06601949794117655,0.006619967896277782,0.008602729391535894,0.9994704518719101,0.030573911158938545,-0.010118527711034884,0.004654802720442615
279.5500000000744,-0.10749083,-0.85077965,0.030358763,-2.4105117,0.031136276,1.538873,0.76066476,0.04,0.039999895,-0.0065706259149589386,0.002929039836743058,-0.011061701557135706,0.06657062564920786,0.006785082438703769,0.008653727148051484,0.9994505121573706,0.03114819592131988,-0.01029592048648587,0.004738951419138705
279.56666666674107,-0.109470956,-0.85200006,0.03091642,-2.4115083,0.03170721,1.5382828,0.7601988,0.04,0.03999989,-0.006291859549367729,0.0028031312328688496,-0.010778327362426232,0.06711506400116767,0.006948423511246429,0.008703473066615397,0.9994300405319744,0.031727135449843735,-0.010474493048022069,0.004823686742544905
279.5833333334077,-0.11146563,-0.8532295,0.031478196,-2.4125123,0.032282345,1.5376883,0.7597293,0.04,0.03999989,-0.006389844867826788,0.002543285566959652,-0.010712946506896692,0.06765412743319742,0.007111185580538085,0.008751843679377171,0.9994090294411542,0.03231068023008336,-0.010654275531189257,0.0049089945472705595
279.6000000000744,-0.11347467,-0.85446787,0.032044,-2.4135234,0.032861628,1.5370895,0.75925654,0.04,0.03999989,-0.006206044724721416,0.002419017705083959,-0.010487091984412444,0.06818698277647475,0.007271273328285158,0.008800009863694037,0.9993874703549752,0.03289882871114299,-0.01083523678953516,0.004994878440277332
279.616666666741,-0.11549785,-0.8557149,0.032613788,-2.4145422,0.033444997,1.5364865,0.7587805,0.04,0.039999925,-0.007187982573553242,0.0022450980709083634,-0.010483005771444454,0.06871349460764833,0.0074299594739974245,0.008847110773248838,0.9993653527672294,0.03349153852738691,-0.011017644281636521,0.0050813433246526705
279.6333333334077,-0.117534965,-0.8569704,0.033187516,-2.4155679,0.034032375,1.5358793,0.758301,0.04,0.03999994,-0.006300313589235884,0.002059884229338449,-0.010101050603550377,0.06923339424794875,0.0075831758931328465,0.008893006058722775,0.9993426750047384,0.034088655385214266,-0.01120131980983367,0.005168357855226793
279.65000000007433,-0.119585805,-0.8582345,0.033765085,-2.4166002,0.034623716,1.5352677,0.75781834,0.04,0.039999947,-0.005811938080801937,0.0019075972025120458,-0.010031437129764953,0.06974708673687793,0.007734302180629125,0.008936909754617792,0.9993194295247774,0.034690202446705794,-0.011386083197523676,0.005255924076615859
279.666666666741,-0.1216501,-0.85950696,0.034346458,-2.4176395,0.035218917,1.5346522,0.75733256,0.04,0.039999943,-0.00638158235874986,0.0017234009241945403,-0.009710800386009133,0.07025425384891197,0.007883215542577517,0.008979327669603725,0.9992956086873154,0.035296132098840895,-0.011571995826949342,0.005344008765906411
279.68333333340763,-0.123727635,-0.86078745,0.03493156,-2.4186852,0.035817955,1.534033,0.7568436,0.04,0.039999947,-0.00587946868930711,0.0015586888709603897,-0.009222874808267889,0.07075449981748165,0.00803074636397064,0.009020801926305728,0.999271209408944,0.03590633333619159,-0.01175890663106288,0.005432622532315287
279.7000000000743,-0.1258182,-0.862076,0.035520334,-2.4197373,0.036420744,1.5334098,0.7563515,0.04,0.039999947,-0.0059127957999782765,0.0013952768481845235,-0.009193613923152988,0.07124808811708266,0.00817599714457077,0.009062693892808438,0.9992462272630572,0.03652069601107014,-0.011946816032425355,0.005521743393263155
279.71666666674093,-0.12792155,-0.8633723,0.036112696,-2.4207962,0.037027214,1.5327829,0.75585663,0.04,0.039999947,-0.006583456687203615,0.00126135948940731,-0.009145191917347972,0.07173546722381625,0.008319968207603494,0.009101432271005256,0.9992206435269874,0.03713941768177078,-0.012135962225531285,0.0056113834865317725
279.7333333334076,-0.13003749,-0.8646765,0.03670859,-2.4218612,0.0376373,1.5321523,0.75535864,0.04,0.039999947,-0.00578068580783242,0.0010856590651101006,-0.00881436355764098,0.07221441614336754,0.00846076759364732,0.009139843111487387,0.9991944655204932,0.03776216855077298,-0.01232604661871404,0.005701515089202989
279.75000000007424,-0.13216566,-0.8659884,0.03730795,-2.4229324,0.03825094,1.5315179,0.75485796,0.04,0.03999995,-0.005907725707232636,0.0007842152791898149,-0.008833162441290732,0.07268675544986455,0.008600575905108161,0.009177222729630338,0.9991676801888847,0.03838904492455038,-0.012517159786527555,0.0057921331668014525
279.7666666667409,-0.13430591,-0.86730766,0.037910715,-2.4240096,0.038868062,1.53088,0.75435424,0.04,0.039999954,-0.005790801796878853,0.0007513173036086118,-0.008248410266809003,0.07315132739864938,0.008736717878830916,0.009214067172649137,0.9991402893751563,0.03901982225101186,-0.012709181309282435,0.005883224394521571
279.78333333340754,-0.13645801,-0.86863416,0.0385168,-2.4250934,0.03948859,1.5302383,0.7538478,0.04,0.039999947,-0.007302326478897392,0.0005675526679627119,-0.008706723678830741,0.07360955879227986,0.008871468919235674,0.00924859774605067,0.9991122736988833,0.03965457596353842,-0.01290273536670992,0.005974827985515971
279.8000000000742,-0.13862166,-0.86996776,0.03912615,-2.4261827,0.04011246,1.5295932,0.75333863,0.04,0.039999947,-0.005312512908384193,0.0003731042649959826,-0.007727784905786628,0.0740600191868726,0.008998943812736311,0.009282070207591114,0.9990836394298155,0.0402931967992028,-0.013097049938249445,0.00606687714481124
279.81666666674084,-0.14079663,-0.8713084,0.03973869,-2.4272773,0.040739596,1.528945,0.75282687,0.04,0.03999995,-0.004966145907503439,0.00023386687085652502,-0.007472493455407125,0.0745030419738357,0.009126538828250794,0.00931515223011449,0.9990543827879931,0.04093563168122016,-0.013291976241625954,0.006159355368353338
279.8333333334075,-0.14298263,-0.87265575,0.040354334,-2.4283772,0.041369922,1.5282934,0.7523124,0.04,0.03999995,-0.005325476677442431,3.7561814283937345e-05,-0.007373894095930034,0.0749379806845453,0.009253616591841325,0.009346355283350587,0.9990244989996354,0.04158173709585599,-0.01348772190695886,0.006252271297645472
279.85000000007415,-0.1451795,-0.87400985,0.040973037,-2.429483,0.04200337,1.5276387,0.7517955,0.04,0.03999994,-0.006479732299724539,-5.89922519084185e-05,-0.007480281169880421,0.07536594952172744,0.009380383106928361,0.009377518950854619,0.9989939750966687,0.042231558086176194,-0.013684525430779101,0.006345627305857256
279.8666666667408,-0.14738694,-0.8753704,0.04159472,-2.4305942,0.042639863,1.5269806,0.7512759,0.04,0.039999936,-0.006073456357236218,-0.00025463674723780194,-0.007262119080686524,0.07578581608426038,0.009502602985631322,0.009407017276563193,0.9989628101660815,0.042884919059561065,-0.013882415998564043,0.006439421432351522
279.88333333340745,-0.1496047,-0.87673765,0.042219304,-2.4317102,0.043279324,1.5263199,0.75075406,0.04,0.039999943,-0.004432238893503637,-0.00040066456662435357,-0.006623303135544489,0.07619821449267407,0.009619177324521014,0.009435002809950507,0.9989310052734933,0.04354188734614616,-0.014080593018108293,0.006533578642831263
279.9000000000741,-0.15183252,-0.87811124,0.042846724,-2.4328318,0.043921683,1.5256559,0.75022984,0.04,0.039999943,-0.006207847993455751,-0.0005860437655783035,-0.007045582567766218,0.07660244676768575,0.009738725591956439,0.009462554646066518,0.9988985472660301,0.044202324410972826,-0.014279858028544127,0.0066281551857472615
279.91666666674075,-0.15407012,-0.8794909,0.043476883,-2.4339583,0.044566862,1.5249888,0.74970335,0.04,0.039999947,-0.005633036700691818,-0.000739129152982354,-0.006592451041065317,0.07699800991574005,0.009854150973256204,0.009488933915246883,0.9988654336583307,0.044866173317599255,-0.014480032274399736,0.00672313912711887
279.9333333334074,-0.15631722,-0.88087577,0.04410973,-2.435089,0.045214795,1.5243189,0.7491745,0.04,0.039999947,-0.00523540248333898,-0.000856331663516563,-0.005516780107339692,0.0773855775496827,0.009965387966993335,0.009514481044114766,0.9988316668056871,0.045533247175997986,-0.014681026187172399,0.00681852314462604
279.95000000007406,-0.15857358,-0.8822661,0.044745173,-2.436225,0.045865398,1.5236464,0.74864346,0.04,0.039999943,-0.006157025316189113,-0.0009946378656949806,-0.005956240320958983,0.07776557310190577,0.010072598216772768,0.009538074437842325,0.9987972338481332,0.046203601824880106,-0.014883048321230915,0.006914311852463107
279.9666666667407,-0.16083893,-0.8836623,0.04538315,-2.4373653,0.046518594,1.5229712,0.7481104,0.04,0.039999947,-0.0049968162084024215,-0.001207060593615139,-0.005806228899674082,0.07813719926575916,0.010175921321699907,0.009559625694669519,0.9987621378508328,0.04687717507041432,-0.015085625406077913,0.007010446430799097
279.98333333340736,-0.16311303,-0.8850643,0.046023585,-2.43851,0.04717431,1.5222933,0.7475752,0.04,0.039999947,-0.004621283634165252,-0.0013489432209370933,-0.005670647872069168,0.07850016790003254,0.010278473525081624,0.009581005183036208,0.998726380919396,0.04755381605671109,-0.015288638462900853,0.00710690987988194
280.000000000074,-0.16539556,-0.886471,0.046666406,-2.439659,0.047832463,1.5216129,0.74703807,0.04,0.039999943,-0.0062042246128601874,-0.0014694985611476974,-0.005132010079300642,0.07885482952505166,0.010379639273353135,0.009601474179705728,0.998689946346037,0.04823349432971197,-0.015492799728381825,0.007203766283807505
280.01666666674066,-0.1676863,-0.887883,0.04731153,-2.4408123,0.048492968,1.5209302,0.746499,0.04,0.039999947,-0.004623690091998256,-0.0015954304398851926,-0.0049932222592641295,0.07920105576721315,0.010474391432728141,0.009620271993188885,0.998652842592656,0.048916152684902584,-0.01569733910184211,0.0073009268751989525
280.0333333334073,-0.16998492,-0.88929987,0.047958877,-2.4419694,0.049155753,1.520245,0.74595815,0.04,0.039999943,-0.0048367607856869554,-0.0017997928911467342,-0.004757927004384044,0.07953826148019859,0.010568119597069617,0.00963822446279839,0.9986150625333458,0.049601714271185565,-0.015902523756890063,0.0073984161172036085
280.05000000007396,-0.17229119,-0.8907213,0.048608374,-2.4431305,0.049820744,1.5195576,0.7454154,0.04,0.039999954,-0.0053785252341898016,-0.0018762512990766478,-0.004444745751452928,0.07986670183089589,0.01065915218560512,0.009655559098394897,0.9985766057617573,0.050290037950917583,-0.016108412340218585,0.007496236395722572
280.0666666667406,-0.1746048,-0.8921474,0.049259935,-2.444295,0.050487854,1.5188677,0.74487096,0.04,0.039999954,-0.004248095290337872,-0.0020936770567872576,-0.004397494105257138,0.080186726734578,0.010746820731005385,0.009670659922237201,0.9985374701894707,0.050981111394927385,-0.01631479893377509,0.007594356082001004
280.08333333340727,-0.17692545,-0.8935779,0.049913485,-2.445463,0.051157,1.5181761,0.74432486,0.04,0.03999995,-0.004741767758842386,-0.002186456701691597,-0.0037824295881394576,0.08049784205927729,0.010832714349059497,0.009685260556399997,0.9984976573104061,0.051674816903928666,-0.016521594874256248,0.00769275934807522
280.1000000000739,-0.17925295,-0.8950125,0.050568964,-2.4466345,0.051828116,1.5174823,0.74377716,0.04,0.039999954,-0.005034285244076564,-0.002299397734492614,-0.003933511388809485,0.08079998687834136,0.010917367262829093,0.009698977731316963,0.9984571584371004,0.052371119672071656,-0.016729067821575423,0.007791461982561037
280.11666666674057,-0.18158697,-0.89645106,0.05122626,-2.4478095,0.052501105,1.5167865,0.7432278,0.04,0.039999958,-0.004842851297381934,-0.0024382667237504707,-0.0035905352689047376,0.08109334619672798,0.010997890085423623,0.009711853141560658,0.998415977216584,0.05306985734335851,-0.016937157383163128,0.007890461329167427
280.1333333334072,-0.1839272,-0.89789355,0.051885314,-2.4489872,0.053175908,1.5160888,0.742677,0.04,0.039999954,-0.003993654988310169,-0.0026276115655435306,-0.003166323735803722,0.08137789704841378,0.011074009735892933,0.009722363493273739,0.9983741153432043,0.0537710127681999,-0.017145509899585052,0.00798971143656554
280.1500000000739,-0.18627343,-0.89933974,0.05254604,-2.4501684,0.053852417,1.5153896,0.7421248,0.04,0.039999954,-0.004993520093821147,-0.0026413572644601313,-0.003147072577336374,0.08165341236451304,0.011148707745801033,0.009732859847918197,0.9983315635700548,0.05447455917317482,-0.017354422414165727,0.00808922773376412
280.1666666667405,-0.18862528,-0.9007894,0.05320836,-2.451352,0.05453056,1.5146884,0.7415714,0.04,0.03999995,-0.0037144282321932565,-0.00291557928556313,-0.0027489544746517325,0.08191933460831162,0.011220414126201717,0.009741369550727498,0.998288326080167,0.055180399235265305,-0.01756365942239212,0.008188981620991253
280.1833333334072,-0.1909825,-0.9022423,0.053872194,-2.4525383,0.055210255,1.5139858,0.74101675,0.04,0.039999954,-0.004551055054013986,-0.0029472531466720464,-0.0024868973486524837,0.08217536874001963,0.011290450343964906,0.009749400905123419,0.9982444036101868,0.05588839797248108,-0.017773309578363507,0.008288974583362037
280.2000000000738,-0.19334486,-0.90369844,0.054537468,-2.4537277,0.05589142,1.5132818,0.7404608,0.04,0.039999954,-0.0049788746285805985,-0.003049938146525155,-0.002445306746690079,0.08242264680324482,0.011356738788660965,0.009756209351716366,0.9981997929275538,0.0565984952498005,-0.01798346227431438,0.0083892085130346
280.2166666667405,-0.195712,-0.90515757,0.055204086,-2.4549186,0.056573976,1.5125763,0.73990375,0.04,0.03999996,-0.0025061690175132156,-0.0032490550863989442,-0.0017443024708629906,0.08266013676809952,0.011419725576180494,0.009761764299059693,0.9981545071533684,0.05731057336500616,-0.01819352613022894,0.00848961936361686
280.23333333340713,-0.19808368,-0.9066193,0.05587199,-2.4561126,0.057257842,1.5118692,0.7393456,0.04,0.039999958,-0.005664225268220413,-0.00335003377066323,-0.002357792732454733,0.08288879032228157,0.011482595651259433,0.009766737901489693,0.9981085228353245,0.05802460775645579,-0.01840456802702921,0.008590309303774985
280.2500000000738,-0.20045955,-0.90808374,0.056541074,-2.457309,0.057942927,1.5111609,0.73878664,0.04,0.039999958,-0.004283904892421475,-0.003477735965419504,-0.0016894582636872713,0.08310743770549485,0.011538105471951207,0.009769757576540444,0.9980618493897454,0.05874056097339473,-0.01861596740816566,0.008691205135655501
280.26666666674043,-0.2028394,-0.9095507,0.05721127,-2.4585068,0.05862915,1.5104517,0.7382266,0.04,0.039999954,-0.0027153510951727355,-0.003501900569087557,-0.0009255156882881366,0.08331605449469007,0.011589187654940311,0.009771442782953894,0.9980145071035786,0.05945821464102303,-0.018827132005786427,0.00879223651523292
280.2833333334071,-0.20522287,-0.91101986,0.057882503,-2.4597063,0.05931642,1.5097411,0.7376657,0.04,0.039999954,-0.0036829408838645605,-0.0037410488798919617,-0.0012364234104556004,0.08351574026001324,0.011643030024573543,0.00977296771099774,0.9979664816543902,0.06017754060551225,-0.019038686564027015,0.008893453488185368
280.30000000007374,-0.2076097,-0.91249114,0.058554668,-2.460908,0.06000465,1.5090297,0.73710406,0.04,0.039999958,-0.004269899997377813,-0.0037428370202402528,-0.0008896430598204219,0.08370548843525857,0.011691516174574854,0.009772688065619053,0.9979177745539419,0.06089848733297708,-0.01925051138434202,0.008994847486447556
280.3166666667404,-0.20999962,-0.9139643,0.0592277,-2.4621112,0.060693774,1.5083174,0.7365417,0.04,0.03999996,-0.0038642673093391977,-0.0038859143969741106,-0.0007765920938318516,0.08388568380052852,0.011737252186218631,0.009771670722172623,0.9978683854649146,0.06162096927255339,-0.019462696572425577,0.0090964211470912
280.33333333340704,-0.21239233,-0.91543907,0.05990151,-2.4633157,0.06138369,1.5076042,0.73597866,0.04,0.03999996,-0.0031380818949378053,-0.003955148282898391,-0.00019103933535102868,0.08405546601210186,0.011777959430528673,0.00976927862665581,0.9978183239841427,0.062344882366309834,-0.019674917656760788,0.009198129125370165
280.3500000000737,-0.21478751,-0.9169156,0.060576014,-2.4645214,0.062074337,1.5068902,0.73541504,0.04,0.039999958,-0.003150572703125576,-0.004165304121304947,-0.0003678206633273007,0.08421565805034864,0.01181756523000569,0.009766049340761668,0.9977675913124681,0.06307012649848154,-0.019887264083411533,0.009299978347172276
280.36666666674034,-0.21718489,-0.9183935,0.06125113,-2.465728,0.06276561,1.5061755,0.7348509,0.04,0.039999954,-0.002987095743356427,-0.004186116003235263,0.0001972095540869745,0.08436611379417566,0.01185423828735998,0.009761457871657109,0.9977161923653516,0.06379661630947767,-0.020099618702590537,0.009401944876285782
280.383333333407,-0.21958412,-0.9198724,0.06192678,-2.4669354,0.06345744,1.5054605,0.73428637,0.04,0.039999958,-0.002856000612005971,-0.004281682143211785,0.0006794488735639703,0.08450648642985503,0.011887808168992132,0.0097558627678394,0.9976641289144017,0.06452430014993832,-0.020311923812919394,0.009504015922076257
280.40000000007365,-0.221985,-0.9213523,0.06260287,-2.4681437,0.06414973,1.5047449,0.7337214,0.04,0.039999954,-0.003314938513887533,-0.004372902589108718,0.00041330155318153317,0.08463679113676162,0.011921076625055853,0.009749736942038338,0.9976114019805096,0.06525304285821412,-0.020524415304315945,0.00960621739511301
280.4166666667403,-0.22438717,-0.9228331,0.06327933,-2.4693527,0.06484239,1.5040288,0.733156,0.04,0.039999954,-0.0030486616315439363,-0.004500737810454736,0.0007175543451420907,0.0847569850173068,0.011950163523213934,0.00974212319583289,0.9975580170611207,0.06598275370121735,-0.02073700762195716,0.009708518217326654
280.43333333340695,-0.22679034,-0.9243144,0.06395608,-2.470563,0.06553534,1.5033125,0.73259056,0.04,0.03999996,-0.0040423190988514435,-0.004570142126786303,0.0008545604803789075,0.08486779654073895,0.011975975194518713,0.00973301463972906,0.9975039651207388,0.06671344478763878,-0.02094996763132366,0.0098109484361657
280.4500000000736,-0.22919418,-0.92579615,0.06463305,-2.4717734,0.0662285,1.502596,0.7320247,0.04,0.039999966,-0.002477352685592571,-0.004715232559866778,0.0014138779593109163,0.08496738969577486,0.01199487390433299,0.00972262352655262,0.9974492740748051,0.06744483291915292,-0.021162793164411334,0.009913442673067279
280.46666666674025,-0.23159845,-0.92727816,0.06531012,-2.4729836,0.06692178,1.5018795,0.7314589,0.04,0.03999996,-0.0018989354141130121,-0.004714023325216865,0.0017428181196210701,0.08505818388890606,0.012011702076587822,0.009711177139330007,0.9973939394203057,0.06817700069876438,-0.021375367661272356,0.010015979268636281
280.4833333334069,-0.23400286,-0.9287603,0.065987214,-2.4741938,0.067615114,1.5011629,0.7308931,0.04,0.039999958,-0.0023617215629156973,-0.004826816296292502,0.0018088277621730597,0.08513816077374262,0.012028233744967112,0.009699124893103317,0.997337964661748,0.06890983313037229,-0.021587808113536583,0.01011858108429793
280.50000000007356,-0.23640712,-0.9302423,0.06666426,-2.475404,0.06830839,1.5004463,0.73032725,0.04,0.039999958,-0.0025739282747183623,-0.004892022996956513,0.001937017850517364,0.08520772527413509,0.01204228784522448,0.009685960038135745,0.9972813539631257,0.06964321281512174,-0.021800236365495433,0.010221234791904586
280.5166666667402,-0.23881091,-0.931724,0.06734117,-2.4766142,0.06900151,1.4997299,0.7297615,0.04,0.03999996,-0.0026927881358718153,-0.004960216870966705,0.002126057950890825,0.08526701611020873,0.012052216030353946,0.00967150297605511,0.997224112006444,0.07037704559428595,-0.0220126827460392,0.010323937461128944
280.53333333340686,-0.24121393,-0.9332053,0.06801789,-2.477824,0.06969442,1.4990135,0.7291961,0.04,0.03999996,-0.0020049987568215855,-0.0051347883617672285,0.0024196206750204396,0.08531638064913646,0.012057627603151586,0.009655745396585896,0.9971662423364959,0.07111132491654476,-0.022224973517941882,0.010426656475264527
280.5500000000735,-0.2436159,-0.9346859,0.06869428,-2.4790325,0.07038702,1.4982975,0.7286307,0.04,0.03999996,-0.0010435390805474398,-0.005105959355197753,0.002962108098403249,0.08535447019405074,0.012061573598629444,0.009639233402737646,0.9971077692875471,0.07184578614775781,-0.022436838834669993,0.010529373311333924
280.56666666674016,-0.24601652,-0.9361656,0.069370285,-2.4802403,0.07107925,1.4975818,0.7280658,0.04,0.039999966,-0.0019183457950155969,-0.005195427506647643,0.003039525545855959,0.08538279437330566,0.012062655879435911,0.009621071926257274,0.9970486828193451,0.07258049637296198,-0.022648488603577977,0.0106321022585968
280.5833333334068,-0.24841549,-0.93764436,0.07004585,-2.481448,0.07177097,1.496867,0.7275013,0.04,0.03999996,-0.0026276386280832398,-0.00526554517722988,0.0030225416537632555,0.08540064477370127,0.012062367346523217,0.009602536881413472,0.996988988658399,0.07331533556897543,-0.022860046167671007,0.010734819678183943
280.60000000007346,-0.2508125,-0.939122,0.070720844,-2.4826546,0.07246215,1.4961523,0.7269373,0.04,0.039999958,-0.0017759956549401323,-0.005397708837046045,0.003102567448154403,0.0854077504234016,0.012058530028177673,0.009582991966813767,0.9969286916911182,0.07405023027470017,-0.02307150760944561,0.010837555809610202
280.6166666667401,-0.25320727,-0.94059825,0.07139521,-2.4838595,0.07315271,1.4954385,0.7263738,0.04,0.039999958,-0.0006848600061060139,-0.00541987113338166,0.0040180013506363466,0.08540384697041808,0.012049755975753546,0.009561861277784828,0.996867817834919,0.0747849988502704,-0.02328237234087667,0.01094023995132895
280.63333333340677,-0.25559947,-0.94207287,0.072068855,-2.4850638,0.07384255,1.4947256,0.7258108,0.04,0.039999954,-0.002370175720689538,-0.005449426813672331,0.00378087225487711,0.08538983443818557,0.012040160838757561,0.00953988092297614,0.9968063602093762,0.07551957570071482,-0.02349314347175171,0.01104292270800494
280.6500000000734,-0.25798887,-0.9435458,0.07274169,-2.486267,0.07453152,1.4940132,0.72524846,0.04,0.039999958,-0.0021446014016657244,-0.005522731336386755,0.00355397932043644,0.08536571004118229,0.01202660581535606,0.009516581588868048,0.9967443211013176,0.07625389007003713,-0.02370397269705642,0.011145594638136382
280.66666666674007,-0.26037517,-0.9450168,0.07341364,-2.487468,0.075219624,1.493302,0.7246869,0.04,0.03999996,0.00016530637798606307,-0.005550211137783645,0.004872105911513103,0.0853310912204327,0.012006977495118441,0.009491606899701834,0.9966817282123376,0.0769878879116966,-0.023913943993338634,0.011248157415669008
280.6833333334067,-0.26275808,-0.9464856,0.07408465,-2.4886672,0.07590675,1.4925915,0.72412616,0.04,0.039999958,-0.0013446934741701,-0.00568569797023688,0.004325146041117556,0.08528562605611031,0.011987832203796268,0.00946627799190513,0.9966185753401564,0.07772143226526106,-0.02412376800024582,0.01135068592922273
280.7000000000734,-0.26513734,-0.94795233,0.07475463,-2.4898646,0.07659282,1.4918824,0.72356623,0.04,0.03999996,-0.0005713406633800489,-0.005632698696242389,0.004878999872515166,0.08522952229629638,0.011965186900529091,0.00943898120686542,0.9965548839118809,0.07845445082379852,-0.02433288749770081,0.011453081827095016
280.71666666674,-0.2675126,-0.94941646,0.07542348,-2.4910605,0.07727772,1.4911747,0.72300726,0.04,0.03999996,-0.001900664371090599,-0.005705142554654485,0.004867894268678619,0.08516267679741765,0.011940735828308156,0.009411990496852957,0.9964906464968251,0.07918686067156959,-0.02454189020848959,0.01155543881968876
280.7333333334067,-0.26988345,-0.95087796,0.07609112,-2.492253,0.077961385,1.4904679,0.72244924,0.04,0.03999996,0.0011657838344669713,-0.005940350445181319,0.0054497591132851575,0.08508515163470337,0.011911532252477708,0.009383004300799205,0.9964259028687469,0.07991843650705623,-0.02475001436197532,0.011657632158898097
280.7500000000733,-0.27224982,-0.9523365,0.076757476,-2.4934442,0.07864374,1.4897625,0.7218925,0.04,0.039999966,-0.00214164466241229,-0.005746484330032553,0.005126196161953089,0.08499801402442572,0.011883139675662884,0.009353372664572139,0.9963606174537575,0.08064935480412987,-0.024958142533123114,0.011759790735434051
280.76666666674,-0.27461135,-0.95379233,0.07742246,-2.4946332,0.07932468,1.4890587,0.7213368,0.04,0.039999966,-0.0006384264285230756,-0.005859440957933781,0.0053925424072120975,0.08489917871372192,0.011847623558094787,0.009322069264787555,0.9962948274175482,0.081379364322784,-0.02516571808498427,0.011861810853525449
280.78333333340663,-0.27696767,-0.95524484,0.078085974,-2.4958189,0.08000416,1.4883565,0.72078216,0.04,0.03999996,0.0007684520413997475,-0.0059621906771667454,0.006229437508731284,0.08478959334027845,0.01180910169259897,0.00928979486294216,0.9962285589039079,0.0821082595719621,-0.025372471844243995,0.011963687007746337
280.8000000000733,-0.2793186,-0.95669407,0.07874797,-2.4970024,0.08068206,1.4876555,0.72022897,0.04,0.03999996,-0.0011858295089872684,-0.0059862905948282474,0.005495510590991515,0.08467065503481745,0.011770279358092241,0.00925655146674155,0.9961617850465306,0.08283618008232782,-0.025579090271559045,0.012065464067217629
280.81666666673993,-0.2816638,-0.95813966,0.07940833,-2.4981828,0.0813583,1.4869564,0.71967715,0.04,0.03999996,0.00023096056227522865,-0.00593704790485261,0.006425080063887645,0.08453991899260158,0.011725543725157904,0.009221816878454851,0.9960945383869072,0.08356293672380694,-0.02578503989719387,0.012167083437189004
280.8333333334066,-0.28400302,-0.9595816,0.08006706,-2.4993598,0.082032815,1.4862589,0.7191267,0.04,0.039999966,0.0006088536225190566,-0.006111417638579586,0.006458021334798669,0.08439846066899301,0.011678119013600746,0.009185940823914746,0.9960268361493462,0.08428838267342662,-0.02599026934350138,0.012268500970934708
280.85000000007324,-0.28633597,-0.9610197,0.080724,-2.500535,0.08270553,1.4855635,0.71857774,0.04,0.03999996,-0.001786148112814523,-0.005974140449738208,0.006280594137864082,0.0842468169758889,0.011629130937773447,0.009149431686487436,0.9959586630376174,0.08501253919686232,-0.02619535989514506,0.012369835067110169
280.8666666667399,-0.2886623,-0.9624538,0.08137909,-2.5017054,0.08337633,1.48487,0.7180303,0.04,0.039999958,0.0027420327130878164,-0.006174948936227276,0.007320643831132401,0.0840837227173821,0.011572953071444885,0.009110540052179213,0.9958900784746717,0.08573513965909958,-0.026399143368183362,0.012470872173714469
280.88333333340654,-0.2909819,-0.9638837,0.08203225,-2.5028734,0.08404517,1.4841785,0.7174845,0.04,0.039999966,-0.0012055534634569653,-0.006028526436252513,0.00661250371118971,0.08391101769483891,0.011519105081778419,0.00907161122121189,0.9958210446116607,0.08645630853294296,-0.02660270366675044,0.012571793070869456
280.9000000000732,-0.29329425,-0.9653091,0.0826834,-2.504037,0.084711954,1.4834893,0.7169403,0.04,0.039999966,0.002036710381747575,-0.006208219184133945,0.007722734153170485,0.08372700451923948,0.011459442238590686,0.00903107131181246,0.9957516175919033,0.08717573293770434,-0.02680516372408188,0.012672444421150831
280.91666666673984,-0.29559925,-0.96673,0.08333246,-2.5051975,0.08537663,1.4828023,0.71639794,0.04,0.039999966,-0.0005869893854981711,-0.006143576342704238,0.00704134482540919,0.08353324809294178,0.011399506868829418,0.008990099246921998,0.9956817692043575,0.08789353988156269,-0.02700725569871452,0.01277295035584211
280.9333333334065,-0.2978965,-0.968146,0.08397934,-2.5063534,0.086039074,1.4821175,0.7158573,0.04,0.03999996,0.002213317217902855,-0.006223137603483808,0.008056673435297146,0.08332783602810238,0.01133460080561913,0.0089472900073784,0.9956115516273429,0.0886094285222762,-0.027208249742496138,0.012873173233526507
280.95000000007315,-0.3001859,-0.9695574,0.084623985,-2.5075061,0.08669924,1.4814352,0.7153187,0.04,0.039999958,-0.00025503552589789535,-0.006180297825533754,0.007295663761119897,0.08311271855012392,0.011270339705499056,0.0089041246315828,0.9955409386055217,0.08932353274869885,-0.02740879264910966,0.012973208671989974
280.9666666667398,-0.30246705,-0.97096354,0.08526631,-2.5086539,0.087357014,1.4807552,0.71478194,0.04,0.03999996,0.002391081633890124,-0.006205963755540056,0.008384189356680505,0.0828861478086259,0.011198325127944567,0.008858714368920863,0.9954699766882036,0.09003559688546686,-0.027608241407217158,0.01307294198969697
280.98333333340645,-0.30473962,-0.9723643,0.08590625,-2.5097973,0.08801232,1.4800777,0.71424717,0.04,0.03999996,0.0011779703748437953,-0.006315058214007019,0.008220663263314165,0.08264904991163928,0.011128856391542916,0.008813520927644702,0.9953986704930634,0.0907455107847485,-0.02780695154030839,0.013172414322818111
281.0000000000731,-0.30700338,-0.9737596,0.086543724,-2.510937,0.088665135,1.4794029,0.71371454,0.04,0.03999996,0.00036380834924631955,-0.0063147793720574885,0.00814573679978059,0.08240252522395072,0.011054391304887359,0.008766339249251583,0.9953270167582468,0.09145328513996587,-0.02800515340580701,0.013271689076917025
281.01666666673975,-0.30925816,-0.97514915,0.08717864,-2.5120718,0.08931531,1.478731,0.71318394,0.04,0.03999996,0.0018549691123137535,-0.00611059503864142,0.00888971145016626,0.08214488304885428,0.010974049076180728,0.008717352828376698,0.9952550503842379,0.09215877291991652,-0.028202323210516394,0.013370647856146594
281.0333333334064,-0.31150377,-0.97653323,0.08781093,-2.513202,0.08996281,1.4780618,0.71265554,0.04,0.03999996,0.001999424702803232,-0.006250318712222591,0.008512046142339358,0.08187710176733332,0.01089267959352602,0.00866776595316436,0.9951827754908393,0.09286196949675783,-0.028398520954926735,0.013469298241010473
281.05000000007306,-0.31373975,-0.97791153,0.08844052,-2.514327,0.090607546,1.4773954,0.7121293,0.04,0.03999996,0.0022342397160368677,-0.006352721973593156,0.008929258929257777,0.08159817162585564,0.010810016716363755,0.008617470318232234,0.995110223016828,0.0935626335636384,-0.02859366046754368,0.013567616927880072
281.0666666667397,-0.31596586,-0.97928387,0.089067355,-2.5154476,0.09124945,1.4767318,0.7116054,0.04,0.03999996,0.0013011835083398537,-0.006397955522949306,0.00870239472343659,0.08130966937949241,0.010725016192503318,0.0085661571101589,0.9950373844970081,0.09426079294196835,-0.028788126167747567,0.013665656188217587
281.08333333340636,-0.31818178,-0.9806498,0.08969133,-2.5165637,0.09188846,1.4760712,0.71108395,0.04,0.03999996,0.0010810744321743115,-0.006354015332288299,0.009139147800041325,0.0810107685623964,0.010635928679313905,0.008512920950779573,0.9949642778309473,0.09495630883144998,-0.02898194430254985,0.013763435541022107
281.100000000073,-0.32038733,-0.98200935,0.090312384,-2.5176742,0.09252446,1.4754139,0.7105649,0.04,0.03999996,0.002662921424367859,-0.006276797679991009,0.009635787245210192,0.08070157586113749,0.010542050966188822,0.008458175433878772,0.9948909326645665,0.09564910107236653,-0.029174621264590077,0.013860845571061367
281.11666666673966,-0.32258233,-0.98336256,0.090930454,-2.5187795,0.0931574,1.4747596,0.7100484,0.04,0.039999966,0.0023465446100212617,-0.006342571932610452,0.009286260376761835,0.08038198863843038,0.010445017569334816,0.008402247468553871,0.9948173540617179,0.09633912673164136,-0.029366335677766503,0.013957902675118353
281.1333333334063,-0.32476643,-0.984709,0.09154547,-2.5198784,0.093787216,1.4741086,0.7095344,0.04,0.039999966,0.0040762643606528925,-0.0063473279716480535,0.010245888272109038,0.08005200976162768,0.010346669164859084,0.008346259539833319,0.9947435837340571,0.09702620663166583,-0.029556532595291337,0.014054509153209181
281.15000000007296,-0.3269394,-0.9860485,0.09215734,-2.5209713,0.09441382,1.473461,0.7090231,0.04,0.03999997,0.003166166828316719,-0.006261378850153099,0.010199901390706145,0.07971251592593025,0.010249814141322141,0.008288868636976483,0.9946696198713693,0.0977103348772506,-0.02974550465062405,0.014150714335357516
281.1666666667396,-0.32910097,-0.98738104,0.092766,-2.5220592,0.09503714,1.4728167,0.7085145,0.04,0.039999973,0.0015825786635170758,-0.006387021369216872,0.0095991327074052,0.07936243069754911,0.01015235661716692,0.008231302391719625,0.9945954600528009,0.09839141295380044,-0.029933838276903865,0.014246614521501742
281.18333333340627,-0.33125094,-0.98870635,0.093371406,-2.5231411,0.095657095,1.4721756,0.7080085,0.04,0.03999997,0.002977463252751278,-0.006342533276681994,0.01008942016553771,0.07900238375556165,0.0100476377822561,0.008171534493103066,0.9945211376243588,0.09906929068798782,-0.030121187124230665,0.014342124917784894
281.2000000000729,-0.333389,-0.9900244,0.09397345,-2.524218,0.09627364,1.4715382,0.70750546,0.04,0.039999973,0.0015424444707479168,-0.00629246065178557,0.010035176069722596,0.07863279247048743,0.009940107754356936,0.008110719823435572,0.9944466445626671,0.09974403145363789,-0.030307810817627276,0.014437309682600475
281.21666666673957,-0.335515,-0.991335,0.094572075,-2.5252879,0.09688667,1.4709042,0.70700514,0.04,0.03999997,0.004873886843714814,-0.006322755334023378,0.010841282500628768,0.07825221799572377,0.009826304178740117,0.008047560596240878,0.9943720436546429,0.10041536284058661,-0.03049286679870524,0.014531991538623732
281.2333333334062,-0.33762857,-0.99263793,0.09516723,-2.526352,0.09749616,1.4702741,0.7065078,0.04,0.039999973,0.0025211381754264295,-0.006322512368675537,0.010552751719061781,0.0778626468377562,0.009714086790895722,0.00798408960665626,0.9942973182154556,0.10108332387166348,-0.030676968883781994,0.014626284720088487
281.2500000000729,-0.3397297,-0.99393314,0.09575883,-2.527409,0.09810201,1.4696476,0.7060134,0.04,0.03999997,0.004378640464208772,-0.006194972515022323,0.010982917653035162,0.07746297877973687,0.009598427758663375,0.007919523665922988,0.9942225013980474,0.10174781842726044,-0.0308596516495028,0.014720090324945964
281.2666666667395,-0.34181786,-0.9952205,0.096346825,-2.5284603,0.098704174,1.4690251,0.7055218,0.04,0.03999997,0.0028272375894422552,-0.006383873598397871,0.010808968881947933,0.07705299013638021,0.009481463466875955,0.007854164262981293,0.9941476107337135,0.1024086176179884,-0.03104132409162102,0.014813484014926938
281.2833333334062,-0.34389293,-0.9964997,0.09693113,-2.5295043,0.09930257,1.4684066,0.70503354,0.04,0.03999997,0.004616555098602149,-0.006267625652703335,0.011384670714154055,0.07663490171970952,0.009361177703894441,0.0077873805261488155,0.9940726587850229,0.10306583245922475,-0.031221523697287465,0.014906364197290283
281.3000000000728,-0.34595472,-0.9977708,0.097511716,-2.5305421,0.09989712,1.4677923,0.7045484,0.04,0.03999997,0.0031435003616131496,-0.006198141240454369,0.011233713667690992,0.07620624679567975,0.009242464670688075,0.00772023805599148,0.993997655114331,0.10371934468082206,-0.03140057508444512,0.0149987683013775
281.3166666667395,-0.34800303,-0.99903345,0.09808847,-2.5315733,0.10048777,1.4671818,0.70406634,0.04,0.039999977,0.0036451666918901893,-0.006223870390889563,0.01115388420265262,0.07576788431754324,0.009118858146946594,0.007651776047679838,0.9939226192246621,0.10436900477074006,-0.03157858945605652,0.015090743014136728
281.33333333340613,-0.35003754,-1.0002875,0.09866135,-2.5325975,0.101074465,1.4665755,0.7035875,0.04,0.039999977,0.004022266790637552,-0.006238740168598711,0.011585206662900749,0.07532056789303887,0.008991068752027015,0.007581516387839542,0.9938475744978288,0.10501473725233432,-0.03175536597076655,0.015182238196938697
281.3500000000728,-0.3520581,-1.0015333,0.09923033,-2.5336144,0.10165712,1.4659734,0.7031121,0.04,0.039999977,0.005035047058887798,-0.006261552641109724,0.01166269268519926,0.0748639718884861,0.008861792226510451,0.007510268398363912,0.9937725366939346,0.1056565924165307,-0.031930566629155346,0.015273136762649301
281.36666666673943,-0.35406452,-1.0027702,0.099795274,-2.534624,0.10223569,1.4653753,0.70264,0.04,0.039999973,0.004270749795409756,-0.006173072042961469,0.011629774562871287,0.07439678202132002,0.008731928882910871,0.007438689235176078,0.993697522581473,0.10629435551630434,-0.03210458839538421,0.015363560940728938
281.3833333334061,-0.35605654,-1.003998,0.10035616,-2.5356266,0.102810085,1.4647818,0.70217127,0.04,0.039999973,0.004238913174470227,-0.006072959154432289,0.012053580461746094,0.0739211009597558,0.008598602750448539,0.007365062930796806,0.9936225478553059,0.10692800150039362,-0.03227732125501119,0.01545345984764951
281.40000000007274,-0.35803387,-1.0052171,0.10091292,-2.5366218,0.10338026,1.4641924,0.70170605,0.04,0.039999966,0.004775831906944639,-0.006285659957278034,0.011782966253004457,0.07343607595521942,0.008463674852711506,0.007290934168579739,0.9935476334048168,0.10755743741624807,-0.03244871003497324,0.015542812782882852
281.4166666667394,-0.3599963,-1.0064268,0.101465516,-2.5376096,0.10394616,1.4636075,0.7012442,0.04,0.03999997,0.004516346025562612,-0.006154493466284383,0.01221490102855105,0.07294188028545501,0.008326179998316186,0.007215752164715032,0.993472806434067,0.10818247617641216,-0.03261881367650937,0.01563162559352486
281.43333333340604,-0.36194363,-1.0076272,0.10201385,-2.5385897,0.1045077,1.4630271,0.70078576,0.04,0.039999973,0.00492292746747669,-0.00613641598704584,0.01218843385769608,0.07243984967537387,0.00818668279619812,0.007139425782017858,0.9933980807915028,0.10880309387637525,-0.032787573482814324,0.015719887652165917
281.4500000000727,-0.3638758,-1.0088183,0.10255791,-2.5395622,0.10506485,1.4624512,0.7003311,0.04,0.03999998,0.004893592840948813,-0.006056056240863472,0.012291773360650904,0.07192948965932444,0.00804468448233832,0.007061430345830802,0.9933234549220284,0.10941938893767814,-0.032954996154471596,0.015807575865032977
281.46666666673934,-0.3657925,-1.01,0.10309761,-2.540527,0.105617575,1.4618798,0.69988006,0.04,0.039999977,0.005041921463733168,-0.006159564558930186,0.012226019839323143,0.0714089289708017,0.007899989761248423,0.006982785091724529,0.9932489609662029,0.11003116928968065,-0.03312101789450535,0.01589470030972769
281.483333333406,-0.3676935,-1.011172,0.103632875,-2.541484,0.10616576,1.4613132,0.6994327,0.04,0.039999973,0.005242944975170083,-0.0060314875217543085,0.012606165212702969,0.07088000213004042,0.00775278041380913,0.006902671613799989,0.9931746234472066,0.11063831934316848,-0.033285586376257476,0.01598121938423426
281.50000000007265,-0.36957866,-1.0123341,0.104163684,-2.5424333,0.10670939,1.4607514,0.6989891,0.04,0.03999998,0.00499021502520236,-0.006005798157543429,0.012731637495766446,0.07034316374003631,0.007604047375711654,0.006821654834344659,0.9931004439067134,0.11124085045138682,-0.03344887627086117,0.016067177081170135
281.5166666667393,-0.37144777,-1.0134864,0.10468998,-2.543374,0.10724839,1.4601943,0.6985493,0.04,0.039999977,0.00600593037762831,-0.006018985001085553,0.01280110419575875,0.06979690368121391,0.007452080033189208,0.006738733123237035,0.9930264597597236,0.11183862974635164,-0.033610543594505,0.016152475748635868
281.53333333340595,-0.3733006,-1.014629,0.1052117,-2.5443063,0.10778271,1.4596419,0.6981132,0.04,0.03999998,0.00650380941462636,-0.006117364400812231,0.012746277367181591,0.06924301418040207,0.0073008553566451095,0.006656044638796842,0.992952699053585,0.11243153307732003,-0.033770474017985386,0.016237083995738606
281.5500000000726,-0.37513706,-1.015761,0.105728805,-2.5452302,0.108312294,1.4590948,0.697681,0.04,0.039999977,0.005535128367450959,-0.005782777562601815,0.013422830525777751,0.06868161897494984,0.007148716574419636,0.0065728469443509935,0.9928791585671619,0.11301957783972222,-0.03392895620696202,0.016321073451261693
281.56666666673925,-0.37695694,-1.0168827,0.106241226,-2.5461457,0.108837076,1.4585524,0.6972528,0.04,0.039999977,0.005653019297269246,-0.0059009188244502075,0.012934806431841306,0.06811176395419738,0.006994992227803086,0.006488518699491075,0.9928058461256319,0.11360274202518277,-0.03408611092021681,0.01640444895333235
281.5833333334059,-0.37876,-1.0179944,0.10674893,-2.5470533,0.10935702,1.4580148,0.6968285,0.04,0.039999954,0.005338948294264512,-0.0060262919502312995,0.01260619099138216,0.06753330099310087,0.0068387482513949365,0.006401474005712941,0.9927327915467793,0.11418086927102233,-0.03424188317629803,0.016487180377286876
281.60000000007255,-0.38054618,-1.0190955,0.10725185,-2.5479522,0.109872095,1.4574826,0.6964082,0.04,0.039999943,0.0064458072953188505,-0.00576103450377341,0.01352341845216598,0.06694744931881068,0.006677903018654291,0.006314170638735489,0.9926600141333319,0.1147539700791222,-0.03439597868659524,0.016569228771570237
281.6166666667392,-0.38231534,-1.0201862,0.10774997,-2.5488427,0.11038221,1.4569553,0.69599193,0.04,0.03999994,0.00574547688205751,-0.005780981001801688,0.013048017960293201,0.06635347334159127,0.0065178428416537235,0.006226552788581856,0.9925875208708925,0.11532197536390534,-0.03454869649003456,0.01665061501512501
281.63333333340586,-0.38406703,-1.0212661,0.10824322,-2.5497246,0.110887334,1.4564332,0.69557965,0.04,0.039999947,0.006016195962210702,-0.00595159942389234,0.013343076168059742,0.0657518631775379,0.006354478065038886,0.006137233251669871,0.992515349927496,0.1158846584135374,-0.034699977492119755,0.016731337804387684
281.6500000000725,-0.38580132,-1.0223352,0.10873157,-2.5505972,0.11138743,1.4559163,0.69517154,0.04,0.039999947,0.007153532452996991,-0.005733599306784187,0.013725140918297019,0.06514347316495459,0.006188178769082292,0.006046982791311793,0.9924435147557087,0.11644210475829334,-0.034849475839194885,0.01681131441998
281.66666666673916,-0.387518,-1.0233933,0.109214894,-2.5514607,0.11188246,1.4554048,0.69476765,0.04,0.039999947,0.0067552784973834434,-0.00566765900084365,0.013712963881418183,0.0645276335995488,0.006022357180630681,0.005956397115722059,0.9923720254155243,0.11699427283323746,-0.03499729978310452,0.016890598118590866
281.6833333334058,-0.3892169,-1.0244405,0.109693244,-2.5523162,0.11237237,1.4548986,0.6943679,0.04,0.039999947,0.005334123276279357,-0.005722680425135351,0.013227839770135752,0.0639042526556286,0.005856177363794696,0.005865127583352427,0.9923008887898824,0.11754105709123146,-0.03514386763427739,0.01696922427188735
281.70000000007246,-0.39089793,-1.0254767,0.11016656,-2.5531619,0.11285708,1.4543976,0.6939723,0.04,0.039999947,0.007831327059437676,-0.00569876560913285,0.013829271892840111,0.06327391556124802,0.005685638218052166,0.005771656586494443,0.9922301498831055,0.11808235248324597,-0.035288603339064924,0.017047057498305658
281.7166666667391,-0.3925608,-1.026502,0.11063475,-2.5539994,0.1133366,1.453902,0.69358104,0.04,0.039999947,0.0054582200531339,-0.005721003414280168,0.013249140796378622,0.0626370413110427,0.005514938600295869,0.005678253260553129,0.9921597921687139,0.11861820795594691,-0.03543202240337642,0.01712423234662077
281.73333333340577,-0.39420548,-1.027516,0.11109786,-2.554827,0.11381085,1.4534115,0.69319403,0.04,0.039999947,0.00807429577238672,-0.005736908376852146,0.013884638771022306,0.06199295632499616,0.005339723909674089,0.005582499053755435,0.9920898678196348,0.11914842432796431,-0.03557367409117618,0.017200606426449685
281.7500000000724,-0.39583176,-1.0285187,0.11155578,-2.5556452,0.114279866,1.4529269,0.69281137,0.04,0.039999947,0.007212625479668944,-0.005516873258751276,0.014237634558322831,0.061342812189362994,0.005164995384751068,0.005487383217800373,0.992020388272316,0.11967302552836481,-0.03571342857290033,0.017276204227178425
281.76666666673907,-0.3974395,-1.0295097,0.11200848,-2.5564542,0.114743516,1.4524477,0.6924331,0.04,0.039999943,0.006811215165880569,-0.005551898035605074,0.013891622056472208,0.060686292862024024,0.004991926487476889,0.005391417466535799,0.9919513509098511,0.12019196555526618,-0.035851761694393164,0.017351081450204798
281.7833333334057,-0.3990287,-1.0304893,0.11245596,-2.5572543,0.11520177,1.451974,0.6920591,0.04,0.039999943,0.00642425504473465,-0.005473275631442953,0.013671456379082958,0.06002372092536676,0.004814324711822882,0.005294006477375095,0.991882778192509,0.12070516078841152,-0.03598861745277928,0.017425208692901754
281.8000000000724,-0.40059912,-1.0314575,0.112898126,-2.5580447,0.11565465,1.451506,0.69168985,0.04,0.039999943,0.007920137795403015,-0.005501862193410534,0.014111833875951607,0.059355203677494306,0.004635082459148253,0.005195743641556921,0.9918146791595891,0.12121274844992698,-0.03612358790065491,0.01749852033629349
281.816666666739,-0.40215066,-1.0324143,0.113335006,-2.5588257,0.11610206,1.4510435,0.6913246,0.04,0.039999943,0.007148481479357649,-0.005537807830952035,0.013784153145202094,0.05867911327151964,0.004456161729681203,0.005096837266893795,0.9917471068332836,0.1217142831746447,-0.036256968665948235,0.01757104385773155
281.8333333334057,-0.40368327,-1.033359,0.113766536,-2.559597,0.116544,1.4505867,0.690964,0.04,0.039999943,0.007551443349429476,-0.005291621588185413,0.014346632608708276,0.05799958146957873,0.004274566459286587,0.004997066883343032,0.9916800372062272,0.12221005853159335,-0.03638870025365572,0.017642785897074555
281.8500000000723,-0.40519667,-1.0342921,0.114192694,-2.5603588,0.116980426,1.4501357,0.69060796,0.04,0.039999943,0.007518158735364544,-0.005452011401815837,0.014181610882524343,0.05731340051054453,0.004092611409523437,0.00489677789909717,0.9916135055853136,0.12269990662152502,-0.03651867292325652,0.017713694809346703
281.866666666739,-0.40669107,-1.0352132,0.114613436,-2.5611107,0.11741131,1.4496902,0.6902563,0.04,0.039999943,0.007663492021969809,-0.0052047233304458596,0.014030138737897158,0.05662179844303511,0.003908912225661611,0.00479562088526788,0.9915475160610017,0.12318381507696963,-0.03664705492010152,0.017783825854507065
281.88333333340563,-0.40816605,-1.0361224,0.11502873,-2.561853,0.11783662,1.4492506,0.6899092,0.04,0.03999995,0.007793582370663188,-0.005366745449317256,0.014303035402363218,0.05592478933555789,0.0037246476829420217,0.00469354592315201,0.9914820982155765,0.12366168148485998,-0.036773678706819315,0.01785312310892402
281.9000000000723,-0.4096217,-1.0370201,0.11543858,-2.5625854,0.118256316,1.4488169,0.68956655,0.04,0.039999947,0.00813950326219448,-0.005238752375077982,0.014191952334619007,0.05522326888272469,0.0035393694826281272,0.0045909951624488465,0.991417278111231,0.12413345396340758,-0.03689831774576277,0.01792150711199375
281.91666666673893,-0.41105765,-1.0379055,0.11584292,-2.563308,0.1186704,1.4483888,0.6892286,0.04,0.039999947,0.007524734658570509,-0.005369804231269981,0.014206074213185538,0.05451720339887636,0.00335496774059702,0.004488767733691501,0.9913530450170414,0.12459912058120905,-0.0370214896399522,0.017989124232946963
281.9333333334056,-0.41247398,-1.0387785,0.116241746,-2.5640206,0.11907884,1.4479667,0.68889517,0.04,0.039999943,0.008037388414416924,-0.005170733629017432,0.014517900954413854,0.05380651733670341,0.0031676779879639717,0.004385044127717376,0.9912894316612763,0.12505859267859273,-0.03714290470994303,0.01805590495161371
281.95000000007224,-0.41387066,-1.0396396,0.11663501,-2.5647235,0.11948161,1.4475503,0.68856657,0.04,0.039999947,0.007817013843025578,-0.005167461847696564,0.014098106815363387,0.053092266219109036,0.0029805364431434566,0.0042805453681056885,0.9912264227798036,0.1255120288487015,-0.03726268269054578,0.01812186182875802
281.9666666667389,-0.41524756,-1.0404885,0.11702273,-2.5654166,0.11987865,1.4471399,0.6882425,0.04,0.039999947,0.007813064556128069,-0.005115634231248056,0.014289205105755265,0.052372086745543445,0.002790826234081091,0.0041751571126069364,0.9911640594852803,0.12595919910993328,-0.03738077294022572,0.018186950229089924
281.98333333340554,-0.4166046,-1.0413251,0.117404856,-2.5660996,0.12026997,1.4467356,0.68792313,0.04,0.039999947,0.008205525291238303,-0.004995435542270998,0.01457432706669648,0.051648990690972965,0.0026000932471360975,0.004069210935389752,0.9911023517067855,0.12640015467886484,-0.037496997276567225,0.01825115157132901
282.0000000000722,-0.41794178,-1.0421494,0.11778136,-2.5667722,0.12065556,1.4463371,0.68760854,0.04,0.039999947,0.0088886498249785,-0.005078802018168571,0.014402226576037958,0.050921430959545474,0.0024104988470638952,0.00396356307097738,0.9910413108388075,0.12683487830010104,-0.03761135781936361,0.01831446478826433
282.01666666673884,-0.41925895,-1.0429614,0.11815225,-2.567435,0.12103538,1.4459445,0.68729854,0.04,0.03999995,0.007731293435853104,-0.005001976519131146,0.014278279642021552,0.05018983943605799,0.0022200581508613638,0.00385684156517261,0.9909809488523903,0.1272632538959227,-0.03772414583099725,0.018376943183234802
282.0333333334055,-0.42055613,-1.0437611,0.118517496,-2.5680876,0.12140944,1.445558,0.68699336,0.04,0.039999954,0.008723150291300996,-0.0049755274622365064,0.014355899295626084,0.0494554519674793,0.0020279159347454997,0.003749490809736581,0.9909212777984255,0.1276853724790137,-0.037835016673664894,0.018438502502492383
282.05000000007215,-0.42183313,-1.0445484,0.11887708,-2.56873,0.12177768,1.4451772,0.6866929,0.04,0.03999995,0.008058623867412962,-0.0049983209701925935,0.014279691074592371,0.04871708834673451,0.0018369918742410212,0.003642453657166995,0.9908623101292071,0.1281010930441735,-0.0379443204841747,0.018499212666849642
282.0666666667388,-0.42309004,-1.0453234,0.11923101,-2.5693626,0.12214011,1.4448024,0.68639725,0.04,0.03999995,0.008306114905876072,-0.004876045286514308,0.01422432669181406,0.047976061973345016,0.0016433159260642021,0.003533729174749735,0.9908040495774113,0.12851051303647865,-0.03805188662469566,0.018559022183430064
282.08333333340545,-0.42432672,-1.046086,0.11957922,-2.5699852,0.1224967,1.4444339,0.68610626,0.04,0.03999995,0.008341137609813032,-0.004778802324331699,0.014499440986759371,0.04723135041607097,0.0014499143265804485,0.0034255036223472396,0.9907465299169335,0.1289134768633124,-0.038157594009841624,0.018617920398017795
282.1000000000721,-0.4255432,-1.0468358,0.11992173,-2.5705974,0.122847475,1.4440714,0.68582004,0.04,0.03999995,0.00838301069601144,-0.004769754968941831,0.014450742154492602,0.046484655677486025,0.001255113125942663,0.0033163426561322942,0.9906897437611817,0.12931003076064146,-0.03826167493779595,0.018675968034896906
282.11666666673875,-0.4267393,-1.0475732,0.12025855,-2.571199,0.123192415,1.443715,0.6855386,0.04,0.03999995,0.00948785907359806,-0.004868604103244745,0.01459881644342298,0.04573536921542615,0.0010599061499764091,0.0032066575935904354,0.9906337339141635,0.1297000666671671,-0.038363675948419176,0.018733027132292874
282.1333333334054,-0.42791522,-1.0482982,0.120589666,-2.5717914,0.123531476,1.4433646,0.6852619,0.04,0.039999958,0.006824187491094591,-0.004648093047054935,0.01379747434164802,0.044984548281110606,0.0008678204549303053,0.0030977156070857784,0.9905784534512626,0.13008374282437915,-0.038464405638491315,0.018789276457149753
282.15000000007205,-0.42907068,-1.0490105,0.12091505,-2.5723727,0.123864695,1.4430201,0.68499005,0.04,0.039999954,0.009980475194892868,-0.004822305244597813,0.014708039557176367,0.04423084844471842,0.0006701470954894942,0.0029869321420006763,0.9905239696695571,0.13046085333752988,-0.03856311135350635,0.0188445668361666
282.1666666667387,-0.43020585,-1.0497106,0.12123471,-2.5729437,0.12419205,1.4426819,0.6847229,0.04,0.03999996,0.009049652496373461,-0.004614016215198635,0.01435243653754581,0.04347622801778449,0.0004741536533512218,0.0028764525411158516,0.9904702861796517,0.130831456604746,-0.038659739587109596,0.018898854275758513
282.18333333340536,-0.43132082,-1.0503981,0.12154864,-2.573505,0.12451352,1.4423496,0.68446064,0.04,0.03999995,0.007817492050699038,-0.004525471336244702,0.01392615906882222,0.04272008017029104,0.0002824634332586392,0.0027669896616235347,0.9904173609580619,0.13119570267466163,-0.03875498324050769,0.01895230821293355
282.200000000072,-0.4324154,-1.0510724,0.121856816,-2.5740557,0.12482913,1.4420233,0.6842031,0.04,0.039999958,0.008599960799693385,-0.0044646288625854735,0.01462983481809177,0.04196149107671614,8.590919874240308e-05,0.002656356404899838,0.9903652377256897,0.13155337442891135,-0.03884866188841916,0.019004921741068964
282.21666666673866,-0.4334894,-1.0517349,0.122159295,-2.5745962,0.12513886,1.4417032,0.68395025,0.04,0.039999947,0.009461199372351459,-0.0048233685771698065,0.014043062536628348,0.041202422245758354,-0.00011246600457178423,0.002544294124162013,0.9903139680803913,0.1319043771655397,-0.0389401036453666,0.01905644871241254
282.2333333334053,-0.43454307,-1.0523841,0.122456,-2.5751264,0.12544271,1.4413891,0.6837025,0.04,0.039999954,0.008147665541446969,-0.004337988686389793,0.014407770708291245,0.04044366414669998,-0.00030622407403463336,0.0024343905917777187,0.9902634760414445,0.1322490299040069,-0.039030215678751194,0.019107181158784372
282.25000000007196,-0.4355764,-1.0530214,0.12274699,-2.5756464,0.12574072,1.4410812,0.68345934,0.04,0.039999954,0.009327825804361645,-0.004528506869469484,0.014042003257863644,0.039682760415471446,-0.0005048658994933532,0.002321615925946454,0.9902138454223259,0.13258703061209995,-0.03911819772471374,0.01915688529396421
282.2666666667386,-0.43658945,-1.0536461,0.12303226,-2.5761564,0.12603284,1.4407793,0.6832209,0.04,0.039999954,0.008385691522971861,-0.004337390551972797,0.01406889047531612,0.03892293187513183,-0.0006989140680916228,0.002211105856820838,0.9901650418284924,0.1329185210195539,-0.03920457100281015,0.019205684659491313
282.28333333340527,-0.43758217,-1.0542583,0.123311795,-2.5766556,0.12631911,1.4404833,0.6829872,0.04,0.039999954,0.009686133572817113,-0.004457234713192704,0.014108166539417155,0.03816254321828716,-0.0008951165098352292,0.0020997680450886673,0.990117100080729,0.1332434092946982,-0.03928898988063821,0.019253500497637376
282.3000000000719,-0.43855458,-1.0548579,0.12358565,-2.577145,0.1265995,1.4401935,0.68275833,0.04,0.03999996,0.007980376184280047,-0.004243886068241998,0.014050236533724725,0.03740284111606639,-0.0010889925797626567,0.001988762206486163,0.9900699918894366,0.13356180782542384,-0.039371919737030976,0.019300429701861115
282.31666666673857,-0.4395068,-1.055445,0.123853795,-2.5776246,0.1268741,1.4399096,0.68253434,0.04,0.039999958,0.008576632668666484,-0.004343390038880068,0.013743120438869383,0.0366433645549,-0.0012838559867650173,0.001877766682415058,0.9900237217830685,0.13387376962083236,-0.03945323809787759,0.019346475593808758
282.3333333334052,-0.4404388,-1.0560197,0.12411625,-2.5780935,0.12714285,1.4396317,0.682315,0.04,0.039999958,0.009422457945085227,-0.004214573976013547,0.014083662548980413,0.03588357629939452,-0.0014808351679124927,0.0017658453872788672,0.989978332573842,0.13417914498684227,-0.03953260771235438,0.01939151908377689
282.3500000000719,-0.4413506,-1.0565822,0.12437304,-2.5785525,0.12740579,1.4393599,0.6821005,0.04,0.03999996,0.008854596096341538,-0.004280270228276817,0.013784945517270053,0.035125513221341206,-0.0016752203651816955,0.0016549956660471057,0.9899338123892488,0.13447803279630335,-0.03961014421893776,0.01943559257338781
282.3666666667385,-0.4422423,-1.057132,0.12462415,-2.579001,0.12766293,1.4390941,0.68189067,0.04,0.039999966,0.009158860397295854,-0.004089064011292276,0.014079050559190343,0.03436802799142161,-0.001868469874456975,0.0015441677105195173,0.9898901681575046,0.13477039069060162,-0.039685957928511914,0.019478745378131684
282.3833333334052,-0.44311395,-1.0576696,0.12486964,-2.5794399,0.12791426,1.4388342,0.6816855,0.04,0.039999958,0.008090370981550521,-0.004136653084924058,0.013422932825746248,0.03361251756980865,-0.002061119961522393,0.001433934880422913,0.9898473926777969,0.13505626409193175,-0.03976023033070118,0.01952098415929515
