rsonawane2002/My_IMU/logs_2/traj_276/imu_276.csv
time,j1,j2,j3,j4,j5,j6,j7,gripper1,gripper2,imu_ax,imu_ay,imu_az,imu_gx,imu_gy,imu_gz
277.2833333334098,0.00016700293,-0.785875,4.0107683e-05,-2.3551247,9.29385e-05,1.570997,0.786,0.04,0.04,-9.519728,5.1816459745168686e-05,0.08037349,-5.8656167e-07,-0.001164127141237259,9.0946446e-07
277.30000000007647,0.00016699792,-0.78576016,4.0116858e-05,-2.3552213,9.297634e-05,1.5709941,0.786,0.04,0.04,-9.834415,0.0006233290769159794,0.0090860175,3.0425842e-09,-0.0022385013289749622,1.0329887e-06
277.3166666667431,0.00016693887,-0.7856543,4.014101e-05,-2.35531,9.302732e-05,1.5709913,0.786,0.04,0.04,-9.832454,0.0006026897463016212,0.007539306,1.948946e-06,-0.003227406181395054,1.7485909e-06
277.33333333340977,0.00016673665,-0.78555703,4.02055e-05,-2.355391,9.3117465e-05,1.5709884,0.786,0.04,0.04,-9.830625,0.0005499591352418065,0.0061273132,6.4081387e-06,-0.004137423820793629,2.8867062e-06
277.3500000000764,0.00016626336,-0.7854676,4.0346447e-05,-2.3554652,9.3294024e-05,1.5709856,0.786,0.04,0.039999995,-9.828851,0.00048141065053641796,0.0048020477,1.5172373e-05,-0.0049701533280313015,5.407202e-06
277.3666666667431,0.00016535642,-0.78538567,4.060987e-05,-2.3555324,9.359386e-05,1.5709827,0.786,0.04,0.039999995,-9.827197,0.0003874130779877305,0.0035771942,2.9030234e-05,-0.005733273923397064,7.927707e-06
277.3833333334097,0.0001638218,-0.78531075,4.1050753e-05,-2.3555975,9.406158e-05,1.5709798,0.786,0.04,0.04,-9.825663,0.0002694356662686914,0.0023959232,4.8613292e-05,-0.006428354885429144,1.0667272e-05
277.4000000000764,0.0001614373,-0.7852423,4.1731546e-05,-2.355656,9.477405e-05,1.570977,0.786,0.04,0.04,-9.824688,0.0001502911327406764,0.0012864615,7.493505e-05,-0.007077069487422705,1.5343203e-05
277.416666666743,0.00015795571,-0.7851803,4.272198e-05,-2.3557112,9.57999e-05,1.5709741,0.7859997,0.04,0.04,-9.823193,7.397087756544352e-06,0.00021657208,0.00010833589,-0.007662320043891668,2.067363e-05
277.4333333334097,0.0001531074,-0.78512424,4.4097847e-05,-2.355762,9.7219694e-05,1.5709713,0.7859978,0.04,0.04,-9.822134,-0.00014457217184826732,-0.0007843422,0.00015066864,-0.008199021220207214,2.7804423e-05
277.45000000007633,0.00014660318,-0.7850739,4.594052e-05,-2.3558116,9.911951e-05,1.5709683,0.7859959,0.04,0.04,-9.820948,-0.00029751495458185673,-0.0017379131,0.00020859351,-0.008683805353939533,3.734156e-05
277.466666666743,0.00013813647,-0.7850291,4.833629e-05,-2.355856,0.00010159662,1.5709653,0.785994,0.04,0.039999995,-9.820182,-0.0004686930333264172,-0.0026560887,0.00027469333,-0.009131877683103085,4.8428024e-05
277.48333333340963,0.0001273854,-0.7849897,5.1375977e-05,-2.3558989,0.00010472027,1.5709621,0.7859921,0.04,0.04,-9.818913,-0.000653131166473031,-0.0035298923,0.0003491214,-0.00952548161149025,5.957824e-05
277.5000000000763,0.00011401487,-0.78495574,5.515362e-05,-2.3559413,0.00010860041,1.5709581,0.7859883,0.04,0.04,-9.818119,-0.0008272435516119003,-0.004341919,0.00043221773,-0.009883053600788116,7.32674e-05
277.51666666674294,9.767816e-05,-0.7849269,5.9766815e-05,-2.3559833,0.00011333671,1.5709515,0.78598446,0.04,0.04,-9.817477,-0.0010202889097854495,-0.0051272,0.0005324678,-0.010210671462118626,8.872298e-05
277.5333333334096,7.801874e-05,-0.78490317,6.53159e-05,-2.356023,0.000119031654,1.5709447,0.78598,0.04,0.04,-9.816879,-0.0012049152282997966,-0.0058598556,0.00064126524,-0.010518158785998821,0.00010602008
277.55000000007624,5.4671928e-05,-0.78488463,7.190339e-05,-2.356062,0.00012579092,1.5709376,0.78597426,0.04,0.04,-9.81602,-0.0013981056399643421,-0.006636081,0.000761469,-0.010786435566842556,0.00012518252
277.5666666667429,2.7266018e-05,-0.78487116,7.963386e-05,-2.3561006,0.00013372122,1.5709295,0.7859681,0.04,0.04,-9.81528,-0.0015876602847129107,-0.0073665576,0.00089558685,-0.011019958183169365,0.00014623952
277.58333333340954,-4.57616e-06,-0.7848629,8.861352e-05,-2.3561397,0.00014293157,1.570919,0.7859605,0.04,0.04,-9.814673,-0.0017769993282854557,-0.008048607,0.0010394873,-0.011227176524698734,0.00016923311
277.6000000000762,-4.123632e-05,-0.7848596,9.894992e-05,-2.35618,0.00015352061,1.5709082,0.78595155,0.039999995,0.04,-9.814146,-0.001973660197108984,-0.008704505,0.0011980527,-0.011415064334869385,0.00019338256
277.61666666674284,-8.3099774e-05,-0.78486186,0.00011075113,-2.356222,0.00016561087,1.5708942,0.785942,0.039999988,0.039999984,-9.813683,-0.002141696633771062,-0.009383086,0.001370053,-0.011578712612390518,0.00022208827
277.6333333334095,-0.00013055369,-0.78486943,0.00012412631,-2.3562644,0.0001793139,1.5708798,0.7859306,0.039999984,0.03999998,-9.813281,-0.0023363346699625254,-0.009984271,0.0015517554,-0.011729569174349308,0.00025107327
277.65000000007615,-0.00018398724,-0.7848825,0.00013918482,-2.3563073,0.00019474162,1.5708641,0.78591776,0.03999998,0.039999977,-9.812724,-0.0025161090306937695,-0.010659476,0.0017490041,-0.01185287069529295,0.00028203393
277.6666666667428,-0.00024379004,-0.78490114,0.00015603632,-2.356351,0.00021200695,1.5708458,0.78590375,0.039999977,0.03999997,-9.812083,-0.002684949431568384,-0.01127835,0.0019588047,-0.011948272585868835,0.00031584286
277.68333333340945,-0.00031035158,-0.78492534,0.00017479036,-2.356399,0.00023122114,1.570826,0.78588825,0.039999973,0.039999966,-9.811555,-0.0028581665828824043,-0.01185363,0.0021797842,-0.012024074792861938,0.00035078317
277.7000000000761,-0.00038406064,-0.7849553,0.00019555661,-2.3564494,0.00025249668,1.5708038,0.785871,0.03999997,0.03999996,-9.811458,-0.0030211741104722023,-0.012461182,0.0024132794,-0.012091655284166336,0.00038772207
277.71666666674275,-0.00046530462,-0.784991,0.00021844389,-2.3565006,0.00027594517,1.570779,0.78585196,0.039999966,0.039999958,-9.811063,-0.0031770002096891403,-0.013053076,0.002659505,-0.012144303880631924,0.00042664542
277.7333333334094,-0.000554469,-0.7850329,0.00024356067,-2.3565578,0.0003016782,1.5707524,0.785831,0.039999966,0.039999954,-9.81051,-0.0033188355155289173,-0.013649238,0.0029186392,-0.012176030315458775,0.00046837897
277.75000000007606,-0.00065193634,-0.78508073,0.0002710148,-2.3566163,0.00032980533,1.5707227,0.78580797,0.039999966,0.039999954,-9.810527,-0.003453061217442155,-0.0142221395,0.00319084,-0.012203189544379711,0.00051122
277.7666666667427,-0.0007580866,-0.78513485,0.0003009132,-2.3566792,0.00036043668,1.570691,0.7857828,0.039999966,0.039999954,-9.809976,-0.003588750958442688,-0.014836387,0.0034754279,-0.01221202127635479,0.0005559932
277.78333333340936,-0.00087329635,-0.7851955,0.00033336174,-2.3567452,0.00039368003,1.5706567,0.7857556,0.03999997,0.039999958,-9.809805,-0.003706911113113165,-0.015452197,0.0037730674,-0.012210189364850521,0.0006026797
277.800000000076,-0.0009979383,-0.7852628,0.00036846552,-2.356817,0.00042964323,1.5706191,0.78572613,0.039999973,0.03999996,-9.80943,-0.00381493684835732,-0.016039524,0.004082776,-0.01219320297241211,0.00065125065
277.81666666674266,-0.0011323807,-0.78533685,0.00040632795,-2.3568912,0.00046843293,1.5705787,0.7856945,0.039999973,0.039999958,-9.809411,-0.0039059408009052277,-0.016626898,0.0044043423,-0.012174972333014011,0.0007025668
277.8333333334093,-0.0012769877,-0.785418,0.00044705186,-2.3569717,0.0005101532,1.5705357,0.78566045,0.039999973,0.039999958,-9.808905,-0.003999343141913414,-0.017245878,0.004737302,-0.0121375797316432,0.0007548591
277.85000000007597,-0.0014321181,-0.7855062,0.00049073825,-2.3570545,0.00055490766,1.5704894,0.7856238,0.039999977,0.03999996,-9.808891,-0.0040708440355956554,-0.017868023,0.005082256,-0.012095719575881958,0.00080898096
277.8666666667426,-0.0015981263,-0.78560174,0.00053748686,-2.3571434,0.0006027988,1.5704397,0.7855847,0.03999998,0.039999966,-9.808329,-0.004126087296754122,-0.018466456,0.005439263,-0.012033539824187756,0.00086485216
277.88333333340927,-0.001775361,-0.7857047,0.0005873958,-2.3572392,0.00065392733,1.5703864,0.78554296,0.039999977,0.039999958,-9.808313,-0.004180568270385265,-0.019092385,0.0058075082,-0.011969895102083683,0.0009233663
277.9000000000759,-0.001964166,-0.7858153,0.00064056186,-2.3573375,0.0007083916,1.5703297,0.78549844,0.03999998,0.03999996,-9.808299,-0.004218738991767168,-0.019729681,0.006186748,-0.011905614286661148,0.0009827575
277.9166666667426,-0.0021648782,-0.7859337,0.0006970801,-2.3574421,0.0007662891,1.5702696,0.7854512,0.039999984,0.039999966,-9.807723,-0.004241620190441608,-0.020384762,0.0065772817,-0.011819734238088131,0.0010438232
277.9333333334092,-0.0023778288,-0.78606,0.0007570437,-2.357554,0.0008277154,1.5702059,0.78540105,0.03999998,0.03999996,-9.807682,-0.00424849521368742,-0.02103933,0.0069788415,-0.011730785481631756,0.0011065556
277.9500000000759,-0.0026033432,-0.7861944,0.00082054455,-2.3576732,0.00089276495,1.5701386,0.7853479,0.039999984,0.03999996,-9.80763,-0.004235009662806988,-0.021711998,0.0073908693,-0.011638875119388103,0.001171776
277.9666666667425,-0.0028417413,-0.78633714,0.00088767265,-2.357795,0.00096152857,1.5700674,0.7852918,0.039999984,0.03999996,-9.807674,-0.004220462404191494,-0.022414323,0.007813651,-0.011547756381332874,0.0012377597
277.9833333334092,-0.0030933367,-0.7864883,0.0009585162,-2.3579237,0.001034097,1.5699923,0.7852326,0.039999988,0.039999966,-9.807056,-0.004182383418083191,-0.02311835,0.008246344,-0.011433213949203491,0.0013052423
278.00000000007583,-0.0033584347,-0.78664815,0.0010331615,-2.3580596,0.0011105592,1.5699133,0.7851701,0.039999984,0.03999996,-9.80696,-0.004115092568099499,-0.023810463,0.008689208,-0.011314845643937588,0.0013742675
278.0166666667425,-0.0036373371,-0.7868168,0.0011116932,-2.358203,0.0011910017,1.5698302,0.78510445,0.039999988,0.03999996,-9.80689,-0.004052025731652975,-0.024542863,0.009142755,-0.011193161830306053,0.0014456332
278.03333333340913,-0.0039303354,-0.7869943,0.0011941938,-2.3583534,0.0012755077,1.5697429,0.7850355,0.03999999,0.039999966,-9.806836,-0.003973882179707289,-0.025290512,0.009605337,-0.011068602092564106,0.001517585
278.0500000000758,-0.0042377175,-0.7871808,0.001280744,-2.3585112,0.0013641606,1.5696512,0.7849632,0.039999988,0.03999996,-9.806713,-0.003870605956763029,-0.026064424,0.010077496,-0.0109393410384655,0.0015909745
278.06666666674244,-0.0045597632,-0.78737664,0.0013714231,-2.3586762,0.0014570425,1.5695552,0.78488743,0.039999988,0.039999958,-9.806667,-0.0037493472918868065,-0.026856793,0.010558575,-0.01080875564366579,0.0016665757
278.0833333334091,-0.004896746,-0.78758204,0.0014663078,-2.3588479,0.0015542303,1.5694543,0.7848081,0.03999999,0.03999996,-9.806534,-0.0036192983388900757,-0.027663123,0.011048892,-0.010673031210899353,0.0017426646
278.10000000007574,-0.0052489326,-0.7877969,0.0015654729,-2.3590267,0.0016558006,1.5693492,0.7847251,0.03999999,0.03999996,-9.806302,-0.00346328504383564,-0.028468184,0.011548404,-0.010529591701924801,0.0018200113
278.1166666667424,-0.0056165825,-0.7880212,0.0016689921,-2.359213,0.0017618296,1.5692396,0.7846386,0.03999999,0.039999958,-9.806152,-0.0032741264440119267,-0.0293054,0.012056782,-0.010380223393440247,0.0018994833
278.13333333340904,-0.0059999446,-0.7882555,0.0017769363,-2.3594072,0.0018723893,1.5691255,0.78454834,0.039999995,0.03999996,-9.806026,-0.0031050690449774265,-0.030219054,0.012573152,-0.010225511156022549,0.0019793166
278.1500000000757,-0.0063992674,-0.7884997,0.0018893747,-2.3596096,0.0019875506,1.5690063,0.7844544,0.03999999,0.039999958,-9.805899,-0.0028985226526856422,-0.031086275,0.0130978115,-0.010065759532153606,0.002060245
278.16666666674234,-0.006814789,-0.7887542,0.0020063745,-2.3598204,0.0021073841,1.5688825,0.78435665,0.039999995,0.039999958,-9.805861,-0.0026668021455407143,-0.031981435,0.0136303175,-0.009905966930091381,0.0021433297
278.183333333409,-0.0072467416,-0.78901905,0.0021280004,-2.360039,0.0022319527,1.5687537,0.7842551,0.04,0.03999996,-9.805787,-0.0024305921979248524,-0.032905616,0.014170545,-0.009742255322635174,0.002226573
278.20000000007565,-0.00769535,-0.78929394,0.0022543166,-2.360266,0.0023613225,1.5686198,0.7841495,0.039999995,0.039999958,-9.805635,-0.0021705874241888523,-0.033853315,0.01471813,-0.009573731571435928,0.0023108907
278.2166666667423,-0.00816083,-0.78957963,0.0023853842,-2.3605013,0.0024955592,1.5684811,0.78404,0.04,0.039999958,-9.805571,-0.0018785763531923294,-0.03484813,0.015273111,-0.009403948672115803,0.0023970746
278.23333333340895,-0.008643393,-0.7898759,0.002521262,-2.3607452,0.002634719,1.5683372,0.78392637,0.04,0.03999996,-9.805447,-0.0015891650691628456,-0.035832416,0.015835756,-0.00922891590744257,0.0024835235
278.2500000000756,-0.009143245,-0.7901828,0.0026620089,-2.3609977,0.0027788633,1.5681882,0.7838087,0.04,0.039999958,-9.805385,-0.001250152476131916,-0.036827944,0.016405286,-0.009051790460944176,0.0025709835
278.26666666674225,-0.009660583,-0.79050064,0.002807679,-2.3612585,0.0029280495,1.5680342,0.783687,0.04,0.03999996,-9.805254,-0.0009279539808630943,-0.0379176,0.016981412,-0.008870426565408707,0.0026592873
278.2833333334089,-0.010195595,-0.7908295,0.0029583268,-2.3615286,0.0030823306,1.5678747,0.78356105,0.04,0.039999958,-9.805126,-0.0005704611539840698,-0.038985495,0.017563852,-0.008684465661644936,0.002748436
278.30000000007556,-0.010748468,-0.7911692,0.0031140025,-2.3618076,0.0032417607,1.5677099,0.7834309,0.04,0.039999954,-9.805118,-0.00019015464931726456,-0.040067624,0.018152561,-0.008499257266521454,0.0028390975
278.3166666667422,-0.011319371,-0.7915201,0.0032747574,-2.3620949,0.0034063905,1.5675397,0.78329647,0.04,0.03999995,-9.805001,0.00020404625684022903,-0.041208908,0.018747736,-0.008310253731906414,0.0029296498
278.33333333340886,-0.011908474,-0.79188246,0.0034406376,-2.3623917,0.0035762675,1.567364,0.7831578,0.04,0.03999995,-9.804831,0.0006168270483613014,-0.04236139,0.019348657,-0.008116483688354492,0.0030211126
278.3500000000755,-0.012515938,-0.7922561,0.0036116894,-2.3626978,0.0037514395,1.5671828,0.7830149,0.04,0.03999995,-9.804813,0.0010564764961600304,-0.04353112,0.019954942,-0.00792244728654623,0.0031138028
278.36666666674216,-0.013141922,-0.7926413,0.0037879574,-2.3630137,0.0039319512,1.5669962,0.7828675,0.04,0.03999995,-9.804755,0.0015319278463721275,-0.04470587,0.02056658,-0.007726660463958979,0.0032066987
278.3833333334088,-0.013786575,-0.7930379,0.0039694826,-2.3633385,0.0041178446,1.5668039,0.78271574,0.04,0.039999947,-9.804729,0.0019914815202355385,-0.045971368,0.021184053,-0.007530489936470985,0.0033006647
278.40000000007547,-0.014450043,-0.79344624,0.004156304,-2.3636727,0.00430916,1.5666063,0.7825596,0.04,0.039999943,-9.804605,0.002481418661773205,-0.047235105,0.021806289,-0.007331298664212227,0.003394792
278.4166666667421,-0.015132451,-0.7938662,0.004348462,-2.3640163,0.0045059365,1.5664028,0.782399,0.04,0.03999995,-9.804536,0.003000441938638687,-0.048520286,0.022432923,-0.007129542995244265,0.003489487
278.43333333340877,-0.015833937,-0.79429805,0.0045459913,-2.36437,0.0047082156,1.5661938,0.7822339,0.03999999,0.039999932,-9.80443,0.003537195734679699,-0.049842574,0.02306427,-0.006925550755113363,0.0035850336
278.4500000000754,-0.016554618,-0.79474175,0.004748929,-2.364733,0.004916028,1.565979,0.7820643,0.039999995,0.039999936,-9.804421,0.004100254736840725,-0.05119137,0.023700256,-0.0067215897142887115,0.0036818672
278.46666666674207,-0.01729461,-0.79519725,0.004957304,-2.3651052,0.005129409,1.5657586,0.7818901,0.039999995,0.039999932,-9.8042965,0.004666502587497234,-0.052570105,0.024340112,-0.006514252629131079,0.0037778507
278.4833333334087,-0.01805402,-0.7956649,0.0051711495,-2.3654878,0.005348387,1.5655322,0.7817113,0.039999995,0.039999932,-9.804173,0.0052633099257946014,-0.05397492,0.02498432,-0.006303488276898861,0.003874165
278.5000000000754,-0.018832956,-0.79614455,0.005390493,-2.3658795,0.005572994,1.5653002,0.78152806,0.04,0.039999936,-9.804224,0.005906256847083569,-0.05537594,0.025632368,-0.006095650140196085,0.003971802
278.516666666742,-0.019631509,-0.7966364,0.005615361,-2.3662817,0.0058032568,1.5650623,0.7813401,0.04,0.039999936,-9.804042,0.006512642838060856,-0.056875944,0.026283354,-0.005882075987756252,0.0040684394
278.5333333334087,-0.020449763,-0.79714036,0.00584578,-2.366694,0.0060392013,1.5648181,0.7811476,0.04,0.039999936,-9.8040495,0.007173524238169193,-0.058357462,0.026938109,-0.005670206621289253,0.0041659293
278.55000000007533,-0.021287808,-0.7976564,0.0060817725,-2.3671155,0.006280851,1.5645685,0.78095037,0.04,0.039999936,-9.804001,0.007852214388549328,-0.059879996,0.027595839,-0.005459114909172058,0.0042641954
278.566666666742,-0.022145722,-0.7981849,0.0063233613,-2.3675475,0.0065282285,1.5643127,0.7807484,0.04,0.039999932,-9.803846,0.008547035977244377,-0.061458707,0.028256776,-0.005242887884378433,0.00436223
278.58333333340863,-0.023023574,-0.7987256,0.0065705637,-2.36799,0.006781355,1.564051,0.78054184,0.04,0.039999932,-9.80387,0.009267019107937813,-0.06302773,0.028920682,-0.005029025953263044,0.0044609583
278.6000000000753,-0.023921425,-0.7992786,0.0068233986,-2.3684416,0.007040246,1.5637833,0.7803306,0.04,0.03999993,-9.803863,0.010002161376178265,-0.06465161,0.029587198,-0.004816576838493347,0.0045593595
278.61666666674193,-0.024839329,-0.7998441,0.007081884,-2.3689039,0.00730492,1.5635096,0.7801146,0.04,0.039999932,-9.80368,0.010777311399579048,-0.06628086,0.030255549,-0.004599055275321007,0.0046576425
278.6333333334086,-0.02577734,-0.8004219,0.007346035,-2.3693762,0.007575392,1.56323,0.7798939,0.04,0.03999993,-9.803675,0.011542015708982944,-0.06798807,0.030926622,-0.0043831500224769115,0.0047569866
278.65000000007524,-0.026735507,-0.8010121,0.0076158606,-2.3698587,0.007851671,1.5629444,0.77966833,0.04,0.039999925,-9.803626,0.01232521515339613,-0.06971229,0.031599537,-0.004166265018284321,0.004854913
278.6666666667419,-0.027713872,-0.80161506,0.007891376,-2.3703516,0.008133775,1.5626525,0.7794381,0.04,0.039999925,-9.80357,0.013151057995855808,-0.07145741,0.03227487,-0.0039497553370893,0.004954235
278.68333333340854,-0.028712464,-0.8022303,0.00817259,-2.3708546,0.008421711,1.5623549,0.77920306,0.04,0.039999925,-9.80349,0.013982287608087063,-0.073208295,0.032951545,-0.0037326680030673742,0.005053249
278.7000000000752,-0.029731309,-0.80285764,0.008459506,-2.371368,0.008715489,1.5620513,0.7789634,0.04,0.039999925,-9.80346,0.014839839190244675,-0.07504083,0.033629812,-0.0035151485353708267,0.005152225
278.71666666674184,-0.030770427,-0.803498,0.00875213,-2.3718915,0.009015111,1.5617415,0.77871895,0.04,0.039999925,-9.803456,0.015704672783613205,-0.07691642,0.034308847,-0.0033001902047544718,0.0052501536
278.7333333334085,-0.03182984,-0.8041507,0.0090504745,-2.3724246,0.009320584,1.5614257,0.7784697,0.04,0.039999917,-9.803337,0.01661074161529541,-0.07875556,0.034989275,-0.0030824211426079273,0.00534998
278.75000000007515,-0.03290955,-0.804816,0.009354534,-2.3729687,0.009631909,1.5611038,0.7782155,0.04,0.039999913,-9.803222,0.01753927767276764,-0.08065832,0.035670567,-0.002861974760890007,0.005448692
278.7666666667418,-0.03400958,-0.8054937,0.009664313,-2.3735228,0.009949089,1.5607761,0.77795666,0.04,0.039999917,-9.803274,0.018443163484334946,-0.082604274,0.03635326,-0.0026460716035217047,0.0055464893
278.78333333340845,-0.035129894,-0.8061843,0.009979812,-2.3740864,0.010272123,1.5604422,0.77769303,0.04,0.03999992,-9.803156,0.019397862255573273,-0.08460302,0.037036452,-0.002427094615995884,0.005644618
278.8000000000751,-0.03627052,-0.80688703,0.010301029,-2.3746605,0.0106010055,1.5601022,0.77742463,0.04,0.039999913,-9.803007,0.02037086710333824,-0.0865657,0.03771989,-0.002205399563536048,0.005743379
278.81666666674175,-0.037431434,-0.8076023,0.010627961,-2.3752449,0.010935741,1.5597563,0.7771514,0.039999995,0.039999906,-9.802997,0.021352652460336685,-0.088633254,0.038403627,-0.0019855822902172804,0.005840923
278.8333333334084,-0.038612604,-0.80833006,0.010960599,-2.3758395,0.01127632,1.5594041,0.7768735,0.04,0.03999991,-9.80296,0.02236369624733925,-0.09069416,0.03908778,-0.0017668430227786303,0.0059390063
278.85000000007506,-0.039814018,-0.8090704,0.011298941,-2.3764443,0.011622733,1.559046,0.7765909,0.04,0.039999906,-9.80291,0.023378729820251465,-0.09278692,0.03977102,-0.0015491126105189323,0.0060356176
278.8666666667417,-0.04103566,-0.80982316,0.011642974,-2.3770595,0.011974969,1.5586818,0.77630347,0.04,0.03999991,-9.802835,0.02443767711520195,-0.094891205,0.040454507,-0.0013301311992108822,0.006132501
278.88333333340836,-0.042277463,-0.81058836,0.011992687,-2.3776848,0.012333024,1.5583117,0.7760112,0.04,0.03999991,-9.802804,0.02549154683947563,-0.097085856,0.04113727,-0.0011128457263112068,0.006229812
278.900000000075,-0.043539405,-0.811366,0.012348077,-2.37832,0.012696886,1.5579356,0.7757143,0.04,0.03999991,-9.802774,0.026557236909866333,-0.09927605,0.041820154,-0.0008972447249107063,0.0063257255
278.91666666674166,-0.04482144,-0.81215614,0.012709127,-2.3789654,0.013066545,1.5575536,0.77541256,0.04,0.039999913,-9.802644,0.027649549767374992,-0.101511165,0.042502023,-0.0006789069739170372,0.0064218002
278.9333333334083,-0.046123512,-0.8129584,0.013075818,-2.3796206,0.013441979,1.5571655,0.7751062,0.04,0.039999906,-9.8026,0.028760742396116257,-0.103768446,0.0431834,-0.0004612269694916904,0.006517001
278.95000000007497,-0.047445577,-0.81377304,0.013448138,-2.3802862,0.013823179,1.5567715,0.77479506,0.04,0.03999991,-9.802522,0.02989448979496956,-0.106071636,0.043863274,-0.0002442275872454047,0.006611989
278.9666666667416,-0.048787557,-0.8146001,0.013826073,-2.380962,0.014210121,1.5563716,0.7744793,0.04,0.039999917,-9.802503,0.03103681281208992,-0.1083935,0.044542216,-2.936000055342447e-05,0.006706239
278.98333333340827,-0.050149404,-0.8154394,0.014209606,-2.381647,0.014602786,1.5559657,0.77415884,0.04,0.039999917,-9.802441,0.03219182416796684,-0.11074986,0.045219548,0.00018563104094937444,0.006799993
279.0000000000749,-0.05153103,-0.81629074,0.014598708,-2.3823428,0.015001157,1.5555539,0.77383363,0.04,0.03999991,-9.802342,0.033395834267139435,-0.1131064,0.045895755,0.0004017209867015481,0.0068940693
279.01666666674157,-0.05293237,-0.8171544,0.014993362,-2.3830483,0.015405213,1.5551361,0.77350384,0.04,0.039999917,-9.802371,0.03456447646021843,-0.11556539,0.046570398,0.0006130478577688336,0.0069868662
279.0333333334082,-0.05435335,-0.81803024,0.015393549,-2.3837633,0.015814932,1.5547125,0.7731694,0.04,0.03999991,-9.802244,0.03577710688114166,-0.11800919,0.047243226,0.0008257213630713522,0.00707903
279.0500000000749,-0.05579387,-0.81891793,0.015799241,-2.3844886,0.01623028,1.5542831,0.7728303,0.04,0.03999991,-9.802168,0.0370049849152565,-0.12048528,0.047914416,0.0010385863715782762,0.0071714753
279.0666666667415,-0.057253852,-0.8198177,0.01621041,-2.3852236,0.016651247,1.5538478,0.7724867,0.04,0.039999902,-9.802176,0.03824435919523239,-0.12301629,0.048583254,0.001247589010745287,0.0072630295
279.0833333334082,-0.0587332,-0.8207295,0.01662703,-2.3859684,0.01707779,1.5534068,0.77213854,0.04,0.039999906,-9.802099,0.03949859365820885,-0.12556008,0.049249947,0.0014561014249920845,0.0073537393
279.10000000007483,-0.060231794,-0.8216531,0.017049082,-2.3867226,0.017509889,1.55296,0.7717859,0.04,0.03999991,-9.802043,0.040761373937129974,-0.12814246,0.04991403,0.0016640607500448823,0.0074434713
279.1166666667415,-0.061749544,-0.82258844,0.017476523,-2.3874865,0.017947508,1.5525076,0.7714288,0.04,0.0399999,-9.801947,0.04206714406609535,-0.13073467,0.050575517,0.0018721763044595718,0.007532749
279.13333333340813,-0.06328635,-0.8235355,0.01790933,-2.3882604,0.018390622,1.5520496,0.7710673,0.04,0.0399999,-9.801897,0.04334859549999237,-0.13341214,0.051234014,0.002078442368656397,0.007621147
279.1500000000748,-0.06484209,-0.8244942,0.01834747,-2.3890436,0.018839194,1.5515859,0.7707011,0.04,0.039999895,-9.801885,0.04466526210308075,-0.13608901,0.05188914,0.002282510744407773,0.0077097113
279.16666666674143,-0.066416666,-0.8254645,0.01879091,-2.3898363,0.019293193,1.5511167,0.77033067,0.04,0.039999895,-9.801805,0.04599274694919586,-0.13879968,0.05254272,0.002485348843038082,0.0077969143
279.1833333334081,-0.068009906,-0.8264464,0.019239616,-2.390638,0.019752579,1.5506418,0.76995575,0.04,0.039999895,-9.801763,0.04733418673276901,-0.14154366,0.053192124,0.0026871231384575367,0.007884012
279.20000000007474,-0.06962171,-0.8274399,0.01969355,-2.3914495,0.020217314,1.5501615,0.76957655,0.04,0.039999902,-9.801652,0.04867792874574661,-0.14429669,0.05383876,0.002888637827709317,0.007968807
279.2166666667414,-0.071251966,-0.82844454,0.020152679,-2.3922696,0.02068737,1.5496757,0.7691929,0.04,0.039999895,-9.801573,0.050048671662807465,-0.14708519,0.054481722,0.0030901904683560133,0.008054551
279.23333333340804,-0.07290053,-0.8294605,0.020616965,-2.3930998,0.021162704,1.5491842,0.7688049,0.04,0.0399999,-9.80151,0.0514274500310421,-0.14992914,0.05512146,0.0032903996761888266,0.008138803
279.2500000000747,-0.07456724,-0.8304877,0.021086361,-2.3939388,0.02164327,1.5486872,0.7684127,0.04,0.0399999,-9.801537,0.052838727831840515,-0.1527625,0.055757746,0.0034854505211114883,0.008222787
279.26666666674134,-0.076251976,-0.8315261,0.021560833,-2.3947868,0.022129033,1.548185,0.7680162,0.04,0.039999906,-9.801433,0.054224636405706406,-0.15566276,0.056390062,0.0036794510670006275,0.008305433
279.283333333408,-0.07795456,-0.8325754,0.022040337,-2.3956437,0.022619944,1.5476775,0.7676156,0.04,0.039999902,-9.801374,0.05563698336482048,-0.15859662,0.05701866,0.0038730434607714415,0.008387328
279.30000000007465,-0.07967486,-0.8336357,0.022524826,-2.3965096,0.023115972,1.5471647,0.7672108,0.04,0.039999902,-9.801278,0.057064902037382126,-0.16154537,0.057642885,0.004065860528498888,0.008468401
279.3166666667413,-0.08141274,-0.8347068,0.023014273,-2.3973846,0.023617059,1.5466467,0.7668018,0.04,0.039999902,-9.801245,0.05850457400083542,-0.16451067,0.058263008,0.004255770239979029,0.008549017
279.33333333340795,-0.083168015,-0.83578855,0.02350862,-2.398268,0.024123162,1.5461235,0.7663887,0.04,0.039999895,-9.8012085,0.05994768440723419,-0.16752887,0.058879346,0.0044439733028411865,0.00862828
279.3500000000746,-0.08494052,-0.83688104,0.024007816,-2.39916,0.024634233,1.5455953,0.76597154,0.04,0.03999989,-9.801077,0.06140921637415886,-0.17057507,0.059490837,0.004632194526493549,0.008706759
279.36666666674125,-0.08673011,-0.8379841,0.02451182,-2.400061,0.025150228,1.5450617,0.7655504,0.04,0.03999989,-9.801035,0.062895268201828,-0.17360674,0.060098175,0.004818819463253021,0.008785071
279.3833333334079,-0.0885366,-0.83909744,0.025020584,-2.4009707,0.025671098,1.544523,0.7651252,0.04,0.039999887,-9.801012,0.06436217576265335,-0.176717,0.060700648,0.005000889301300049,0.008861825
279.40000000007456,-0.09035981,-0.84022117,0.025534073,-2.4018886,0.026196789,1.5439798,0.7646961,0.04,0.03999989,-9.800965,0.06585019081830978,-0.17985453,0.06129845,0.00518006132915616,0.008937791
279.4166666667412,-0.092199564,-0.841355,0.026052214,-2.4028149,0.026727255,1.5434314,0.76426315,0.04,0.039999887,-9.8008995,0.06735222041606903,-0.18301097,0.061891194,0.005359192844480276,0.009012783
279.43333333340786,-0.09405569,-0.842499,0.026574956,-2.4037492,0.027262444,1.5428778,0.76382643,0.04,0.039999887,-9.8008175,0.06885380297899246,-0.1862007,0.062479183,0.00553630106151104,0.009086939
279.4500000000745,-0.09592801,-0.843653,0.027102267,-2.404692,0.027802298,1.5423198,0.7633859,0.04,0.03999989,-9.800732,0.07037481665611267,-0.18939148,0.06306108,0.005710889585316181,0.009160027
279.46666666674116,-0.097816296,-0.8448168,0.027634075,-2.4056425,0.028346762,1.5417567,0.7629415,0.04,0.039999895,-9.800683,0.07190263271331787,-0.19263911,0.063638136,0.005884190090000629,0.009232304
279.4833333334078,-0.0997204,-0.8459904,0.028170334,-2.4066007,0.028895784,1.5411893,0.7624933,0.04,0.03999989,-9.800629,0.07343629747629166,-0.19589962,0.06421002,0.006054447498172522,0.009303917
279.50000000007446,-0.101640105,-0.8471736,0.028710986,-2.407567,0.029449303,1.540617,0.76204157,0.04,0.039999895,-9.800488,0.07498236000537872,-0.19917908,0.06477676,0.006226901896297932,0.0093744155
279.5166666667411,-0.1035752,-0.8483663,0.02925598,-2.408541,0.03000726,1.5400404,0.7615861,0.04,0.039999895,-9.800483,0.0765218436717987,-0.20250076,0.065337345,0.006393296644091606,0.009443759
279.53333333340777,-0.105525516,-0.84956837,0.02980526,-2.4095225,0.030569604,1.5394589,0.7611272,0.04,0.039999895,-9.800355,0.0780753642320633,-0.20585111,0.06589264,0.00656116334721446,0.009512286
279.5500000000744,-0.10749083,-0.85077965,0.030358763,-2.4105117,0.031136276,1.538873,0.76066476,0.04,0.039999895,-9.800322,0.07964297384023666,-0.20921367,0.06644192,0.006724018137902021,0.009580121
279.56666666674107,-0.109470956,-0.85200006,0.03091642,-2.4115083,0.03170721,1.5382828,0.7601988,0.04,0.03999989,-9.8002615,0.08121335506439209,-0.21260709,0.06698456,0.006885187700390816,0.009646733
279.5833333334077,-0.11146563,-0.8532295,0.031478196,-2.4125123,0.032282345,1.5376883,0.7597293,0.04,0.03999989,-9.800145,0.08278728276491165,-0.21603292,0.06752181,0.007045584265142679,0.009712086
279.6000000000744,-0.11347467,-0.85446787,0.032044,-2.4135234,0.032861628,1.5370895,0.75925654,0.04,0.03999989,-9.800108,0.08437332510948181,-0.21947533,0.06805284,0.007203443441540003,0.00977736
279.616666666741,-0.11549785,-0.8557149,0.032613788,-2.4145422,0.033444997,1.5364865,0.7587805,0.04,0.039999925,-9.800028,0.0859702005982399,-0.22292437,0.06857754,0.007359777577221394,0.009841573
279.6333333334077,-0.117534965,-0.8569704,0.033187516,-2.4155679,0.034032375,1.5358793,0.758301,0.04,0.03999994,-9.800043,0.08756520599126816,-0.22643025,0.06909562,0.0075104208663105965,0.009904968
279.65000000007433,-0.119585805,-0.8582345,0.033765085,-2.4166002,0.034623716,1.5352677,0.75781834,0.04,0.039999947,-9.799926,0.08914981782436371,-0.22995658,0.06960741,0.007659119553864002,0.00996655
279.666666666741,-0.1216501,-0.85950696,0.034346458,-2.4176395,0.035218917,1.5346522,0.75733256,0.04,0.039999943,-9.79985,0.09075745195150375,-0.23349316,0.07011275,0.007805454544723034,0.01002675
279.68333333340763,-0.123727635,-0.86078745,0.03493156,-2.4186852,0.035817955,1.534033,0.7568436,0.04,0.039999947,-9.799768,0.09236037731170654,-0.23706102,0.070611216,0.007950385101139545,0.010086053
279.7000000000743,-0.1258182,-0.862076,0.035520334,-2.4197373,0.036420744,1.5334098,0.7563515,0.04,0.039999947,-9.7997,0.09398718178272247,-0.24066232,0.071102954,0.008093036711215973,0.0101458365
279.71666666674093,-0.12792155,-0.8633723,0.036112696,-2.4207962,0.037027214,1.5327829,0.75585663,0.04,0.039999947,-9.799593,0.09558579325675964,-0.24426787,0.07158852,0.008234215900301933,0.010202536
279.7333333334076,-0.13003749,-0.8646765,0.03670859,-2.4218612,0.0376373,1.5321523,0.75535864,0.04,0.039999947,-9.799544,0.09721675515174866,-0.24791066,0.072065696,0.008372251875698566,0.0102590555
279.75000000007424,-0.13216566,-0.8659884,0.03730795,-2.4229324,0.03825094,1.5315179,0.75485796,0.04,0.03999995,-9.799462,0.09884649515151978,-0.2515568,0.07253621,0.008509334176778793,0.010314571
279.7666666667409,-0.13430591,-0.86730766,0.037910715,-2.4240096,0.038868062,1.53088,0.75435424,0.04,0.039999954,-9.799384,0.10046523064374924,-0.25521895,0.07299899,0.008642698638141155,0.010369683
279.78333333340754,-0.13645801,-0.86863416,0.0385168,-2.4250934,0.03948859,1.5302383,0.7538478,0.04,0.039999947,-9.799301,0.10208631306886673,-0.25893402,0.07345544,0.008774631656706333,0.010422545
279.8000000000742,-0.13862166,-0.86996776,0.03912615,-2.4261827,0.04011246,1.5295932,0.75333863,0.04,0.039999947,-9.799309,0.10372897237539291,-0.26265207,0.073904045,0.008899138309061527,0.010474965
279.81666666674084,-0.14079663,-0.8713084,0.03973869,-2.4272773,0.040739596,1.528945,0.75282687,0.04,0.03999995,-9.799188,0.10536309331655502,-0.26640826,0.07434518,0.009023739956319332,0.010526757
279.8333333334075,-0.14298263,-0.87265575,0.040354334,-2.4283772,0.041369922,1.5282934,0.7523124,0.04,0.03999995,-9.799059,0.10699056088924408,-0.2701681,0.07477837,0.009147838689386845,0.01057658
279.85000000007415,-0.1451795,-0.87400985,0.040973037,-2.429483,0.04200337,1.5276387,0.7517955,0.04,0.03999994,-9.798928,0.10863426327705383,-0.27395585,0.07520459,0.009271452203392982,0.010626283
279.8666666667408,-0.14738694,-0.8753704,0.04159472,-2.4305942,0.042639863,1.5269806,0.7512759,0.04,0.039999936,-9.798924,0.11027777940034866,-0.27774113,0.0756226,0.009390563704073429,0.010674607
279.88333333340745,-0.1496047,-0.87673765,0.042219304,-2.4317102,0.043279324,1.5263199,0.75075406,0.04,0.039999943,-9.798886,0.11191323399543762,-0.28158027,0.07603332,0.009504087269306183,0.010721838
279.9000000000741,-0.15183252,-0.87811124,0.042846724,-2.4328318,0.043921683,1.5256559,0.75022984,0.04,0.039999943,-9.798709,0.11355079710483551,-0.2853917,0.07643573,0.009620512835681438,0.0107681425
279.91666666674075,-0.15407012,-0.8794909,0.043476883,-2.4339583,0.044566862,1.5249888,0.74970335,0.04,0.039999947,-9.798659,0.115199513733387,-0.28923008,0.07682957,0.009732662700116634,0.010813399
279.9333333334074,-0.15631722,-0.88087577,0.04410973,-2.435089,0.045214795,1.5243189,0.7491745,0.04,0.039999947,-9.798613,0.1168467104434967,-0.29309818,0.07721529,0.009840773418545723,0.010858116
279.95000000007406,-0.15857358,-0.8822661,0.044745173,-2.436225,0.045865398,1.5236464,0.74864346,0.04,0.039999943,-9.798522,0.11848235130310059,-0.29705158,0.07759357,0.009944651275873184,0.010901171
279.9666666667407,-0.16083893,-0.8836623,0.04538315,-2.4373653,0.046518594,1.5229712,0.7481104,0.04,0.039999947,-9.798481,0.12012236565351486,-0.30097604,0.07796336,0.010044639930129051,0.010942322
279.98333333340736,-0.16311303,-0.8850643,0.046023585,-2.43851,0.04717431,1.5222933,0.7475752,0.04,0.039999947,-9.798369,0.1217639371752739,-0.3048941,0.07832451,0.01014374103397131,0.010983314
280.000000000074,-0.16539556,-0.886471,0.046666406,-2.439659,0.047832463,1.5216129,0.74703807,0.04,0.039999943,-9.798267,0.12341239303350449,-0.30879685,0.078677505,0.010241635143756866,0.01102311
280.01666666674066,-0.1676863,-0.887883,0.04731153,-2.4408123,0.048492968,1.5209302,0.746499,0.04,0.039999947,-9.798237,0.12505242228507996,-0.3127954,0.07902187,0.010332872159779072,0.0110618165
280.0333333334073,-0.16998492,-0.88929987,0.047958877,-2.4419694,0.049155753,1.520245,0.74595815,0.04,0.039999943,-9.798151,0.12669004499912262,-0.31676567,0.079357326,0.010423141531646252,0.011099583
280.05000000007396,-0.17229119,-0.8907213,0.048608374,-2.4431305,0.049820744,1.5195576,0.7454154,0.04,0.039999954,-9.798027,0.1283249408006668,-0.32075012,0.07968391,0.010510826483368874,0.011136732
280.0666666667406,-0.1746048,-0.8921474,0.049259935,-2.444295,0.050487854,1.5188677,0.74487096,0.04,0.039999954,-9.797977,0.1299615502357483,-0.324777,0.08000222,0.010594939813017845,0.011171834
280.08333333340727,-0.17692545,-0.8935779,0.049913485,-2.445463,0.051157,1.5181761,0.74432486,0.04,0.03999995,-9.797842,0.13159781694412231,-0.3287777,0.08031152,0.010677251033484936,0.011206323
280.1000000000739,-0.17925295,-0.8950125,0.050568964,-2.4466345,0.051828116,1.5174823,0.74377716,0.04,0.039999954,-9.797745,0.1332264095544815,-0.33283415,0.080611974,0.010758264921605587,0.011239907
280.11666666674057,-0.18158697,-0.89645106,0.05122626,-2.4478095,0.052501105,1.5167865,0.7432278,0.04,0.039999958,-9.797681,0.13486000895500183,-0.33687294,0.080903485,0.01083541288971901,0.011272769
280.1333333334072,-0.1839272,-0.89789355,0.051885314,-2.4489872,0.053175908,1.5160888,0.742677,0.04,0.039999954,-9.797615,0.1364879161119461,-0.34094304,0.081186324,0.010907867923378944,0.011303527
280.1500000000739,-0.18627343,-0.89933974,0.05254604,-2.4501684,0.053852417,1.5153896,0.7421248,0.04,0.039999954,-9.797501,0.1381141096353531,-0.345014,0.08146001,0.010978912934660912,0.011334114
280.1666666667405,-0.18862528,-0.9007894,0.05320836,-2.451352,0.05453056,1.5146884,0.7415714,0.04,0.03999995,-9.797425,0.13973119854927063,-0.34910443,0.08172425,0.01104697398841381,0.011362827
280.1833333334072,-0.1909825,-0.9022423,0.053872194,-2.4525383,0.055210255,1.5139858,0.74101675,0.04,0.039999954,-9.79729,0.14134949445724487,-0.35320553,0.08197853,0.011113396845757961,0.0113909915
280.2000000000738,-0.19334486,-0.90369844,0.054537468,-2.4537277,0.05589142,1.5132818,0.7404608,0.04,0.039999954,-9.79722,0.1429639607667923,-0.35731646,0.082224086,0.011176113039255142,0.011417914
280.2166666667405,-0.195712,-0.90515757,0.055204086,-2.4549186,0.056573976,1.5125763,0.73990375,0.04,0.03999996,-9.797184,0.14457771182060242,-0.36144587,0.08245979,0.011235315352678299,0.011443861
280.23333333340713,-0.19808368,-0.9066193,0.05587199,-2.4561126,0.057257842,1.5118692,0.7393456,0.04,0.039999958,-9.7969885,0.1461784988641739,-0.3655618,0.08268665,0.011294647119939327,0.011468679
280.2500000000738,-0.20045955,-0.90808374,0.056541074,-2.457309,0.057942927,1.5111609,0.73878664,0.04,0.039999958,-9.796995,0.1477871686220169,-0.36971807,0.08290361,0.011346431449055672,0.011492339
280.26666666674043,-0.2028394,-0.9095507,0.05721127,-2.4585068,0.05862915,1.5104517,0.7382266,0.04,0.039999954,-9.796957,0.14938917756080627,-0.37386844,0.083110444,0.011393680237233639,0.011514794
280.2833333334071,-0.20522287,-0.91101986,0.057882503,-2.4597063,0.05931642,1.5097411,0.7376657,0.04,0.039999954,-9.796735,0.15097783505916595,-0.37802774,0.083308406,0.011443872936069965,0.011536386
280.30000000007374,-0.2076097,-0.91249114,0.058554668,-2.460908,0.06000465,1.5090297,0.73710406,0.04,0.039999958,-9.796665,0.15256567299365997,-0.38219464,0.083496384,0.011488678865134716,0.0115564875
280.3166666667404,-0.20999962,-0.9139643,0.0592277,-2.4621112,0.060693774,1.5083174,0.7365417,0.04,0.03999996,-9.7966,0.15415321290493011,-0.3863739,0.08367482,0.011530687101185322,0.011575866
280.33333333340704,-0.21239233,-0.91543907,0.05990151,-2.4633157,0.06138369,1.5076042,0.73597866,0.04,0.03999996,-9.796544,0.15574146807193756,-0.3905654,0.083842844,0.011567738838493824,0.011594158
280.3500000000737,-0.21478751,-0.9169156,0.060576014,-2.4645214,0.062074337,1.5068902,0.73541504,0.04,0.039999958,-9.796401,0.1573120653629303,-0.39476043,0.08400124,0.01160372607409954,0.011611367
280.36666666674034,-0.21718489,-0.9183935,0.06125113,-2.465728,0.06276561,1.5061755,0.7348509,0.04,0.039999954,-9.796313,0.1588742583990097,-0.3989508,0.084150024,0.01163655985146761,0.011627242
280.383333333407,-0.21958412,-0.9198724,0.06192678,-2.4669354,0.06345744,1.5054605,0.73428637,0.04,0.039999958,-9.796207,0.16044394671916962,-0.40314484,0.08428864,0.011666388250887394,0.011642081
280.40000000007365,-0.221985,-0.9213523,0.06260287,-2.4681437,0.06414973,1.5047449,0.7337214,0.04,0.039999954,-9.796061,0.16200169920921326,-0.407374,0.0844172,0.011696038767695427,0.011655974
280.4166666667403,-0.22438717,-0.9228331,0.06327933,-2.4693527,0.06484239,1.5040288,0.733156,0.04,0.039999954,-9.795976,0.1635570526123047,-0.41157794,0.08453567,0.01172140147536993,0.011668539
280.43333333340695,-0.22679034,-0.9243144,0.06395608,-2.470563,0.06553534,1.5033125,0.73259056,0.04,0.03999996,-9.795879,0.1650991141796112,-0.4157951,0.08464473,0.011743567883968353,0.011679704
280.4500000000736,-0.22919418,-0.92579615,0.06463305,-2.4717734,0.0662285,1.502596,0.7320247,0.04,0.039999966,-9.795883,0.16664357483386993,-0.42002723,0.08474256,0.011758883483707905,0.011690073
280.46666666674025,-0.23159845,-0.92727816,0.06531012,-2.4729836,0.06692178,1.5018795,0.7314589,0.04,0.03999996,-9.795781,0.168176531791687,-0.4242639,0.08483153,0.011771914549171925,0.0116993515
280.4833333334069,-0.23400286,-0.9287603,0.065987214,-2.4741938,0.067615114,1.5011629,0.7308931,0.04,0.039999958,-9.7956,0.16970178484916687,-0.42849582,0.08490979,0.011784836649894714,0.011707489
280.50000000007356,-0.23640712,-0.9302423,0.06666426,-2.475404,0.06830839,1.5004463,0.73032725,0.04,0.039999958,-9.795502,0.17121770977973938,-0.4327272,0.084977634,0.011795311234891415,0.011714446
280.5166666667402,-0.23881091,-0.931724,0.06734117,-2.4766142,0.06900151,1.4997299,0.7297615,0.04,0.03999996,-9.795406,0.17274031043052673,-0.43696037,0.08503519,0.011801713146269321,0.0117202755
280.53333333340686,-0.24121393,-0.9332053,0.06801789,-2.477824,0.06969442,1.4990135,0.7291961,0.04,0.03999996,-9.795341,0.1742483526468277,-0.4412004,0.08508275,0.011803577654063702,0.011725
280.5500000000735,-0.2436159,-0.9346859,0.06869428,-2.4790325,0.07038702,1.4982975,0.7286307,0.04,0.03999996,-9.795209,0.1757473349571228,-0.4454301,0.085119076,0.011803867295384407,0.011728633
280.56666666674016,-0.24601652,-0.9361656,0.069370285,-2.4802403,0.07107925,1.4975818,0.7280658,0.04,0.039999966,-9.795064,0.1772361397743225,-0.4496696,0.08514571,0.011801518499851227,0.011730624
280.5833333334068,-0.24841549,-0.93764436,0.07004585,-2.481448,0.07177097,1.496867,0.7275013,0.04,0.03999996,-9.7949295,0.17872610688209534,-0.45391625,0.08516175,0.011797756887972355,0.011731913
280.60000000007346,-0.2508125,-0.939122,0.070720844,-2.4826546,0.07246215,1.4961523,0.7269373,0.04,0.039999958,-9.79488,0.18020367622375488,-0.45815122,0.08516717,0.011790463700890541,0.011732145
280.6166666667401,-0.25320727,-0.94059825,0.07139521,-2.4838595,0.07315271,1.4954385,0.7263738,0.04,0.039999958,-9.794794,0.18166851997375488,-0.46239135,0.085161515,0.011778274551033974,0.011731135
280.63333333340677,-0.25559947,-0.94207287,0.072068855,-2.4850638,0.07384255,1.4947256,0.7258108,0.04,0.039999954,-9.794623,0.18313267827033997,-0.46662065,0.08514574,0.01176528912037611,0.011728841
280.6500000000734,-0.25798887,-0.9435458,0.07274169,-2.486267,0.07453152,1.4940132,0.72524846,0.04,0.039999958,-9.794584,0.18459050357341766,-0.47086856,0.08511989,0.01174839586019516,0.01172526
280.66666666674007,-0.26037517,-0.9450168,0.07341364,-2.487468,0.075219624,1.493302,0.7246869,0.04,0.03999996,-9.794518,0.18604686856269836,-0.47508636,0.085083514,0.011725307442247868,0.011720612
280.6833333334067,-0.26275808,-0.9464856,0.07408465,-2.4886672,0.07590675,1.4925915,0.72412616,0.04,0.039999958,-9.794331,0.18748094141483307,-0.47933286,0.08503625,0.011702913790941238,0.011714832
280.7000000000734,-0.26513734,-0.94795233,0.07475463,-2.4898646,0.07659282,1.4918824,0.72356623,0.04,0.03999996,-9.794207,0.18890562653541565,-0.48355654,0.084978506,0.011676889844238758,0.011707191
280.71666666674,-0.2675126,-0.94941646,0.07542348,-2.4910605,0.07727772,1.4911747,0.72300726,0.04,0.03999996,-9.794117,0.19034267961978912,-0.48777732,0.08490983,0.011649314314126968,0.011699491
280.7333333334067,-0.26988345,-0.95087796,0.07609112,-2.492253,0.077961385,1.4904679,0.72244924,0.04,0.03999996,-9.794055,0.19175446033477783,-0.49200636,0.08483062,0.011616947129368782,0.011690019
280.7500000000733,-0.27224982,-0.9523365,0.076757476,-2.4934442,0.07864374,1.4897625,0.7218925,0.04,0.039999966,-9.79381,0.19313602149486542,-0.49621302,0.08474176,0.011585302650928497,0.01167919
280.76666666674,-0.27461135,-0.95379233,0.07742246,-2.4946332,0.07932468,1.4890587,0.7213368,0.04,0.039999966,-9.793808,0.19455388188362122,-0.50043154,0.084641136,0.011546753346920013,0.011667325
280.78333333340663,-0.27696767,-0.95524484,0.078085974,-2.4958189,0.08000416,1.4883565,0.72078216,0.04,0.03999996,-9.793722,0.1959492713212967,-0.5046122,0.08452977,0.01150511670857668,0.011654379
280.8000000000733,-0.2793186,-0.95669407,0.07874797,-2.4970024,0.08068206,1.4876555,0.72022897,0.04,0.03999996,-9.793535,0.1973194032907486,-0.5088225,0.08440923,0.011463242582976818,0.011639982
280.81666666673993,-0.2816638,-0.95813966,0.07940833,-2.4981828,0.0813583,1.4869564,0.71967715,0.04,0.03999996,-9.79347,0.19869953393936157,-0.5130015,0.08427664,0.011415453627705574,0.011624412
280.8333333334066,-0.28400302,-0.9595816,0.08006706,-2.4993598,0.082032815,1.4862589,0.7191267,0.04,0.039999966,-9.793372,0.20006701350212097,-0.5171981,0.0841334,0.011365033686161041,0.01160767
280.85000000007324,-0.28633597,-0.9610197,0.080724,-2.500535,0.08270553,1.4855635,0.71857774,0.04,0.03999996,-9.793185,0.20140719413757324,-0.5213698,0.083979994,0.011313199996948242,0.011589833
280.8666666667399,-0.2886623,-0.9624538,0.08137909,-2.5017054,0.08337633,1.48487,0.7180303,0.04,0.039999958,-9.793235,0.20276391506195068,-0.5255636,0.08381522,0.011254061944782734,0.011570364
280.88333333340654,-0.2909819,-0.9638837,0.08203225,-2.5028734,0.08404517,1.4841785,0.7174845,0.04,0.039999966,-9.792948,0.20409074425697327,-0.5296915,0.083640724,0.011197447776794434,0.011549702
280.9000000000732,-0.29329425,-0.9653091,0.0826834,-2.504037,0.084711954,1.4834893,0.7169403,0.04,0.039999966,-9.792936,0.20542940497398376,-0.53385186,0.083454944,0.011134984903037548,0.011527948
280.91666666673984,-0.29559925,-0.96673,0.08333246,-2.5051975,0.08537663,1.4828023,0.71639794,0.04,0.039999966,-9.792732,0.20673619210720062,-0.53799975,0.08325944,0.011072392575442791,0.011505091
280.9333333334065,-0.2978965,-0.968146,0.08397934,-2.5063534,0.086039074,1.4821175,0.7158573,0.04,0.03999996,-9.792683,0.20805230736732483,-0.5421234,0.08305244,0.01100468821823597,0.011480732
280.95000000007315,-0.3001859,-0.9695574,0.084623985,-2.5075061,0.08669924,1.4814352,0.7153187,0.04,0.039999958,-9.792477,0.2093448042869568,-0.54624915,0.0828356,0.010937762446701527,0.01145511
280.9666666667398,-0.30246705,-0.97096354,0.08526631,-2.5086539,0.087357014,1.4807552,0.71478194,0.04,0.03999996,-9.792491,0.21065038442611694,-0.55033857,0.08260723,0.010863153263926506,0.011428082
280.98333333340645,-0.30473962,-0.9723643,0.08590625,-2.5097973,0.08801232,1.4800777,0.71424717,0.04,0.03999996,-9.792216,0.21191249787807465,-0.55444217,0.082368635,0.010791233740746975,0.0114000635
281.0000000000731,-0.30700338,-0.9737596,0.086543724,-2.510937,0.088665135,1.4794029,0.71371454,0.04,0.03999996,-9.792138,0.21317385137081146,-0.55854225,0.08212028,0.010714049451053143,0.011370383
281.01666666673975,-0.30925816,-0.97514915,0.08717864,-2.5120718,0.08931531,1.478731,0.71318394,0.04,0.03999996,-9.7921095,0.2144462913274765,-0.5626069,0.081860945,0.010631312616169453,0.011339355
281.0333333334064,-0.31150377,-0.97653323,0.08781093,-2.513202,0.08996281,1.4780618,0.71265554,0.04,0.03999996,-9.791956,0.21570612490177155,-0.56667334,0.08159147,0.010547432117164135,0.01130723
281.05000000007306,-0.31373975,-0.97791153,0.08844052,-2.514327,0.090607546,1.4773954,0.7121293,0.04,0.03999996,-9.791795,0.2169508934020996,-0.5707028,0.0813109,0.010462329722940922,0.011273976
281.0666666667397,-0.31596586,-0.97928387,0.089067355,-2.5154476,0.09124945,1.4767318,0.7116054,0.04,0.03999996,-9.791661,0.21817953884601593,-0.57471466,0.08102076,0.010375060141086578,0.0112394495
281.08333333340636,-0.31818178,-0.9806498,0.08969133,-2.5165637,0.09188846,1.4760712,0.71108395,0.04,0.03999996,-9.791573,0.2193991243839264,-0.5787192,0.08072009,0.01028360240161419,0.011203064
281.100000000073,-0.32038733,-0.98200935,0.090312384,-2.5176742,0.09252446,1.4754139,0.7105649,0.04,0.03999996,-9.79152,0.2206125259399414,-0.5827313,0.08040927,0.01018737442791462,0.011165526
281.11666666673966,-0.32258233,-0.98336256,0.090930454,-2.5187795,0.0931574,1.4747596,0.7100484,0.04,0.039999966,-9.7914,0.22180433571338654,-0.58674216,0.08008805,0.010088009759783745,0.011126817
281.1333333334063,-0.32476643,-0.984709,0.09154547,-2.5198784,0.093787216,1.4741086,0.7095344,0.04,0.039999966,-9.791239,0.22300730645656586,-0.59067833,0.07975633,0.009987597353756428,0.011087517
281.15000000007296,-0.3269394,-0.9860485,0.09215734,-2.5209713,0.09441382,1.473461,0.7090231,0.04,0.03999997,-9.791009,0.2241716831922531,-0.5946189,0.07941531,0.009888581931591034,0.011045653
281.1666666667396,-0.32910097,-0.98738104,0.092766,-2.5220592,0.09503714,1.4728167,0.7085145,0.04,0.039999973,-9.790834,0.22534142434597015,-0.59855175,0.079063684,0.009789113886654377,0.011003105
281.18333333340627,-0.33125094,-0.98870635,0.093371406,-2.5231411,0.095657095,1.4721756,0.7080085,0.04,0.03999997,-9.790821,0.22650891542434692,-0.6024653,0.07870206,0.009682336822152138,0.01095918
281.2000000000729,-0.333389,-0.9900244,0.09397345,-2.524218,0.09627364,1.4715382,0.70750546,0.04,0.039999973,-9.790679,0.22766081988811493,-0.60634243,0.07833087,0.009572848677635193,0.010913967
281.21666666673957,-0.335515,-0.991335,0.094572075,-2.5252879,0.09688667,1.4709042,0.70700514,0.04,0.03999997,-9.790681,0.2288140505552292,-0.61023206,0.077948734,0.009456894360482693,0.010867127
281.2333333334062,-0.33762857,-0.99263793,0.09516723,-2.526352,0.09749616,1.4702741,0.7065078,0.04,0.039999973,-9.790401,0.22992713749408722,-0.6140794,0.077557534,0.009342665784060955,0.010818853
281.2500000000729,-0.3397297,-0.99393314,0.09575883,-2.527409,0.09810201,1.4696476,0.7060134,0.04,0.03999997,-9.790334,0.2310379445552826,-0.6179385,0.07715642,0.009225158952176571,0.010769629
281.2666666667395,-0.34181786,-0.9952205,0.096346825,-2.5284603,0.098704174,1.4690251,0.7055218,0.04,0.03999997,-9.7901535,0.23216739296913147,-0.6217363,0.07674492,0.00910633523017168,0.010718894
281.2833333334062,-0.34389293,-0.9964997,0.09693113,-2.5295043,0.09930257,1.4684066,0.70503354,0.04,0.03999997,-9.790067,0.23325766623020172,-0.6255324,0.07632524,0.008984223939478397,0.0106670335
281.3000000000728,-0.34595472,-0.9977708,0.097511716,-2.5305421,0.09989712,1.4677923,0.7045484,0.04,0.03999997,-9.789845,0.23433828353881836,-0.62930816,0.075895265,0.008863719180226326,0.010613507
281.3166666667395,-0.34800303,-0.99903345,0.09808847,-2.5315733,0.10048777,1.4671818,0.70406634,0.04,0.039999977,-9.789798,0.23542211949825287,-0.6330597,0.07545545,0.00873844139277935,0.0105590895
281.33333333340613,-0.35003754,-1.0002875,0.09866135,-2.5325975,0.101074465,1.4665755,0.7035875,0.04,0.039999977,-9.789704,0.23650087416172028,-0.6368006,0.07500666,0.008608869276940823,0.010503124
281.3500000000728,-0.3520581,-1.0015333,0.09923033,-2.5336144,0.10165712,1.4659734,0.7031121,0.04,0.039999977,-9.789553,0.2375543862581253,-0.6405237,0.07454863,0.008477788418531418,0.010445764
281.36666666673943,-0.35406452,-1.0027702,0.099795274,-2.534624,0.10223569,1.4653753,0.70264,0.04,0.039999973,-9.78937,0.23858168721199036,-0.6441926,0.07408012,0.008346358314156532,0.010387262
281.3833333334061,-0.35605654,-1.003998,0.10035616,-2.5356266,0.102810085,1.4647818,0.70217127,0.04,0.039999973,-9.789263,0.23963430523872375,-0.6478358,0.07360304,0.008211386390030384,0.010326903
281.40000000007274,-0.35803387,-1.0052171,0.10091292,-2.5366218,0.10338026,1.4641924,0.70170605,0.04,0.039999966,-9.789139,0.2406664937734604,-0.65148675,0.07311673,0.008074906654655933,0.010265591
281.4166666667394,-0.3599963,-1.0064268,0.101465516,-2.5376096,0.10394616,1.4636075,0.7012442,0.04,0.03999997,-9.788992,0.2416701465845108,-0.65508825,0.07262116,0.007935821078717709,0.010203135
281.43333333340604,-0.36194363,-1.0076272,0.10201385,-2.5385897,0.1045077,1.4630271,0.70078576,0.04,0.039999973,-9.78887,0.24267445504665375,-0.6586894,0.072117865,0.007794748526066542,0.010139378
281.4500000000727,-0.3638758,-1.0088183,0.10255791,-2.5395622,0.10506485,1.4624512,0.7003311,0.04,0.03999998,-9.788724,0.24366062879562378,-0.6622493,0.071606256,0.007651157211512327,0.010073779
281.46666666673934,-0.3657925,-1.01,0.10309761,-2.540527,0.105617575,1.4618798,0.69988006,0.04,0.039999977,-9.788614,0.24465341866016388,-0.66578704,0.07108447,0.00750501686707139,0.010007301
281.483333333406,-0.3676935,-1.011172,0.103632875,-2.541484,0.10616576,1.4613132,0.6994327,0.04,0.039999973,-9.788491,0.24562227725982666,-0.6692874,0.07055421,0.0073562003672122955,0.009939289
281.50000000007265,-0.36957866,-1.0123341,0.104163684,-2.5424333,0.10670939,1.4607514,0.6989891,0.04,0.03999998,-9.788342,0.24656538665294647,-0.6728003,0.07001618,0.00720603484660387,0.0098700235
281.5166666667393,-0.37144777,-1.0134864,0.10468998,-2.543374,0.10724839,1.4601943,0.6985493,0.04,0.039999977,-9.788249,0.24753020703792572,-0.6762589,0.069468826,0.007052397821098566,0.009798906
281.53333333340595,-0.3733006,-1.014629,0.1052117,-2.5443063,0.10778271,1.4596419,0.6981132,0.04,0.03999998,-9.788045,0.24846665561199188,-0.6796841,0.06891377,0.0068998695351183414,0.009727147
281.5500000000726,-0.37513706,-1.015761,0.105728805,-2.5452302,0.108312294,1.4590948,0.697681,0.04,0.039999977,-9.78787,0.24938006699085236,-0.6830478,0.0683513,0.006746323313564062,0.009654363
281.56666666673925,-0.37695694,-1.0168827,0.106241226,-2.5461457,0.108837076,1.4585524,0.6972528,0.04,0.039999977,-9.78773,0.25030001997947693,-0.6864676,0.06778045,0.0065913419239223,0.009580166
281.5833333334059,-0.37876,-1.0179944,0.10674893,-2.5470533,0.10935702,1.4580148,0.6968285,0.04,0.039999954,-9.787608,0.2512006163597107,-0.6898122,0.06720107,0.006433413363993168,0.009503101
281.60000000007255,-0.38054618,-1.0190955,0.10725185,-2.5479522,0.109872095,1.4574826,0.6964082,0.04,0.039999943,-9.787554,0.25210630893707275,-0.6931121,0.06661417,0.006271203048527241,0.009426243
281.6166666667392,-0.38231534,-1.0201862,0.10774997,-2.5488427,0.11038221,1.4569553,0.69599193,0.04,0.03999994,-9.787332,0.25297316908836365,-0.69642484,0.066019244,0.006109785754233599,0.009348069
281.63333333340586,-0.38406703,-1.0212661,0.10824322,-2.5497246,0.110887334,1.4564332,0.69557965,0.04,0.039999947,-9.787255,0.2538684904575348,-0.6996664,0.065416716,0.005944974720478058,0.0092684
281.6500000000725,-0.38580132,-1.0223352,0.10873157,-2.5505972,0.11138743,1.4559163,0.69517154,0.04,0.039999947,-9.787134,0.25472235679626465,-0.70290273,0.06480736,0.005777439568191767,0.009187891
281.66666666673916,-0.387518,-1.0233933,0.109214894,-2.5514607,0.11188246,1.4554048,0.69476765,0.04,0.039999947,-9.78694,0.25556838512420654,-0.70611894,0.06419061,0.005610301624983549,0.009106288
281.6833333334058,-0.3892169,-1.0244405,0.109693244,-2.5523162,0.11237237,1.4548986,0.6943679,0.04,0.039999947,-9.786761,0.2564045488834381,-0.7092883,0.06356653,0.005442900583148003,0.009023334
281.70000000007246,-0.39089793,-1.0254767,0.11016656,-2.5531619,0.11285708,1.4543976,0.6939723,0.04,0.039999947,-9.786736,0.2572409510612488,-0.7124384,0.0629353,0.005270808935165405,0.0089386655
281.7166666667391,-0.3925608,-1.026502,0.11063475,-2.5539994,0.1133366,1.453902,0.69358104,0.04,0.039999947,-9.786514,0.25805574655532837,-0.7155349,0.062297698,0.0050988891161978245,0.008853349
281.73333333340577,-0.39420548,-1.027516,0.11109786,-2.554827,0.11381085,1.4534115,0.69319403,0.04,0.039999947,-9.786491,0.25886303186416626,-0.71861476,0.0616528,0.004922053776681423,0.008766331
281.7500000000724,-0.39583176,-1.0285187,0.11155578,-2.5556452,0.114279866,1.4529269,0.69281137,0.04,0.039999947,-9.786231,0.2596358060836792,-0.72166544,0.061001908,0.0047460878267884254,0.008679117
281.76666666673907,-0.3974395,-1.0295097,0.11200848,-2.5564542,0.114743516,1.4524477,0.6924331,0.04,0.039999943,-9.7860775,0.26042017340660095,-0.7246788,0.060344838,0.004571747500449419,0.008590055
281.7833333334057,-0.3990287,-1.0304893,0.11245596,-2.5572543,0.11520177,1.451974,0.6920591,0.04,0.039999943,-9.785975,0.26119524240493774,-0.72767067,0.059681643,0.00439276359975338,0.008500062
281.8000000000724,-0.40059912,-1.0314575,0.112898126,-2.5580447,0.11565465,1.451506,0.69168985,0.04,0.039999943,-9.785872,0.2619640529155731,-0.7306293,0.05901246,0.004212150350213051,0.008409121
281.816666666739,-0.40215066,-1.0324143,0.113335006,-2.5588257,0.11610206,1.4510435,0.6913246,0.04,0.039999943,-9.785683,0.2627042233943939,-0.73353827,0.05833587,0.004031972959637642,0.008316728
281.8333333334057,-0.40368327,-1.033359,0.113766536,-2.559597,0.116544,1.4505867,0.690964,0.04,0.039999943,-9.785593,0.263448029756546,-0.7364089,0.057655808,0.0038489387370646,0.008223693
281.8500000000723,-0.40519667,-1.0342921,0.114192694,-2.5603588,0.116980426,1.4501357,0.69060796,0.04,0.039999943,-9.785402,0.264175683259964,-0.73929065,0.05696911,0.003665599040687084,0.00812964
281.866666666739,-0.40669107,-1.0352132,0.114613436,-2.5611107,0.11741131,1.4496902,0.6902563,0.04,0.039999943,-9.785278,0.2648670971393585,-0.7421262,0.0562771,0.0034807254560291767,0.008034603
281.88333333340563,-0.40816605,-1.0361224,0.11502873,-2.561853,0.11783662,1.4492506,0.6899092,0.04,0.03999995,-9.785128,0.26559072732925415,-0.7448954,0.05557969,0.0032949980814009905,0.007938222
281.9000000000723,-0.4096217,-1.0370201,0.11543858,-2.5625854,0.118256316,1.4488169,0.68956655,0.04,0.039999947,-9.784969,0.2662758529186249,-0.7476457,0.05487777,0.0031082730274647474,0.007841126
281.91666666673893,-0.41105765,-1.0379055,0.11584292,-2.563308,0.1186704,1.4483888,0.6892286,0.04,0.039999947,-9.784813,0.26695960760116577,-0.7503454,0.05417142,0.002922740066424012,0.007743624
281.9333333334056,-0.41247398,-1.0387785,0.116241746,-2.5640206,0.11907884,1.4479667,0.68889517,0.04,0.039999943,-9.784702,0.2676193416118622,-0.75304013,0.05346049,0.002734110224992037,0.0076448508
281.95000000007224,-0.41387066,-1.0396396,0.11663501,-2.5647235,0.11948161,1.4475503,0.68856657,0.04,0.039999947,-9.78453,0.26826703548431396,-0.75569993,0.05274597,0.0025454459246248007,0.0075449054
281.9666666667389,-0.41524756,-1.0404885,0.11702273,-2.5654166,0.11987865,1.4471399,0.6882425,0.04,0.039999947,-9.784412,0.26892539858818054,-0.7583174,0.052025557,0.0023543634451925755,0.0074441503
281.98333333340554,-0.4166046,-1.0413251,0.117404856,-2.5660996,0.12026997,1.4467356,0.68792313,0.04,0.039999947,-9.784289,0.2695590555667877,-0.7608916,0.05130223,0.0021620902698487043,0.0073426752
282.0000000000722,-0.41794178,-1.0421494,0.11778136,-2.5667722,0.12065556,1.4463371,0.68760854,0.04,0.039999947,-9.784101,0.27017080783843994,-0.7634771,0.050574534,0.0019711873028427362,0.007240715
282.01666666673884,-0.41925895,-1.0429614,0.11815225,-2.567435,0.12103538,1.4459445,0.68729854,0.04,0.03999995,-9.783952,0.27078479528427124,-0.7659539,0.049842946,0.0017792594153434038,0.0071374592
282.0333333334055,-0.42055613,-1.0437611,0.118517496,-2.5680876,0.12140944,1.445558,0.68699336,0.04,0.039999954,-9.783828,0.27138757705688477,-0.7684477,0.04910849,0.001585814985446632,0.007033689
282.05000000007215,-0.42183313,-1.0445484,0.11887708,-2.56873,0.12177768,1.4451772,0.6866929,0.04,0.03999995,-9.783649,0.2719780206680298,-0.7708651,0.048370093,0.0013935614842921495,0.006929377
282.0666666667388,-0.42309004,-1.0453234,0.11923101,-2.5693626,0.12214011,1.4448024,0.68639725,0.04,0.03999995,-9.783539,0.27255091071128845,-0.7732895,0.047629103,0.0011982093565165997,0.006823831
282.08333333340545,-0.42432672,-1.046086,0.11957922,-2.5699852,0.1224967,1.4444339,0.68610626,0.04,0.03999995,-9.783376,0.2731208801269531,-0.77563924,0.0468844,0.0010033923899754882,0.0067181806
282.1000000000721,-0.4255432,-1.0468358,0.11992173,-2.5705974,0.122847475,1.4440714,0.68582004,0.04,0.03999995,-9.783278,0.2736804485321045,-0.77798593,0.046137806,0.0008071833290159702,0.0066116843
282.11666666673875,-0.4267393,-1.0475732,0.12025855,-2.571199,0.123192415,1.443715,0.6855386,0.04,0.03999995,-9.783105,0.27420827746391296,-0.7803258,0.04538864,0.0006103612831793725,0.0065044872
282.1333333334054,-0.42791522,-1.0482982,0.120589666,-2.5717914,0.123531476,1.4433646,0.6852619,0.04,0.039999958,-9.782882,0.27472931146621704,-0.7825515,0.044638023,0.0004168936866335571,0.0063968045
282.15000000007205,-0.42907068,-1.0490105,0.12091505,-2.5723727,0.123864695,1.4430201,0.68499005,0.04,0.039999954,-9.782893,0.27528345584869385,-0.7847972,0.043884467,0.00021757252397947013,0.006288546
282.1666666667387,-0.43020585,-1.0497106,0.12123471,-2.5729437,0.12419205,1.4426819,0.6847229,0.04,0.03999996,-9.782652,0.27576759457588196,-0.78698385,0.04313007,1.9900007828255184e-05,0.0061798333
282.18333333340536,-0.43132082,-1.0503981,0.12154864,-2.573505,0.12451352,1.4423496,0.68446064,0.04,0.03999995,-9.782437,0.2762495279312134,-0.7891231,0.042374276,-0.00017319031758233905,0.006070668
282.200000000072,-0.4324154,-1.0510724,0.121856816,-2.5740557,0.12482913,1.4420233,0.6842031,0.04,0.039999958,-9.782386,0.2767680287361145,-0.7912507,0.04161597,-0.0003711341414600611,0.0059613013
282.21666666673866,-0.4334894,-1.0517349,0.122159295,-2.5745962,0.12513886,1.4417032,0.68395025,0.04,0.039999947,-9.782244,0.27723726630210876,-0.79338455,0.04085717,-0.000571329437661916,0.0058509232
282.2333333334053,-0.43454307,-1.0523841,0.122456,-2.5751264,0.12544271,1.4413891,0.6837025,0.04,0.039999954,-9.782038,0.2776808738708496,-0.795363,0.04009881,-0.0007665264420211315,0.0057411375
282.25000000007196,-0.4355764,-1.0530214,0.12274699,-2.5756464,0.12574072,1.4410812,0.68345934,0.04,0.039999954,-9.781938,0.27812835574150085,-0.79746026,0.039338272,-0.0009670339059084654,0.0056296927
282.2666666667386,-0.43658945,-1.0536461,0.12303226,-2.5761564,0.12603284,1.4407793,0.6832209,0.04,0.039999954,-9.781739,0.27856892347335815,-0.7993752,0.038578946,-0.0011626197956502438,0.005519114
282.28333333340527,-0.43758217,-1.0542583,0.123311795,-2.5766556,0.12631911,1.4404833,0.6829872,0.04,0.039999954,-9.781648,0.27901211380958557,-0.80133045,0.03781897,-0.0013604853302240372,0.0054080565
282.3000000000719,-0.43855458,-1.0548579,0.12358565,-2.577145,0.1265995,1.4401935,0.68275833,0.04,0.03999996,-9.781424,0.2794140875339508,-0.803213,0.03705981,-0.0015558641171082854,0.0052965847
282.31666666673857,-0.4395068,-1.055445,0.123853795,-2.5776246,0.1268741,1.4399096,0.68253434,0.04,0.039999958,-9.781312,0.2798283100128174,-0.8051163,0.036300853,-0.0017524869181215763,0.005185314
282.3333333334052,-0.4404388,-1.0560197,0.12411625,-2.5780935,0.12714285,1.4396317,0.682315,0.04,0.039999958,-9.781216,0.2802322208881378,-0.8069353,0.035541575,-0.0019511502468958497,0.005073546
282.3500000000719,-0.4413506,-1.0565822,0.12437304,-2.5785525,0.12740579,1.4393599,0.6821005,0.04,0.03999996,-9.781008,0.28060582280158997,-0.80873144,0.03478408,-0.0021471495274454355,0.004962058
282.3666666667385,-0.4422423,-1.057132,0.12462415,-2.579001,0.12766293,1.4390941,0.68189067,0.04,0.039999966,-9.780836,0.2809499204158783,-0.8105011,0.034027264,-0.0023420804645866156,0.004850213
282.3833333334052,-0.44311395,-1.0576696,0.12486964,-2.5794399,0.12791426,1.4388342,0.6816855,0.04,0.039999958,-9.780669,0.28132766485214233,-0.81222314,0.03327237,-0.002536287298426032,0.0047388077
282.4000000000718,-0.4439656,-1.058195,0.12510948,-2.5798683,0.12815988,1.4385805,0.6814851,0.04,0.039999958,-9.780565,0.28168076276779175,-0.8139237,0.032519337,-0.0027311888989061117,0.0046273945
282.4166666667385,-0.4447974,-1.0587077,0.1253437,-2.5802867,0.12839974,1.4383327,0.68128926,0.04,0.03999996,-9.780357,0.2820111811161041,-0.8155628,0.03176819,-0.0029221167787909508,0.004515919
282.43333333340513,-0.4456093,-1.0592084,0.12557232,-2.5806959,0.12863387,1.4380907,0.6810982,0.04,0.039999966,-9.780235,0.2823541760444641,-0.8172104,0.031019492,-0.0031154111493378878,0.0044043954
282.4500000000718,-0.44640142,-1.0596968,0.12579541,-2.5810943,0.12886229,1.4378544,0.6809118,0.04,0.039999966,-9.780157,0.2826753258705139,-0.8187969,0.03027265,-0.0033100189175456762,0.004293064
282.46666666673843,-0.44717386,-1.0601733,0.126013,-2.581483,0.12908508,1.4376241,0.68073004,0.04,0.039999966,-9.779912,0.2829612195491791,-0.82034546,0.029529106,-0.00350169581361115,0.004182259
282.4833333334051,-0.44792673,-1.0606375,0.12622507,-2.5818617,0.12930219,1.4373997,0.68055284,0.04,0.03999997,-9.779757,0.28324469923973083,-0.8218483,0.028788496,-0.0036921424325555563,0.00407136
282.50000000007174,-0.44866025,-1.0610899,0.1264315,-2.5822308,0.12951367,1.437181,0.6803802,0.04,0.03999997,-9.77961,0.2835192382335663,-0.8233701,0.028051605,-0.0038820854388177395,0.0039613293
282.5166666667384,-0.4493743,-1.0615304,0.12663263,-2.5825903,0.1297196,1.4369681,0.68021214,0.04,0.03999997,-9.779459,0.2838253080844879,-0.82478344,0.027317561,-0.004071017261594534,0.0038510156
282.53333333340504,-0.45006916,-1.061959,0.12682831,-2.5829399,0.12991998,1.436761,0.68004864,0.04,0.03999997,-9.779304,0.28406473994255066,-0.82620806,0.026587987,-0.0042588249780237675,0.003741708
282.5500000000717,-0.4507449,-1.0623759,0.1270186,-2.5832794,0.13011484,1.4365598,0.6798896,0.04,0.03999997,-9.779111,0.28431159257888794,-0.82757866,0.02586231,-0.00444334652274847,0.0036325934
282.56666666673834,-0.45140165,-1.0627811,0.1272036,-2.5836096,0.13030429,1.4363639,0.67973506,0.04,0.039999966,-9.778903,0.284544974565506,-0.82892305,0.025141466,-0.004624736960977316,0.0035245728
282.583333333405,-0.4520396,-1.0631745,0.12738326,-2.583931,0.13048829,1.4361739,0.6795849,0.04,0.039999966,-9.778771,0.2847687900066376,-0.83022964,0.02442532,-0.0048067341558635235,0.0034167876
282.60000000007165,-0.45265874,-1.0635563,0.12755767,-2.5842426,0.13066685,1.4359893,0.6794393,0.04,0.039999973,-9.77873,0.28500911593437195,-0.8315441,0.023713449,-0.004991468507796526,0.003308609
282.6166666667383,-0.45325944,-1.0639267,0.12772685,-2.5845444,0.13084008,1.4358102,0.679298,0.04,0.039999973,-9.778462,0.2851817011833191,-0.83279157,0.023007376,-0.005172387696802616,0.0032021683
282.63333333340495,-0.4538417,-1.0642859,0.12789083,-2.5848374,0.131008,1.4356366,0.67916095,0.04,0.039999973,-9.778291,0.2853948175907135,-0.8339977,0.02230688,-0.005350809544324875,0.0030963952
282.6500000000716,-0.45440567,-1.0646338,0.12804967,-2.5851214,0.13117066,1.4354686,0.6790282,0.04,0.039999973,-9.77816,0.28557831048965454,-0.83517617,0.021612331,-0.005528585519641638,0.0029911662
282.66666666673825,-0.45495167,-1.0649706,0.12820345,-2.5853963,0.13132809,1.4353058,0.67889965,0.04,0.039999977,-9.778037,0.28575098514556885,-0.8363378,0.02092409,-0.005705910734832287,0.0028863803
282.6833333334049,-0.4554799,-1.0652962,0.12835221,-2.5856621,0.1314804,1.4351484,0.6787753,0.04,0.03999998,-9.777841,0.2859257161617279,-0.8374693,0.020242384,-0.005880709271878004,0.0027830317
282.70000000007155,-0.45599034,-1.065611,0.12849598,-2.585919,0.13162756,1.4349961,0.67865515,0.04,0.03999998,-9.777677,0.28607460856437683,-0.83856076,0.019566972,-0.006054434459656477,0.002680341
282.7166666667382,-0.4564833,-1.0659151,0.12863484,-2.586167,0.13176967,1.4348493,0.67853916,0.04,0.03999998,-9.777513,0.28621459007263184,-0.83961874,0.01889894,-0.006226742174476385,0.0025788876
282.73333333340486,-0.45695895,-1.0662084,0.12876883,-2.5864067,0.13190679,1.4347074,0.6784272,0.04,0.039999977,-9.777339,0.2863530218601227,-0.8406585,0.018238131,-0.006395682692527771,0.0024786072
282.7500000000715,-0.45741752,-1.0664911,0.12889801,-2.5866368,0.13203903,1.4345709,0.6783194,0.04,0.03999998,-9.777187,0.2864561975002289,-0.84168106,0.017585052,-0.006565463729202747,0.0023787064
282.76666666673816,-0.45785925,-1.0667639,0.12902246,-2.5868585,0.13216636,1.4344392,0.67821556,0.04,0.039999977,-9.77688,0.28656071424484253,-0.8426295,0.016940527,-0.0067259385250508785,0.0022810388
282.7833333334048,-0.45828432,-1.0670263,0.12914224,-2.5870721,0.13228893,1.4343126,0.67811555,0.04,0.03999998,-9.776735,0.2866625189781189,-0.84354013,0.016303511,-0.006886099465191364,0.0021846616
282.80000000007146,-0.45869297,-1.0672783,0.12925738,-2.5872772,0.1324068,1.434191,0.67801946,0.04,0.039999977,-9.776589,0.2867544889450073,-0.84446007,0.015675865,-0.007043729070574045,0.0020894792
282.8166666667381,-0.45908546,-1.0675204,0.12936793,-2.5874743,0.13251999,1.4340739,0.6779272,0.04,0.03999998,-9.776414,0.28683143854141235,-0.84536797,0.0150569575,-0.007200337015092373,0.0019947144
282.83333333340477,-0.45946202,-1.0677528,0.12947403,-2.5876634,0.13262857,1.4339615,0.67783856,0.04,0.03999998,-9.776245,0.2869093716144562,-0.84621316,0.014446919,-0.0073548574000597,0.0019015956
282.8500000000714,-0.45982292,-1.0679753,0.12957573,-2.5878446,0.13273266,1.4338539,0.6777537,0.04,0.03999998,-9.776025,0.28695669770240784,-0.84702283,0.013847257,-0.007505724672228098,0.0018102523
282.86666666673807,-0.46016842,-1.0681887,0.1296731,-2.5880177,0.13283232,1.433751,0.67767245,0.04,0.039999984,-9.77588,0.28700488805770874,-0.84787136,0.013257108,-0.007656769827008247,0.0017196232
282.8833333334047,-0.46049884,-1.0683924,0.12976621,-2.5881832,0.13292757,1.4336525,0.6775948,0.039999995,0.03999998,-9.775653,0.28704920411109924,-0.84860146,0.012677498,-0.007800402119755745,0.0016314957
282.9000000000714,-0.46081445,-1.0685872,0.12985516,-2.5883412,0.1330186,1.4335586,0.6775206,0.04,0.039999984,-9.775444,0.28708717226982117,-0.84937185,0.012108197,-0.007942432537674904,0.0015446887
282.916666666738,-0.46111542,-1.0687729,0.12993997,-2.5884922,0.13310543,1.4334688,0.67744976,0.039999995,0.03999998,-9.775292,0.2871108949184418,-0.8500883,0.011549331,-0.008082020096480846,0.0014594052
282.9333333334047,-0.46140215,-1.0689496,0.13002078,-2.5886364,0.13318813,1.4333835,0.67738223,0.039999995,0.03999998,-9.775104,0.28712016344070435,-0.8507805,0.011002415,-0.008218956179916859,0.0013758923
282.9500000000713,-0.4616749,-1.069118,0.13009766,-2.5887747,0.13326679,1.4333023,0.67731804,0.03999999,0.03999998,-9.775021,0.2871369421482086,-0.85149914,0.010466801,-0.008357240818440914,0.0012927153
282.966666666738,-0.46193403,-1.069278,0.13017066,-2.588907,0.13334149,1.433225,0.67725706,0.03999999,0.039999977,-9.774931,0.28715547919273376,-0.852147,0.009942249,-0.008495206013321877,0.0012125467
282.98333333340463,-0.4621798,-1.0694299,0.13023992,-2.5890317,0.13341238,1.4331517,0.67719924,0.039999995,0.039999984,-9.774842,0.2871541380882263,-0.8528104,0.00942917,-0.008634338155388832,0.0011322978
283.0000000000713,-0.46241263,-1.0695735,0.13030554,-2.589149,0.13347949,1.4330823,0.67714435,0.039999995,0.039999984,-9.774501,0.2871074378490448,-0.85342795,0.008929123,-0.00876547396183014,0.0010551461
283.01666666673793,-0.46263272,-1.0697092,0.1303676,-2.589259,0.13354297,1.4330167,0.6770926,0.03999999,0.039999984,-9.774257,0.2870737314224243,-0.85402924,0.008442866,-0.008891367353498936,0.00097966
283.0333333334046,-0.4628405,-1.0698373,0.13042618,-2.589362,0.13360287,1.4329548,0.6770436,0.039999988,0.039999977,-9.773906,0.2870209217071533,-0.8546068,0.007970083,-0.009009553119540215,0.0009079674
283.05000000007124,-0.4630363,-1.0699582,0.13048139,-2.589463,0.13365933,1.4328965,0.67699754,0.039999984,0.039999973,-9.773635,0.28695863485336304,-0.855132,0.0075116837,-0.009120730683207512,0.0008382015
283.0666666667379,-0.46322057,-1.070072,0.13053332,-2.5895567,0.13371249,1.4328417,0.6769542,0.039999984,0.039999977,-9.773924,0.28696632385253906,-0.8557152,0.007064091,-0.009246274828910828,0.00076759455
283.08333333340454,-0.46339354,-1.0701791,0.13058211,-2.5896435,0.13376236,1.4327902,0.6769134,0.039999984,0.039999977,-9.773516,0.28687813878059387,-0.8562264,0.006631483,-0.00936055090278387,0.00070055545
283.1000000000712,-0.4635557,-1.0702792,0.13062783,-2.5897233,0.13380915,1.4327416,0.6768752,0.039999984,0.039999977,-9.773156,0.28678303956985474,-0.85671216,0.006214834,-0.00946530606597662,0.0006367357
283.11666666673784,-0.46370733,-1.0703729,0.1306706,-2.5898013,0.13385287,1.4326963,0.67683953,0.039999984,0.039999977,-9.772746,0.28666871786117554,-0.85718125,0.005813692,-0.00956052541732788,0.00057572935
283.1333333334045,-0.463849,-1.0704606,0.13071054,-2.5898724,0.13389374,1.4326543,0.67680615,0.039999984,0.039999977,-9.772978,0.28664442896842957,-0.85768473,0.0054255463,-0.009668007493019104,0.00051519
283.15000000007115,-0.46398097,-1.070542,0.13074777,-2.5899367,0.1339318,1.4326149,0.676775,0.039999984,0.039999977,-9.772491,0.28651541471481323,-0.8581107,0.00505395,-0.009759873151779175,0.00045831816
283.1666666667378,-0.46410367,-1.0706177,0.13078241,-2.5899997,0.13396718,1.4325778,0.676746,0.03999998,0.039999973,-9.772088,0.2863868772983551,-0.8585354,0.0047000116,-0.009842847473919392,0.0004044565
283.18333333340445,-0.4642176,-1.070688,0.1308145,-2.590056,0.13400003,1.4325441,0.6767192,0.039999984,0.03999998,-9.7722645,0.2863168716430664,-0.85898465,0.004360202,-0.009937437251210213,0.00035066684
283.2000000000711,-0.4643231,-1.0707533,0.13084422,-2.590111,0.13403046,1.4325129,0.6766943,0.039999988,0.039999984,-9.771726,0.2861788272857666,-0.8593863,0.0040379143,-0.0100137609988451,0.00030149508
283.21666666673775,-0.46442065,-1.0708135,0.13087174,-2.5901592,0.13405858,1.4324833,0.6766712,0.039999988,0.039999984,-9.771903,0.28610557317733765,-0.85981506,0.0037307853,-0.010100728832185268,0.00025317736
283.2333333334044,-0.46451068,-1.0708691,0.13089718,-2.5902066,0.1340846,1.432457,0.67665005,0.039999988,0.039999988,-9.771303,0.28591388463974,-0.8601745,0.003443342,-0.010172192007303238,0.00020831634
283.25000000007105,-0.46459362,-1.0709206,0.1309207,-2.5902474,0.13410851,1.4324312,0.67663074,0.039999984,0.03999998,-9.771426,0.28583142161369324,-0.8606186,0.0031708444,-0.010249464772641659,0.00016618035
283.2666666667377,-0.46467,-1.0709682,0.1309423,-2.5902872,0.13413054,1.4324092,0.6766128,0.039999984,0.03999998,-9.770842,0.28562068939208984,-0.86091125,0.0029179717,-0.010313901118934155,0.00012793572
283.28333333340436,-0.46474028,-1.071012,0.13096201,-2.5903213,0.13415079,1.4323872,0.6765961,0.039999984,0.03999998,-9.770835,0.28551626205444336,-0.8613231,0.002682332,-0.010375488549470901,9.1842034e-05
283.300000000071,-0.464805,-1.0710522,0.13098025,-2.5903537,0.13416946,1.4323688,0.67658085,0.039999984,0.039999984,-9.7702875,0.28531530499458313,-0.86160016,0.0024675732,-0.01042722724378109,5.8055823e-05
283.31666666673766,-0.46486458,-1.0710889,0.13099703,-2.5903847,0.13418661,1.4323506,0.6765672,0.039999984,0.03999998,-9.77018,0.2852039337158203,-0.86199594,0.0022687123,-0.010473093949258327,2.8591292e-05
283.3333333334043,-0.46491942,-1.0711225,0.13101248,-2.5904112,0.13420242,1.4323344,0.67655385,0.039999984,0.039999984,-9.770164,0.28508085012435913,-0.86230004,0.0020831204,-0.010526739060878754,-1.2052719e-06
283.35000000007096,-0.4649698,-1.071154,0.13102677,-2.590436,0.134217,1.43232,0.6765422,0.039999984,0.039999984,-9.769693,0.2849314212799072,-0.8625744,0.0019171948,-0.010565288364887238,-2.6772497e-05
283.3666666667376,-0.46501613,-1.0711828,0.13103989,-2.5904605,0.13423033,1.4323057,0.67653084,0.039999984,0.039999984,-9.769546,0.284807950258255,-0.8628021,0.0017616678,-0.010598130524158478,-4.9632414e-05
283.38333333340427,-0.4650588,-1.0712088,0.13105194,-2.5904818,0.13424262,1.4322921,0.6765211,0.039999984,0.039999984,-9.769642,0.28473713994026184,-0.86303794,0.0016208077,-0.010641539469361305,-7.206782e-05
283.4000000000709,-0.46509808,-1.0712333,0.13106304,-2.5905006,0.13425395,1.4322815,0.6765116,0.039999984,0.039999984,-9.769344,0.284628689289093,-0.8632764,0.0014882173,-0.010679800063371658,-9.280349e-05
283.41666666673757,-0.4651342,-1.0712552,0.13107327,-2.5905178,0.13426435,1.432271,0.6765036,0.039999984,0.039999988,-9.769049,0.28451836109161377,-0.8634752,0.0013693817,-0.010700548067688942,-0.00011084206
283.4333333334042,-0.46516746,-1.0712758,0.13108265,-2.5905347,0.13427393,1.4322605,0.67649597,0.039999984,0.039999984,-9.76896,0.2844465672969818,-0.86365825,0.0012565823,-0.01072497759014368,-0.00012659779
283.4500000000709,-0.465198,-1.0712948,0.13109133,-2.5905516,0.13428277,1.4322501,0.67648834,0.03999998,0.03999998,-9.768992,0.2843888998031616,-0.86378944,0.0011532677,-0.010754363611340523,-0.00014264049
283.4666666667375,-0.4652262,-1.0713123,0.13109927,-2.5905657,0.13429084,1.432243,0.676482,0.03999998,0.03999998,-9.769066,0.28433215618133545,-0.86395514,0.001060517,-0.010790996253490448,-0.00015854543
283.4833333334042,-0.46525207,-1.0713286,0.13110662,-2.590578,0.13429834,1.4322362,0.6764763,0.03999998,0.03999998,-9.768699,0.2842577397823334,-0.8641433,0.0009723698,-0.010806465521454811,-0.00017093359
283.5000000000708,-0.4652759,-1.0713431,0.13111338,-2.5905893,0.13430525,1.4322295,0.6764706,0.03999998,0.03999998,-9.768541,0.2841724157333374,-0.8642367,0.0008916279,-0.010818244889378548,-0.00018203449
283.5166666667375,-0.46529785,-1.0713568,0.13111958,-2.590599,0.13431159,1.4322228,0.67646486,0.03999998,0.03999998,-9.768483,0.28412431478500366,-0.8643688,0.00081936986,-0.010832761414349079,-0.00019293168
283.53333333340413,-0.46531808,-1.0713695,0.1311253,-2.5906084,0.13431744,1.4322162,0.6764603,0.039999977,0.039999977,-9.768338,0.2840593755245209,-0.86442083,0.00075529376,-0.010844219475984573,-0.00020257845
283.5500000000708,-0.46533665,-1.0713809,0.13113056,-2.5906177,0.13432282,1.4322096,0.67645645,0.039999977,0.039999977,-9.768322,0.28402164578437805,-0.864493,0.00069259154,-0.010858029127120972,-0.00021179632
283.56666666673743,-0.4653537,-1.0713913,0.13113542,-2.590627,0.13432775,1.432203,0.67645264,0.039999977,0.039999977,-9.768392,0.28399986028671265,-0.8646234,0.0006332643,-0.010877694934606552,-0.00022124284
283.5833333334041,-0.46536943,-1.0714011,0.13113987,-2.5906363,0.13433233,1.4321997,0.6764488,0.039999977,0.039999977,-9.768428,0.28396663069725037,-0.8647131,0.0005795741,-0.010901338420808315,-0.00023037524
283.60000000007074,-0.46538392,-1.0714102,0.13114396,-2.5906444,0.13433649,1.4321966,0.676445,0.039999977,0.039999977,-9.768387,0.28395628929138184,-0.86487085,0.0005308927,-0.010913618840277195,-0.0002380142
283.6166666667374,-0.4653972,-1.0714186,0.13114774,-2.590651,0.13434026,1.4321936,0.6764412,0.039999977,0.039999977,-9.768262,0.28391581773757935,-0.86493087,0.00048769522,-0.010922594927251339,-0.00024456362
283.63333333340404,-0.4654095,-1.0714262,0.13115121,-2.5906572,0.13434382,1.4321907,0.6764386,0.039999977,0.039999977,-9.768113,0.28386470675468445,-0.8649655,0.00045003562,-0.010927499271929264,-0.0002497874
283.6500000000707,-0.46542072,-1.071433,0.1311544,-2.5906627,0.13434704,1.4321878,0.67643654,0.039999977,0.039999977,-9.768101,0.2838418781757355,-0.8650264,0.00041075714,-0.010934537276625633,-0.00025539426
283.66666666673734,-0.4654311,-1.0714394,0.13115732,-2.5906675,0.13435009,1.4321849,0.67643464,0.039999977,0.039999977,-9.7680435,0.2838076651096344,-0.8650821,0.00037375372,-0.010941035114228725,-0.00026031793
283.683333333404,-0.46544057,-1.0714455,0.13116004,-2.5906718,0.13435282,1.4321821,0.6764327,0.039999977,0.039999977,-9.767968,0.2837752401828766,-0.8651086,0.00033971498,-0.010945848189294338,-0.00026509224
283.70000000007065,-0.4654493,-1.0714511,0.1311625,-2.5906758,0.13435541,1.4321792,0.6764308,0.039999977,0.039999977,-9.549065,0.2749038338661194,-0.7865852,0.0,-0.0,0.0
283.7166666667373,-0.4654493,-1.0714511,0.1311625,-2.5906758,0.13435541,1.4321792,0.6764308,0.039999977,0.039999977,-9.767633,0.2834688127040863,-0.8654994,0.0,-0.0,0.0
283.73333333340395,-0.4654493,-1.0714511,0.1311625,-2.5906758,0.13435541,1.4321792,0.6764308,0.039999977,0.039999977,-9.767633,0.2834688127040863,-0.8654994,0.0,-0.0,0.0
283.7500000000706,-0.4654493,-1.0714511,0.1311625,-2.5906758,0.13435541,1.4321792,0.6764308,0.039999977,0.039999977,-9.767633,0.2834688127040863,-0.8654994,0.0,-0.0,0.0
283.76666666673725,-0.4654493,-1.0714511,0.1311625,-2.5906758,0.13435541,1.4321792,0.6764308,0.039999977,0.039999977,-9.767633,0.2834688127040863,-0.8654994,0.0,-0.0,0.0
283.7833333334039,-0.4654493,-1.0714511,0.1311625,-2.5906758,0.13435541,1.4321792,0.6764308,0.039999977,0.039999977,-9.767633,0.2834688127040863,-0.8654994,0.0,-0.0,0.0
283.80000000007055,-0.4654493,-1.0714511,0.1311625,-2.5906758,0.13435541,1.4321792,0.6764308,0.039999977,0.039999977,-9.767633,0.2834688127040863,-0.8654994,0.0,-0.0,0.0
283.8166666667372,-0.4654493,-1.0714511,0.1311625,-2.5906758,0.13435541,1.4321792,0.6764308,0.039999977,0.039999977,-9.767633,0.2834688127040863,-0.8654994,0.0,-0.0,0.0
283.83333333340386,-0.4654493,-1.0714511,0.1311625,-2.5906758,0.13435541,1.4321792,0.6764308,0.039999977,0.039999977,-9.767633,0.2834688127040863,-0.8654994,0.0,-0.0,0.0
283.8500000000705,-0.4654493,-1.0714511,0.1311625,-2.5906758,0.13435541,1.4321792,0.6764308,0.039999977,0.039999977,-9.767633,0.2834688127040863,-0.8654994,0.0,-0.0,0.0
283.86666666673716,-0.4654493,-1.0714511,0.1311625,-2.5906758,0.13435541,1.4321792,0.6764308,0.039999977,0.039999977,-9.767633,0.2834688127040863,-0.8654994,0.0,-0.0,0.0
283.8833333334038,-0.4654493,-1.0714511,0.1311625,-2.5906758,0.13435541,1.4321792,0.6764308,0.039999977,0.039999977,-9.767633,0.2834688127040863,-0.8654994,0.0,-0.0,0.0
283.90000000007046,-0.4654493,-1.0714511,0.1311625,-2.5906758,0.13435541,1.4321792,0.6764308,0.039999977,0.039999977,-9.767633,0.2834688127040863,-0.8654994,0.0,-0.0,0.0
283.9166666667371,-0.4654493,-1.0714511,0.1311625,-2.5906758,0.13435541,1.4321792,0.6764308,0.039999977,0.039999977,-9.767633,0.2834688127040863,-0.8654994,0.0,-0.0,0.0
283.93333333340377,-0.4654493,-1.0714511,0.1311625,-2.5906758,0.13435541,1.4321792,0.6764308,0.039999977,0.039999977,-9.767633,0.2834688127040863,-0.8654994,0.0,-0.0,0.0
283.9500000000704,-0.4654493,-1.0714511,0.1311625,-2.5906758,0.13435541,1.4321792,0.6764308,0.039999977,0.039999977,-9.767633,0.2834688127040863,-0.8654994,0.0,-0.0,0.0
283.96666666673707,-0.4654493,-1.0714511,0.1311625,-2.5906758,0.13435541,1.4321792,0.6764308,0.039999977,0.039999977,-9.767633,0.2834688127040863,-0.8654994,0.0,-0.0,0.0
283.9833333334037,-0.4654493,-1.0714511,0.1311625,-2.5906758,0.13435541,1.4321792,0.6764308,0.039999977,0.039999977,-9.767633,0.2834688127040863,-0.8654994,0.0,-0.0,0.0
284.0000000000704,-0.4654493,-1.0714511,0.1311625,-2.5906758,0.13435541,1.4321792,0.6764308,0.039999977,0.039999977,-9.767633,0.2834688127040863,-0.8654994,0.0,-0.0,0.0
284.016666666737,-0.4654493,-1.0714511,0.1311625,-2.5906758,0.13435541,1.4321792,0.6764308,0.039999977,0.039999977,-9.767633,0.2834688127040863,-0.8654994,0.0,-0.0,0.0
284.0333333334037,-0.4654493,-1.0714511,0.1311625,-2.5906758,0.13435541,1.4321792,0.6764308,0.039999977,0.039999977,-9.767633,0.2834688127040863,-0.8654994,0.0,-0.0,0.0
284.0500000000703,-0.4654493,-1.0714511,0.1311625,-2.5906758,0.13435541,1.4321792,0.6764308,0.039999977,0.039999977,-9.767633,0.2834688127040863,-0.8654994,0.0,-0.0,0.0
284.066666666737,-0.4654493,-1.0714511,0.1311625,-2.5906758,0.13435541,1.4321792,0.6764308,0.039999977,0.039999977,-9.767633,0.2834688127040863,-0.8654994,0.0,-0.0,0.0
284.08333333340363,-0.4654493,-1.0714511,0.1311625,-2.5906758,0.13435541,1.4321792,0.6764308,0.039999977,0.039999977,-9.767633,0.2834688127040863,-0.8654994,0.0,-0.0,0.0
284.1000000000703,-0.4654493,-1.0714511,0.1311625,-2.5906758,0.13435541,1.4321792,0.6764308,0.039999977,0.039999977,-9.767633,0.2834688127040863,-0.8654994,0.0,-0.0,0.0
284.11666666673693,-0.4654493,-1.0714511,0.1311625,-2.5906758,0.13435541,1.4321792,0.6764308,0.039999977,0.039999977,-9.767633,0.2834688127040863,-0.8654994,0.0,-0.0,0.0
284.1333333334036,-0.4654493,-1.0714511,0.1311625,-2.5906758,0.13435541,1.4321792,0.6764308,0.039999977,0.039999977,-9.767633,0.2834688127040863,-0.8654994,0.0,-0.0,0.0
284.15000000007024,-0.4654493,-1.0714511,0.1311625,-2.5906758,0.13435541,1.4321792,0.6764308,0.039999977,0.039999977,-9.767633,0.2834688127040863,-0.8654994,0.0,-0.0,0.0
284.1666666667369,-0.4654493,-1.0714511,0.1311625,-2.5906758,0.13435541,1.4321792,0.6764308,0.039999977,0.039999977,-9.767633,0.2834688127040863,-0.8654994,0.0,-0.0,0.0
284.18333333340354,-0.4654493,-1.0714511,0.1311625,-2.5906758,0.13435541,1.4321792,0.6764308,0.039999977,0.039999977,-9.767633,0.2834688127040863,-0.8654994,0.0,-0.0,0.0
284.2000000000702,-0.4654493,-1.0714511,0.1311625,-2.5906758,0.13435541,1.4321792,0.6764308,0.039999977,0.039999977,-9.767633,0.2834688127040863,-0.8654994,0.0,-0.0,0.0
284.21666666673684,-0.4654493,-1.0714511,0.1311625,-2.5906758,0.13435541,1.4321792,0.6764308,0.039999977,0.039999977,-9.767633,0.2834688127040863,-0.8654994,0.0,-0.0,0.0
284.2333333334035,-0.4654493,-1.0714511,0.1311625,-2.5906758,0.13435541,1.4321792,0.6764308,0.039999977,0.039999977,-9.767633,0.2834688127040863,-0.8654994,0.0,-0.0,0.0
284.25000000007014,-0.4654493,-1.0714511,0.1311625,-2.5906758,0.13435541,1.4321792,0.6764308,0.039999977,0.039999977,-9.767633,0.2834688127040863,-0.8654994,0.0,-0.0,0.0
284.2666666667368,-0.4654493,-1.0714511,0.1311625,-2.5906758,0.13435541,1.4321792,0.6764308,0.039999977,0.039999977,-9.767633,0.2834688127040863,-0.8654994,0.0,-0.0,0.0
284.28333333340345,-0.4654493,-1.0714511,0.1311625,-2.5906758,0.13435541,1.4321792,0.6764308,0.039999977,0.039999977,-9.767633,0.2834688127040863,-0.8654994,0.0,-0.0,0.0
284.3000000000701,-0.4654493,-1.0714511,0.1311625,-2.5906758,0.13435541,1.4321792,0.6764308,0.039999977,0.039999977,-9.767633,0.2834688127040863,-0.8654994,0.0,-0.0,0.0
284.31666666673675,-0.4654493,-1.0714511,0.1311625,-2.5906758,0.13435541,1.4321792,0.6764308,0.039999977,0.039999977,-9.767633,0.2834688127040863,-0.8654994,0.0,-0.0,0.0
284.3333333334034,-0.4654493,-1.0714511,0.1311625,-2.5906758,0.13435541,1.4321792,0.6764308,0.039999977,0.039999977,-9.767633,0.2834688127040863,-0.8654994,0.0,-0.0,0.0
284.35000000007005,-0.4654493,-1.0714511,0.1311625,-2.5906758,0.13435541,1.4321792,0.6764308,0.039999977,0.039999977,-9.767633,0.2834688127040863,-0.8654994,0.0,-0.0,0.0
284.3666666667367,-0.4654493,-1.0714511,0.1311625,-2.5906758,0.13435541,1.4321792,0.6764308,0.039999977,0.039999977,-9.767633,0.2834688127040863,-0.8654994,0.0,-0.0,0.0
284.38333333340336,-0.4654493,-1.0714511,0.1311625,-2.5906758,0.13435541,1.4321792,0.6764308,0.039999977,0.039999977,-9.767633,0.2834688127040863,-0.8654994,0.0,-0.0,0.0
284.40000000007,-0.4654493,-1.0714511,0.1311625,-2.5906758,0.13435541,1.4321792,0.6764308,0.039999977,0.039999977,-9.767633,0.2834688127040863,-0.8654994,0.0,-0.0,0.0
284.41666666673666,-0.4654493,-1.0714511,0.1311625,-2.5906758,0.13435541,1.4321792,0.6764308,0.039999977,0.039999977,-9.767633,0.2834688127040863,-0.8654994,0.0,-0.0,0.0
284.4333333334033,-0.4654493,-1.0714511,0.1311625,-2.5906758,0.13435541,1.4321792,0.6764308,0.039999977,0.039999977,-9.767633,0.2834688127040863,-0.8654994,0.0,-0.0,0.0
284.45000000006996,-0.4654493,-1.0714511,0.1311625,-2.5906758,0.13435541,1.4321792,0.6764308,0.039999977,0.039999977,-9.767633,0.2834688127040863,-0.8654994,0.0,-0.0,0.0
284.4666666667366,-0.4654493,-1.0714511,0.1311625,-2.5906758,0.13435541,1.4321792,0.6764308,0.039999977,0.039999977,-9.767633,0.2834688127040863,-0.8654994,0.0,-0.0,0.0
284.48333333340327,-0.4654493,-1.0714511,0.1311625,-2.5906758,0.13435541,1.4321792,0.6764308,0.039999977,0.039999977,-9.767633,0.2834688127040863,-0.8654994,0.0,-0.0,0.0
284.5000000000699,-0.4654493,-1.0714511,0.1311625,-2.5906758,0.13435541,1.4321792,0.6764308,0.039999977,0.039999977,-9.767633,0.2834688127040863,-0.8654994,0.0,-0.0,0.0
284.51666666673657,-0.4654493,-1.0714511,0.1311625,-2.5906758,0.13435541,1.4321792,0.6764308,0.039999977,0.039999977,-9.767633,0.2834688127040863,-0.8654994,0.0,-0.0,0.0
284.5333333334032,-0.4654493,-1.0714511,0.1311625,-2.5906758,0.13435541,1.4321792,0.6764308,0.039999977,0.039999977,-9.767633,0.2834688127040863,-0.8654994,0.0,-0.0,0.0
284.5500000000699,-0.4654493,-1.0714511,0.1311625,-2.5906758,0.13435541,1.4321792,0.6764308,0.039999977,0.039999977,-9.767633,0.2834688127040863,-0.8654994,0.0,-0.0,0.0
284.5666666667365,-0.4654493,-1.0714511,0.1311625,-2.5906758,0.13435541,1.4321792,0.6764308,0.039999977,0.039999977,-9.767633,0.2834688127040863,-0.8654994,0.0,-0.0,0.0
284.5833333334032,-0.4654493,-1.0714511,0.1311625,-2.5906758,0.13435541,1.4321792,0.6764308,0.039999977,0.039999977,-9.767633,0.2834688127040863,-0.8654994,0.0,-0.0,0.0
284.6000000000698,-0.4654493,-1.0714511,0.1311625,-2.5906758,0.13435541,1.4321792,0.6764308,0.039999977,0.039999977,-9.767633,0.2834688127040863,-0.8654994,0.0,-0.0,0.0
284.6166666667365,-0.4654493,-1.0714511,0.1311625,-2.5906758,0.13435541,1.4321792,0.6764308,0.039999977,0.039999977,-9.767633,0.2834688127040863,-0.8654994,0.0,-0.0,0.0
284.63333333340313,-0.4654493,-1.0714511,0.1311625,-2.5906758,0.13435541,1.4321792,0.6764308,0.039999977,0.039999977,-9.767633,0.2834688127040863,-0.8654994,0.0,-0.0,0.0
284.6500000000698,-0.4654493,-1.0714511,0.1311625,-2.5906758,0.13435541,1.4321792,0.6764308,0.039999977,0.039999977,-9.767633,0.2834688127040863,-0.8654994,0.0,-0.0,0.0
284.66666666673643,-0.4654493,-1.0714511,0.1311625,-2.5906758,0.13435541,1.4321792,0.6764308,0.039999977,0.039999977,-9.767633,0.2834688127040863,-0.8654994,0.0,-0.0,0.0
284.6833333334031,-0.4654493,-1.0714511,0.1311625,-2.5906758,0.13435541,1.4321792,0.6764308,0.039999977,0.039999977,-9.767633,0.2834688127040863,-0.8654994,0.0,-0.0,0.0
284.70000000006974,-0.4654493,-1.0714511,0.1311625,-2.5906758,0.13435541,1.4321792,0.6764308,0.039999977,0.039999977,-9.767633,0.2834688127040863,-0.8654994,0.0,-0.0,0.0
284.7166666667364,-0.4654493,-1.0714511,0.1311625,-2.5906758,0.13435541,1.4321792,0.6764308,0.039999977,0.039999977,-9.767633,0.2834688127040863,-0.8654994,0.0,-0.0,0.0
284.73333333340304,-0.4654493,-1.0714511,0.1311625,-2.5906758,0.13435541,1.4321792,0.6764308,0.039999977,0.039999977,-9.767633,0.2834688127040863,-0.8654994,0.0,-0.0,0.0
284.7500000000697,-0.4654493,-1.0714511,0.1311625,-2.5906758,0.13435541,1.4321792,0.6764308,0.039999977,0.039999977,-9.767633,0.2834688127040863,-0.8654994,0.0,-0.0,0.0
284.76666666673634,-0.4654493,-1.0714511,0.1311625,-2.5906758,0.13435541,1.4321792,0.6764308,0.039999977,0.039999977,-9.767633,0.2834688127040863,-0.8654994,0.0,-0.0,0.0
284.783333333403,-0.4654493,-1.0714511,0.1311625,-2.5906758,0.13435541,1.4321792,0.6764308,0.039999977,0.039999977,-9.767633,0.2834688127040863,-0.8654994,0.0,-0.0,0.0
284.80000000006964,-0.4654493,-1.0714511,0.1311625,-2.5906758,0.13435541,1.4321792,0.6764308,0.039999977,0.039999977,-9.767633,0.2834688127040863,-0.8654994,0.0,-0.0,0.0
284.8166666667363,-0.4654493,-1.0714511,0.1311625,-2.5906758,0.13435541,1.4321792,0.6764308,0.039999977,0.039999977,-9.767633,0.2834688127040863,-0.8654994,0.0,-0.0,0.0
284.83333333340295,-0.4654493,-1.0714511,0.1311625,-2.5906758,0.13435541,1.4321792,0.6764308,0.039999977,0.039999977,-9.767633,0.2834688127040863,-0.8654994,0.0,-0.0,0.0
284.8500000000696,-0.4654493,-1.0714511,0.1311625,-2.5906758,0.13435541,1.4321792,0.6764308,0.039999977,0.039999977,-9.767633,0.2834688127040863,-0.8654994,0.0,-0.0,0.0
284.86666666673625,-0.4654493,-1.0714511,0.1311625,-2.5906758,0.13435541,1.4321792,0.6764308,0.039999977,0.039999977,-9.767633,0.2834688127040863,-0.8654994,0.0,-0.0,0.0
284.8833333334029,-0.4654493,-1.0714511,0.1311625,-2.5906758,0.13435541,1.4321792,0.6764308,0.039999977,0.039999977,-9.767633,0.2834688127040863,-0.8654994,0.0,-0.0,0.0
284.90000000006955,-0.4654493,-1.0714511,0.1311625,-2.5906758,0.13435541,1.4321792,0.6764308,0.039999977,0.039999977,-9.767633,0.2834688127040863,-0.8654994,0.0,-0.0,0.0
284.9166666667362,-0.4654493,-1.0714511,0.1311625,-2.5906758,0.13435541,1.4321792,0.6764308,0.039999977,0.039999977,-9.767633,0.2834688127040863,-0.8654994,0.0,-0.0,0.0
284.93333333340286,-0.4654493,-1.0714511,0.1311625,-2.5906758,0.13435541,1.4321792,0.6764308,0.039999977,0.039999977,-9.767633,0.2834688127040863,-0.8654994,0.0,-0.0,0.0
284.9500000000695,-0.4654493,-1.0714511,0.1311625,-2.5906758,0.13435541,1.4321792,0.6764308,0.039999977,0.039999977,-9.767633,0.2834688127040863,-0.8654994,0.0,-0.0,0.0
284.96666666673616,-0.4654493,-1.0714511,0.1311625,-2.5906758,0.13435541,1.4321792,0.6764308,0.039999977,0.039999977,-9.767633,0.2834688127040863,-0.8654994,0.0,-0.0,0.0
284.9833333334028,-0.4654493,-1.0714511,0.1311625,-2.5906758,0.13435541,1.4321792,0.6764308,0.039999977,0.039999977,-9.767633,0.2834688127040863,-0.8654994,0.0,-0.0,0.0
285.00000000006946,-0.4654493,-1.0714511,0.1311625,-2.5906758,0.13435541,1.4321792,0.6764308,0.039999977,0.039999977,-9.767633,0.2834688127040863,-0.8654994,0.0,-0.0,0.0
285.0166666667361,-0.4654493,-1.0714511,0.1311625,-2.5906758,0.13435541,1.4321792,0.6764308,0.039999977,0.039999977,-9.767633,0.2834688127040863,-0.8654994,0.0,-0.0,0.0
285.03333333340277,-0.4654493,-1.0714511,0.1311625,-2.5906758,0.13435541,1.4321792,0.6764308,0.039999977,0.039999977,-9.767633,0.2834688127040863,-0.8654994,0.0,-0.0,0.0
285.0500000000694,-0.4654493,-1.0714511,0.1311625,-2.5906758,0.13435541,1.4321792,0.6764308,0.039999977,0.039999977,-9.767633,0.2834688127040863,-0.8654994,0.0,-0.0,0.0
285.06666666673607,-0.4654493,-1.0714511,0.1311625,-2.5906758,0.13435541,1.4321792,0.6764308,0.039999977,0.039999977,-9.767633,0.2834688127040863,-0.8654994,0.0,-0.0,0.0
285.0833333334027,-0.4654493,-1.0714511,0.1311625,-2.5906758,0.13435541,1.4321792,0.6764308,0.039999977,0.039999977,-9.767633,0.2834688127040863,-0.8654994,0.0,-0.0,0.0
285.1000000000694,-0.4654493,-1.0714511,0.1311625,-2.5906758,0.13435541,1.4321792,0.6764308,0.039999977,0.039999977,-9.767633,0.2834688127040863,-0.8654994,0.0,-0.0,0.0
285.116666666736,-0.4654493,-1.0714511,0.1311625,-2.5906758,0.13435541,1.4321792,0.6764308,0.039999977,0.039999977,-9.767633,0.2834688127040863,-0.8654994,0.0,-0.0,0.0
285.1333333334027,-0.4654493,-1.0714511,0.1311625,-2.5906758,0.13435541,1.4321792,0.6764308,0.039999977,0.039999977,-9.767633,0.2834688127040863,-0.8654994,0.0,-0.0,0.0
285.1500000000693,-0.4654493,-1.0714511,0.1311625,-2.5906758,0.13435541,1.4321792,0.6764308,0.039999977,0.039999977,-9.767633,0.2834688127040863,-0.8654994,0.0,-0.0,0.0
285.166666666736,-0.4654493,-1.0714511,0.1311625,-2.5906758,0.13435541,1.4321792,0.6764308,0.039999977,0.039999977,-9.767633,0.2834688127040863,-0.8654994,0.0,-0.0,0.0
285.18333333340263,-0.4654493,-1.0714511,0.1311625,-2.5906758,0.13435541,1.4321792,0.6764308,0.039999977,0.039999977,-9.767633,0.2834688127040863,-0.8654994,0.0,-0.0,0.0
285.2000000000693,-0.4654493,-1.0714511,0.1311625,-2.5906758,0.13435541,1.4321792,0.6764308,0.039999977,0.039999977,-9.767633,0.2834688127040863,-0.8654994,0.0,-0.0,0.0
285.21666666673593,-0.4654493,-1.0714511,0.1311625,-2.5906758,0.13435541,1.4321792,0.6764308,0.039999977,0.039999977,-9.767633,0.2834688127040863,-0.8654994,0.0,-0.0,0.0
285.2333333334026,-0.4654493,-1.0714511,0.1311625,-2.5906758,0.13435541,1.4321792,0.6764308,0.039999977,0.039999977,-9.767633,0.2834688127040863,-0.8654994,0.0,-0.0,0.0
285.25000000006924,-0.4654493,-1.0714511,0.1311625,-2.5906758,0.13435541,1.4321792,0.6764308,0.039999977,0.039999977,-9.767633,0.2834688127040863,-0.8654994,0.0,-0.0,0.0
285.2666666667359,-0.4654493,-1.0714511,0.1311625,-2.5906758,0.13435541,1.4321792,0.6764308,0.039999977,0.039999977,-9.767633,0.2834688127040863,-0.8654994,0.0,-0.0,0.0
285.28333333340254,-0.4654493,-1.0714511,0.1311625,-2.5906758,0.13435541,1.4321792,0.6764308,0.039999977,0.039999977,-9.767633,0.2834688127040863,-0.8654994,0.0,-0.0,0.0
285.3000000000692,-0.4654493,-1.0714511,0.1311625,-2.5906758,0.13435541,1.4321792,0.6764308,0.039999977,0.039999977,-9.767633,0.2834688127040863,-0.8654994,0.0,-0.0,0.0
