rsonawane2002/My_IMU/logs_2/traj_276/imu_400hz_276.csv
time,j1,j2,j3,j4,j5,j6,j7,gripper1,gripper2,imu_ax,imu_ay,imu_az,imu_gx,imu_gy,imu_gz
0.0,0.00016700293,-0.785875,4.0107683e-05,-2.3551247,9.29385e-05,1.570997,0.786,0.04,0.04,-9.519728,5.1816459745168686e-05,0.08037349,-5.8656167e-07,-0.0011641271412372,9.0946446e-07
0.0025,0.0001670021785,-0.785857774,4.0109059250000006e-05,-2.35513919,9.294417600000001e-05,1.570996565,0.786,0.04,0.04,-9.566931050000044,0.00013754335232085636,0.06968036912499029,-4.981210318699196e-07,-0.0013252832693980015,9.279930960000168e-07
0.005,0.000167001427,-0.785840548,4.01104355e-05,-2.3551536800000004,9.294985200000002e-05,1.57099613,0.786,0.04,0.04,-9.614134100000086,0.000223270244896544,0.058987248249980556,-4.096803937398391e-07,-0.0014864393975588031,9.465217320000337e-07
0.0075,0.0001670006755,-0.7858233219999999,4.0111811750000005e-05,-2.3551681700000002,9.295552800000001e-05,1.570995695,0.786,0.04,0.04,-9.66133715000013,0.00030899713747223166,0.04829412737497083,-3.212397556097587e-07,-0.0016475955257196045,9.650503680000504e-07
0.01,0.000166999924,-0.785806096,4.011318800000001e-05,-2.35518266,9.296120400000002e-05,1.5709952600000001,0.786,0.04,0.04,-9.708540200000172,0.00039472403004791934,0.03760100649996111,-2.327991174796782e-07,-0.0018087516538804064,9.835790040000674e-07
0.0125,0.0001669991725,-0.78578887,4.0114564250000004e-05,-2.3551971500000004,9.296688000000002e-05,1.570994825,0.786,0.04,0.04,-9.755743250000215,0.000480450922623607,0.026907885624951375,-1.4435847934959775e-07,-0.0019699077820412077,1.0021076400000842e-06
0.015,0.00016699842100000001,-0.785771644,4.011594050000001e-05,-2.3552116400000003,9.297255600000003e-05,1.57099439,0.786,0.04,0.04,-9.802946300000258,0.0005661778151992946,0.016214764749941657,-5.591784121951737e-08,-0.002131063910202009,1.0206362760001011e-06
0.0175,0.00016699496749999996,-0.785754867,4.0118065600000026e-05,-2.3552257350000003,9.297888900000004e-05,1.57099396,0.786,0.04,0.04,-9.834316949999998,0.0006222971103851653,0.009008681924998523,1.0033775499185848e-07,-0.002287946571596849,1.0687688100006835e-06
0.02,0.00016698610999999996,-0.785738988,4.0121688400000026e-05,-2.3552390400000003,9.298653600000005e-05,1.5709935400000001,0.786,0.04,0.04,-9.834022799999998,0.0006192012107930175,0.008776675199998312,3.9222326736212384e-07,-0.002436282299459999,1.1761091400007811e-06
0.0225,0.00016697725249999995,-0.7857231089999999,4.012531120000003e-05,-2.3552523450000002,9.299418300000005e-05,1.57099312,0.786,0.04,0.04,-9.833728649999998,0.0006161053112008697,0.008544668474998102,6.841087797323893e-07,-0.002584618027323149,1.2834494700008785e-06
0.025,0.00016696839499999994,-0.7857072299999999,4.0128934000000035e-05,-2.35526565,9.300183000000007e-05,1.5709927,0.786,0.04,0.04,-9.833434499999997,0.0006130094116087218,0.00831266174999789,9.75994292102655e-07,-0.002732953755186299,1.3907898000009764e-06
0.0275,0.0001669595374999999,-0.7856913509999999,4.0132556800000036e-05,-2.355278955,9.300947700000008e-05,1.57099228,0.786,0.04,0.04,-9.833140349999997,0.000609913512016574,0.008080655024997678,1.2678798044729205e-06,-0.002881289483049449,1.498130130001074e-06
0.03,0.0001669506799999999,-0.7856754719999999,4.013617960000004e-05,-2.35529226,9.301712400000008e-05,1.57099186,0.786,0.04,0.04,-9.832846199999997,0.0006068176124244262,0.007848648299997468,1.5597653168431858e-06,-0.003029625210912599,1.6054704600011716e-06
0.0325,0.0001669418224999999,-0.7856595929999999,4.0139802400000044e-05,-2.355305565,9.302477100000009e-05,1.57099144,0.786,0.04,0.04,-9.832552049999997,0.0006037217128322783,0.007616641574997257,1.8516508292134515e-06,-0.003177960938775749,1.7128107900012692e-06
0.035,0.00016691864799999964,-0.7856445729999998,4.0147459000000125e-05,-2.3553181,9.303633450000018e-05,1.57099101,0.786,0.04,0.04,-9.832271099999996,0.0005974166851955193,0.007398106719997303,2.394865270008518e-06,-0.0033184079453365983,1.862402430002174e-06
0.0375,0.0001668883149999996,-0.7856299824999998,4.015713250000013e-05,-2.35533025,9.304985625000018e-05,1.570990575,0.786,0.04,0.04,-9.831996749999997,0.0005895070935365421,0.0071863077999971105,3.063744175009125e-06,-0.003454910591246512,2.033119725002329e-06
0.04,0.00016685798199999956,-0.7856153919999997,4.016680600000014e-05,-2.3553424,9.30633780000002e-05,1.57099014,0.786,0.04,0.04,-9.831722399999997,0.0005815975018775649,0.006974508879996918,3.7326230800097336e-06,-0.0035914132371564263,2.2038370200024844e-06
0.0425,0.00016682764899999953,-0.7856008014999998,4.017647950000015e-05,-2.35535455,9.30768997500002e-05,1.5709897050000001,0.786,0.04,0.04,-9.831448049999995,0.0005736879102185877,0.006762709959996725,4.401501985010342e-06,-0.0037279158830663406,2.37455431500264e-06
0.045,0.0001667973159999995,-0.7855862109999998,4.018615300000016e-05,-2.3553667000000003,9.309042150000022e-05,1.57098927,0.786,0.04,0.04,-9.831173699999995,0.0005657783185596105,0.0065509110399965325,5.07038089001095e-06,-0.003864418528976255,2.5452716100027945e-06
0.0475,0.00016676698299999946,-0.7855716204999997,4.0195826500000164e-05,-2.35537885,9.310394325000024e-05,1.570988835,0.786,0.04,0.04,-9.830899349999996,0.0005578687269006333,0.00633911211999634,5.739259795011559e-06,-0.004000921174886169,2.71598890500295e-06
0.05,0.0001667366499999987,-0.7855570299999998,4.0205500000000386e-05,-2.355391,9.311746500000048e-05,1.5709884,0.786,0.04,0.04,-9.830624999999994,0.000549959135241613,0.006127313199996384,6.408138700023914e-06,-0.0041374238207958726,2.8867062000068774e-06
0.0525,0.00016666565649999863,-0.7855436154999997,4.02266420500004e-05,-2.3554021300000003,9.31439488500005e-05,1.57098798,0.786,0.04,0.03999999925,-9.830358899999995,0.0005396768625357937,0.005928523374996203,7.722773845025108e-06,-0.00426233324688164,3.2647805700072206e-06
0.055,0.00016659466299999857,-0.7855302009999997,4.0247784100000426e-05,-2.35541326,9.317043270000052e-05,1.57098756,0.786,0.04,0.0399999985,-9.830092799999994,0.0005293945898299742,0.0057297335499960226,9.037408990026304e-06,-0.00438724267296741,3.6428549400075648e-06
0.0575,0.0001665236694999985,-0.7855167864999998,4.026892615000044e-05,-2.35542439,9.319691655000055e-05,1.57098714,0.786,0.04,0.03999999775,-9.829826699999995,0.0005191123171241549,0.005530943724995841,1.0352044135027501e-05,-0.004512152099053178,4.020929310007909e-06
0.06,0.00016645267599999845,-0.7855033719999998,4.029006820000046e-05,-2.3554355200000003,9.322340040000057e-05,1.57098672,0.786,0.04,0.039999997,-9.829560599999994,0.0005088300444183356,0.0053321538999956605,1.1666679280028695e-05,-0.004637061525138946,4.399003680008252e-06
0.0625,0.00016638168249999836,-0.7854899574999997,4.031121025000048e-05,-2.35544665,9.32498842500006e-05,1.5709863,0.786,0.04,0.03999999625,-9.829294499999994,0.0004985477717125162,0.00513336407499548,1.2981314425029892e-05,-0.004761970951224715,4.777078050008597e-06
0.065,0.0001663106889999983,-0.7854765429999997,4.03323523000005e-05,-2.35545778,9.327636810000063e-05,1.57098588,0.786,0.04,0.0399999955,-9.829028399999993,0.00048826549900669685,0.004934574249995299,1.429594957003109e-05,-0.004886880377310484,5.15515242000894e-06
0.0675,0.00016621801299999665,-0.7854635034999997,4.035961815000097e-05,-2.3554685600000003,9.33090158000011e-05,1.570985455,0.786,0.04,0.039999995,-9.828768299999995,0.00047671077190861877,0.004740805024995488,1.5865266050051047e-05,-0.005008309357802396,5.5332272500092845e-06
0.07,0.00016608197199999652,-0.7854512139999997,4.039913160000101e-05,-2.3554786400000003,9.335399120000114e-05,1.57098502,0.786,0.04,0.039999995,-9.828520199999994,0.00046261113602630093,0.004557076999995321,1.7943945200052942e-05,-0.005122777447107355,5.911303000009629e-06
0.0725,0.0001659459309999964,-0.7854389244999997,4.043864505000104e-05,-2.3554887200000003,9.339896660000119e-05,1.570984585,0.786,0.04,0.039999995,-9.828272099999994,0.00044851150014398316,0.004373348974995155,2.0022624350054823e-05,-0.005237245536412314,6.289378750009971e-06
0.075,0.00016580988999999628,-0.7854266349999997,4.0478158500001075e-05,-2.3554988000000003,9.344394200000123e-05,1.57098415,0.786,0.04,0.039999995,-9.828023999999994,0.0004344118642616653,0.004189620949994987,2.2101303500056715e-05,-0.005351713625717273,6.667454500010315e-06
0.0775,0.00016567384899999614,-0.7854143454999997,4.051767195000111e-05,-2.3555088800000004,9.348891740000127e-05,1.5709837150000001,0.786,0.04,0.039999995,-9.827775899999994,0.0004203122283793475,0.00400589292499482,2.4179982650058606e-05,-0.005466181715022232,7.045530250010659e-06
0.08,0.00016553780799999604,-0.7854020559999997,4.055718540000115e-05,-2.3555189600000004,9.353389280000131e-05,1.57098328,0.786,0.04,0.039999995,-9.827527799999993,0.0004062125924970296,0.003822164899994653,2.6258661800060498e-05,-0.005580649804327192,7.423606000011003e-06
0.0825,0.0001654017669999959,-0.7853897664999997,4.0596698850001186e-05,-2.3555290400000004,9.357886820000136e-05,1.570982845,0.786,0.04,0.039999995,-9.827279699999993,0.0003921129566147118,0.003638436874994486,2.8337340950062393e-05,-0.0056951178936321505,7.801681750011347e-06
0.085,0.00016520295799999287,-0.7853781779999996,4.065395830000204e-05,-2.3555389100000004,9.364063200000217e-05,1.57098241,0.786,0.04,0.0399999955,-9.827043599999993,0.00037561533681524273,0.0034590670999945206,3.0988539800090845e-05,-0.005802782019603435,8.201663500012707e-06
0.08750000000000001,0.00016497276499999268,-0.7853669399999996,4.07200907500021e-05,-2.355548675,9.371079000000223e-05,1.570981975,0.786,0.04,0.03999999625,-9.826813499999993,0.00035791872505736163,0.003281876449994359,3.392599850009352e-05,-0.0059070441639083445,8.612598250013081e-06
0.09,0.00016474257199999246,-0.7853557019999996,4.078622320000217e-05,-2.3555584400000003,9.37809480000023e-05,1.57098154,0.786,0.04,0.039999997,-9.826583399999993,0.0003402221132994806,0.0031046857999941987,3.686345720009618e-05,-0.006011306308213254,9.023533000013454e-06
0.0925,0.00016451237899999226,-0.7853444639999996,4.085235565000223e-05,-2.3555682050000004,9.385110600000236e-05,1.570981105,0.786,0.04,0.03999999775,-9.826353299999992,0.0003225255015415995,0.0029274951499940376,3.980091590009885e-05,-0.006115568452518164,9.434467750013828e-06
0.095,0.00016428218599999204,-0.7853332259999996,4.091848810000229e-05,-2.35557797,9.392126400000243e-05,1.57098067,0.786,0.04,0.0399999985,-9.826123199999993,0.0003048288897837184,0.002750304499993876,4.2738374600101524e-05,-0.006219830596823074,9.845402500014202e-06
0.0975,0.00016405199299999185,-0.7853219879999995,4.098462055000235e-05,-2.3555877350000003,9.399142200000249e-05,1.570980235,0.786,0.04,0.03999999925,-9.825893099999993,0.00028713227802583727,0.002573113849993715,4.56758333001042e-05,-0.0063240927411279835,1.0256337250014576e-05
0.1,0.000163821799999987,-0.7853107499999996,4.1050753000003715e-05,-2.3555975000000005,9.40615800000039e-05,1.5709798,0.786,0.04,0.04,-9.825662999999995,0.0002694356662679498,0.0023959231999939453,4.8613292000143646e-05,-0.00642835488543264,1.0667272000025518e-05
0.10250000000000001,0.00016346412499998667,-0.7853004824999996,4.1152871950003806e-05,-2.3556062750000004,9.4168450500004e-05,1.57097938,0.786,0.04,0.04,-9.825516749999995,0.00025156398623873353,0.0022295039449937936,5.256155570014724e-05,-0.006525662075731769,1.1368661650026157e-05
0.105,0.00016310644999998635,-0.7852902149999995,4.1254990900003904e-05,-2.3556150500000004,9.427532100000409e-05,1.57097896,0.786,0.04,0.04,-9.825370499999995,0.00023369230620951735,0.002063084689993643,5.6509819400150817e-05,-0.006622969266030896,1.2070051300026792e-05
0.1075,0.000162748774999986,-0.7852799474999995,4.1357109850003995e-05,-2.3556238250000003,9.438219150000419e-05,1.57097854,0.786,0.04,0.04,-9.825224249999994,0.00021582062618030108,0.0018966654349934918,6.045808310015441e-05,-0.006720276456330026,1.2771440950027431e-05
0.11,0.00016239109999998568,-0.7852696799999995,4.145922880000409e-05,-2.3556326000000003,9.448906200000427e-05,1.57097812,0.786,0.04,0.04,-9.825077999999994,0.00019794894615108482,0.00173024617999334,6.4406346800158e-05,-0.006817583646629154,1.347283060002807e-05
0.1125,0.00016203342499998536,-0.7852594124999995,4.156134775000418e-05,-2.3556413750000007,9.459593250000438e-05,1.5709777,0.786,0.04,0.04,-9.824931749999994,0.00018007726612186852,0.0015638269249931887,6.83546105001616e-05,-0.006914890836928283,1.4174220250028707e-05
0.115,0.00016167574999998504,-0.7852491449999995,4.166346670000427e-05,-2.3556501500000007,9.470280300000448e-05,1.5709772800000001,0.786,0.04,0.04,-9.824785499999994,0.00016220558609265228,0.0013974076699930372,7.230287420016519e-05,-0.007012198027227411,1.4875609900029346e-05
0.11750000000000001,0.00016126322049997768,-0.7852391999999996,4.1781067700006346e-05,-2.3556587600000007,9.482534250000657e-05,1.570976855,0.785999985,0.04,0.04,-9.82461324999999,0.0001431464304904809,0.0012329670289931394,7.660509200021419e-05,-0.0071063320152498985,1.560972435003418e-05
0.12,0.0001607409819999772,-0.7852298999999996,4.1929632800006484e-05,-2.3556670400000006,9.497922000000672e-05,1.57097642,0.7859999400000001,0.04,0.04,-9.82438899999999,0.00012171232374285318,0.0010724836159929942,8.161521800021872e-05,-0.007194119598720313,1.6409288400034904e-05
0.1225,0.00016021874349997673,-0.7852205999999996,4.2078197900006616e-05,-2.3556753200000005,9.513309750000686e-05,1.570975985,0.785999895,0.04,0.04,-9.82416474999999,0.00010027821699522533,0.0009120002029928482,8.662534400022328e-05,-0.007281907182190728,1.720885245003563e-05
0.125,0.00015969650499997624,-0.7852112999999996,4.2226763000006755e-05,-2.3556836000000003,9.5286975000007e-05,1.57097555,0.7859998499999999,0.04,0.04,-9.82394049999999,7.884411024759746e-05,0.0007515167899927021,9.163547000022784e-05,-0.0073696947656611425,1.800841650003636e-05
0.1275,0.00015917426649997578,-0.7852019999999996,4.2375328100006894e-05,-2.3556918800000006,9.544085250000715e-05,1.570975115,0.785999805,0.04,0.04,-9.82371624999999,5.741000349996961e-05,0.000591033376992556,9.66455960002324e-05,-0.007457482349131557,1.880798055003709e-05
0.13,0.0001586520279999753,-0.7851926999999996,4.2523893200007026e-05,-2.3557001600000005,9.559473000000728e-05,1.57097468,0.7859997599999999,0.04,0.04,-9.82349199999999,3.597589675234174e-05,0.00043054996399241,0.00010165572200023696,-0.007545269932601972,1.9607544600037817e-05
0.1325,0.00015812978949997483,-0.7851833999999996,4.2672458300007164e-05,-2.3557084400000003,9.574860750000742e-05,1.570974245,0.785999715,0.04,0.04,-9.823267749999989,1.4541790004713877e-05,0.000270066550992264,0.00010666584800024152,-0.007633057516072387,2.0407108650038544e-05
0.135,0.00015747087899996428,-0.7851746939999996,4.285956670001014e-05,-2.35571628,9.594187940001046e-05,1.5709738199999999,0.7859995099999999,0.04,0.04,-9.823087099999992,-7.799838205049707e-06,0.00011648065199262582,0.00011256916500031189,-0.0077159901615271136,2.1386709300052536e-05
0.1375,0.00015674363249996363,-0.7851662849999996,4.306594675001033e-05,-2.3557239000000005,9.615484850001065e-05,1.5709734,0.785999225,0.04,0.04,-9.822928249999991,-3.059522714578211e-05,-3.3656490007510876e-05,0.00011891907750031768,-0.007796495337974527,2.2456328250053508e-05
0.14,0.00015601638599996296,-0.7851578759999996,4.327232680001051e-05,-2.3557315200000004,9.636781760001085e-05,1.57097298,0.7859989399999999,0.04,0.04,-9.822769399999991,-5.3390616086514516e-05,-0.00018379363200764757,0.00012526899000032347,-0.007877000514421941,2.3525947200054484e-05
0.14250000000000002,0.0001552891394999623,-0.7851494669999997,4.34787068500107e-05,-2.3557391400000003,9.658078670001104e-05,1.57097256,0.785998655,0.04,0.04,-9.822610549999991,-7.618600502724692e-05,-0.0003339307740077842,0.00013161890250032923,-0.007957505690869355,2.4595566150055457e-05
0.145,0.00015456189299996166,-0.7851410579999996,4.368508690001088e-05,-2.35574676,9.679375580001123e-05,1.57097214,0.78599837,0.04,0.04,-9.822451699999991,-9.898139396797907e-05,-0.00048406791600791923,0.00013796881500033494,-0.008038010867316767,2.566518510005642e-05
0.1475,0.00015383464649996098,-0.7851326489999996,4.389146695001107e-05,-2.3557543800000005,9.700672490001142e-05,1.57097172,0.7859980849999999,0.04,0.04,-9.822292849999991,-0.00012177678290871147,-0.0006342050580080559,0.00014431872750034073,-0.00811851604376418,2.6734804050057395e-05
0.15,0.00015310739999994678,-0.7851242399999996,4.409784700001508e-05,-2.3557620000000004,9.721969400001554e-05,1.5709713,0.7859978,0.04,0.04,-9.822133999999991,-0.00014457217184945183,-0.0007843422000078051,0.00015066864000047413,-0.008199021220211168,2.7804423000078063e-05
0.1525,0.00015213176699994921,-0.7851166889999996,4.437424795001439e-05,-2.3557694400000004,9.750466640001484e-05,1.5709708500000001,0.7859975149999999,0.04,0.04,-9.82195609999999,-0.00016751358925943448,-0.0009273778350074475,0.0001593573705004524,-0.008271738840270831,2.9234993550074487e-05
0.155,0.00015115613399995165,-0.7851091379999996,4.46506489000137e-05,-2.3557768800000005,9.778963880001413e-05,1.5709704,0.78599723,0.04,0.04,-9.821778199999992,-0.00019045500666941715,-0.0010704134700070898,0.00016804610100043069,-0.008344456460330494,3.0665564100070907e-05
0.1575,0.0001501805009999541,-0.7851015869999997,4.4927049850013005e-05,-2.35578432,9.807461120001341e-05,1.57096995,0.785996945,0.04,0.04,-9.821600299999991,-0.00021339642407939977,-0.0012134491050067322,0.00017673483150040895,-0.008417174080390158,3.209613465006733e-05
0.16,0.00014920486799995653,-0.7850940359999997,4.520345080001232e-05,-2.3557917600000002,9.83595836000127e-05,1.5709695000000001,0.7859966599999999,0.04,0.04,-9.821422399999992,-0.00023633784148938244,-0.0013564847400063746,0.00018542356200038722,-0.00848989170044982,3.3526705200063753e-05
0.1625,0.00014822923499995897,-0.7850864849999997,4.547985175001163e-05,-2.3557992000000003,9.8644556000012e-05,1.57096905,0.785996375,0.04,0.04,-9.821244499999992,-0.00025927925889936506,-0.001499520375006017,0.0001941122925003655,-0.008562609320509484,3.495727575006018e-05
0.165,0.0001472536019999614,-0.7850789339999997,4.5756252700010934e-05,-2.3558066400000004,9.892952840001127e-05,1.5709686,0.7859960899999999,0.04,0.04,-9.821066599999993,-0.00028222067630934774,-0.0016425560100056594,0.00020280102300034377,-0.008635326940569147,3.63878463000566e-05
0.1675,0.00014617984449995003,-0.7850716599999997,4.606030850001414e-05,-2.3558138200000003,9.924336550001462e-05,1.5709681500000001,0.785995805,0.04,0.03999999975,-9.820909699999994,-0.00030607385852004013,-0.001783821880005418,0.00021189850100039004,-0.008706208970400319,3.789588320006542e-05
0.17,0.00014490983799994453,-0.7850649399999997,4.641967400001569e-05,-2.35582048,9.961493200001622e-05,1.5709677,0.78599552,0.04,0.039999999,-9.820794799999994,-0.00033175057033184107,-0.0019215482200060133,0.00022181347400043288,-0.008773419819775134,3.955885280007261e-05
0.17250000000000001,0.00014363983149993906,-0.7850582199999997,4.6779039500017244e-05,-2.3558271400000006,9.998649850001784e-05,1.57096725,0.7859952349999999,0.04,0.03999999825,-9.820679899999995,-0.00035742728214364206,-0.002059274560006608,0.00023172844700047572,-0.00884063066914995,4.122182240007979e-05
0.17500000000000002,0.00014236982499993357,-0.7850514999999997,4.7138405000018793e-05,-2.3558338000000005,0.00010035806500001944,1.5709667999999999,0.78599495,0.04,0.0399999975,-9.820564999999995,-0.000383103993955443,-0.0021970009000072035,0.00024164342000051857,-0.008907841518524764,4.288479200008698e-05
0.1775,0.0001410998184999281,-0.7850447799999997,4.749777050002034e-05,-2.3558404600000005,0.00010072963150002104,1.57096635,0.7859946649999999,0.04,0.03999999675,-9.820450099999993,-0.00040878070576724366,-0.002334727240007797,0.0002515583930005613,-0.00897505236789958,4.454776160009414e-05
0.18,0.00013982981199992263,-0.7850380599999996,4.78571360000219e-05,-2.3558471200000004,0.00010110119800002263,1.5709658999999998,0.78599438,0.04,0.039999996,-9.820335199999993,-0.0004344574175790446,-0.002472453580008392,0.00026147336600060414,-0.009042263217274395,4.621073120010133e-05
0.1825,0.00013855980549991713,-0.7850313399999996,4.821650150002345e-05,-2.355853780000001,0.00010147276450002425,1.5709654499999999,0.785994095,0.04,0.03999999525,-9.820220299999994,-0.00046013412939084554,-0.002610179920008987,0.000271388339000647,-0.00910947406664921,4.787370080010852e-05
0.185,0.00013706136299989147,-0.7850251599999997,4.8640258700030685e-05,-2.3558602900000007,0.00010190898500003153,1.5709649799999998,0.7859938099999999,0.04,0.0399999955,-9.820055099999989,-0.000487136846642922,-0.002743469060008821,0.00028213613700075134,-0.009171238075945692,4.954304560011256e-05
0.1875,0.00013544870249989,-0.7850192499999996,4.90962117500311e-05,-2.3558667250000007,0.00010237753250003196,1.5709644999999999,0.785993525,0.04,0.03999999625,-9.819864749999988,-0.0005148025666149371,-0.0028745396000089403,0.00029330034750076154,-0.009230278665203828,5.121557800011408e-05
0.19,0.00013383604199988854,-0.7850133399999997,4.9552164800031514e-05,-2.3558731600000007,0.0001028460800000324,1.57096402,0.7859932399999999,0.04,0.039999997,-9.819674399999988,-0.0005424682865869524,-0.0030056101400090596,0.0003044645580007717,-0.009289319254461961,5.288811040011561e-05
0.1925,0.00013222338149988707,-0.7850074299999996,5.000811785003193e-05,-2.3558795950000007,0.00010331462750003282,1.57096354,0.785992955,0.04,0.03999999775,-9.819484049999987,-0.0005701340065589676,-0.003136680680009179,0.00031562876850078187,-0.009348359843720094,5.456064280011713e-05
0.195,0.00013061072099988558,-0.7850015199999996,5.046407090003235e-05,-2.3558860300000006,0.00010378317500003324,1.57096306,0.78599267,0.04,0.0399999985,-9.819293699999987,-0.0005977997265309827,-0.0032677512200092983,0.000326792979000792,-0.009407400432978228,5.6233175200118656e-05
0.1975,0.00012899806049988412,-0.7849956099999996,5.092002395003276e-05,-2.3558924650000006,0.00010425172250003367,1.57096258,0.7859923849999999,0.04,0.03999999925,-9.819103349999986,-0.000625465446502998,-0.0033988217600094176,0.0003379571895008022,-0.009466441022236361,5.7905707600120176e-05
0.2,0.00012738539999985405,-0.7849896999999997,5.1375977000041235e-05,-2.3558989000000006,0.00010472027000004236,1.5709621,0.7859921,0.04,0.04,-9.818912999999991,-0.0006531311664749004,-0.003529892300008863,0.000349121400000907,-0.009525481611494102,5.957824000014941e-05
0.2025,0.00012537982049985223,-0.7849846059999996,5.194262345004175e-05,-2.3559052600000006,0.00010530229100004289,1.5709615,0.7859915299999999,0.04,0.04,-9.818793899999992,-0.0006792480242457592,-0.0036516963050089737,0.00036158584950091833,-0.009579117409888836,6.163161400015128e-05
0.20500000000000002,0.0001233742409998504,-0.7849795119999996,5.2509269900042265e-05,-2.3559116200000005,0.00010588431200004341,1.5709609,0.7859909599999999,0.04,0.04,-9.818674799999991,-0.0007053648820166179,-0.0037735003100090843,0.00037405029900092966,-0.00963275320828357,6.368498800015315e-05
0.20750000000000002,0.00012136866149984858,-0.7849744179999997,5.307591635004278e-05,-2.3559179800000005,0.00010646633300004394,1.5709602999999999,0.7859903899999999,0.04,0.04,-9.81855569999999,-0.0007314817397874767,-0.0038953043150091954,0.000386514748500941,-0.009686389006678304,6.573836200015502e-05
0.21,0.00011936308199984679,-0.7849693239999996,5.364256280004329e-05,-2.3559243400000005,0.00010704835400004447,1.5709597,0.78598982,0.04,0.04,-9.818436599999991,-0.0007575985975583352,-0.004017108320009305,0.0003989791980009522,-0.009740024805073038,6.779173600015687e-05
0.2125,0.00011735750249984497,-0.7849642299999996,5.420920925004381e-05,-2.3559307000000005,0.000107630375000045,1.5709590999999998,0.78598925,0.04,0.04,-9.81831749999999,-0.000783715455329194,-0.004138912325009416,0.0004114436475009636,-0.009793660603467771,6.984511000015874e-05
0.215,0.00011535192299984313,-0.7849591359999997,5.477585570004432e-05,-2.3559370600000005,0.00010821239600004553,1.5709585,0.7859886799999999,0.04,0.04,-9.81819839999999,-0.0008098323131000527,-0.004260716330009527,0.00042390809700097493,-0.009847296401862505,7.189848400016061e-05
0.2175,0.00011319803449980611,-0.7849542979999997,5.5384279750054756e-05,-2.3559434000000006,0.00010883722500005621,1.57095777,0.785988108,0.04,0.04,-9.818086899999992,-0.0008368958195228663,-0.00438118305000932,0.00043723023350118983,-0.009899434493858513,7.404017900018344e-05
0.22,0.00011074752799980387,-0.7849499719999996,5.607625900005539e-05,-2.3559497000000005,0.00010954767000005686,1.57095678,0.7859875319999999,0.04,0.04,-9.817990599999991,-0.0008658526232489176,-0.004498975200009427,0.00045226774400120354,-0.009948577173058134,7.635851600018555e-05
0.2225,0.00010829702149980165,-0.7849456459999996,5.676823825005601e-05,-2.3559560000000004,0.0001102581150000575,1.57095579,0.7859869559999999,0.04,0.04,-9.817894299999992,-0.0008948094269749689,-0.004616767350009534,0.0004673052545012172,-0.009997719852257753,7.867685300018766e-05
0.225,0.00010584651499979941,-0.7849413199999996,5.746021750005664e-05,-2.3559623000000007,0.00011096856000005815,1.5709548,0.78598638,0.04,0.04,-9.817797999999993,-0.0009237662307010204,-0.004734559500009642,0.0004823427650012309,-0.010046862531457373,8.099519000018977e-05
0.2275,0.00010339600849979718,-0.7849369939999996,5.8152196750057274e-05,-2.3559686000000006,0.0001116790050000588,1.57095381,0.785985804,0.04,0.04,-9.817701699999992,-0.0009527230344270717,-0.0048523516500097496,0.0004973802755012446,-0.010096005210656992,8.331352700019188e-05
0.23,0.00010094550199979495,-0.7849326679999996,5.8844176000057906e-05,-2.3559749000000005,0.00011238945000005944,1.57095282,0.7859852279999999,0.04,0.04,-9.817605399999993,-0.0009816798381531231,-0.004970143800009857,0.0005124177860012583,-0.010145147889856612,8.563186400019399e-05
0.2325,9.849499549979273e-05,-0.7849283419999996,5.953615525005853e-05,-2.3559812000000004,0.00011309989500006009,1.57095183,0.7859846519999999,0.04,0.04,-9.817509099999992,-0.0010106366418791745,-0.005087935950009964,0.0005274552965012719,-0.010194290569056231,8.79502010001961e-05
0.23500000000000001,9.571221799974787e-05,-0.7849245269999997,6.032172350007117e-05,-2.3559872700000004,0.00011390620440007303,1.57095082,0.785984014,0.04,0.04,-9.817417199999992,-0.0010387515416391978,-0.005200465560009396,0.0005433475440013953,-0.010241420194510563,9.045269000022183e-05
0.23750000000000002,9.276330499974519e-05,-0.7849209674999996,6.115408625007192e-05,-2.3559932250000006,0.0001147604460000738,1.5709498,0.7859833449999999,0.04,0.04,-9.817327499999992,-0.0010664454894163682,-0.005310363900009496,0.0005596671600014101,-0.010287543293092635,9.304725500022419e-05
0.24,8.981439199974254e-05,-0.7849174079999997,6.198644900007268e-05,-2.3559991800000004,0.00011561468760007458,1.57094878,0.7859826759999999,0.04,0.04,-9.817237799999992,-0.001094139437193538,-0.005420262240009595,0.0005759867760014248,-0.010333666391674707,9.564182000022652e-05
0.2425,8.686547899973985e-05,-0.7849138484999997,6.281881175007343e-05,-2.3560051350000006,0.00011646892920007536,1.57094776,0.785982007,0.04,0.04,-9.817148099999992,-0.0011218333849707081,-0.005530160580009695,0.0005923063920014397,-0.010379789490256778,9.823638500022888e-05
0.245,8.391656599973716e-05,-0.7849102889999997,6.365117450007418e-05,-2.3560110900000004,0.00011732317080007614,1.57094674,0.7859813379999999,0.04,0.04,-9.817058399999992,-0.0011495273327478783,-0.005640058920009795,0.0006086260080014546,-0.010425912588838852,0.00010083095000023124
0.2475,8.096765299973448e-05,-0.7849067294999996,6.448353725007495e-05,-2.3560170450000006,0.00011817741240007691,1.5709457199999999,0.785980669,0.04,0.04,-9.816968699999991,-0.0011772212805250485,-0.0057499572600098955,0.0006249456240014694,-0.010472035687420923,0.0001034255150002336
0.25,7.801873999968148e-05,-0.7849031699999998,6.531590000008987e-05,-2.3560230000000004,0.0001190316540000922,1.5709447,0.7859799999999999,0.04,0.04,-9.816878999999988,-0.0012049152283023356,-0.00585985560001059,0.0006412652400016399,-0.01051815878600246,0.00010602008000026143
0.2525,7.451671819967831e-05,-0.7849003889999997,6.630402350009077e-05,-2.3560288500000004,0.00012004554390009313,1.570943635,0.7859791389999999,0.04,0.04,-9.816750149999988,-0.001233893790052052,-0.005976289410010696,0.0006592958040016563,-0.010558400303129052,0.00010889444600026404
0.255,7.101469639967512e-05,-0.7848976079999997,6.729214700009167e-05,-2.3560347000000004,0.00012105943380009405,1.57094257,0.785978278,0.04,0.04,-9.816621299999989,-0.0012628723518017684,-0.006092723220010802,0.0006773263680016728,-0.010598641820255644,0.00011176881200026666
0.2575,6.751267459967193e-05,-0.7848948269999997,6.828027050009257e-05,-2.356040550000001,0.000122073323700095,1.570941505,0.7859774169999999,0.04,0.04,-9.816492449999988,-0.0012918509135514849,-0.006209157030010908,0.0006953569320016891,-0.010638883337382235,0.00011464317800026928
0.26,6.401065279966874e-05,-0.7848920459999997,6.926839400009347e-05,-2.3560464000000008,0.0001230872136000959,1.57094044,0.7859765559999999,0.04,0.04,-9.816363599999988,-0.001320829475301201,-0.006325590840011014,0.0007133874960017055,-0.010679124854508826,0.00011751754400027189
0.2625,6.050863099966555e-05,-0.7848892649999997,7.025651750009437e-05,-2.3560522500000007,0.00012410110350009684,1.5709393749999998,0.785975695,0.04,0.04,-9.816234749999987,-0.0013498080370509175,-0.00644202465001112,0.000731418060001722,-0.010719366371635418,0.00012039191000027451
0.265,5.700660919966236e-05,-0.7848864839999997,7.124464100009527e-05,-2.3560581000000007,0.00012511499340009776,1.5709383099999998,0.7859748339999999,0.04,0.04,-9.816105899999988,-0.001378786598800634,-0.006558458460011226,0.0007494486240017383,-0.010759607888762011,0.00012326627600027713
0.2675,5.330163249959992e-05,-0.7848839564999998,7.228991350011286e-05,-2.356063930000001,0.00012618743500011578,1.5709371949999997,0.785973952,0.04,0.04,-9.815982999999989,-0.0014075833722044973,-0.006672604830010664,0.0007681748925019579,-0.01079811169766225,0.0001262353700003074
0.27,4.919074599959617e-05,-0.7848819359999998,7.344948400011391e-05,-2.3560697200000007,0.00012737698000011685,1.5709359799999998,0.7859730279999999,0.04,0.04,-9.815871999999988,-0.0014360165689168132,-0.0067821763200107636,0.0007882925700019762,-0.010833140090111302,0.00012939392000031028
0.2725,4.5079859499592436e-05,-0.7848799154999998,7.460905450011497e-05,-2.3560755100000006,0.00012856652500011794,1.5709347649999998,0.785972104,0.04,0.04,-9.81576099999999,-0.001464449765629129,-0.006891747810010863,0.0008084102475019946,-0.010868168482560354,0.00013255247000031316
0.275,4.096897299958869e-05,-0.7848778949999998,7.576862500011602e-05,-2.3560813000000005,0.000129756070000119,1.57093355,0.7859711799999999,0.04,0.04,-9.815649999999989,-0.0014928829623414449,-0.007001319300010963,0.0008285279250020128,-0.010903196875009406,0.00013571102000031602
0.2775,3.6858086499584945e-05,-0.7848758744999998,7.692819550011708e-05,-2.356087090000001,0.0001309456150001201,1.570932335,0.7859702559999999,0.04,0.04,-9.815538999999989,-0.0015213161590537608,-0.007110890790011063,0.0008486456025020312,-0.010938225267458457,0.0001388695700003189
0.28,3.2747199999581204e-05,-0.7848738539999998,7.808776600011813e-05,-2.3560928800000007,0.0001321351600001212,1.57093112,0.7859693319999999,0.04,0.04,-9.815427999999988,-0.0015497493557660765,-0.007220462280011163,0.0008687632800020495,-0.01097325365990751,0.0001420281200003218
0.28250000000000003,2.8636313499577462e-05,-0.7848718334999998,7.924733650011917e-05,-2.3560986700000006,0.00013332470500012226,1.5709299049999998,0.7859684079999999,0.04,0.04,-9.815316999999988,-0.0015781825524783925,-0.007330033770011263,0.0008888809575020679,-0.011008282052356561,0.00014518667000032465
0.28500000000000003,2.408180019950472e-05,-0.7848703339999998,8.053182600013967e-05,-2.3561045100000007,0.00013464225500014326,1.5709284499999998,0.7859673399999998,0.04,0.04,-9.81521929999999,-0.001606594189073095,-0.007434762540010609,0.0009099768950022383,-0.011040680017325465,0.00014853887900035764
0.28750000000000003,1.930547349950037e-05,-0.7848690949999999,8.187877500014089e-05,-2.3561103750000005,0.0001360238075001445,1.5709268749999998,0.7859661999999998,0.04,0.04,-9.81512824999999,-0.001634995045608996,-0.007537069950010702,0.0009315619625022579,-0.011071762768554903,0.00015198791750036078
0.29,1.4529146799496129e-05,-0.7848678559999999,8.32257240001421e-05,-2.3561162400000004,0.00013740536000014575,1.5709252999999999,0.7859650599999999,0.04,0.04,-9.81503719999999,-0.0016633959021448961,-0.007639377360010793,0.0009531470300022771,-0.011102845519784339,0.00015543695600036384
0.2925,9.752820099491779e-06,-0.7848666169999999,8.457267300014331e-05,-2.3561221050000007,0.000138786912500147,1.5709237249999999,0.7859639199999998,0.04,0.04,-9.81494614999999,-0.001691796758680797,-0.007741684770010885,0.0009747320975022968,-0.011133928271013777,0.00015888599450036698
0.295,4.976493399487433e-06,-0.7848653779999999,8.591962200014455e-05,-2.3561279700000006,0.00014016846500014825,1.57092215,0.7859627799999999,0.04,0.04,-9.81485509999999,-0.0017201976152166978,-0.00784399218001098,0.0009963171650023165,-0.011165011022243215,0.00016233503300037012
0.2975,2.0016669948308302e-07,-0.7848641389999998,8.726657100014577e-05,-2.3561338350000005,0.00014155001750014952,1.5709205749999997,0.7859616399999998,0.04,0.04,-9.81476404999999,-0.0017485984717525987,-0.007946299590011072,0.0010179022325023362,-0.011196093773472653,0.00016578407150037326
0.3,-4.576160000600136e-06,-0.7848629,8.86135200001692e-05,-2.3561397000000004,0.00014293157000017334,1.5709189999999997,0.7859604999999998,0.04,0.04,-9.814672999999992,-0.0017769993282886194,-0.008048607000010737,0.0010394873000025959,-0.011227176524701775,0.00016923311000039532
0.3025,-1.0075184000605142e-05,-0.7848624049999999,9.016398000017061e-05,-2.3561457450000005,0.0001445199260001748,1.5709173799999998,0.7859591574999998,0.03999999925,0.04,-9.814593949999992,-0.0018064984586121712,-0.008146991700010826,0.0010632721100026176,-0.011255359696227391,0.00017285552750039864
0.305,-1.5574208000610148e-05,-0.7848619099999999,9.171444000017204e-05,-2.3561517900000006,0.00014610828200017624,1.5709157599999999,0.7859578149999998,0.0399999985,0.04,-9.814514899999992,-0.0018359975889357231,-0.008245376400010915,0.001087056920002639,-0.011283542867753007,0.00017647794500040193
0.3075,-2.107323200061515e-05,-0.784861415,9.326490000017345e-05,-2.3561578350000008,0.0001476966380001777,1.5709141399999997,0.7859564724999999,0.03999999775,0.04,-9.814435849999992,-0.0018654967192592749,-0.008343761100011005,0.0011108417300026607,-0.011311726039278623,0.00018010036250040522
0.31,-2.6572256000620156e-05,-0.78486092,9.481536000017486e-05,-2.356163880000001,0.00014928499400017914,1.5709125199999998,0.7859551299999998,0.039999997,0.04,-9.814356799999992,-0.0018949958495828266,-0.008442145800011095,0.0011346265400026825,-0.011339909210804237,0.00018372278000040851
0.3125,-3.207128000062516e-05,-0.784860425,9.636582000017627e-05,-2.356169925000001,0.00015087335000018057,1.5709108999999999,0.7859537874999999,0.03999999625,0.04,-9.81427774999999,-0.0019244949799063786,-0.008540530500011185,0.0011584113500027042,-0.011368092382329853,0.00018734519750041183
0.315,-3.757030400063017e-05,-0.78485993,9.791628000017768e-05,-2.3561759700000007,0.00015246170600018204,1.57090928,0.7859524449999999,0.0399999955,0.04,-9.81419869999999,-0.0019539941102299303,-0.008638915200011274,0.0011821961600027256,-0.01139627555385547,0.00019096761500041513
0.3175,-4.332949270072533e-05,-0.784859713,9.953998050020448e-05,-2.3561821000000007,0.00015412512300020948,1.5709075,0.7859510724999998,0.03999999465,0.039999999200000004,-9.814122849999992,-0.001982062018944916,-0.008738434050011757,0.0012066527150029801,-0.011423246748748195,0.00019481784550049738
0.32,-4.960901080073104e-05,-0.7848600520000001,0.00010131016200020609,-2.3561884000000006,0.00015593866200021113,1.5709053999999998,0.7859496399999999,0.039999993600000006,0.0399999968,-9.814053399999992,-0.0020072674844442543,-0.00884022120001185,0.0012324527600030037,-0.011447793990376398,0.0001991237020005013
0.3225,-5.588852890073676e-05,-0.784860391,0.0001030803435002077,-2.356194700000001,0.00015775220100021277,1.5709032999999997,0.7859482074999998,0.03999999255,0.0399999944,-9.813983949999992,-0.002032472949943592,-0.008942008350011943,0.0012582528050030272,-0.0114723412320046,0.0002034295585005052
0.325,-6.216804700074248e-05,-0.78486073,0.00010485052500020931,-2.356201000000001,0.00015956574000021445,1.5709011999999998,0.7859467749999999,0.0399999915,0.039999992,-9.81391449999999,-0.0020576784154429303,-0.009043795500012036,0.0012840528500030505,-0.011496888473632803,0.00020773541500050913
0.3275,-6.84475651007482e-05,-0.7848610690000001,0.00010662070650021092,-2.356207300000001,0.0001613792790002161,1.5708990999999997,0.7859453424999999,0.03999999045,0.0399999896,-9.81384504999999,-0.002082883880942268,-0.009145582650012129,0.001309852895003074,-0.011521435715261005,0.00021204127150051304
0.33,-7.472708320075391e-05,-0.784861408,0.00010839088800021253,-2.3562136000000007,0.00016319281800021774,1.5708969999999998,0.7859439099999999,0.0399999894,0.0399999872,-9.81377559999999,-0.002108089346441606,-0.009247369800012221,0.0013356529400030976,-0.011545982956889208,0.00021634712800051696
0.3325,-8.100660130075962e-05,-0.7848617470000001,0.00011016106950021414,-2.3562199000000006,0.00016500635700021938,1.5708948999999996,0.7859424774999999,0.03999998835,0.0399999848,-9.813706149999991,-0.002133294811940944,-0.009349156950012314,0.0013614529850031211,-0.01157053019851741,0.00022065298450052088
0.335,-8.784516560086756e-05,-0.7848626170000002,0.00011208864800024453,-2.3562262400000007,0.0001669811730002505,1.5708927599999996,0.7859408599999999,0.0399999876,0.039999983600000004,-9.813642799999991,-0.002161160437393708,-0.009443204500010991,0.001388223240003322,-0.01159379826858914,0.0002249867700005299
0.3375,-9.496325300087403e-05,-0.7848637525000002,0.00011409492500024636,-2.3562326000000007,0.0001690366275002524,1.5708905999999996,0.7859391499999998,0.039999987,0.039999983,-9.813582499999992,-0.00219035614282246,-0.009533382250011073,0.0014154786000033467,-0.011616426752882979,0.00022933452000053388
0.34,-0.00010208134040088051,-0.7848648880000001,0.00011610120200024817,-2.3562389600000007,0.00017109208200025426,1.5708884399999996,0.7859374399999998,0.0399999864,0.0399999824,-9.813522199999992,-0.0022195518482512116,-0.009623560000011156,0.0014427339600033716,-0.011639055237176819,0.00023368227000053783
0.3425,-0.000109199427800887,-0.7848660235000001,0.00011810747900025,-2.3562453200000006,0.00017314753650025613,1.5708862799999996,0.7859357299999998,0.0399999858,0.0399999818,-9.813461899999993,-0.002248747553679963,-0.009713737750011237,0.0014699893200033963,-0.01166168372147066,0.00023803002000054177
0.34500000000000003,-0.00011631751520089348,-0.7848671590000001,0.00012011375600025183,-2.3562516800000006,0.000175202991000258,1.5708841199999997,0.7859340199999998,0.039999985200000004,0.0399999812,-9.813401599999992,-0.0022779432591087147,-0.009803915500011319,0.0014972446800034212,-0.0116843122057645,0.00024237777000054575
0.34750000000000003,-0.00012343560260089995,-0.7848682945000002,0.00012212003300025366,-2.356258040000001,0.00017725844550025985,1.5708819599999997,0.7859323099999999,0.0399999846,0.0399999806,-9.813341299999992,-0.0023071389645374666,-0.0098940932500114,0.0015245000400034461,-0.011706940690058341,0.00024672552000054967
0.35000000000000003,-0.00013055369000102067,-0.7848694300000002,0.00012412631000028763,-2.356264400000001,0.00017931390000029468,1.5708797999999997,0.7859305999999998,0.039999984,0.03999998,-9.81328099999999,-0.002336334669965934,-0.009984271000012897,0.0015517554000037679,-0.011729569174351655,0.00025107327000059137
0.3525,-0.00013856872250102777,-0.7848713905000002,0.00012638508650028964,-2.356270835000001,0.00018162805800029673,1.5708774449999996,0.7859286739999998,0.0399999834,0.039999979549999995,-9.81319744999999,-0.002363300824075638,-0.010085551750012987,0.001581342705003794,-0.011748064402493211,0.0002557173690005955
0.355,-0.00014658375500103507,-0.7848733510000002,0.00012864386300029168,-2.356277270000001,0.00018394221600029885,1.5708750899999997,0.7859267479999997,0.0399999828,0.0399999791,-9.813113899999989,-0.0023902669781853425,-0.01018683250001308,0.001610930010003821,-0.011766559630634768,0.0002603614680005997
0.3575,-0.00015459878750104236,-0.7848753115000002,0.00013090263950029374,-2.356283705000001,0.00018625637400030096,1.5708727349999998,0.7859248219999998,0.0399999822,0.03999997865,-9.81303034999999,-0.0024172331322950473,-0.010288113250013171,0.0016405173150038478,-0.011785054858776324,0.000265005567000604
0.36,-0.00016261382000104966,-0.7848772720000002,0.0001331614160002958,-2.356290140000001,0.00018857053200030307,1.5708703799999997,0.7859228959999998,0.0399999816,0.0399999782,-9.812946799999988,-0.0024441992864047517,-0.010389394000013263,0.0016701046200038748,-0.011803550086917882,0.00026964966600060824
0.3625,-0.00017062885250105698,-0.7848792325000002,0.00013542019250029785,-2.356296575000001,0.00019088469000030518,1.5708680249999998,0.7859209699999997,0.039999981,0.03999997775,-9.812863249999989,-0.002471165440514456,-0.010490674750013355,0.0016996919250039017,-0.011822045315059438,0.00027429376500061244
0.365,-0.00017864388500106427,-0.7848811930000003,0.0001376789690002999,-2.356303010000001,0.0001931988480003073,1.5708656699999997,0.7859190439999998,0.039999980399999996,0.039999977299999996,-9.812779699999988,-0.002498131594624161,-0.010591955500013447,0.0017292792300039287,-0.011840540543200995,0.0002789378640006167
0.3675,-0.00018697738000119927,-0.7848834320000004,0.00014002739500033792,-2.356309485000001,0.00019560488650034624,1.5708631849999997,0.7859170594999998,0.03999997985,0.03999997665,-9.812691949999987,-0.002524551050740816,-0.01069041970001241,0.0017594941300042074,-0.011857640789823608,0.00028372437650067803
0.37,-0.00019594780000120745,-0.7848862280000004,0.00014255512000034022,-2.356316040000001,0.0001981946860003486,1.5708604399999997,0.7859149579999998,0.039999979399999996,0.0399999756,-9.812595799999986,-0.002549877110872029,-0.010783250800012495,0.0017909642200042359,-0.011871951073410006,0.00028879571600068263
0.3725,-0.0002049182200012156,-0.7848890240000004,0.00014508284500034253,-2.356322595000001,0.00020078448550035096,1.5708576949999997,0.7859128564999998,0.03999997895,0.03999997455,-9.812499649999987,-0.0025752031710032422,-0.01087608190001258,0.0018224343100042646,-0.011886261356996403,0.0002938670555006873
0.375,-0.00021388864000122378,-0.7848918200000004,0.00014761057000034483,-2.356329150000001,0.0002033742850003533,1.5708549499999998,0.7859107549999997,0.0399999785,0.0399999735,-9.812403499999986,-0.002600529231134455,-0.010968913000012664,0.0018539044000042933,-0.011900571640582802,0.0002989383950006919
0.3775,-0.00022285906000123196,-0.7848946160000004,0.00015013829500034714,-2.356335705000001,0.00020596408450035566,1.5708522049999998,0.7859086534999997,0.039999978049999996,0.039999972450000004,-9.812307349999987,-0.002625855291265668,-0.011061744100012748,0.0018853744900043218,-0.0119148819241692,0.0003040097345006965
0.38,-0.0002318294800012401,-0.7848974120000004,0.00015266602000034944,-2.356342260000001,0.00020855388400035802,1.5708494599999996,0.7859065519999997,0.0399999776,0.0399999714,-9.812211199999986,-0.002651181351396881,-0.011154575200012833,0.0019168445800043506,-0.011929192207755599,0.00030908107400070113
0.3825,-0.0002407999000012483,-0.7849002080000004,0.00015519374500035175,-2.356348815000001,0.00021114368350036038,1.5708467149999996,0.7859044504999997,0.03999997715,0.039999970350000004,-9.812115049999987,-0.0026765074115280944,-0.011247406300012917,0.0019483146700043793,-0.011943502491341997,0.00031415241350070573
0.385,-0.0002504461940013984,-0.7849035600000005,0.000157911724000394,-2.356355800000001,0.00021392836900040367,1.5708438199999997,0.7859021999999997,0.0399999766,0.039999969600000004,-9.812030199999988,-0.002702271146703349,-0.011335878000012086,0.0019809026500046427,-0.011955852806569703,0.0003193368910007341
0.3875,-0.0002604304250014075,-0.7849071900000005,0.00016072483000039657,-2.3563630000000013,0.0002168104975004063,1.5708408499999997,0.7858998749999997,0.039999976,0.039999969,-9.811950999999988,-0.002728253719400488,-0.011422170000012164,0.002014049575004673,-0.01196722313761868,0.00032457793750073887
0.39,-0.0002704146560014166,-0.7849108200000006,0.00016353793600039913,-2.356370200000001,0.00021969262600040894,1.5708378799999996,0.7858975499999996,0.0399999754,0.0399999684,-9.811871799999988,-0.0027542362920976267,-0.011508462000012244,0.0020471965000047033,-0.011978593468667654,0.00032981898400074363
0.3925,-0.0002803988870014257,-0.7849144500000005,0.00016635104200040169,-2.3563774000000013,0.00022257475450041154,1.5708349099999996,0.7858952249999996,0.0399999748,0.0399999678,-9.811792599999988,-0.0027802188647947654,-0.011594754000012322,0.0020803434250047334,-0.011989963799716629,0.0003350600305007484
0.395,-0.0002903831180014348,-0.7849180800000005,0.00016916414800040427,-2.356384600000001,0.00022545688300041418,1.5708319399999997,0.7858928999999997,0.0399999742,0.0399999672,-9.811713399999988,-0.0028062014374919037,-0.0116810460000124,0.0021134903500047634,-0.012001334130765604,0.0003403010770007532
0.3975,-0.0003003673490014439,-0.7849217100000005,0.00017197725400040683,-2.3563918000000013,0.0002283390115004168,1.5708289699999995,0.7858905749999996,0.0399999736,0.0399999666,-9.811634199999988,-0.0028321840101890425,-0.01176733800001248,0.002146637275004794,-0.01201270446181458,0.00034554212350075797
0.4,-0.000310351580001609,-0.7849253400000007,0.0001747903600004533,-2.356399000000001,0.00023122114000046442,1.5708259999999996,0.7858882499999996,0.039999973,0.039999966,-9.811554999999998,-0.0028581665828859583,-0.011853630000013262,0.0021797842000050973,-0.012024074792863375,0.0003507831700008063
0.4025,-0.0003214079390016191,-0.7849298340000007,0.00017790529750045614,-2.3564065600000013,0.00023441247100046734,1.5708226699999996,0.7858856624999996,0.03999997255,0.0399999651,-9.811540449999999,-0.0028826177120244508,-0.011944762800013345,0.002214808480005129,-0.012034211866559045,0.0003563240050008114
0.405,-0.00033246429800162916,-0.7849343280000007,0.00018102023500045898,-2.356414120000001,0.00023760380200047023,1.5708193399999995,0.7858830749999995,0.0399999721,0.0399999642,-9.811525899999998,-0.0029070688411629428,-0.01203589560001343,0.002249832760005161,-0.012044348940254714,0.00036186484000081645
0.40750000000000003,-0.0003435206570016392,-0.7849388220000006,0.00018413517250046182,-2.3564216800000013,0.00024079513300047313,1.5708160099999995,0.7858804874999996,0.03999997165,0.0399999633,-9.811511349999998,-0.002931519970301435,-0.012127028400013512,0.0022848570400051927,-0.012054486013950382,0.00036740567500082147
0.41000000000000003,-0.0003545770160016493,-0.7849433160000007,0.00018725011000046465,-2.356429240000001,0.00024398646400047605,1.5708126799999995,0.7858778999999996,0.039999971200000005,0.0399999624,-9.811496799999999,-0.0029559710994399276,-0.012218161200013594,0.0023198813200052248,-0.012064623087646052,0.00037294651000082654
0.41250000000000003,-0.00036563337500165936,-0.7849478100000007,0.0001903650475004675,-2.356436800000001,0.000247177795000479,1.5708093499999995,0.7858753124999996,0.03999997075,0.0399999615,-9.811482249999997,-0.0029804222285784196,-0.012309294000013677,0.0023549056000052564,-0.012074760161341722,0.00037848734500083156
0.41500000000000004,-0.00037668973400166943,-0.7849523040000007,0.00019347998500047033,-2.356444360000001,0.00025036912600048187,1.5708060199999996,0.7858727249999996,0.0399999703,0.0399999606,-9.811467699999998,-0.003004873357716912,-0.01240042680001376,0.0023899298800052885,-0.01208489723503739,0.0003840281800008366
0.4175,-0.0003881228390018509,-0.7849570850000008,0.00019670097400052141,-2.356451960000001,0.0002536691045005342,1.5708025599999995,0.7858700479999996,0.0399999698,0.0399999599,-9.811438249999991,-0.003028965415436595,-0.012490776700013483,0.0024255906800056096,-0.012094287713990778,0.00038966823750088677
0.42,-0.000400309436001862,-0.7849624400000008,0.00020013406600052452,-2.356459640000001,0.0002571863780005374,1.5707988399999995,0.7858671919999995,0.0399999692,0.0399999596,-9.811378999999992,-0.003052339330319151,-0.012579560800013564,0.002462524520005643,-0.012102185003460626,0.00039550674000089206
0.4225,-0.0004124960330018731,-0.7849677950000008,0.00020356715800052766,-2.356467320000001,0.0002607036515005406,1.5707951199999994,0.7858643359999996,0.0399999686,0.0399999593,-9.811319749999992,-0.0030757132452017078,-0.012668344900013645,0.0024994583600056767,-0.012110082292930473,0.0004013452425008974
0.425,-0.00042468263000188417,-0.7849731500000008,0.0002070002500005308,-2.356475000000001,0.0002642209250005438,1.5707913999999994,0.7858614799999996,0.039999968,0.039999959,-9.81126049999999,-0.003099087160084264,-0.012757129000013728,0.0025363922000057105,-0.01211797958240032,0.0004071837450009027
0.4275,-0.00043686922700189525,-0.7849785050000009,0.0002104333420005339,-2.356482680000001,0.000267738198500547,1.5707876799999994,0.7858586239999995,0.0399999674,0.039999958700000005,-9.811201249999991,-0.00312246107496682,-0.012845913100013808,0.002573326040005744,-0.012125876871870167,0.00041302224750090804
0.43,-0.0004490558240019064,-0.7849838600000009,0.00021386643400053703,-2.3564903600000013,0.0002712554720005502,1.5707839599999993,0.7858557679999996,0.0399999668,0.0399999584,-9.811141999999991,-0.003145834989849376,-0.01293469720001389,0.0026102598800057776,-0.012133774161340014,0.00041886075000091333
0.4325,-0.00046124242100191746,-0.7849892150000009,0.00021729952600054017,-2.3564980400000013,0.00027477274550055344,1.5707802399999993,0.7858529119999995,0.0399999662,0.0399999581,-9.811082749999992,-0.0031692089047319328,-0.01302348130001397,0.002647193720005811,-0.012141671450809861,0.0004246992525009187
0.435,-0.00047422105800211655,-0.784995190000001,0.0002209555680005962,-2.356506320000001,0.00027851847300061085,1.5707763399999992,0.7858498639999996,0.039999966,0.039999957600000004,-9.811007699999987,-0.0031911837402764467,-0.013112692200014152,0.002685418420006151,-0.012147476524115332,0.0004308187750009907
0.4375,-0.00048759571500212875,-0.7850014750000011,0.00022472308500059963,-2.3565149000000014,0.00028237842750061435,1.5707723499999993,0.7858467199999994,0.039999966,0.039999957,-9.810924749999987,-0.003212459036152436,-0.013202116500014233,0.0027242885500061865,-0.012152235489339356,0.0004370788075009964
0.44,-0.0005009703720021409,-0.785007760000001,0.00022849060200060307,-2.3565234800000012,0.0002862383820006179,1.5707683599999993,0.7858435759999994,0.039999966,0.0399999564,-9.810841799999988,-0.0032337343320284254,-0.013291540800014314,0.002763158680006222,-0.01215699445456338,0.00044333884000100207
0.4425,-0.0005143450290021531,-0.785014045000001,0.0002322581190006065,-2.3565320600000015,0.0002900983365006214,1.5707643699999994,0.7858404319999994,0.039999966,0.0399999558,-9.810758849999987,-0.0032550096279044148,-0.013380965100014396,0.002802028810006257,-0.012161753419787405,0.00044959887250100775
0.445,-0.0005277196860021653,-0.785020330000001,0.00023602563600060993,-2.3565406400000013,0.0002939582910006249,1.5707603799999992,0.7858372879999994,0.039999966,0.0399999552,-9.810675899999987,-0.003276284923780404,-0.013470389400014477,0.0028408989400062925,-0.01216651238501143,0.0004558589050010135
0.4475,-0.0005410943430021774,-0.785026615000001,0.00023979315300061337,-2.3565492200000016,0.00029781824550062844,1.5707563899999992,0.7858341439999994,0.039999966,0.0399999546,-9.810592949999988,-0.0032975602196563935,-0.013559813700014557,0.002879769070006328,-0.012171271350235454,0.00046211893750101917
0.45,-0.0005544690000023935,-0.7850329000000013,0.0002435606700006742,-2.3565578000000014,0.00030167820000069075,1.5707523999999993,0.7858309999999994,0.039999966,0.039999954,-9.81051,-0.003318835515532196,-0.013649238000014068,0.002918639200006684,-0.012176030315459366,0.00046837897000105206
0.4525,-0.0005690891010024069,-0.7850400745000012,0.0002476787895006779,-2.3565665750000013,0.00030589726950069456,1.5707479449999993,0.7858275454999993,0.039999966,0.039999954,-9.81051255,-0.0033389693708191946,-0.013735173225014146,0.0029594693200067214,-0.012180104199797521,0.0004748051245010579
0.455,-0.0005837092020024202,-0.7850472490000012,0.0002517969090006817,-2.3565753500000017,0.0003101163390006984,1.5707434899999992,0.7858240909999994,0.039999966,0.039999954,-9.810515100000002,-0.003359103226106193,-0.013821108450014224,0.0030002994400067586,-0.012184178084135674,0.0004812312790010637
0.4575,-0.0005983293030024335,-0.7850544235000012,0.00025591502850068543,-2.3565841250000017,0.00031433540850070224,1.5707390349999992,0.7858206364999994,0.039999966,0.039999954,-9.810517650000001,-0.003379237081393191,-0.013907043675014302,0.0030411295600067958,-0.012188251968473828,0.0004876574335010696
0.46,-0.0006129494040024467,-0.7850615980000012,0.0002600331480006892,-2.3565929000000017,0.0003185544780007061,1.5707345799999992,0.7858171819999994,0.039999966,0.039999954,-9.810520200000001,-0.0033993709366801892,-0.01399297890001438,0.003081959680006833,-0.012192325852811983,0.0004940835880010754
0.4625,-0.0006275695050024601,-0.7850687725000012,0.00026415126750069294,-2.3566016750000016,0.0003227735475007099,1.5707301249999992,0.7858137274999994,0.039999966,0.039999954,-9.81052275,-0.003419504791967188,-0.01407891412501446,0.00312278980000687,-0.012196399737150136,0.0005005097425010812
0.465,-0.0006421896060024734,-0.7850759470000013,0.0002682693870006967,-2.3566104500000016,0.0003269926170007138,1.5707256699999992,0.7858102729999994,0.039999966,0.039999954,-9.8105253,-0.003439638647254186,-0.014164849350014538,0.0031636199200069074,-0.01220047362148829,0.0005069358970010871
0.4675,-0.0006572438530027082,-0.7850834360000014,0.0002725097200007628,-2.356619445000002,0.0003313368975007815,1.5707211149999991,0.7858067114999994,0.039999966,0.039999954,-9.810499449999986,-0.0034598457044955865,-0.014252851875015671,0.0032050693950072605,-0.012203631130978675,0.0005134586600011422
0.47000000000000003,-0.0006731663920027227,-0.7850915540000014,0.00027699448000076686,-2.356628880000002,0.0003359316000007857,1.5707163599999991,0.7858029359999994,0.039999966,0.039999954,-9.810416799999986,-0.00348019916564568,-0.014344989000015755,0.0032477575800072996,-0.012204955890774928,0.0005201746400011484
0.47250000000000003,-0.0006890889310027373,-0.7850996720000014,0.00028147924000077095,-2.356638315000002,0.00034052630250078984,1.5707116049999992,0.7857991604999993,0.039999966,0.039999954,-9.810334149999987,-0.003500552626795774,-0.01443712612501584,0.003290445765007338,-0.012206280650571178,0.0005268906200011545
0.47500000000000003,-0.0007050114700027517,-0.7851077900000014,0.00028596400000077503,-2.356647750000002,0.00034512100500079404,1.5707068499999992,0.7857953849999993,0.039999966,0.039999954,-9.810251499999985,-0.0035209060879458675,-0.014529263250015922,0.0033331339500073773,-0.012207605410367429,0.0005336066000011606
0.47750000000000004,-0.0007209340090027662,-0.7851159080000014,0.0002904487600007791,-2.3566571850000018,0.00034971570750079824,1.5707020949999992,0.7857916094999994,0.039999966,0.039999954,-9.810168849999986,-0.0035412595490959607,-0.014621400375016006,0.003375822135007416,-0.01220893017016368,0.0005403225800011668
0.48,-0.0007368565480027803,-0.7851240260000014,0.0002949335200007831,-2.3566666200000017,0.0003543104100008023,1.5706973399999993,0.7857878339999993,0.039999966,0.039999954,-9.810086199999986,-0.003561613010246054,-0.014713537500016088,0.003418510320007454,-0.01221025492995993,0.0005470385600011727
0.4825,-0.0007527790870027948,-0.7851321440000014,0.0002994182800007872,-2.3566760550000017,0.0003589051125008065,1.5706925849999993,0.7857840584999993,0.039999966,0.039999954,-9.810003549999987,-0.0035819664713961476,-0.014805674625016172,0.003461198505007493,-0.012211579689756183,0.0005537545400011788
0.485,-0.0007696075750030491,-0.7851409150000016,0.00030415805400085875,-2.3566858000000015,0.0003637610150008798,1.5706875699999991,0.7857800799999993,0.039999966399999996,0.039999954399999996,-9.809958899999996,-0.003600566973912777,-0.014897968000016297,0.003505191850007877,-0.012211838085204232,0.0005606618500012356
0.4875,-0.0007868890375030648,-0.7851500125000017,0.0003090253350008632,-2.3566957000000017,0.0003687475175008843,1.570682424999999,0.7857759999999993,0.039999967,0.039999955,-9.809933249999997,-0.003618290997113368,-0.01499033950001638,0.0035498377750079178,-0.012211563298478601,0.000567664825001242
0.49,-0.0008041705000030806,-0.7851591100000017,0.00031389261600086763,-2.356705600000002,0.0003737340200008889,1.570677279999999,0.7857719199999993,0.0399999676,0.0399999556,-9.809907599999995,-0.0036360150203139595,-0.015082711000016466,0.0035944837000079586,-0.01221128851175297,0.0005746678000012484
0.4925,-0.0008214519625030963,-0.7851682075000017,0.0003187598970008721,-2.3567155000000017,0.0003787205225008934,1.570672134999999,0.7857678399999992,0.0399999682,0.0399999562,-9.809881949999996,-0.0036537390435145505,-0.01517508250001655,0.003639129625007999,-0.01221101372502734,0.0005816707750012547
0.495,-0.0008387334250031121,-0.7851773050000017,0.00032362717800087646,-2.356725400000002,0.00038370702500089795,1.5706669899999992,0.7857637599999993,0.0399999688,0.0399999568,-9.809856299999996,-0.0036714630667151415,-0.015267454000016634,0.00368377555000804,-0.012210738938301711,0.000588673750001261
0.4975,-0.0008560148875031277,-0.7851864025000017,0.0003284944590008809,-2.3567353000000018,0.00038869352750090246,1.5706618449999992,0.7857596799999993,0.0399999694,0.0399999574,-9.809830649999997,-0.003689187089915733,-0.01535982550001672,0.00372842147500808,-0.01221046415157608,0.0005956767250012674
0.5,-0.0008732963500034008,-0.7851955000000019,0.00033336174000095776,-2.356745200000002,0.00039368003000098123,1.570656699999999,0.7857555999999992,0.03999997,0.039999958,-9.80980499999999,-0.003706911113116047,-0.015452197000016026,0.00377306740000845,-0.012210189364850037,0.0006026797000013252
0.5025000000000001,-0.0008919926425034183,-0.7852055950000019,0.0003386273070009627,-2.3567559700000023,0.00039907451000098623,1.570651059999999,0.7857511794999992,0.039999970450000005,0.0399999583,-9.80974874999999,-0.0037231149734026922,-0.015540296050016108,0.0038195236900084935,-0.012207641405984274,0.0006099653425013321
0.505,-0.0009106889350034348,-0.7852156900000019,0.00034389287400096735,-2.356766740000002,0.0004044689900009911,1.570645419999999,0.7857467589999992,0.0399999709,0.0399999586,-9.80969249999999,-0.003739318833689337,-0.015628395100016186,0.0038659799800085347,-0.012205093447118513,0.0006172509850013385
0.5075000000000001,-0.0009293852275034523,-0.785225785000002,0.0003491584410009723,-2.356777510000002,0.0004098634700009961,1.570639779999999,0.7857423384999992,0.03999997135,0.0399999589,-9.80963624999999,-0.003755522693975982,-0.015716494150016268,0.003912436270008578,-0.01220254548825275,0.0006245366275013453
0.51,-0.0009480815200034689,-0.7852358800000019,0.00035442400800097694,-2.356788280000002,0.00041525795000100087,1.570634139999999,0.7857379179999991,0.0399999718,0.039999959200000004,-9.80957999999999,-0.0037717265542626262,-0.015804593200016346,0.00395889256000862,-0.012199997529386988,0.0006318222700013518
0.5125,-0.0009667778125034855,-0.7852459750000019,0.0003596895750009816,-2.356799050000002,0.0004206524300010057,1.570628499999999,0.7857334974999992,0.03999997225,0.0399999595,-9.80952374999999,-0.003787930414549271,-0.015892692250016424,0.00400534885000866,-0.012197449570521225,0.0006391079125013583
0.515,-0.000985474105003503,-0.785256070000002,0.0003649551420009865,-2.356809820000002,0.0004260469100010107,1.570622859999999,0.7857290769999992,0.039999972700000004,0.0399999598,-9.80946749999999,-0.003804134274835916,-0.015980791300016506,0.004051805140008704,-0.012194901611655463,0.0006463935550013651
0.5175,-0.0010046604200037962,-0.7852665025000021,0.0003703586415010691,-2.3568207100000023,0.00043158271500109535,1.570617079999999,0.7857245484999992,0.039999973,0.0399999599,-9.80942905,-0.0038194870459872647,-0.016068892700016584,0.00409885431500908,-0.01219229144044168,0.000653816457501449
0.52,-0.001024826780003815,-0.7852776100000022,0.0003760380060010744,-2.356831840000002,0.00043740117000110073,1.570611019999999,0.7857198039999991,0.039999973,0.0399999596,-9.8094262,-0.0038331376388694625,-0.016156998800016666,0.004147089260009125,-0.012189556844531962,0.0006615138800014562
0.5225,-0.0010449931400038329,-0.7852887175000022,0.0003817173705010795,-2.356842970000002,0.0004432196250011059,1.570604959999999,0.7857150594999991,0.039999973,0.0399999593,-9.80942335,-0.0038467882317516594,-0.016245104900016745,0.004195324205009168,-0.012186822248622246,0.0006692113025014631
0.525,-0.0010651595000038517,-0.7852998250000022,0.00038739673500108476,-2.3568541000000023,0.00044903808000111133,1.570598899999999,0.7857103149999991,0.039999973,0.039999959,-9.8094205,-0.003860438824633857,-0.016333211000016827,0.0042435591500092126,-0.012184087652712528,0.0006769087250014703
0.5275,-0.0010853258600038696,-0.7853109325000022,0.00039307609950108984,-2.356865230000002,0.0004548565350011165,1.5705928399999989,0.7857055704999991,0.039999973,0.039999958700000005,-9.80941765,-0.003874089417516054,-0.016421317100016906,0.0042917940950092555,-0.01218135305680281,0.0006846061475014771
0.53,-0.0011054922200038884,-0.7853220400000022,0.00039875546400109513,-2.3568763600000024,0.00046067499000112193,1.5705867799999988,0.785700825999999,0.039999973,0.0399999584,-9.8094148,-0.003887740010398252,-0.01650942320001699,0.004340029040009301,-0.012178618460893091,0.0006923035700014843
0.5325,-0.0011256585800039063,-0.7853331475000022,0.00040443482850110015,-2.3568874900000023,0.0004664934450011271,1.5705807199999988,0.785696081499999,0.039999973,0.0399999581,-9.80941195,-0.0039013906032804493,-0.016597529300017067,0.004388263985009344,-0.012175883864983375,0.0007000009925014911
0.535,-0.001146841400004222,-0.7853449650000024,0.000410400341001189,-2.3568992500000023,0.0004726049570012181,1.5705743999999988,0.785691094999999,0.039999973,0.039999958,-9.809360399999985,-0.003915281035008747,-0.016688796000018075,0.004437638270009721,-0.012171233072875827,0.0007077960300015268
0.5375,-0.0011685324500042412,-0.7853571375000024,0.00041650892750119445,-2.3569113250000027,0.00047886299750122364,1.5705679499999987,0.785685987499999,0.039999973,0.039999958,-9.809284499999986,-0.003929291386159989,-0.016781643000018154,0.0044875822250097655,-0.012165624182670203,0.0007156398750015337
0.54,-0.0011902235000042615,-0.7853693100000023,0.00042261751400120013,-2.3569234000000026,0.0004851210380012295,1.5705614999999986,0.7856808799999989,0.039999973,0.039999958,-9.809208599999986,-0.003943301737311233,-0.01687449000001824,0.004537526180009812,-0.012160015292464578,0.000723483720001541
0.5425,-0.0012119145500042808,-0.7853814825000024,0.00042872610050120554,-2.3569354750000024,0.000491379078501235,1.5705550499999987,0.785675772499999,0.039999973,0.039999958,-9.809132699999985,-0.003957312088462475,-0.016967337000018325,0.004587470135009856,-0.012154406402258953,0.000731327565001548
0.545,-0.001233605600004301,-0.7853936550000024,0.0004348346870012112,-2.3569475500000023,0.0004976371190012409,1.5705485999999986,0.7856706649999989,0.039999973,0.039999958,-9.809056799999984,-0.003971322439613718,-0.01706018400001841,0.004637414090009903,-0.012148797512053328,0.0007391714100015553
0.5475,-0.0012552966500043203,-0.7854058275000024,0.00044094327350121664,-2.3569596250000022,0.0005038951595012465,1.5705421499999987,0.7856655574999989,0.039999973,0.039999958,-9.808980899999984,-0.003985332790764961,-0.01715303100001849,0.004687358045009947,-0.012143188621847703,0.0007470152550015623
0.55,-0.0012769877000046565,-0.7854180000000026,0.0004470518600013113,-2.3569717000000026,0.0005101532000013433,1.5705356999999986,0.7856604499999988,0.039999973,0.039999958,-9.808905,-0.003999343141915546,-0.017245878000018672,0.004737302000010354,-0.012137579731641944,0.0007548591000016246
0.5525,-0.0013002572600045977,-0.7854312300000026,0.00045360481850129477,-2.356984120000002,0.0005168663690013264,1.5705287549999987,0.7856549524999988,0.0399999736,0.0399999583,-9.8089029,-0.00401006827596785,-0.01733919975001844,0.004789045100010224,-0.012131300708277764,0.000762977379001604
0.555,-0.0013235268200045402,-0.7854444600000026,0.0004601577770012785,-2.356996540000002,0.0005235795380013098,1.5705218099999987,0.7856494549999989,0.0399999742,0.0399999586,-9.808900799999998,-0.004020793410020152,-0.017432521500018207,0.004840788200010095,-0.012125021684913586,0.000771095658001584
0.5575,-0.0013467963800044814,-0.7854576900000025,0.00046671073550126195,-2.357008960000002,0.0005302927070012928,1.5705148649999987,0.7856439574999989,0.0399999748,0.0399999589,-9.808898699999999,-0.004031518544072456,-0.01752584325001797,0.004892531300009965,-0.012118742661549406,0.0007792139370015634
0.56,-0.0013700659400044236,-0.7854709200000025,0.0004732636940012457,-2.357021380000002,0.0005370058760012762,1.5705079199999987,0.7856384599999989,0.0399999754,0.039999959200000004,-9.808896599999999,-0.004042243678124759,-0.017619165000017742,0.004944274400009836,-0.012112463638185227,0.0007873322160015433
0.5625,-0.001393335500004365,-0.7854841500000025,0.0004798166525012292,-2.357033800000002,0.0005437190450012592,1.5705009749999987,0.7856329624999989,0.039999976,0.0399999595,-9.8088945,-0.004052968812177062,-0.017712486750017506,0.0049960175000097065,-0.012106184614821047,0.0007954504950015229
0.5650000000000001,-0.0014166050600043073,-0.7854973800000025,0.00048636961100121295,-2.357046220000002,0.0005504322140012426,1.5704940299999988,0.7856274649999989,0.0399999766,0.0399999598,-9.8088924,-0.004063693946229365,-0.017805808500017273,0.005047760600009578,-0.012099905591456869,0.0008035687740015027
0.5675,-0.0014404185100046032,-0.7855109770000027,0.0004930756805012962,-2.357058945000002,0.0005573022170013279,1.5704869149999987,0.7856218449999989,0.03999997715,0.0399999603,-9.808862899999983,-0.004073606198655056,-0.017897944650016595,0.0051001063500099,-0.012092610588295466,0.0008117745200015492
0.5700000000000001,-0.0014653197400047112,-0.7855253080000028,0.0005000879720013267,-2.3570722800000024,0.0005644858880013592,1.5704794599999987,0.7856159799999989,0.0399999776,0.0399999612,-9.808778599999984,-0.004081892687828868,-0.017987709600016985,0.005153657400010132,-0.012083283625541296,0.0008201552000015856
0.5725,-0.0014902209700048184,-0.7855396390000028,0.0005071002635013568,-2.3570856150000026,0.00057166955900139,1.5704720049999987,0.7856101149999989,0.039999978049999996,0.0399999621,-9.808694299999983,-0.004090179177002678,-0.018077474550017368,0.005207208450010362,-0.012073956662787126,0.0008285358800016216
0.5750000000000001,-0.0015151222000049265,-0.7855539700000029,0.0005141125550013874,-2.3570989500000024,0.0005788532300014213,1.5704645499999985,0.7856042499999989,0.0399999785,0.039999963,-9.808609999999984,-0.00409846566617649,-0.018167239500017758,0.005260759500010595,-0.012064629700032956,0.000836916560001658
0.5775,-0.0015400234300050335,-0.785568301000003,0.0005211248465014174,-2.3571122850000026,0.0005860369010014521,1.5704570949999985,0.7855983849999988,0.03999997895,0.0399999639,-9.808525699999983,-0.0041067521553503,-0.018257004450018145,0.005314310550010825,-0.012055302737278785,0.000845297240001694
0.58,-0.0015649246600051405,-0.785582632000003,0.0005281371380014476,-2.357125620000003,0.0005932205720014831,1.5704496399999985,0.7855925199999988,0.039999979399999996,0.039999964799999996,-9.808441399999984,-0.004115038644524111,-0.01834676940001853,0.0053678616000110545,-0.012045975774524615,0.00085367792000173
0.5825,-0.0015898258900052488,-0.785596963000003,0.0005351494295014781,-2.3571389550000026,0.0006004042430015142,1.5704421849999985,0.7855866549999988,0.03999997985,0.0399999657,-9.808357099999983,-0.004123325133697921,-0.01843653435001892,0.0054214126500112874,-0.012036648811770445,0.0008620586000017664
0.585,-0.0016158497700056575,-0.7856120360000033,0.0005424777540015932,-2.357152980000003,0.0006079116530016321,1.5704343699999983,0.7855805259999987,0.0399999797,0.0399999652,-9.8083274,-0.004131535394118949,-0.018529048900019978,0.005476087520011754,-0.012027175351975259,0.0008707035740018678
0.5875,-0.0016424349750056822,-0.7856274800000034,0.0005499640950016001,-2.357167350000003,0.0006155809325016393,1.5704263749999985,0.7855742649999987,0.03999997925,0.039999964,-9.808325,-0.004139707540163622,-0.018622938250020066,0.005531324300011806,-0.012017628643659635,0.000879480695001876
0.59,-0.0016690201800057059,-0.7856429240000034,0.0005574504360016068,-2.357181720000003,0.000623250212001646,1.5704183799999984,0.7855680039999987,0.039999978799999995,0.0399999628,-9.8083226,-0.004147879686208294,-0.01871682760002015,0.005586561080011855,-0.012008081935344011,0.0008882578160018838
0.5925,-0.0016956053850057306,-0.7856583680000033,0.0005649367770016138,-2.357196090000003,0.0006309194915016533,1.5704103849999984,0.7855617429999987,0.03999997835,0.0399999616,-9.808320199999999,-0.004156051832252967,-0.018810716950020238,0.005641797860011907,-0.011998535227028387,0.000897034937001892
0.595,-0.0017221905900057543,-0.7856738120000034,0.0005724231180016205,-2.3572104600000032,0.00063858877100166,1.5704023899999984,0.7855554819999987,0.0399999779,0.0399999604,-9.8083178,-0.004164223978297639,-0.018904606300020322,0.005697034640011956,-0.011988988518712763,0.0009058120580018998
0.5975,-0.0017487757950057792,-0.7856892560000034,0.0005799094590016275,-2.357224830000003,0.0006462580505016671,1.5703943949999983,0.7855492209999987,0.03999997745,0.039999959200000004,-9.8083154,-0.004172396124342312,-0.01899849565002041,0.005752271420012008,-0.011979441810397139,0.000914589179001908
0.6,-0.0017753610000061815,-0.7857047000000037,0.0005873958000017407,-2.357239200000003,0.0006539273300017832,1.5703863999999983,0.7855429599999986,0.039999977,0.039999958,-9.808313,-0.00418056827038645,-0.019092385000020865,0.005807508200012417,-0.011969895102081496,0.0009233663000019445
0.6025,-0.001803681750006208,-0.7857212900000037,0.0005953707090017482,-2.357253945000003,0.0006620969705017908,1.5703778949999982,0.7855362819999986,0.03999997745,0.0399999583,-9.8083109,-0.00418629387859374,-0.019187979400020955,0.00586439417001247,-0.011960252979768111,0.0009322749800019528
0.605,-0.0018320025000062331,-0.7857378800000037,0.0006033456180017553,-2.3572686900000033,0.0006702666110017981,1.5703693899999982,0.7855296039999985,0.0399999779,0.0399999586,-9.808308799999999,-0.004192019486801031,-0.01928357380002104,0.00592128014001252,-0.011950610857454727,0.0009411836600019607
0.6075,-0.0018603232500062595,-0.7857544700000036,0.0006113205270017627,-2.3572834350000034,0.0006784362515018056,1.5703608849999982,0.7855229259999985,0.03999997835,0.0399999589,-9.8083067,-0.004197745095008321,-0.019379168200021127,0.005978166110012573,-0.011940968735141343,0.0009500923400019691
0.61,-0.0018886440000062846,-0.7857710600000037,0.0006192954360017698,-2.357298180000003,0.000686605892001813,1.570352379999998,0.7855162479999985,0.039999978799999995,0.039999959200000004,-9.8083046,-0.004203470703215611,-0.019474762600021213,0.006035052080012623,-0.01193132661282796,0.000959001020001977
0.6125,-0.001916964750006311,-0.7857876500000037,0.0006272703450017772,-2.357312925000003,0.0006947755325018205,1.570343874999998,0.7855095699999985,0.03999997925,0.0399999595,-9.8083025,-0.0042091963114229015,-0.019570357000021302,0.006091938050012676,-0.011921684490514575,0.0009679097000019853
0.615,-0.0019452855000063362,-0.7858042400000037,0.0006352452540017842,-2.357327670000003,0.0007029451730018279,1.5703353699999982,0.7855028919999986,0.0399999797,0.0399999598,-9.8083004,-0.004214921919630191,-0.019665951400021385,0.006148824020012727,-0.011912042368201193,0.0009768183800019932
0.6175,-0.001974201610006764,-0.785821220000004,0.0006433877720019047,-2.3573427300000036,0.0007112864750019512,1.570326694999998,0.7854960779999984,0.0399999802,0.0399999603,-9.808270199999981,-0.004219883051701597,-0.019762435050022075,0.00620627468501316,-0.011901320284229555,0.0009858107850020579
0.62,-0.0020043084400067903,-0.785838980000004,0.0006518655080019122,-2.3573584200000033,0.0007199711000019589,1.570317679999998,0.7854889919999984,0.0399999808,0.0399999612,-9.80818379999998,-0.0042233152315027745,-0.019860697200022162,0.006264854740013212,-0.011888438276943594,0.000994970640002066
0.6225,-0.0020344152700068185,-0.785856740000004,0.0006603432440019201,-2.3573741100000034,0.0007286557250019669,1.570308664999998,0.7854819059999985,0.0399999814,0.0399999621,-9.80809739999998,-0.004226747411303952,-0.019958959350022256,0.006323434795013267,-0.011875556269657632,0.0010041304950020747
0.625,-0.0020645221000068453,-0.785874500000004,0.0006688209800019277,-2.3573898000000035,0.0007373403500019746,1.570299649999998,0.7854748199999984,0.039999982,0.039999963,-9.80801099999998,-0.004230179591105131,-0.020057221500022343,0.006382014850013319,-0.011862674262371671,0.0010132903500020827
0.6275000000000001,-0.0020946289300068734,-0.785892260000004,0.0006772987160019356,-2.3574054900000037,0.0007460249750019828,1.5702906349999979,0.7854677339999984,0.0399999826,0.0399999639,-9.80792459999998,-0.004233611770906308,-0.020155483650022434,0.006440594905013374,-0.011849792255085709,0.0010224502050020913
0.63,-0.0021247357600069003,-0.785910020000004,0.0006857764520019431,-2.357421180000004,0.0007547096000019905,1.570281619999998,0.7854606479999984,0.0399999832,0.039999964799999996,-9.80783819999998,-0.004237043950707487,-0.02025374580002252,0.006499174960013426,-0.011836910247799747,0.0010316100600020995
0.6325000000000001,-0.0021548425900069284,-0.7859277800000041,0.000694254188001951,-2.357436870000004,0.0007633942250019986,1.570272604999998,0.7854535619999984,0.0399999838,0.0399999657,-9.807751799999979,-0.004240476130508665,-0.020352007950022614,0.00655775501501348,-0.011824028240513785,0.001040769915002108
0.635,-0.0021861732600073794,-0.7859463300000044,0.000703076460002078,-2.357453290000004,0.0007724317300021286,1.570263229999998,0.7854461849999983,0.039999983600000004,0.0399999654,-9.807718899999998,-0.004242307692766418,-0.020450218800022683,0.006617437680013914,-0.011810839362439377,0.0010500964400021737
0.6375000000000001,-0.002218115850007409,-0.7859652750000043,0.0007120710000020863,-2.357470075000004,0.0007816456750021372,1.5702536749999978,0.7854386624999983,0.039999983,0.0399999645,-9.807712749999999,-0.004243338946253289,-0.020548404000022773,0.006677671650013971,-0.011797497048970906,0.0010595063000021826
0.64,-0.0022500584400074373,-0.7859842200000043,0.0007210655400020943,-2.357486860000004,0.0007908596200021453,1.5702441199999977,0.7854311399999983,0.0399999824,0.0399999636,-9.807706599999998,-0.00424437019974016,-0.02064658920002286,0.006737905620014024,-0.011784154735502433,0.001068916160002191
0.6425,-0.0022820010300074658,-0.7860031650000044,0.0007300600800021022,-2.357503645000004,0.0008000735650021535,1.5702345649999978,0.7854236174999982,0.0399999818,0.0399999627,-9.807700449999999,-0.004245401453227031,-0.02074477440002295,0.006798139590014078,-0.011770812422033962,0.0010783260200021992
0.645,-0.0023139436200074956,-0.7860221100000044,0.0007390546200021107,-2.357520430000004,0.000809287510002162,1.5702250099999977,0.7854160949999983,0.0399999812,0.0399999618,-9.807694299999998,-0.0042464327067139014,-0.02084295960002304,0.006858373560014134,-0.011757470108565489,0.001087735880002208
0.6475,-0.002345886210007524,-0.7860410550000044,0.0007480491600021186,-2.357537215000004,0.0008185014550021703,1.5702154549999976,0.7854085724999983,0.0399999806,0.0399999609,-9.807688149999999,-0.004247463960200773,-0.020941144800023126,0.006918607530014188,-0.011744127795097018,0.0010971457400022163
0.65,-0.0023778288000079993,-0.7860600000000048,0.0007570437000022524,-2.3575540000000044,0.0008277154000023073,1.5702058999999975,0.7854010499999982,0.03999998,0.03999996,-9.807681999999998,-0.004248495213686921,-0.021039330000023858,0.006978841500014615,-0.01173078548162844,0.0011065556000023134
0.6525,-0.0024116559600080296,-0.7860801600000048,0.000766568827502261,-2.357571880000004,0.000837472832502316,1.5701958049999976,0.7853930774999981,0.0399999806,0.03999996,-9.807674199999997,-0.004246472381054845,-0.021140230200023948,0.00704064567001467,-0.011716998927291888,0.001116338660002322
0.655,-0.002445483120008061,-0.7861003200000047,0.0007760939550022698,-2.357589760000004,0.0008472302650023251,1.5701857099999976,0.7853851049999981,0.0399999812,0.03999996,-9.807666399999999,-0.004244449548422768,-0.021241130400024042,0.007102449840014728,-0.011703212372955334,0.0011261217200023313
0.6575,-0.002479310280008091,-0.7861204800000048,0.0007856190825022782,-2.3576076400000043,0.0008569876975023338,1.5701756149999975,0.7853771324999981,0.0399999818,0.03999996,-9.807658599999998,-0.004242426715790691,-0.021342030600024132,0.0071642540100147825,-0.011689425818618782,0.00113590478000234
0.66,-0.0025131374400081223,-0.7861406400000048,0.0007951442100022872,-2.357625520000004,0.0008667451300023429,1.5701655199999975,0.7853691599999981,0.0399999824,0.03999996,-9.807650799999998,-0.004240403883158614,-0.021442930800024226,0.00722605818001484,-0.01167563926428223,0.0011456878400023492
0.6625,-0.0025469646000081526,-0.7861608000000049,0.0008046693375022956,-2.357643400000004,0.0008765025625023516,1.5701554249999976,0.7853611874999981,0.039999983,0.03999996,-9.807642999999997,-0.004238381050526537,-0.021543831000024317,0.0072878623500148955,-0.011661852709945677,0.0011554709000023578
0.665,-0.002580791760008184,-0.7861809600000048,0.0008141944650023044,-2.3576612800000043,0.0008862599950023607,1.5701453299999975,0.7853532149999981,0.039999983600000004,0.03999996,-9.807635199999998,-0.004236358217894461,-0.02164473120002441,0.007349666520014953,-0.011648066155609125,0.0011652539600023669
0.6675,-0.0026152631050086832,-0.7862015370000052,0.0008239009550024451,-2.357679290000004,0.0008962031310025047,1.5701350399999974,0.7853450949999979,0.039999984,0.03999996,-9.8076322,-0.0042342822998755955,-0.02174711425002558,0.007412008385015399,-0.011634319182482016,0.0011750751850024034
0.67,-0.0026510228200087166,-0.7862229480000051,0.0008339701700024545,-2.357697560000004,0.0009065176740025143,1.5701243599999972,0.7853366799999979,0.039999984,0.03999996,-9.807638800000001,-0.004232100211083268,-0.02185246300002568,0.007475425640015459,-0.011620651371773708,0.0011849727400024127
0.6725,-0.0026867825350087486,-0.7862443590000052,0.0008440393850024634,-2.3577158300000045,0.0009168322170025234,1.5701136799999973,0.785328264999998,0.039999984,0.03999996,-9.807645400000002,-0.004229918122290941,-0.021957811750025775,0.007538842895015515,-0.0116069835610654,0.0011948702950024214
0.675,-0.002722542250008782,-0.7862657700000052,0.0008541086000024729,-2.3577341000000045,0.000927146760002533,1.5701029999999974,0.7853198499999979,0.039999984,0.03999996,-9.807652000000001,-0.004227736033498615,-0.022063160500025873,0.007602260150015574,-0.011593315750357094,0.0012047678500024307
0.6775,-0.0027583019650088136,-0.7862871810000053,0.0008641778150024818,-2.3577523700000045,0.0009374613030025422,1.5700923199999972,0.7853114349999979,0.039999984,0.03999996,-9.807658600000002,-0.004225553944706287,-0.022168509250025965,0.0076656774050156305,-0.011579647939648786,0.0012146654050024393
0.68,-0.002794061680008847,-0.7863085920000052,0.0008742470300024911,-2.3577706400000045,0.0009477758460025519,1.5700816399999973,0.7853030199999979,0.039999984,0.03999996,-9.807665200000002,-0.0042233718559139604,-0.022273858000026063,0.007729094660015689,-0.011565980128940478,0.0012245629600024486
0.6825,-0.002829821395008879,-0.7863300030000053,0.0008843162450025002,-2.3577889100000045,0.000958090389002561,1.5700709599999974,0.7852946049999979,0.039999984,0.03999996,-9.807671800000001,-0.004221189767121634,-0.022379206750026158,0.007792511915015746,-0.011552312318232172,0.0012344605150024575
0.685,-0.0028669008400094057,-0.7863522560000057,0.0008947570050026484,-2.3578078700000047,0.0009687854130027129,1.5700598899999971,0.7852858799999978,0.0399999844,0.0399999606,-9.807612199999976,-0.0042166545055791465,-0.02248472570002632,0.007856920300016175,-0.011536302138115578,0.0012445079600025227
0.6875,-0.0029046401500094393,-0.7863749300000057,0.0009053835375026579,-2.3578271750000046,0.0009796706775027225,1.5700486249999972,0.7852769999999978,0.039999985,0.0399999615,-9.807519499999977,-0.004210942657662897,-0.022590329750026412,0.007921824250016233,-0.011519120773296152,0.0012546303500025318
0.6900000000000001,-0.0029423794600094743,-0.7863976040000057,0.0009160100700026678,-2.357846480000005,0.0009905559420027327,1.570037359999997,0.7852681199999978,0.0399999856,0.0399999624,-9.807426799999977,-0.004205230809746646,-0.022695933800026512,0.007986728200016294,-0.011501939408476726,0.001264752740002541
0.6925,-0.002980118770009508,-0.7864202780000057,0.0009266366025026772,-2.357865785000005,0.0010014412065027425,1.5700260949999971,0.7852592399999977,0.039999986200000004,0.0399999633,-9.807334099999977,-0.004199518961830396,-0.022801537850026605,0.008051632150016351,-0.011484758043657301,0.0012748751300025501
0.6950000000000001,-0.0030178580800095433,-0.7864429520000058,0.0009372631350026871,-2.357885090000005,0.0010123264710027527,1.5700148299999972,0.7852503599999977,0.0399999868,0.0399999642,-9.807241399999976,-0.004193807113914145,-0.0229071419000267,0.00811653610001641,-0.011467576678837875,0.0012849975200025596
0.6975,-0.0030555973900095765,-0.7864656260000058,0.0009478896675026965,-2.357904395000005,0.0010232117355027622,1.570003564999997,0.7852414799999977,0.0399999874,0.0399999651,-9.807148699999976,-0.004188095265997896,-0.023012745950026798,0.008181440050016468,-0.011450395314018449,0.0012951199100025685
0.7000000000000001,-0.0030933367000101275,-0.7864883000000061,0.0009585162000028517,-2.3579237000000055,0.0010340970000029212,1.569992299999997,0.7852325999999975,0.039999988,0.039999966,-9.807055999999996,-0.004182383418080529,-0.02311835000002644,0.008246344000016918,-0.011433213949198877,0.001305242300002637
0.7025,-0.0031331014000101627,-0.7865122775000062,0.0009697129950028616,-2.3579440850000055,0.0010455663300029314,1.569980449999997,0.7852232249999975,0.0399999874,0.0399999651,-9.807041599999996,-0.0041722897905829654,-0.023222166950026532,0.008312773600016978,-0.011415458703408977,0.001315596080002646
0.705,-0.0031728661000101984,-0.7865362550000061,0.0009809097900028716,-2.357964470000005,0.0010570356600029414,1.569968599999997,0.7852138499999975,0.0399999868,0.0399999642,-9.807027199999997,-0.004162196163085401,-0.023325983900026624,0.008379203200017036,-0.011397703457619075,0.0013259498600026553
0.7075,-0.0032126308000102353,-0.7865602325000062,0.000992106585002882,-2.357984855000005,0.001068504990002952,1.569956749999997,0.7852044749999976,0.039999986200000004,0.0399999633,-9.807012799999995,-0.004152102535587837,-0.023429800850026723,0.008445632800017097,-0.011379948211829175,0.0013363036400026649
0.71,-0.0032523955000102705,-0.7865842100000062,0.0010033033800028919,-2.358005240000005,0.0010799743200029623,1.569944899999997,0.7851950999999976,0.0399999856,0.0399999624,-9.806998399999996,-0.004142008908090273,-0.023533617800026815,0.008512062400017157,-0.011362192966039273,0.0013466574200026742
0.7125,-0.0032921602000103075,-0.7866081875000062,0.0010145001750029024,-2.358025625000005,0.001091443650002973,1.569933049999997,0.7851857249999975,0.039999985,0.0399999615,-9.806983999999996,-0.004131915280592709,-0.02363743475002691,0.008578492000017219,-0.011344437720249371,0.0013570112000026839
0.715,-0.0033319249000103427,-0.7866321650000062,0.0010256969700029124,-2.358046010000005,0.0011029129800029832,1.569921199999997,0.7851763499999975,0.0399999844,0.0399999606,-9.806969599999997,-0.004121821653095144,-0.023741251700027003,0.008644921600017279,-0.011326682474459471,0.001367364980002693
0.7175,-0.0033723798200109203,-0.7866565825000066,0.001037088085003075,-2.3580667700000055,0.0011145813250031497,1.569909144999997,0.7851668174999974,0.039999984200000005,0.03999996,-9.806956499999997,-0.004111939226274605,-0.023847083000028677,0.008711885350017759,-0.01130876145325116,0.0013778357850027943
0.72,-0.0034142151800109575,-0.7866818800000066,0.0010488678400030855,-2.3580882800000054,0.0011266477000031604,1.5698966799999967,0.7851569699999974,0.0399999848,0.03999996,-9.806945999999996,-0.004102479200807622,-0.023956943000028777,0.00877991740001782,-0.011290508881206418,0.0013885406400028037
0.7225,-0.0034560505400109964,-0.7867071775000066,0.0010606475950030963,-2.3581097900000056,0.0011387140750031717,1.5698842149999968,0.7851471224999974,0.0399999854,0.03999996,-9.806935499999996,-0.0040930191753406385,-0.024066803000028877,0.008847949450017883,-0.011272256309161677,0.0013992454950028138
0.725,-0.0034978859000110336,-0.7867324750000066,0.001072427350003107,-2.3581313000000055,0.0011507804500031824,1.5698717499999968,0.7851372749999974,0.039999986,0.03999996,-9.806924999999996,-0.004083559149873655,-0.024176663000028974,0.008915981500017944,-0.011254003737116935,0.0014099503500028233
0.7275,-0.003539721260011073,-0.7867577725000067,0.001084207105003118,-2.3581528100000058,0.0011628468250031937,1.5698592849999966,0.7851274274999973,0.0399999866,0.03999996,-9.806914499999996,-0.004074099124406671,-0.02428652300002908,0.008984013550018008,-0.011235751165072192,0.0014206552050028333
0.73,-0.0035815566200111102,-0.7867830700000067,0.0010959868600031284,-2.3581743200000056,0.0011749132000032044,1.5698468199999966,0.7851175799999973,0.0399999872,0.03999996,-9.806903999999996,-0.004064639098939687,-0.024396383000029175,0.009052045600018068,-0.011217498593027453,0.0014313600600028428
0.7325,-0.003623391980011149,-0.7868083675000067,0.0011077666150031394,-2.358195830000006,0.0011869795750032155,1.5698343549999967,0.7851077324999973,0.0399999878,0.03999996,-9.806893499999996,-0.0040551790734727035,-0.02450624300002928,0.00912007765001813,-0.01119924602098271,0.0014420649150028528
0.735,-0.0036666369300117517,-0.7868345500000071,0.001119943260003309,-2.358218040000006,0.0011994523000033893,1.5698214699999964,0.7850975549999972,0.0399999882,0.0399999606,-9.806884599999997,-0.004044211376455196,-0.024617627900029988,0.009189013200018553,-0.011180705856526814,0.001452828380002886
0.7375,-0.0037105866750117926,-0.7868611750000072,0.0011323183500033204,-2.358240600000006,0.001212128200003401,1.5698083749999965,0.7850872124999972,0.0399999885,0.0399999615,-9.806876499999998,-0.0040324898436633295,-0.024729775250030093,0.009258400500018618,-0.011162021895865511,0.001463621150002896
0.74,-0.003754536420011832,-0.7868878000000071,0.0011446934400033315,-2.358263160000006,0.0012248041000034124,1.5697952799999966,0.7850768699999972,0.0399999888,0.0399999624,-9.806868399999997,-0.004020768310871464,-0.02484192260003019,0.00932778780001868,-0.01114333793520421,0.0014744139200029054
0.7425,-0.003798486165011873,-0.7869144250000072,0.0011570685300033429,-2.3582857200000062,0.0012374800000034241,1.5697821849999964,0.7850665274999972,0.0399999891,0.0399999633,-9.806860299999999,-0.004009046778079599,-0.024954069950030296,0.009397175100018744,-0.011124653974542908,0.0014852066900029155
0.745,-0.0038424359100119117,-0.7869410500000072,0.001169443620003354,-2.358308280000006,0.0012501559000034355,1.5697690899999965,0.7850561849999972,0.0399999894,0.0399999642,-9.806852199999998,-0.003997325245287733,-0.025066217300030395,0.009466562400018806,-0.011105970013881606,0.001495999460002925
0.7475,-0.0038863856550119527,-0.7869676750000073,0.0011818187100033654,-2.358330840000006,0.0012628318000034472,1.5697559949999964,0.7850458424999972,0.0399999897,0.0399999651,-9.806844099999998,-0.003985603712495868,-0.0251783646500305,0.009535949700018871,-0.011087286053220305,0.0015067922300029352
0.75,-0.00393033540001258,-0.7869943000000077,0.0011941938000035422,-2.3583534000000066,0.0012755077000036284,1.5697428999999963,0.785035499999997,0.03999999,0.039999966,-9.806835999999995,-0.003973882179702974,-0.025290512000031674,0.009605337000019325,-0.01106860209255881,0.0015175850000030036
0.7525000000000001,-0.003976442715012623,-0.7870222750000077,0.0012071763300035543,-2.3583770700000066,0.0012888056350036407,1.5697291449999964,0.7850246549999971,0.0399999897,0.0399999651,-9.806817549999996,-0.003958390746261329,-0.025406598800031783,0.009676160850019391,-0.011049212934444002,0.0015285934250030139
0.755,-0.004022550030012664,-0.7870502500000077,0.0012201588600035658,-2.3584007400000067,0.0013021035700036526,1.5697153899999963,0.785013809999997,0.0399999894,0.0399999642,-9.806799099999996,-0.003942899312819685,-0.025522685600031885,0.009746984700019454,-0.011029823776329195,0.0015396018500030235
0.7575000000000001,-0.0040686573450127075,-0.7870782250000077,0.001233141390003578,-2.3584244100000067,0.0013154015050036649,1.5697016349999962,0.785002964999997,0.0399999891,0.0399999633,-9.806780649999995,-0.003927407879378041,-0.025638772400031994,0.009817808550019519,-0.011010434618214387,0.0015506102750030338
0.76,-0.004114764660012748,-0.7871062000000077,0.0012461239200035894,-2.3584480800000067,0.0013286994400036767,1.5696878799999963,0.784992119999997,0.0399999888,0.0399999624,-9.806762199999996,-0.003911916445936397,-0.025754859200032097,0.009888632400019581,-0.01099104546009958,0.0015616187000030437
0.7625000000000001,-0.004160871975012791,-0.7871341750000078,0.0012591064500036015,-2.3584717500000068,0.0013419973750036893,1.5696741249999961,0.7849812749999969,0.0399999885,0.0399999615,-9.806743749999995,-0.0038964250124947524,-0.025870946000032206,0.009959456250019648,-0.01097165630198477,0.001572627125003054
0.765,-0.004206979290012832,-0.7871621500000078,0.001272088980003613,-2.358495420000007,0.001355295310003701,1.5696603699999963,0.784970429999997,0.0399999882,0.0399999606,-9.806725299999995,-0.0038809335790531085,-0.025987032800032308,0.01003028010001971,-0.010952267143869964,0.0015836355500030636
0.7675000000000001,-0.004253819785013489,-0.7871905920000082,0.001285277955003798,-2.358519450000007,0.0013688046950038905,1.569646399999996,0.7849594114999968,0.039999988,0.0399999599,-9.806710699999998,-0.003864543023514111,-0.02610404245003319,0.01010154995002015,-0.01093281176872004,0.0015947545600031665
0.77,-0.0043021266400135325,-0.7872199680000083,0.0012988798200038103,-2.358544200000007,0.001382736980003903,1.569631999999996,0.7849480459999968,0.039999988,0.0399999596,-9.806703799999998,-0.003846354223782665,-0.026222897800033295,0.010173711800020215,-0.010913223959500052,0.0016060947400031768
0.7725,-0.004350433495013575,-0.7872493440000082,0.0013124816850038222,-2.358568950000007,0.0013966692650039152,1.569617599999996,0.7849366804999968,0.039999988,0.0399999593,-9.806696899999999,-0.0038281654240512187,-0.0263417531500334,0.01024587365002028,-0.010893636150280066,0.0016174349200031868
0.775,-0.0043987403500136205,-0.7872787200000083,0.001326083550003835,-2.3585937000000072,0.0014106015500039283,1.569603199999996,0.7849253149999968,0.039999988,0.039999959,-9.806689999999998,-0.0038099766243197717,-0.02646060850003351,0.010318035500020346,-0.010874048341060077,0.0016287751000031974
0.7775,-0.004447047205013663,-0.7873080960000083,0.001339685415003847,-2.358618450000007,0.0014245338350039405,1.5695887999999958,0.7849139494999968,0.039999988,0.039999958700000005,-9.806683099999997,-0.0037917878245883256,-0.026579463850033618,0.01039019735002041,-0.010854460531840089,0.0016401152800032074
0.78,-0.0044953540600137076,-0.7873374720000083,0.0013532872800038598,-2.358643200000007,0.0014384661200039536,1.5695743999999958,0.7849025839999968,0.039999988,0.0399999584,-9.806676199999997,-0.0037735990248568786,-0.026698319200033727,0.010462359200020479,-0.010834872722620102,0.001651455460003218
0.7825,-0.004543660915013751,-0.7873668480000083,0.0013668891450038718,-2.358667950000007,0.0014523984050039658,1.5695599999999958,0.7848912184999968,0.039999988,0.0399999581,-9.806669299999998,-0.0037554102251254324,-0.026817174550033834,0.010534521050020543,-0.010815284913400114,0.001662795640003228
0.785,-0.004593461480014436,-0.7873971800000088,0.0013809115700040646,-2.3586933700000077,0.0014667612800041633,1.5695451099999955,0.7848794969999966,0.0399999882,0.039999958200000005,-9.806653699999993,-0.003736342396581549,-0.026937426000034542,0.010607606700021005,-0.010795183200383246,0.0016741845900032596
0.7875,-0.004644008900014481,-0.7874279900000088,0.0013951442750040773,-2.3587191250000075,0.0014813394500041764,1.5695299749999956,0.7848675974999967,0.0399999885,0.0399999585,-9.806633749999994,-0.0037168350536320115,-0.02705837550003465,0.01068115425002107,-0.010774824535468268,0.0016855979250032698
0.79,-0.004694556320014528,-0.7874588000000088,0.0014093769800040906,-2.3587448800000077,0.00149591762000419,1.5695148399999956,0.7848556979999967,0.0399999888,0.0399999588,-9.806613799999994,-0.003697327710682473,-0.027179325000034765,0.010754701800021138,-0.010754465870553289,0.0016970112600032804
0.7925,-0.004745103740014573,-0.7874896100000088,0.0014236096850041033,-2.3587706350000075,0.0015104957900042028,1.5694997049999957,0.7848437984999966,0.0399999891,0.0399999591,-9.806593849999993,-0.0036778203677329357,-0.02730027450003487,0.010828249350021205,-0.01073410720563831,0.0017084245950032906
0.795,-0.00479565116001462,-0.7875204200000089,0.0014378423900041166,-2.3587963900000077,0.0015250739600042166,1.5694845699999957,0.7848318989999966,0.0399999894,0.0399999594,-9.806573899999993,-0.003658313024783398,-0.027421224000034983,0.010901796900021273,-0.010713748540723331,0.0017198379300033013
0.7975,-0.004846198580014665,-0.7875512300000089,0.0014520750950041293,-2.3588221450000075,0.0015396521300042295,1.5694694349999956,0.7848199994999966,0.0399999897,0.039999959700000004,-9.806553949999993,-0.0036388056818338604,-0.027542173500035093,0.010975344450021338,-0.010693389875808352,0.0017312512650033115
0.8,-0.004896746000015376,-0.7875820400000093,0.0014663078000043295,-2.358847900000008,0.0015542303000044345,1.5694542999999954,0.7848080999999963,0.03999999,0.03999996,-9.806533999999989,-0.0036192983388831884,-0.02766312300003515,0.011048892000021807,-0.010673031210893037,0.001742664600003377
0.8025,-0.0049495739900154235,-0.7876142690000094,0.0014811825650043427,-2.358874720000008,0.001569465845004448,1.5694385349999955,0.7847956499999964,0.03999999,0.03999996,-9.806499199999989,-0.0035958963446250077,-0.027783882150035254,0.011123818800021874,-0.010651515284546843,0.0017542666050033872
0.805,-0.0050024019800154725,-0.7876464980000094,0.0014960573300043566,-2.3589015400000077,0.001584701390004462,1.5694227699999954,0.7847831999999964,0.03999999,0.03999996,-9.806464399999989,-0.003572494350366826,-0.02790464130003537,0.011198745600021943,-0.010629999358200647,0.001765868610003398
0.8075,-0.005055229970015519,-0.7876787270000095,0.0015109320950043696,-2.3589283600000077,0.0015999369350044757,1.5694070049999953,0.7847707499999963,0.03999999,0.03999996,-9.806429599999989,-0.0035490923561086454,-0.028025400450035477,0.01127367240002201,-0.010608483431854453,0.0017774706150034082
0.81,-0.005108057960015568,-0.7877109560000095,0.0015258068600043835,-2.3589551800000077,0.00161517248000449,1.5693912399999954,0.7847582999999964,0.03999999,0.03999996,-9.806394799999989,-0.0035256903618504634,-0.028146159600035588,0.01134859920002208,-0.010586967505508258,0.001789072620003419
0.8125,-0.005160885950015615,-0.7877431850000095,0.0015406816250043967,-2.3589820000000077,0.0016304080250045035,1.5693754749999953,0.7847458499999963,0.03999999,0.03999996,-9.806359999999989,-0.0035022883675922827,-0.028266918750035695,0.011423526000022147,-0.010565451579162064,0.0018006746250034294
0.8150000000000001,-0.005213713940015664,-0.7877754140000096,0.0015555563900044105,-2.3590088200000077,0.0016456435700045176,1.5693597099999954,0.7847333999999963,0.03999999,0.03999996,-9.80632519999999,-0.003478886373334101,-0.028387677900035806,0.011498452800022218,-0.01054393565281587,0.00181227663000344
0.8175,-0.005267315095016401,-0.78780811500001,0.001570648860004618,-2.359036015000008,0.00166110205000473,1.5693437199999951,0.784720774999996,0.03999999,0.0399999599,-9.806294499999995,-0.0034538271138359767,-0.02851004480003735,0.011573822900022679,-0.010522123286493906,0.0018239849000035453
0.8200000000000001,-0.005322462580016452,-0.78784176000001,0.0015861767400046326,-2.3590639600000083,0.0016770064000047448,1.569327279999995,0.7847077999999961,0.03999999,0.0399999596,-9.806271999999995,-0.003425453323862395,-0.028635627200037466,0.011650079600022751,-0.010499718040221194,0.0018359057000035565
0.8225,-0.005377610065016501,-0.7878754050000101,0.0016017046200046464,-2.359091905000008,0.001692910750004759,1.569310839999995,0.7846948249999961,0.03999999,0.0399999593,-9.806249499999995,-0.003397079533888815,-0.028761209600037578,0.011726336300022818,-0.010477312793948486,0.001847826500003567
0.8250000000000001,-0.005432757550016553,-0.7879090500000101,0.0016172325000046609,-2.3591198500000083,0.0017088151000047738,1.569294399999995,0.784681849999996,0.03999999,0.039999959,-9.806226999999994,-0.0033687057439152333,-0.028886792000037693,0.01180259300002289,-0.010454907547675774,0.001859747300003578
0.8275,-0.005487905035016602,-0.7879426950000101,0.0016327603800046747,-2.359147795000008,0.001724719450004788,1.569277959999995,0.784668874999996,0.03999999,0.039999958700000005,-9.806204499999994,-0.0033403319539416533,-0.029012374400037805,0.011878849700022957,-0.010432502301403064,0.0018716681000035887
0.8300000000000001,-0.005543052520016654,-0.7879763400000102,0.0016482882600046891,-2.3591757400000084,0.0017406238000048028,1.569261519999995,0.7846558999999961,0.03999999,0.0399999584,-9.806181999999994,-0.003311958163968072,-0.029137956800037924,0.011955106400023029,-0.010410097055130354,0.0018835889000036
0.8325,-0.0055982000050167026,-0.7880099850000102,0.001663816140004703,-2.3592036850000087,0.0017565281500048168,1.569245079999995,0.784642924999996,0.03999999,0.0399999581,-9.806159499999994,-0.0032835843739944916,-0.029263539200038033,0.012031363100023095,-0.010387691808857643,0.0018955097000036105
0.835,-0.005654918710017468,-0.7880446300000107,0.0016797865200049184,-2.359232420000009,0.0017728855700050374,1.5692281899999947,0.7846295739999959,0.0399999905,0.039999958200000005,-9.806139399999996,-0.0032572207041007472,-0.029396765400041627,0.012108419000023529,-0.01036475216969138,0.0019074666300036376
0.8375,-0.005712423025017521,-0.7880797750000107,0.0016959781500049335,-2.3592615500000087,0.0017894695250050528,1.5692110749999948,0.7846160349999959,0.03999999125,0.0399999585,-9.806120499999995,-0.0032318620942455487,-0.029533813500041757,0.0121858745000236,-0.010341545334078705,0.0019194416250036487
0.84,-0.0057699273400175725,-0.7881149200000107,0.0017121697800049477,-2.359290680000009,0.0018060534800050675,1.5691939599999947,0.7846024959999959,0.039999992,0.0399999588,-9.806101599999995,-0.003206503484390351,-0.029670861600041877,0.01226333000002367,-0.010318338498466029,0.0019314166200036593
