rsonawane2002/My_IMU/logs_2/traj_289/imu_289.csv
time,j1,j2,j3,j4,j5,j6,j7,gripper1,gripper2,imu_ax,imu_ay,imu_az,imu_gx,imu_gy,imu_gz
420.93333333327917,0.00016700293,-0.785875,4.0107683e-05,-2.3551247,9.29385e-05,1.570997,0.786,0.04,0.04,-9.492351,-0.04365573450922966,0.084396936,-1.8885433e-07,-0.0011641273740679026,6.239141e-07
420.9499999999458,0.00016699715,-0.78576016,4.0112136e-05,-2.3552213,9.298309e-05,1.5709941,0.786,0.04,0.04,-9.834431,0.0006248214049264789,0.009105767,8.124087e-07,-0.0022387129720300436,1.6145515e-06
420.96666666661247,0.00016693157,-0.7856541,4.0098945e-05,-2.35531,9.30871e-05,1.5709913,0.786,0.04,0.04,-9.832398,0.0005660499446094036,0.0076407436,8.120607e-06,-0.0032241339795291424,6.332244e-06
420.9833333332791,0.00016670644,-0.7855565,4.0039653e-05,-2.355391,9.335242e-05,1.5709884,0.786,0.04,0.04,-9.830714,0.00045293383300304413,0.0063459547,2.7194028e-05,-0.0041297501884400845,1.8038609e-05
420.99999999994577,0.00016617768,-0.78546625,3.989322e-05,-2.3554645,9.3923816e-05,1.5709856,0.786,0.04,0.04,-9.828994,0.00029937364161014557,0.00523097,6.383414e-05,-0.004953696858137846,3.9772127e-05
421.0166666666124,0.0001651613,-0.7853827,3.960749e-05,-2.3555312,9.498774e-05,1.5709827,0.786,0.04,0.04,-9.827421,0.0001030370476655662,0.004237425,0.00012299232,-0.005700516980141401,7.42598e-05
421.0333333332791,0.00016343761,-0.78530496,3.911989e-05,-2.3555913,9.677494e-05,1.5709798,0.7860019,0.04,0.039999995,-9.825988,-0.0001228142064064741,0.003369004,0.000209603,-0.006373347714543343,0.00012472132
421.0499999999457,0.00016075496,-0.78523237,3.83592e-05,-2.3556485,9.951591e-05,1.5709769,0.7860038,0.04,0.04,-9.824676,-0.0003886781050823629,0.0025984636,0.000319295,-0.006976542063057423,0.00019104002
421.0666666666124,0.0001568327,-0.78516406,3.72456e-05,-2.3556986,0.00010350252,1.5709739,0.78600764,0.04,0.04,-9.823885,-0.000658079341519624,0.0019249225,0.00046473218,-0.007527347654104233,0.00027755863
421.08333333327903,0.00015136506,-0.7850994,3.569228e-05,-2.3557417,0.00010904061,1.5709705,0.78601146,0.04,0.04,-9.822648,-0.0009436773834750056,0.0013070237,0.00064163184,-0.008009360171854496,0.00038521367
421.0999999999457,0.00014402362,-0.78503764,3.3606077e-05,-2.3557804,0.0001164585,1.5709639,0.7860172,0.04,0.04,-9.821493,-0.0012398685794323683,0.00078601413,0.00086196535,-0.008424162864685059,0.0005155402
421.11666666661233,0.00013446013,-0.784978,3.0888248e-05,-2.3558147,0.00012609559,1.5709572,0.7860248,0.04,0.04,-9.820826,-0.0015385276637971401,0.0003988864,0.001120787,-0.008800159208476543,0.00066911604
421.133333333279,0.0001223089,-0.7849194,2.7434871e-05,-2.3558424,0.00013832499,1.5709502,0.78603435,0.039999995,0.04,-9.820131,-0.0018214703304693103,-5.3161406e-05,0.0014212079,-0.00912314560264349,0.000848816
421.14999999994563,0.000107189044,-0.7848618,2.3137914e-05,-2.3558638,0.00015352675,1.5709397,0.7860465,0.03999999,0.03999999,-9.819246,-0.0020852340385317802,-0.00047768492,0.0017664614,-0.009386993944644928,0.0010556702
421.1666666666123,8.870671e-05,-0.7848041,1.788554e-05,-2.355881,0.00017209284,1.5709289,0.78606176,0.039999988,0.039999988,-9.818518,-0.002345120534300804,-0.0007340503,0.0021557985,-0.009606866165995598,0.001288887
421.18333333327894,6.645673e-05,-0.78474545,1.1562666e-05,-2.3558924,0.00019442827,1.5709147,0.78607965,0.039999984,0.03999998,-9.818039,-0.0025623152032494545,-0.0010866186,0.002589972,-0.009780139662325382,0.0015509524
421.1999999999456,4.002454e-05,-0.78468573,4.0517866e-06,-2.3558967,0.00022094531,1.5709001,0.78610086,0.03999998,0.039999977,-9.817591,-0.00275340280495584,-0.0013624956,0.0030737428,-0.009918682277202606,0.0018408104
421.21666666661224,8.9875e-06,-0.7846239,-4.7671283e-06,-2.3558953,0.00025206618,1.5708818,0.78612584,0.039999977,0.039999973,-9.816795,-0.0028949398547410965,-0.0016629823,0.0036060077,-0.009997772984206676,0.0021598418
421.2333333332789,-2.7083106e-05,-0.7845593,-1.50157e-05,-2.3558877,0.00028821843,1.5708613,0.7861549,0.03999997,0.03999996,-9.816421,-0.0029977874364703894,-0.0018984043,0.0041877283,-0.010043232701718807,0.0025093707
421.24999999994554,-6.862126e-05,-0.7844912,-2.6817224e-05,-2.355874,0.00032983389,1.5708383,0.78618824,0.039999966,0.039999958,-9.81605,-0.003052596701309085,-0.0021918595,0.0048187077,-0.010049528442323208,0.0028880383
421.2666666666122,-0.00011606471,-0.7844192,-4.029596e-05,-2.3558547,0.00037734953,1.5708117,0.7862262,0.03999996,0.039999954,-9.815683,-0.0030420601833611727,-0.0024996658,0.005500569,-0.01001710258424282,0.003296964
421.28333333327885,-0.00016985409,-0.78434277,-5.5576995e-05,-2.3558278,0.00043120462,1.5707817,0.7862692,0.039999958,0.03999995,-9.8155,-0.002960103563964367,-0.002776935,0.006233477,-0.00995614379644394,0.0037363472
421.2999999999455,-0.0002304316,-0.78426117,-7.278585e-05,-2.3557932,0.00049184053,1.5707479,0.78631765,0.03999996,0.03999995,-9.815078,-0.002801379654556513,-0.0030854887,0.0070175435,-0.009855903685092926,0.0042071566
421.31666666661215,-0.0002982402,-0.78417385,-9.204841e-05,-2.3557513,0.00055969745,1.5707098,0.7863719,0.03999996,0.03999995,-9.814733,-0.0025747367180883884,-0.003435087,0.007852261,-0.009720481932163239,0.0047077383
421.3333333332788,-0.00037372278,-0.7840802,-0.00011349019,-2.355702,0.00063521805,1.5706679,0.7864323,0.03999996,0.03999995,-9.814474,-0.002243327908217907,-0.0038073678,0.00873788,-0.009553741663694382,0.00523894
421.34999999994545,-0.00045732153,-0.7839795,-0.00013723705,-2.355645,0.00071884313,1.5706215,0.78649914,0.03999996,0.039999947,-9.814263,-0.0018417006358504295,-0.0042129545,0.009673778,-0.009355274960398674,0.0058015687
421.3666666666121,-0.00054947665,-0.7838716,-0.0001634138,-2.3555796,0.000811011,1.5705703,0.78657275,0.03999996,0.039999947,-9.814122,-0.0013438565656542778,-0.0046925186,0.010660927,-0.0091289933770895,0.0063937963
421.38333333327876,-0.0006506263,-0.7837552,-0.00019214487,-2.3555052,0.00091215916,1.5705138,0.78665364,0.039999966,0.03999995,-9.813912,-0.0007358649745583534,-0.00515701,0.011698334,-0.008873149752616882,0.0070163254
421.3999999999454,-0.0007612059,-0.7836307,-0.00022355409,-2.3554223,0.0010227215,1.5704525,0.786742,0.039999966,0.039999947,-9.813703,-1.1769123375415802e-05,-0.0057566976,0.012785239,-0.008589845150709152,0.0076698316
421.41666666661206,-0.0008816471,-0.7834969,-0.00025776407,-2.3553298,0.0011431281,1.5703856,0.7868381,0.039999973,0.039999954,-9.813562,0.0008100280538201332,-0.006331156,0.013922224,-0.00827810075134039,0.008352347
421.4333333332787,-0.001012378,-0.78335387,-0.00029489625,-2.3552284,0.001273806,1.570313,0.78694254,0.039999977,0.039999958,-9.813349,0.0017661657184362411,-0.0070285834,0.01510845,-0.007938070222735405,0.009064449
421.44999999994536,-0.0011538224,-0.78320044,-0.0003350711,-2.3551178,0.0014151775,1.5702344,0.7870554,0.039999984,0.039999966,-9.813316,0.0028443606570363045,-0.0077339187,0.01634304,-0.0075754267163574696,0.009805886
421.466666666612,-0.0013063992,-0.78303677,-0.00037840754,-2.354997,0.0015676612,1.5701497,0.7871771,0.03999998,0.039999958,-9.813274,0.004077654331922531,-0.008580476,0.017625948,-0.007191359996795654,0.010577176
421.48333333327867,-0.0014705223,-0.78286195,-0.00042502306,-2.3548658,0.0017316688,1.5700588,0.787308,0.039999984,0.03999996,-9.81312,0.00539146363735199,-0.009435733,0.018956518,-0.006781051866710186,0.011376225
421.4999999999453,-0.0016465996,-0.78267574,-0.00047503374,-2.354725,0.0019076085,1.5699612,0.78744847,0.039999984,0.039999958,-9.813052,0.006882744841277599,-0.010410648,0.020334087,-0.00634733634069562,0.012204378
421.51666666661197,-0.0018350339,-0.78247756,-0.0005285538,-2.354572,0.0020958805,1.5698565,0.78759885,0.039999988,0.03999996,-9.81306,0.008509142324328423,-0.0114428615,0.02175741,-0.005895210430026054,0.013059552
421.5333333332786,-0.002036221,-0.782267,-0.00058569614,-2.3544087,0.0022968808,1.5697451,0.78775936,0.039999988,0.03999996,-9.812872,0.010292280465364456,-0.012579251,0.023225784,-0.005417780019342899,0.0139421215
421.54999999994527,-0.0022505512,-0.78204364,-0.00064657145,-2.3542335,0.002510999,1.5696265,0.78793037,0.039999988,0.039999958,-9.812889,0.01223527267575264,-0.013800717,0.024739051,-0.004920974373817444,0.014852574
421.5666666666119,-0.002478409,-0.7818069,-0.000711289,-2.3540473,0.0027386167,1.5695003,0.7881121,0.03999999,0.03999996,-9.81277,0.014326762408018112,-0.015110094,0.026296206,-0.00440114364027977,0.01578869
421.5833333332786,-0.0027201714,-0.7815563,-0.0007799556,-2.3538477,0.0029801098,1.5693663,0.7883049,0.04,0.03999997,-9.812868,0.016618404537439346,-0.016549371,0.02789671,-0.003867651103064418,0.016750926
421.5999999999452,-0.0029762082,-0.7812918,-0.0008526765,-2.3536367,0.0032358493,1.5692246,0.78850913,0.04,0.03999997,-9.812634,0.01902932859957218,-0.018052518,0.029539304,-0.003308469895273447,0.01773935
421.6166666666119,-0.0032468822,-0.7810127,-0.0009295548,-2.3534136,0.0035061948,1.569075,0.788725,0.04,0.03999997,-9.812732,0.02163088321685791,-0.01964783,0.03122372,-0.002735377522185445,0.018752513
421.63333333327853,-0.0035325494,-0.7807188,-0.001010692,-2.3531766,0.0037915034,1.5689172,0.7889528,0.04,0.039999966,-9.812721,0.024423355236649513,-0.02138668,0.032948375,-0.002144249388948083,0.019790696
421.6499999999452,-0.003833557,-0.7804096,-0.0010961869,-2.3529263,0.004092121,1.5687506,0.78919286,0.04,0.039999973,-9.812597,0.027379333972930908,-0.023207294,0.03471303,-0.0015321351820603013,0.020852536
421.66666666661183,-0.0041502486,-0.78008455,-0.0011861364,-2.3526645,0.0044083884,1.5685754,0.78944534,0.04,0.039999966,-9.812528,0.030538806691765785,-0.025148828,0.036516573,-0.0009024685714393854,0.02193842
421.6833333332785,-0.0044829557,-0.7797436,-0.0012806356,-2.3523884,0.004740639,1.5683914,0.7897107,0.04,0.039999973,-9.812818,0.033882733434438705,-0.027214913,0.038358454,-0.0002682359772734344,0.023047037
421.69999999994513,-0.004832004,-0.7793863,-0.0013797767,-2.3520977,0.0050891954,1.5681982,0.789989,0.04,0.03999998,-9.812683,0.03741783648729324,-0.029399686,0.040236775,0.0003858618438243866,0.024178123
421.7166666666118,-0.0051977136,-0.7790121,-0.0014836503,-2.3517928,0.0054543796,1.5679961,0.7902805,0.04,0.039999973,-9.812571,0.0411895327270031,-0.031727366,0.042151865,0.0010577874490991235,0.025331652
421.73333333327844,-0.005580394,-0.77862096,-0.001592345,-2.3514738,0.0058365003,1.5677844,0.79058564,0.04,0.039999966,-9.812551,0.04509172588586807,-0.034157496,0.044102278,0.0017449456499889493,0.026506703
421.7499999999451,-0.0059803464,-0.7782125,-0.001705946,-2.35114,0.0062358566,1.5675632,0.7909045,0.04,0.039999966,-9.812611,0.049228303134441376,-0.036695525,0.04608693,0.0024424619041383266,0.0277021
421.76666666661174,-0.0063978676,-0.7777865,-0.0018245378,-2.3507915,0.006652744,1.5673324,0.7912374,0.04,0.03999996,-9.81255,0.05357924848794937,-0.039386317,0.04810528,0.0031551606953144073,0.028918527
421.7833333332784,-0.0068332446,-0.77734244,-0.0019482025,-2.3504279,0.00708745,1.5670916,0.7915845,0.04,0.03999996,-9.812514,0.058135803788900375,-0.042189036,0.050155945,0.003882419550791383,0.030154144
421.79999999994504,-0.007286755,-0.77688,-0.0020770184,-2.3500488,0.0075402535,1.566841,0.79194593,0.04,0.039999954,-9.8125515,0.06291159987449646,-0.0451535,0.052238286,0.004619170445948839,0.031409647
421.8166666666117,-0.007758672,-0.776399,-0.0022110632,-2.349654,0.008011422,1.5665803,0.79232204,0.04,0.03999996,-9.81249,0.06789538264274597,-0.0482563,0.054352105,0.005369656253606081,0.032683372
421.83333333327835,-0.008249257,-0.77589923,-0.002350412,-2.3492439,0.00850122,1.566309,0.7927131,0.04,0.03999996,-9.812429,0.07313818484544754,-0.051519975,0.056495428,0.006132977083325386,0.033975698
421.849999999945,-0.008758768,-0.77538025,-0.0024951373,-2.348818,0.009009902,1.5660273,0.7931193,0.04,0.039999966,-9.812477,0.07853496074676514,-0.054860026,0.05866707,0.006903874222189188,0.035285134
421.86666666661165,-0.009287449,-0.77484196,-0.0026453095,-2.348376,0.009537714,1.565735,0.7935407,0.04,0.03999996,-9.812499,0.08419539034366608,-0.058393534,0.060866505,0.007683087605983019,0.03661238
421.8833333332783,-0.009835539,-0.7742841,-0.002800996,-2.3479178,0.010084898,1.5654321,0.7939777,0.04,0.04,-9.812411,0.09007938206195831,-0.06207701,0.06309349,0.008474498055875301,0.037956823
421.89999999994495,-0.010403273,-0.7737064,-0.002962264,-2.3474424,0.010651685,1.5651182,0.79443026,0.04,0.04,-9.81241,0.09618803858757019,-0.06589488,0.06534576,0.009273960255086422,0.039316416
421.9166666666116,-0.010990875,-0.7731086,-0.0031291759,-2.3469508,0.011238294,1.5647933,0.7948986,0.04,0.04,-9.812279,0.10252918303012848,-0.06987889,0.06762331,0.010085227899253368,0.040691737
421.93333333327826,-0.011598557,-0.77249026,-0.0033017942,-2.3464427,0.011844944,1.5644573,0.7953831,0.04,0.04,-9.812272,0.10910308361053467,-0.074005276,0.06992528,0.010903185233473778,0.042080894
421.9499999999449,-0.0122265285,-0.77185136,-0.0034801774,-2.345917,0.012471839,1.5641099,0.79588366,0.04,0.04,-9.812264,0.11592399328947067,-0.078320816,0.07225022,0.011726794764399529,0.043485325
421.96666666661156,-0.012874987,-0.77119184,-0.0036643818,-2.3453736,0.013119182,1.5637515,0.79640055,0.04,0.04,-9.812136,0.1230100691318512,-0.08280916,0.07459741,0.01255903672426939,0.04490355
421.9833333332782,-0.013544129,-0.77051145,-0.0038544626,-2.3448136,0.013787161,1.5633816,0.7969339,0.04,0.04,-9.811972,0.13024726510047913,-0.08739355,0.07696626,0.013402802869677544,0.04633358
421.99999999994486,-0.0142341405,-0.7698099,-0.004050473,-2.3442354,0.014475966,1.5630003,0.7974838,0.04,0.04,-9.811962,0.1377868801355362,-0.09216267,0.079355925,0.014250567182898521,0.04777748
422.0166666666115,-0.014945192,-0.7690869,-0.0042524617,-2.34364,0.015185767,1.5626073,0.7980505,0.04,0.04,-9.811772,0.14555616676807404,-0.0971156,0.081764966,0.015108440071344376,0.04923341
422.03333333327816,-0.015677458,-0.7683424,-0.0044604787,-2.3430269,0.015916735,1.5622026,0.7986341,0.04,0.04,-9.811717,0.15356045961380005,-0.102239534,0.084192514,0.01596912182867527,0.05070047
422.0499999999448,-0.016431093,-0.7675762,-0.0046745692,-2.3423953,0.016669033,1.5617859,0.7992348,0.04,0.04,-9.811586,0.16182757914066315,-0.107527204,0.08663813,0.01683509349822998,0.05217914
422.06666666661147,-0.017206255,-0.76678824,-0.0048947777,-2.341746,0.017442808,1.5613577,0.79985255,0.04,0.04,-9.811386,0.17033110558986664,-0.11298538,0.08910016,0.01770838536322117,0.05366893
422.0833333332781,-0.018003084,-0.7659782,-0.0051211445,-2.3410783,0.018238217,1.5609173,0.8004877,0.04,0.04,-9.811263,0.17911742627620697,-0.118651584,0.09157876,0.018585702404379845,0.055167448
422.09999999994477,-0.018821733,-0.7651462,-0.005353708,-2.3403928,0.01905538,1.5604649,0.80114007,0.04,0.04,-9.811029,0.18807418644428253,-0.12443115,0.09407156,0.019468357786536217,0.056675777
422.1166666666114,-0.019662324,-0.76429176,-0.0055925073,-2.3396885,0.019894449,1.5600003,0.80181,0.04,0.04,-9.810924,0.19732756912708282,-0.13042098,0.09657897,0.020353080704808235,0.0581941
422.1333333332781,-0.020524977,-0.76341534,-0.005837579,-2.3389661,0.020755535,1.5595236,0.80249745,0.04,0.04,-9.810642,0.2068093866109848,-0.13659626,0.099099495,0.021243039518594742,0.05971998
422.1499999999447,-0.021409813,-0.7625157,-0.0060889544,-2.338225,0.021638751,1.5590342,0.8032027,0.04,0.04,-9.810407,0.21657001972198486,-0.14292942,0.10163285,0.022136850282549858,0.061256547
422.1666666666114,-0.022316942,-0.76159394,-0.0063466644,-2.3374653,0.02254422,1.558533,0.8039253,0.04,0.04,-9.810223,0.22654175758361816,-0.14951313,0.104176626,0.023028448224067688,0.0627976
422.18333333327803,-0.023246462,-0.7606493,-0.006610737,-2.3366864,0.023472028,1.5580192,0.8046663,0.04,0.04,-9.809904,0.23678600788116455,-0.15621658,0.10673327,0.023925960063934326,0.064345926
422.1999999999447,-0.024198472,-0.7596818,-0.006881203,-2.335889,0.024422277,1.5574931,0.8054249,0.04,0.04,-9.809547,0.24727441370487213,-0.163134,0.10929673,0.02482745237648487,0.06590118
422.21666666661133,-0.025173055,-0.7586915,-0.0071580824,-2.3350725,0.025395049,1.5569543,0.8062015,0.04,0.04,-9.809284,0.2580597698688507,-0.1702887,0.11187048,0.025727814063429832,0.067462005
422.233333333278,-0.026170284,-0.7576781,-0.0074414006,-2.334237,0.026390428,1.5564032,0.80699617,0.04,0.04,-9.808852,0.2690064609050751,-0.17753962,0.11445252,0.026632454246282578,0.06902872
422.24999999994463,-0.02719024,-0.7566415,-0.007731179,-2.3333824,0.027408475,1.5558397,0.80780894,0.04,0.04,-9.808537,0.28023838996887207,-0.18503912,0.11704127,0.027536172419786453,0.07059977
422.2666666666113,-0.028232982,-0.7555818,-0.008027434,-2.3325095,0.028449273,1.5552634,0.8086399,0.04,0.04,-9.808063,0.29172495007514954,-0.1927373,0.119636625,0.028443126007914543,0.072175585
422.28333333327794,-0.029298581,-0.75449896,-0.008330186,-2.3316154,0.02951287,1.5546744,0.8094891,0.04,0.04,-9.80773,0.3034583032131195,-0.2006232,0.12223692,0.029346538707613945,0.07375521
422.2999999999446,-0.03038708,-0.7533929,-0.0086394455,-2.3307037,0.030599322,1.5540729,0.8103565,0.04,0.04,-9.807033,0.31544312834739685,-0.2086937,0.12484211,0.03025731071829796,0.07533941
422.31666666661124,-0.03149852,-0.75226337,-0.008955228,-2.329772,0.03170867,1.5534587,0.81124216,0.04,0.04,-9.806674,0.32766711711883545,-0.21696576,0.12745114,0.031163185834884644,0.076925635
422.3333333332779,-0.032632947,-0.75111073,-0.009277544,-2.3288214,0.032840986,1.5528318,0.8121461,0.04,0.04,-9.806047,0.34021735191345215,-0.22550145,0.1300631,0.032071277499198914,0.078519806
422.34999999994454,-0.033790387,-0.74993443,-0.009606401,-2.3278518,0.03399623,1.5521923,0.8130685,0.04,0.04,-9.805525,0.3528543710708618,-0.23412909,0.13267724,0.03297680616378784,0.08010928
422.3666666666112,-0.03497088,-0.74873483,-0.00994181,-2.3268623,0.035174474,1.5515398,0.81400925,0.04,0.04,-9.804983,0.3658183217048645,-0.24305402,0.13529232,0.033878959715366364,0.08170126
422.38333333327785,-0.036174417,-0.747512,-0.01028377,-2.3258543,0.036375716,1.5508745,0.81496835,0.04,0.04,-9.804213,0.37902504205703735,-0.25213605,0.1379078,0.034782376140356064,0.08329422
422.3999999999445,-0.037401017,-0.7462657,-0.010632287,-2.324826,0.037599973,1.5501966,0.8159458,0.04,0.04,-9.803651,0.3924795091152191,-0.26143375,0.14052315,0.03567922115325928,0.08488918
422.41666666661115,-0.038650706,-0.74499583,-0.0109873675,-2.3237793,0.038847253,1.5495061,0.8169417,0.04,0.04,-9.802737,0.4061538577079773,-0.27095225,0.14313762,0.03658135235309601,0.08648401
422.4333333332778,-0.039923456,-0.7437025,-0.011349005,-2.322713,0.040117577,1.5488026,0.8179559,0.04,0.04,-9.802141,0.4201040267944336,-0.2806918,0.14574976,0.03747396543622017,0.08808087
422.44999999994445,-0.041219264,-0.7423858,-0.011717198,-2.3216267,0.041410897,1.5480864,0.81898856,0.04,0.04,-9.801232,0.4342395067214966,-0.29063812,0.14835948,0.03836633637547493,0.08967362
422.4666666666111,-0.042538125,-0.7410457,-0.012091948,-2.3205218,0.042727232,1.5473577,0.8200395,0.04,0.04,-9.800263,0.44873863458633423,-0.30081713,0.15096593,0.03925894945859909,0.091276236
422.48333333327776,-0.043880012,-0.7396822,-0.012473244,-2.3193972,0.044066552,1.5466162,0.82110876,0.04,0.04,-9.7994795,0.4632669985294342,-0.31115377,0.15356794,0.040144119411706924,0.09286678
422.4999999999444,-0.04524491,-0.73829526,-0.012861081,-2.3182535,0.045428842,1.5458617,0.8221963,0.04,0.04,-9.798419,0.4781349003314972,-0.32174486,0.15616529,0.04102879390120506,0.09445733
422.51666666661106,-0.046632767,-0.7368849,-0.013255447,-2.3170903,0.046814054,1.5450948,0.82330215,0.04,0.04,-9.797456,0.49323996901512146,-0.33254218,0.15875688,0.04190603643655777,0.096047364
422.5333333332777,-0.048043568,-0.7354512,-0.013656335,-2.3159082,0.048222154,1.5443153,0.82442623,0.04,0.04,-9.796336,0.5085493326187134,-0.34357685,0.16134234,0.042781680822372437,0.09763389
422.54999999994436,-0.049477242,-0.7339943,-0.014063728,-2.314707,0.049653083,1.5435231,0.8255687,0.04,0.04,-9.7952385,0.5240904688835144,-0.35482618,0.16392048,0.04365146532654762,0.099216774
422.566666666611,-0.05093375,-0.7325142,-0.014477613,-2.3134859,0.05110682,1.5427182,0.82672924,0.04,0.04,-9.794061,0.5398627519607544,-0.36628157,0.1664897,0.044515617191791534,0.1007984
422.58333333327766,-0.05241303,-0.7310109,-0.014897977,-2.3122466,0.05258325,1.5419006,0.827908,0.04,0.04,-9.792683,0.5558571815490723,-0.37800106,0.16905086,0.045378636568784714,0.102370024
422.5999999999443,-0.05391502,-0.72948456,-0.015324798,-2.310988,0.054082345,1.5410706,0.8291048,0.04,0.04,-9.791515,0.5720281600952148,-0.38988134,0.17160243,0.0462314635515213,0.10393918
422.61666666661097,-0.05543965,-0.72793514,-0.015758056,-2.3097105,0.055604015,1.5402282,0.8303197,0.04,0.04,-9.790113,0.588455319404602,-0.4020091,0.17414387,0.04707946628332138,0.10550607
422.6333333332776,-0.05698685,-0.72636294,-0.016197732,-2.3084137,0.05714823,1.539373,0.83155257,0.04,0.04,-9.788706,0.6050959229469299,-0.41438067,0.17667392,0.04792187735438347,0.10706944
422.64999999994427,-0.05855654,-0.7247679,-0.016643802,-2.3070986,0.058714855,1.5385057,0.83280337,0.04,0.04,-9.787128,0.6219167709350586,-0.4269309,0.17919268,0.04875888675451279,0.10862576
422.6666666666109,-0.060148634,-0.7231499,-0.017096251,-2.3057647,0.06030386,1.5376263,0.834072,0.04,0.04,-9.785602,0.6389830112457275,-0.43975544,0.18169887,0.049589525908231735,0.110178925
422.6833333332776,-0.061763037,-0.7215097,-0.017555041,-2.3044121,0.061915103,1.5367341,0.83535844,0.04,0.04,-9.783973,0.6562085151672363,-0.45282462,0.18419234,0.05041348934173584,0.111722805
422.6999999999442,-0.06339964,-0.71984655,-0.018020144,-2.3030403,0.06354852,1.5358298,0.83666253,0.04,0.04,-9.782239,0.6736694574356079,-0.46603495,0.18667172,0.05122998729348183,0.113261685
422.7166666666109,-0.06505835,-0.7181609,-0.018491548,-2.3016496,0.065203995,1.5349133,0.8379842,0.04,0.04,-9.780349,0.6913487911224365,-0.47960466,0.18913722,0.05204283073544502,0.11479455
422.7333333332775,-0.06673906,-0.716453,-0.018969204,-2.3002424,0.06688143,1.5339844,0.83932334,0.04,0.04,-9.778463,0.7091420888900757,-0.4932874,0.19158788,0.05284951999783516,0.116319954
422.7499999999442,-0.06844166,-0.7147229,-0.019453086,-2.2988157,0.068580724,1.5330435,0.84068006,0.04,0.04,-9.776811,0.7271862030029297,-0.507236,0.19402277,0.053637608885765076,0.117837735
422.76666666661083,-0.07016603,-0.7129706,-0.019943163,-2.2973707,0.07030171,1.5320907,0.842054,0.04,0.04,-9.774597,0.7453844547271729,-0.5214295,0.19644074,0.05442492663860321,0.11934675
422.7833333332775,-0.07191204,-0.7111964,-0.020439392,-2.2959073,0.072044306,1.5311259,0.8434451,0.04,0.04,-9.772507,0.7637770175933838,-0.53585255,0.19884215,0.055204328149557114,0.12084813
422.79999999994413,-0.073679596,-0.70940036,-0.020941742,-2.294426,0.073808365,1.5301489,0.84485364,0.04,0.04,-9.770243,0.7823432683944702,-0.55049485,0.20122665,0.055977869778871536,0.12233871
422.8166666666108,-0.0754685,-0.70758235,-0.02145018,-2.292927,0.07559375,1.5291601,0.846279,0.04,0.04,-9.768034,0.8010954260826111,-0.5653707,0.2035912,0.05673997476696968,0.123819865
422.83333333327744,-0.07727864,-0.70574284,-0.021964667,-2.29141,0.077400334,1.5281599,0.8477214,0.04,0.04,-9.765683,0.8200740218162537,-0.5805521,0.20593785,0.057492226362228394,0.12529513
422.8499999999441,-0.0791099,-0.7038818,-0.02248515,-2.289876,0.07922795,1.527148,0.8491806,0.04,0.04,-9.763225,0.8391144275665283,-0.5958576,0.20826468,0.05823724344372749,0.12675901
422.86666666661074,-0.0809621,-0.70199955,-0.023011597,-2.2883244,0.08107647,1.5261245,0.85065687,0.04,0.04,-9.760763,0.8583911061286926,-0.6114579,0.21057108,0.05897117033600807,0.1282152
422.8833333332774,-0.08283509,-0.70009625,-0.023543963,-2.2867546,0.08294573,1.5250896,0.85214895,0.04,0.04,-9.758125,0.8778076767921448,-0.6272742,0.21285483,0.05969579890370369,0.12966113
422.89999999994404,-0.08472875,-0.69817185,-0.024082206,-2.285168,0.08483557,1.5240434,0.8536581,0.04,0.04,-9.755294,0.8973782658576965,-0.64332545,0.21512097,0.060415320098400116,0.13109797
422.9166666666107,-0.08664286,-0.69622666,-0.024626277,-2.283564,0.08674583,1.522986,0.85518324,0.04,0.04,-9.752547,0.9170965552330017,-0.6596184,0.21736217,0.06112268939614296,0.13252196
422.93333333327735,-0.08857729,-0.6942608,-0.025176127,-2.2819426,0.08867636,1.5219172,0.8567245,0.04,0.04,-9.749602,0.9369731545448303,-0.67613643,0.21958213,0.06182149797677994,0.13393573
422.949999999944,-0.09053184,-0.6922745,-0.025731703,-2.2803051,0.09062697,1.5208372,0.8582818,0.04,0.04,-9.746524,0.956985592842102,-0.69289523,0.22177951,0.06251142174005508,0.1353389
422.96666666661065,-0.09250637,-0.69026786,-0.02629296,-2.2786505,0.09259755,1.5197462,0.859855,0.04,0.04,-9.743485,0.9771981239318848,-0.7099071,0.22395305,0.06318771839141846,0.13673127
422.9833333332773,-0.09450067,-0.68824106,-0.02685985,-2.2769802,0.09458785,1.5186443,0.86144394,0.04,0.04,-9.740231,0.9974313378334045,-0.72710234,0.22610235,0.06385520845651627,0.13810943
422.99999999994395,-0.09651457,-0.68619454,-0.02743232,-2.2752929,0.09659767,1.5175318,0.86304855,0.04,0.04,-9.7369995,1.0178409814834595,-0.744575,0.22822657,0.06450922042131424,0.13947155
423.0166666666106,-0.09854787,-0.6841282,-0.028010314,-2.273589,0.098626815,1.5164082,0.86466867,0.04,0.04,-9.733463,1.0384007692337036,-0.7622494,0.2303254,0.06515652686357498,0.14082436
423.03333333327726,-0.10060036,-0.6820425,-0.028593775,-2.271869,0.10067513,1.5152742,0.8663039,0.04,0.04,-9.729916,1.0590875148773193,-0.78016526,0.2323983,0.06579211354255676,0.14216724
423.0499999999439,-0.10267188,-0.6799372,-0.029182654,-2.270133,0.102742374,1.5141295,0.8679543,0.04,0.04,-9.726239,1.07985258102417,-0.79832274,0.23444554,0.06641840189695358,0.14349476
423.06666666661056,-0.10476223,-0.67781276,-0.029776884,-2.268381,0.104828395,1.5129741,0.86961985,0.04,0.04,-9.722485,1.100772738456726,-0.8167064,0.23646592,0.06703231483697891,0.14481132
423.0833333332772,-0.10687116,-0.67566943,-0.03037641,-2.266614,0.10693299,1.511809,0.87130016,0.04,0.04,-9.718569,1.1218124628067017,-0.83536303,0.23845784,0.06763453036546707,0.14611456
423.09999999994386,-0.10899845,-0.67350745,-0.030981176,-2.2648318,0.109055914,1.5106337,0.87299526,0.04,0.04,-9.7146225,1.1428850889205933,-0.85417885,0.24042231,0.0682261660695076,0.1474032
423.1166666666105,-0.11114395,-0.67132705,-0.031591117,-2.263034,0.111196965,1.509448,0.8747047,0.04,0.04,-9.710547,1.1640936136245728,-0.8732503,0.2423574,0.06880513578653336,0.14867745
423.13333333327716,-0.113307364,-0.6691285,-0.032206178,-2.2612214,0.11335592,1.5082525,0.8764284,0.04,0.04,-9.706276,1.1853986978530884,-0.89254856,0.24426416,0.06937294453382492,0.14993818
423.1499999999438,-0.11548854,-0.6669116,-0.032826286,-2.2593937,0.11553256,1.5070474,0.8781663,0.04,0.04,-9.7019415,1.2067877054214478,-0.9120698,0.24614215,0.06992866843938828,0.15118456
423.16666666661047,-0.11768722,-0.6646771,-0.033451397,-2.2575514,0.117726676,1.5058324,0.8799182,0.04,0.04,-9.69745,1.2282592058181763,-0.9318591,0.24798988,0.07047440856695175,0.15241604
423.1833333332771,-0.1199032,-0.662425,-0.034081426,-2.2556942,0.11993804,1.5046083,0.8816838,0.04,0.04,-9.692851,1.2498024702072144,-0.9518246,0.24980702,0.07100727409124374,0.15363063
423.19999999994377,-0.12213623,-0.6601555,-0.034716304,-2.253823,0.12216636,1.5033743,0.88346297,0.04,0.04,-9.688071,1.2714136838912964,-0.9720395,0.2515937,0.0715317502617836,0.15482797
423.2166666666104,-0.124386035,-0.6578688,-0.035355978,-2.2519374,0.124411434,1.5021313,0.88525546,0.04,0.04,-9.683258,1.29316246509552,-0.99249864,0.25334927,0.07204097509384155,0.15601352
423.2333333332771,-0.12665245,-0.6555654,-0.03600038,-2.2500381,0.12667304,1.500879,0.88706124,0.04,0.04,-9.678269,1.3148866891860962,-1.0131173,0.2550739,0.07254032790660858,0.15718333
423.2499999999437,-0.1289352,-0.65324533,-0.036649447,-2.2481256,0.12895091,1.4996178,0.88888,0.04,0.04,-9.673194,1.3367247581481934,-1.0339855,0.25676575,0.07302629202604294,0.1583386
423.2666666666104,-0.13123398,-0.65090907,-0.037303094,-2.2462,0.13124484,1.4983474,0.89071155,0.04,0.04,-9.668016,1.358597755432129,-1.0550815,0.25842476,0.07349864393472672,0.1594769
423.283333333277,-0.13354862,-0.6485567,-0.037961252,-2.2442608,0.13355456,1.4970685,0.89255565,0.04,0.04,-9.662724,1.380526065826416,-1.0763834,0.26005125,0.07395542412996292,0.16059926
423.2999999999437,-0.13587885,-0.64618844,-0.03862383,-2.2423084,0.13587978,1.4957812,0.8944122,0.04,0.04,-9.657163,1.4024970531463623,-1.0979087,0.26164466,0.07440287619829178,0.16170539
423.31666666661033,-0.1382244,-0.64380467,-0.039290804,-2.240343,0.13822028,1.4944851,0.89628106,0.04,0.04,-9.651527,1.4245017766952515,-1.1196569,0.2632045,0.07483940571546555,0.16279511
423.333333333277,-0.14058496,-0.6414054,-0.039962057,-2.2383652,0.1405758,1.4931808,0.8981617,0.04,0.04,-9.6457205,1.4465703964233398,-1.1416457,0.26473016,0.07526350766420364,0.16386789
423.34999999994363,-0.14296037,-0.6389913,-0.04063754,-2.2363749,0.14294605,1.4918684,0.90005434,0.04,0.04,-9.639886,1.4686144590377808,-1.1637757,0.2662221,0.07567330449819565,0.16492373
423.3666666666103,-0.14535026,-0.63656235,-0.041317172,-2.2343721,0.14533079,1.490548,0.9019586,0.04,0.04,-9.633834,1.4907050132751465,-1.1861441,0.26767847,0.07607223093509674,0.16596071
423.38333333327694,-0.14775446,-0.63411856,-0.042000867,-2.2323575,0.14772975,1.4892199,0.90387404,0.04,0.04,-9.62764,1.5128275156021118,-1.2087201,0.26910013,0.07646005600690842,0.16698205
423.3999999999436,-0.15017259,-0.6316607,-0.04268856,-2.2303317,0.15014261,1.487884,0.90580064,0.04,0.04,-9.621362,1.5349225997924805,-1.2315336,0.27048656,0.07683400064706802,0.16798049
423.41666666661024,-0.1526045,-0.62918913,-0.043380164,-2.2282944,0.15256916,1.4865407,0.9077382,0.04,0.04,-9.615008,1.5570966005325317,-1.2545066,0.27183723,0.07719241082668304,0.16896513
423.4333333332769,-0.15504982,-0.6267038,-0.04407561,-2.2262452,0.15500909,1.4851897,0.90968645,0.04,0.04,-9.60838,1.5792505741119385,-1.2776788,0.27315181,0.07754091173410416,0.16993292
423.44999999994354,-0.15750831,-0.62420505,-0.044774815,-2.2241852,0.15746216,1.4838316,0.9116452,0.04,0.04,-9.601605,1.6013706922531128,-1.301058,0.27443063,0.07787749171257019,0.17088167
423.4666666666102,-0.15997969,-0.6216931,-0.04547769,-2.2221143,0.15992805,1.4824665,0.9136141,0.04,0.04,-9.594749,1.6235377788543701,-1.324669,0.27567267,0.07820103317499161,0.17181103
423.48333333327685,-0.16246362,-0.61916834,-0.04618417,-2.2200336,0.16240653,1.4810942,0.915593,0.04,0.04,-9.587783,1.645647406578064,-1.3484123,0.27687812,0.07851160317659378,0.17272295
423.4999999999435,-0.16495988,-0.61663103,-0.046894148,-2.2179422,0.1648972,1.4797151,0.917582,0.04,0.04,-9.580731,1.667766809463501,-1.372385,0.27804613,0.07880612462759018,0.17361663
423.51666666661015,-0.16746812,-0.6140817,-0.04760757,-2.2158408,0.16739987,1.4783288,0.91958046,0.04,0.04,-9.573386,1.689854383468628,-1.3965276,0.27917597,0.07908967137336731,0.174492
423.5333333332768,-0.16998814,-0.61152035,-0.04832435,-2.2137296,0.16991423,1.4769361,0.9215882,0.04,0.04,-9.565989,1.7119247913360596,-1.4208338,0.2802684,0.07935813069343567,0.17534873
423.54999999994345,-0.17251955,-0.6089473,-0.049044393,-2.2116084,0.17243993,1.4755379,0.923605,0.04,0.04,-9.558425,1.7339560985565186,-1.4453593,0.28132328,0.07961302995681763,0.17618474
423.5666666666101,-0.1750621,-0.606363,-0.049767625,-2.2094786,0.17497675,1.4741328,0.9256306,0.04,0.04,-9.550656,1.7559490203857422,-1.4700855,0.2823405,0.07986081391572952,0.17700139
423.58333333327676,-0.17761551,-0.6037677,-0.05049395,-2.207339,0.17752428,1.4727225,0.9276649,0.04,0.04,-9.542876,1.777919054031372,-1.4949546,0.2833192,0.0800892636179924,0.17779814
423.5999999999434,-0.18017946,-0.6011616,-0.051223293,-2.2051914,0.18008234,1.471306,0.9297075,0.04,0.04,-9.534813,1.7998286485671997,-1.5199916,0.28425968,0.08031223714351654,0.17857668
423.61666666661006,-0.18275358,-0.59854513,-0.05195556,-2.2030344,0.18265061,1.4698837,0.9317583,0.04,0.04,-9.526777,1.8217072486877441,-1.5452094,0.28516078,0.08051662147045135,0.1793355
423.6333333332767,-0.18533765,-0.59591854,-0.052690674,-2.2008696,0.18522874,1.468456,0.9338169,0.04,0.04,-9.5184145,1.843492865562439,-1.570569,0.28602433,0.08071095496416092,0.18007292
423.64999999994336,-0.18793136,-0.5932821,-0.05342855,-2.1986969,0.1878164,1.4670235,0.9358831,0.04,0.04,-9.510039,1.8652615547180176,-1.5961288,0.2868482,0.08089184761047363,0.18079127
423.66666666661,-0.19053437,-0.59063625,-0.054169077,-2.1965158,0.19041339,1.4655848,0.93795675,0.04,0.04,-9.501524,1.8869397640228271,-1.6218466,0.287633,0.0810588076710701,0.18148562
423.68333333327666,-0.1931464,-0.5879814,-0.05491218,-2.1943274,0.19301926,1.464142,0.94003767,0.04,0.04,-9.49274,1.9085742235183716,-1.647683,0.28837866,0.08121278882026672,0.18216273
423.6999999999433,-0.1957671,-0.5853176,-0.05565778,-2.1921315,0.19563377,1.4626948,0.94212556,0.04,0.04,-9.483886,1.9301289319992065,-1.6737012,0.2890846,0.0813576951622963,0.18281998
423.71666666660997,-0.19839616,-0.5826455,-0.056405786,-2.1899288,0.1982566,1.4612416,0.94422,0.04,0.04,-9.47485,1.9516130685806274,-1.6999022,0.2897508,0.08149256557226181,0.18345605
423.7333333332766,-0.20103325,-0.579965,-0.057156105,-2.1877193,0.20088744,1.4597838,0.94632095,0.04,0.04,-9.465778,1.9729987382888794,-1.7261349,0.29037756,0.08160849660634995,0.18407115
423.74999999994327,-0.20367809,-0.5772766,-0.05790865,-2.1855032,0.20352602,1.458322,0.9484281,0.04,0.04,-9.456523,1.9943150281906128,-1.7526131,0.29096413,0.08171088993549347,0.18466786
423.7666666666099,-0.20633036,-0.5745806,-0.058663327,-2.1832812,0.20617199,1.4568565,0.950541,0.04,0.04,-9.44711,2.015528440475464,-1.7792134,0.2915105,0.08180131763219833,0.18524186
423.7833333332766,-0.20898966,-0.57187754,-0.059420045,-2.1810532,0.20882499,1.4553871,0.9526596,0.04,0.04,-9.437547,2.0366477966308594,-1.8059542,0.29201746,0.0818813219666481,0.18579417
423.7999999999432,-0.21165578,-0.5691676,-0.06017872,-2.1788197,0.21148475,1.4539139,0.95478356,0.04,0.04,-9.427893,2.0576817989349365,-1.8328153,0.29248458,0.08194810152053833,0.18632473
423.8166666666099,-0.21432838,-0.56645083,-0.060939256,-2.1765804,0.21415092,1.4524369,0.95691276,0.04,0.04,-9.418029,2.0786092281341553,-1.8597817,0.29291165,0.08200319111347198,0.18683533
423.8333333332765,-0.21700707,-0.56372803,-0.06170155,-2.1743367,0.2168231,1.4509561,0.95904666,0.04,0.04,-9.408051,2.099430561065674,-1.8869395,0.2932974,0.08204431086778641,0.18732285
423.8499999999432,-0.21969159,-0.56099916,-0.06246553,-2.1720874,0.2195011,1.4494735,0.96118534,0.04,0.04,-9.398064,2.120173692703247,-1.9141423,0.29364383,0.08206908404827118,0.18779244
423.86666666660983,-0.22238156,-0.55826485,-0.06323106,-2.169834,0.2221845,1.4479882,0.9633281,0.04,0.04,-9.387694,2.1407387256622314,-1.9415143,0.29394957,0.08209057152271271,0.18823785
423.8833333332765,-0.22507672,-0.5555252,-0.06399809,-2.1675758,0.22487304,1.4464997,0.96547526,0.04,0.04,-9.377349,2.1612136363983154,-1.9689606,0.2942167,0.0821007639169693,0.1886615
423.89999999994313,-0.22777665,-0.5527807,-0.06476656,-2.165314,0.22756635,1.4450074,0.96762615,0.04,0.04,-9.366844,2.181577444076538,-1.9965224,0.294442,0.08209770917892456,0.18906118
423.9166666666098,-0.23048109,-0.55003184,-0.0655363,-2.1630485,0.23026408,1.4435138,0.96978074,0.04,0.04,-9.356244,2.2018208503723145,-2.0241456,0.29462707,0.08207720518112183,0.18944111
423.93333333327644,-0.23318967,-0.5472785,-0.06630728,-2.1607797,0.23296595,1.4420177,0.97193843,0.04,0.04,-9.345442,2.2219300270080566,-2.0519164,0.2947722,0.08204993605613708,0.18979906
423.9499999999431,-0.23590209,-0.5445213,-0.06707932,-2.158507,0.23567155,1.4405198,0.97409916,0.04,0.04,-9.334585,2.2419028282165527,-2.0797877,0.29487738,0.08200850337743759,0.19013411
423.96666666660974,-0.23861805,-0.5417604,-0.06785239,-2.156232,0.23838069,1.4390199,0.97626275,0.04,0.04,-9.323454,2.261730432510376,-2.1077642,0.2949429,0.08195961266756058,0.19044773
423.9833333332764,-0.24133721,-0.53899646,-0.068626456,-2.1539543,0.2410929,1.4375182,0.9784287,0.04,0.04,-9.31241,2.2814486026763916,-2.1357887,0.29496735,0.08189547806978226,0.19073895
423.99999999994304,-0.24405918,-0.53622967,-0.06940132,-2.1516738,0.24380797,1.4360145,0.98059696,0.04,0.04,-9.301078,2.3010175228118896,-2.1638803,0.2949524,0.08182092756032944,0.19100732
424.0166666666097,-0.24678364,-0.5334604,-0.07017696,-2.1493914,0.24652544,1.4345098,0.98276716,0.04,0.04,-9.289633,2.3204057216644287,-2.192046,0.29489803,0.08173508197069168,0.19125184
424.03333333327635,-0.24951026,-0.5306887,-0.0709532,-2.1471071,0.24924508,1.4330038,0.98493916,0.04,0.04,-9.278117,2.3396835327148438,-2.2203128,0.29480326,0.08163861930370331,0.19147451
424.049999999943,-0.2522387,-0.5279152,-0.07172998,-2.1448214,0.2519665,1.4314963,0.98711264,0.04,0.04,-9.266479,2.358795642852783,-2.2486556,0.29466894,0.08152975142002106,0.19167551
424.06666666660965,-0.25496864,-0.5251402,-0.07250729,-2.1425347,0.2546894,1.4299883,0.98928726,0.04,0.04,-9.254748,2.3777716159820557,-2.2770362,0.2944941,0.08140640705823898,0.19185382
424.0833333332763,-0.25769988,-0.5223641,-0.07328495,-2.1402466,0.25741345,1.4284798,0.9914628,0.04,0.04,-9.24283,2.3965823650360107,-2.3055127,0.29427987,0.0812736302614212,0.19200999
424.09999999994295,-0.2604319,-0.51958686,-0.0740629,-2.1379578,0.26013827,1.4269711,0.99363905,0.04,0.04,-9.230818,2.4152309894561768,-2.3339972,0.29402557,0.08113106340169907,0.19214252
424.1166666666096,-0.26316437,-0.51680917,-0.07484098,-2.1356685,0.26286364,1.4254621,0.9958156,0.04,0.04,-9.218672,2.433694839477539,-2.3625739,0.29373243,0.0809791088104248,0.19224991
424.13333333327625,-0.2658969,-0.5140314,-0.075619146,-2.1333792,0.265589,1.4239529,0.9979922,0.04,0.04,-9.206472,2.452022075653076,-2.3911738,0.29340056,0.08081572502851486,0.19233626
424.1499999999429,-0.26862928,-0.5112539,-0.07639723,-2.1310897,0.26831424,1.422444,1.0001687,0.04,0.04,-9.194126,2.4701638221740723,-2.4197829,0.29303038,0.08064080774784088,0.19240025
424.16666666660956,-0.2713612,-0.50847685,-0.0771753,-2.1288016,0.27103892,1.4209353,1.0023447,0.04,0.04,-9.181641,2.488140344619751,-2.4484398,0.2926216,0.08045744895935059,0.19244108
424.1833333332762,-0.27409223,-0.5057005,-0.077953085,-2.1265137,0.2737627,1.4194268,1.00452,0.04,0.04,-9.169196,2.5059876441955566,-2.4771636,0.29217267,0.08025933057069778,0.1924578
424.19999999994286,-0.27682215,-0.5029255,-0.07873062,-2.1242275,0.27648523,1.4179187,1.0066946,0.04,0.04,-9.156503,2.5235843658447266,-2.50589,0.29168546,0.080050528049469,0.1924513
424.2166666666095,-0.27955058,-0.500152,-0.079507746,-2.1219425,0.27920625,1.416411,1.0088679,0.04,0.04,-9.143792,2.5410988330841064,-2.5346575,0.2911587,0.0798281580209732,0.19242482
424.23333333327616,-0.28227717,-0.4973805,-0.08028438,-2.119659,0.28192535,1.4149053,1.0110396,0.04,0.04,-9.130965,2.5583760738372803,-2.5634205,0.29059306,0.0795937031507492,0.19237429
424.2499999999428,-0.28500146,-0.4946111,-0.08106042,-2.1173766,0.28464222,1.4134008,1.0132096,0.04,0.04,-9.117968,2.5754709243774414,-2.5922165,0.28999045,0.07935374230146408,0.19229898
424.26666666660947,-0.28772333,-0.49184442,-0.08183577,-2.1150973,0.28735653,1.411897,1.0153774,0.04,0.04,-9.104872,2.5923655033111572,-2.620989,0.28935114,0.07910541445016861,0.19220077
424.2833333332761,-0.29044235,-0.48908046,-0.082610354,-2.1128201,0.29006797,1.4103955,1.0175431,0.04,0.04,-9.091813,2.609132766723633,-2.6497655,0.28867364,0.07884131371974945,0.19208013
424.29999999994277,-0.29315817,-0.48631978,-0.08338408,-2.110545,0.29277626,1.4088953,1.0197061,0.04,0.04,-9.078575,2.6256959438323975,-2.6786003,0.28795797,0.07857060432434082,0.19193715
424.3166666666094,-0.29587036,-0.4835628,-0.08415686,-2.1082735,0.2954811,1.4073977,1.0218663,0.04,0.04,-9.065166,2.64203143119812,-2.7073388,0.28720677,0.0782906711101532,0.19176884
424.3333333332761,-0.29857877,-0.48080954,-0.08492858,-2.1060052,0.2981819,1.4059017,1.0240237,0.04,0.04,-9.051821,2.658198118209839,-2.7361321,0.28641838,0.07800134271383286,0.19157684
424.3499999999427,-0.301283,-0.47806057,-0.085699126,-2.1037405,0.30087855,1.4044086,1.0261775,0.04,0.04,-9.038387,2.6742217540740967,-2.7648873,0.28559214,0.07769903540611267,0.1913636
424.3666666666094,-0.3039828,-0.47531635,-0.08646843,-2.1014793,0.30357057,1.4029164,1.0283276,0.04,0.04,-9.024817,2.690018653869629,-2.7936234,0.28473008,0.07738915085792542,0.19112593
424.383333333276,-0.30667773,-0.47257695,-0.0872364,-2.0992224,0.30625775,1.4014281,1.0304738,0.04,0.04,-9.011169,2.7056455612182617,-2.822285,0.2838326,0.07706504315137863,0.1908683
424.3999999999427,-0.30936754,-0.46984282,-0.08800296,-2.0969696,0.3089398,1.3999429,1.0326161,0.04,0.04,-8.997471,2.7210500240325928,-2.8510003,0.282899,0.07673510164022446,0.1905851
424.41666666660933,-0.31205183,-0.4671143,-0.088767976,-2.0947216,0.31161627,1.3984606,1.034754,0.04,0.04,-8.983635,2.7362606525421143,-2.879635,0.28192937,0.07639817148447037,0.19027768
424.433333333276,-0.31473038,-0.46439168,-0.0895314,-2.0924785,0.3142869,1.3969803,1.0368872,0.04,0.04,-8.969801,2.7512946128845215,-2.9082174,0.28092483,0.07605129480361938,0.18994811
424.44999999994263,-0.31740263,-0.46167532,-0.0902931,-2.0902405,0.31695133,1.3955038,1.0390153,0.04,0.04,-8.955928,2.7661349773406982,-2.9367595,0.27988458,0.07568924874067307,0.18959545
424.4666666666093,-0.32006848,-0.45896542,-0.09105301,-2.0880075,0.31960928,1.394031,1.0411383,0.04,0.04,-8.941907,2.780728816986084,-2.9652627,0.27881134,0.07532013952732086,0.18922006
424.48333333327594,-0.32272756,-0.45626256,-0.091811016,-2.0857809,0.32226047,1.3925622,1.0432559,0.04,0.04,-8.927863,2.795186996459961,-2.993719,0.27770418,0.07494370639324188,0.1888218
424.4999999999426,-0.32537955,-0.4535669,-0.09256704,-2.0835602,0.32490438,1.3910971,1.045368,0.04,0.04,-8.913822,2.8094394207000732,-3.022126,0.27656144,0.07455677539110184,0.18839955
424.51666666660924,-0.32802418,-0.45087886,-0.093320996,-2.0813456,0.32754102,1.389636,1.0474739,0.04,0.04,-8.899688,2.823495626449585,-3.0504568,0.2753844,0.07416047155857086,0.18795636
424.5333333332759,-0.33066103,-0.4481987,-0.0940728,-2.0791376,0.3301699,1.3881798,1.0495737,0.04,0.04,-8.8854265,2.8373262882232666,-3.0787008,0.27417547,0.07375714927911758,0.18748921
424.54999999994254,-0.3332898,-0.44552675,-0.09482233,-2.0769358,0.33279055,1.3867284,1.051667,0.04,0.04,-8.871221,2.8509809970855713,-3.106907,0.2729332,0.07334591448307037,0.18699937
424.5666666666092,-0.3359101,-0.44286323,-0.095569536,-2.0747414,0.335403,1.3852819,1.0537535,0.04,0.04,-8.85685,2.864427089691162,-3.135009,0.27165928,0.07293049991130829,0.18648852
424.58333333327585,-0.3385218,-0.44020858,-0.09631428,-2.0725543,0.33800665,1.38384,1.0558332,0.04,0.04,-8.842527,2.8776304721832275,-3.1630337,0.2703536,0.07250669598579407,0.18595104
424.5999999999425,-0.34112448,-0.4375631,-0.09705654,-2.070375,0.34060112,1.3824023,1.0579057,0.04,0.04,-8.828226,2.8907270431518555,-3.1909795,0.26901403,0.07207147032022476,0.1853912
424.61666666660915,-0.34371778,-0.43492714,-0.09779616,-2.0682032,0.34318638,1.3809706,1.0599706,0.04,0.04,-8.813804,2.9035775661468506,-3.218815,0.26764378,0.07162643224000931,0.18481012
424.6333333332758,-0.3463015,-0.43230096,-0.0985331,-2.0660396,0.34576184,1.3795439,1.062028,0.04,0.04,-8.799369,2.916221857070923,-3.2465758,0.26624322,0.07117549329996109,0.18420462
424.64999999994245,-0.34887528,-0.42968488,-0.099267244,-2.0638843,0.34832746,1.3781227,1.0640775,0.04,0.04,-8.784868,2.928679943084717,-3.2742188,0.2648109,0.07071767002344131,0.18357855
424.6666666666091,-0.3514387,-0.4270792,-0.09999853,-2.0617383,0.3508828,1.3767072,1.0661187,0.04,0.04,-8.770428,2.9409451484680176,-3.3017704,0.2633487,0.07024960964918137,0.18292941
424.68333333327575,-0.35399178,-0.4244843,-0.10072686,-2.0596004,0.35342744,1.3752979,1.0681514,0.04,0.04,-8.755962,2.953003406524658,-3.329238,0.26185587,0.06977272033691406,0.18225811
424.6999999999424,-0.35653397,-0.42190054,-0.10145215,-2.0574715,0.35596144,1.373894,1.0701753,0.04,0.04,-8.741357,2.964878559112549,-3.356554,0.2603342,0.06929167360067368,0.18156454
424.71666666660906,-0.35906497,-0.4193281,-0.10217431,-2.0553524,0.3584842,1.3724967,1.0721906,0.04,0.04,-8.7268,2.976506233215332,-3.3837197,0.25878426,0.06880111992359161,0.18084936
424.7333333332757,-0.36158448,-0.41676718,-0.10289328,-2.0532432,0.3609955,1.3711054,1.0741969,0.04,0.04,-8.712291,2.9880175590515137,-3.410865,0.25720364,0.06830360740423203,0.18011175
424.74999999994236,-0.3640924,-0.41421828,-0.103608936,-2.0511434,0.36349502,1.3697206,1.0761935,0.04,0.04,-8.697742,2.9992928504943848,-3.4378393,0.25559393,0.06779634952545166,0.1793532
424.766666666609,-0.36658826,-0.41168162,-0.104321234,-2.0490544,0.3659825,1.3683428,1.0781804,0.04,0.04,-8.683136,3.0103752613067627,-3.4646678,0.25395873,0.06728244572877884,0.17857271
424.78333333327566,-0.3690717,-0.40915748,-0.10503006,-2.0469751,0.36845767,1.366972,1.0801575,0.04,0.04,-8.668624,3.021289587020874,-3.4914126,0.25229427,0.06676091253757477,0.17777143
424.7999999999423,-0.3715427,-0.4066462,-0.10573533,-2.0449061,0.37092018,1.3656082,1.0821246,0.04,0.04,-8.653984,3.031952142715454,-3.517979,0.25060454,0.06623513251543045,0.1769481
424.81666666660897,-0.3740008,-0.40414807,-0.10643699,-2.0428486,0.3733698,1.3642514,1.0840815,0.04,0.04,-8.639363,3.0424704551696777,-3.5443914,0.24888785,0.06570404022932053,0.17610417
424.8333333332756,-0.37644565,-0.40166333,-0.10713495,-2.0408018,0.37580624,1.3629017,1.0860276,0.04,0.04,-8.624868,3.0527801513671875,-3.5706737,0.24714307,0.06516312807798386,0.1752409
424.84999999994227,-0.37887704,-0.39919218,-0.107829146,-2.0387666,0.3782293,1.3615594,1.0879632,0.04,0.04,-8.610275,3.0628950595855713,-3.5968235,0.245375,0.0646158903837204,0.17435372
424.8666666666089,-0.38129473,-0.39673507,-0.108519465,-2.036743,0.38063863,1.3602247,1.0898877,0.04,0.04,-8.595805,3.0728514194488525,-3.6228442,0.24358006,0.06405907869338989,0.17344646
424.8833333332756,-0.38369846,-0.39429218,-0.10920584,-2.0347307,0.3830339,1.3588979,1.0918012,0.04,0.04,-8.581248,3.0825839042663574,-3.6486783,0.24176069,0.06349650025367737,0.17251809
424.8999999999422,-0.38608792,-0.39186388,-0.10988821,-2.0327308,0.38541475,1.3575791,1.0937032,0.04,0.04,-8.566713,3.0921506881713867,-3.6743605,0.23991635,0.06292947381734848,0.17156915
424.9166666666089,-0.3884629,-0.3894505,-0.11056647,-2.0307431,0.38778117,1.3562684,1.0955936,0.04,0.04,-8.552271,3.1015446186065674,-3.6998856,0.23804766,0.06235426664352417,0.17059982
424.9333333332755,-0.39082295,-0.3870521,-0.111240596,-2.0287678,0.39013276,1.3549657,1.0974722,0.04,0.04,-8.537797,3.1107430458068848,-3.7252316,0.23615602,0.06177452951669693,0.16961162
424.9499999999422,-0.393168,-0.384669,-0.11191047,-2.0268047,0.39246932,1.3536713,1.0993385,0.04,0.04,-8.523382,3.1197407245635986,-3.7504156,0.23424086,0.061186518520116806,0.16860297
424.96666666660883,-0.39549774,-0.38230157,-0.112576015,-2.0248547,0.39479044,1.3523852,1.101193,0.04,0.04,-8.508917,3.1285207271575928,-3.775376,0.23230514,0.06059521064162254,0.16757347
424.9833333332755,-0.3978118,-0.37994993,-0.113237195,-2.022918,0.3970959,1.3511081,1.1030349,0.04,0.04,-8.494608,3.1372275352478027,-3.8002508,0.23034513,0.05999533832073212,0.16652568
424.99999999994213,-0.40011013,-0.37761456,-0.113893874,-2.0209947,0.39938542,1.3498397,1.104864,0.04,0.04,-8.480312,3.145702362060547,-3.824942,0.22836393,0.05939050391316414,0.1654595
425.0166666666088,-0.40239233,-0.3752955,-0.11454602,-2.0190845,0.4016589,1.3485799,1.1066803,0.04,0.04,-8.46603,3.15400767326355,-3.8493903,0.22636175,0.05877985432744026,0.16437426
425.03333333327544,-0.40465817,-0.3729931,-0.115193576,-2.0171883,0.40391612,1.3473294,1.1084834,0.04,0.04,-8.4517765,3.1621382236480713,-3.8736908,0.22433926,0.05816353112459183,0.16327159
425.0499999999421,-0.4069074,-0.37070757,-0.11583646,-2.015306,0.4061567,1.3460879,1.1102732,0.04,0.04,-8.43763,3.170076370239258,-3.8977895,0.2222969,0.057540636509656906,0.1621485
425.06666666660874,-0.40913993,-0.36843914,-0.116474584,-2.0134385,0.40838054,1.344856,1.1120497,0.04,0.04,-8.423478,3.1778526306152344,-3.9217088,0.22023503,0.056913308799266815,0.16100669
425.0833333332754,-0.4113554,-0.36618814,-0.11710791,-2.011585,0.4105873,1.3436334,1.1138126,0.04,0.04,-8.409501,3.1854639053344727,-3.9454257,0.21815223,0.05627726763486862,0.15984735
425.09999999994204,-0.41355348,-0.36395475,-0.11773635,-2.009746,0.41277677,1.3424206,1.1155616,0.04,0.04,-8.395431,3.1929404735565186,-3.9689677,0.21605113,0.05563746765255928,0.15867051
425.1166666666087,-0.41573417,-0.3617392,-0.11835983,-2.007922,0.41494864,1.3412172,1.1172966,0.04,0.04,-8.381487,3.2002031803131104,-3.992301,0.2139322,0.05499283969402313,0.15747543
425.13333333327535,-0.4178971,-0.3595417,-0.11897829,-2.0061128,0.41710287,1.3400238,1.1190176,0.04,0.04,-8.3675995,3.2073283195495605,-4.015431,0.21179534,0.05434206500649452,0.15626208
425.149999999942,-0.42004207,-0.3573625,-0.11959168,-2.0043187,0.41923907,1.3388404,1.1207241,0.04,0.04,-8.353795,3.2142839431762695,-4.0383554,0.20963992,0.05368596687912941,0.15503171
425.16666666660865,-0.42216885,-0.3552019,-0.120199986,-2.0025399,0.4213571,1.3376671,1.1224159,0.04,0.04,-8.340035,3.2210803031921387,-4.06107,0.20746881,0.05302530527114868,0.15378396
425.1833333332753,-0.42427722,-0.3530599,-0.12080307,-2.000776,0.4234566,1.336504,1.124093,0.04,0.04,-8.326338,3.227712392807007,-4.083575,0.20528178,0.05236096307635307,0.1525193
425.19999999994195,-0.42636707,-0.35093686,-0.12140091,-1.9990276,0.4255376,1.3353511,1.1257555,0.04,0.04,-8.312692,3.2341833114624023,-4.1058598,0.20307967,0.05169358104467392,0.1512397
425.2166666666086,-0.428438,-0.34883302,-0.121993415,-1.9972954,0.42759976,1.3342084,1.127403,0.04,0.04,-8.299168,3.2404797077178955,-4.1278877,0.20086147,0.05102236568927765,0.14994496
425.23333333327525,-0.43049002,-0.34674868,-0.122580536,-1.9955788,0.42964295,1.3330765,1.1290352,0.04,0.04,-8.285761,3.2467103004455566,-4.1497893,0.1986276,0.05034360662102699,0.14863561
425.2499999999419,-0.4325227,-0.34468386,-0.12316225,-1.9938784,0.43166682,1.3319554,1.1306518,0.04,0.04,-8.272333,3.252701997756958,-4.1714144,0.19638139,0.049663737416267395,0.14730732
425.26666666660856,-0.434536,-0.34263882,-0.12373845,-1.9921947,0.43367136,1.330845,1.1322528,0.04,0.04,-8.259079,3.2585859298706055,-4.192843,0.19412176,0.04898020997643471,0.1459645
425.2833333332752,-0.4365297,-0.34061375,-0.12430912,-1.9905272,0.4356562,1.3297454,1.1338384,0.04,0.04,-8.245949,3.2643332481384277,-4.214046,0.19184914,0.04828991740942001,0.14460559
425.29999999994186,-0.43850365,-0.33860886,-0.124874204,-1.9888762,0.4376213,1.3286567,1.1354085,0.04,0.04,-8.232833,3.2699196338653564,-4.2350054,0.18956247,0.047596756368875504,0.14323318
425.3166666666085,-0.44045755,-0.33662432,-0.12543364,-1.9872423,0.43956637,1.327579,1.1369623,0.04,0.04,-8.219817,3.275367021560669,-4.255748,0.18726267,0.04690050333738327,0.14184555
425.33333333327516,-0.44239134,-0.33466023,-0.12598737,-1.9856254,0.44149143,1.3265126,1.1385,0.04,0.04,-8.206997,3.2806477546691895,-4.276232,0.18495256,0.04619864746928215,0.14044519
425.3499999999418,-0.44430476,-0.3327169,-0.12653536,-1.9840255,0.44339603,1.3254572,1.1400213,0.04,0.04,-8.194177,3.285858392715454,-4.2965703,0.18263039,0.045492932200431824,0.13903053
425.36666666660847,-0.4461977,-0.33079448,-0.12707753,-1.9824424,0.44528028,1.3244134,1.1415269,0.04,0.04,-8.181484,3.2908968925476074,-4.3166137,0.18029894,0.044784266501665115,0.13760436
425.3833333332751,-0.44806996,-0.32889307,-0.12761384,-1.9808772,0.44714364,1.3233811,1.1430166,0.04,0.04,-8.168859,3.2957799434661865,-4.3364162,0.17795505,0.04407365247607231,0.13616294
425.39999999994177,-0.4499215,-0.32701278,-0.12814428,-1.979329,0.44898626,1.3223599,1.1444881,0.04,0.04,-8.15644,3.3005895614624023,-4.356029,0.17559779,0.04335923120379448,0.13471267
425.4166666666084,-0.45175192,-0.32515392,-0.12866877,-1.9777986,0.45080805,1.3213503,1.1459436,0.04,0.04,-8.144035,3.305216073989868,-4.375361,0.17323884,0.04264114424586296,0.13324878
425.4333333332751,-0.4535613,-0.3233165,-0.12918729,-1.976286,0.45260867,1.3203527,1.1473824,0.04,0.04,-8.131811,3.3097472190856934,-4.394467,0.1708678,0.04191902279853821,0.13177407
425.4499999999417,-0.45534945,-0.3215007,-0.12969978,-1.974791,0.45438808,1.3193667,1.1488042,0.04,0.04,-8.119684,3.314127206802368,-4.4133472,0.16848758,0.041193824261426926,0.13028483
425.4666666666084,-0.45711613,-0.31970686,-0.13020615,-1.9733139,0.45614606,1.3183929,1.1502088,0.04,0.04,-8.107653,3.3183488845825195,-4.4319224,0.16610003,0.04046740382909775,0.12878427
425.483333333275,-0.45886132,-0.31793487,-0.13070646,-1.9718556,0.45788255,1.3174309,1.151596,0.04,0.04,-8.095714,3.322537660598755,-4.450334,0.16370668,0.03973995894193649,0.12727351
425.4999999999417,-0.46058473,-0.31618494,-0.13120061,-1.9704145,0.4595974,1.3164808,1.1529661,0.04,0.04,-8.084013,3.326613426208496,-4.4685082,0.16130668,0.03900698944926262,0.12575324
425.51666666660833,-0.46228647,-0.3144572,-0.13168858,-1.968992,0.46129042,1.3155428,1.1543187,0.04,0.04,-8.072263,3.3304781913757324,-4.4863596,0.15890089,0.038275137543678284,0.12422169
425.533333333275,-0.46396628,-0.31275186,-0.13217036,-1.9675883,0.46296155,1.314617,1.1556537,0.04,0.04,-8.06076,3.33428692817688,-4.504021,0.15649015,0.03753997012972832,0.1226778
425.54999999994163,-0.46562394,-0.3110689,-0.13264589,-1.9662032,0.46461067,1.3137034,1.1569712,0.04,0.04,-8.049406,3.3380329608917236,-4.5214357,0.1540734,0.03680233284831047,0.12112882
425.5666666666083,-0.4672594,-0.30940843,-0.13311511,-1.964836,0.46623772,1.312802,1.1582711,0.04,0.04,-8.038169,3.341606378555298,-4.538596,0.15165192,0.03606086224317551,0.11956971
425.58333333327494,-0.4688728,-0.30777064,-0.13357808,-1.9634876,0.46784255,1.311913,1.1595532,0.04,0.04,-8.02699,3.3450186252593994,-4.5554137,0.14922763,0.03532043844461441,0.11800336
425.5999999999416,-0.4704638,-0.3061556,-0.13403465,-1.9621584,0.46942502,1.3110362,1.1608177,0.04,0.04,-8.015963,3.348438262939453,-4.57214,0.14679939,0.03457844629883766,0.11642477
425.61666666660824,-0.47203237,-0.30456346,-0.13448486,-1.960848,0.47098505,1.3101717,1.1620641,0.04,0.04,-8.005155,3.351738929748535,-4.5885534,0.1443661,0.033832475543022156,0.11484184
425.6333333332749,-0.4735783,-0.30299422,-0.13492867,-1.9595566,0.4725226,1.3093199,1.1632924,0.04,0.04,-7.994419,3.3549273014068604,-4.6046963,0.14193214,0.033085666596889496,0.113254845
425.64999999994154,-0.47510168,-0.30144787,-0.13536611,-1.958284,0.4740377,1.3084804,1.1645025,0.04,0.04,-7.983848,3.3579819202423096,-4.620615,0.13949664,0.03233754634857178,0.111659676
425.6666666666082,-0.47660244,-0.2999247,-0.135797,-1.9570303,0.47553003,1.3076538,1.1656948,0.04,0.04,-7.97339,3.360948324203491,-4.6362753,0.1370601,0.03158748894929886,0.11005503
425.68333333327485,-0.47808024,-0.29842475,-0.13622151,-1.9557955,0.4769997,1.3068396,1.1668692,0.04,0.04,-7.96304,3.363814353942871,-4.6516647,0.13462235,0.030840104445815086,0.108444676
425.6999999999415,-0.47953528,-0.29694808,-0.13663948,-1.9545797,0.47844657,1.306038,1.1680254,0.04,0.04,-7.9528885,3.3665995597839355,-4.6667924,0.13218403,0.030090559273958206,0.10682883
425.71666666660815,-0.48096746,-0.29549456,-0.13705097,-1.9533834,0.47987065,1.3052491,1.1691632,0.04,0.04,-7.9428716,3.3692376613616943,-4.68161,0.12974656,0.02934221364557743,0.10520765
425.7333333332748,-0.48237664,-0.29406437,-0.13745594,-1.9522065,0.48127183,1.3044727,1.1702825,0.04,0.04,-7.9330306,3.3719120025634766,-4.69634,0.12730913,0.028590843081474304,0.103581496
425.74999999994145,-0.48376283,-0.29265758,-0.13785438,-1.9510487,0.48264998,1.3037094,1.1713836,0.04,0.04,-7.9233165,3.3744328022003174,-4.7107196,0.12487438,0.02783874236047268,0.101952136
425.7666666666081,-0.48512605,-0.29127422,-0.13824625,-1.9499104,0.48400524,1.3029579,1.1724664,0.04,0.04,-7.9137263,3.3768694400787354,-4.724863,0.122440435,0.0270884670317173,0.10031835
425.78333333327475,-0.48646605,-0.28991437,-0.1386316,-1.9487913,0.48533747,1.3022197,1.1735308,0.04,0.04,-7.9043403,3.379229784011841,-4.7387257,0.12000927,0.02633429504930973,0.098682575
425.7999999999414,-0.48778296,-0.2885779,-0.13901038,-1.9476914,0.48664665,1.3014945,1.1745768,0.04,0.04,-7.8950458,3.3814799785614014,-4.752357,0.11758115,0.02558290772140026,0.097041905
425.81666666660806,-0.48907676,-0.28726503,-0.13938259,-1.9466109,0.48793277,1.3007816,1.1756042,0.04,0.04,-7.8859234,3.3836865425109863,-4.7657332,0.11515711,0.024832790717482567,0.09540057
425.8333333332747,-0.49034745,-0.28597555,-0.13974819,-1.9455498,0.48919582,1.300082,1.1766133,0.04,0.04,-7.8770027,3.3857550621032715,-4.7787843,0.11273739,0.024082088842988014,0.093756996
425.84999999994136,-0.49159497,-0.28470957,-0.14010718,-1.944508,0.49043584,1.2993948,1.1776041,0.04,0.04,-7.868167,3.3878471851348877,-4.7917347,0.1103216,0.02333337999880314,0.09211218
425.866666666608,-0.4928193,-0.28346726,-0.1404596,-1.9434856,0.49165282,1.2987207,1.1785764,0.04,0.04,-7.8594975,3.3898043632507324,-4.8043385,0.107911475,0.02258562296628952,0.09046682
425.88333333327466,-0.4940205,-0.2822484,-0.14080542,-1.9424827,0.4928467,1.2980592,1.1795304,0.04,0.04,-7.8510184,3.391714572906494,-4.8166914,0.105507284,0.02183973416686058,0.08882313
425.8999999999413,-0.49519855,-0.28105304,-0.14114466,-1.9414991,0.4940176,1.2974107,1.180466,0.04,0.04,-7.842685,3.3935251235961914,-4.8288045,0.103107944,0.02109372988343239,0.08717671
425.91666666660797,-0.4963534,-0.27988118,-0.14147732,-1.9405348,0.49516538,1.2967749,1.1813831,0.04,0.04,-7.8344994,3.395272731781006,-4.840664,0.10071576,0.020350027829408646,0.08552939
425.9333333332746,-0.49748516,-0.2787328,-0.14180337,-1.93959,0.49629018,1.2961515,1.1822819,0.04,0.04,-7.8264923,3.3969674110412598,-4.8522625,0.098331705,0.01960732787847519,0.083883904
425.94999999994127,-0.4985938,-0.2776079,-0.14212286,-1.9386644,0.49739194,1.2955412,1.1831622,0.04,0.04,-7.8186293,3.398575782775879,-4.8636236,0.09595522,0.018866058439016342,0.082239226
425.9666666666079,-0.49967948,-0.2765064,-0.14243579,-1.937758,0.49847078,1.2949433,1.1840242,0.04,0.04,-7.8109717,3.400099277496338,-4.8746734,0.09358802,0.018127216026186943,0.08059711
425.9833333332746,-0.50074196,-0.27542824,-0.14274214,-1.9368708,0.49952668,1.2943583,1.1848676,0.04,0.04,-7.803359,3.4016289710998535,-4.885569,0.09123048,0.01739152893424034,0.07895737
425.9999999999412,-0.5017816,-0.27437347,-0.14304194,-1.9360029,0.50055975,1.2937857,1.1856929,0.04,0.04,-7.7960067,3.4030659198760986,-4.896178,0.08888375,0.016657629981637,0.07732094
426.0166666666079,-0.50279826,-0.27334192,-0.14333524,-1.9351542,0.50157,1.2932262,1.1865,0.04,0.04,-7.788785,3.404439687728882,-4.9065228,0.0865476,0.015926480293273926,0.07568793
426.0333333332745,-0.5037919,-0.2723336,-0.14362203,-1.9343245,0.5025576,1.2926791,1.1872889,0.04,0.04,-7.7817426,3.405761957168579,-4.9166603,0.0842214,0.0151985390111804,0.07405753
426.0499999999412,-0.5047629,-0.27134833,-0.14390226,-1.9335139,0.50352234,1.2921444,1.18806,0.04,0.04,-7.774834,3.4070193767547607,-4.9265046,0.08190812,0.01447394397109747,0.07243486
426.06666666660783,-0.5057112,-0.2703861,-0.14417602,-1.9327221,0.50446457,1.2916224,1.1888127,0.04,0.04,-7.768113,3.408216714859009,-4.9361377,0.07960499,0.013752315193414688,0.07081643
426.0833333332745,-0.50663686,-0.26944667,-0.14444338,-1.9319496,0.50538427,1.2911124,1.1895475,0.04,0.04,-7.761569,3.4093375205993652,-4.9454565,0.07731716,0.013035056181252003,0.06920306
426.09999999994113,-0.50754,-0.26853004,-0.14470427,-1.9311957,0.5062816,1.2906153,1.1902646,0.04,0.04,-7.755179,3.4105002880096436,-4.954674,0.07504051,0.012317772954702377,0.06759803
426.1166666666078,-0.50842065,-0.2676363,-0.14495876,-1.9304606,0.5071568,1.29013,1.1909637,0.04,0.04,-7.7489047,3.411536931991577,-4.963573,0.07277811,0.01160669606178999,0.06599976
426.13333333327444,-0.5092791,-0.26676515,-0.14520693,-1.929744,0.50800997,1.2896574,1.1916453,0.04,0.04,-7.74282,3.4125277996063232,-4.972203,0.07053144,0.010897967033088207,0.064407945
426.1499999999411,-0.51011527,-0.26591647,-0.14544879,-1.9290459,0.5088409,1.2891971,1.1923095,0.04,0.04,-7.736873,3.4134669303894043,-4.9806333,0.068300016,0.010194320231676102,0.06282096
426.16666666660774,-0.51092947,-0.2650903,-0.14568433,-1.9283664,0.5096499,1.2887489,1.1929559,0.04,0.04,-7.7311034,3.414374589920044,-4.9888263,0.06608233,0.009496358223259449,0.061242573
426.1833333332744,-0.5117215,-0.26428628,-0.1459136,-1.927705,0.51043695,1.2883127,1.1935847,0.04,0.04,-7.725503,3.415252447128296,-4.9967713,0.063882366,0.008802921511232853,0.05967444
426.19999999994104,-0.5124917,-0.26350427,-0.1461366,-1.9270619,0.5112026,1.2878886,1.1941963,0.04,0.04,-7.7200418,3.4160568714141846,-5.004472,0.061701342,0.008115570992231369,0.058118295
426.2166666666077,-0.5132402,-0.2627443,-0.14635341,-1.9264369,0.5119468,1.2874764,1.194791,0.04,0.04,-7.714817,3.416778802871704,-5.011917,0.05953738,0.0074327257461845875,0.056571443
426.23333333327435,-0.51396734,-0.26200613,-0.14656408,-1.9258296,0.5126695,1.287076,1.1953682,0.04,0.04,-7.709666,3.4175527095794678,-5.019215,0.057391413,0.006754008121788502,0.05503633
426.249999999941,-0.5146731,-0.2612895,-0.14676866,-1.9252404,0.51337093,1.2866871,1.1959287,0.04,0.04,-7.7046504,3.41823410987854,-5.026222,0.055266157,0.006083087529987097,0.053511642
426.26666666660765,-0.5153575,-0.26059443,-0.14696713,-1.9246686,0.5140515,1.28631,1.1964724,0.04,0.04,-7.6998715,3.4188992977142334,-5.033036,0.053158946,0.005415689200162888,0.051999886
426.2833333332743,-0.51602083,-0.25992054,-0.1471596,-1.9241145,0.51471114,1.2859442,1.1969995,0.04,0.04,-7.6951914,3.4194633960723877,-5.0395803,0.051074397,0.00475574703887105,0.050498962
426.29999999994095,-0.5166633,-0.25926775,-0.14734617,-1.9235777,0.51535004,1.2855899,1.1975104,0.04,0.04,-7.6907215,3.420045852661133,-5.045944,0.049009595,0.004100572783499956,0.049014002
426.3166666666076,-0.51728535,-0.25863582,-0.14752683,-1.9230579,0.5159686,1.2852472,1.1980045,0.04,0.039999977,-7.686382,3.4205589294433594,-5.052071,0.046966642,0.003451994387432933,0.04754191
426.33333333327425,-0.5178868,-0.2580246,-0.14770164,-1.9225553,0.5165669,1.2849159,1.1984826,0.04,0.039999973,-7.682189,3.421030282974243,-5.0579343,0.044947267,0.002812202787026763,0.046083335
426.3499999999409,-0.5184681,-0.25743386,-0.14787066,-1.9220694,0.5171453,1.2845955,1.1989446,0.04,0.03999998,-7.678116,3.4214978218078613,-5.06368,0.042950533,0.002179575152695179,0.044636782
426.36666666660756,-0.5190294,-0.25686327,-0.14803395,-1.9216002,0.51770365,1.2842861,1.1993908,0.04,0.039999966,-7.6742206,3.4219369888305664,-5.069145,0.040979315,0.001553377602249384,0.04320848
426.3833333332742,-0.51957077,-0.2563127,-0.14819157,-1.9211475,0.51824254,1.2839874,1.1998212,0.04,0.039999958,-7.6704874,3.4223320484161377,-5.074433,0.03903146,0.000935571501031518,0.041797273
426.39999999994086,-0.5200926,-0.25578186,-0.14834361,-1.920711,0.5187622,1.2836994,1.2002363,0.04,0.039999954,-7.6668997,3.4226622581481934,-5.0794697,0.03711042,0.0003240967635065317,0.040400878
426.4166666666075,-0.5205951,-0.25527048,-0.14849009,-1.9202904,0.51926255,1.2834222,1.2006363,0.04,0.039999947,-7.66347,3.4230055809020996,-5.08433,0.035215084,-0.00027976365527138114,0.039024472
426.43333333327416,-0.52107847,-0.2547784,-0.14863113,-1.9198859,0.5197441,1.2831554,1.201021,0.04,0.039999966,-7.6601253,3.423232316970825,-5.0889683,0.033346687,-0.0008734709117561579,0.037660543
426.4499999999408,-0.52154326,-0.25430524,-0.14876683,-1.9194973,0.5202071,1.282899,1.2013909,0.04,0.03999991,-7.6570325,3.4236066341400146,-5.0934415,0.03150664,-0.0014584489399567246,0.03633044
426.46666666660747,-0.5219893,-0.25385082,-0.14889719,-1.9191239,0.52065176,1.2826525,1.2017462,0.04,0.03999993,-7.6540513,3.4237210750579834,-5.0976467,0.029693943,-0.002037671860307455,0.03500321
426.4833333332741,-0.522417,-0.25341475,-0.14902236,-1.9187655,0.5210785,1.2824161,1.2020872,0.04,0.039999936,-7.6511283,3.4239556789398193,-5.101735,0.027910506,-0.002607036614790559,0.0337007
426.49999999994077,-0.5228269,-0.2529968,-0.14914238,-1.9184222,0.5214874,1.2821897,1.2024138,0.04,0.039999925,-7.6484146,3.424136161804199,-5.1056027,0.026157327,-0.0031676089856773615,0.0324216
426.5166666666074,-0.52321917,-0.25259668,-0.14925733,-1.9180934,0.52187866,1.2819728,1.2027267,0.04,0.039999917,-7.6457977,3.424295663833618,-5.1092772,0.02443584,-0.003716293489560485,0.031165304
426.5333333332741,-0.523594,-0.25221404,-0.14936729,-1.9177788,0.52225286,1.2817656,1.2030257,0.04,0.039999917,-7.643331,3.424373149871826,-5.1127543,0.022744596,-0.00425710529088974,0.0299257
426.5499999999407,-0.5239517,-0.25184867,-0.14947242,-1.9174786,0.52261025,1.2815672,1.2033113,0.04,0.039999906,-7.640973,3.424485921859741,-5.11605,0.021087583,-0.0047843726351857185,0.028715143
426.5666666666074,-0.52429295,-0.2515001,-0.14957274,-1.9171923,0.5229513,1.2813784,1.203584,0.04,0.03999991,-7.6387997,3.4245166778564453,-5.119145,0.019463481,-0.005304827354848385,0.027523734
426.583333333274,-0.5246177,-0.25116795,-0.14966837,-1.9169192,0.5232762,1.2811983,1.2038436,0.04,0.039999906,-7.636775,3.4245619773864746,-5.1220846,0.017871594,-0.005814399570226669,0.026356192
426.5999999999407,-0.52492636,-0.250852,-0.1497594,-1.9166596,0.5235853,1.2810271,1.2040905,0.04,0.03999991,-7.63475,3.4245553016662598,-5.124865,0.016316358,-0.006311750505119562,0.025213657
426.61666666660733,-0.52521926,-0.25055185,-0.14984596,-1.9164127,0.5238789,1.2808644,1.204325,0.04,0.03999991,-7.6329517,3.4245543479919434,-5.127474,0.014796289,-0.006798248738050461,0.024095362
426.633333333274,-0.52549684,-0.25026712,-0.14992806,-1.9161785,0.5241572,1.28071,1.2045475,0.04,0.039999917,-7.63122,3.4244675636291504,-5.129869,0.013314662,-0.007273552939295769,0.02299957
426.64999999994063,-0.5257594,-0.24999742,-0.15000589,-1.9159571,0.52442104,1.2805636,1.204758,0.04,0.03999991,-7.6296535,3.424468994140625,-5.132155,0.011869146,-0.007735060527920723,0.021940148
426.6666666666073,-0.5260075,-0.24974237,-0.15007964,-1.9157473,0.52467024,1.2804255,1.2049572,0.04,0.0399999,-7.628245,3.4243714809417725,-5.1342697,0.010462925,-0.008188525214791298,0.020905113
426.68333333327394,-0.5262414,-0.2495016,-0.15014924,-1.9155493,0.52490586,1.2802951,1.2051455,0.04,0.039999906,-7.626824,3.4242396354675293,-5.136213,0.009095907,-0.008625796064734459,0.019895963
426.6999999999406,-0.5264616,-0.24927461,-0.15021493,-1.9153627,0.52512795,1.280172,1.205323,0.04,0.03999991,-7.6255913,3.424112319946289,-5.1380053,0.007767631,-0.00905174296349287,0.018915119
426.71666666660724,-0.5266685,-0.24906114,-0.15027674,-1.9151874,0.52533674,1.2800564,1.20549,0.04,0.039999906,-7.624504,3.423952341079712,-5.1396403,0.006479521,-0.009465792216360569,0.01796483
426.7333333332739,-0.5268623,-0.24886063,-0.15033486,-1.915023,0.52553284,1.2799479,1.2056466,0.04,0.039999906,-7.623449,3.423804759979248,-5.1411796,0.0052328757,-0.009866242296993732,0.017044714
426.74999999994054,-0.5270435,-0.24867266,-0.15038939,-1.9148686,0.5257166,1.2798461,1.2057935,0.04,0.039999902,-7.6225605,3.4236245155334473,-5.142573,0.004029272,-0.010253767482936382,0.01615645
426.7666666666072,-0.5272128,-0.2484968,-0.15044048,-1.9147242,0.5258885,1.2797508,1.205931,0.04,0.03999991,-7.6217136,3.423361301422119,-5.1437893,0.002870038,-0.010627880692481995,0.015295692
426.78333333327384,-0.5273704,-0.24833266,-0.1504882,-1.9145894,0.52604914,1.2796618,1.2060593,0.04,0.039999913,-7.6209717,3.4231622219085693,-5.144894,0.001755049,-0.010986946523189545,0.0144718615
426.7999999999405,-0.5275168,-0.24817969,-0.15053272,-1.9144639,0.52619874,1.279579,1.2061785,0.04,0.039999913,-7.620345,3.4229233264923096,-5.145868,0.00068481866,-0.011331796646118164,0.0136831915
426.81666666660715,-0.52765244,-0.24803744,-0.1505742,-1.9143473,0.52633756,1.279502,1.2062896,0.04,0.039999917,-7.6197977,3.4226064682006836,-5.1467195,-0.00033663484,-0.011662439443171024,0.012921941
426.8333333332738,-0.5277778,-0.24790534,-0.15061271,-1.9142386,0.52646667,1.2794306,1.2063929,0.04,0.039999913,-7.619394,3.4223690032958984,-5.1474614,-0.0013127881,-0.0119776651263237,0.012205108
426.84999999994045,-0.52789354,-0.24778298,-0.15064842,-1.9141378,0.5265862,1.2793641,1.2064886,0.04,0.039999936,-7.6189284,3.4219553470611572,-5.1480722,-0.0022393295,-0.012276750057935715,0.0115115885
426.8666666666071,-0.528,-0.24766983,-0.15068151,-1.9140447,0.5266968,1.2793031,1.206577,0.04,0.039999917,-7.6186614,3.4217138290405273,-5.148589,-0.0031175073,-0.01256098784506321,0.010865091
426.88333333327375,-0.52809805,-0.2475654,-0.15071212,-1.9139587,0.5267989,1.2792468,1.2066585,0.04,0.039999932,-7.618416,3.4213192462921143,-5.1490006,-0.003944017,-0.012827941216528416,0.01024803
426.8999999999404,-0.5281877,-0.24746911,-0.15074039,-1.9138796,0.5268931,1.2791946,1.2067337,0.04,0.03999992,-7.618259,3.421015977859497,-5.149323,-0.00472016,-0.013077081181108952,0.009673169
426.91666666660706,-0.52826965,-0.24738047,-0.15076642,-1.9138074,0.52697974,1.2791462,1.2068028,0.04,0.03999993,-7.6182303,3.4206275939941406,-5.149552,-0.0054452308,-0.013313861563801765,0.009134
426.9333333332737,-0.5283445,-0.24729893,-0.15079045,-1.9137402,0.52705944,1.2791017,1.2068664,0.04,0.03999992,-7.618276,3.4202775955200195,-5.1497135,-0.006117164,-0.01353582926094532,0.0086392565
426.94999999994036,-0.5284128,-0.24722387,-0.15081261,-1.913679,0.52713275,1.279061,1.2069247,0.04,0.03999993,-7.6182256,3.419811964035034,-5.149735,-0.0067335903,-0.013737943954765797,0.008179396
426.966666666607,-0.5284752,-0.24715479,-0.150833,-1.9136225,0.52720016,1.2790239,1.2069788,0.04,0.039999932,-7.6183715,3.41945219039917,-5.1498094,-0.0073003615,-0.01392658893018961,0.0077587483
426.98333333327366,-0.528532,-0.24709122,-0.15085182,-1.9135702,0.5272622,1.2789899,1.207029,0.04,0.03999995,-7.618379,3.4190564155578613,-5.149858,-0.00782209,-0.014098301529884338,0.0073699923
426.9999999999403,-0.52858394,-0.24703273,-0.15086915,-1.9135219,0.5273194,1.2789581,1.2070752,0.04,0.03999992,-7.6184173,3.4187326431274414,-5.1498713,-0.008301178,-0.014254502952098846,0.0070188334
427.01666666660697,-0.5286313,-0.24697888,-0.15088512,-1.9134775,0.52737194,1.2789289,1.2071178,0.04,0.039999936,-7.618457,3.418379068374634,-5.149873,-0.0087405145,-0.01440147589892149,0.0066920808
427.0333333332736,-0.5286746,-0.24692935,-0.15089983,-1.9134368,0.52742034,1.2789023,1.2071567,0.04,0.039999958,-7.618514,3.4180943965911865,-5.149914,-0.0091437595,-0.014537746086716652,0.0063909446
427.04999999994027,-0.5287142,-0.2468838,-0.15091337,-1.9133996,0.5274648,1.2788776,1.2071917,0.04,0.039999936,-7.618553,3.4178719520568848,-5.149953,-0.009512041,-0.014661733992397785,0.0061192648
427.0666666666069,-0.52875006,-0.24684192,-0.15092587,-1.9133655,0.52750593,1.2788552,1.2072234,0.04,0.039999943,-7.6186132,3.417640447616577,-5.149987,-0.009847544,-0.014778709970414639,0.005867518
427.0833333332736,-0.52878267,-0.24680333,-0.1509374,-1.9133338,0.5275436,1.2788343,1.2072544,0.04,0.03999995,-7.618662,3.4174163341522217,-5.15,-0.010152023,-0.014886452816426754,0.005636605
427.0999999999402,-0.5288125,-0.24676788,-0.15094805,-1.9133044,0.5275781,1.2788149,1.2072818,0.04,0.03999994,-7.6186657,3.417210340499878,-5.1500173,-0.010438626,-0.014985643327236176,0.0054272525
427.1166666666069,-0.52883965,-0.24673523,-0.15095781,-1.913278,0.52760994,1.2787975,1.2073071,0.04,0.039999936,-7.61867,3.417034864425659,-5.1500225,-0.010696231,-0.015077278949320316,0.005235344
427.1333333332735,-0.52886415,-0.2467052,-0.15096682,-1.9132532,0.52763957,1.278781,1.2073306,0.04,0.03999995,-7.6187377,3.4168646335601807,-5.150079,-0.010933557,-0.01516260951757431,0.0050565717
427.1499999999402,-0.5288867,-0.24667759,-0.15097515,-1.9132307,0.52766645,1.2787663,1.207352,0.04,0.03999994,-7.61873,3.4167001247406006,-5.150056,-0.01115,-0.015242202207446098,0.004894935
427.16666666660683,-0.52890724,-0.24665214,-0.1509828,-1.9132097,0.5276909,1.2787527,1.2073717,0.04,0.039999954,-7.6187506,3.4165773391723633,-5.150103,-0.011349085,-0.015314865857362747,0.0047446364
427.1833333332735,-0.5289259,-0.2466287,-0.15098986,-1.9131907,0.52771336,1.27874,1.2073904,0.04,0.03999994,-7.6187525,3.4164834022521973,-5.1501184,-0.011531272,-0.015380176715552807,0.004611331
427.19999999994013,-0.52894294,-0.24660715,-0.15099639,-1.9131728,0.5277344,1.2787275,1.2074064,0.04,0.03999994,-7.6187997,3.4163708686828613,-5.1501493,-0.011701776,-0.015442750416696072,0.004488081
427.2166666666068,-0.52895856,-0.2465874,-0.15100239,-1.9131566,0.5277541,1.2787172,1.2074221,0.04,0.039999943,-7.6187744,3.4162466526031494,-5.1501102,-0.011850902,-0.015503139235079288,0.0043740207
427.23333333327344,-0.5289726,-0.24656916,-0.15100794,-1.9131417,0.52777225,1.2787075,1.2074369,0.04,0.039999958,-7.618768,3.4161431789398193,-5.150167,-0.011992608,-0.01555579248815775,0.0042647123
427.2499999999401,-0.5289855,-0.24655238,-0.15101303,-1.9131277,0.52778846,1.2786987,1.2074491,0.04,0.039999958,-7.618785,3.4160757064819336,-5.15018,-0.012123637,-0.015604925341904163,0.0041666687
427.26666666660674,-0.5289973,-0.24653694,-0.15101771,-1.913115,0.52780306,1.2786899,1.2074611,0.04,0.039999958,-7.618759,3.4159982204437256,-5.1501784,-0.0122369565,-0.015647998079657555,0.0040776185
427.2833333332734,-0.529008,-0.24652271,-0.15102203,-1.9131038,0.5278173,1.2786812,1.2074729,0.04,0.039999958,-7.6188064,3.415966510772705,-5.1502,-0.012346021,-0.015691393986344337,0.0039986516
427.29999999994004,-0.5290178,-0.24650964,-0.15102603,-1.9130931,0.5278299,1.2786746,1.2074839,0.04,0.03999996,-7.61886,3.4158966541290283,-5.1502213,-0.012449137,-0.015737008303403854,0.003925189
427.3166666666067,-0.5290266,-0.24649763,-0.15102972,-1.913083,0.52784187,1.2786686,1.2074922,0.04,0.039999958,-7.618779,3.4158284664154053,-5.1502557,-0.0125439735,-0.01577024720609188,0.0038573437
427.33333333327334,-0.5290348,-0.24648657,-0.1510331,-1.9130739,0.52785236,1.2786628,1.2075005,0.04,0.03999996,-7.618755,3.4157555103302,-5.1502347,-0.012621524,-0.0158004742115736,0.0037924882
427.34999999994,-0.52904236,-0.24647643,-0.15103623,-1.9130656,0.5278626,1.2786576,1.2075086,0.04,0.039999958,-7.297441,3.2624547481536865,-4.6808395,0.0,-0.0,0.0
427.36666666660665,-0.52904236,-0.24647643,-0.15103623,-1.9130656,0.5278626,1.2786576,1.2075086,0.04,0.039999958,-7.6196127,3.4151999950408936,-5.1491766,0.0,-0.0,0.0
427.3833333332733,-0.52904236,-0.24647643,-0.15103623,-1.9130656,0.5278626,1.2786576,1.2075086,0.04,0.039999958,-7.6196127,3.4151999950408936,-5.1491766,0.0,-0.0,0.0
427.39999999993995,-0.52904236,-0.24647643,-0.15103623,-1.9130656,0.5278626,1.2786576,1.2075086,0.04,0.039999958,-7.6196127,3.4151999950408936,-5.1491766,0.0,-0.0,0.0
427.4166666666066,-0.52904236,-0.24647643,-0.15103623,-1.9130656,0.5278626,1.2786576,1.2075086,0.04,0.039999958,-7.6196127,3.4151999950408936,-5.1491766,0.0,-0.0,0.0
427.43333333327325,-0.52904236,-0.24647643,-0.15103623,-1.9130656,0.5278626,1.2786576,1.2075086,0.04,0.039999958,-7.6196127,3.4151999950408936,-5.1491766,0.0,-0.0,0.0
427.4499999999399,-0.52904236,-0.24647643,-0.15103623,-1.9130656,0.5278626,1.2786576,1.2075086,0.04,0.039999958,-7.6196127,3.4151999950408936,-5.1491766,0.0,-0.0,0.0
427.46666666660656,-0.52904236,-0.24647643,-0.15103623,-1.9130656,0.5278626,1.2786576,1.2075086,0.04,0.039999958,-7.6196127,3.4151999950408936,-5.1491766,0.0,-0.0,0.0
427.4833333332732,-0.52904236,-0.24647643,-0.15103623,-1.9130656,0.5278626,1.2786576,1.2075086,0.04,0.039999958,-7.6196127,3.4151999950408936,-5.1491766,0.0,-0.0,0.0
427.49999999993986,-0.52904236,-0.24647643,-0.15103623,-1.9130656,0.5278626,1.2786576,1.2075086,0.04,0.039999958,-7.6196127,3.4151999950408936,-5.1491766,0.0,-0.0,0.0
427.5166666666065,-0.52904236,-0.24647643,-0.15103623,-1.9130656,0.5278626,1.2786576,1.2075086,0.04,0.039999958,-7.6196127,3.4151999950408936,-5.1491766,0.0,-0.0,0.0
427.53333333327316,-0.52904236,-0.24647643,-0.15103623,-1.9130656,0.5278626,1.2786576,1.2075086,0.04,0.039999958,-7.6196127,3.4151999950408936,-5.1491766,0.0,-0.0,0.0
427.5499999999398,-0.52904236,-0.24647643,-0.15103623,-1.9130656,0.5278626,1.2786576,1.2075086,0.04,0.039999958,-7.6196127,3.4151999950408936,-5.1491766,0.0,-0.0,0.0
427.56666666660647,-0.52904236,-0.24647643,-0.15103623,-1.9130656,0.5278626,1.2786576,1.2075086,0.04,0.039999958,-7.6196127,3.4151999950408936,-5.1491766,0.0,-0.0,0.0
427.5833333332731,-0.52904236,-0.24647643,-0.15103623,-1.9130656,0.5278626,1.2786576,1.2075086,0.04,0.039999958,-7.6196127,3.4151999950408936,-5.1491766,0.0,-0.0,0.0
427.59999999993977,-0.52904236,-0.24647643,-0.15103623,-1.9130656,0.5278626,1.2786576,1.2075086,0.04,0.039999958,-7.6196127,3.4151999950408936,-5.1491766,0.0,-0.0,0.0
427.6166666666064,-0.52904236,-0.24647643,-0.15103623,-1.9130656,0.5278626,1.2786576,1.2075086,0.04,0.039999958,-7.6196127,3.4151999950408936,-5.1491766,0.0,-0.0,0.0
427.6333333332731,-0.52904236,-0.24647643,-0.15103623,-1.9130656,0.5278626,1.2786576,1.2075086,0.04,0.039999958,-7.6196127,3.4151999950408936,-5.1491766,0.0,-0.0,0.0
427.6499999999397,-0.52904236,-0.24647643,-0.15103623,-1.9130656,0.5278626,1.2786576,1.2075086,0.04,0.039999958,-7.6196127,3.4151999950408936,-5.1491766,0.0,-0.0,0.0
427.6666666666064,-0.52904236,-0.24647643,-0.15103623,-1.9130656,0.5278626,1.2786576,1.2075086,0.04,0.039999958,-7.6196127,3.4151999950408936,-5.1491766,0.0,-0.0,0.0
427.683333333273,-0.52904236,-0.24647643,-0.15103623,-1.9130656,0.5278626,1.2786576,1.2075086,0.04,0.039999958,-7.6196127,3.4151999950408936,-5.1491766,0.0,-0.0,0.0
427.6999999999397,-0.52904236,-0.24647643,-0.15103623,-1.9130656,0.5278626,1.2786576,1.2075086,0.04,0.039999958,-7.6196127,3.4151999950408936,-5.1491766,0.0,-0.0,0.0
427.71666666660633,-0.52904236,-0.24647643,-0.15103623,-1.9130656,0.5278626,1.2786576,1.2075086,0.04,0.039999958,-7.6196127,3.4151999950408936,-5.1491766,0.0,-0.0,0.0
427.733333333273,-0.52904236,-0.24647643,-0.15103623,-1.9130656,0.5278626,1.2786576,1.2075086,0.04,0.039999958,-7.6196127,3.4151999950408936,-5.1491766,0.0,-0.0,0.0
427.74999999993963,-0.52904236,-0.24647643,-0.15103623,-1.9130656,0.5278626,1.2786576,1.2075086,0.04,0.039999958,-7.6196127,3.4151999950408936,-5.1491766,0.0,-0.0,0.0
427.7666666666063,-0.52904236,-0.24647643,-0.15103623,-1.9130656,0.5278626,1.2786576,1.2075086,0.04,0.039999958,-7.6196127,3.4151999950408936,-5.1491766,0.0,-0.0,0.0
427.78333333327294,-0.52904236,-0.24647643,-0.15103623,-1.9130656,0.5278626,1.2786576,1.2075086,0.04,0.039999958,-7.6196127,3.4151999950408936,-5.1491766,0.0,-0.0,0.0
427.7999999999396,-0.52904236,-0.24647643,-0.15103623,-1.9130656,0.5278626,1.2786576,1.2075086,0.04,0.039999958,-7.6196127,3.4151999950408936,-5.1491766,0.0,-0.0,0.0
427.81666666660624,-0.52904236,-0.24647643,-0.15103623,-1.9130656,0.5278626,1.2786576,1.2075086,0.04,0.039999958,-7.6196127,3.4151999950408936,-5.1491766,0.0,-0.0,0.0
427.8333333332729,-0.52904236,-0.24647643,-0.15103623,-1.9130656,0.5278626,1.2786576,1.2075086,0.04,0.039999958,-7.6196127,3.4151999950408936,-5.1491766,0.0,-0.0,0.0
427.84999999993954,-0.52904236,-0.24647643,-0.15103623,-1.9130656,0.5278626,1.2786576,1.2075086,0.04,0.039999958,-7.6196127,3.4151999950408936,-5.1491766,0.0,-0.0,0.0
427.8666666666062,-0.52904236,-0.24647643,-0.15103623,-1.9130656,0.5278626,1.2786576,1.2075086,0.04,0.039999958,-7.6196127,3.4151999950408936,-5.1491766,0.0,-0.0,0.0
427.88333333327284,-0.52904236,-0.24647643,-0.15103623,-1.9130656,0.5278626,1.2786576,1.2075086,0.04,0.039999958,-7.6196127,3.4151999950408936,-5.1491766,0.0,-0.0,0.0
427.8999999999395,-0.52904236,-0.24647643,-0.15103623,-1.9130656,0.5278626,1.2786576,1.2075086,0.04,0.039999958,-7.6196127,3.4151999950408936,-5.1491766,0.0,-0.0,0.0
427.91666666660615,-0.52904236,-0.24647643,-0.15103623,-1.9130656,0.5278626,1.2786576,1.2075086,0.04,0.039999958,-7.6196127,3.4151999950408936,-5.1491766,0.0,-0.0,0.0
427.9333333332728,-0.52904236,-0.24647643,-0.15103623,-1.9130656,0.5278626,1.2786576,1.2075086,0.04,0.039999958,-7.6196127,3.4151999950408936,-5.1491766,0.0,-0.0,0.0
427.94999999993945,-0.52904236,-0.24647643,-0.15103623,-1.9130656,0.5278626,1.2786576,1.2075086,0.04,0.039999958,-7.6196127,3.4151999950408936,-5.1491766,0.0,-0.0,0.0
427.9666666666061,-0.52904236,-0.24647643,-0.15103623,-1.9130656,0.5278626,1.2786576,1.2075086,0.04,0.039999958,-7.6196127,3.4151999950408936,-5.1491766,0.0,-0.0,0.0
427.98333333327275,-0.52904236,-0.24647643,-0.15103623,-1.9130656,0.5278626,1.2786576,1.2075086,0.04,0.039999958,-7.6196127,3.4151999950408936,-5.1491766,0.0,-0.0,0.0
427.9999999999394,-0.52904236,-0.24647643,-0.15103623,-1.9130656,0.5278626,1.2786576,1.2075086,0.04,0.039999958,-7.6196127,3.4151999950408936,-5.1491766,0.0,-0.0,0.0
428.01666666660606,-0.52904236,-0.24647643,-0.15103623,-1.9130656,0.5278626,1.2786576,1.2075086,0.04,0.039999958,-7.6196127,3.4151999950408936,-5.1491766,0.0,-0.0,0.0
428.0333333332727,-0.52904236,-0.24647643,-0.15103623,-1.9130656,0.5278626,1.2786576,1.2075086,0.04,0.039999958,-7.6196127,3.4151999950408936,-5.1491766,0.0,-0.0,0.0
428.04999999993936,-0.52904236,-0.24647643,-0.15103623,-1.9130656,0.5278626,1.2786576,1.2075086,0.04,0.039999958,-7.6196127,3.4151999950408936,-5.1491766,0.0,-0.0,0.0
428.066666666606,-0.52904236,-0.24647643,-0.15103623,-1.9130656,0.5278626,1.2786576,1.2075086,0.04,0.039999958,-7.6196127,3.4151999950408936,-5.1491766,0.0,-0.0,0.0
428.08333333327266,-0.52904236,-0.24647643,-0.15103623,-1.9130656,0.5278626,1.2786576,1.2075086,0.04,0.039999958,-7.6196127,3.4151999950408936,-5.1491766,0.0,-0.0,0.0
428.0999999999393,-0.52904236,-0.24647643,-0.15103623,-1.9130656,0.5278626,1.2786576,1.2075086,0.04,0.039999958,-7.6196127,3.4151999950408936,-5.1491766,0.0,-0.0,0.0
428.11666666660597,-0.52904236,-0.24647643,-0.15103623,-1.9130656,0.5278626,1.2786576,1.2075086,0.04,0.039999958,-7.6196127,3.4151999950408936,-5.1491766,0.0,-0.0,0.0
428.1333333332726,-0.52904236,-0.24647643,-0.15103623,-1.9130656,0.5278626,1.2786576,1.2075086,0.04,0.039999958,-7.6196127,3.4151999950408936,-5.1491766,0.0,-0.0,0.0
428.14999999993927,-0.52904236,-0.24647643,-0.15103623,-1.9130656,0.5278626,1.2786576,1.2075086,0.04,0.039999958,-7.6196127,3.4151999950408936,-5.1491766,0.0,-0.0,0.0
428.1666666666059,-0.52904236,-0.24647643,-0.15103623,-1.9130656,0.5278626,1.2786576,1.2075086,0.04,0.039999958,-7.6196127,3.4151999950408936,-5.1491766,0.0,-0.0,0.0
428.18333333327257,-0.52904236,-0.24647643,-0.15103623,-1.9130656,0.5278626,1.2786576,1.2075086,0.04,0.039999958,-7.6196127,3.4151999950408936,-5.1491766,0.0,-0.0,0.0
428.1999999999392,-0.52904236,-0.24647643,-0.15103623,-1.9130656,0.5278626,1.2786576,1.2075086,0.04,0.039999958,-7.6196127,3.4151999950408936,-5.1491766,0.0,-0.0,0.0
428.2166666666059,-0.52904236,-0.24647643,-0.15103623,-1.9130656,0.5278626,1.2786576,1.2075086,0.04,0.039999958,-7.6196127,3.4151999950408936,-5.1491766,0.0,-0.0,0.0
428.2333333332725,-0.52904236,-0.24647643,-0.15103623,-1.9130656,0.5278626,1.2786576,1.2075086,0.04,0.039999958,-7.6196127,3.4151999950408936,-5.1491766,0.0,-0.0,0.0
428.2499999999392,-0.52904236,-0.24647643,-0.15103623,-1.9130656,0.5278626,1.2786576,1.2075086,0.04,0.039999958,-7.6196127,3.4151999950408936,-5.1491766,0.0,-0.0,0.0
428.26666666660583,-0.52904236,-0.24647643,-0.15103623,-1.9130656,0.5278626,1.2786576,1.2075086,0.04,0.039999958,-7.6196127,3.4151999950408936,-5.1491766,0.0,-0.0,0.0
428.2833333332725,-0.52904236,-0.24647643,-0.15103623,-1.9130656,0.5278626,1.2786576,1.2075086,0.04,0.039999958,-7.6196127,3.4151999950408936,-5.1491766,0.0,-0.0,0.0
428.29999999993913,-0.52904236,-0.24647643,-0.15103623,-1.9130656,0.5278626,1.2786576,1.2075086,0.04,0.039999958,-7.6196127,3.4151999950408936,-5.1491766,0.0,-0.0,0.0
428.3166666666058,-0.52904236,-0.24647643,-0.15103623,-1.9130656,0.5278626,1.2786576,1.2075086,0.04,0.039999958,-7.6196127,3.4151999950408936,-5.1491766,0.0,-0.0,0.0
428.33333333327244,-0.52904236,-0.24647643,-0.15103623,-1.9130656,0.5278626,1.2786576,1.2075086,0.04,0.039999958,-7.6196127,3.4151999950408936,-5.1491766,0.0,-0.0,0.0
428.3499999999391,-0.52904236,-0.24647643,-0.15103623,-1.9130656,0.5278626,1.2786576,1.2075086,0.04,0.039999958,-7.6196127,3.4151999950408936,-5.1491766,0.0,-0.0,0.0
428.36666666660574,-0.52904236,-0.24647643,-0.15103623,-1.9130656,0.5278626,1.2786576,1.2075086,0.04,0.039999958,-7.6196127,3.4151999950408936,-5.1491766,0.0,-0.0,0.0
428.3833333332724,-0.52904236,-0.24647643,-0.15103623,-1.9130656,0.5278626,1.2786576,1.2075086,0.04,0.039999958,-7.6196127,3.4151999950408936,-5.1491766,0.0,-0.0,0.0
428.39999999993904,-0.52904236,-0.24647643,-0.15103623,-1.9130656,0.5278626,1.2786576,1.2075086,0.04,0.039999958,-7.6196127,3.4151999950408936,-5.1491766,0.0,-0.0,0.0
428.4166666666057,-0.52904236,-0.24647643,-0.15103623,-1.9130656,0.5278626,1.2786576,1.2075086,0.04,0.039999958,-7.6196127,3.4151999950408936,-5.1491766,0.0,-0.0,0.0
428.43333333327234,-0.52904236,-0.24647643,-0.15103623,-1.9130656,0.5278626,1.2786576,1.2075086,0.04,0.039999958,-7.6196127,3.4151999950408936,-5.1491766,0.0,-0.0,0.0
428.449999999939,-0.52904236,-0.24647643,-0.15103623,-1.9130656,0.5278626,1.2786576,1.2075086,0.04,0.039999958,-7.6196127,3.4151999950408936,-5.1491766,0.0,-0.0,0.0
428.46666666660565,-0.52904236,-0.24647643,-0.15103623,-1.9130656,0.5278626,1.2786576,1.2075086,0.04,0.039999958,-7.6196127,3.4151999950408936,-5.1491766,0.0,-0.0,0.0
428.4833333332723,-0.52904236,-0.24647643,-0.15103623,-1.9130656,0.5278626,1.2786576,1.2075086,0.04,0.039999958,-7.6196127,3.4151999950408936,-5.1491766,0.0,-0.0,0.0
428.49999999993895,-0.52904236,-0.24647643,-0.15103623,-1.9130656,0.5278626,1.2786576,1.2075086,0.04,0.039999958,-7.6196127,3.4151999950408936,-5.1491766,0.0,-0.0,0.0
428.5166666666056,-0.52904236,-0.24647643,-0.15103623,-1.9130656,0.5278626,1.2786576,1.2075086,0.04,0.039999958,-7.6196127,3.4151999950408936,-5.1491766,0.0,-0.0,0.0
428.53333333327225,-0.52904236,-0.24647643,-0.15103623,-1.9130656,0.5278626,1.2786576,1.2075086,0.04,0.039999958,-7.6196127,3.4151999950408936,-5.1491766,0.0,-0.0,0.0
428.5499999999389,-0.52904236,-0.24647643,-0.15103623,-1.9130656,0.5278626,1.2786576,1.2075086,0.04,0.039999958,-7.6196127,3.4151999950408936,-5.1491766,0.0,-0.0,0.0
428.56666666660556,-0.52904236,-0.24647643,-0.15103623,-1.9130656,0.5278626,1.2786576,1.2075086,0.04,0.039999958,-7.6196127,3.4151999950408936,-5.1491766,0.0,-0.0,0.0
428.5833333332722,-0.52904236,-0.24647643,-0.15103623,-1.9130656,0.5278626,1.2786576,1.2075086,0.04,0.039999958,-7.6196127,3.4151999950408936,-5.1491766,0.0,-0.0,0.0
428.59999999993886,-0.52904236,-0.24647643,-0.15103623,-1.9130656,0.5278626,1.2786576,1.2075086,0.04,0.039999958,-7.6196127,3.4151999950408936,-5.1491766,0.0,-0.0,0.0
428.6166666666055,-0.52904236,-0.24647643,-0.15103623,-1.9130656,0.5278626,1.2786576,1.2075086,0.04,0.039999958,-7.6196127,3.4151999950408936,-5.1491766,0.0,-0.0,0.0
428.63333333327216,-0.52904236,-0.24647643,-0.15103623,-1.9130656,0.5278626,1.2786576,1.2075086,0.04,0.039999958,-7.6196127,3.4151999950408936,-5.1491766,0.0,-0.0,0.0
428.6499999999388,-0.52904236,-0.24647643,-0.15103623,-1.9130656,0.5278626,1.2786576,1.2075086,0.04,0.039999958,-7.6196127,3.4151999950408936,-5.1491766,0.0,-0.0,0.0
428.66666666660547,-0.52904236,-0.24647643,-0.15103623,-1.9130656,0.5278626,1.2786576,1.2075086,0.04,0.039999958,-7.6196127,3.4151999950408936,-5.1491766,0.0,-0.0,0.0
428.6833333332721,-0.52904236,-0.24647643,-0.15103623,-1.9130656,0.5278626,1.2786576,1.2075086,0.04,0.039999958,-7.6196127,3.4151999950408936,-5.1491766,0.0,-0.0,0.0
428.69999999993877,-0.52904236,-0.24647643,-0.15103623,-1.9130656,0.5278626,1.2786576,1.2075086,0.04,0.039999958,-7.6196127,3.4151999950408936,-5.1491766,0.0,-0.0,0.0
428.7166666666054,-0.52904236,-0.24647643,-0.15103623,-1.9130656,0.5278626,1.2786576,1.2075086,0.04,0.039999958,-7.6196127,3.4151999950408936,-5.1491766,0.0,-0.0,0.0
428.73333333327207,-0.52904236,-0.24647643,-0.15103623,-1.9130656,0.5278626,1.2786576,1.2075086,0.04,0.039999958,-7.6196127,3.4151999950408936,-5.1491766,0.0,-0.0,0.0
428.7499999999387,-0.52904236,-0.24647643,-0.15103623,-1.9130656,0.5278626,1.2786576,1.2075086,0.04,0.039999958,-7.6196127,3.4151999950408936,-5.1491766,0.0,-0.0,0.0
428.7666666666054,-0.52904236,-0.24647643,-0.15103623,-1.9130656,0.5278626,1.2786576,1.2075086,0.04,0.039999958,-7.6196127,3.4151999950408936,-5.1491766,0.0,-0.0,0.0
428.783333333272,-0.52904236,-0.24647643,-0.15103623,-1.9130656,0.5278626,1.2786576,1.2075086,0.04,0.039999958,-7.6196127,3.4151999950408936,-5.1491766,0.0,-0.0,0.0
428.7999999999387,-0.52904236,-0.24647643,-0.15103623,-1.9130656,0.5278626,1.2786576,1.2075086,0.04,0.039999958,-7.6196127,3.4151999950408936,-5.1491766,0.0,-0.0,0.0
428.81666666660533,-0.52904236,-0.24647643,-0.15103623,-1.9130656,0.5278626,1.2786576,1.2075086,0.04,0.039999958,-7.6196127,3.4151999950408936,-5.1491766,0.0,-0.0,0.0
428.833333333272,-0.52904236,-0.24647643,-0.15103623,-1.9130656,0.5278626,1.2786576,1.2075086,0.04,0.039999958,-7.6196127,3.4151999950408936,-5.1491766,0.0,-0.0,0.0
428.84999999993863,-0.52904236,-0.24647643,-0.15103623,-1.9130656,0.5278626,1.2786576,1.2075086,0.04,0.039999958,-7.6196127,3.4151999950408936,-5.1491766,0.0,-0.0,0.0
428.8666666666053,-0.52904236,-0.24647643,-0.15103623,-1.9130656,0.5278626,1.2786576,1.2075086,0.04,0.039999958,-7.6196127,3.4151999950408936,-5.1491766,0.0,-0.0,0.0
428.88333333327193,-0.52904236,-0.24647643,-0.15103623,-1.9130656,0.5278626,1.2786576,1.2075086,0.04,0.039999958,-7.6196127,3.4151999950408936,-5.1491766,0.0,-0.0,0.0
428.8999999999386,-0.52904236,-0.24647643,-0.15103623,-1.9130656,0.5278626,1.2786576,1.2075086,0.04,0.039999958,-7.6196127,3.4151999950408936,-5.1491766,0.0,-0.0,0.0
428.91666666660524,-0.52904236,-0.24647643,-0.15103623,-1.9130656,0.5278626,1.2786576,1.2075086,0.04,0.039999958,-7.6196127,3.4151999950408936,-5.1491766,0.0,-0.0,0.0
428.9333333332719,-0.52904236,-0.24647643,-0.15103623,-1.9130656,0.5278626,1.2786576,1.2075086,0.04,0.039999958,-7.6196127,3.4151999950408936,-5.1491766,0.0,-0.0,0.0
428.94999999993854,-0.52904236,-0.24647643,-0.15103623,-1.9130656,0.5278626,1.2786576,1.2075086,0.04,0.039999958,-7.6196127,3.4151999950408936,-5.1491766,0.0,-0.0,0.0
