rsonawane2002/My_IMU/logs_2/traj_289/imu_400hz_289.csv
time,j1,j2,j3,j4,j5,j6,j7,gripper1,gripper2,imu_ax,imu_ay,imu_az,imu_gx,imu_gy,imu_gz
0.0,0.00016700293,-0.785875,4.0107683e-05,-2.3551247,9.29385e-05,1.570997,0.786,0.04,0.04,-9.492351,-0.0436557345092296,0.084396936,-1.8885433e-07,-0.0011641273740679,6.239141e-07
0.0025,0.000167002063,-0.7858577739999999,4.010835095000001e-05,-2.35513919,9.294518850000003e-05,1.570996565,0.786,0.04,0.04,-9.54366300000022,-0.0370136511220775,0.07310326064995121,-3.866487549935118e-08,-0.0013253152137629113,7.725097100006419e-07
0.005,0.00016700119599999999,-0.7858405479999998,4.0109018900000005e-05,-2.3551536800000004,9.295187700000006e-05,1.57099613,0.786,0.04,0.04,-9.594975000000442,-0.030371567734925407,0.06180958529990242,1.1152457900129765e-07,-0.0014865030534579227,9.211053200012839e-07
0.0075,0.00016700032899999998,-0.7858233219999998,4.010968685000001e-05,-2.3551681700000002,9.295856550000009e-05,1.570995695,0.786,0.04,0.04,-9.646287000000665,-0.023729484347773316,0.05051590994985364,2.617140335019465e-07,-0.0016476908931529338,1.0697009300019258e-06
0.01,0.00016699946199999997,-0.7858060959999997,4.011035480000001e-05,-2.3551826600000005,9.296525400000011e-05,1.5709952600000001,0.786,0.04,0.04,-9.697599000000887,-0.017087400960621217,0.03922223459980484,4.119034880025953e-07,-0.0018088787328479454,1.2182965400025678e-06
0.0125,0.00016699859499999997,-0.7857888699999996,4.0111022750000013e-05,-2.3551971500000004,9.297194250000014e-05,1.570994825,0.786,0.04,0.04,-9.748911000001108,-0.010445317573469122,0.027928559249756048,5.620929425032441e-07,-0.0019700665725429565,1.36689215000321e-06
0.015,0.00016699772799999996,-0.7857716439999995,4.011169070000001e-05,-2.3552116400000007,9.297863100000017e-05,1.57099439,0.786,0.04,0.04,-9.80022300000133,-0.003803234186317034,0.01663488389970727,7.122823970038929e-07,-0.0021312544122379677,1.5154877600038517e-06
0.0175,0.0001669938709999997,-0.7857548569999996,4.011147644999994e-05,-2.3552257350000008,9.298829050000045e-05,1.57099396,0.786,0.04,0.04,-9.834329349999992,0.0006218828319102935,0.009032515829993605,1.1778186150319052e-06,-0.002287984022409257,1.850436125020596e-06
0.02,0.00016698403399999971,-0.7857389479999995,4.0109497799999936e-05,-2.3552390400000003,9.300389200000046e-05,1.5709935400000001,0.786,0.04,0.04,-9.834024399999992,0.0006130671128627355,0.008812762319993405,2.274048360032902e-06,-0.0024357971735342564,2.558090000021239e-06
0.0225,0.0001669741969999997,-0.7857230389999995,4.0107519149999933e-05,-2.3552523450000002,9.301949350000048e-05,1.57099312,0.786,0.04,0.04,-9.833719449999991,0.0006042513938151774,0.008593008809993205,3.3702781050338985e-06,-0.0025836103246592557,3.265743875021882e-06
0.025,0.00016696435999999967,-0.7857071299999995,4.010554049999994e-05,-2.35526565,9.30350950000005e-05,1.5709927,0.786,0.04,0.04,-9.833414499999991,0.0005954356747676194,0.008373255299993006,4.466507850034897e-06,-0.002731423475784255,3.9733977500225265e-06
0.0275,0.00016695452299999967,-0.7856912209999996,4.0103561849999934e-05,-2.355278955,9.305069650000051e-05,1.57099228,0.786,0.04,0.04,-9.833109549999989,0.0005866199557200614,0.008153501789992806,5.562737595035893e-06,-0.0028792366269092544,4.68105162502317e-06
0.03,0.00016694468599999965,-0.7856753119999995,4.010158319999993e-05,-2.35529226,9.306629800000052e-05,1.57099186,0.786,0.04,0.04,-9.832804599999989,0.0005778042366725033,0.007933748279992606,6.65896734003689e-06,-0.0030270497780342537,5.388705500023813e-06
0.0325,0.00016693484899999965,-0.7856594029999995,4.009960454999993e-05,-2.355305565,9.308189950000054e-05,1.57099144,0.786,0.04,0.04,-9.832499649999988,0.0005689885176249454,0.007713994769992405,7.755197085037888e-06,-0.0031748629291592535,6.096359375024457e-06
0.035,0.0001669090569999988,-0.7856443399999995,4.0093015799999686e-05,-2.3553181000000003,9.311363200000142e-05,1.57099101,0.786,0.04,0.04,-9.832229599999991,0.0005547383334481581,0.007511264709993111,1.0027949100101486e-05,-0.0033146956004250086,7.502880500062286e-06
0.0375,0.00016687528749999877,-0.7856296999999994,4.008412199999968e-05,-2.35533025,9.315343000000145e-05,1.570990575,0.786,0.04,0.04,-9.831976999999991,0.0005377709167071827,0.007317046374992935,1.2888962250104083e-05,-0.003450538031761767,9.25883525006388e-06
0.04,0.00016684151799999873,-0.7856150599999995,4.0075228199999667e-05,-2.3553424000000005,9.319322800000149e-05,1.57099014,0.786,0.04,0.04,-9.83172439999999,0.0005208034999662073,0.007122828039992758,1.5749975400106687e-05,-0.003586380463098526,1.1014790000065477e-05
0.0425,0.0001668077484999987,-0.7856004199999994,4.006633439999966e-05,-2.3553545500000004,9.323302600000152e-05,1.570989705,0.786,0.04,0.04,-9.83147179999999,0.0005038360832252318,0.006928609704992581,1.861098855010929e-05,-0.0037222228944352844,1.2770744750067075e-05
0.045,0.0001667739789999987,-0.7855857799999995,4.0057440599999654e-05,-2.3553667000000003,9.327282400000156e-05,1.57098927,0.786,0.04,0.04,-9.83121919999999,0.00048686866648425646,0.006734391369992405,2.1472001700111887e-05,-0.0038580653257720425,1.452669950006867e-05
0.0475,0.00016674020949999864,-0.7855711399999994,4.004854679999965e-05,-2.3553788500000006,9.33126220000016e-05,1.570988835,0.786,0.04,0.04,-9.83096659999999,0.000469901249743281,0.006540173034992228,2.4333014850114494e-05,-0.0039939077571088015,1.628265425007027e-05
0.05,0.00016670643999999675,-0.7855564999999994,4.00396529999991e-05,-2.3553910000000005,9.335242000000351e-05,1.5709884,0.786,0.04,0.04,-9.83071399999999,0.00045293383300205723,0.006345954699993155,2.7194028000224942e-05,-0.004129750188445059,1.8038609000133426e-05
0.0525,0.00016662712599999668,-0.7855429624999994,4.001768804999908e-05,-2.3554020250000005,9.343812940000358e-05,1.57098798,0.786,0.04,0.04,-9.83045599999999,0.00042989980429310133,0.006178706994993003,3.269004480022993e-05,-0.0042533421888998404,2.1298636700136385e-05
0.055,0.0001665478119999966,-0.7855294249999994,3.999572309999906e-05,-2.3554130500000006,9.352383880000366e-05,1.57098756,0.786,0.04,0.04,-9.830197999999989,0.00040686577558414537,0.00601145928999285,3.818606160023493e-05,-0.004376934189354623,2.4558664400139354e-05
0.0575,0.00016646849799999654,-0.7855158874999995,3.9973758149999044e-05,-2.3554240750000006,9.360954820000373e-05,1.57098714,0.786,0.04,0.04,-9.829939999999988,0.0003838317468751894,0.005844211584992699,4.368207840023993e-05,-0.0045005261898094055,2.7818692100142323e-05
0.06,0.00016638918399999647,-0.7855023499999995,3.995179319999902e-05,-2.3554351000000007,9.369525760000382e-05,1.57098672,0.786,0.04,0.04,-9.82968199999999,0.0003607977181662335,0.005676963879992546,4.917809520024493e-05,-0.004624118190264188,3.107871980014528e-05
0.0625,0.0001663098699999964,-0.7854888124999994,3.9929828249999005e-05,-2.3554461250000007,9.378096700000389e-05,1.5709863,0.786,0.04,0.04,-9.829423999999989,0.00033776368945727755,0.005509716174992394,5.467411200024992e-05,-0.004747710190718971,3.433874750014825e-05
0.065,0.00016623055599999633,-0.7854752749999994,3.990786329999898e-05,-2.3554571500000008,9.386667640000397e-05,1.57098588,0.786,0.04,0.04,-9.829165999999988,0.00031472966074832154,0.005342468469992242,6.017012880025493e-05,-0.004871302191173753,3.759877520015122e-05
0.0675,0.0001661268609999928,-0.7854620724999994,3.987893349999797e-05,-2.3554678350000007,9.397701220000754e-05,1.570985455,0.786,0.04,0.04,-9.828915349999988,0.00028955681191147713,0.005181292749992951,6.679204900041968e-05,-0.004991037864243278,4.149651065024467e-05
0.07,0.00016597440399999266,-0.7854495399999994,3.983607399999793e-05,-2.3554778400000007,9.413660080000769e-05,1.57098502,0.786,0.04,0.04,-9.828679399999988,0.0002601063228197603,0.005032260999992815,7.566577600042776e-05,-0.00510306088254392,4.6669661600249374e-05
0.0725,0.00016582194699999253,-0.7854370074999995,3.97932144999979e-05,-2.3554878450000007,9.429618940000784e-05,1.570984585,0.786,0.04,0.04,-9.828443449999988,0.00023065583372804365,0.004883229249992681,8.45395030004358e-05,-0.005215083900844562,5.184281255025405e-05
0.075,0.0001656694899999924,-0.7854244749999993,3.975035499999786e-05,-2.355497850000001,9.445577800000798e-05,1.57098415,0.786,0.04,0.04,-9.828207499999987,0.00020120534463632684,0.0047341974999925455,9.341323000044388e-05,-0.005327106919145203,5.7015963500258766e-05
0.0775,0.00016551703299999223,-0.7854119424999993,3.970749549999782e-05,-2.355507855000001,9.461536660000812e-05,1.5709837150000001,0.786,0.04,0.04,-9.827971549999987,0.00017175485554461005,0.00458516574999241,0.00010228695700045196,-0.005439129937445846,6.218911445026347e-05
0.08,0.0001653645759999921,-0.7853994099999994,3.966463599999778e-05,-2.355517860000001,9.477495520000827e-05,1.57098328,0.786,0.04,0.04,-9.827735599999988,0.00014230436645289323,0.004436133999992274,0.00011116068400046004,-0.005551152955746487,6.736226540026818e-05
0.0825,0.00016521211899999197,-0.7853868774999994,3.962177649999774e-05,-2.355527865000001,9.493454380000842e-05,1.570982845,0.786,0.04,0.04,-9.827499649999988,0.00011285387736117644,0.004287102249992139,0.00012003441100046813,-0.00566317597404713,7.25354163502729e-05
0.085,0.00016498893099998614,-0.7853749259999994,3.9558729999996077e-05,-2.3555372100000005,9.516646000001439e-05,1.57098241,0.7860001900000001,0.04,0.0399999995,-9.827277699999987,8.045192225649203e-05,0.00415058289999301,0.00013165338800069719,-0.005767800053587006,7.930595200040619e-05
0.08750000000000001,0.0001647303774999859,-0.7853632649999994,3.948558999999601e-05,-2.3555462250000008,9.543454000001463e-05,1.570981975,0.786000475,0.04,0.03999999875,-9.827062749999987,4.657423414567619e-05,0.004020319749992891,0.000144644990000709,-0.005868724663747383,8.687518000041308e-05
0.09,0.00016447182399998567,-0.7853516039999994,3.941244999999594e-05,-2.3555552400000006,9.570262000001487e-05,1.57098154,0.7860007600000001,0.04,0.039999998,-9.826847799999987,1.269654603486053e-05,0.0038900565999927736,0.00015763659200072075,-0.00596964927390776,9.444440800041993e-05
0.0925,0.00016421327049998542,-0.7853399429999993,3.933930999999588e-05,-2.3555642550000004,9.597070000001512e-05,1.570981105,0.786001045,0.04,0.03999999725,-9.826632849999989,-2.1181142075955316e-05,0.003759793449992655,0.00017062819400073259,-0.0060705738840681365,0.00010201363600042682
0.095,0.0001639547169999852,-0.7853282819999994,3.926616999999581e-05,-2.3555732700000007,9.623878000001536e-05,1.57098067,0.78600133,0.04,0.0399999965,-9.826417899999988,-5.505883018677115e-05,0.003629530299992536,0.0001836197960007444,-0.006171498494228513,0.00010958286400043371
0.0975,0.00016369616349998494,-0.7853166209999993,3.919302999999574e-05,-2.3555822850000006,9.65068600000156e-05,1.570980235,0.7860016150000001,0.04,0.03999999575,-9.826202949999988,-8.893651829758701e-05,0.0034992671499924177,0.00019661139800075623,-0.00627242310438889,0.0001171520920004406
0.1,0.0001634376099999762,-0.7853049599999994,3.9119889999993255e-05,-2.3555913000000004,9.677494000002432e-05,1.5709798,0.7860019,0.04,0.039999995,-9.825987999999988,-0.00012281420640875766,0.003369003999993167,0.00020960300000097274,-0.006373347714548649,0.0001247213200005881
0.10250000000000001,0.00016303521249997585,-0.7852940714999994,3.900578649999315e-05,-2.3555998800000006,9.718608550002468e-05,1.570979365,0.7860021850000001,0.04,0.03999999575,-9.825791199999989,-0.00016269379121017897,0.003253422939993062,0.00022605680000098772,-0.006463826866825846,0.00013466912500059716
0.105,0.00016263281499997548,-0.7852831829999993,3.889168299999305e-05,-2.3556084600000005,9.759723100002505e-05,1.5709789299999999,0.78600247,0.04,0.0399999965,-9.82559439999999,-0.00020257337601160006,0.003137841879992957,0.00024251060000100258,-0.006554306019103043,0.00014461693000060617
0.1075,0.00016223041749997513,-0.7852722944999994,3.877757949999294e-05,-2.3556170400000007,9.800837650002543e-05,1.5709784949999999,0.786002755,0.04,0.03999999725,-9.825397599999988,-0.00024245296081302136,0.003022260819992852,0.0002589644000010176,-0.006644785171380241,0.00015456473500061521
0.11,0.00016182801999997475,-0.7852614059999994,3.866347599999284e-05,-2.3556256200000005,9.84195220000258e-05,1.5709780599999998,0.7860030400000001,0.04,0.039999998,-9.825200799999989,-0.00028233254561444267,0.0029066797599927464,0.00027541820000103254,-0.006735264323657438,0.00016451254000062425
0.1125,0.00016142562249997437,-0.7852505174999993,3.854937249999273e-05,-2.3556342000000003,9.883066750002617e-05,1.570977625,0.786003325,0.04,0.03999999875,-9.825003999999987,-0.000322212130415864,0.002791098699992641,0.00029187200000104754,-0.006825743475934636,0.00017446034500063332
0.115,0.00016102322499997402,-0.7852396289999993,3.843526899999263e-05,-2.3556427800000006,9.924181300002655e-05,1.57097719,0.7860036100000001,0.04,0.0399999995,-9.824807199999988,-0.0003620917152172853,0.002675517639992536,0.0003083258000010625,-0.006916222628211833,0.0001844081500006424
0.11750000000000001,0.00016055884699996148,-0.7852289544999993,3.830351999998906e-05,-2.3556510050000004,9.971524050003916e-05,1.57097675,0.786003992,0.04,0.04,-9.824636449999993,-0.00040214816690681136,0.0025647865449933836,0.0003265668590014286,-0.007004082342615151,0.00019536595050084985
0.12,0.00015997050799996095,-0.7852187079999994,3.813647999998891e-05,-2.3556585200000004,0.00010031323200003969,1.5709762999999999,0.7860045680000001,0.04,0.04,-9.824517799999992,-0.00044255835237244287,0.0024637553799932922,0.0003483824360014484,-0.007086703181272245,0.0002083437420008616
0.1225,0.00015938216899996042,-0.7852084614999993,3.796943999998876e-05,-2.3556660350000005,0.00010091122350004024,1.57097585,0.7860051440000001,0.04,0.04,-9.824399149999993,-0.0004829685378380747,0.0023627242149932004,0.0003701980130014682,-0.007169324019929341,0.0002213215335008734
0.125,0.00015879382999995986,-0.7851982149999993,3.7802399999988605e-05,-2.3556735500000006,0.00010150921500004078,1.5709754,0.78600572,0.04,0.04,-9.824280499999992,-0.0005233787233037064,0.0022616930499931086,0.00039201359000148807,-0.007251944858586436,0.00023429932500088524
0.1275,0.00015820549099995933,-0.7851879684999993,3.763535999998845e-05,-2.3556810650000006,0.00010210720650004133,1.57097495,0.786006296,0.04,0.04,-9.824161849999992,-0.0005637889087693383,0.0021606618849930163,0.00041382916700150794,-0.007334565697243531,0.00024727711650089705
0.13,0.0001576171519999588,-0.7851777219999994,3.74683199999883e-05,-2.3556885800000007,0.00010270519800004187,1.5709745,0.7860068720000001,0.04,0.04,-9.824043199999993,-0.00060419909423497,0.0020596307199929244,0.0004356447440015278,-0.007417186535900626,0.00026025490800090886
0.1325,0.00015702881299995826,-0.7851674754999993,3.730127999998815e-05,-2.3556960950000008,0.00010330318950004242,1.57097405,0.786007448,0.04,0.04,-9.823924549999992,-0.0006446092797006019,0.0019585995549928326,0.0004574603210015477,-0.0074998073745577215,0.00027323269950092066
0.135,0.00015628593599994106,-0.7851575939999994,3.709026799998326e-05,-2.3557029100000006,0.00010405632900005968,1.57097356,0.7860080220000001,0.04,0.04,-9.823761299999987,-0.0006866391457182183,0.0018631326199933403,0.0004824221460019067,-0.007575548905884415,0.0002883241340011603
0.1375,0.00015546578999994033,-0.7851478949999994,3.685726999998305e-05,-2.3557093750000004,0.00010488704250006044,1.57097305,0.7860085950000001,0.04,0.04,-9.823575749999987,-0.0007294788520115672,0.001770447799993256,0.0005089570950019308,-0.007647850783547011,0.000304472390001175
0.14,0.00015464564399993958,-0.7851381959999993,3.6624271999982833e-05,-2.3557158400000007,0.0001057177560000612,1.57097254,0.7860091680000001,0.04,0.04,-9.823390199999986,-0.0007723185583049162,0.0016777629799931716,0.000535492044001955,-0.007720152661209607,0.0003206206460011897
0.14250000000000002,0.00015382549799993882,-0.7851284969999993,3.6391273999982626e-05,-2.3557223050000005,0.00010654846950006195,1.57097203,0.7860097410000001,0.04,0.04,-9.823204649999987,-0.0008151582645982652,0.001585078159993087,0.0005620269930019791,-0.007792454538872203,0.0003367689020012044
0.145,0.0001530053519999381,-0.7851187979999993,3.615827599998241e-05,-2.3557287700000002,0.00010737918300006271,1.57097152,0.786010314,0.04,0.04,-9.823019099999986,-0.0008579979708916137,0.0014923933399930039,0.000588561942002003,-0.007864756416534798,0.00035291715800121894
0.1475,0.00015218520599993734,-0.7851090989999993,3.5925277999982205e-05,-2.3557352350000005,0.00010820989650006346,1.57097101,0.786010887,0.04,0.04,-9.822833549999984,-0.0009008376771849627,0.0013997085199929193,0.0006150968910020271,-0.007937058294197394,0.00036906541400123365
0.15,0.00015136505999991485,-0.7850993999999993,3.569227999997581e-05,-2.3557417000000003,0.00010904061000008602,1.5709705,0.7860114600000001,0.04,0.04,-9.822647999999985,-0.0009436773834784345,0.0013070236999939587,0.000641631840002555,-0.008009360171859211,0.0003852136700015112
0.1525,0.00015026384399991386,-0.7850901359999993,3.537934954997553e-05,-2.3557475050000005,0.00011015329350008703,1.57096951,0.7860123210000001,0.04,0.04,-9.822474749999985,-0.00098810606287207,0.0012288722644938875,0.0006746818665025851,-0.008071580575783856,0.00040476264950152903
0.155,0.00014916262799991286,-0.7850808719999992,3.5066419099975243e-05,-2.3557533100000003,0.00011126597700008804,1.5709685199999999,0.786013182,0.04,0.04,-9.822301499999986,-0.0010325347422657054,0.0011507208289938163,0.0007077318930026152,-0.008133800979708504,0.00042431162900154684
0.1575,0.00014806141199991187,-0.7850716079999992,3.475348864997495e-05,-2.3557591150000006,0.00011237866050008906,1.57096753,0.7860140430000001,0.04,0.04,-9.822128249999986,-0.001076963421659341,0.0010725693934937452,0.0007407819195026453,-0.00819602138363315,0.0004438606085015646
0.16,0.00014696019599991087,-0.7850623439999992,3.444055819997467e-05,-2.3557649200000004,0.00011349134400009007,1.57096654,0.7860149040000001,0.04,0.04,-9.821954999999987,-0.0011213921010529762,0.000994417957993674,0.0007738319460026753,-0.008258241787557796,0.0004634095880015824
0.1625,0.00014585897999990985,-0.7850530799999992,3.4127627749974385e-05,-2.3557707250000006,0.00011460402750009107,1.57096555,0.786015765,0.04,0.04,-9.821781749999985,-0.0011658207804466118,0.0009162665224936029,0.0008068819725027054,-0.008320462191482443,0.0004829585675016002
0.165,0.00014475776399990885,-0.7850438159999992,3.38146972999741e-05,-2.3557765300000004,0.0001157167110000921,1.57096456,0.786016626,0.04,0.04,-9.821608499999986,-0.001210249459840247,0.0008381150869935317,0.0008399319990027355,-0.008382682595407089,0.000502507547001618
0.1675,0.00014354544549987996,-0.7850346579999993,3.3470185549965885e-05,-2.3557821150000002,0.00011694035450012096,1.5709635649999998,0.7860175800000001,0.04,0.04,-9.821459649999992,-0.0012548015336542886,0.000766657743495141,0.0008749064325032487,-0.008442962681879294,0.0005232189920019275
0.17,0.00014211092199987866,-0.7850257119999993,3.306251119996551e-05,-2.3557872600000005,0.00011838591800012227,1.57096256,0.7860187200000001,0.04,0.04,-9.821359599999992,-0.0012996003963090495,0.0007085885839950881,0.000913729680003284,-0.00849936213344807,0.0005462553680019485
0.17250000000000001,0.00014067639849987736,-0.7850167659999993,3.265483684996514e-05,-2.3557924050000003,0.0001198314815001236,1.570961555,0.78601986,0.04,0.04,-9.821259549999992,-0.0013443992589638103,0.0006505194244950353,0.0009525529275033193,-0.008555761585016846,0.0005692917440019696
0.17500000000000002,0.00013924187499987604,-0.7850078199999992,3.224716249996477e-05,-2.3557975500000006,0.00012127704500012491,1.57096055,0.7860210000000001,0.04,0.04,-9.821159499999991,-0.001389198121618571,0.0005924502649949823,0.0009913761750033547,-0.008612161036585624,0.0005923281200019906
0.1775,0.00013780735149987477,-0.7849988739999992,3.1839488149964405e-05,-2.3558026950000004,0.0001227226085001262,1.570959545,0.78602214,0.04,0.04,-9.821059449999991,-0.0014339969842733313,0.0005343811054949301,0.0010301994225033896,-0.0086685604881544,0.0006153644960020112
0.18,0.00013637282799987345,-0.7849899279999991,3.143181379996403e-05,-2.35580784,0.00012416817200012754,1.57095854,0.7860232800000001,0.04,0.04,-9.82095939999999,-0.001478795846928092,0.00047631194599487725,0.001069022670003425,-0.008724959939723175,0.0006384008720020322
0.1825,0.00013493830449987215,-0.7849809819999991,3.102413944996366e-05,-2.3558129850000005,0.00012561373550012885,1.570957535,0.7860244200000001,0.04,0.04,-9.820859349999992,-0.0015235947095828528,0.0004182427864948244,0.0011078459175034602,-0.008781359391291953,0.0006614372480020532
0.185,0.0001332450069998359,-0.7849721399999992,3.0542910299953356e-05,-2.3558174700000003,0.00012731853000016516,1.5709564999999999,0.786025755,0.0399999995,0.04,-9.820756499999991,-0.0015668219304681415,0.00035368161939389474,0.0011508290900040575,-0.008832457847897553,0.000687086036002427
0.1875,0.00013142232249983423,-0.7849633499999992,3.0024903749952888e-05,-2.3558216250000004,0.00012915294000016684,1.57095545,0.7860271875000001,0.03999999875,0.04,-9.820652249999991,-0.0016092633304690101,0.000285874448493833,0.0011958922250040985,-0.00888090580702263,0.0007140410300024516
0.19,0.00012959963799983256,-0.7849545599999992,2.9506897199952416e-05,-2.35582578,0.00013098735000016852,1.5709544,0.7860286200000001,0.039999998,0.04,-9.82054799999999,-0.0016517047304698787,0.00021806727759377125,0.0012409553600041395,-0.00892935376614771,0.0007409960240024761
0.1925,0.0001277769534998309,-0.7849457699999992,2.8988890649951944e-05,-2.355829935,0.00013282176000017017,1.57095335,0.7860300525000001,0.03999999725,0.04,-9.82044374999999,-0.0016941461304707474,0.00015026010669370952,0.0012860184950041805,-0.008977801725272789,0.0007679510180025006
0.195,0.00012595426899982925,-0.7849369799999992,2.8470884099951472e-05,-2.35583409,0.00013465617000017185,1.5709522999999999,0.7860314850000001,0.0399999965,0.04,-9.82033949999999,-0.001736587530471616,8.245293579364782e-05,0.0013310816300042216,-0.009026249684397868,0.0007949060120025251
0.1975,0.0001241315844998276,-0.7849281899999992,2.7952877549951003e-05,-2.355838245,0.00013649058000017353,1.5709512499999998,0.7860329175000002,0.03999999575,0.04,-9.82023524999999,-0.0017790289304724846,1.4645764893586057e-05,0.0013761447650042626,-0.009074697643522948,0.0008218610060025497
0.2,0.0001223088999997834,-0.7849193999999993,2.7434870999938446e-05,-2.3558424000000002,0.00013832499000021776,1.5709501999999997,0.7860343500000002,0.039999995,0.04,-9.820130999999988,-0.0018214703304730785,-5.3161406006081384e-05,0.0014212079000049459,-0.00912314560264718,0.0008488160000029632
0.2025,0.0001200409215997736,-0.7849107599999992,2.6790327449935662e-05,-2.3558456100000003,0.00014060525400022762,1.5709486249999998,0.7860361725000001,0.039999994250000004,0.0399999985,-9.819998249999987,-0.0018610348866826094,-0.00011683993310635654,0.0014729959250051696,-0.009162722853947576,0.0008798441300030972
0.20500000000000002,0.0001177729431997638,-0.7849021199999991,2.6145783899932875e-05,-2.3558488200000003,0.00014288551800023747,1.5709470499999998,0.7860379950000002,0.039999993500000004,0.039999997,-9.819865499999986,-0.0019005994428921405,-0.0001805184602066317,0.0015247839500053934,-0.009202300105247972,0.0009108722600032314
0.20750000000000002,0.000115504964799754,-0.7848934799999991,2.550124034993009e-05,-2.3558520300000003,0.00014516578200024732,1.5709454749999998,0.7860398175000002,0.039999992750000005,0.0399999955,-9.819732749999986,-0.0019401639991016714,-0.0002441969873069069,0.0015765719750056172,-0.009241877356548368,0.0009419003900033654
0.21,0.00011323698639974422,-0.784884839999999,2.485669679992731e-05,-2.3558552400000004,0.00014744604600025715,1.5709438999999998,0.7860416400000002,0.039999992,0.039999994,-9.819599999999985,-0.001979728555311202,-0.0003078755144071813,0.0016283600000058403,-0.009281454607848762,0.0009729285200034991
0.2125,0.00011096900799973442,-0.784876199999999,2.4212153249924528e-05,-2.3558584500000004,0.000149726310000267,1.5709423249999999,0.7860434625000002,0.03999999125,0.0399999925,-9.819467249999985,-0.002019293111520733,-0.00037155404150745645,0.001680148025006064,-0.009321031859149159,0.0010039566500036332
0.215,0.00010870102959972462,-0.784867559999999,2.356760969992174e-05,-2.3558616600000004,0.00015200657400027686,1.5709407499999999,0.7860452850000001,0.0399999905,0.039999991,-9.819334499999984,-0.0020588576677302638,-0.0004352325686077316,0.0017319360500062878,-0.009360609110449555,0.0010349847800037672
0.2175,0.00010626492729965771,-0.7848589149999989,2.287529529990273e-05,-2.3558646600000004,0.00015445505450034384,1.5709391599999998,0.7860472630000003,0.0399999899,0.0399999899,-9.819209599999986,-0.002098228363324968,-0.0004905031890047477,0.0017859282550072102,-0.009397987555716502,0.001067331040004319
0.22,0.00010349257719966464,-0.784850259999999,2.2087439199904696e-05,-2.3558672400000003,0.0001572399680003369,1.5709375399999999,0.7860495520000003,0.0399999896,0.0399999896,-9.819100399999986,-0.0021372113376902356,-0.0005289579960046516,0.0018443288200070643,-0.00943096838891901,0.0011023135600042315
0.2225,0.00010072022709967157,-0.784841604999999,2.1299583099906667e-05,-2.35586982,0.0001600248815003299,1.57093592,0.7860518410000003,0.0399999893,0.0399999893,-9.818991199999987,-0.002176194312055503,-0.0005674128030045554,0.0019027293850069184,-0.009463949222121517,0.001137296080004144
0.225,9.79478769996785e-05,-0.784832949999999,2.051172699990864e-05,-2.3558724000000004,0.00016280979500032296,1.5709342999999998,0.7860541300000002,0.039999989,0.039999989,-9.818881999999986,-0.0022151772864207704,-0.0006058676100044593,0.0019611299500067723,-0.009496930055324026,0.0011722786000040568
0.2275,9.517552689968543e-05,-0.7848242949999991,1.9723870899910606e-05,-2.3558749800000003,0.00016559470850031598,1.5709326799999999,0.7860564190000003,0.0399999887,0.0399999887,-9.818772799999987,-0.002254160260786038,-0.0006443224170043631,0.002019530515006626,-0.009529910888526533,0.0012072611200039693
0.23,9.240317679969236e-05,-0.784815639999999,1.8936014799912577e-05,-2.35587756,0.00016837962200030903,1.5709310599999997,0.7860587080000003,0.0399999884,0.0399999884,-9.818663599999987,-0.0022931432351513056,-0.000682777224004267,0.0020779310800064805,-0.00956289172172904,0.0012422436400038818
0.2325,8.96308266996993e-05,-0.784806984999999,1.8148158699914548e-05,-2.3558801400000005,0.00017116453550030205,1.5709294399999998,0.7860609970000003,0.0399999881,0.0399999881,-9.818554399999988,-0.002332126209516573,-0.0007212320310041708,0.0021363316450063344,-0.009595872554931547,0.0012772261600037943
0.23500000000000001,8.648171199963117e-05,-0.784798234999999,1.725325259989519e-05,-2.3558821400000003,0.00017432638300037023,1.5709274799999997,0.7860635490000003,0.0399999876,0.039999987199999996,-9.818470099999992,-0.00236684000119926,-0.0007693071300058443,0.002199215850007197,-0.009624193515631353,0.0013150935400043442
0.23750000000000002,8.314421499961674e-05,-0.784789437499999,1.630482149989109e-05,-2.35588385,0.00017767669750038472,1.5709253499999998,0.7860662325000004,0.039999987,0.039999986,-9.81839824999999,-0.0023994192015416907,-0.0008221923750060728,0.0022643418750074784,-0.009650184540080936,0.001354403350004514
0.24,7.980671799960237e-05,-0.7847806399999989,1.5356390399887002e-05,-2.3558855600000004,0.00018102701200039916,1.5709232199999998,0.7860689160000004,0.0399999864,0.0399999848,-9.818326399999991,-0.0024319984018841214,-0.0008750776200063007,0.0023294679000077593,-0.009676175564530516,0.0013937131600046833
0.2425,7.646922099958795e-05,-0.7847718424999989,1.4407959299882905e-05,-2.35588727,0.00018437732650041362,1.5709210899999997,0.7860715995000004,0.0399999858,0.0399999836,-9.818254549999992,-0.002464577602226552,-0.0009279628650065292,0.0023945939250080406,-0.009702166588980099,0.0014330229700048533
0.245,7.313172399957352e-05,-0.7847630449999988,1.3459528199878808e-05,-2.3558889800000005,0.0001877276410004281,1.5709189599999998,0.7860742830000004,0.039999985200000004,0.039999982399999995,-9.81818269999999,-0.002497156802568983,-0.0009808481100067577,0.002459719950008322,-0.009728157613429681,0.001472332780005023
0.2475,6.97942269995591e-05,-0.7847542474999988,1.251109709987471e-05,-2.3558906900000003,0.00019107795550044258,1.5709168299999998,0.7860769665000004,0.0399999846,0.0399999812,-9.818110849999991,-0.0025297360029114136,-0.0010337333550069863,0.0025248459750086033,-0.009754148637879264,0.0015116425900051928
0.25,6.64567299994591e-05,-0.7847454499999987,1.1562665999846301e-05,-2.3558924,0.00019442827000054264,1.5709146999999999,0.7860796500000005,0.039999984,0.03999998,-9.818038999999992,-0.0025623152032533104,-0.0010866186000056453,0.0025899720000098995,-0.009780139662328135,0.0015509524000059313
0.2525,6.249190149946901e-05,-0.7847364919999987,1.0436034089849117e-05,-2.355893045,0.0001984058260005327,1.5709125099999999,0.7860828315000005,0.0399999834,0.039999979549999995,-9.817971799999992,-0.0025909783435091984,-0.001128000150005542,0.002662537620009718,-0.009800921054559679,0.0015944311000058227
0.255,5.852707299947893e-05,-0.7847275339999987,9.309402179851934e-06,-2.3558936900000003,0.00020238338200052273,1.5709103199999999,0.7860860130000005,0.0399999828,0.0399999791,-9.817904599999991,-0.002619641483765087,-0.0011693817000054385,0.0027351032400095366,-0.009821702446791222,0.0016379098000057141
0.2575,5.456224449948884e-05,-0.7847185759999988,8.182770269854751e-06,-2.3558943350000003,0.0002063609380005128,1.5709081299999998,0.7860891945000005,0.0399999822,0.03999997865,-9.817837399999991,-0.0026483046240209753,-0.0012107632500053351,0.002807668860009355,-0.009842483839022764,0.0016813885000056053
0.26,5.0597415999498755e-05,-0.7847096179999988,7.056138359857568e-06,-2.3558949800000004,0.00021033849400050285,1.5709059399999998,0.7860923760000004,0.0399999816,0.0399999782,-9.817770199999991,-0.0026769677642768637,-0.0012521448000052315,0.0028802344800091736,-0.009863265231254307,0.0017248672000054967
0.2625,4.663258749950867e-05,-0.7847006599999988,5.929506449860385e-06,-2.355895625,0.0002143160500004929,1.5709037499999998,0.7860955575000004,0.039999981,0.03999997775,-9.817702999999993,-0.002705630904532752,-0.001293526350005128,0.002952800100008992,-0.00988404662348585,0.0017683459000053879
0.265,4.266775899951858e-05,-0.7846917019999989,4.802874539863202e-06,-2.35589627,0.00021829360600048297,1.5709015599999998,0.7860987390000004,0.039999980399999996,0.039999977299999996,-9.817635799999993,-0.0027342940447886406,-0.0013349079000050247,0.0030253657200088107,-0.009904828015717394,0.0018118246000052793
0.2675,3.847268799943576e-05,-0.7846826384999989,3.6108408548396773e-06,-2.35589663,0.00022250135350056574,1.5708991849999996,0.7861021090000004,0.03999997985,0.039999976799999996,-9.817551199999986,-0.0027604796574476334,-0.0013775199350054626,0.003100356045009676,-0.009922636812554238,0.0018567619700057998
0.27,3.381713199941565e-05,-0.7846733639999989,2.288003619833961e-06,-2.35589642,0.0002271694840005859,1.5708964399999996,0.7861058560000005,0.039999979399999996,0.0399999762,-9.817431799999985,-0.002781710214915505,-0.0014225929400056574,0.0031801957800100212,-0.00993450041860489,0.0019046166800060064
0.2725,2.916157599939553e-05,-0.7846640894999988,9.65166384828245e-07,-2.35589621,0.0002318376145006061,1.5708936949999996,0.7861096030000004,0.03999997895,0.0399999756,-9.817312399999985,-0.0028029407723833767,-0.0014676659450058522,0.003260035515010366,-0.00994636402465554,0.0019524713900062132
0.275,2.450601999937541e-05,-0.7846548149999988,-3.576708501774711e-07,-2.355896,0.00023650574500062627,1.5708909499999997,0.7861133500000005,0.0399999785,0.039999975,-9.817192999999984,-0.002824171329851248,-0.001512738950006047,0.003339875250010711,-0.009958227630706192,0.00200032610000642
0.2775,1.9850463999355297e-05,-0.7846455404999987,-1.6805080851831868e-06,-2.35589579,0.00024117387550064644,1.5708882049999997,0.7861170970000005,0.039999978049999996,0.0399999744,-9.817073599999985,-0.00284540188731912,-0.0015578119550062417,0.003419714985011056,-0.009970091236756842,0.002048180810006627
0.28,1.5194907999335182e-05,-0.7846362659999987,-3.0033453201889025e-06,-2.35589558,0.0002458420060006666,1.5708854599999995,0.7861208440000005,0.0399999776,0.0399999738,-9.816954199999984,-0.0028666324447869916,-0.0016028849600064365,0.003499554720011401,-0.009981954842807493,0.0020960355200068336
0.28250000000000003,1.0539351999315064e-05,-0.7846269914999987,-4.326182555194618e-06,-2.35589537,0.0002505101365006868,1.5708827149999995,0.7861245910000005,0.03999997715,0.039999973200000004,-9.816834799999983,-0.0028878630022548635,-0.0016479579650066313,0.0035793944550117462,-0.009993818448858145,0.00214389023000704
0.28500000000000003,5.380439399205207e-06,-0.7846174399999986,-5.791985470225821e-06,-2.3558945399999995,0.0002556814050007966,1.5708797499999996,0.7861287460000006,0.0399999763,0.0399999717,-9.816757599999992,-0.002905224612916196,-0.0016865245000051874,0.0036641797600128175,-0.010002318955958822,0.0021947946900077015
0.28750000000000003,-3.015150078126505e-08,-0.7846077499999986,-7.329271225221977e-06,-2.3558934,0.00026110424250078303,1.5708766749999996,0.7861331050000006,0.03999997525,0.03999996975,-9.816701499999992,-0.0029206517501755526,-0.001721837800005099,0.0037514378500125996,-0.010009137913585636,0.0022472240250075706
0.29,-5.4407424007676184e-06,-0.7845980599999987,-8.8665569802181e-06,-2.3558922599999996,0.0002665270800007694,1.5708735999999996,0.7861374640000006,0.0399999742,0.0399999678,-9.816645399999993,-0.0029360788874349085,-0.00175715110000501,0.003838695940012379,-0.010015956871212447,0.0022996533600074384
0.2925,-1.0851333300754089e-05,-0.7845883699999986,-1.0403842735214256e-05,-2.3558911199999995,0.00027194991750075577,1.5708705249999997,0.7861418230000006,0.03999997315,0.03999996585,-9.816589299999993,-0.002951506024694265,-0.0017924644000049217,0.003925954030012161,-0.01002277582883926,0.002352082695007307
0.295,-1.626192420074056e-05,-0.7845786799999986,-1.1941128490210411e-05,-2.3558899799999997,0.0002773727550007422,1.5708674499999995,0.7861461820000005,0.0399999721,0.0399999639,-9.816533199999993,-0.0029669331619536217,-0.0018277777000048334,0.004013212120011943,-0.010029594786466074,0.002404512030007176
0.2975,-2.167251510072703e-05,-0.7845689899999987,-1.3478414245206568e-05,-2.3558888399999995,0.0002827955925007287,1.5708643749999995,0.7861505410000006,0.03999997105,0.03999996195,-9.816477099999993,-0.002982360299212978,-0.001863091000004745,0.004100470210011724,-0.010036413744092887,0.0024569413650070452
0.3,-2.708310600082166e-05,-0.7845592999999986,-1.5015700000233443e-05,-2.3558876999999994,0.00028821843000082317,1.5708612999999996,0.7861549000000007,0.03999997,0.03999996,-9.816420999999993,-0.0029977874364713842,-0.0018984043000058047,0.004187728300012481,-0.010043232701718925,0.0025093707000074907
0.3025,-3.331382910080608e-05,-0.7845490849999986,-1.6785928600229018e-05,-2.3558856449999994,0.0002944607490008076,1.5708578499999994,0.7861599010000007,0.0399999694,0.039999959700000004,-9.816365349999993,-0.0030060088261971685,-0.0019424225800056946,0.004282375210012244,-0.010044177062809582,0.0025661708400073484
0.305,-3.9544552200790505e-05,-0.7845388699999987,-1.8556157200224592e-05,-2.3558835899999995,0.00030070306800079194,1.5708543999999995,0.7861649020000007,0.0399999688,0.0399999594,-9.816309699999993,-0.0030142302159229532,-0.0019864408600055844,0.004377022120012008,-0.01004512142390024,0.0026229709800072065
0.3075,-4.577527530077492e-05,-0.7845286549999987,-2.0326385800220165e-05,-2.3558815349999995,0.00030694538700077635,1.5708509499999996,0.7861699030000006,0.0399999682,0.0399999591,-9.816254049999994,-0.0030224516056487375,-0.0020304591400054747,0.004471669030011771,-0.010046065784990897,0.0026797711200070642
0.31,-5.2005998400759345e-05,-0.7845184399999988,-2.2096614400215742e-05,-2.3558794799999996,0.00031318770600076076,1.5708474999999995,0.7861749040000006,0.0399999676,0.0399999588,-9.816198399999994,-0.003030672995374522,-0.0020744774200053646,0.004566315940011534,-0.010047010146081555,0.0027365712600069224
0.3125,-5.823672150074376e-05,-0.7845082249999988,-2.3866843000211315e-05,-2.3558774249999996,0.0003194300250007451,1.5708440499999996,0.7861799050000006,0.039999967,0.0399999585,-9.816142749999994,-0.003038894385100306,-0.0021184957000052545,0.004660962850011298,-0.010047954507172212,0.0027933714000067805
0.315,-6.446744460072819e-05,-0.7844980099999989,-2.563707160020689e-05,-2.3558753699999997,0.00032567234400072954,1.5708405999999995,0.7861849060000006,0.039999966399999996,0.039999958200000005,-9.816087099999994,-0.003047115774826091,-0.0021625139800051443,0.004755609760011061,-0.01004889886826287,0.0028501715400066382
0.3175,-7.09934325008301e-05,-0.7844875999999988,-2.7491160800235833e-05,-2.3558730349999997,0.00033220967200083137,1.5708369699999996,0.7861901380000006,0.0399999657,0.0399999578,-9.816031649999994,-0.0030520698754114206,-0.0022072498150053858,0.0048528007650119305,-0.010047907149418611,0.002908484585007155
0.32,-7.810995000086085e-05,-0.7844767999999988,-2.951297120024457e-05,-2.3558701399999995,0.0003393370180008622,1.5708329799999994,0.7861958320000006,0.039999964799999996,0.0399999572,-9.815976599999994,-0.0030504893977192286,-0.0022534207600055853,0.004955079960012372,-0.010043043270706532,0.0029698234400074197
0.3225,-8.522646750089161e-05,-0.7844659999999987,-3.15347816002533e-05,-2.3558672449999998,0.00034646436400089295,1.5708289899999994,0.7862015260000007,0.0399999639,0.0399999566,-9.815921549999993,-0.0030489089200270367,-0.002299591705005785,0.005057359155012814,-0.01003817939199445,0.003031162295007685
0.325,-9.234298500092236e-05,-0.7844551999999986,-3.355659200026204e-05,-2.3558643499999996,0.00035359171000092377,1.5708249999999995,0.7862072200000008,0.039999963,0.039999955999999996,-9.815866499999993,-0.003047328442334845,-0.0023457626500059843,0.0051596383500132565,-0.010033315513282369,0.0030925011500079497
0.3275,-9.94595025009531e-05,-0.7844443999999986,-3.5578402400270776e-05,-2.355861455,0.00036071905600095454,1.5708210099999993,0.7862129140000007,0.0399999621,0.0399999554,-9.815811449999993,-0.003045747964642653,-0.002391933595006184,0.005261917545013699,-0.010028451634570288,0.003153840005008215
0.33,-0.00010657602000098385,-0.7844335999999985,-3.760021280027951e-05,-2.3558585599999997,0.00036784640200098536,1.5708170199999993,0.7862186080000008,0.0399999612,0.0399999548,-9.815756399999993,-0.0030441674869504613,-0.0024381045400063833,0.00536419674001414,-0.010023587755858208,0.00321517886000848
0.3325,-0.0001136925375010146,-0.7844227999999984,-3.962202320028825e-05,-2.3558556649999995,0.0003749737480010162,1.5708130299999994,0.7862243020000008,0.0399999603,0.0399999542,-9.815701349999992,-0.0030425870092582693,-0.002484275485006583,0.005466475935014582,-0.010018723877146127,0.003276517715008745
0.335,-0.00012144364800114849,-0.7844115569999983,-4.182406350032627e-05,-2.3558520099999996,0.0003827350390011499,1.5708086999999993,0.7862305000000009,0.0399999598,0.0399999536,-9.815664699999996,-0.00303386452141967,-0.00252739272000592,0.005573859800015649,-0.010011006705461609,0.0033409023200093816
0.3375,-0.00012951205500112833,-0.7844000924999984,-4.411621875032054e-05,-2.3558479749999996,0.0003908133025011297,1.5708041999999993,0.7862369500000009,0.0399999595,0.039999953,-9.815637249999996,-0.0030215710285101806,-0.002568983100005816,0.0056837960000153745,-0.010001862887291796,0.0034068098000092167
0.34,-0.00013758046200110815,-0.7843886279999984,-4.6408374000314815e-05,-2.3558439399999997,0.0003988915660011095,1.5707996999999994,0.7862434000000009,0.039999959200000004,0.0399999524,-9.815609799999995,-0.0030092775356006917,-0.0026105734800057124,0.005793732200015099,-0.009992719069121983,0.003472717280009052
0.3425,-0.00014564886900108798,-0.7843771634999984,-4.870052925030908e-05,-2.3558399049999994,0.0004069698295010893,1.5707951999999994,0.7862498500000009,0.0399999589,0.039999951799999996,-9.815582349999996,-0.0029969840426912024,-0.0026521638600056083,0.005903668400014824,-0.009983575250952172,0.003538624760008887
0.34500000000000003,-0.0001537172760010678,-0.7843656989999984,-5.099268450030335e-05,-2.3558358699999995,0.0004150480930010691,1.5707906999999994,0.7862563000000008,0.0399999586,0.0399999512,-9.815554899999997,-0.002984690549781713,-0.002693754240005504,0.00601360460001455,-0.00997443143278236,0.0036045322400087227
0.34750000000000003,-0.00016178568300104763,-0.7843542344999985,-5.328483975029762e-05,-2.3558318349999996,0.0004231263565010489,1.5707861999999995,0.7862627500000008,0.0399999583,0.0399999506,-9.815527449999996,-0.002972397056872224,-0.0027353446200054,0.006123540800014275,-0.009965287614612546,0.0036704397200085577
0.35000000000000003,-0.00016985409000115712,-0.7843427699999984,-5.557699500032871e-05,-2.3558277999999997,0.00043120462000115824,1.5707816999999993,0.7862692000000009,0.039999958,0.03999995,-9.815499999999991,-0.0029601035639612683,-0.0027769350000058936,0.006233477000014977,-0.009956143796441984,0.0037363472000089934
0.3525,-0.00017894071650119617,-0.7843305299999983,-5.8158323250339806e-05,-2.3558226099999993,0.00044030000650119734,1.5707766299999992,0.7862764675000009,0.0399999583,0.03999995,-9.815436699999992,-0.0029362949775499957,-0.0028232180550060927,0.006351086975015483,-0.00994110777973927,0.003806968610009297
0.355,-0.00018802734300123544,-0.7843182899999983,-6.073965150035096e-05,-2.3558174199999993,0.0004493953930012366,1.5707715599999992,0.786283735000001,0.0399999586,0.03999995,-9.815373399999991,-0.002912486391138723,-0.0028695011100062927,0.006468696950015991,-0.009926071763036556,0.0038775900200096023
0.3575,-0.0001971139695012747,-0.7843060499999982,-6.332097975036211e-05,-2.3558122299999993,0.0004584907795012759,1.5707664899999993,0.7862910025000011,0.0399999589,0.03999995,-9.81531009999999,-0.00288867780472745,-0.0029157841650064927,0.006586306925016499,-0.00991103574633384,0.003948211430009907
0.36,-0.00020620059600131397,-0.7842938099999982,-6.590230800037326e-05,-2.3558070399999993,0.0004675861660013152,1.5707614199999993,0.7862982700000011,0.039999959200000004,0.03999995,-9.81524679999999,-0.002864869218316177,-0.0029620672200066926,0.006703916900017007,-0.009895999729631125,0.004018832840010212
0.3625,-0.00021528722250135324,-0.7842815699999981,-6.848363625038442e-05,-2.3558018499999993,0.0004766815525013545,1.5707563499999992,0.7863055375000011,0.0399999595,0.03999995,-9.815183499999991,-0.002841060631904904,-0.003008350275006893,0.006821526875017515,-0.00988096371292841,0.004089454250010518
0.365,-0.0002243738490013925,-0.7842693299999981,-7.106496450039558e-05,-2.3557966599999993,0.0004857769390013938,1.5707512799999992,0.7863128050000011,0.0399999598,0.03999995,-9.81512019999999,-0.002817252045493631,-0.003054633330007093,0.006939136850018023,-0.009865927696225695,0.004160075660010823
0.3675,-0.0002338220300015911,-0.7842568039999979,-7.374897800045198e-05,-2.355791104999999,0.0004952333760015921,1.5707459949999991,0.7863203625000013,0.03999996,0.03999995,-9.815060749999992,-0.0027900475077277716,-0.0031029686150082034,0.0070592793750195865,-0.009849132597443237,0.004232185685011746
0.37,-0.00024399332000160035,-0.7842437059999979,-7.663836200045462e-05,-2.355784819999999,0.0005054119140016015,1.570740279999999,0.7863285000000013,0.03999996,0.03999995,-9.815008999999991,-0.002756051067257511,-0.003155408360008251,0.0071844870000197,-0.009828819334503764,0.004307272940011815
0.3725,-0.00025416461000160964,-0.7842306079999979,-7.952774600045725e-05,-2.355778534999999,0.0005155904520016107,1.570734564999999,0.7863366375000013,0.03999996,0.03999995,-9.814957249999992,-0.00272205462678725,-0.0032078481050082986,0.007309694625019814,-0.00980850607156429,0.004382360195011883
0.375,-0.0002643359000016189,-0.7842175099999978,-8.241713000045988e-05,-2.355772249999999,0.00052576899000162,1.570728849999999,0.7863447750000013,0.03999996,0.03999995,-9.814905499999991,-0.002688058186316989,-0.0032602878500083464,0.007434902250019928,-0.009788192808624818,0.004457447450011951
0.3775,-0.00027450719000162815,-0.7842044119999979,-8.53065140004625e-05,-2.355765964999999,0.0005359475280016292,1.570723134999999,0.7863529125000013,0.03999996,0.03999995,-9.814853749999992,-0.0026540617458467282,-0.0033127275950083942,0.007560109875020041,-0.009767879545685344,0.00453253470501202
0.38,-0.0002846784800016374,-0.7841913139999979,-8.819589800046514e-05,-2.355759679999999,0.0005461260660016386,1.570717419999999,0.7863610500000013,0.03999996,0.03999995,-9.814801999999991,-0.002620065305376467,-0.0033651673400084416,0.007685317500020156,-0.009747566282745871,0.004607621960012088
0.3825,-0.00029484977000164667,-0.7841782159999978,-9.108528200046776e-05,-2.355753394999999,0.0005563046040016478,1.570711704999999,0.7863691875000013,0.03999996,0.03999995,-9.814750249999992,-0.002586068864906206,-0.0034176070850084894,0.00781052512502027,-0.009727253019806396,0.004682709215012156
0.385,-0.0003057884580018433,-0.7841644849999977,-9.419258800052362e-05,-2.355746369999999,0.0005672495100018443,1.570705609999999,0.7863779400000015,0.03999996,0.03999995,-9.814707099999994,-0.0025415958370931667,-0.003472315080009091,0.007940822900021627,-0.009703807905312238,0.004760858470012972
0.3875,-0.0003171108450018536,-0.7841504374999977,-9.740885500052654e-05,-2.355738974999999,0.0005785776000018546,1.570699324999999,0.7863870000000015,0.03999996,0.03999995,-9.814668249999993,-0.0024918845156125615,-0.003528157200009142,0.008073665750021747,-0.00967879686504188,0.0048405387250130445
0.39,-0.00032843323200186395,-0.7841363899999977,-0.00010062512200052948,-2.3557315799999987,0.0005899056900018648,1.570693039999999,0.7863960600000015,0.03999996,0.03999995,-9.814629399999994,-0.0024421731941319563,-0.003583999320009193,0.008206508600021869,-0.009653785824771523,0.004920218980013117
0.3925,-0.00033975561900187424,-0.7841223424999977,-0.0001038413890005324,-2.355724184999999,0.0006012337800018752,1.5706867549999988,0.7864051200000015,0.03999996,0.03999995,-9.814590549999995,-0.002392461872651351,-0.003639841440009244,0.00833935145002199,-0.009628774784501165,0.00499989923501319
0.395,-0.00035107800600188454,-0.7841082949999977,-0.00010705765600053533,-2.355716789999999,0.0006125618700018855,1.5706804699999988,0.7864141800000015,0.03999996,0.03999995,-9.814551699999994,-0.002342750551170746,-0.0036956835600092945,0.00847219430002211,-0.009603763744230807,0.0050795794900132625
0.3975,-0.0003624003930018949,-0.7840942474999977,-0.00011027392300053826,-2.3557093949999985,0.0006238899600018958,1.5706741849999988,0.7864232400000015,0.03999996,0.03999995,-9.814512849999995,-0.0022930392296901404,-0.0037515256800093456,0.008605037150022232,-0.00957875270396045,0.005159259745013335
0.4,-0.00037372278000211004,-0.7840801999999975,-0.00011349019000059936,-2.3557019999999986,0.0006352180500021107,1.5706678999999988,0.7864323000000016,0.03999996,0.03999995,-9.814473999999995,-0.002243327908207763,-0.003807367800010237,0.008737880000023622,-0.00955374166368929,0.0052389400000142005
0.4025,-0.0003862625925020787,-0.7840650949999975,-0.00011705221900059047,-2.3556934499999986,0.0006477618120020794,1.5706609399999987,0.7864423260000016,0.03999996,0.03999994955,-9.814442349999995,-0.0021830838173527885,-0.003868205805010085,0.00887826470002327,-0.00952397165819501,0.00532333430501399
0.405,-0.00039880240500204733,-0.7840499899999975,-0.00012061424800058156,-2.3556848999999986,0.000660305574002048,1.5706539799999988,0.7864523520000016,0.03999996,0.0399999491,-9.814410699999994,-0.0021228397264978142,-0.0039290438100099325,0.00901864940002292,-0.00949420165270073,0.005407728610013779
0.40750000000000003,-0.000411342217502016,-0.7840348849999976,-0.00012417627700057264,-2.3556763499999986,0.0006728493360020166,1.5706470199999987,0.7864623780000016,0.03999996,0.03999994865,-9.814379049999996,-0.00206259563564284,-0.003989881815009781,0.009159034100022568,-0.009464431647206449,0.005492122915013568
0.41000000000000003,-0.0004238820300019846,-0.7840197799999976,-0.00012773830600056374,-2.3556677999999986,0.0006853930980019852,1.5706400599999988,0.7864724040000015,0.03999996,0.0399999482,-9.814347399999996,-0.0020023515447878657,-0.004050719820009629,0.009299418800022217,-0.009434661641712168,0.005576517220013356
0.41250000000000003,-0.0004364218425019533,-0.7840046749999977,-0.00013130033500055485,-2.3556592499999987,0.0006979368600019539,1.570633099999999,0.7864824300000015,0.03999996,0.03999994775,-9.814315749999995,-0.001942107453932891,-0.004111557825009477,0.009439803500021866,-0.009404891636217888,0.005660911525013145
0.41500000000000004,-0.0004489616550019219,-0.7839895699999977,-0.00013486236400054593,-2.3556506999999987,0.0007104806220019225,1.5706261399999988,0.7864924560000015,0.03999996,0.0399999473,-9.814284099999995,-0.0018818633630779168,-0.004172395830009325,0.009580188200021515,-0.009375121630723607,0.005745305830012934
0.4175,-0.0004619292860021152,-0.7839741049999975,-0.00013854588750060082,-2.3556417299999985,0.0007234515235021154,1.5706189399999988,0.7865028205000016,0.03999996,0.039999947,-9.814255949999998,-0.0018168084323291634,-0.004236932705011008,0.009723135450022657,-0.00934396088122795,0.005831180080013593
0.42,-0.00047575255400217494,-0.7839579199999975,-0.0001424724000006178,-2.3556319199999987,0.0007372767040021752,1.5706112599999986,0.7865138620000017,0.03999996,0.039999947,-9.814234799999998,-0.0017421318217994107,-0.004308867320011318,0.009871207800023298,-0.00931001864373144,0.005920014220013977
0.4225,-0.0004895758220022346,-0.7839417349999974,-0.00014639891250063476,-2.3556221099999983,0.0007511018845022349,1.5706035799999987,0.7865249035000018,0.03999996,0.039999947,-9.814213649999997,-0.001667455211269658,-0.004380801935011629,0.010019280150023936,-0.009276076406234927,0.00600884836001436
0.425,-0.0005033990900022943,-0.7839255499999973,-0.00015032542500065173,-2.3556122999999984,0.0007649270650022947,1.5705958999999987,0.7865359450000019,0.03999996,0.039999947,-9.814192499999997,-0.0015927786007399053,-0.004452736550011939,0.010167352500024577,-0.009242134168738416,0.006097682500014744
0.4275,-0.0005172223580023541,-0.7839093649999973,-0.00015425193750066867,-2.355602489999998,0.0007787522455023544,1.5705882199999985,0.7865469865000019,0.03999996,0.039999947,-9.814171349999997,-0.0015181019902101526,-0.0045246711650122505,0.010315424850025217,-0.009208191931241904,0.006186516640015128
0.43,-0.0005310456260024138,-0.7838931799999972,-0.00015817845000068564,-2.355592679999998,0.0007925774260024142,1.5705805399999986,0.786558028000002,0.03999996,0.039999947,-9.814150199999997,-0.0014434253796803999,-0.004596605780012562,0.010463497200025857,-0.009174249693745393,0.006275350780015512
0.4325,-0.0005448688940024736,-0.7838769949999971,-0.0001621049625007026,-2.3555828699999983,0.0008064026065024739,1.5705728599999986,0.786569069500002,0.03999996,0.039999947,-9.814129049999996,-0.0013687487691506472,-0.004668540395012872,0.010611569550026496,-0.009140307456248881,0.006364184920015896
0.435,-0.0005595916150027115,-0.7838599599999969,-0.0001662869070007702,-2.355572159999998,0.0008211258160027115,1.5705646499999986,0.7865808390000022,0.0399999606,0.0399999473,-9.814100999999994,-0.0012830574065283114,-0.004738967740012452,0.01076466770002781,-0.009103409014635373,0.006456049210016688
0.4375,-0.0005747640625026736,-0.7838424999999969,-0.00017059656750075943,-2.355560999999998,0.0008362980400026736,1.5705561749999986,0.7865929725000022,0.0399999615,0.03999994775,-9.814069499999993,-0.0011918586678641545,-0.004808641450012277,0.01092027875002742,-0.009065032470964563,0.006549428575016455
0.44,-0.0005899365100026357,-0.783825039999997,-0.00017490622800074866,-2.355549839999998,0.0008514702640026356,1.5705476999999985,0.7866051060000021,0.0399999624,0.0399999482,-9.814037999999995,-0.0011006599291999975,-0.004878315160012104,0.011075889800027033,-0.009026655927293754,0.006642807940016221
0.4425,-0.0006051089575025978,-0.783807579999997,-0.00017921588850073787,-2.355538679999998,0.0008666424880025977,1.5705392249999985,0.7866172395000022,0.0399999633,0.03999994865,-9.814006499999994,-0.0010094611905358405,-0.004947988870011929,0.011231500850026643,-0.008988279383622944,0.0067361873050159875
0.445,-0.0006202814050025598,-0.783790119999997,-0.0001835255490007271,-2.355527519999998,0.0008818147120025597,1.5705307499999985,0.7866293730000021,0.0399999642,0.0399999491,-9.813974999999994,-0.0009182624518716835,-0.005017662580011755,0.011387111900026253,-0.008949902839952137,0.006829566670015754
0.4475,-0.0006354538525025218,-0.7837726599999971,-0.00018783520950071633,-2.3555163599999984,0.0008969869360025218,1.5705222749999987,0.7866415065000021,0.0399999651,0.03999994955,-9.813943499999995,-0.0008270637132075265,-0.00508733629001158,0.011542722950025864,-0.008911526296281327,0.006922946035015521
0.45,-0.0006506263000027154,-0.7837551999999969,-0.00019214487000077132,-2.355505199999998,0.000912159160002715,1.5705137999999985,0.7866536400000023,0.039999966,0.03999995,-9.813911999999995,-0.0007358649745405183,-0.005157010000014727,0.01169833400002669,-0.008873149752609843,0.0070163254000160475
0.4525,-0.0006672132400027871,-0.7837365249999968,-0.00019685625300079168,-2.355492764999998,0.0009287435110027867,1.5705046049999984,0.7866668940000022,0.039999966,0.03999994955,-9.813880649999994,-0.0006272505968626164,-0.005246963140015115,0.011861369750027394,-0.008830654062323504,0.007114351330016471
0.455,-0.0006838001800028588,-0.7837178499999968,-0.000201567636000812,-2.355480329999998,0.0009453278620028583,1.5704954099999984,0.7866801480000023,0.039999966,0.0399999491,-9.813849299999994,-0.0005186362191847145,-0.005336916280015504,0.0120244055000281,-0.008788158372037166,0.007212377260016895
0.4575,-0.0007003871200029305,-0.7836991749999968,-0.00020627901900083237,-2.3554678949999976,0.0009619122130029301,1.5704862149999985,0.7866934020000024,0.039999966,0.03999994865,-9.813817949999995,-0.00041002184150681247,-0.005426869420015893,0.012187441250028805,-0.008745662681750827,0.007310403190017319
0.46,-0.0007169740600030022,-0.7836804999999967,-0.00021099040200085273,-2.3554554599999977,0.0009784965640030018,1.5704770199999984,0.7867066560000024,0.039999966,0.0399999482,-9.813786599999995,-0.0003014074638289105,-0.005516822560016281,0.01235047700002951,-0.008703166991464489,0.0074084291200177425
0.4625,-0.0007335610000030739,-0.7836618249999966,-0.0002157017850008731,-2.355443024999998,0.0009950809150030735,1.5704678249999984,0.7867199100000025,0.039999966,0.03999994775,-9.813755249999994,-0.00019279308615100855,-0.00560677570001667,0.012513512750030214,-0.00866067130117815,0.007506455050018166
0.465,-0.0007501479400031456,-0.7836431499999965,-0.00022041316800089345,-2.3554305899999974,0.001011665266003145,1.5704586299999983,0.7867331640000026,0.039999966,0.0399999473,-9.813723899999994,-8.417870847310664e-05,-0.005696728840017058,0.012676548500030919,-0.008618175610891812,0.00760448098001859
0.4675,-0.0007672279600034836,-0.7836240099999962,-0.00022526458900098945,-2.3554176749999973,0.0010287418300034827,1.5704491549999982,0.7867468050000028,0.03999996635,0.03999994735,-9.813695949999996,2.9320735508129266e-05,-0.005785420520016615,0.012842088250032887,-0.008574257930731643,0.007703957370019741
0.47000000000000003,-0.0007852941400035001,-0.7836039399999961,-0.00023039608600099412,-2.3554037999999973,0.001046802820003499,1.570439119999998,0.7867612200000028,0.039999967399999996,0.0399999484,-9.813674799999996,0.00015259031208756887,-0.005871589280016694,0.01301263600003304,-0.00852749627082628,0.0078063346800198346
0.47250000000000003,-0.0008033603200035164,-0.7835838699999961,-0.00023552758300099882,-2.355389924999997,0.0010648638100035155,1.570429084999998,0.7867756350000028,0.03999996845,0.03999994945,-9.813653649999996,0.00027585988866700846,-0.0059577580400167725,0.013183183750033196,-0.008480734610920918,0.007908711990019928
0.47500000000000003,-0.0008214265000035329,-0.7835637999999961,-0.0002406590800010035,-2.355376049999997,0.001082924800003532,1.5704190499999982,0.7867900500000028,0.0399999695,0.0399999505,-9.813632499999995,0.00039912946524644805,-0.006043926800016851,0.013353731500033352,-0.008433972951015556,0.00801108930002002
0.47750000000000004,-0.0008394926800035494,-0.7835437299999961,-0.00024579057700100813,-2.355362174999997,0.0011009857900035483,1.570409014999998,0.7868044650000029,0.03999997055,0.039999951549999996,-9.813611349999995,0.0005223990418258877,-0.006130095560016929,0.013524279250033508,-0.008387211291110194,0.008113466610020114
0.48,-0.0008575588600035655,-0.7835236599999961,-0.0002509220740010127,-2.355348299999997,0.0011190467800035644,1.570398979999998,0.7868188800000029,0.0399999716,0.0399999526,-9.813590199999995,0.0006456686184053245,-0.006216264320017006,0.013694827000033659,-0.008340449631204831,0.008215843920020205
0.4825,-0.0008756250400035818,-0.783503589999996,-0.00025605357100101737,-2.355334424999997,0.001137107770003581,1.5703889449999981,0.7868332950000029,0.03999997265,0.039999953649999996,-9.813569049999995,0.0007689381949847642,-0.006302433080017085,0.013865374750033814,-0.008293687971299469,0.008318221230020297
0.485,-0.0008947201900039057,-0.7834825969999958,-0.0002614772880011094,-2.3553196599999966,0.0011561958900039042,1.570378339999998,0.7868485440000031,0.0399999734,0.039999954399999996,-9.813540699999994,0.0009056418203102757,-0.006400898740020837,0.01404084660003544,-0.008244097698469652,0.008423557200021274
0.4875,-0.0009143298250039235,-0.7834611424999958,-0.00026704711500111445,-2.3553044499999967,0.001175797575003922,1.5703674499999978,0.7868642100000031,0.039999974,0.039999955,-9.813508749999993,0.0010490624700028213,-0.006505512850020932,0.014218780500035602,-0.00819309311917887,0.008530372500021371
0.49,-0.0009339394600039414,-0.7834396879999957,-0.0002726169420011195,-2.3552892399999967,0.0011953992600039398,1.5703565599999978,0.7868798760000031,0.0399999746,0.0399999556,-9.813476799999993,0.0011924831196953667,-0.006610126960021027,0.014396714400035765,-0.00814208853988809,0.008637187800021469
0.4925,-0.0009535490950039593,-0.7834182334999957,-0.0002781867690011246,-2.355274029999997,0.0012150009450039576,1.5703456699999978,0.7868955420000031,0.0399999752,0.0399999562,-9.813444849999993,0.0013359037693879124,-0.006714741070021122,0.014574648300035926,-0.008091083960597307,0.008744003100021566
0.495,-0.0009731587300039771,-0.7833967789999957,-0.00028375659600112966,-2.355258819999997,0.0012346026300039754,1.5703347799999978,0.7869112080000031,0.0399999758,0.0399999568,-9.813412899999994,0.001479324419080458,-0.006819355180021218,0.014752582200036089,-0.008040079381306525,0.008850818400021663
0.4975,-0.000992768365003995,-0.7833753244999957,-0.0002893264230011347,-2.355243609999997,0.0012542043150039932,1.5703238899999978,0.7869268740000032,0.0399999764,0.0399999574,-9.813380949999994,0.0016227450687730034,-0.006923969290021313,0.01493051610003625,-0.007989074802015744,0.00895763370002176
0.5,-0.0010123780000043418,-0.7833538699999953,-0.00029489625000123315,-2.3552283999999966,0.0012738060000043394,1.5703129999999976,0.7869425400000034,0.039999977,0.039999958,-9.813348999999999,0.0017661657184692957,-0.00702858340002165,0.015108450000037897,-0.007938070222724268,0.00906444900002276
0.5025000000000001,-0.0010335946600043614,-0.7833308554999953,-0.0003009224775012388,-2.3552118099999966,0.0012950117250043593,1.5703012099999976,0.7869594690000035,0.03999997805,0.039999959200000004,-9.81334405,0.0019278949592594615,-0.007134383695021749,0.01529363850003807,-0.007883673696767518,0.009175664550022862
0.505,-0.0010548113200043803,-0.7833078409999953,-0.00030694870500124415,-2.3551952199999966,0.0013162174500043781,1.5702894199999975,0.7869763980000034,0.0399999791,0.0399999604,-9.8133391,0.00208962420004962,-0.007240183990021843,0.015478827000038234,-0.007829277170810769,0.009286880100022961
0.5075000000000001,-0.0010760279800044001,-0.7832848264999952,-0.00031297493250124976,-2.3551786299999966,0.0013374231750043978,1.5702776299999976,0.7869933270000035,0.03999998015,0.0399999616,-9.81333415,0.002251353440839786,-0.007345984285021942,0.015664015500038406,-0.007774880644854019,0.009398095650023065
0.51,-0.0010972446400044189,-0.7832618119999952,-0.00031900116000125516,-2.3551620399999966,0.0013586289000044167,1.5702658399999976,0.7870102560000035,0.0399999812,0.0399999628,-9.8133292,0.0024130826816299447,-0.007451784580022036,0.015849204000038572,-0.00772048411889727,0.009509311200023164
0.5125,-0.0011184613000044378,-0.7832387974999951,-0.0003250273875012605,-2.3551454499999966,0.0013798346250044355,1.5702540499999975,0.7870271850000035,0.03999998225,0.039999964,-9.813324249999999,0.0025748119224201036,-0.00755758487502213,0.016034392500038734,-0.0076660875929405225,0.009620526750023263
0.515,-0.0011396779600044576,-0.7832157829999952,-0.0003310536150012661,-2.3551288599999967,0.0014010403500044554,1.5702422599999974,0.7870441140000035,0.0399999833,0.0399999652,-9.8133193,0.0027365411632102694,-0.007663385170022229,0.016219581000038907,-0.007611691066983771,0.009731742300023365
0.5175,-0.0011614512400048287,-0.7831922564999948,-0.0003372379220013715,-2.3551117599999962,0.0014228016850048259,1.5702301649999972,0.7870614850000038,0.0399999838,0.0399999656,-9.813313899999999,0.0029060253408196416,-0.0077762465650267915,0.016407185400040603,-0.007556223380367155,0.00984445050002441
0.52,-0.0011843377600048502,-0.7831677059999949,-0.0003437383880013776,-2.355093639999996,0.0014456742400048473,1.5702174599999972,0.7870797400000038,0.0399999832,0.0399999644,-9.813307599999998,0.003091019392052744,-0.00790323016002691,0.01659962160004078,-0.007498613372432831,0.009960144000024517
0.5225,-0.0012072242800048704,-0.7831431554999948,-0.00035023885400138334,-2.355075519999996,0.0014685467950048675,1.5702047549999973,0.7870979950000039,0.0399999826,0.0399999632,-9.8133013,0.003276013443285838,-0.008030213755027023,0.016792057800040953,-0.00744100336449851,0.010075837500024621
0.525,-0.0012301108000048917,-0.7831186049999947,-0.00035673932000138944,-2.355057399999996,0.001491419350004889,1.5701920499999973,0.7871162500000038,0.039999981999999996,0.039999962,-9.813294999999998,0.003461007494518941,-0.008157197350027142,0.01698449400004113,-0.007383393356564186,0.010191531000024729
0.5275,-0.0012529973200049122,-0.7830940544999948,-0.00036323978600139516,-2.355039279999996,0.0015142919050049092,1.5701793449999972,0.7871345050000039,0.0399999814,0.0399999608,-9.8132887,0.003646001545752035,-0.008284180945027255,0.017176930200041303,-0.007325783348629865,0.01030722450002483
0.53,-0.0012758838400049335,-0.7830695039999948,-0.00036974025200140127,-2.355021159999996,0.0015371644600049303,1.5701666399999972,0.7871527600000039,0.0399999808,0.0399999596,-9.813282399999999,0.0038309955969851373,-0.008411164540027372,0.01736936640004148,-0.007268173340695541,0.01042291800002494
0.5325,-0.0012987703600049539,-0.7830449534999947,-0.000376240718001407,-2.355003039999996,0.0015600370150049506,1.5701539349999973,0.7871710150000039,0.0399999802,0.0399999584,-9.813276099999998,0.004015989648218232,-0.008538148135027486,0.017561802600041653,-0.00721056333276122,0.010538611500025042
0.535,-0.0013228115100053517,-0.7830192879999943,-0.00038306909200152,-2.354983879999996,0.001584061960005348,1.570140609999997,0.7871901900000042,0.039999980399999996,0.039999958200000005,-9.813258599999994,0.00420903526250828,-0.008666001700027888,0.017759005000043387,-0.00715032918377367,0.010657080900026055
0.5375,-0.0013474299750053736,-0.7829930649999943,-0.0003900614200015262,-2.3549641999999955,0.0016086631000053696,1.570126974999997,0.7872098250000042,0.039999981,0.0399999585,-9.813235499999994,0.004406106658322865,-0.008794290250028002,0.017958590500043562,-0.007088782964260791,0.010776938250026161
0.54,-0.0013720484400053965,-0.7829668419999943,-0.00039705374800153275,-2.3549445199999957,0.0016332642400053927,1.570113339999997,0.7872294600000043,0.0399999816,0.0399999588,-9.813212399999994,0.004603178054137459,-0.00892257880002812,0.018158176000043748,-0.007027236744747908,0.010896795600026274
0.5425,-0.0013966669050054182,-0.7829406189999942,-0.00040404607600153897,-2.3549248399999954,0.0016578653800054144,1.570099704999997,0.7872490950000043,0.0399999822,0.0399999591,-9.813189299999994,0.004800249449952044,-0.009050867350028234,0.018357761500043927,-0.006965690525235029,0.01101665295002638
0.545,-0.0014212853700054412,-0.7829143959999942,-0.00041103840400154545,-2.3549051599999955,0.0016824665200054374,1.570086069999997,0.7872687300000043,0.0399999828,0.0399999594,-9.813166199999994,0.004997320845766638,-0.009179155900028355,0.018557347000044112,-0.0069041443057221465,0.011136510300026492
0.5475,-0.0014459038350054631,-0.7828881729999942,-0.00041803073200155167,-2.3548854799999956,0.0017070676600054594,1.570072434999997,0.7872883650000043,0.0399999834,0.039999959700000004,-9.813143099999994,0.005194392241581223,-0.00930744445002847,0.018756932500044288,-0.006842598086209267,0.011256367650026598
0.55,-0.0014705223000058857,-0.7828619499999938,-0.00042502306000167167,-2.354865799999995,0.0017316688000058812,1.5700587999999966,0.7873080000000047,0.039999984,0.03999996,-9.813119999999998,0.0053914636374017486,-0.009435733000032588,0.018956518000046045,-0.006781051866695602,0.011376225000027683
0.5525,-0.0014969338950059092,-0.7828340184999938,-0.00043252466200167835,-2.354844679999995,0.0017580597550059046,1.5700441599999968,0.7873290705000047,0.039999984,0.039999959700000004,-9.813109799999998,0.005615155817990787,-0.009581970250032717,0.01916315335004623,-0.00671599453779337,0.011500447950027793
0.555,-0.0015233454900059338,-0.7828060869999938,-0.00044002626400168536,-2.3548235599999954,0.0017844507100059292,1.5700295199999967,0.7873501410000048,0.039999984,0.0399999594,-9.813099599999997,0.005838847998579836,-0.009728207500032855,0.019369788700046423,-0.0066509372088911336,0.011624670900027908
0.5575,-0.0015497570850059573,-0.7827781554999937,-0.000447527866001692,-2.3548024399999954,0.0018108416650059525,1.5700148799999967,0.7873712115000048,0.039999984,0.0399999591,-9.813089399999997,0.006062540179168874,-0.009874444750032985,0.019576424050046608,-0.006585879879988901,0.011748893850028018
0.56,-0.0015761686800059818,-0.7827502239999936,-0.000455029468001699,-2.3547813199999954,0.0018372326200059772,1.5700002399999966,0.7873922820000048,0.039999984,0.0399999588,-9.813079199999997,0.006286232359757923,-0.01002068200003312,0.0197830594000468,-0.006520822551086665,0.011873116800028135
0.5625,-0.0016025802750060053,-0.7827222924999936,-0.0004625310700017057,-2.3547601999999954,0.0018636235750060007,1.5699855999999968,0.7874133525000048,0.039999984,0.0399999585,-9.813068999999999,0.006509924540346962,-0.010166919250033251,0.019989694750046985,-0.006455765222184433,0.011997339750028245
0.5650000000000001,-0.00162899187000603,-0.7826943609999936,-0.00047003267200171263,-2.3547390799999954,0.0018900145300060254,1.5699709599999967,0.7874344230000048,0.039999984,0.039999958200000005,-9.813058799999999,0.00673361672093601,-0.010313156500033387,0.020196330100047177,-0.006390707893282196,0.01212156270002836
0.5675,-0.0016560213150064462,-0.7826658309999932,-0.00047770974300183084,-2.354717349999995,0.0019170221000064406,1.5699559649999966,0.7874559890000051,0.039999984200000005,0.0399999581,-9.813052400000002,0.006964064715485682,-0.010462258675035311,0.02040525315004869,-0.006324730045146653,0.012247136700029254
0.5700000000000001,-0.001684286460006376,-0.7826361039999933,-0.00048573775200181095,-2.354694399999995,0.0019452629000063705,1.5699402599999965,0.787478546000005,0.0399999848,0.0399999584,-9.813053600000002,0.007208024337942712,-0.010617090700034927,0.02061875160004816,-0.006256911158546381,0.012375412800028936
0.5725,-0.0017125516050063047,-0.7826063769999934,-0.0004937657610017907,-2.3546714499999952,0.001973503700006299,1.5699245549999965,0.787501103000005,0.0399999854,0.039999958700000005,-9.813054800000002,0.007451983960399732,-0.010771922725034536,0.020832250050047622,-0.0061890922719461125,0.012503688900028613
0.5750000000000001,-0.0017408167500062347,-0.7825766499999934,-0.0005017937700017708,-2.3546484999999953,0.0020017445000062293,1.5699088499999965,0.787523660000005,0.039999986,0.039999959,-9.813056000000001,0.007695943582856762,-0.010926754750034153,0.021045748500047094,-0.00612127338534584,0.012631965000028295
0.5775,-0.0017690818950061634,-0.7825469229999935,-0.0005098217790017506,-2.3546255499999953,0.002029985300006158,1.5698931449999967,0.7875462170000049,0.0399999866,0.0399999593,-9.813057200000001,0.007939903205313781,-0.011081586775033762,0.021259246950046554,-0.0060534544987455715,0.012760241100027972
0.58,-0.0017973470400060921,-0.7825171959999936,-0.0005178497880017303,-2.3546025999999953,0.0020582261000060866,1.5698774399999966,0.7875687740000048,0.0399999872,0.0399999596,-9.813058400000001,0.008183862827770802,-0.011236418800033371,0.02147274540004602,-0.005985635612145303,0.012888517200027648
0.5825,-0.001825612185006022,-0.7824874689999937,-0.0005258777970017104,-2.3545796499999954,0.0020864669000060167,1.5698617349999966,0.7875913310000048,0.0399999878,0.0399999599,-9.8130596,0.008427822450227832,-0.011391250825032988,0.02168624385004549,-0.0059178167255450305,0.01301679330002733
0.585,-0.0018551526100064907,-0.7824565039999932,-0.0005342680340018435,-2.354555669999995,0.0021159805300064844,1.5698453599999964,0.7876149010000052,0.039999988,0.03999996,-9.813041199999994,0.008687456138489529,-0.011556500450036663,0.021904247400047375,-0.005847467388942277,0.013147808950028475
0.5875,-0.0018853306750066217,-0.7824249199999931,-0.0005428393850018808,-2.3545311749999946,0.0021461305750066157,1.5698286499999963,0.7876389775000052,0.039999988,0.03999996,-9.813012999999994,0.00895492685964609,-0.011726958875037403,0.02212450350004833,-0.005775852827339486,0.013280194375029048
0.59,-0.0019155087400067514,-0.782393335999993,-0.0005514107360019176,-2.3545066799999947,0.0021762806200067452,1.5698119399999964,0.7876630540000054,0.039999988,0.03999996,-9.812984799999994,0.009222397580802639,-0.011897417300038135,0.022344759600049276,-0.005704238265736698,0.013412579800029618
0.5925,-0.0019456868050068826,-0.7823617519999928,-0.0005599820870019549,-2.3544821849999944,0.002206430665006876,1.5697952299999962,0.7876871305000055,0.039999988,0.03999996,-9.812956599999994,0.009489868301959201,-0.012067875725038875,0.022565015700050234,-0.005632623704133907,0.013544965225030193
0.595,-0.001975864870007012,-0.7823301679999927,-0.0005685534380019917,-2.3544576899999945,0.002236580710007006,1.569778519999996,0.7877112070000056,0.039999988,0.03999996,-9.812928399999993,0.009757339023115751,-0.01223833415003961,0.02278527180005118,-0.005561009142531119,0.013677350650030761
0.5975,-0.0020060429350071433,-0.7822985839999925,-0.0005771247890020289,-2.354433194999994,0.002266730755007137,1.5697618099999961,0.7877352835000057,0.039999988,0.03999996,-9.812900199999994,0.010024809744272313,-0.012408792575040349,0.023005527900052135,-0.005489394580928328,0.013809736075031337
0.6,-0.002036221000007748,-0.7822669999999919,-0.0005856961400022007,-2.354408699999994,0.002296880800007741,1.5697450999999958,0.7877593600000062,0.039999988,0.03999996,-9.812872,0.010292280465434641,-0.012579251000044157,0.023225784000054706,-0.005417780019324839,0.013942121500032914
0.6025,-0.002068370530007778,-0.7822334959999919,-0.0005948274365022092,-2.3543824199999936,0.002328998530007771,1.5697273099999958,0.7877850115000062,0.039999988,0.039999959700000004,-9.812874550000002,0.010583729296993144,-0.012762470900044329,0.023452774050054918,-0.00534325917249596,0.014078689375033041
0.605,-0.0021005200600078067,-0.7821999919999919,-0.0006039587330022173,-2.3543561399999935,0.002361116260007799,1.5697095199999958,0.7878106630000062,0.039999988,0.0399999594,-9.812877100000001,0.010875178128551632,-0.01294569080004449,0.02367976410005512,-0.005268738325667084,0.014215257250033163
0.6075,-0.0021326695900078367,-0.7821664879999919,-0.0006130900295022259,-2.3543298599999933,0.002393233990007829,1.5696917299999957,0.7878363145000062,0.039999988,0.0399999591,-9.812879650000001,0.011166626960110134,-0.013128910700044662,0.02390675415005533,-0.0051942174788382044,0.01435182512503329
0.61,-0.0021648191200078653,-0.7821329839999919,-0.000622221326002234,-2.3543035799999936,0.0024253517200078577,1.5696739399999957,0.7878619660000062,0.039999988,0.0399999588,-9.8128822,0.011458075791668623,-0.013312130600044825,0.024133744200055533,-0.0051196966320093285,0.014488393000033411
0.6125,-0.0021969686500078953,-0.7820994799999919,-0.0006313526225022425,-2.3542772999999935,0.0024574694500078876,1.5696561499999957,0.7878876175000062,0.039999988,0.0399999585,-9.81288475,0.011749524623227125,-0.013495350500044996,0.024360734250055745,-0.005045175785180449,0.014624960875033538
0.615,-0.002229118180007924,-0.7820659759999918,-0.0006404839190022506,-2.3542510199999933,0.002489587180007916,1.5696383599999957,0.7879132690000064,0.039999988,0.039999958200000005,-9.812887300000002,0.012040973454785614,-0.013678570400045158,0.024587724300055947,-0.004970654938351572,0.01476152875003366
0.6175,-0.002261944090008456,-0.7820318029999912,-0.0006498073275024017,-2.354224189999993,0.0025223798850084467,1.5696201899999953,0.7879394565000067,0.0399999881,0.0399999581,-9.812883049999996,0.01233984716244349,-0.013866185850048592,0.02481690875005779,-0.004894982837121224,0.01489937980003474
0.62,-0.002296122760008486,-0.7819962919999912,-0.0006595149600024103,-2.354196259999993,0.002556522540008477,1.5696012599999953,0.7879667160000068,0.0399999884,0.0399999584,-9.812865199999996,0.012653570622283594,-0.014062592400048765,0.025050482000057994,-0.004817008227090499,0.015039797200034864
0.6225,-0.0023303014300085183,-0.7819607809999911,-0.0006692225925024194,-2.354168329999993,0.002590665195008509,1.5695823299999954,0.7879939755000068,0.0399999887,0.039999958700000005,-9.812847349999997,0.012967294082123711,-0.01425899895004895,0.025284055250058213,-0.0047390336170597715,0.015180214600034997
0.625,-0.0023644801000085483,-0.7819252699999911,-0.000678930225002428,-2.354140399999993,0.0026248078500085395,1.5695633999999954,0.7880212350000068,0.039999989,0.039999959,-9.812829499999996,0.013281017541963815,-0.014455405500049123,0.02551762850005842,-0.004661059007029047,0.01532063200003512
0.6275000000000001,-0.0023986587700085805,-0.7818897589999911,-0.0006886378575024371,-2.354112469999993,0.002658950505008571,1.5695444699999952,0.7880484945000068,0.0399999893,0.0399999593,-9.812811649999995,0.013594741001803932,-0.014651812050049307,0.025751201750058638,-0.00458308439699832,0.015461049400035252
0.63,-0.0024328374400086105,-0.781854247999991,-0.0006983454900024457,-2.354084539999993,0.0026930931600086016,1.5695255399999952,0.7880757540000068,0.0399999896,0.0399999596,-9.812793799999996,0.013908464461644038,-0.01484821860004948,0.025984775000058843,-0.0045051097869675955,0.015601466800035376
0.6325000000000001,-0.0024670161100086426,-0.781818736999991,-0.0007080531225024547,-2.3540566099999927,0.0027272358150086332,1.5695066099999953,0.7881030135000069,0.0399999899,0.0399999599,-9.812775949999995,0.014222187921484154,-0.015044625150049663,0.026218348250059063,-0.0044271351769368675,0.015741884200035507
0.635,-0.002502585240009202,-0.7817818399999904,-0.0007181556600026137,-2.3540273399999925,0.002762766010009192,1.569486899999995,0.7881313800000073,0.039999991,0.039999961,-9.812779800000005,0.014555926621047446,-0.015254021700054783,0.02645625640006092,-0.004347794386537864,0.015884913600036625
0.6375000000000001,-0.002538849600009236,-0.7817442499999904,-0.0007284556500026233,-2.3539973999999924,0.0027989899750092257,1.569466799999995,0.7881603000000074,0.0399999925,0.0399999625,-9.812794500000004,0.014899672940460948,-0.015469913250054984,0.026696332000061142,-0.004267770505955494,0.01602924900003676
0.64,-0.0025751139600092682,-0.7817066599999903,-0.0007387556400026324,-2.3539674599999922,0.002835213940009258,1.569446699999995,0.7881892200000074,0.039999994,0.039999964,-9.812809200000004,0.015243419259874432,-0.015685804800055176,0.026936407600061357,-0.004187746625373127,0.01617358440003689
0.6425,-0.0026113783200093004,-0.7816690699999903,-0.0007490556300026416,-2.3539375199999926,0.0028714379050092903,1.5694265999999948,0.7882181400000075,0.0399999955,0.039999965500000005,-9.812823900000003,0.015587165579287918,-0.015901696350055367,0.02717648320006157,-0.0041077227447907615,0.016317919800037016
0.645,-0.0026476426800093344,-0.7816314799999903,-0.0007593556200026512,-2.3539075799999924,0.002907661870009324,1.5694064999999948,0.7882470600000074,0.039999997,0.039999967000000004,-9.812838600000005,0.015930911898701418,-0.016117587900055567,0.027416558800061795,-0.004027698864208392,0.016462255200037152
0.6475,-0.0026839070400093666,-0.7815938899999902,-0.0007696556100026603,-2.3538776399999923,0.002943885835009356,1.5693863999999949,0.7882759800000074,0.0399999985,0.039999968500000004,-9.812853300000004,0.016274658218114905,-0.01633347945005576,0.027656634400062007,-0.003947674983626026,0.016606590600037278
0.65,-0.0027201714000099552,-0.7815562999999897,-0.0007799556000028276,-2.353847699999992,0.002980109800009944,1.5693662999999944,0.788304900000008,0.04,0.03999997,-9.812867999999991,0.016618404537533042,-0.016549371000058447,0.02789671000006387,-0.003867651103042658,0.01675092600003843
0.6525,-0.0027585769200099896,-0.7815166249999896,-0.0007908637350028373,-2.353816049999992,0.003018470725009978,1.5693450449999944,0.7883355345000079,0.04,0.03999997,-9.812832899999991,0.016980043146853283,-0.016774843050058646,0.028143099100064087,-0.0037837739218739334,0.016899189600038562
0.655,-0.0027969824400100253,-0.7814769499999896,-0.0008017718700028474,-2.353784399999992,0.0030568316500100136,1.5693237899999946,0.788366169000008,0.04,0.03999997,-9.812797799999991,0.01734168175617354,-0.017000315100058856,0.028389488200064317,-0.0036998967407052053,0.0170474532000387
0.6575,-0.0028353879600100593,-0.7814372749999896,-0.0008126800050028572,-2.353752749999992,0.003095192575010048,1.5693025349999945,0.788396803500008,0.04,0.03999997,-9.81276269999999,0.017703320365493783,-0.01722578715005906,0.028635877300064536,-0.0036160195595364808,0.017195716800038834
0.66,-0.002873793480010095,-0.7813975999999896,-0.0008235881400028673,-2.3537210999999916,0.0031335535000100835,1.5692812799999944,0.788427438000008,0.04,0.03999997,-9.81272759999999,0.018064958974814038,-0.017451259200059268,0.028882266400064766,-0.0035321423783677523,0.017343980400038973
0.6625,-0.002912199000010129,-0.7813579249999895,-0.0008344962750028769,-2.3536894499999916,0.0031719144250101174,1.5692600249999944,0.7884580725000081,0.04,0.03999997,-9.81269249999999,0.01842659758413428,-0.017676731250059467,0.029128655500064982,-0.0034482651971990278,0.017492244000039105
0.665,-0.002950604520010165,-0.7813182499999894,-0.0008454044100028871,-2.3536577999999917,0.003210275350010153,1.5692387699999943,0.7884887070000081,0.04,0.03999997,-9.81265739999999,0.018788236193454537,-0.017902203300059677,0.029375044600065212,-0.0033643880160302998,0.017640507600039244
0.6675,-0.0029897419000107822,-0.7812778449999889,-0.0008565204150030625,-2.353625544999991,0.003249366575010769,1.569217119999994,0.7885199235000087,0.04,0.03999997,-9.812638900000003,0.01915940633054002,-0.01813228360006355,0.029623524800067098,-0.003279815276596171,0.01779000815004036
0.67,-0.00303034300001082,-0.7812359799999888,-0.0008680521600030732,-2.353592079999991,0.0032899184000108068,1.569194679999994,0.7885523040000086,0.04,0.03999997,-9.812653600000003,0.019549639523133256,-0.018371580400063772,0.029876187200067333,-0.003193851420632891,0.017941982600040502
0.6725,-0.003070944100010856,-0.7811941149999888,-0.0008795839050030834,-2.353558614999991,0.003330470225010843,1.5691722399999941,0.7885846845000086,0.04,0.03999997,-9.812668300000004,0.019939872715726472,-0.018610877200063984,0.030128849600067557,-0.0031078875646696146,0.018093957050040636
0.675,-0.003111545200010894,-0.7811522499999888,-0.0008911156500030942,-2.353525149999991,0.003371022050010881,1.569149799999994,0.7886170650000087,0.04,0.03999997,-9.812683000000003,0.020330105908319705,-0.01885017400006421,0.030381512000067792,-0.0030219237087063346,0.018245931500040776
0.6775,-0.00315214630001093,-0.7811103849999887,-0.0009026473950031045,-2.353491684999991,0.003411573875010917,1.569127359999994,0.7886494455000087,0.04,0.03999997,-9.812697700000005,0.02072033910091292,-0.01908947080006442,0.030634174400068017,-0.002935959852743058,0.018397905950040913
0.68,-0.003192747400010968,-0.7810685199999887,-0.0009141791400031152,-2.353458219999991,0.003452125700010955,1.569104919999994,0.7886818260000088,0.04,0.03999997,-9.812712400000004,0.021110572293506158,-0.019328767600064644,0.030886836800068256,-0.0028499959967797778,0.018549880400041054
0.6825,-0.003233348500011004,-0.7810266549999887,-0.0009257108850031254,-2.353424754999991,0.003492677525010991,1.5690824799999938,0.7887142065000088,0.04,0.03999997,-9.812727100000004,0.021500805486099374,-0.01956806440006486,0.031139499200068477,-0.0027640321408165017,0.018701854850041187
0.685,-0.003275448920011751,-0.7809833099999879,-0.0009376685200033376,-2.3533898999999905,0.003534725660011736,1.5690592199999935,0.7887477800000093,0.04,0.039999969600000004,-9.8127309,0.02191013041895193,-0.01982171500007153,0.03139618550007094,-0.002676264708837344,0.018856331300042703
0.6875,-0.003318299000011935,-0.7809392249999877,-0.00094983910000339,-2.3533543499999903,0.0035775219500119204,1.5690355499999935,0.7887819500000095,0.04,0.039999969,-9.81272925,0.022329001221922468,-0.020082542500072652,0.031654883750072055,-0.002587595488851353,0.019012058750043373
0.6900000000000001,-0.0033611490800121214,-0.7808951399999875,-0.0009620096800034429,-2.35331879999999,0.003620318240012106,1.5690118799999933,0.7888161200000097,0.04,0.0399999684,-9.8127276,0.022747872024893027,-0.020343370000073784,0.03191358200007318,-0.0024989262688653578,0.01916778620004405
0.6925,-0.0034039991600123055,-0.7808510549999874,-0.0009741802600034951,-2.35328324999999,0.00366311453001229,1.5689882099999932,0.7888502900000098,0.04,0.0399999678,-9.812725949999999,0.02316674282786357,-0.020604197500074906,0.03217228025007429,-0.0024102570488793666,0.01932351365004472
0.6950000000000001,-0.0034468492400124917,-0.7808069699999872,-0.000986350840003548,-2.3532476999999896,0.003705910820012476,1.5689645399999932,0.78888446000001,0.04,0.0399999672,-9.8127243,0.023585613630834126,-0.02086502500007604,0.03243097850007542,-0.0023215878288933714,0.019479241100045397
0.6975,-0.003489699320012676,-0.780762884999987,-0.0009985214200036003,-2.3532121499999894,0.00374870711001266,1.568940869999993,0.7889186300000102,0.04,0.0399999666,-9.81272265,0.02400448443380467,-0.021125852500077157,0.03268967675007653,-0.00223291860890738,0.019634968550046067
0.7000000000000001,-0.0035325494000135525,-0.7807187999999862,-0.0010106920000038495,-2.3531765999999887,0.003791503400013535,1.5689171999999925,0.7889528000000108,0.04,0.039999966,-9.812720999999994,0.02442335523678259,-0.021386680000081974,0.03294837500007945,-0.00214424938892044,0.01979069600004781
0.7025,-0.0035777005400134385,-0.7806724199999863,-0.0010235162350038171,-2.3531390549999887,0.0038365960400134212,1.5688922099999927,0.7889888090000107,0.04,0.03999996705,-9.812702399999994,0.024866752047223682,-0.021659772100081284,0.03321307325007879,-0.0020524322578875168,0.019949972000047406
0.705,-0.0036228516800133246,-0.7806260399999864,-0.0010363404700037848,-2.353101509999989,0.0038816886800133073,1.5688672199999927,0.7890248180000107,0.04,0.0399999681,-9.812683799999995,0.025310148857664774,-0.021932864200080594,0.033477771500078114,-0.0019606151268545934,0.020109248000047004
0.7075,-0.0036680028200132128,-0.7805796599999865,-0.0010491647050037529,-2.353063964999989,0.0039267813200131955,1.5688422299999927,0.7890608270000106,0.04,0.03999996915,-9.812665199999994,0.025753545668105886,-0.022205956300079918,0.03374246975007746,-0.001868797995821666,0.02026852400004661
0.71,-0.003713153960013099,-0.7805332799999866,-0.0010619889400037205,-2.353026419999989,0.003971873960013082,1.5688172399999927,0.7890968360000105,0.04,0.0399999702,-9.812646599999995,0.026196942478546977,-0.022479048400079228,0.03400716800007679,-0.0017769808647887424,0.02042780000004621
0.7125,-0.003758305100012987,-0.7804868999999867,-0.0010748131750036886,-2.352988874999989,0.00401696660001297,1.568792249999993,0.7891328450000104,0.04,0.03999997125,-9.812627999999995,0.02664033928898809,-0.022752140500078552,0.03427186625007614,-0.0016851637337558152,0.020587076000045813
0.715,-0.003803456240012873,-0.7804405199999868,-0.0010876374100036563,-2.352951329999989,0.004062059240012857,1.568767259999993,0.7891688540000102,0.04,0.0399999723,-9.812609399999994,0.02708373609942918,-0.023025232600077862,0.034536564500075466,-0.0015933466027228916,0.020746352000045414
0.7175,-0.00384939158001348,-0.7803933474999862,-0.0011006843750038288,-2.352913209999989,0.004107934370013462,1.5687418399999926,0.7892054840000108,0.04,0.03999997265,-9.812593549999997,0.027537307609007126,-0.023304370700082642,0.034803207150076766,-0.0015006518515024477,0.020906830200046224
0.72,-0.0038968953200135227,-0.7803445899999861,-0.0011141768000038407,-2.3528739399999887,0.0041553744800135045,1.5687155599999925,0.7892433560000108,0.04,0.0399999716,-9.812583199999997,0.028011228516832767,-0.0235956008000829,0.03507373860007701,-0.0014062018599092139,0.021069712800046367
0.7225,-0.0039443990600135665,-0.7802958324999861,-0.0011276692250038534,-2.352834669999989,0.0042028145900135485,1.5686892799999925,0.7892812280000108,0.04,0.03999997055,-9.812572849999997,0.028485149424658428,-0.023886830900083172,0.03534427005007726,-0.0013117518683159757,0.02123259540004652
0.725,-0.003991902800013609,-0.780247074999986,-0.0011411616500038653,-2.3527953999999887,0.004250254700013591,1.5686629999999926,0.7893191000000108,0.04,0.039999969499999996,-9.812562499999997,0.028959070332484068,-0.024178061000083434,0.0356148015000775,-0.0012173018767227418,0.021395478000046663
0.7275,-0.004039406540013653,-0.780198317499986,-0.0011546540750038779,-2.352756129999989,0.004297694810013635,1.5686367199999924,0.7893569720000109,0.04,0.03999996845,-9.812552149999997,0.029432991240309733,-0.024469291100083706,0.03588533295007775,-0.0011228518851295038,0.021558360600046816
0.73,-0.004086910280013695,-0.7801495599999859,-0.00116814650000389,-2.3527168599999886,0.004345134920013677,1.5686104399999925,0.7893948440000109,0.04,0.039999967399999996,-9.812541799999998,0.029906912148135373,-0.024760521200083964,0.036155864400077994,-0.0010284018935362697,0.02172124320004696
0.7325,-0.004134414020013739,-0.7801008024999859,-0.0011816389250039025,-2.3526775899999888,0.004392575030013722,1.5685841599999926,0.789432716000011,0.04,0.03999996635,-9.812531449999998,0.030380833055961034,-0.025051751300084236,0.036426395850078244,-0.0009339519019430318,0.021884125800047113
0.735,-0.004183519310014479,-0.7800504549999852,-0.0011955863200041126,-2.352636889999988,0.004441613460014459,1.568556999999992,0.7894718760000116,0.04,0.0399999667,-9.812557000000012,0.030873199366178522,-0.025355436500089916,0.03670076110008015,-0.0008390453119951091,0.022049281700048246
0.7375,-0.004233425375014525,-0.7799993124999851,-0.0012097612000041258,-2.352595474999988,0.004491451050014505,1.568529399999992,0.7895116800000116,0.04,0.03999996775,-9.812600500000013,0.03137478837757994,-0.025665349250090203,0.03697704325008041,-0.0007439104228701354,0.0222155742500484
0.74,-0.0042833314400145695,-0.7799481699999851,-0.0012239360800041384,-2.352554059999988,0.00454128864001455,1.568501799999992,0.7895514840000116,0.04,0.0399999688,-9.812644000000013,0.03187637738898134,-0.02597526200009048,0.03725332540008066,-0.0006487755337451659,0.02238186680004855
0.7425,-0.004333237505014616,-0.779897027499985,-0.0012381109600041516,-2.352512644999988,0.004591126230014596,1.568474199999992,0.7895912880000117,0.04,0.03999996985,-9.812687500000013,0.03237796640038275,-0.02628517475009077,0.03752960755008092,-0.0005536406446201922,0.022548159350048703
0.745,-0.00438314357001466,-0.779845884999985,-0.001252285840004164,-2.352471229999988,0.00464096382001464,1.568446599999992,0.7896310920000117,0.04,0.0399999709,-9.812731000000014,0.032879555411784146,-0.02659508750009104,0.03780588970008116,-0.00045850575549522264,0.02271445190004885
0.7475,-0.004433049635014707,-0.7797947424999849,-0.0012664607200041772,-2.352429814999988,0.004690801410014687,1.568418999999992,0.7896708960000117,0.04,0.03999997195,-9.812774500000012,0.033381144423185564,-0.02690500025009133,0.03808217185008142,-0.0003633708663702489,0.022880744450049006
0.75,-0.004482955700015476,-0.7797435999999841,-0.0012806356000043958,-2.3523883999999873,0.004740639000015454,1.5683913999999914,0.7897107000000123,0.04,0.039999973,-9.812817999999995,0.033882733434595434,-0.027214913000096867,0.03835845400008328,-0.00026823597724439865,0.02304703700005015
0.7525000000000001,-0.004535312945015525,-0.7796900049999841,-0.0012955067650044095,-2.352344794999987,0.004792922460015503,1.5683624199999915,0.7897524450000124,0.04,0.03999997405,-9.812797749999994,0.03441299889252411,-0.027542628950097174,0.03864020215008354,-0.00017012130407965216,0.02321669990005031
0.755,-0.004587670190015571,-0.7796364099999841,-0.0013103779300044228,-2.352301189999987,0.004845205920015549,1.5683334399999915,0.7897941900000124,0.04,0.0399999751,-9.812777499999994,0.03494326435045275,-0.027870344900097467,0.038921950300083795,-7.200663091491003e-05,0.023386362800050457
0.7575000000000001,-0.0046400274350156204,-0.7795828149999839,-0.0013252490950044365,-2.352257584999987,0.004897489380015598,1.5683044599999914,0.7898359350000125,0.04,0.03999997615,-9.812757249999994,0.03547352980838142,-0.02819806085009777,0.039203698450084055,2.6108042249836498e-05,0.023556025700050616
0.76,-0.004692384680015667,-0.7795292199999839,-0.0013401202600044498,-2.352213979999987,0.004949772840015645,1.5682754799999914,0.7898776800000126,0.04,0.0399999772,-9.812736999999993,0.03600379526631007,-0.028525776800098063,0.03948544660008431,0.0001242227154145786,0.023725688600050768
0.7625000000000001,-0.004744741925015715,-0.7794756249999839,-0.0013549914250044637,-2.3521703749999867,0.005002056300015693,1.5682464999999914,0.7899194250000126,0.04,0.03999997825,-9.812716749999995,0.03653406072423874,-0.028853492750098367,0.03976719475008457,0.0002223373885793251,0.023895351500050926
0.765,-0.004797099170015762,-0.7794220299999839,-0.0013698625900044768,-2.3521267699999866,0.005054339760015739,1.5682175199999915,0.7899611700000126,0.04,0.039999979299999995,-9.812696499999994,0.03706432618216739,-0.02918120870009866,0.04004894290008482,0.0003204520617440673,0.024065014400051075
0.7675000000000001,-0.004850289480016565,-0.779367589999983,-0.0013849703800047051,-2.352082454999986,0.005107454610016542,1.568188094999991,0.7900035750000133,0.04,0.039999979649999996,-9.812677399999995,0.03760642129944954,-0.02951607000010544,0.04033252950008675,0.0004194581241184763,0.02423579945005225
0.77,-0.004905145920016615,-0.779311459999983,-0.001400551420004719,-2.352036719999986,0.00516223224001659,1.5681577799999908,0.7900473000000133,0.04,0.0399999786,-9.812660599999996,0.03817217573540653,-0.02986522200010575,0.040619793000087,0.0005202469649097858,0.024408828800052403
0.7725,-0.004960002360016663,-0.7792553299999829,-0.0014161324600047327,-2.3519909849999863,0.0052170098700166385,1.5681274649999908,0.7900910250000134,0.04,0.039999977549999996,-9.812643799999995,0.03873793017136352,-0.03021437400010606,0.04090705650008726,0.0006210358057010953,0.02458185815005256
0.775,-0.005014858800016714,-0.7791991999999829,-0.0014317135000047473,-2.351945249999986,0.0052717875000166895,1.5680971499999907,0.7901347500000133,0.04,0.0399999765,-9.812626999999996,0.03930368460732053,-0.030563526000106384,0.04119432000008753,0.0007218246464924093,0.02475488750005272
0.7775,-0.005069715240016762,-0.7791430699999828,-0.0014472945400047612,-2.351899514999986,0.005326565130016739,1.5680668349999907,0.7901784750000134,0.04,0.03999997545,-9.812610199999995,0.03986943904327751,-0.030912678000106695,0.04148158350008778,0.0008226134872837188,0.024927916850052873
0.78,-0.005124571680016814,-0.7790869399999828,-0.0014628755800047757,-2.351853779999986,0.00538134276001679,1.5680365199999908,0.7902222000000134,0.04,0.0399999744,-9.812593399999995,0.04043519347923453,-0.031261830000107016,0.041768847000088045,0.0009234023280750329,0.025100946200053036
0.7825,-0.005179428120016863,-0.7790308099999828,-0.0014784566200047897,-2.351808044999986,0.005436120390016838,1.5680062049999908,0.7902659250000135,0.04,0.03999997335,-9.812576599999995,0.041000947915191516,-0.03161098200010733,0.0420561105000883,0.0010241911688663424,0.025273975550053188
0.785,-0.005235981640017829,-0.7789729859999818,-0.0014945197700050642,-2.3517608999999853,0.005492591670017803,1.56797492999999,0.7903110140000142,0.04,0.0399999723,-9.812569,0.04157975204307139,-0.03197037900011322,0.042346906300090865,0.0011265032692200953,0.025449157100054746
0.7875,-0.005293383700018076,-0.7789143149999815,-0.0015108239750051343,-2.351713049999985,0.005549909775018049,1.56794317499999,0.7903567850000145,0.04,0.03999997125,-9.812565999999999,0.042165081016903645,-0.03233489850011479,0.04263946825009213,0.0012295769993540084,0.025625414750055503
0.79,-0.0053507857600183254,-0.7788556439999813,-0.0015271281800052052,-2.3516651999999847,0.005607227880018299,1.56791141999999,0.7904025560000146,0.04,0.0399999702,-9.812562999999999,0.04275040999073593,-0.03269941800011637,0.042932030200093396,0.0013326507294879261,0.02580167240005627
0.7925,-0.005408187820018572,-0.7787969729999811,-0.0015434323850052752,-2.3516173499999846,0.005664545985018545,1.5678796649999898,0.7904483270000148,0.04,0.03999996915,-9.81256,0.043335738964568174,-0.03306393750011794,0.04322459215009466,0.001435724459621839,0.025977930050057028
0.795,-0.005465589880018822,-0.7787383019999807,-0.001559736590005346,-2.351569499999984,0.005721864090018794,1.5678479099999896,0.790494098000015,0.04,0.0399999681,-9.812556999999998,0.043921067938400456,-0.033428457000119524,0.04351715410009593,0.0015387981897557568,0.026154187700057792
0.7975,-0.005522991940019068,-0.7786796309999805,-0.001576040795005416,-2.351521649999984,0.005779182195019041,1.5678161549999896,0.7905398690000152,0.04,0.039999967049999995,-9.812553999999999,0.04450639691223271,-0.03379297650012109,0.04380971605009719,0.00164187191988967,0.02633044535005855
0.8,-0.005580394000020189,-0.7786209599999794,-0.0015923450000057346,-2.351473799999983,0.005836500300020159,1.567784399999989,0.7905856400000161,0.04,0.039999966,-9.812551000000003,0.045091725886076815,-0.03415749600012812,0.044102278000100185,0.0017449456500241104,0.026506703000060344
0.8025,-0.005640386860020038,-0.7785596909999796,-0.0016093851500056915,-2.351423729999983,0.005896403745020008,1.567751219999989,0.790633469000016,0.04,0.039999966,-9.812560000000003,0.04571221247336125,-0.03453820035012716,0.04439997580009943,0.0018495730881462565,0.026686012550059892
0.805,-0.005700379720019889,-0.7784984219999797,-0.0016264253000056494,-2.3513736599999833,0.00595630719001986,1.567718039999989,0.7906812980000159,0.04,0.039999966,-9.812569000000002,0.0463326990606457,-0.034918904700126215,0.04469767360009869,0.0019542005262684074,0.026865322100059447
0.8075,-0.0057603725800197386,-0.7784371529999798,-0.0016434654500056063,-2.3513235899999834,0.006016210635019709,1.567684859999989,0.7907291270000157,0.04,0.039999966,-9.812578000000002,0.046953185647930135,-0.035299609050125254,0.04499537140009795,0.0020588279643905536,0.027044631650058996
0.81,-0.005820365440019589,-0.77837588399998,-0.0016605056000055642,-2.3512735199999835,0.00607611408001956,1.5676516799999891,0.7907769560000156,0.04,0.039999966,-9.812587000000002,0.04757367223521459,-0.035680313400124314,0.04529306920009721,0.002163455402512704,0.02722394120005855
0.8125,-0.005880358300019439,-0.7783146149999801,-0.0016775457500055211,-2.3512234499999836,0.006136017525019409,1.5676184999999891,0.7908247850000155,0.04,0.039999966,-9.812596000000003,0.048194158822499014,-0.03606101775012335,0.045590767000096455,0.00226808284063485,0.0274032507500581
0.8150000000000001,-0.0059403511600192895,-0.7782533459999803,-0.001694585900005479,-2.351173379999984,0.006195920970019261,1.5675853199999892,0.7908726140000154,0.04,0.039999966,-9.812605000000003,0.048814645409783475,-0.036441722100122406,0.045888464800095716,0.002372710278757001,0.027582560300057655
0.8175,-0.0060012224600201215,-0.7781911999999794,-0.0017118755900057154,-2.3511225749999833,0.006256700970020091,1.5675516599999888,0.7909211450000161,0.04,0.0399999657,-9.812607949999997,0.04944585040232638,-0.03683006460012968,0.046187847500097266,0.002478096843731452,0.027762921350058624
0.8200000000000001,-0.006063850640020393,-0.7781272999999792,-0.0017296643600057924,-2.351070299999983,0.006319234080020363,1.5675170399999887,0.7909710800000163,0.04,0.039999964799999996,-9.812598799999998,0.050098492205355415,-0.037233683400131425,0.04649060000009858,0.002585001662408331,0.027945385400059416
0.8225,-0.006126478820020663,-0.7780633999999789,-0.001747453130005869,-2.351018024999983,0.006381767190020631,1.5674824199999886,0.7910210150000164,0.04,0.0399999639,-9.812589649999998,0.05075113400838442,-0.037637302200133164,0.04679335250009988,0.0026919064810852055,0.028127849450060197
0.8250000000000001,-0.006189107000020935,-0.7779994999999786,-0.0017652419000059461,-2.3509657499999825,0.006444300300020903,1.5674477999999883,0.7910709500000167,0.04,0.039999963,-9.812580499999997,0.051403775811413456,-0.03804092100013491,0.047096105000101196,0.002798811299762085,0.028310313500060993
0.8275,-0.006251735180021204,-0.7779355999999784,-0.0017830306700060228,-2.3509134749999823,0.006506833410021172,1.5674131799999882,0.7911208850000169,0.04,0.0399999621,-9.812571349999997,0.05205641761444246,-0.03844453980013665,0.047398857500102504,0.002905716118438959,0.028492777550061774
0.8300000000000001,-0.006314363360021476,-0.7778716999999781,-0.0018008194400060999,-2.350861199999982,0.0065693665200214435,1.567378559999988,0.7911708200000171,0.04,0.0399999612,-9.812562199999997,0.0527090594174715,-0.038848158600138405,0.04770161000010382,0.0030126209371158386,0.028675241600062566
0.8325,-0.006376991540021745,-0.7778077999999778,-0.0018186082100061765,-2.350808924999982,0.006631899630021712,1.567343939999988,0.7912207550000173,0.04,0.0399999603,-9.812553049999996,0.053361701220500504,-0.03925177740014014,0.04800436250010512,0.003119525755792713,0.02885770565006335
0.835,-0.0064414053000226585,-0.777742093999977,-0.001836904270006436,-2.3507551399999813,0.006696214600022624,1.5673083199999873,0.7912721100000181,0.04,0.03999996,-9.812546399999999,0.054034904018281545,-0.03966658890014586,0.048310346500106724,0.0032278865808999394,0.029042088700064306
0.8375,-0.006506711850022497,-0.7776754849999771,-0.00185545397500639,-2.3507005999999815,0.006761420500022462,1.5672721999999875,0.791324175000018,0.04,0.03999996,-9.812540999999998,0.0547183873134225,-0.04008699675014482,0.04861794625010596,0.003336975409221204,0.029227431250063846
