rsonawane2002/My_IMU/logs_2/traj_440/imu_400hz_440.csv
time,j1,j2,j3,j4,j5,j6,j7,gripper1,gripper2,imu_ax,imu_ay,imu_az,imu_gx,imu_gy,imu_gz
0.0,0.00016700293,-0.785875,4.0107683e-05,-2.3551247,9.29385e-05,1.570997,0.786,0.04,0.04,-9.44989,0.0104696946218609,0.093573265,2.1586843e-07,-0.0011641274904832,4.916956e-07
0.0025,0.00016700464300000004,-0.7858577739999998,4.0109157050000024e-05,-2.3551391900000005,9.294231150000006e-05,1.570996565,0.786,0.04,0.04,-9.50753260000084,0.00899716677956926,0.08091745749981584,1.5488853249911263e-07,-0.0013253591780108263,4.616537049995628e-07
0.005,0.00016700635600000005,-0.7858405479999995,4.0110631100000046e-05,-2.355153680000001,9.29461230000001e-05,1.57099613,0.786,0.04,0.04,-9.565175200001677,0.007524638937277624,0.06826164999963166,9.390863499822525e-08,-0.0014865908655384524,4.316118099991257e-07
0.0075,0.0001670080690000001,-0.7858233219999993,4.011210515000007e-05,-2.3551681700000007,9.294993450000016e-05,1.570995695,0.786,0.04,0.04,-9.622817800002517,0.006052111094985986,0.05560584249944751,3.292873749733787e-08,-0.0016478225530660788,4.015699149986885e-07
0.01,0.0001670097820000001,-0.7858060959999991,4.011357920000008e-05,-2.355182660000001,9.295374600000022e-05,1.57099526,0.786,0.04,0.04,-9.680460400003355,0.004579583252694347,0.04295003499926334,-2.8051160003549507e-08,-0.001809054240593705,3.7152801999825136e-07
0.0125,0.00016701149500000014,-0.7857888699999988,4.0115053250000104e-05,-2.3551971500000013,9.295755750000028e-05,1.570994825,0.786,0.04,0.04,-9.738103000004195,0.0031070554104027093,0.030294227499079174,-8.903105750443689e-08,-0.001970285928121331,3.4148612499781417e-07
0.015,0.00016701320800000015,-0.7857716439999985,4.0116527300000125e-05,-2.3552116400000016,9.296136900000032e-05,1.57099439,0.786,0.04,0.04,-9.795745600005034,0.0016345275681110723,0.01763841999889501,-1.5001095500532427e-07,-0.0021315176156489575,3.1144422999737704e-07
0.0175,0.00016701789350000108,-0.7857548619999984,4.011897790000045e-05,-2.3552257350000017,9.296155899999928e-05,1.57099396,0.786,0.04,0.04,-9.834092649999976,0.0006553867424379576,0.0091200606499752,-2.1019725400596913e-07,-0.0022883440018781577,7.161638493283089e-08
0.02,0.00016702852400000124,-0.7857389679999982,4.012338160000051e-05,-2.3552390400000016,9.295450599999918e-05,1.57099354,0.786,0.04,0.04,-9.833848599999973,0.0006630199495711086,0.008876597599971657,-2.6879635600682183e-07,-0.0024363597855143514,-5.877833600767643e-07
0.0225,0.0001670391545000014,-0.785723073999998,4.0127785300000575e-05,-2.3552523450000016,9.294745299999907e-05,1.57099312,0.786,0.04,0.04,-9.833604549999968,0.0006706531567042597,0.008633134549968115,-3.273954580076745e-07,-0.002584375569150545,-1.2471831050863594e-06
0.025,0.00016704978500000156,-0.7857071799999977,4.013218900000064e-05,-2.355265650000002,9.294039999999897e-05,1.5709927,0.786,0.04,0.04,-9.833360499999966,0.0006782863638374108,0.008389671499964571,-3.8599456000852735e-07,-0.002732391352786739,-1.9065828500959552e-06
0.0275,0.0001670604155000017,-0.7856912859999975,4.01365927000007e-05,-2.355278955000002,9.293334699999887e-05,1.57099228,0.786,0.04,0.04,-9.833116449999961,0.0006859195709705618,0.008146208449961029,-4.4459366200938e-07,-0.002880407136422933,-2.5659825951055506e-06
0.03,0.00016707104600000185,-0.7856753919999973,4.014099640000077e-05,-2.3552922600000024,9.292629399999877e-05,1.57099186,0.786,0.04,0.04,-9.832872399999957,0.0006935527781037129,0.007902745399957486,-5.031927640102327e-07,-0.0030284229200591268,-3.2253823401151456e-06
0.0325,0.000167081676500002,-0.785659497999997,4.0145400100000835e-05,-2.3553055650000023,9.291924099999867e-05,1.5709914399999998,0.786,0.04,0.04,-9.832628349999954,0.000701185985236864,0.0076592823499539425,-5.617918660110855e-07,-0.003176438703695321,-3.884782085124742e-06
0.035,0.00016710823700000576,-0.7856444399999976,4.0155093500002063e-05,-2.3553181000000016,9.289356199999414e-05,1.57099101,0.786,0.04,0.04,-9.832373999999957,0.0007151045720120751,0.007447537439967219,-6.389606500144679e-07,-0.003316538780950393,-5.3403862003102144e-06
0.0375,0.0001671427625000044,-0.7856297999999982,4.016743175000157e-05,-2.3553302500000015,9.285856999999554e-05,1.570990575,0.786,0.04,0.04,-9.832114499999967,0.0007321658486055724,0.007251651599975058,-7.25414275011008e-07,-0.00345268100501836,-7.19409250023603e-06
0.04,0.000167177288000003,-0.7856151599999988,4.017977000000108e-05,-2.355342400000001,9.282357799999695e-05,1.57099014,0.786,0.04,0.04,-9.831854999999978,0.0007492271251990696,0.007055765759982897,-8.118679000075484e-07,-0.003588823229086327,-9.04779880016185e-06
0.0425,0.00016721181350000164,-0.7856005199999994,4.019210825000058e-05,-2.3553545500000004,9.278858599999834e-05,1.570989705,0.786,0.04,0.04,-9.831595499999988,0.0007662884017925668,0.006859879919990736,-8.983215250040888e-07,-0.003724965453154294,-1.090150510008767e-05
0.045,0.00016724633900000026,-0.78558588,4.020444650000009e-05,-2.3553667,9.275359399999974e-05,1.57098927,0.786,0.04,0.04,-9.831335999999999,0.0007833496783860641,0.006663994079998575,-9.84775150000629e-07,-0.0038611076772222604,-1.2755211400013486e-05
0.0475,0.00016728086449999886,-0.7855712400000006,4.02167847499996e-05,-2.3553788499999997,9.271860200000115e-05,1.570988835,0.786,0.04,0.04,-9.831076500000009,0.0008004109549795613,0.006468108240006414,-1.0712287749971695e-06,-0.003997249901290228,-1.4608917699939306e-05
0.05,0.00016731538999999749,-0.7855566000000012,4.0229122999999106e-05,-2.355390999999999,9.268361000000254e-05,1.5709884,0.786,0.04,0.04,-9.83081700000002,0.0008174722315730587,0.006272222400014253,-1.15768239999371e-06,-0.004133392125358195,-1.6462623999865125e-05
0.0525,0.00016739547799999316,-0.7855431000000012,4.025659444999765e-05,-2.355402024999999,9.259625225000747e-05,1.5709879800000002,0.786,0.04,0.04,-9.830530050000025,0.0008412028138970662,0.006112035915013695,-1.2519162549919437e-06,-0.004257935751218853,-2.0025169299695427e-05
0.055,0.00016747556599999215,-0.7855296000000014,4.02840658999973e-05,-2.355413049999999,9.250889450000857e-05,1.57098756,0.786,0.04,0.04,-9.830243100000027,0.0008649333962215591,0.005951849430015734,-1.3461501099907438e-06,-0.004382479377078667,-2.3587714599650066e-05
0.0575,0.00016755565399999113,-0.7855161000000015,4.031153734999695e-05,-2.355424074999999,9.242153675000969e-05,1.5709871400000002,0.786,0.04,0.04,-9.829956150000031,0.0008886639785460518,0.005791662945017774,-1.4403839649895442e-06,-0.004507023002938481,-2.715025989960471e-05
0.06,0.0001676357419999901,-0.7855026000000017,4.03390087999966e-05,-2.355435099999999,9.23341790000108e-05,1.57098672,0.786,0.04,0.04,-9.829669200000035,0.0009123945608705446,0.005631476460019814,-1.5346178199883441e-06,-0.004631566628798295,-3.071280519955934e-05
0.0625,0.00016771582999998907,-0.7854891000000018,4.036648024999625e-05,-2.3554461249999985,9.224682125001192e-05,1.5709863000000002,0.786,0.04,0.04,-9.82938225000004,0.0009361251431950375,0.005471289975021853,-1.6288516749871443e-06,-0.004756110254658109,-3.427535049951398e-05
0.065,0.00016779591799998805,-0.785475600000002,4.03939516999959e-05,-2.3554571499999986,9.215946350001302e-05,1.57098588,0.786,0.04,0.04,-9.829095300000043,0.0009598557255195304,0.005311103490023892,-1.7230855299859446e-06,-0.004880653880517923,-3.7837895799468624e-05
0.0675,0.00016790040849997518,-0.785462430000002,4.042952869999162e-05,-2.3554678349999985,9.204437905002761e-05,1.570985455,0.786000095,0.04,0.04,-9.828838300000031,0.0009859164711038067,0.005147484640027599,-1.7834151300012108e-06,-0.005001356778648018,-4.212364539907203e-05
0.07,0.00016805370399997324,-0.7854499200000021,4.048131679999096e-05,-2.3554778399999985,9.187384120002978e-05,1.5709850200000002,0.7860003799999999,0.04,0.04,-9.828641200000034,0.0010166375432109555,0.004977001060029769,-1.775936220001306e-06,-0.005114378221313224,-4.785580359899905e-05
0.0725,0.0001682069994999713,-0.7854374100000023,4.05331048999903e-05,-2.355487844999998,9.170330335003196e-05,1.5709845850000002,0.786000665,0.04,0.04,-9.828444100000038,0.0010473586153181042,0.004806517480031941,-1.7684573100014012e-06,-0.005227399663978429,-5.358796179892604e-05
0.075,0.00016836029499996932,-0.7854249000000025,4.058489299998964e-05,-2.355497849999998,9.153276550003412e-05,1.5709841500000001,0.7860009499999999,0.04,0.04,-9.82824700000004,0.001078079687425253,0.004636033900034112,-1.7609784000014964e-06,-0.0053404211066436355,-5.932011999885305e-05
0.0775,0.00016851359049996738,-0.7854123900000026,4.063668109998898e-05,-2.355507854999998,9.13622276500363e-05,1.5709837150000001,0.786001235,0.04,0.04,-9.828049900000043,0.0011088007595324019,0.004465550320036283,-1.7534994900015917e-06,-0.005453442549308842,-6.505227819878008e-05
0.08,0.00016866688599996544,-0.7853998800000028,4.068846919998832e-05,-2.3555178599999977,9.119168980003846e-05,1.57098328,0.78600152,0.04,0.04,-9.827852800000045,0.0011395218316395507,0.004295066740038453,-1.7460205800016869e-06,-0.005566463991974047,-7.07844363987071e-05
0.0825,0.00016882018149996347,-0.7853873700000029,4.074025729998766e-05,-2.355527864999998,9.102115195004064e-05,1.570982845,0.7860018049999999,0.04,0.04,-9.827655700000047,0.0011702429037466996,0.004124583160040623,-1.738541670001782e-06,-0.005679485434639253,-7.651659459863411e-05
0.085,0.00016904432799993486,-0.7853755000000029,4.0815565499978145e-05,-2.3555372299999977,9.077044340007299e-05,1.57098241,0.78600209,0.04,0.04,-9.82745800000005,0.0012038344750091978,0.003972759750035768,-2.4940590297145887e-06,-0.005785770248595776,-8.397199859791229e-05
0.08750000000000001,0.00016930389999993153,-0.785363950000003,4.090263374997703e-05,-2.355546274999998,9.04796495000767e-05,1.5709819750000003,0.7860023749999999,0.04,0.04,-9.827260000000052,0.0012388612958509368,0.0038302664250375825,-3.631074524700112e-06,-0.005888686748194281,-9.228902549780639e-05
0.09,0.00016956347199992823,-0.7853524000000032,4.098970199997593e-05,-2.3555553199999975,9.01888556000804e-05,1.5709815400000002,0.78600266,0.04,0.04,-9.827062000000055,0.0012738881166926756,0.0036877731000393974,-4.768090019685629e-06,-0.005991603247792784,-0.00010060605239770046
0.0925,0.00016982304399992492,-0.7853408500000033,4.1076770249974816e-05,-2.3555643649999976,8.98980617000841e-05,1.5709811050000002,0.7860029449999999,0.04,0.04,-9.826864000000057,0.0013089149375344147,0.003545279775041212,-5.905105514671152e-06,-0.006094519747391289,-0.00010892307929759456
0.095,0.00017008261599992162,-0.7853293000000034,4.116383849997371e-05,-2.355573409999997,8.960726780008781e-05,1.5709806700000002,0.7860032299999999,0.04,0.04,-9.82666600000006,0.0013439417583761537,0.003402786450043026,-7.042121009656676e-06,-0.006197436246989794,-0.00011724010619748866
0.0975,0.00017034218799991832,-0.7853177500000036,4.12509067499726e-05,-2.3555824549999973,8.931647390009152e-05,1.5709802350000002,0.786003515,0.04,0.04,-9.826468000000062,0.0013789685792178928,0.00326029312504484,-8.179136504642199e-06,-0.0063003527465882985,-0.00012555713309738277
0.1,0.00017060175999991499,-0.7853062000000037,4.1337974999971494e-05,-2.355591499999997,8.902568000009521e-05,1.5709798000000001,0.7860037999999999,0.04,0.04,-9.826270000000063,0.0014139954000596318,0.0031177998000466545,-9.316151999627722e-06,-0.006403269246186803,-0.00013387415999727687
0.10250000000000001,0.00017100546099986267,-0.7852954375000036,4.147285484995412e-05,-2.355600094999997,8.857368950015374e-05,1.5709793650000001,0.7860043759999998,0.04,0.03999999925,-9.826081150000064,0.0014534301240793914,0.0029941924200420447,-1.0046848349751454e-05,-0.006496164831301177,-0.00014503483349620372
0.105,0.00017140916199985754,-0.7852846750000038,4.16077346999524e-05,-2.355608689999997,8.81216990001595e-05,1.57097893,0.7860049519999999,0.04,0.0399999985,-9.825892300000065,0.001492864848100594,0.002870585040043619,-1.0777544699742148e-05,-0.006589060416412268,-0.00015619550699606157
0.1075,0.00017181286299985238,-0.7852739125000039,4.1742614549950684e-05,-2.355617284999997,8.766970850016526e-05,1.570978495,0.7860055279999998,0.04,0.03999999775,-9.825703450000068,0.001532299572121797,0.002746977660045193,-1.1508241049732843e-05,-0.006681956001523361,-0.00016735618049591947
0.11,0.00017221656399984725,-0.785263150000004,4.1877494399948965e-05,-2.3556258799999967,8.721771800017101e-05,1.57097806,0.7860061039999998,0.04,0.039999997,-9.825514600000071,0.0015717342961429999,0.002623370280046767,-1.223893739972354e-05,-0.006774851586634453,-0.00017851685399577737
0.1125,0.00017262026499984212,-0.7852523875000043,4.201237424994725e-05,-2.3556344749999965,8.676572750017677e-05,1.5709776250000003,0.7860066799999997,0.04,0.03999999625,-9.825325750000074,0.0016111690201642027,0.0024997629000483405,-1.2969633749714237e-05,-0.006867747171745545,-0.00018967752749563527
0.115,0.00017302396599983697,-0.7852416250000044,4.2147254099945534e-05,-2.3556430699999966,8.631373700018252e-05,1.5709771900000002,0.7860072559999998,0.04,0.0399999955,-9.825136900000077,0.0016506037441854056,0.002376155520049914,-1.3700330099704933e-05,-0.006960642756856638,-0.00020083820099549318
0.11750000000000001,0.0001734897749997542,-0.7852311075000042,4.230273279991807e-05,-2.3556513249999966,8.579229300027506e-05,1.5709767500000003,0.7860078309999998,0.04,0.039999994750000004,-9.824963900000059,0.001689880597388876,0.0022579960100446803,-1.4712527549343857e-05,-0.007051133480818565,-0.00021309642399397954
0.12,0.0001740797999997467,-0.7852210800000043,4.249940919991557e-05,-2.355658899999997,8.513194200028348e-05,1.5709763,0.7860084039999997,0.04,0.039999994000000004,-9.824822600000061,0.0017288417089562948,0.0021507322400460467,-1.6287727199323794e-05,-0.0071368144824732384,-0.00022754974599379542
0.1225,0.0001746698249997392,-0.7852110525000044,4.269608559991307e-05,-2.3556664749999965,8.447159100029189e-05,1.5709758500000002,0.7860089769999997,0.04,0.039999993250000004,-9.824681300000062,0.0017678028205237136,0.002043468470047412,-1.7862926849303737e-05,-0.007222495484127913,-0.0002420030679936114
0.125,0.0001752598499997317,-0.7852010250000045,4.289276199991056e-05,-2.3556740499999966,8.38112400003003e-05,1.5709754000000002,0.7860095499999997,0.04,0.039999992500000005,-9.824540000000065,0.0018067639320911327,0.001936204700048778,-1.9438126499283683e-05,-0.007308176485782587,-0.0002564563899934274
0.1275,0.00017584987499972416,-0.7851909975000047,4.308943839990806e-05,-2.3556816249999963,8.31508890003087e-05,1.5709749500000003,0.7860101229999997,0.04,0.03999999175,-9.824398700000065,0.0018457250436585515,0.0018289409300501435,-2.1013326149263626e-05,-0.007393857487437261,-0.0002709097119932434
0.13,0.00017643989999971665,-0.7851809700000048,4.3286114799905556e-05,-2.3556891999999965,8.249053800031711e-05,1.5709745000000002,0.7860106959999997,0.04,0.039999991,-9.824257400000068,0.0018846861552259705,0.0017216771600515094,-2.258852579924357e-05,-0.007479538489091935,-0.00028536303399305936
0.1325,0.00017702992499970914,-0.785170942500005,4.3482791199903054e-05,-2.355696774999996,8.183018700032552e-05,1.5709740500000002,0.7860112689999997,0.04,0.03999999025,-9.824116100000069,0.0019236472667933894,0.0016144133900528749,-2.4163725449223516e-05,-0.007565219490746609,-0.0002998163559928753
0.135,0.00017777486199958413,-0.7851613200000047,4.3730846999861575e-05,-2.3557036699999965,8.099377000046748e-05,1.5709735600000003,0.7860120339999995,0.04,0.039999991,-9.823981400000067,0.001966134086228854,0.0015037198840568422,-2.524811179957575e-05,-0.0076446877792091155,-0.00031689186699070235
0.1375,0.00017859725499957366,-0.7851519000000049,4.400459249985809e-05,-2.3557102249999966,8.006932000047925e-05,1.5709730500000003,0.7860128949999995,0.04,0.0399999925,-9.823850000000068,0.0020103837596022857,0.0013913115100582733,-2.608709149956507e-05,-0.007721049711068588,-0.00033527847249046824
0.14,0.00017941964799956319,-0.785142480000005,4.4278337999854605e-05,-2.3557167799999963,7.914487000049101e-05,1.5709725400000003,0.7860137559999996,0.04,0.039999994,-9.823718600000069,0.0020546334329757175,0.0012789031360597046,-2.6926071199554386e-05,-0.007797411642928061,-0.00035366507799023414
0.14250000000000002,0.0001802420409995527,-0.7851330600000052,4.455208349985112e-05,-2.3557233349999964,7.822042000050278e-05,1.5709720300000003,0.7860146169999995,0.04,0.039999995499999996,-9.823587200000071,0.002098883106349149,0.0011664947620611357,-2.7765050899543704e-05,-0.007873773574787534,-0.00037205168349000004
0.145,0.00018106443399954224,-0.7851236400000052,4.482582899984763e-05,-2.355729889999996,7.729597000051456e-05,1.5709715200000003,0.7860154779999995,0.04,0.039999997,-9.823455800000072,0.00214313277972258,0.0010540863880625683,-2.860403059953301e-05,-0.007950135506647006,-0.0003904382889897657
0.1475,0.00018188682699953176,-0.7851142200000054,4.5099574499844144e-05,-2.3557364449999962,7.637152000052634e-05,1.5709710100000003,0.7860163389999995,0.04,0.0399999985,-9.823324400000075,0.0021873824530960115,0.0009416780140639994,-2.944301029952233e-05,-0.00802649743850648,-0.0004088248944895316
0.15,0.0001827092199995213,-0.7851048000000055,4.537331999984066e-05,-2.355742999999996,7.54470700005381e-05,1.5709705000000003,0.7860171999999994,0.04,0.04,-9.823193000000076,0.0022316321264694433,0.0008292696400654307,-3.0281989999511647e-05,-0.008102859370365952,-0.0004272114999892975
0.1525,0.00018381331899934325,-0.7850959050000054,4.574044499978163e-05,-2.3557488949999965,7.420790200073707e-05,1.5709695100000007,0.7860184839999992,0.04,0.03999999925,-9.8230241000001,0.0022782010724490655,0.0007368850720549514,-3.144635044930742e-05,-0.008169783418958278,-0.0004490853399869892
0.155,0.0001849174179993292,-0.7850870100000055,4.6107569999776956e-05,-2.355754789999996,7.296873400075285e-05,1.5709685200000005,0.7860197679999992,0.04,0.0399999985,-9.822855200000102,0.0023247700184300373,0.0006445005040561277,-3.26107108992926e-05,-0.008236707467545111,-0.0004709591799867107
0.1575,0.00018602151699931516,-0.7850781150000056,4.647469499977229e-05,-2.3557606849999964,7.172956600076862e-05,1.5709675300000006,0.7860210519999992,0.04,0.03999999775,-9.822686300000106,0.0023713389644110096,0.0005521159360573039,-3.377507134927778e-05,-0.008303631516131943,-0.0004928330199864322
0.16,0.00018712561599930108,-0.7850692200000057,4.684181999976761e-05,-2.355766579999996,7.04903980007844e-05,1.5709665400000006,0.7860223359999992,0.04,0.039999997,-9.822517400000107,0.0024179079103919814,0.0004597313680584801,-3.493943179926295e-05,-0.008370555564718777,-0.0005147068599861537
0.1625,0.00018822971499928703,-0.7850603250000057,4.720894499976294e-05,-2.355772474999996,6.925123000080018e-05,1.5709655500000006,0.7860236199999991,0.04,0.03999999625,-9.822348500000109,0.0024644768563729536,0.00036734680005965633,-3.610379224924813e-05,-0.008437479613305609,-0.0005365806999858752
0.165,0.00018933381399927299,-0.7850514300000058,4.757606999975826e-05,-2.355778369999996,6.801206200081595e-05,1.5709645600000006,0.7860249039999991,0.04,0.0399999955,-9.822179600000112,0.002511045802353926,0.0002749622320608326,-3.72681526992333e-05,-0.008504403661892443,-0.0005584545399855967
0.1675,0.00019054928999902158,-0.7850426700000057,4.798010899967491e-05,-2.3557840149999967,6.664763330109864e-05,1.5709635600000007,0.7860263319999988,0.04,0.03999999525,-9.822040750000054,0.002556294447247729,0.0001892059100493215,-3.8707404348646865e-05,-0.008569754101293672,-0.0005817639399821894
0.17,0.00019198751999896402,-0.785034180000006,4.845797599965579e-05,-2.355789159999996,6.503268320116327e-05,1.5709625400000007,0.7860280479999988,0.04,0.039999996,-9.821962000000058,0.0025989024899592686,0.00011670608005222271,-4.069643839856727e-05,-0.008631957322314254,-0.0006079444599811417
0.17250000000000001,0.00019342574999890646,-0.7850256900000064,4.893584299963667e-05,-2.355794304999996,6.34177331012279e-05,1.5709615200000007,0.7860297639999987,0.04,0.03999999675,-9.821883250000061,0.0026415105326708086,4.4206250055123936e-05,-4.268547244848767e-05,-0.008694160543334835,-0.0006341249799800942
0.17500000000000002,0.0001948639799988489,-0.7850172000000067,4.941370999961754e-05,-2.3557994499999957,6.180278300129252e-05,1.5709605000000009,0.7860314799999987,0.04,0.0399999975,-9.821804500000063,0.0026841185753823486,-2.8293579941974877e-05,-4.4674506498408074e-05,-0.008756363764355415,-0.0006603054999790465
0.1775,0.00019630220999879134,-0.7850087100000072,4.989157699959841e-05,-2.3558045949999955,6.018783290135717e-05,1.5709594800000009,0.7860331959999985,0.04,0.03999999825,-9.821725750000066,0.002726726618093888,-0.00010079340993907288,-4.666354054832846e-05,-0.008818566985375996,-0.0006864860199779985
0.18,0.00019774043999873378,-0.7850002200000075,5.036944399957929e-05,-2.3558097399999953,5.8572882801421795e-05,1.5709584600000008,0.7860349119999985,0.04,0.039999999,-9.82164700000007,0.002769334660805428,-0.00017329323993617166,-4.8652574598248865e-05,-0.008880770206396577,-0.0007126665399769508
0.1825,0.00019917866999867625,-0.7849917300000078,5.0847310999560167e-05,-2.355814884999995,5.6957932701486415e-05,1.570957440000001,0.7860366279999984,0.04,0.03999999975,-9.821568250000073,0.002811942703516968,-0.00024579306993327045,-5.064160864816927e-05,-0.008942973427417157,-0.0007388470599759031
0.185,0.00020087630199831146,-0.7849834860000074,5.141113599943928e-05,-2.355819369999996,5.505260240189478e-05,1.570956390000001,0.7860385949999981,0.04,0.04,-9.821458150000117,0.0028504043584352454,-0.00032131272492882105,-5.294631599772449e-05,-0.009000245202282006,-0.000767797256971969
0.1875,0.00020270363499833805,-0.7849753650000074,5.201793999944811e-05,-2.355823524999996,5.300208200186494e-05,1.570955325000001,0.7860406874999981,0.04,0.04,-9.821332375000114,0.00288679281944818,-0.000398342292429942,-5.5408859997760324e-05,-0.009055051254058628,-0.0007981322924724104
0.19,0.00020453096799836465,-0.7849672440000073,5.262474399945695e-05,-2.355827679999996,5.09515616018351e-05,1.570954260000001,0.7860427799999982,0.04,0.04,-9.821206600000114,0.0029231812804611144,-0.00047537185993106303,-5.787140399779616e-05,-0.009109857305835252,-0.0008284673279728518
0.1925,0.00020635830099839124,-0.7849591230000071,5.323154799946578e-05,-2.355831834999996,4.890104120180526e-05,1.570953195000001,0.7860448724999982,0.04,0.04,-9.821080825000111,0.0029595697414740493,-0.000552401427432184,-6.0333947997832e-05,-0.009164663357611874,-0.0008588023634732933
0.195,0.00020818563399841784,-0.784951002000007,5.383835199947461e-05,-2.355835989999996,4.685052080177542e-05,1.570952130000001,0.7860469649999982,0.04,0.04,-9.82095505000011,0.0029959582024869837,-0.0006294309949333051,-6.279649199786783e-05,-0.009219469409388496,-0.0008891373989737348
0.1975,0.0002100129669984444,-0.7849428810000069,5.444515599948344e-05,-2.355840144999996,4.480000040174558e-05,1.570951065000001,0.7860490574999982,0.04,0.04,-9.820829275000108,0.003032346663499918,-0.000706460562434426,-6.525903599790368e-05,-0.009274275461165118,-0.0009194724344741762
0.2,0.000211840299998471,-0.7849347600000067,5.5051959999492266e-05,-2.3558442999999962,4.2749480001715736e-05,1.570950000000001,0.7860511499999983,0.04,0.04,-9.820703500000105,0.0030687351245128527,-0.0007834901299355471,-6.772157999793951e-05,-0.009329081512941742,-0.0009498074699746177
0.2025,0.00021411403149806856,-0.7849268910000067,5.580663099935893e-05,-2.355847704999997,4.020085730216496e-05,1.5709484250000014,0.7860537524999978,0.04,0.03999999925,-9.820599475000089,0.003115871944424694,-0.0008576796154369788,-7.020183149789312e-05,-0.009375469619368824,-0.0009844806044705464
0.20500000000000002,0.0002163877629980396,-0.7849190220000067,5.6561301999349325e-05,-2.355851109999997,3.765223460219741e-05,1.5709468500000014,0.7860563549999977,0.04,0.0399999985,-9.82049545000009,0.003163008764345529,-0.0009318691009360342,-7.268208299786153e-05,-0.009421857725788864,-0.001019153738970105
0.20750000000000002,0.00021866149449801067,-0.7849111530000069,5.731597299933972e-05,-2.3558545149999968,3.510361190222986e-05,1.5709452750000015,0.7860589574999978,0.04,0.03999999775,-9.820391425000091,0.0032101455842663638,-0.0010060585864350895,-7.516233449782996e-05,-0.009468245832208903,-0.0010538268734696635
0.21,0.00022093522599798168,-0.784903284000007,5.80706439993301e-05,-2.355857919999997,3.255498920226234e-05,1.5709437000000013,0.7860615599999977,0.04,0.039999997,-9.820287400000092,0.003257282404187198,-0.0010802480719341442,-7.764258599779835e-05,-0.009514633938628942,-0.0010885000079692217
0.2125,0.00022320895749795275,-0.7848954150000071,5.882531499932049e-05,-2.3558613249999967,3.0006366502294785e-05,1.5709421250000013,0.7860641624999977,0.04,0.03999999625,-9.820183375000093,0.0033044192241080328,-0.0011544375574331996,-8.012283749776678e-05,-0.00956102204504898,-0.0011231731424687801
0.215,0.00022548268899792379,-0.7848875460000072,5.9579985999310885e-05,-2.355864729999997,2.7457743802327233e-05,1.5709405500000013,0.7860667649999976,0.04,0.0399999955,-9.820079350000094,0.0033515560440288677,-0.001228627042932255,-8.26030889977352e-05,-0.009607410151469022,-0.0011578462769683386
0.2175,0.00022792498349742663,-0.7848797300000072,6.039050799914614e-05,-2.3558679499999973,2.4719871352885345e-05,1.5709389600000014,0.786069566999997,0.04,0.03999999525,-9.81998840000006,0.003394044877464878,-0.001296416179949088,-8.517577849744687e-05,-0.009652278106620867,-0.0011941677699633187
0.22,0.00023070440399739124,-0.7848720200000072,6.13127319991344e-05,-2.3558707999999973,2.1603499402925023e-05,1.5709373400000015,0.7860727679999969,0.04,0.039999996,-9.819923600000061,0.003427237737892685,-0.0013514046199483878,-8.793334399741176e-05,-0.00969410575922372,-0.0012337859799628143
0.2225,0.00023348382449735585,-0.7848643100000073,6.223495599912267e-05,-2.3558736499999973,1.84871274529647e-05,1.5709357200000016,0.786075968999997,0.04,0.03999999675,-9.81985880000006,0.0034604305983204926,-0.0014063930599476878,-9.069090949737665e-05,-0.009735933411826572,-0.0012734041899623099
0.225,0.00023626324499732046,-0.7848566000000075,6.315717999911092e-05,-2.3558764999999973,1.537075550300438e-05,1.5709341000000017,0.7860791699999969,0.04,0.0399999975,-9.819794000000062,0.0034936234587483,-0.0014613814999469878,-9.344847499734154e-05,-0.009777761064429425,-0.0013130223999618055
0.2275,0.00023904266549728507,-0.7848488900000076,6.407940399909918e-05,-2.3558793499999973,1.2254383553044055e-05,1.5709324800000015,0.7860823709999969,0.04,0.03999999825,-9.819729200000063,0.0035268163191761073,-0.0015163699399462875,-9.620604049730643e-05,-0.009819588717032278,-0.001352640609961301
0.23,0.00024182208599724968,-0.7848411800000077,6.500162799908743e-05,-2.3558821999999973,9.138011603083735e-06,1.5709308600000016,0.7860855719999968,0.04,0.039999999,-9.819664400000065,0.003560009179603915,-0.0015713583799455875,-9.896360599727132e-05,-0.00986141636963513,-0.0013922588199607967
0.2325,0.0002446015064972143,-0.7848334700000077,6.59238519990757e-05,-2.3558850499999973,6.0216396531234125e-06,1.5709292400000017,0.7860887729999968,0.04,0.03999999975,-9.819599600000064,0.003593202040031722,-0.0016263468199448872,-0.00010172117149723621,-0.009903244022237983,-0.0014318770299602923
0.23500000000000001,0.00024775865399660383,-0.7848258100000077,6.697115799887351e-05,-2.355887199999998,2.485679203801904e-06,1.5709272700000023,0.7860924059999961,0.04,0.039999999,-9.819547600000046,0.0036273255943900027,-0.0016870120699355444,-0.00010477053199675684,-0.009941310062967692,-0.0014742705699555625
0.23750000000000002,0.0002511046649965612,-0.7848181750000078,6.808100499885939e-05,-2.355888999999998,-1.2600754961504052e-06,1.5709251250000023,0.786096254999996,0.04,0.0399999975,-9.819502000000046,0.003661914495715627,-0.0017505157249347357,-0.00010796578999671617,-0.009977495297752312,-0.0015180517749550052
0.24,0.00025445067599651856,-0.7848105400000079,6.919085199884525e-05,-2.355890799999998,-5.005830196102673e-06,1.5709229800000022,0.786100103999996,0.04,0.039999996,-9.819456400000048,0.0036965033970412513,-0.0018140193799339266,-0.00011116104799667544,-0.01001368053253693,-0.0015618329799544472
0.2425,0.000257796686996476,-0.784802905000008,7.030069899883111e-05,-2.355892599999998,-8.751584896054981e-06,1.5709208350000023,0.7861039529999959,0.04,0.039999994500000004,-9.819410800000048,0.003731092298366876,-0.001877523034933118,-0.00011435630599663476,-0.01004986576732155,-0.0016056141849538897
0.245,0.0002611426979964334,-0.7847952700000081,7.141054599881698e-05,-2.3558943999999977,-1.2497339596007293e-05,1.5709186900000023,0.7861078019999959,0.04,0.039999993000000005,-9.819365200000048,0.0037656811996925007,-0.0019410266899323094,-0.00011755156399659407,-0.01008605100210617,-0.0016493953899533323
0.2475,0.0002644887089963908,-0.7847876350000083,7.252039299880286e-05,-2.355896199999998,-1.62430942959596e-05,1.5709165450000022,0.7861116509999958,0.04,0.0399999915,-9.81931960000005,0.003800270101018125,-0.002004530344931501,-0.0001207468219965534,-0.010122236236890788,-0.0016931765949527748
0.25,0.0002678347199963482,-0.7847800000000084,7.363023999878872e-05,-2.355897999999998,-1.998884899591191e-05,1.5709144000000024,0.7861154999999957,0.04,0.03999999,-9.81927400000005,0.0038348590023437497,-0.0020680339999306924,-0.0001239420799965127,-0.010158421471675408,-0.0017369577999522174
0.2525,0.0002718097169956111,-0.7847723950000084,7.494840999854457e-05,-2.355898809999999,-2.443873114508677e-05,1.5709121800000023,0.7861200809999949,0.04,0.03999999075,-9.819166300000118,0.0038470637518777193,-0.0021178466299450003,-0.00012746750899610747,-0.010189058585058534,-0.001786049034945797
0.255,0.0002757847139955605,-0.7847647900000085,7.62665799985278e-05,-2.355899619999999,-2.8888613295030116e-05,1.5709099600000025,0.7861246619999949,0.04,0.0399999915,-9.81905860000012,0.003859268501387259,-0.002167659259944366,-0.0001309929379960626,-0.010219695698435604,-0.001835140269945172
0.2575,0.0002797597109955099,-0.7847571850000086,7.7584749998511e-05,-2.355900429999999,-3.333849544497346e-05,1.5709077400000024,0.7861292429999948,0.04,0.03999999225,-9.818950900000122,0.003871473250896799,-0.0022174718899437324,-0.0001345183669960177,-0.010250332811812674,-0.001884231504944547
0.26,0.0002837347079954593,-0.7847495800000087,7.890291999849423e-05,-2.355901239999999,-3.77883775949168e-05,1.5709055200000024,0.7861338239999948,0.04,0.039999993,-9.818843200000122,0.0038836780004063384,-0.002267284519943098,-0.00013804379599597282,-0.010280969925189743,-0.001933322739943922
0.2625,0.00028770970499540866,-0.7847419750000088,8.022108999847744e-05,-2.3559020499999987,-4.2238259744860146e-05,1.5709033000000026,0.7861384049999947,0.04,0.039999993750000004,-9.818735500000123,0.003895882749915878,-0.002317097149942464,-0.00014156922499592795,-0.010311607038566813,-0.001982413974943297
0.265,0.00029168470199535806,-0.7847343700000089,8.153925999846066e-05,-2.3559028599999987,-4.6688141894803495e-05,1.5709010800000025,0.7861429859999947,0.04,0.039999994500000004,-9.818627800000126,0.003908087499425418,-0.00236690977994183,-0.00014509465399588305,-0.010342244151943883,-0.002031505209942672
0.2675,0.0002958905464944899,-0.7847267400000091,8.293389549817307e-05,-2.3559034249999997,-5.139669599383073e-05,1.5708986900000033,0.7861478254999936,0.04,0.03999999525,-9.818534950000073,0.003925384092112184,-0.0024191866399324684,-0.00014875736699535198,-0.010370505554573776,-0.002082277214936094
0.27,0.00030055808599443047,-0.7847190600000091,8.448146199815336e-05,-2.3559034999999997,-5.66225939937642e-05,1.5708959600000032,0.7861531819999936,0.04,0.039999996,-9.818471800000074,0.003952864371207309,-0.00247639195993174,-0.00015269464799530185,-0.010394015535684167,-0.002136410759935405
0.2725,0.00030522562549437104,-0.7847113800000093,8.602902849813366e-05,-2.3559035749999997,-6.184849199369766e-05,1.5708932300000034,0.7861585384999935,0.04,0.03999999675,-9.818408650000075,0.0039803446503024345,-0.0025335972799310114,-0.00015663192899525172,-0.010417525516794557,-0.002190544304934716
0.275,0.0003098931649943116,-0.7847037000000093,8.757659499811396e-05,-2.3559036499999997,-6.707438999363111e-05,1.5708905000000033,0.7861638949999935,0.04,0.0399999975,-9.818345500000076,0.004007824929397559,-0.002590802599930283,-0.0001605692099952016,-0.010441035497904948,-0.0022446778499340264
0.2775,0.0003145607044942522,-0.7846960200000095,8.912416149809426e-05,-2.3559037249999997,-7.230028799356459e-05,1.5708877700000032,0.7861692514999934,0.04,0.03999999825,-9.818282350000077,0.004035305208492684,-0.002648007919929555,-0.00016450649099515146,-0.010464545479015338,-0.0022988113949333373
0.28,0.00031922824399419276,-0.7846883400000095,9.067172799807454e-05,-2.3559037999999997,-7.752618599349804e-05,1.5708850400000034,0.7861746079999934,0.04,0.039999999,-9.818219200000078,0.00406278548758781,-0.0027052132399288265,-0.0001684437719951013,-0.010488055460125729,-0.0023529449399326482
0.28250000000000003,0.00032389578349413333,-0.7846806600000097,9.221929449805484e-05,-2.3559038749999996,-8.275208399343151e-05,1.5708823100000033,0.7861799644999933,0.04,0.03999999975,-9.818156050000079,0.004090265766682934,-0.0027624185599280982,-0.00017238105299505118,-0.01051156544123612,-0.002407078484931959
0.28500000000000003,0.0003290679999931128,-0.78467289000001,9.393394899771693e-05,-2.3559034900000007,-8.853957299229544e-05,1.570879270000004,0.7861859049999921,0.04,0.0399999995,-9.818111300000044,0.004107750859095675,-0.0028106061299445436,-0.00017647244999470754,-0.010532400850181825,-0.002464235309925512
0.28750000000000003,0.0003344925549930437,-0.78466507500001,9.573214749769403e-05,-2.355902875000001,-9.460785749221819e-05,1.5708760750000041,0.7861921374999921,0.04,0.03999999875,-9.818075750000045,0.0041202383581388615,-0.0028542848249439876,-0.00018064090499465447,-0.010551898973037595,-0.002522903774924765
0.29,0.0003399171099929745,-0.7846572600000101,9.75303459976711e-05,-2.3559022600000006,-0.00010067614199214079,1.570872880000004,0.7861983699999919,0.04,0.039999998,-9.818040200000047,0.004132725857182047,-0.0028979635199434303,-0.00018480935999460132,-0.010571397095893368,-0.0025815722399240167
0.2925,0.00034534166499290545,-0.7846494450000102,9.93285444976482e-05,-2.3559016450000008,-0.00010674442649206353,1.5708696850000041,0.7862046024999918,0.04,0.03999999725,-9.818004650000047,0.004145213356225233,-0.0029416422149428742,-0.00018897781499454825,-0.010590895218749138,-0.00264024070492327
0.295,0.00035076621999283636,-0.7846416300000104,0.0001011267429976253,-2.355901030000001,-0.00011281271099198626,1.5708664900000042,0.7862108349999918,0.04,0.0399999965,-9.817969100000047,0.004157700855268419,-0.002985320909942318,-0.00019314626999449518,-0.01061039334160491,-0.002698909169922523
0.2975,0.0003561907749927673,-0.7846338150000105,0.00010292494149760242,-2.3559004150000007,-0.00011888099549190901,1.5708632950000043,0.7862170674999917,0.04,0.03999999575,-9.817933550000047,0.004170188354311605,-0.0030289996049417617,-0.00019731472499444211,-0.010629891464460682,-0.002757577634921776
0.3,0.00036161532999269823,-0.7846260000000106,0.00010472313999757952,-2.355899800000001,-0.00012494927999183176,1.5708601000000042,0.7862232999999915,0.04,0.039999995,-9.817898000000048,0.004182675853354792,-0.0030726782999412057,-0.00020148317999438904,-0.010649389587316453,-0.002816246099921029
0.3025,0.0003678622254915118,-0.7846179900000109,0.00010679364999718661,-2.3558980900000024,-0.00013193402849050921,1.5708566200000047,0.7862304774999902,0.04,0.039999994250000004,-9.817872500000034,0.004169317823852851,-0.003118739759937412,-0.0002060169254938396,-0.010665610106639838,-0.0028801079699132255
0.305,0.0003741091209914323,-0.784609980000011,0.00010886415999716025,-2.355896380000002,-0.00013891877699042027,1.5708531400000048,0.7862376549999901,0.04,0.039999993500000004,-9.817847000000034,0.0041559597943161206,-0.0031648012199368258,-0.00021055067099378188,-0.010681830625958812,-0.002943969839912412
0.3075,0.00038035601649135276,-0.7846019700000111,0.0001109346699971339,-2.3558946700000023,-0.00014590352549033136,1.5708496600000048,0.7862448324999901,0.04,0.039999992750000005,-9.817821500000035,0.004142601764779391,-0.003210862679936239,-0.00021508441649372416,-0.010698051145277786,-0.003007831709911599
0.31,0.0003866029119912732,-0.7845939600000111,0.00011300517999710753,-2.3558929600000025,-0.00015288827399024242,1.5708461800000049,0.78625200999999,0.04,0.039999992000000005,-9.817796000000035,0.004129243735242661,-0.0032569241399356525,-0.00021961816199366643,-0.01071427166459676,-0.003071693579910786
0.3125,0.00039284980749119367,-0.7845859500000113,0.00011507568999708116,-2.355891250000002,-0.0001598730224901535,1.570842700000005,0.7862591874999899,0.04,0.03999999125,-9.817770500000035,0.004115885705705931,-0.003302985599935066,-0.0002241519074936087,-0.010730492183915733,-0.003135555449909973
0.315,0.00039909670299111415,-0.7845779400000114,0.0001171461999970548,-2.3558895400000024,-0.00016685777099006456,1.570839220000005,0.7862663649999898,0.04,0.0399999905,-9.817745000000038,0.004102527676169201,-0.0033490470599344796,-0.00022868565299355098,-0.010746712703234707,-0.00319941731990916
0.3175,0.0004056396599897599,-0.7845698300000119,0.00011931473899660637,-2.355887470000004,-0.00017417288048855324,1.5708355650000057,0.7862738889999882,0.04,0.03999999025,-9.817708900000083,0.0040945444488858194,-0.0033956563599315346,-0.0002333539794929138,-0.010760792251662238,-0.003265023354900837
0.32,0.00041277473998966907,-0.784561520000012,0.00012167933599657626,-2.355884680000004,-0.00018214871198845168,1.5708315600000058,0.7862821059999882,0.04,0.039999991,-9.817651600000083,0.004097310826178355,-0.003443361339930927,-0.00023829146799285095,-0.010770589858279313,-0.0033341177198999575
0.3225,0.0004199098199895782,-0.7845532100000121,0.00012404393299654616,-2.355881890000004,-0.00019012454348835015,1.5708275550000057,0.786290322999988,0.04,0.03999999175,-9.817594300000085,0.004100077203470889,-0.00349106631993032,-0.00024322895649278809,-0.01078038746489639,-0.003403212084899078
0.325,0.00042704489998948735,-0.7845449000000122,0.00012640852999651605,-2.355879100000004,-0.0001981003749882486,1.5708235500000058,0.7862985399999879,0.04,0.0399999925,-9.817537000000085,0.0041028435807634244,-0.0035387712999297126,-0.0002481664449927252,-0.010790185071513464,-0.0034723064498981978
0.3275,0.0004341799799893965,-0.7845365900000123,0.00012877312699648594,-2.355876310000004,-0.00020607620648814703,1.570819545000006,0.7863067569999878,0.04,0.03999999325,-9.817479700000085,0.004105609958055959,-0.003586476279929105,-0.00025310393349266237,-0.01079998267813054,-0.003541400814897318
0.33,0.0004413150599893057,-0.7845282800000125,0.00013113772399645583,-2.355873520000004,-0.0002140520379880455,1.570815540000006,0.7863149739999876,0.04,0.039999994000000004,-9.817422400000087,0.004108376335348494,-0.0036341812599284978,-0.0002580414219925995,-0.010809780284747614,-0.0036104951798964385
0.3325,0.00044845013998921486,-0.7845199700000126,0.00013350232099642573,-2.355870730000004,-0.00022202786948794393,1.570811535000006,0.7863231909999875,0.04,0.039999994750000004,-9.817365100000087,0.004111142712641029,-0.0036818862399278906,-0.00026297891049253665,-0.01081957789136469,-0.003679589544895559
0.335,0.00045622153498766906,-0.7845114330000132,0.00013607763499591383,-2.3558673400000054,-0.00023071538898621514,1.5708071600000069,0.7863321269999858,0.04,0.0399999955,-9.81731590000007,0.004097185377065562,-0.003727361579932381,-0.000268229878991757,-0.010826310608527984,-0.0037522641698864933
0.3375,0.00046431108748756604,-0.7845027825000134,0.0001387583074958797,-2.3558636500000056,-0.0002397587524861,1.570802600000007,0.7863414224999857,0.04,0.03999999625,-9.81727075000007,0.004074866184999056,-0.003771722099931816,-0.00027363758749168813,-0.010831510880953932,-0.003826728924885545
0.34,0.0004724006399874631,-0.7844941320000134,0.00014143897999584557,-2.3558599600000054,-0.0002488021159859849,1.570798040000007,0.7863507179999856,0.04,0.039999997,-9.81722560000007,0.004052546992932549,-0.0038160826199312515,-0.0002790452959916193,-0.01083671115337988,-0.003901193679884597
0.3425,0.00048049019248736007,-0.7844854815000135,0.00014411965249581146,-2.3558562700000056,-0.0002578454794858697,1.570793480000007,0.7863600134999855,0.04,0.03999999775,-9.817180450000071,0.0040302278008660436,-0.0038604431399306867,-0.00028445300449155046,-0.010841911425805829,-0.003975658434883649
0.34500000000000003,0.000488579744987257,-0.7844768310000136,0.00014680032499577732,-2.355852580000006,-0.00026688884298575456,1.5707889200000071,0.7863693089999854,0.04,0.0399999985,-9.817135300000071,0.004007908608799538,-0.003904803659930122,-0.00028986071299148163,-0.010847111698231778,-0.004050123189882701
0.34750000000000003,0.0004966692974871541,-0.7844681805000138,0.0001494809974957432,-2.355848890000006,-0.00027593220648563946,1.570784360000007,0.7863786044999852,0.04,0.03999999925,-9.817090150000071,0.003985589416733032,-0.003949164179929557,-0.00029526842149141274,-0.010852311970657726,-0.004124587944881753
0.35000000000000003,0.000504758849987051,-0.7844595300000139,0.00015216166999570905,-2.355845200000006,-0.0002849755699855243,1.5707798000000073,0.7863878999999852,0.04,0.04,-9.817045000000073,0.003963270224666526,-0.003993524699928992,-0.0003006761299913439,-0.010857512243083676,-0.004199052699880804
0.3525,0.0005138693624853006,-0.7844504100000147,0.00015518037949512946,-2.355840475000008,-0.00029515759998357177,1.5707746700000083,0.7863983549999831,0.04,0.04,-9.817028500000028,0.003931074845656511,-0.004036132919931253,-0.00030632442349088674,-0.010859195608642899,-0.004278438684871914
0.355,0.0005229798749851846,-0.7844412900000148,0.00015819908899509104,-2.3558357500000078,-0.00030533962998344216,1.5707695400000083,0.786408809999983,0.04,0.04,-9.817012000000027,0.0038988794666306855,-0.004078741139930711,-0.00031197271699081485,-0.010860878974196492,-0.004357824669870903
0.3575,0.0005320903874850686,-0.784432170000015,0.0001612177984950526,-2.3558310250000076,-0.0003155216599833125,1.5707644100000084,0.7864192649999828,0.04,0.04,-9.816995500000028,0.0038666840876048604,-0.004121349359930169,-0.0003176210104907429,-0.010862562339750087,-0.004437210654869893
0.36,0.0005412008999849527,-0.7844230500000151,0.00016423650799501417,-2.355826300000008,-0.0003257036899831829,1.5707592800000085,0.7864297199999827,0.04,0.04,-9.816979000000028,0.0038344887085790353,-0.004163957579929626,-0.000323269303990671,-0.01086424570530368,-0.004516596639868882
0.3625,0.0005503114124848367,-0.7844139300000152,0.00016725521749497572,-2.3558215750000078,-0.0003358857199830532,1.5707541500000084,0.7864401749999826,0.04,0.04,-9.816962500000027,0.0038022933295532102,-0.004206565799929084,-0.00032891759749059907,-0.010865929070857273,-0.004595982624867871
0.365,0.0005594219249847207,-0.7844048100000154,0.0001702739269949373,-2.355816850000008,-0.0003460677499829236,1.5707490200000085,0.7864506299999825,0.04,0.04,-9.816946000000028,0.0037700979505273856,-0.004249174019928541,-0.0003345658909905272,-0.010867612436410866,-0.00467536860986686
0.3675,0.0005688949849827668,-0.7843955385000162,0.0001734126779942903,-2.35581179500001,-0.00035665403948074455,1.5707436900000096,0.7864614979999802,0.04,0.04,-9.81692335000006,0.0037268697285265016,-0.004295477099909267,-0.00034030874698997584,-0.010868077259514013,-0.004756478634857109
0.37,0.000579093139982637,-0.7843859640000164,0.00017679151199424727,-2.35580608000001,-0.00036804884798059947,1.5707379600000098,0.7864731919999801,0.04,0.04,-9.81688840000006,0.003661575820408128,-0.004349169899908583,-0.00034624072798990034,-0.010866104997697778,-0.004841036739856033
0.3725,0.0005892912949825071,-0.7843763895000164,0.00018017034599420427,-2.3558003650000097,-0.0003794436564804544,1.57073223000001,0.7864848859999799,0.04,0.04,-9.81685345000006,0.0035962819122897544,-0.0044028626999079,-0.00035217270898982485,-0.010864132735881544,-0.004925594844854956
0.375,0.0005994894499823772,-0.7843668150000166,0.00018354917999416123,-2.3557946500000098,-0.0003908384649803093,1.57072650000001,0.7864965799999798,0.04,0.04,-9.81681850000006,0.0035309880041713804,-0.004456555499907216,-0.0003581046899897493,-0.010862160474065309,-0.00501015294985388
0.3775,0.0006096876049822474,-0.7843572405000167,0.00018692801399411823,-2.35578893500001,-0.00040223327348016424,1.57072077000001,0.7865082739999797,0.04,0.04,-9.81678355000006,0.0034656940960530068,-0.004510248299906533,-0.00036403667098967374,-0.010860188212249074,-0.005094711054852803
0.38,0.0006198857599821175,-0.7843476660000167,0.0001903068479940752,-2.35578322000001,-0.00041362808198001916,1.57071504000001,0.7865199679999795,0.04,0.04,-9.81674860000006,0.003400400187934633,-0.004563941099905849,-0.00036996865198959825,-0.010858215950432838,-0.005179269159851727
0.3825,0.0006300839149819877,-0.7843380915000169,0.00019368568199403218,-2.35577750500001,-0.000425022890479874,1.5707093100000102,0.7865316619999794,0.04,0.04,-9.816713650000061,0.0033351062798162596,-0.0046176338999051655,-0.00037590063298952275,-0.010856243688616603,-0.0052638272648506505
0.385,0.0006410515749798044,-0.784328150000018,0.0001973192859933093,-2.355771040000012,-0.0004372764369774375,1.5707031600000114,0.7865442439999768,0.04,0.04,-9.816699900000005,0.0032834683080069055,-0.004662979619926756,-0.00038207516598879997,-0.010851775668571569,-0.005351909969840168
0.3875,0.0006524039874796599,-0.7843180250000181,0.00020108027499326142,-2.3557642000000123,-0.000449959352477276,1.5706968000000114,0.7865572699999767,0.04,0.04,-9.816696750000006,0.003238658304406461,-0.004704151799926231,-0.00038837097498871983,-0.010846059769402191,-0.005441754974839025
0.39,0.0006637563999795154,-0.7843079000000183,0.00020484126399321353,-2.355757360000012,-0.00046264226797711454,1.5706904400000115,0.7865702959999765,0.04,0.04,-9.816693600000006,0.0031938483008060164,-0.0047453239799257075,-0.00039466678398863964,-0.010840343870232813,-0.00553159997983788
0.3925,0.0006751088124793708,-0.7842977750000183,0.00020860225299316565,-2.3557505200000124,-0.00047532518347695305,1.5706840800000115,0.7865833219999764,0.04,0.04,-9.816690450000007,0.003149038297205572,-0.004786496159925183,-0.0004009625929885595,-0.010834627971063436,-0.005621444984836736
0.395,0.0006864612249792263,-0.7842876500000184,0.0002123632419931178,-2.355743680000012,-0.00048800809897679156,1.5706777200000117,0.7865963479999762,0.04,0.04,-9.816687300000007,0.0031042282936051277,-0.004827668339924659,-0.0004072584019884793,-0.01082891207189406,-0.005711289989835592
0.3975,0.0006978136374790817,-0.7842775250000186,0.0002161242309930699,-2.3557368400000125,-0.0005006910144766301,1.5706713600000117,0.7866093739999761,0.04,0.04,-9.816684150000006,0.003059418290004683,-0.004868840519924135,-0.0004135542109883992,-0.010823196172724682,-0.005801134994834449
0.4,0.0007091660499789372,-0.7842674000000187,0.00021988521999302202,-2.3557300000000128,-0.0005133739299764686,1.5706650000000117,0.7866223999999759,0.04,0.04,-9.816681000000006,0.0030146082864042387,-0.0049100126999236104,-0.00041985001998831904,-0.010817480273555304,-0.005890979999833305
0.4025,0.0007217391414761693,-0.7842566660000203,0.00022405033749210552,-2.355722065000015,-0.0005274149754733869,1.5706579350000134,0.7866368224999727,0.04,0.03999999925,-9.81666585000003,0.00294052783879516,-0.004960578344904159,-0.00042649744248740064,-0.01080828448759264,-0.00598563653982059
0.405,0.0007343122329756661,-0.7842459320000207,0.00022821545499193886,-2.355714130000015,-0.000541456020972825,1.5706508700000137,0.7866512449999721,0.04,0.0399999985,-9.81665070000003,0.002866447391131775,-0.005011143989902135,-0.00043314486498713465,-0.010799088701623518,-0.006080293079816802
0.40750000000000003,0.000746885324475163,-0.7842351980000212,0.00023238057249177216,-2.3557061950000153,-0.0005554970664722632,1.570643805000014,0.7866656674999716,0.04,0.03999999775,-9.816635550000031,0.0027923669434683895,-0.005061709634900112,-0.0004397922874868686,-0.010789892915654395,-0.006174949619813014
0.41000000000000003,0.0007594584159746598,-0.7842244640000215,0.0002365456899916055,-2.355698260000016,-0.0005695381119717013,1.5706367400000143,0.786680089999971,0.04,0.039999997,-9.816620400000032,0.0027182864958050037,-0.0051122752798980885,-0.0004464397099866026,-0.010780697129685273,-0.006269606159809226
0.41250000000000003,0.0007720315074741567,-0.784213730000022,0.00024071080749143883,-2.3556903250000163,-0.0005835791574711394,1.5706296750000146,0.7866945124999704,0.04,0.03999999625,-9.816605250000032,0.0026442060481416184,-0.005162840924896065,-0.0004530871324863366,-0.01077150134371615,-0.006364262699805439
0.41500000000000004,0.0007846045989736536,-0.7842029960000224,0.00024487592499127214,-2.3556823900000166,-0.0005976202029705775,1.570622610000015,0.7867089349999697,0.04,0.0399999955,-9.816590100000031,0.002570125600478233,-0.005213406569894042,-0.00045973455498607055,-0.010762305557747029,-0.006458919239801651
0.4175,0.0007976067094706538,-0.7841920315000241,0.0002491830934902788,-2.355674075000019,-0.000612140751467225,1.5706153000000165,0.7867238454999663,0.04,0.03999999525,-9.816575000000032,0.002488354966250044,-0.005264750249887994,-0.0004664918044852277,-0.010751995537456548,-0.006555486344787447
0.42,0.0008114668579708554,-0.784180606000024,0.00025377436399034564,-2.3556650000000188,-0.0006276203059674502,1.5706075000000164,0.7867397319999666,0.04,0.039999996,-9.816560000000031,0.0023912039587453654,-0.0053176499998887645,-0.00047346870798532927,-0.010739457048502064,-0.006655874579788908
0.4225,0.0008253270064710571,-0.7841691805000238,0.0002583656344904125,-2.355655925000019,-0.0006430998604676755,1.5705997000000163,0.7867556184999668,0.04,0.03999999675,-9.816545000000032,0.0022940529512406865,-0.005370549749889535,-0.0004804456114854308,-0.010726918559547582,-0.006756262814790369
0.425,0.0008391871549712588,-0.7841577550000237,0.0002629569049904793,-2.3556468500000185,-0.0006585794149679008,1.5705919000000161,0.7867715049999671,0.04,0.0399999975,-9.816530000000032,0.0021969019437360075,-0.005423449499890304,-0.00048742251498553235,-0.0107143800705931,-0.00685665104979183
0.4275,0.0008530473034714605,-0.7841463295000235,0.00026754817549054613,-2.3556377750000186,-0.0006740589694681261,1.570584100000016,0.7867873914999672,0.04,0.03999999825,-9.816515000000031,0.0020997509362313286,-0.005476349249891074,-0.0004943994184856339,-0.010701841581638618,-0.006957039284793291
0.43,0.0008669074519716622,-0.7841349040000234,0.00027213944599061295,-2.3556287000000182,-0.0006895385239683513,1.570576300000016,0.7868032779999675,0.04,0.039999999,-9.816500000000032,0.0020025999287266497,-0.005529248999891844,-0.0005013763219857354,-0.010689303092684135,-0.007057427519794752
0.4325,0.0008807676004718639,-0.7841234785000233,0.00027673071649067976,-2.3556196250000183,-0.0007050180784685765,1.5705685000000158,0.7868191644999677,0.04,0.03999999975,-9.81648500000003,0.0019054489212219708,-0.005582148749892614,-0.0005083532254858369,-0.010676764603729653,-0.007157815754796213
0.435,0.0008955296249690624,-0.7841115730000248,0.0002816205919897522,-2.355609710000021,-0.0007215011269654591,1.5705601800000175,0.7868360839999645,0.04,0.04,-9.81647010000003,0.0017868897414600638,-0.005643171229867644,-0.0005155297989852025,-0.010662353411348071,-0.007261222049786641
0.4375,0.0009107425874688688,-0.7840994275000249,0.00028665976998968804,-2.355599375000021,-0.0007384859224652429,1.5705516000000177,0.7868535199999643,0.04,0.04,-9.81645525000003,0.0016576264754719946,-0.005708255074866815,-0.0005228062074851098,-0.010647005867244406,-0.007366137374785305
0.44,0.0009259555499686751,-0.784087282000025,0.0002916989479896239,-2.3555890400000212,-0.0007554707179650267,1.5705430200000177,0.786870955999964,0.04,0.04,-9.816440400000031,0.0015283632094839255,-0.005773338919865987,-0.0005300826159850172,-0.010631658323140742,-0.007471052699783969
0.4425,0.0009411685124684814,-0.7840751365000251,0.0002967381259895597,-2.3555787050000214,-0.0007724555134648104,1.5705344400000179,0.7868883919999639,0.04,0.04,-9.81642555000003,0.001399099943495856,-0.0058384227648651576,-0.0005373590244849246,-0.010616310779037076,-0.007575968024782634
0.445,0.0009563814749682878,-0.7840629910000253,0.00030177730398949556,-2.355568370000021,-0.0007894403089645941,1.5705258600000178,0.7869058279999637,0.04,0.04,-9.81641070000003,0.001269836677507787,-0.0059035066098643285,-0.0005446354329848319,-0.010600963234933413,-0.007680883349781298
0.4475,0.0009715944374680941,-0.7840508455000255,0.0003068164819894314,-2.3555580350000214,-0.000806425104464378,1.570517280000018,0.7869232639999635,0.04,0.04,-9.816395850000031,0.0011405734115197178,-0.0059685904548635,-0.0005519118414847393,-0.010585615690829747,-0.007785798674779962
0.45,0.0009868073999679003,-0.7840387000000256,0.00031185565998936724,-2.3555477000000216,-0.0008234098999641617,1.5705087000000182,0.7869406999999633,0.04,0.04,-9.816381000000032,0.0010113101455316484,-0.006033674299862671,-0.0005591882499846467,-0.010570268146726083,-0.007890713999778627
0.4525,0.0010034387699646957,-0.7840257700000275,0.00031736442648830625,-2.3555360750000247,-0.0008419752949605901,1.5704993850000197,0.7869597499999597,0.04,0.04,-9.816379800000002,0.000902467640347851,-0.006086546854887765,-0.0005667756174838939,-0.010551722627172492,-0.00800096174976597
0.455,0.0010200701399644839,-0.7840128400000276,0.0003228731929882361,-2.3555244500000247,-0.0008605406899603538,1.57049007000002,0.7869787999999593,0.04,0.04,-9.816378600000002,0.0007936251352071418,-0.006139419409887091,-0.0005743629849837972,-0.010533177107612153,-0.008111209499764568
0.4575,0.001036701509964272,-0.7839999100000278,0.00032838195948816593,-2.355512825000025,-0.0008791060849601174,1.57048075500002,0.7869978499999591,0.04,0.04,-9.816377400000002,0.0006847826300664326,-0.006192291964886418,-0.0005819503524837007,-0.010514631588051814,-0.008221457249763165
0.46,0.0010533328799640605,-0.783986980000028,0.0003338907259880958,-2.3555012000000253,-0.000897671479959881,1.5704714400000201,0.7870168999999588,0.04,0.04,-9.816376200000002,0.0005759401249257233,-0.006245164519885745,-0.0005895377199836041,-0.010496086068491476,-0.00833170499976176
0.4625,0.0010699642499638487,-0.7839740500000282,0.00033939949248802567,-2.3554895750000253,-0.0009162368749596447,1.5704621250000201,0.7870359499999586,0.04,0.04,-9.816375000000003,0.0004670976197850142,-0.006298037074885072,-0.0005971250874835074,-0.010477540548931137,-0.008441952749760357
0.465,0.001086595619963637,-0.7839611200000283,0.00034490825898795554,-2.3554779500000254,-0.0009348022699594083,1.5704528100000203,0.7870549999999584,0.04,0.04,-9.816373800000003,0.00035825511464430493,-0.006350909629884399,-0.0006047124549834108,-0.010458995029370798,-0.008552200499758952
0.4675,0.0011037214349601632,-0.7839479050000304,0.00035058073398680533,-2.3554659200000283,-0.0009539190749555341,1.5704432100000223,0.7870746249999544,0.04,0.04,-9.816369250000026,0.00023569148066844507,-0.0064083271998537404,-0.0006123890799827254,-0.010439323028597762,-0.008664169199746196
0.47000000000000003,0.0011218361399599325,-0.7839341200000305,0.00035658062598672893,-2.3554530800000286,-0.0009741386999552766,1.5704330400000224,0.787095399999954,0.04,0.04,-9.816358000000026,8.568558875123494e-05,-0.006474834799852894,-0.0006202442199826254,-0.010417398065377075,-0.008779579799744726
0.47250000000000003,0.0011399508449597019,-0.7839203350000307,0.00036258051798665253,-2.3554402400000285,-0.0009943583249550191,1.5704228700000227,0.7871161749999538,0.04,0.04,-9.816346750000026,-6.432030316597521e-05,-0.006541342399852047,-0.0006280993599825254,-0.01039547310215639,-0.008894990399743256
0.47500000000000003,0.0011580655499594712,-0.7839065500000308,0.0003685804099865762,-2.355427400000029,-0.0010145779499547618,1.5704127000000228,0.7871369499999535,0.04,0.04,-9.816335500000026,-0.00021432619508318537,-0.0066078499998512,-0.0006359544999824254,-0.010373548138935705,-0.009010400999741788
0.47750000000000004,0.0011761802549592405,-0.783892765000031,0.0003745803019864998,-2.3554145600000287,-0.0010347975749545042,1.5704025300000228,0.7871577249999533,0.04,0.04,-9.816324250000026,-0.0003643320870003954,-0.006674357599850353,-0.0006438096399823253,-0.010351623175715018,-0.009125811599740317
0.48,0.0011942949599590095,-0.7838789800000312,0.00038058019398642327,-2.355401720000029,-0.0010550171999542464,1.5703923600000231,0.7871784999999529,0.04,0.04,-9.816313000000026,-0.0005143379789176023,-0.0067408651998495045,-0.0006516647799822252,-0.010329698212494333,-0.009241222199738846
0.4825,0.0012124096649587788,-0.7838651950000314,0.00038658008598634687,-2.355388880000029,-0.0010752368249539888,1.5703821900000232,0.7871992749999527,0.04,0.04,-9.816301750000026,-0.0006643438708348124,-0.006807372799848658,-0.0006595199199821252,-0.010307773249273648,-0.009356632799737375
0.485,0.0012315562099550065,-0.7838508150000336,0.00039292159698509787,-2.355375180000032,-0.0010966062499497848,1.5703714500000252,0.7872212199999484,0.04,0.04,-9.816305999999972,-0.0008264106694486841,-0.006876425899839074,-0.0006676604799810455,-0.010284411720986562,-0.009475302099724721
0.4875,0.001251218674954756,-0.7838361375000338,0.000399433917485015,-2.3553610500000324,-0.0011185505749495054,1.5703604250000254,0.7872437499999482,0.04,0.04,-9.816317999999972,-0.000994507921472754,-0.006946751749838179,-0.00067594374998094,-0.01026033191015891,-0.009595600749723189
0.49,0.0012708811399545058,-0.7838214600000339,0.0004059462379849321,-2.3553469200000325,-0.001140494899949226,1.5703494000000255,0.7872662799999478,0.04,0.04,-9.816329999999972,-0.0011626051734968236,-0.007017077599837283,-0.0006842270199808345,-0.010236252099331255,-0.009715899399721659
0.4925,0.0012905436049542554,-0.7838067825000341,0.0004124585584848491,-2.3553327900000327,-0.0011624392249489468,1.5703383750000257,0.7872888099999475,0.04,0.04,-9.816341999999972,-0.0013307024255208933,-0.007087403449836388,-0.0006925102899807291,-0.010212172288503601,-0.009836198049720126
0.495,0.001310206069954005,-0.7837921050000343,0.0004189708789847662,-2.355318660000033,-0.0011843835499486673,1.5703273500000259,0.7873113399999473,0.04,0.04,-9.816353999999972,-0.0014987996775449632,-0.007157729299835492,-0.0007007935599806236,-0.010188092477675948,-0.009956496699718594
0.4975,0.0013298685349537548,-0.7837774275000344,0.0004254831994846833,-2.355304530000033,-0.001206327874948388,1.570316325000026,0.7873338699999469,0.04,0.04,-9.816365999999972,-0.0016668969295690328,-0.007228055149834597,-0.0007090768299805181,-0.010164012666848295,-0.010076795349717064
0.5,0.0013495309999535044,-0.7837627500000347,0.0004319955199846004,-2.355290400000033,-0.0012282721999481085,1.570305300000026,0.7873563999999467,0.04,0.04,-9.816377999999972,-0.0018349941815931025,-0.007298380999833701,-0.0007173600999804127,-0.01013993285602064,-0.010197093999715532
0.5025000000000001,0.0013708049149494235,-0.7837471035000372,0.0004390413739832492,-2.3552749200000367,-0.0012520119499435612,1.5702934050000283,0.787380768999942,0.03999999925,0.04,-9.816367500000025,-0.0020511848381237143,-0.007381683349801957,-0.0007258561449798016,-0.0101133136079348,-0.010322349549702218
0.505,0.001392078829949152,-0.7837314570000373,0.00044608722798315933,-2.355259440000037,-0.0012757516999432584,1.5702815100000285,0.7874051379999417,0.0399999985,0.04,-9.816357000000025,-0.002267375494768042,-0.007464985699800895,-0.0007343521899796932,-0.010086694359842954,-0.010447605099700621
0.5075000000000001,0.0014133527449488818,-0.7837158105000376,0.0004531330819830698,-2.355243960000037,-0.0012994914499429566,1.5702696150000286,0.7874295069999414,0.03999999775,0.04,-9.816346500000025,-0.002483566151412379,-0.0075482880497998355,-0.0007428482349795852,-0.010060075111751108,-0.010572860649699029
0.51,0.0014346266599486103,-0.7837001640000377,0.0004601789359829799,-2.3552284800000374,-0.0013232311999426538,1.5702577200000287,0.7874538759999411,0.039999997,0.04,-9.816336000000025,-0.002699756808056707,-0.007631590399798774,-0.0007513442799794768,-0.010033455863659262,-0.010698116199697431
0.5125,0.0014559005749483391,-0.783684517500038,0.0004672247899828901,-2.3552130000000377,-0.0013469709499423512,1.5702458250000288,0.7874782449999408,0.03999999625,0.04,-9.816325500000024,-0.002915947464701034,-0.007714892749797711,-0.0007598403249793684,-0.010006836615567416,-0.010823371749695833
0.515,0.0014771744899480688,-0.7836688710000381,0.0004742706439828005,-2.3551975200000377,-0.0013707106999420494,1.570233930000029,0.7875026139999406,0.0399999955,0.04,-9.816315000000024,-0.0031321381213453717,-0.007798195099796652,-0.0007683363699792604,-0.00998021736747557,-0.010948627299694242
0.5175,0.0014990065799436883,-0.7836528930000408,0.0004815013084813502,-2.3551815600000414,-0.0013950731599371626,1.5702217100000315,0.7875276189999355,0.039999995,0.04,-9.816312749999964,-0.0033388373437387604,-0.007879046299813635,-0.0007769394569783641,-0.009952720487562,-0.011075594699680042
0.52,0.0015219550199433967,-0.7836362520000411,0.0004891015939812536,-2.3551646400000417,-0.001420681039936837,1.5702088400000316,0.7875538959999352,0.039999995,0.04,-9.816326999999964,-0.0035265536974210298,-0.00795499519981267,-0.0007857566279782521,-0.009923468343985631,-0.011205985799678386
0.5225,0.001544903459943104,-0.7836196110000412,0.0004967018794811566,-2.355147720000042,-0.0014462889199365104,1.5701959700000319,0.7875801729999349,0.039999995,0.04,-9.816341249999963,-0.0037142700511032904,-0.0080309440998117,-0.0007945737989781396,-0.009894216200409265,-0.011336376899676722
0.525,0.0015678518999428122,-0.7836029700000414,0.00050430216498106,-2.355130800000042,-0.001471896799936185,1.570183100000032,0.7876064499999346,0.039999995,0.04,-9.816355499999965,-0.0039019864047855598,-0.008106892999810735,-0.0008033909699780275,-0.009864964056832896,-0.011466767999675064
0.5275,0.0015908003399425195,-0.7835863290000417,0.0005119024504809631,-2.3551138800000424,-0.0014975046799358585,1.5701702300000322,0.7876327269999341,0.039999995,0.04,-9.816369749999964,-0.00408970275846782,-0.008182841899809766,-0.0008122081409779151,-0.00983571191325653,-0.011597159099673402
0.53,0.001613748779942228,-0.7835696880000419,0.0005195027359808666,-2.3550969600000426,-0.001523112559935533,1.5701573600000325,0.7876590039999338,0.039999995,0.04,-9.816383999999964,-0.00427741911215009,-0.008258790799808801,-0.000821025311977803,-0.009806459769680162,-0.011727550199671744
0.5325,0.0016366972199419352,-0.783553047000042,0.0005271030214807696,-2.355080040000043,-0.0015487204399352063,1.5701444900000325,0.7876852809999335,0.039999995,0.04,-9.816398249999963,-0.00446513546583235,-0.008334739699807832,-0.0008298424829776906,-0.009777207626103793,-0.01185794129967008
0.535,0.0016608034299372273,-0.7835356500000452,0.000535086604979211,-2.3550621200000466,-0.0015756154699299713,1.570130990000035,0.7877128859999281,0.039999995,0.0399999995,-9.816404599999993,-0.004682610835289097,-0.008416931799783053,-0.0008388078959770131,-0.009746367670676022,-0.011991174999657581
0.5375,0.0016854885249369125,-0.7835178750000454,0.0005432618374791066,-2.355043700000047,-0.0016031540749296199,1.5701171750000353,0.7877411549999278,0.039999995,0.03999999875,-9.816406999999993,-0.004914965712802774,-0.008502245499781964,-0.0008478474299768977,-0.009714733809313496,-0.012125829999655864
0.54,0.0017101736199365987,-0.7835001000000457,0.0005514370699790027,-2.3550252800000475,-0.00163069267992927,1.5701033600000354,0.7877694239999274,0.039999995,0.039999998,-9.816409399999994,-0.00514732059031646,-0.008587559199780881,-0.0008568869639767829,-0.009683099947950968,-0.012260484999654153
0.5425,0.001734858714936284,-0.7834823250000459,0.0005596123024788985,-2.3550068600000476,-0.0016582312849289186,1.5700895450000356,0.7877976929999271,0.039999995,0.03999999725,-9.816411799999994,-0.005379675467830136,-0.008672872899779792,-0.0008659264979766675,-0.00965146608658844,-0.012395139999652435
0.545,0.0017595438099359702,-0.7834645500000461,0.0005677875349787946,-2.354988440000048,-0.0016857698899285687,1.5700757300000359,0.7878259619999267,0.039999995,0.0399999965,-9.816414199999993,-0.0056120303453438235,-0.008758186599778707,-0.0008749660319765527,-0.009619832225225913,-0.012529794999650724
0.5475,0.0017842289049356554,-0.7834467750000463,0.0005759627674786903,-2.354970020000048,-0.0017133084949282175,1.570061915000036,0.7878542309999264,0.039999995,0.03999999575,-9.816416599999993,-0.0058443852228574995,-0.00884350029977762,-0.0008840055659764374,-0.009588198363863387,-0.012664449999649005
0.55,0.0018089139999353417,-0.7834290000000466,0.0005841379999785864,-2.3549516000000486,-0.0017408470999278674,1.5700481000000361,0.787882499999926,0.039999995,0.039999995,-9.816418999999993,-0.006076740100371186,-0.008928813999776535,-0.0008930450999763225,-0.009556564502500859,-0.012799104999647294
0.5525,0.001835397204930294,-0.7834102500000494,0.000592908589976915,-2.3549317100000526,-0.001770391444922237,1.570033310000039,0.7879128299999202,0.039999995,0.03999999575,-9.816409700000024,-0.006368559272191718,-0.00904099899970472,-0.0009023648549754697,-0.00952281183572053,-0.012939144399631404
0.555,0.0018618804099299574,-0.7833915000000496,0.0006016791799768036,-2.3549118200000527,-0.0017999357899218613,1.5700185200000392,0.7879431599999198,0.039999995,0.0399999965,-9.816400400000024,-0.006660378444168019,-0.009153183999703295,-0.0009116846099753512,-0.009489059168934649,-0.013079183799629624
0.5575,0.0018883636149296197,-0.7833727500000498,0.0006104497699766918,-2.354891930000053,-0.0018294801349214844,1.5700037300000393,0.7879734899999195,0.039999995,0.03999999725,-9.816391100000025,-0.006952197616144308,-0.009265368999701862,-0.0009210043649752323,-0.009455306502148769,-0.013219223199627839
0.56,0.001914846819929283,-0.7833540000000501,0.0006192203599765803,-2.3548720400000533,-0.001859024479921109,1.5699889400000395,0.788003819999919,0.039999995,0.039999998,-9.816381800000025,-0.0072440167881206085,-0.009377553999700437,-0.0009303241199751139,-0.009421553835362887,-0.013359262599626059
0.5625,0.0019413300249289454,-0.7833352500000503,0.0006279909499764684,-2.3548521500000534,-0.0018885688249207322,1.5699741500000397,0.7880341499999186,0.039999995,0.03999999875,-9.816372500000025,-0.007535835960096897,-0.009489738999699007,-0.000939643874974995,-0.00938780116857701,-0.013499301999624272
0.5650000000000001,0.001967813229928609,-0.7833165000000506,0.0006367615399763569,-2.3548322600000535,-0.0019181131699203566,1.5699593600000399,0.7880644799999182,0.039999995,0.0399999995,-9.816363200000024,-0.007827655132073197,-0.00960192399969758,-0.0009489636299748766,-0.009354048501791128,-0.013639341399622492
0.5675,0.0019949160149232365,-0.783297353000054,0.0006457372684745782,-2.354811885000058,-0.0019483470249143772,1.569944225000043,0.788095519999912,0.039999995,0.04,-9.816361399999964,-0.008106646173878716,-0.009703760899780232,-0.0009583833549739455,-0.009319372940907428,-0.013780836599608878
0.5700000000000001,0.0020232579599228765,-0.7832774120000543,0.000655123273974459,-2.354790540000058,-0.0019799598999139757,1.569928400000043,0.7881279799999117,0.039999995,0.04,-9.816374599999964,-0.00835998095503049,-0.0097849015997792,-0.0009680030199738231,-0.009282851591805622,-0.013925243399607042
0.5725,0.002051599904922515,-0.7832574710000545,0.0006645092794743393,-2.3547691950000584,-0.002011572774913572,1.5699125750000433,0.7881604399999113,0.039999995,0.04,-9.816387799999964,-0.008613315736182254,-0.009866042299778166,-0.0009776226849737004,-0.009246330242703818,-0.0140696501996052
0.5750000000000001,0.0020799418499221544,-0.7832375300000548,0.0006738952849742199,-2.354747850000059,-0.0020431856499131705,1.5698967500000436,0.7881928999999108,0.039999995,0.04,-9.816400999999964,-0.008866650517334028,-0.009947182999777135,-0.0009872423499735783,-0.009209808893602012,-0.014214056999603365
0.5775,0.002108283794921793,-0.783217589000055,0.0006832812904741002,-2.354726505000059,-0.0020747985249127674,1.5698809250000436,0.7882253599999104,0.039999995,0.04,-9.816414199999963,-0.009119985298485792,-0.0100283236997761,-0.0009968620149734555,-0.009173287544500206,-0.014358463799601522
0.58,0.0021366257399214315,-0.7831976480000553,0.0006926672959739805,-2.3547051600000595,-0.0021064113999123644,1.5698651000000439,0.78825781999991,0.039999995,0.04,-9.816427399999963,-0.009373320079637556,-0.010109464399775066,-0.0010064816799733329,-0.009136766195398402,-0.014502870599599682
0.5825,0.0021649676849210715,-0.7831777070000555,0.0007020533014738612,-2.3546838150000595,-0.0021380242749119626,1.5698492750000441,0.7882902799999095,0.039999995,0.04,-9.816440599999963,-0.00962665486078933,-0.010190605099774035,-0.0010161013449732105,-0.009100244846296596,-0.014647277399597846
0.585,0.002194588459914793,-0.7831569640000595,0.0007118627479717822,-2.354661370000065,-0.0021710621399049653,1.5698327200000477,0.7883242039999024,0.039999994500000004,0.04,-9.816457299999948,-0.0099188104263115,-0.010290899199690626,-0.0010258970499721692,-0.00906268805276138,-0.014794950599579582
0.5875,0.0022248486499135828,-0.7831358200000604,0.0007218839149713814,-2.3546383750000657,-0.0022048124999036155,1.5698158000000484,0.7883588599999011,0.039999993750000004,0.04,-9.816475749999947,-0.010230376384262503,-0.01040076999968623,-0.001035780774971774,-0.009024613537002958,-0.01494425699957361
0.59,0.002255108839912371,-0.7831146760000612,0.0007319050819709803,-2.354615380000067,-0.0022385628599022643,1.569798880000049,0.7883935159998996,0.039999993000000005,0.04,-9.816494199999946,-0.010541942342213494,-0.010510640799681831,-0.0010456644999713783,-0.008986539021244537,-0.015093563399567632
0.5925,0.002285369029911161,-0.783093532000062,0.0007419262489705795,-2.3545923850000676,-0.0022723132199009145,1.5697819600000498,0.7884281719998982,0.039999992250000005,0.04,-9.816512649999947,-0.010853508300164499,-0.010620511599677437,-0.001055548224970983,-0.008948464505486114,-0.01524286979956166
0.595,0.0023156292199099492,-0.7830723880000628,0.0007519474159701782,-2.3545693900000684,-0.002306063579899563,1.5697650400000505,0.7884628279998969,0.039999991500000005,0.04,-9.816531099999946,-0.011165074258115488,-0.010730382399673038,-0.0010654319499705872,-0.008910389989727695,-0.015392176199555681
0.5975,0.002345889409908739,-0.7830512440000638,0.0007619685829697774,-2.3545463950000696,-0.002339813939898213,1.5697481200000512,0.7884974839998955,0.03999999075,0.04,-9.816549549999944,-0.011476640216066493,-0.010840253199668644,-0.0010753156749701918,-0.008872315473969272,-0.01554148259954971
0.6,0.0023761495999075274,-0.7830301000000646,0.0007719897499693761,-2.3545234000000703,-0.002373564299896862,1.5697312000000518,0.7885321399998941,0.03999999,0.04,-9.816567999999943,-0.011788206174017482,-0.010950123999664245,-0.0010851993999697962,-0.008834240958210853,-0.015690788999543733
0.6025,0.0024083869699019554,-0.7830076405000682,0.0007826655274675313,-2.3544988900000745,-0.002409517244890655,1.569713185000055,0.7885690489998878,0.0399999897,0.04,-9.816566950000004,-0.012124442447816868,-0.0110665859496458,-0.001095324549969206,-0.008793931827071623,-0.015844679849531966
0.605,0.0024406243399024237,-0.782985181000068,0.0007933413049676864,-2.3544743800000743,-0.0024454701898911774,1.5696951700000545,0.7886059579998883,0.0399999894,0.04,-9.816565900000004,-0.012460678721691628,-0.011183047899647493,-0.001105449699969353,-0.008753622695925568,-0.0159985706995342
0.6075,0.0024728617099028937,-0.7829627215000676,0.0008040170824678421,-2.354449870000074,-0.0024814231348917015,1.5696771550000543,0.7886428669998888,0.0399999891,0.04,-9.816564850000002,-0.012796914995566403,-0.01129950984964919,-0.0011155748499695006,-0.00871331356477951,-0.016152461549536444
0.61,0.002505099079903362,-0.7829402620000673,0.0008146928599679972,-2.3544253600000733,-0.002517376079892224,1.569659140000054,0.7886797759998894,0.039999988800000004,0.04,-9.816563800000003,-0.013133151269441165,-0.011415971799650882,-0.0011256999999696479,-0.008673004433633454,-0.016306352399538683
0.6125,0.002537336449903832,-0.7829178025000669,0.0008253686374681529,-2.354400850000073,-0.0025533290248927476,1.5696411250000537,0.7887166849998899,0.0399999885,0.04,-9.816562750000003,-0.01346938754331594,-0.01153243374965258,-0.0011358251499697953,-0.008632695302487397,-0.016460243249540926
0.615,0.0025695738199043006,-0.7828953430000667,0.000836044414968308,-2.354376340000073,-0.00258928196989327,1.5696231100000535,0.7887535939998904,0.0399999882,0.04,-9.816561700000003,-0.0138056238171907,-0.011648895699654271,-0.0011459502999699425,-0.008592386171341341,-0.01661413409954316
0.6175,0.002602489429898448,-0.7828724665000703,0.00084694478996637,-2.3543512450000774,-0.0026259917348867394,1.5696047150000567,0.7887912799998837,0.03999998745,0.04,-9.816565999999955,-0.014162500248042081,-0.011773711649580649,-0.0011561405499694193,-0.008551742369431434,-0.016769605049529956
0.62,0.002636761519898011,-0.7828487560000705,0.0008582943599662252,-2.354324980000078,-0.002664215139886252,1.569585560000057,0.7888305199998832,0.039999985800000006,0.04,-9.816580999999955,-0.014560656993396297,-0.011915235599578845,-0.0011664609999692877,-0.008510429225984922,-0.016928236199527935
0.6225,0.0026710336098975753,-0.7828250455000708,0.0008696439299660809,-2.3542987150000783,-0.0027024385448857664,1.5695664050000573,0.7888697599998827,0.03999998415000001,0.04,-9.816595999999954,-0.014958813738750533,-0.012056759549577046,-0.0011767814499691566,-0.008469116082538407,-0.017086867349525917
0.625,0.0027053056998971384,-0.7828013350000711,0.0008809934999659362,-2.354272450000079,-0.002740661949885279,1.5695472500000573,0.7889089999998822,0.0399999825,0.04,-9.816610999999956,-0.015356970484104749,-0.01219828349957524,-0.001187101899969025,-0.008427802939091894,-0.017245498499523896
0.6275000000000001,0.0027395777898967027,-0.7827776245000715,0.0008923430699657919,-2.354246185000079,-0.002778885354884793,1.5695280950000576,0.7889482399998817,0.039999980850000005,0.04,-9.816625999999955,-0.015755127229458984,-0.012339807449573442,-0.0011974223499688938,-0.00838648979564538,-0.017404129649521878
0.63,0.0027738498798962653,-0.7827539140000718,0.0009036926399656472,-2.3542199200000793,-0.0028171087598843057,1.569508940000058,0.7889874799998812,0.03999997920000001,0.04,-9.816640999999954,-0.0161532839748132,-0.012481331399571636,-0.0012077427999687622,-0.008345176652198867,-0.017562760799519853
0.6325000000000001,0.0028081219698958297,-0.782730203500072,0.0009150422099655029,-2.35419365500008,-0.00285533216488382,1.5694897850000582,0.7890267199998807,0.03999997755,0.04,-9.816655999999954,-0.016551440720167437,-0.012622855349569837,-0.001218063249968631,-0.008303863508752351,-0.01772139194951784
0.635,0.0028437882998890093,-0.7827056040000764,0.0009268534299632445,-2.354166310000085,-0.0028951097998762164,1.569469870000062,0.7890675499998729,0.039999976300000004,0.04,-9.816663799999986,-0.016923138125636693,-0.01274815984964229,-0.0012285535899677214,-0.008260868489876038,-0.017882896799502657
0.6375000000000001,0.002880151749888547,-0.7826805600000768,0.0009388954749630915,-2.354138425000085,-0.002935664549875701,1.569449575000062,0.7891091749998724,0.03999997525,0.04,-9.816667999999988,-0.017281605860982284,-0.012865354624640802,-0.001239128874967587,-0.008217032533273307,-0.01804583849950059
0.64,0.0029165151998880832,-0.7826555160000771,0.0009509375199629378,-2.354110540000086,-0.0029762192998751837,1.5694292800000624,0.7891507999998718,0.0399999742,0.04,-9.816672199999987,-0.017640073596327854,-0.012982549399639307,-0.0012497041599674522,-0.008173196576670575,-0.01820878019949851
0.6425,0.0029528786498876193,-0.7826304720000774,0.0009629795649627843,-2.354082655000086,-0.0030167740498746663,1.5694089850000628,0.7891924249998713,0.03999997315000001,0.04,-9.816676399999986,-0.017998541331673428,-0.013099744174637813,-0.0012602794449673173,-0.008129360620067845,-0.01837172189949643
0.645,0.002989242099887157,-0.7826054280000777,0.0009750216099626313,-2.3540547700000864,-0.003057328799874151,1.569388690000063,0.7892340499998708,0.0399999721,0.04,-9.816680599999987,-0.018357009067019016,-0.013216938949636322,-0.001270854729967183,-0.008085524663465111,-0.01853466359949436
0.6475,0.0030256055498866933,-0.7825803840000781,0.0009870636549624775,-2.3540268850000867,-0.0030978835498736337,1.5693683950000632,0.7892756749998703,0.039999971050000006,0.04,-9.816684799999987,-0.01871547680236459,-0.013334133724634828,-0.001281430014967048,-0.008041688706862381,-0.01869760529949228
0.65,0.003061968999886231,-0.7825553400000784,0.0009991056999623246,-2.353999000000087,-0.0031384382998731184,1.5693481000000635,0.7893172999998698,0.03999997,0.04,-9.816688999999988,-0.019073944537710177,-0.013451328499633338,-0.0012920052999669137,-0.007997852750259648,-0.01886054699949021
0.6525,0.0031004795498790227,-0.7825289040000831,0.0010118587749599374,-2.3539693000000934,-0.003181385954865084,1.5693266050000676,0.7893613789998615,0.03999996850000001,0.04,-9.816713449999924,-0.019495194403993978,-0.013592026024558012,-0.00130274568996626,-0.00795269664391155,-0.019027867949474375
0.655,0.003138990099878533,-0.7825024680000834,0.0010246118499597752,-2.3539396000000936,-0.003224333609864538,1.569305110000068,0.789405457999861,0.039999967000000004,0.04,-9.816737899999923,-0.019916444270474218,-0.013732723549556224,-0.0013134860799661236,-0.007907540537559318,-0.01919518889947225
0.6575,0.0031775006498780418,-0.7824760320000838,0.0010373649249596126,-2.353909900000094,-0.0032672812648639905,1.5692836150000682,0.7894495369998604,0.039999965500000005,0.04,-9.816762349999923,-0.02033769413695444,-0.013873421074554429,-0.0013242264699659867,-0.00786238443120709,-0.019362509849470116
0.66,0.0032160111998775524,-0.7824495960000841,0.0010501179999594505,-2.3538802000000945,-0.0033102289198634447,1.5692621200000685,0.7894936159998598,0.039999964000000006,0.04,-9.816786799999923,-0.020758944003434684,-0.014014118599552641,-0.0013349668599658502,-0.007817228324854857,-0.01952983079946799
0.6625,0.0032545217498770613,-0.7824231600000844,0.0010628710749592879,-2.3538505000000947,-0.0033531765748628967,1.5692406250000688,0.7895376949998593,0.03999996250000001,0.04,-9.816811249999922,-0.021180193869914904,-0.014154816124550846,-0.001345707249965713,-0.007772072218502629,-0.019697151749465857
0.665,0.003293032299876572,-0.7823967240000848,0.001075624149959126,-2.353820800000095,-0.003396124229862351,1.5692191300000689,0.7895817739998587,0.03999996100000001,0.04,-9.816835699999922,-0.021601443736395148,-0.014295513649549058,-0.0013564476399655766,-0.007726916112150397,-0.019864472699463728
0.6675,0.003332276749868996,-0.7823698130000897,0.0010886202199566174,-2.3537905500001006,-0.003439889209853913,1.5691972200000732,0.78962669199985,0.039999959700000004,0.03999999975,-9.816852599999995,-0.022031919004813678,-0.014439180149518602,-0.0013672449399648903,-0.007681181165540566,-0.020033177749448235
0.67,0.0033729889998684788,-0.7823419520000899,0.001102102279956446,-2.353759200000101,-0.003485288839853336,1.5691744800000735,0.7896732879998495,0.039999958800000006,0.039999999,-9.816854399999995,-0.02248084507737566,-0.0145887845995167,-0.0013781560599647517,-0.007634288538398787,-0.020204650999446055
0.6725,0.003413701249867959,-0.7823140910000903,0.001115584339956274,-2.3537278500001015,-0.003530688469852757,1.5691517400000738,0.7897198839998488,0.0399999579,0.03999999825,-9.816856199999995,-0.022929771149937626,-0.014738389049514793,-0.0013890671799646123,-0.00758739591125701,-0.020376124249443867
0.675,0.003454413499867442,-0.7822862300000907,0.0011290663999561027,-2.353696500000102,-0.00357608809985218,1.569129000000074,0.7897664799998483,0.039999957,0.0399999975,-9.816857999999995,-0.02337869722249961,-0.014887993499512892,-0.0013999782999644737,-0.007540503284115231,-0.020547597499441687
0.6775,0.003495125749866923,-0.782258369000091,0.0011425484599559307,-2.3536651500001025,-0.003621487729851601,1.5691062600000742,0.7898130759998477,0.039999956100000005,0.03999999675,-9.816859799999994,-0.023827623295061575,-0.015037597949510983,-0.0014108894199643346,-0.007493610656973454,-0.020719070749439503
0.68,0.0035358379998664054,-0.7822305080000914,0.0011560305199557594,-2.353633800000103,-0.003666887359851024,1.5690835200000746,0.7898596719998471,0.0399999552,0.039999996,-9.816861599999994,-0.024276549367623558,-0.015187202399509082,-0.001421800539964196,-0.007446718029831675,-0.020890543999437322
0.6825,0.003576550249865886,-0.7822026470000917,0.0011695125799555876,-2.3536024500001034,-0.003712286989850445,1.5690607800000749,0.7899062679998465,0.0399999543,0.03999999525,-9.816863399999995,-0.024725475440185524,-0.015336806849507174,-0.0014327116599640569,-0.007399825402689898,-0.021062017249435135
0.685,0.0036187661498579098,-0.7821738240000968,0.0011834925099529466,-2.35356980000011,-0.003759361029841562,1.5690371900000792,0.7899545899998374,0.0399999536,0.039999995,-9.816873399999954,-0.02522005662150934,-0.015502540499425267,-0.001443760499963235,-0.007352375472122244,-0.021236302799419005
0.6875,0.003661733874857362,-0.7821445200000973,0.0011977213749527651,-2.3535365000001103,-0.003807272274840951,1.5690131750000798,0.7900037749998368,0.039999953,0.039999995,-9.816887499999954,-0.02573746535755288,-0.01567633874942305,-0.0014548781999630931,-0.007304646889837518,-0.021411994499416765
0.6900000000000001,0.003704701599856816,-0.7821152160000976,0.0012119502399525841,-2.353503200000111,-0.0038551835198403425,1.56898916000008,0.7900529599998362,0.0399999524,0.039999995,-9.816901599999953,-0.026254874093596444,-0.015850136999420842,-0.001465995899962952,-0.007256918307552789,-0.021587686199414532
0.6925,0.003747669324856268,-0.782085912000098,0.0012261791049524027,-2.3534699000001114,-0.0039030947648397312,1.5689651450000803,0.7901021449998356,0.0399999518,0.039999995,-9.816915699999953,-0.026772282829639987,-0.016023935249418624,-0.00147711359996281,-0.007209189725268063,-0.021763377899412288
0.6950000000000001,0.003790637049855722,-0.7820566080000984,0.0012404079699522219,-2.3534366000001117,-0.0039510060098391225,1.5689411300000806,0.7901513299998348,0.0399999512,0.039999995,-9.816929799999953,-0.02728969156568355,-0.016197733499416417,-0.0014882312999626687,-0.007161461142983334,-0.021939069599410055
0.6975,0.003833604774855174,-0.7820273040000988,0.0012546368349520404,-2.353403300000112,-0.003998917254838512,1.568917115000081,0.7902005149998342,0.0399999506,0.039999995,-9.816943899999952,-0.02780710030172709,-0.0163715317494142,-0.001499348999962527,-0.0071137325606986076,-0.022114761299407815
0.7000000000000001,0.0038765724998546277,-0.7819980000000991,0.0012688656999518596,-2.3533700000001128,-0.0040468284998379025,1.5688931000000812,0.7902496999998336,0.03999995,0.039999995,-9.816957999999952,-0.028324509037770656,-0.016545329999411988,-0.0015104666999623856,-0.00706600397841388,-0.02229045299940558
0.7025,0.0039218478248462425,-0.7819672140001045,0.001283858679949083,-2.353334900000119,-0.00409731092482856,1.568867810000086,0.790301539999824,0.03999994895,0.039999994250000004,-9.816965799999974,-0.028801352994759732,-0.01669834094948037,-0.0015217499549616815,-0.007016347488557035,-0.02247039464938891
0.705,0.003967123149845666,-0.7819364280001049,0.001298851659948892,-2.3532998000001197,-0.004147793349827916,1.5688425200000862,0.7903533799998234,0.039999947900000006,0.039999993500000004,-9.816973599999972,-0.029278196951611563,-0.016851351899478416,-0.0015330332099615376,-0.006966690998693669,-0.022650336299386613
0.7075,0.00401239847484509,-0.7819056420001053,0.0013138446399487012,-2.3532647000001203,-0.004198275774827274,1.5688172300000864,0.7904052199998226,0.03999994685,0.039999992750000005,-9.816981399999973,-0.02975504090846342,-0.01700436284947647,-0.0015443164649613943,-0.0069170345088303,-0.022830277949384328
0.71,0.004057673799844512,-0.7818748560001058,0.00132883761994851,-2.3532296000001205,-0.00424875819982663,1.568791940000087,0.790457059999822,0.039999945800000006,0.039999992000000005,-9.816989199999973,-0.03023188486531525,-0.01715737379947452,-0.0015555997199612503,-0.006867378018966933,-0.023010219599382032
0.7125,0.004102949124843937,-0.7818440700001061,0.0013438305999483196,-2.353194500000121,-0.004299240624825989,1.5687666500000872,0.7905088999998213,0.03999994475000001,0.039999991250000005,-9.816996999999972,-0.030708728822167106,-0.017310384749472576,-0.0015668829749611068,-0.0068177215291035645,-0.023190161249379747
0.715,0.0041482244498433594,-0.7818132840001065,0.0013588235799481285,-2.3531594000001217,-0.004349723049825345,1.5687413600000875,0.7905607399998207,0.039999943700000005,0.0399999905,-9.817004799999973,-0.031185572779018938,-0.017463395699470623,-0.001578166229960963,-0.006768065039240198,-0.02337010289937745
0.7175,0.004194286119834592,-0.7817819820001123,0.0013740769499452252,-2.353123700000128,-0.004401081049815582,1.5687156350000924,0.7906134669998107,0.039999942450000006,0.03999998900000001,-9.817015099999947,-0.0316833600383138,-0.017623639349393334,-0.0015895286999599943,-0.006717998115522475,-0.023551137999363776
0.72,0.004241920479833985,-0.7817496480001127,0.001389851099945024,-2.3530868000001286,-0.0044541901998149044,1.5686890400000928,0.7906679679998101,0.03999994080000001,0.03999998600000001,-9.817030399999947,-0.032223033903148374,-0.017798348399391106,-0.0016010495999598474,-0.006667110324083234,-0.023734359999361437
0.7225,0.004289554839833379,-0.7817173140001131,0.0014056252499448235,-2.353049900000129,-0.00450729934981423,1.568662445000093,0.7907224689998094,0.03999993915000001,0.03999998300000001,-9.817045699999946,-0.03276270776798297,-0.017973057449388884,-0.001612570499959701,-0.006616222532643991,-0.023917581999359106
0.725,0.004337189199832772,-0.7816849800001134,0.0014213993999446224,-2.3530130000001295,-0.004560408499813552,1.5686358500000934,0.7907769699998087,0.039999937500000006,0.03999998000000001,-9.817060999999946,-0.03330238163281754,-0.018147766499386656,-0.001624091399959554,-0.00656533474120475,-0.02410080399935677
0.7275,0.004384823559832167,-0.7816526460001139,0.0014371735499444217,-2.35297610000013,-0.004613517649812877,1.5686092550000938,0.790831470999808,0.03999993585000001,0.03999997700000001,-9.817076299999947,-0.03384205549765214,-0.018322475549384435,-0.0016356122999594076,-0.006514446949765507,-0.02428402599935444
0.73,0.004432457919831559,-0.7816203120001143,0.0014529476999442206,-2.3529392000001303,-0.0046666267998122,1.568582660000094,0.7908859719998074,0.03999993420000001,0.039999974000000015,-9.817091599999946,-0.03438172936248671,-0.018497184599382207,-0.0016471331999592606,-0.006463559158326266,-0.024467247999352102
0.7325,0.004480092279830954,-0.7815879780001147,0.0014687218499440202,-2.352902300000131,-0.004719735949811525,1.5685560650000945,0.7909404729998066,0.039999932550000006,0.039999971000000016,-9.817106899999946,-0.034921403227321304,-0.01867189364937999,-0.0016586540999591142,-0.0064126713668870225,-0.024650469999349774
0.735,0.004529332759821766,-0.7815546000001207,0.0014850278299409776,-2.3528640400001386,-0.004774634029801291,1.5685285800000994,0.7909968159997961,0.039999931800000006,0.03999997,-9.817131449999897,-0.035488373784143004,-0.018855898799328096,-0.0016702013499588265,-0.006361355353330259,-0.024836765499331018
0.7375,0.00457937629982113,-0.7815207000001212,0.001501599724940767,-2.352825100000139,-0.004830426574800581,1.5685006500000997,0.7910540799997954,0.0399999315,0.03999997,-9.817160624999897,-0.03606899268717652,-0.0190445519993257,-0.0016817617749586796,-0.006309825228711309,-0.02502459774932863
0.74,0.004629419839820492,-0.7814868000001216,0.0015181716199405557,-2.3527861600001394,-0.0048862191197998695,1.5684727200001,0.7911113439997947,0.039999931200000005,0.03999997,-9.817189799999895,-0.03664961159021001,-0.019233205199323294,-0.001693322199958532,-0.006258295104092361,-0.025212429999326234
0.7425,0.004679463379819855,-0.781452900000122,0.001534743514940345,-2.35274722000014,-0.004942011664799161,1.5684447900001004,0.7911686079997939,0.0399999309,0.03999997,-9.817218974999895,-0.037230230493243525,-0.019421858399320896,-0.0017048826249583852,-0.006206764979473411,-0.025400262249323846
0.745,0.004729506919819217,-0.7814190000001224,0.0015513154099401336,-2.3527082800001407,-0.004997804209798449,1.568416860000101,0.7912258719997932,0.039999930600000004,0.03999997,-9.817248149999894,-0.03781084939627702,-0.019610511599318488,-0.0017164430499582379,-0.006155234854854463,-0.02558809449932145
0.7475,0.004779550459818581,-0.781385100000123,0.0015678873049399232,-2.352669340000141,-0.0050535967547977395,1.5683889300001013,0.7912831359997925,0.03999993030000001,0.03999997,-9.817277324999894,-0.03839146829931053,-0.01979916479931609,-0.001728003474958091,-0.006103704730235513,-0.025775926749319066
0.75,0.004829593999817943,-0.7813512000001234,0.0015844591999397118,-2.3526304000001415,-0.005109389299797028,1.5683610000001016,0.7913403999997918,0.03999993,0.03999997,-9.817306499999894,-0.03897208720234402,-0.019987817999313685,-0.0017395638999579434,-0.006052174605616565,-0.02596375899931667
0.7525000000000001,0.004882095649808333,-0.7813156890001296,0.0016018450699365296,-2.352589525000149,-0.005167919359786325,1.568331675000107,0.7914004899997806,0.03999992925,0.0399999694,-9.817280925000095,-0.03962150197239065,-0.020200156949224817,-0.0017512295049574127,-0.005998761626155399,-0.026155488549300054
0.755,0.004934597299807664,-0.78128017800013,0.0016192309399363078,-2.3525486500001493,-0.005226449419785579,1.5683023500001074,0.7914605799997799,0.039999928500000004,0.0399999688,-9.817255350000094,-0.040270916742687526,-0.02041249589922211,-0.0017628951099572638,-0.0059453486466873855,-0.02634721809929761
0.7575000000000001,0.004987098949806997,-0.7812446670001305,0.0016366168099360868,-2.35250777500015,-0.005284979479784835,1.5682730250001078,0.7915206699997791,0.039999927750000004,0.0399999682,-9.817229775000094,-0.04092033151298443,-0.02062483484921941,-0.0017745607149571155,-0.005891935667219369,-0.026538947649295173
0.76,0.005039600599806327,-0.781209156000131,0.0016540026799358651,-2.3524669000001506,-0.005343509539784088,1.5682437000001082,0.7915807599997784,0.039999927000000005,0.039999967600000005,-9.817204200000095,-0.04156974628328131,-0.020837173799216704,-0.0017862263199569667,-0.0058385226877513555,-0.02673067719929273
0.7625000000000001,0.005092102249805659,-0.7811736450001314,0.0016713885499356441,-2.352426025000151,-0.0054020395997833445,1.5682143750001085,0.7916408499997776,0.039999926250000005,0.039999967000000004,-9.817178625000095,-0.042219161053578216,-0.021049512749214003,-0.0017978919249568184,-0.005785109708283339,-0.026922406749290292
0.765,0.005144603899804989,-0.7811381340001319,0.0016887744199354222,-2.352385150000152,-0.005460569659782598,1.568185050000109,0.7917009399997769,0.039999925500000005,0.0399999664,-9.817153050000094,-0.04286857582387509,-0.021261851699211295,-0.0018095575299566697,-0.0057316967288153255,-0.027114136299287845
0.7675000000000001,0.005197940899794982,-0.7811020770001385,0.001706436934932108,-2.352343675000159,-0.0055200299497714525,1.5681552700001145,0.7917619814997654,0.039999925,0.039999966199999994,-9.817147299999874,-0.04350278693957591,-0.021466825699290946,-0.0018212985399556783,-0.005678076786190474,-0.027307085549271772
0.77,0.0052529485997942806,-0.7810649280001389,0.0017246527399318759,-2.3523010000001596,-0.005581350699770671,1.568124580000115,0.7918249259997646,0.039999925,0.039999966799999995,-9.817181199999872,-0.04410659074557512,-0.02165706979928852,-0.0018331903599555267,-0.005624042917245018,-0.02750247419926928
0.7725,0.005307956299793579,-0.7810277790001393,0.0017428685449316435,-2.35225832500016,-0.005642671449769888,1.5680938900001153,0.7918878704997638,0.039999925,0.039999967399999996,-9.817215099999872,-0.04471039455157432,-0.021847313899286094,-0.0018450821799553749,-0.005570009048299562,-0.02769786284926679
0.775,0.00536296399979288,-0.7809906300001398,0.001761084349931412,-2.3522156500001605,-0.005703992199769109,1.5680632000001156,0.791950814999763,0.039999925,0.039999968,-9.817248999999872,-0.04531419835757355,-0.022037557999283676,-0.0018569739999552237,-0.005515975179354104,-0.027893251499264304
0.7775,0.005417971699792178,-0.7809534810001403,0.0017793001549311796,-2.3521729750001614,-0.005765312949768326,1.568032510000116,0.7920137594997623,0.039999925,0.0399999686,-9.81728289999987,-0.04591800216357275,-0.022227802099281248,-0.001868865819955072,-0.005461941310408647,-0.028088640149261813
0.78,0.005472979399791479,-0.7809163320001408,0.001797515959930948,-2.352130300000162,-0.005826633699767547,1.5680018200001165,0.7920767039997614,0.039999925,0.0399999692,-9.81731679999987,-0.046521805969571985,-0.02241804619927883,-0.001880757639954921,-0.005407907441463189,-0.028284028799259328
0.7825,0.005527987099790777,-0.7808791830001413,0.0018157317649307157,-2.3520876250001623,-0.005887954449766765,1.567971130000117,0.7921396484997606,0.039999925,0.0399999698,-9.81735069999987,-0.04712560977557119,-0.022608290299276405,-0.0018926494599547693,-0.005353873572517733,-0.028479417449256837
0.785,0.0055846966597803355,-0.7808409140001481,0.0018345111299272582,-2.352043560000171,-0.005951170579755136,1.5679394600001229,0.7922045409997487,0.039999925,0.039999971399999994,-9.817387799999851,-0.047782132771985376,-0.022816215399172772,-0.0019045477399545813,-0.00529978130964719,-0.02867772029923767
0.7875,0.005642257149779601,-0.7808020850001487,0.0018535722749270151,-2.3519988000001715,-0.006015334399754318,1.5679073000001231,0.7922704074997479,0.039999925,0.039999973499999994,-9.81742649999985,-0.04846501536405868,-0.02303298099917001,-0.0019164492499544293,-0.005245659849813605,-0.028877480249235123
0.79,0.00569981763977887,-0.7807632560001492,0.0018726334199267729,-2.351954040000172,-0.006079498219753503,1.5678751400001236,0.7923362739997469,0.039999925,0.039999975599999994,-9.817465199999852,-0.04914789795613202,-0.023249746599167252,-0.001928350759954278,-0.005191538389980018,-0.029077240199232586
0.7925,0.005757378129778136,-0.7807244270001497,0.0018916945649265298,-2.3519092800001724,-0.006143662039752684,1.567842980000124,0.7924021404997461,0.039999925,0.039999977699999995,-9.817503899999851,-0.04983078054820532,-0.02346651219916449,-0.0019402522699541263,-0.0051374169301464335,-0.029277000149230036
0.795,0.005814938619777404,-0.7806855980001501,0.0019107557099262876,-2.351864520000173,-0.006207825859751869,1.5678108200001244,0.7924680069997453,0.039999925,0.039999979799999995,-9.81754259999985,-0.05051366314027866,-0.023683277799161732,-0.001952153779953975,-0.005083295470312846,-0.0294767600992275
0.7975,0.00587249910977667,-0.7806467690001506,0.0019298168549260445,-2.351819760000174,-0.00627198967975105,1.5677786600001247,0.7925338734997445,0.039999925,0.039999981899999995,-9.81758129999985,-0.05119654573235196,-0.02390004339915897,-0.0019640552899538232,-0.0050291740104792615,-0.029676520049224952
0.8,0.005930059599775939,-0.7806079400001511,0.0019488779999258022,-2.351775000000174,-0.006336153499750235,1.5677465000001252,0.7925997399997436,0.039999925,0.039999983999999995,-9.817619999999849,-0.0518794283244253,-0.024116808999156213,-0.001975956799953672,-0.004975052550645675,-0.029876279999222412
0.8025,0.005990218404765057,-0.7805674190001582,0.0019687995449221988,-2.351728050000183,-0.006403210819738116,1.567712945000131,0.7926685734997312,0.03999992425,0.039999984599999996,-9.817607700000048,-0.05263288486454672,-0.02436096234904649,-0.001987989199953009,-0.004919988895050094,-0.03007938974920678
0.805,0.006050377209764293,-0.7805268980001587,0.001988721089921946,-2.351681100000184,-0.006470268139737264,1.5676793900001313,0.7927374069997303,0.0399999235,0.0399999852,-9.817595400000048,-0.053386341404942896,-0.024605115699043386,-0.002000021599952856,-0.0048649252394508445,-0.0302824994992042
0.8075,0.006110536014763525,-0.7804863770001592,0.0020086426349216918,-2.3516341500001845,-0.006537325459736409,1.5676458350001319,0.7928062404997294,0.03999992275,0.0399999858,-9.817583100000048,-0.05413979794533903,-0.024849269049040272,-0.0020120539999527024,-0.004809861583851597,-0.030485609249201608
0.81,0.00617069481976276,-0.7804458560001598,0.0020285641799214385,-2.351587200000185,-0.006604382779735556,1.5676122800001324,0.7928750739997286,0.039999922,0.0399999864,-9.817570800000048,-0.054893254485735204,-0.02509342239903717,-0.00202408639995255,-0.004754797928252346,-0.030688718999199026
0.8125,0.006230853624761994,-0.7804053350001603,0.0020484857249211843,-2.351540250000186,-0.006671440099734701,1.5675787250001327,0.7929439074997277,0.03999992125,0.039999987,-9.817558500000048,-0.05564671102613135,-0.025337575749034058,-0.0020361187999523964,-0.0046997342726530986,-0.030891828749196437
0.8150000000000001,0.006291012429761229,-0.7803648140001608,0.002068407269920931,-2.3514933000001865,-0.006738497419733849,1.5675451700001333,0.7930127409997267,0.0399999205,0.039999987599999995,-9.817546200000049,-0.05640016756652752,-0.025581729099030955,-0.0020481511999522434,-0.004644670617053848,-0.031094938499193855
0.8175,0.0063520520847493685,-0.7803237100001686,0.0020886205299170033,-2.351445640000196,-0.00680653560972064,1.56751112000014,0.7930825784997133,0.03999992025,0.039999988599999994,-9.81753974999998,-0.05713807474539719,-0.025818702049111585,-0.002060208609951681,-0.004589029588031879,-0.03129914724917626
0.8200000000000001,0.006414853439746857,-0.7802814400001703,0.002109417219916172,-2.351396560000198,-0.00687653553971784,1.5674760800001413,0.7931544239997104,0.039999921,0.03999999039999999,-9.81754499999998,-0.05784488320065734,-0.02604131419910268,-0.0020723160399511967,-0.004532233812143796,-0.031505553999168004
0.8225,0.006477654794744342,-0.7802391700001721,0.002130213909915339,-2.3513474800002,-0.006946535469715038,1.5674410400001428,0.7932262694997075,0.03999992175,0.039999992199999994,-9.817550249999979,-0.05855169165591745,-0.02626392634909377,-0.0020844234699507118,-0.0044754380362557146,-0.03171196074915974
0.8250000000000001,0.00654045614974183,-0.7801969000001737,0.002151010599914507,-2.3512984000002017,-0.007016535399712238,1.5674060000001442,0.7932981149997046,0.0399999225,0.03999999399999999,-9.817555499999978,-0.05925850011117759,-0.026486538499084868,-0.0020965308999502277,-0.004418642260367631,-0.03191836749915149
0.8275,0.006603257504739316,-0.7801546300001755,0.0021718072899136747,-2.351249320000204,-0.007086535329709436,1.5673709600001455,0.7933699604997018,0.03999992325,0.03999999579999999,-9.817560749999979,-0.0599653085664377,-0.026709150649075954,-0.002108638329949743,-0.00436184648447955,-0.03212477424914322
0.8300000000000001,0.006666058859736804,-0.7801123600001771,0.0021926039799128427,-2.351200240000206,-0.007156535259706636,1.5673359200001469,0.7934418059996988,0.039999924,0.0399999976,-9.817565999999978,-0.06067211702169784,-0.02693176279906705,-0.0021207457599492587,-0.004305050708591466,-0.03233118099913496
0.8325,0.00672886021473429,-0.7800700900001788,0.00221340066991201,-2.3511511600002075,-0.0072265351897038334,1.5673008800001482,0.793513651499696,0.03999992475,0.03999999939999999,-9.817571249999977,-0.06137892547695795,-0.027154374949058136,-0.002132853189948774,-0.004248254932703386,-0.0325375877491267
