rsonawane2002/My_IMU/logs_2/traj_2004/imu_400hz_2004.csv
time,j1,j2,j3,j4,j5,j6,j7,gripper1,gripper2,imu_ax,imu_ay,imu_az,imu_gx,imu_gy,imu_gz
0.0,0.00016700293,-0.785875,4.0107683e-05,-2.3551247,9.29385e-05,1.570997,0.786,0.04,0.04,-9.390592860929326,-0.1520960887718639,-0.1091424117868328,0.002566982937722,-0.0024171774558716,-0.0019780360937221
0.0025,0.0001670047795,-0.785857774,4.010996675e-05,-2.35513919,9.294419475e-05,1.570996565,0.786,0.04,0.04,-9.469424919572857,-0.13508281146123158,-0.07232626473277863,0.0023543106372009986,-0.002884532743972887,-0.0014784717839377193
0.005,0.000167006629,-0.785840548,4.01122505e-05,-2.3551536800000004,9.29498895e-05,1.57099613,0.786,0.04,0.04,-9.54825697821639,-0.11806953415059926,-0.03551011767872446,0.002141638336679997,-0.003351888032074175,-0.000978907474153339
0.0075,0.0001670084785,-0.785823322,4.0114534249999996e-05,-2.3551681700000002,9.295558424999999e-05,1.570995695,0.786,0.04,0.04,-9.627089036859921,-0.10105625683996694,0.001306029375329698,0.0019289660361589958,-0.003819243320175462,-0.0004793431643689587
0.01,0.000167010328,-0.7858060960000001,4.0116818e-05,-2.35518266,9.296127899999999e-05,1.5709952600000001,0.786,0.04,0.04,-9.705921095503454,-0.08404297952933462,0.03812217642938388,0.0017162937356379943,-0.004286598608276749,2.0221145415421846e-05
0.0125,0.0001670121775,-0.7857888700000001,4.011910174999999e-05,-2.35519715,9.296697374999999e-05,1.570994825,0.786,0.04,0.04,-9.784753154146985,-0.06702970221870229,0.07493832348343805,0.001503621435116993,-0.004753953896378037,0.0005197854551998024
0.015,0.000167014027,-0.7857716440000001,4.0121385499999995e-05,-2.3552116400000003,9.297266849999999e-05,1.57099439,0.786,0.04,0.04,-9.863585212790516,-0.050016424908069984,0.1117544705374922,0.0012909491345959917,-0.0052213091844793245,0.0010193497649841825
0.0175,0.00016701916649999998,-0.785754857,4.012651194999997e-05,-2.3552257350000003,9.297905474999998e-05,1.57099396,0.786,0.04,0.04,-9.914308177823013,-0.05694755169372724,0.1076697323289369,0.0011336570414460022,-0.005424759721689732,0.0013567508144521749
0.02,0.000167030886,-0.7857389480000001,4.0137323799999975e-05,-2.3552390400000003,9.298682399999998e-05,1.5709935400000001,0.786,0.04,0.04,-9.908812955632818,-0.11176748667249434,0.021783223594256163,0.0010871253630392646,-0.00510040075711253,0.0013698253432837962
0.0225,0.0001670426055,-0.7857230390000001,4.0148135649999984e-05,-2.3552523450000002,9.299459324999999e-05,1.57099312,0.786,0.04,0.04,-9.903317733442622,-0.16658742165126142,-0.06410328514042457,0.0010405936846325271,-0.004776041792535329,0.0013828998721154176
0.025,0.000167054325,-0.78570713,4.015894749999999e-05,-2.3552656499999998,9.300236249999999e-05,1.5709927000000001,0.786,0.04,0.04,-9.897822511252425,-0.2214073566300286,-0.14998979387510541,0.0009940620062257896,-0.004451682827958127,0.001395974400947039
0.0275,0.00016706604450000001,-0.785691221,4.0169759349999995e-05,-2.3552789549999997,9.301013175e-05,1.57099228,0.786,0.04,0.04,-9.892327289062228,-0.2762272916087957,-0.23587630260978615,0.0009475303278190522,-0.004127323863380925,0.00140904892977866
0.03,0.000167077764,-0.7856753120000001,4.0180571200000003e-05,-2.3552922599999997,9.3017901e-05,1.57099186,0.786,0.04,0.04,-9.886832066872033,-0.3310472265875628,-0.3217628113444669,0.0009009986494123148,-0.0038029648988037235,0.0014221234586102814
0.0325,0.0001670894835,-0.785659403,4.0191383050000006e-05,-2.3553055649999997,9.302567025e-05,1.57099144,0.786,0.04,0.04,-9.881336844681837,-0.38586716156633,-0.4076493200791478,0.0008544669710055773,-0.0034786059342265217,0.0014351979874419028
0.035,0.00016711898900000004,-0.78564434,4.021736730000003e-05,-2.3553181,9.3037822e-05,1.57099101,0.786,0.04,0.04,-9.871885358432035,-0.43853690708135595,-0.3904523136691334,0.0012063974363301893,-0.003917246510934074,0.0018159532415911901
0.0375,0.00016715738750000005,-0.7856297,4.025093775000003e-05,-2.3553302499999997,9.305216500000001e-05,1.570990575,0.786,0.04,0.04,-9.860455740152439,-0.4901315578645148,-0.3217135496869476,0.0017575589735197945,-0.004737386858282699,0.0023805488583986813
0.04,0.00016719578600000003,-0.78561506,4.028450820000003e-05,-2.3553424,9.306650800000001e-05,1.57099014,0.786,0.04,0.04,-9.849026121872841,-0.5417262086476737,-0.2529747857047616,0.002308720510709401,-0.005557527205631327,0.002945144475206174
0.0425,0.00016723418450000004,-0.78560042,4.0318078650000035e-05,-2.35535455,9.308085100000001e-05,1.5709897050000001,0.786,0.04,0.04,-9.837596503593245,-0.5933208594308328,-0.18423602172257558,0.0028598820478990088,-0.0063776675529799536,0.0035097400920136666
0.045,0.00016727258300000005,-0.78558578,4.0351649100000035e-05,-2.3553667,9.309519400000001e-05,1.57098927,0.786,0.04,0.04,-9.826166885313649,-0.6449155102139916,-0.11549725774038982,0.0034110435850886137,-0.0071978079003285796,0.004074335708821158
0.0475,0.00016731098150000006,-0.78557114,4.0385219550000034e-05,-2.35537885,9.310953700000001e-05,1.570988835,0.786,0.04,0.04,-9.814737267034051,-0.6965101609971507,-0.04675849375820379,0.00396220512227822,-0.008017948247677207,0.0046389313256286506
0.05,0.00016734938000000012,-0.7855565,4.041879000000009e-05,-2.355391,9.312388000000003e-05,1.5709884,0.786,0.04,0.04,-9.803307648754492,-0.7481048117801145,0.021980270223881413,0.004513366659466396,-0.008838088595023575,0.005203526942434789
0.0525,0.0001674389090000001,-0.78554297,4.049557860000009e-05,-2.35540216,9.315091540000004e-05,1.57098798,0.786,0.04,0.04,-9.824390871672174,-0.628249052126706,0.0021318792720957484,0.0038069567848693572,-0.007674029010093371,0.00457829905966386
0.055,0.00016752843800000013,-0.7855294399999999,4.05723672000001e-05,-2.35541332,9.317795080000003e-05,1.57098756,0.786,0.04,0.04,-9.845474094589855,-0.5083932924732972,-0.01771651167968997,0.0031005469102723168,-0.006509969425163164,0.003953071176892928
0.0575,0.00016761796700000013,-0.78551591,4.06491558000001e-05,-2.35542448,9.320498620000004e-05,1.57098714,0.786,0.04,0.04,-9.866557317507537,-0.3885375328198884,-0.03756490263147569,0.002394137035675276,-0.005345909840232957,0.003327843294121997
0.06,0.00016770749600000012,-0.78550238,4.0725944400000104e-05,-2.35543564,9.323202160000003e-05,1.57098672,0.786,0.04,0.04,-9.887640540425219,-0.2686817731664799,-0.057413293583261346,0.001687727161078237,-0.004181850255302753,0.002702615411351068
0.0625,0.00016779702500000014,-0.7854888499999999,4.0802733000000114e-05,-2.3554468,9.325905700000004e-05,1.5709863,0.786,0.04,0.04,-9.9087237633429,-0.14882601351307112,-0.07726168453504707,0.0009813172864811962,-0.003017790670372546,0.0020773875285801367
0.065,0.00016788655400000013,-0.78547532,4.0879521600000116e-05,-2.35545796,9.328609240000003e-05,1.57098588,0.786,0.04,0.04,-9.929806986260582,-0.02897025385966223,-0.09711007548683279,0.0002749074118841557,-0.001853731085442339,0.0014521596458092058
0.0675,0.00016800357600000026,-0.7854621199999999,4.0979412550000226e-05,-2.35546881,9.331993670000007e-05,1.570985455,0.786000095,0.04,0.04,-9.945417098488678,0.029498583288142498,-0.10370475341818003,-0.0005400612895541608,-0.0009535090059566125,0.000837036550284981
0.07,0.00016817558400000028,-0.78544958,4.1125508200000233e-05,-2.35547904,9.336739880000008e-05,1.57098502,0.78600038,0.04,0.04,-9.95008098933768,-0.0348064245744226,-0.08379200530883124,-0.0015721476446735455,-0.0005809619373562461,0.0002421230292540315
0.0725,0.0001683475920000003,-0.7854370399999999,4.127160385000024e-05,-2.35548927,9.341486090000008e-05,1.570984585,0.786000665,0.04,0.04,-9.95474488018668,-0.09911143243698733,-0.06387925719948256,-0.0026042339997929243,-0.00020841486875588166,-0.0003527904917769147
0.075,0.0001685196000000003,-0.7854245,4.141769950000025e-05,-2.3554995,9.346232300000007e-05,1.57098415,0.78600095,0.04,0.04,-9.959408771035683,-0.16341644029955243,-0.043966509090133776,-0.003636320354912309,0.00016413219984448492,-0.0009477040128078641
0.0775,0.0001686916080000003,-0.7854119599999999,4.1563795150000255e-05,-2.3555097299999996,9.350978510000008e-05,1.5709837150000001,0.7860012350000001,0.04,0.04,-9.964072661884684,-0.2277214481621175,-0.02405376098078499,-0.004668406710031693,0.0005366792684448514,-0.0015426175338388137
0.08,0.00016886361600000033,-0.78539942,4.170989080000026e-05,-2.3555199599999996,9.355724720000008e-05,1.57098328,0.78600152,0.04,0.04,-9.968736552733686,-0.29202645602468263,-0.0041410128714362004,-0.005700493065151078,0.0009092263370452179,-0.002137531054869763
0.0825,0.00016903562400000032,-0.78538688,4.1855986450000275e-05,-2.3555301899999996,9.360470930000009e-05,1.570982845,0.786001805,0.04,0.04,-9.973400443582687,-0.35633146388724773,0.0157717352379126,-0.006732579420270462,0.0012817734056455846,-0.002732444575900712
0.085,0.00016928761700000058,-0.7853749139999999,4.206900590000047e-05,-2.35554014,9.367219000000014e-05,1.57098273,0.78600209,0.04,0.04,-9.928831865813518,-0.34359328232772773,0.005865984302650128,-0.006428349077423368,0.0010163820418491092,-0.002560093265228784
0.08750000000000001,0.0001695796025000006,-0.7853632349999999,4.231548725000049e-05,-2.35554995,9.374968000000016e-05,1.570982775,0.786002375,0.04,0.04,-9.85964705373547,-0.29233350605749403,-0.01894901615479073,-0.005455960385598737,0.0004320214618569355,-0.0020041095387086923
0.09,0.0001698715880000006,-0.785351556,4.25619686000005e-05,-2.35555976,9.382717000000016e-05,1.57098282,0.7860026600000001,0.04,0.04,-9.790462241657423,-0.24107372978726055,-0.04376401661223145,-0.0044835716937741115,-0.00015233911813523492,-0.001448125812188603
0.0925,0.0001701635735000006,-0.785339877,4.280844995000052e-05,-2.35556957,9.390466000000017e-05,1.570982865,0.786002945,0.04,0.04,-9.721277429579375,-0.18981395351702682,-0.0685790170696723,-0.0035111830019494803,-0.0007366996981274085,-0.0008921420856685112
0.095,0.00017045555900000063,-0.785328198,4.3054931300000535e-05,-2.35557938,9.398215000000017e-05,1.5709829100000001,0.78600323,0.04,0.04,-9.652092617501328,-0.1385541772467931,-0.09339401752711317,-0.002538794310124849,-0.0013210602781195825,-0.00033615835914841893
0.0975,0.00017074754450000065,-0.785316519,4.3301412650000546e-05,-2.3555891900000003,9.405964000000018e-05,1.570982955,0.786003515,0.04,0.04,-9.58290780542328,-0.08729440097655933,-0.11820901798455402,-0.0015664056183002182,-0.001905420858111756,0.00021982536737167333
0.1,0.00017103953000000103,-0.78530484,4.354789400000087e-05,-2.355599,9.413713000000028e-05,1.570983,0.7860038,0.04,0.04,-9.513722993345551,-0.03603462470642341,-0.14302401844181414,-0.0005940169264782135,-0.002489781438104338,0.0007758090938891377
0.10250000000000001,0.00017149451300000105,-0.785293944,4.393038590000089e-05,-2.35560785,9.425509300000028e-05,1.57098309,0.7860043760000001,0.04,0.04,-9.583754586118014,-0.027733763123804815,-0.08843016202122422,-0.0007756921696025489,-0.003253401017186457,0.00017722710753810815
0.105,0.0001719494960000011,-0.785283048,4.431287780000091e-05,-2.3556167,9.437305600000029e-05,1.57098318,0.786004952,0.04,0.04,-9.653786178890476,-0.01943290154118627,-0.033836305600634595,-0.0009573674127268835,-0.004017020596268572,-0.00042135487881291803
0.1075,0.00017240447900000112,-0.785272152,4.469536970000094e-05,-2.35562555,9.449101900000029e-05,1.57098327,0.786005528,0.04,0.04,-9.723817771662938,-0.011132039958567676,0.02075755081995534,-0.0011390426558512189,-0.0047806401753506915,-0.0010199368651639478
0.11,0.00017285946200000114,-0.785261256,4.5077861600000956e-05,-2.3556344,9.460898200000029e-05,1.57098336,0.786006104,0.04,0.04,-9.793849364435403,-0.002831178375949081,0.07535140724054526,-0.0013207178989755545,-0.00554425975443281,-0.0016185188515149772
0.1125,0.00017331444500000116,-0.78525036,4.546035350000098e-05,-2.35564325,9.47269450000003e-05,1.57098345,0.7860066800000001,0.04,0.04,-9.863880957207865,0.005469683206669511,0.12994526366113518,-0.0015023931420998899,-0.006307879333514929,-0.0022171008378660067
0.115,0.00017376942800000119,-0.785239464,4.5842845400001e-05,-2.3556521,9.48449080000003e-05,1.5709835399999998,0.786007256,0.04,0.04,-9.933912549980327,0.013770544789288103,0.18453912008172513,-0.0016840683852242253,-0.007071498912597048,-0.002815682824217036
0.11750000000000001,0.0001742947310000018,-0.785228778,4.628387320000149e-05,-2.3556609,9.498080750000046e-05,1.5709836449999999,0.786007831,0.04,0.03999999975,-9.96455206124824,0.009045386777812015,0.21005007916416102,-0.0018005496299348528,-0.00790722782009997,-0.003069441942387499
0.12,0.00017496067400000183,-0.785218512,4.6841972800001524e-05,-2.3556696,9.515258000000046e-05,1.57098378,0.786008404,0.04,0.039999999,-9.916407409507988,-0.021731810421542003,0.1773952435709839,-0.001786642877819622,-0.008887175384442772,-0.0026335553242050713
0.1225,0.00017562661700000186,-0.7852082459999999,4.7400072400001555e-05,-2.3556783,9.532435250000047e-05,1.570983915,0.786008977,0.04,0.03999999825,-9.868262757767736,-0.05250900762089618,0.14474040797780663,-0.0017727361257043914,-0.009867122948785579,-0.0021976687060226412
0.125,0.0001762925600000019,-0.78519798,4.795817200000159e-05,-2.355687,9.549612500000048e-05,1.57098405,0.7860095500000001,0.04,0.0399999975,-9.820118106027483,-0.08328620482025037,0.11208557238462932,-0.0017588293735891604,-0.010847070513128386,-0.0017617820878402112
0.1275,0.00017695850300000193,-0.785187714,4.851627160000162e-05,-2.3556957,9.56678975000005e-05,1.570984185,0.786010123,0.04,0.03999999675,-9.771973454287231,-0.11406340201960456,0.07943073679145204,-0.0017449226214739297,-0.01182701807747119,-0.001325895469657781
0.13,0.000177624446000002,-0.785177448,4.907437120000165e-05,-2.3557044,9.583967000000051e-05,1.57098432,0.786010696,0.04,0.039999996,-9.72382880254698,-0.14484059921895875,0.04677590119827474,-0.001731015869358699,-0.012806965641813998,-0.000890008851475351
0.1325,0.00017829038900000203,-0.7851671819999999,4.963247080000169e-05,-2.3557131,9.601144250000052e-05,1.570984455,0.786011269,0.04,0.03999999525,-9.675684150806728,-0.17561779641831293,0.01412106560509746,-0.001717109117243468,-0.013786913206156805,-0.00045412223329292095
0.135,0.00017913187300000287,-0.785157274,5.033648260000239e-05,-2.3557214600000003,9.622515100000072e-05,1.57098458,0.786012034,0.04,0.0399999955,-9.674202838800621,-0.16049950154889606,0.00702825380548216,-0.0015213111739392187,-0.013247150088990677,-0.0006929779153507108
0.1375,0.00018006112750000293,-0.785147545,5.111345050000243e-05,-2.3557296500000002,9.645982750000074e-05,1.5709847000000001,0.786012895,0.04,0.03999999625,-9.696053196661268,-0.12243346064540697,0.012716453902473309,-0.0012345676350417022,-0.011947531631080456,-0.001269204747524004
0.14,0.00018099038200000296,-0.785137816,5.1890418400002476e-05,-2.35573784,9.669450400000074e-05,1.57098482,0.786013756,0.04,0.039999997,-9.717903554521916,-0.0843674197419179,0.018404653999464456,-0.0009478240961441856,-0.010647913173170237,-0.0018454315796972974
0.14250000000000002,0.00018191963650000302,-0.785128087,5.266738630000252e-05,-2.35574603,9.692918050000076e-05,1.57098494,0.786014617,0.04,0.03999999775,-9.739753912382563,-0.04630137883842883,0.0240928540964556,-0.000661080557246669,-0.009348294715260016,-0.0024216584118705907
0.145,0.00018284889100000305,-0.785118358,5.344435420000256e-05,-2.35575422,9.716385700000078e-05,1.57098506,0.7860154779999999,0.04,0.0399999985,-9.76160427024321,-0.008235337934940162,0.029781054193446687,-0.0003743370183491557,-0.00804867625734981,-0.0029978852440438776
0.1475,0.0001837781455000031,-0.785108629,5.42213221000026e-05,-2.35576241,9.739853350000079e-05,1.57098518,0.786016339,0.04,0.03999999925,-9.783454628103858,0.029830702968548894,0.03546925429043784,-8.759347945163916e-05,-0.006749057799439589,-0.0035741120762171705
0.15,0.00018470740000000425,-0.7850989,5.499829000000355e-05,-2.3557706,9.763321000000108e-05,1.5709853,0.7860172,0.04,0.04,-9.805304985964455,0.06789674387193938,0.04115745438739569,0.00019915005944814103,-0.005449439341535064,-0.004150338908383049
0.1525,0.00018595613950000379,-0.785089585,5.604044275000316e-05,-2.35577828,9.794834800000096e-05,1.57098545,0.786018505,0.03999999925,0.03999999925,-9.8127187559986,0.07704584025492685,0.03707606310868547,0.0011500515985993155,-0.005820319354298393,-0.0025512630181705543
0.155,0.00018720487900000332,-0.78508027,5.7082595500002784e-05,-2.35578596,9.826348600000084e-05,1.5709856,0.78601981,0.0399999985,0.0399999985,-9.820132526032745,0.0861949366379143,0.032994671829975245,0.0021009531377504903,-0.006191199367061721,-0.0009521871279580584
0.1575,0.00018845361850000286,-0.785070955,5.81247482500024e-05,-2.35579364,9.857862400000072e-05,1.57098575,0.786021115,0.03999999775,0.03999999775,-9.82754629606689,0.09534403302090178,0.028913280551265026,0.0030518546769016646,-0.006562079379825049,0.0006468887622544366
0.16,0.0001897023580000024,-0.78506164,5.916690100000201e-05,-2.3558013200000003,9.889376200000062e-05,1.5709859,0.78602242,0.039999997,0.039999997,-9.834960066101035,0.10449312940388925,0.024831889272554804,0.004002756216052839,-0.006932959392588377,0.0022459646524669325
0.1625,0.00019095109750000196,-0.785052325,6.020905375000163e-05,-2.3558090000000003,9.92089000000005e-05,1.57098605,0.7860237250000001,0.03999999625,0.03999999625,-9.842373836135181,0.11364222578687672,0.020750497993844583,0.004953657755204013,-0.007303839405351706,0.0038450405426794284
0.165,0.0001921998370000015,-0.78504301,6.125120650000125e-05,-2.35581668,9.952403800000038e-05,1.5709861999999999,0.78602503,0.0399999955,0.0399999955,-9.849787606169325,0.12279132216986419,0.016669106715134364,0.005904559294355188,-0.007674719418115034,0.005444116432891924
0.1675,0.00019357496000000182,-0.7850338,6.239815025000151e-05,-2.3558243300000004,9.986987375000045e-05,1.5709864,0.78602647,0.039999994750000004,0.03999999525,-9.852029154858046,0.10454500618505988,0.0012111358518926713,0.006318932988119603,-0.00814202640571149,0.00624345456950543
0.17,0.0001952028500000026,-0.7850248,6.375467600000216e-05,-2.35583192,0.00010027710500000065,1.5709867,0.7860281800000001,0.039999994000000004,0.039999996,-9.84392626085596,0.03150786546490654,-0.03699999418031459,0.005660250991115089,-0.008802187342973375,0.005443317198927803
0.17250000000000001,0.00019683074000000338,-0.7850157999999999,6.511120175000282e-05,-2.35583951,0.00010068433625000085,1.570987,0.78602989,0.039999993250000004,0.03999999675,-9.835823366853875,-0.0415292752552468,-0.07521112421252185,0.005001568994110575,-0.00946234828023526,0.004643179828350176
0.17500000000000002,0.0001984586300000042,-0.7850068,6.646772750000348e-05,-2.3558471,0.00010109156750000105,1.5709873,0.7860316,0.0399999925,0.0399999975,-9.82772047285179,-0.11456641597540013,-0.11342225424472911,0.004342886997106062,-0.010122509217497144,0.003843042457772548
0.1775,0.00020008652000000495,-0.7849978,6.782425325000412e-05,-2.35585469,0.00010149879875000124,1.5709876,0.7860333100000001,0.03999999175,0.03999999825,-9.819617578849705,-0.18760355669555268,-0.15163338427693593,0.0036842050001015545,-0.010782670154759021,0.003042905087194929
0.18,0.00020171441000000573,-0.7849888,6.918077900000477e-05,-2.35586228,0.00010190603000000144,1.5709879,0.78603502,0.039999991,0.039999999,-9.811514684847621,-0.260640697415706,-0.18984451430914318,0.003025523003097041,-0.011442831092020905,0.0022427677166173016
0.1825,0.00020334230000000655,-0.7849798,7.053730475000544e-05,-2.35586987,0.00010231326125000163,1.5709882,0.7860367300000001,0.03999999025,0.03999999975,-9.803411790845535,-0.33367783813585933,-0.22805564434135045,0.0023668410060925273,-0.012102992029282791,0.0014426303460396746
0.185,0.00020526470100000872,-0.78497092,7.213782560000724e-05,-2.35587746,0.00010279331250000217,1.57098877,0.786038703,0.039999989799999996,0.0399999995,-9.842675727931324,-0.33238625507239544,-0.22390460485475228,0.001981183014369562,-0.012004870012177453,0.0005208521799725878
0.1875,0.00020733435750000883,-0.7849621,7.386034400000734e-05,-2.35588505,0.0001033097737500022,1.570989475,0.7860408075,0.0399999895,0.03999999875,-9.905623080560604,-0.2939303101178199,-0.19857248060914856,0.0017320370252848127,-0.011527606517895616,-0.0004617463838380888
0.19,0.00020940401400000895,-0.78495328,7.558286240000744e-05,-2.35589264,0.00010382623500000224,1.5709901800000001,0.7860429120000001,0.0399999892,0.039999998,-9.968570433189885,-0.2554743651632444,-0.17324035636354487,0.0014828910362000634,-0.011050343023613778,-0.0014443449476487654
0.1925,0.00021147367050000908,-0.78494446,7.730538080000754e-05,-2.35590023,0.00010434269625000226,1.570990885,0.7860450165,0.0399999889,0.03999999725,-10.031517785819165,-0.21701842020866885,-0.14790823211794119,0.0012337450471153139,-0.01057307952933194,-0.0024269435114594425
0.195,0.0002135433270000092,-0.7849356399999999,7.902789920000765e-05,-2.35590782,0.00010485915750000229,1.57099159,0.7860471210000001,0.0399999886,0.0399999965,-10.094465138448445,-0.17856247525409333,-0.12257610787233748,0.0009845990580305646,-0.010095816035050102,-0.003409542075270119
0.1975,0.0002156129835000093,-0.7849268199999999,8.075041760000775e-05,-2.35591541,0.00010537561875000233,1.5709922950000001,0.7860492255,0.0399999883,0.03999999575,-10.157412491077727,-0.14010653029951778,-0.09724398362673378,0.0007354530689458153,-0.009618552540768266,-0.004392140639080795
0.2,0.00021768264000001175,-0.784918,8.247293600000976e-05,-2.355923,0.00010589208000000291,1.570993,0.78605133,0.039999988,0.039999995,-10.22035984370663,-0.10165058534521738,-0.07191185938107324,0.00048630707986062154,-0.009141289046488425,-0.005374739202887396
0.2025,0.0002202592995000119,-0.7849092489999999,8.461520420000988e-05,-2.3559305750000004,0.00010653364800000296,1.570993705,0.7860539415000001,0.0399999874,0.039999994250000004,-10.200510226931813,-0.12363897649298605,-0.034089764994327684,0.00013954318959644656,-0.009102711879428276,-0.005461759069868235
0.20500000000000002,0.00022283595900001203,-0.784900498,8.675747240001e-05,-2.35593815,0.00010717521600000299,1.57099441,0.7860565530000001,0.0399999868,0.039999993500000004,-10.180660610156995,-0.14562736764075473,0.0037323293924178685,-0.00020722070066772847,-0.00906413471236813,-0.005548778936849076
0.20750000000000002,0.00022541261850001217,-0.784891747,8.889974060001013e-05,-2.355945725,0.00010781678400000303,1.570995115,0.7860591645,0.039999986200000004,0.039999992750000005,-10.160810993382178,-0.1676157587885234,0.04155442377916342,-0.0005539845909319034,-0.009025557545307983,-0.005635798803829916
0.21,0.0002279892780000123,-0.7848829959999999,9.104200880001023e-05,-2.3559533000000004,0.00010845835200000306,1.57099582,0.786061776,0.0399999856,0.039999992,-10.14096137660736,-0.18960414993629182,0.07937651816590856,-0.0009007484811960746,-0.008986980378247836,-0.005722818670810755
0.2125,0.00023056593750001245,-0.7848742449999999,9.318427700001034e-05,-2.355960875,0.0001090999200000031,1.570996525,0.7860643875000001,0.039999985,0.03999999125,-10.121111759832543,-0.2115925410840605,0.11719861255265411,-0.0012475123714602494,-0.008948403211187688,-0.0058098385377915954
0.215,0.0002331425970000126,-0.7848654939999999,9.532654520001047e-05,-2.35596845,0.00010974148800000314,1.57099723,0.7860669990000001,0.0399999844,0.0399999905,-10.101262143057726,-0.23358093223182913,0.15502070693939968,-0.0015942762617244244,-0.008909826044127541,-0.005896858404772435
0.2175,0.00023591075650001558,-0.784856739,9.762726280001294e-05,-2.3559760250000004,0.00011043027550000387,1.57099794,0.7860698100000001,0.0399999838,0.03999999,-10.067754215409984,-0.23664567140864426,0.16028920208545477,-0.0017468058299021582,-0.008926507246114858,-0.005599774097963507
0.22,0.00023906191600001577,-0.7848479759999999,0.0001002448792000131,-2.3559836,0.00011121350200000391,1.5709986599999999,0.78607302,0.0399999832,0.03999999,-10.006929666017003,-0.20186310664439128,0.10045049875157203,-0.0015108667539156196,-0.009053705186194656,-0.004534481443592071
0.2225,0.00024221307550001595,-0.7848392129999999,0.00010286249560001325,-2.355991175,0.00011199672850000396,1.57099938,0.78607623,0.0399999826,0.03999999,-9.946105116624022,-0.16708054188013827,0.04061179541768928,-0.001274927677929081,-0.009180903126274453,-0.003469188789220634
0.225,0.0002453642350000161,-0.78483045,0.0001054801120000134,-2.3559987500000004,0.000112779955000004,1.5710001,0.7860794400000001,0.039999981999999996,0.03999999,-9.885280567231039,-0.13229797711588526,-0.01922690791619347,-0.0010389886019425425,-0.009308101066354251,-0.0024038961348491973
0.2275,0.0002485153945000163,-0.7848216869999999,0.00010809772840001354,-2.356006325,0.00011356318150000406,1.57100082,0.78608265,0.0399999814,0.03999999,-9.824456017838058,-0.09751541235163227,-0.07906561125007622,-0.0008030495259560037,-0.009435299006434049,-0.0013386034804777607
0.23,0.0002516665540000165,-0.7848129239999999,0.0001107153448000137,-2.3560139,0.0001143464080000041,1.5710015400000001,0.78608586,0.0399999808,0.03999999,-9.763631468445077,-0.06273284758737926,-0.13890431458395897,-0.0005671104499694651,-0.009562496946513845,-0.00027331082610632454
0.2325,0.0002548177135000167,-0.784804161,0.00011333296120001385,-2.3560214750000004,0.00011512963450000415,1.57100226,0.7860890700000001,0.0399999802,0.03999999,-9.702806919052094,-0.027950282823126255,-0.1987430179178417,-0.00033117137398292655,-0.009689694886593643,0.0007919818282651116
0.23500000000000001,0.0002583981570000203,-0.784795336,0.00011630559000001685,-2.3560291,0.00011601874000000504,1.57100335,0.78609272,0.039999979,0.039999989,-9.670587584653472,-0.0038747473080098637,-0.16853777828082772,-0.0003110194656951993,-0.010028917925740292,0.0009172648294800961
0.23750000000000002,0.00026219324250002053,-0.78478648,0.00011945572500001703,-2.3560367500000003,0.0001169607850000051,1.571004625,0.78609659,0.0399999775,0.0399999875,-9.652670857751685,0.014847273582666201,-0.09331056715944128,-0.0003987611412542994,-0.010474153514417833,0.0005725430041280862
0.24,0.0002659883280000207,-0.784777624,0.00012260586000001719,-2.3560444,0.00011790283000000514,1.5710059,0.78610046,0.039999976,0.039999986,-9.6347541308499,0.03356929447334206,-0.018083356038055665,-0.0004865028168133985,-0.010919389103095369,0.00022782117877608022
0.2425,0.00026978341350002096,-0.784768768,0.00012575599500001735,-2.35605205,0.0001188448750000052,1.571007175,0.78610433,0.0399999745,0.039999984499999995,-9.616837403948116,0.05229131536401813,0.05714385508333078,-0.0005742444923724986,-0.01136462469177291,-0.00011690064657592959
0.245,0.00027357849900002117,-0.784759912,0.00012890613000001753,-2.3560597000000003,0.00011978692000000525,1.57100845,0.7861082,0.039999973,0.039999982999999996,-9.59892067704633,0.07101333625469419,0.13237106620471725,-0.0006619861679315987,-0.01180986028045045,-0.0004616224719279395
0.2475,0.0002773735845000214,-0.784751056,0.00013205626500001772,-2.35606735,0.00012072896500000529,1.571009725,0.7861120699999999,0.0399999715,0.0399999815,-9.581003950144545,0.08973535714537026,0.20759827732610367,-0.0007497278434906987,-0.01225509586912799,-0.0008063442972799496
0.25,0.00028116867000002566,-0.7847422,0.00013520640000002127,-2.356075,0.00012167101000000635,1.571011,0.78611594,0.03999997,0.03999998,-9.56308722324303,0.10845737803566975,0.28282548844712446,-0.000837469519048079,-0.012700331457797785,-0.0011510661226288527
0.2525,0.00028567876350002594,-0.7847331039999998,0.00013894760100002147,-2.356083055,0.0001227891865000064,1.571012275,0.786120539,0.039999968500000004,0.039999979549999995,-9.592860229436484,0.06093367941478279,0.2937222033946843,-0.0006226689356861866,-0.011782674776931241,-0.000949225462704051
0.255,0.00029018885700002615,-0.7847240079999999,0.0001426888020000217,-2.3560911100000004,0.00012390736300000647,1.57101355,0.7861251380000001,0.039999967000000004,0.0399999791,-9.622633235629937,0.013409980793895812,0.3046189183422442,-0.00040786835232429423,-0.010865018096064698,-0.0007473848027792494
0.2575,0.00029469895050002643,-0.7847149119999999,0.0001464300030000219,-2.3560991650000003,0.00012502553950000653,1.571014825,0.786129737,0.039999965500000005,0.03999997865,-9.65240624182339,-0.034113717826991144,0.31551563328980403,-0.00019306776896240178,-0.009947361415198155,-0.0005455441428544477
0.26,0.0002992090440000267,-0.7847058159999999,0.0001501712040000221,-2.35610722,0.0001261437160000066,1.5710161,0.786134336,0.039999964,0.0399999782,-9.682179248016842,-0.08163741644787813,0.3264123482373639,2.1732814399490555e-05,-0.009029704734331612,-0.00034370348292964603
0.2625,0.0003037191375000269,-0.7846967199999999,0.00015391240500002234,-2.356115275,0.00012726189250000667,1.571017375,0.786138935,0.0399999625,0.03999997775,-9.711952254210296,-0.1291611150687651,0.33730906318492376,0.000236533397761383,-0.00811204805346507,-0.00014186282300484437
0.265,0.0003082292310000272,-0.7846876239999999,0.00015765360600002255,-2.3561233300000004,0.00012838006900000673,1.57101865,0.786143534,0.039999961,0.039999977299999996,-9.741725260403749,-0.17668481368965205,0.34820577813248366,0.00045133398112327545,-0.0071943913725985255,5.9977836919957285e-05
0.2675,0.00031300178100003226,-0.7846784219999999,0.00016161169500002672,-2.356131575,0.00012956292650000798,1.571020115,0.7861483930000001,0.0399999595,0.03999997645,-9.769386277464381,-0.19316002347069233,0.3267447047937776,0.00037272803201161364,-0.0066365706273511455,9.684588088447062e-05
0.27,0.00031829924400003255,-0.784669008,0.000166003560000027,-2.3561402,0.00013087514600000806,1.57102196,0.786153772,0.039999958,0.0399999748,-9.792823316259488,-0.1475382555737352,0.2405680548843072,-0.0002926909820311298,-0.006798421753322435,-0.00019623130706258125
0.2725,0.0003235967070000329,-0.784659594,0.00017039542500002725,-2.356148825,0.00013218736550000813,1.571023805,0.7861591510000001,0.0399999565,0.03999997315,-9.816260355054593,-0.10191648767677809,0.15439140497483678,-0.0009581099960738731,-0.006960272879293724,-0.0004893084950096333
0.275,0.0003288941700000332,-0.7846501799999999,0.0001747872900000275,-2.35615745,0.0001334995850000082,1.5710256500000002,0.7861645300000001,0.039999955,0.039999971499999995,-9.8396973938497,-0.05629471977982098,0.0682147550653664,-0.0016235290101166164,-0.007122124005265013,-0.0007823856829566849
0.2775,0.0003341916330000335,-0.7846407659999999,0.00017917915500002775,-2.356166075,0.00013481180450000829,1.571027495,0.7861699090000001,0.0399999535,0.03999996985,-9.863134432644808,-0.010672951882863851,-0.017961894844103987,-0.00228894802415936,-0.007283975131236303,-0.0010754628709037368
0.28,0.0003394890960000338,-0.7846313519999999,0.000183571020000028,-2.3561747,0.00013612402400000836,1.5710293400000002,0.786175288,0.039999952,0.0399999682,-9.886571471439915,0.034948816014093276,-0.10413854475357442,-0.0029543670382021032,-0.007445826257207592,-0.0013685400588507887
0.28250000000000003,0.0003447865590000341,-0.7846219379999999,0.00018796288500002827,-2.356183325,0.00013743624350000844,1.571031185,0.7861806670000001,0.0399999505,0.039999966549999995,-9.91000851023502,0.08057058391105038,-0.1903151946630448,-0.003619786052244847,-0.007607677383178881,-0.0016616172467978406
0.28500000000000003,0.00035065794200004,-0.7846122199999999,0.00019282887900003314,-2.3561920599999997,0.0001388898060000099,1.57103304,0.7861866340000001,0.0399999493,0.0399999652,-9.909205520980324,0.07744245071933176,-0.17306374033688185,-0.003613162737110515,-0.007521235726662983,-0.002052245074298853
0.28750000000000003,0.00035681628500004037,-0.7846023499999999,0.00019793193750003343,-2.35620085,0.00014041404000000998,1.5710349000000001,0.7861928950000001,0.03999994825,0.039999964,-9.896282517701078,0.04993936698398323,-0.10409823389440431,-0.0032705182573974055,-0.0073106476789070955,-0.002491648221575428
0.29,0.0003629746280000406,-0.7845924799999999,0.0002030349960000336,-2.35620964,0.00014193827400001005,1.5710367600000001,0.7861991560000001,0.039999947200000004,0.0399999628,-9.883359514421834,0.022436283248635294,-0.0351327274519283,-0.0029278737776843033,-0.0071000596311512135,-0.0029310513688519937
0.2925,0.00036913297100004094,-0.7845826099999998,0.0002081380545000339,-2.3562184299999998,0.00014346250800001013,1.5710386200000002,0.7862054170000001,0.03999994615,0.0399999616,-9.870436511142588,-0.005066800486713249,0.03383277899054926,-0.0025852292979711934,-0.006889471583395326,-0.0033704545161285693
0.295,0.0003752913140000413,-0.7845727399999999,0.0002132411130000342,-2.35622722,0.0001449867420000102,1.57104048,0.786211678,0.0399999451,0.0399999604,-9.857513507863342,-0.03256988422206179,0.10279828543302677,-0.0022425848182580834,-0.006678883535639439,-0.003809857663405145
0.2975,0.0003814496570000416,-0.7845628699999999,0.00021834417150003448,-2.35623601,0.0001465109760000103,1.57104234,0.786217939,0.03999994405,0.039999959200000004,-9.844590504584096,-0.06007296795741031,0.17176379187550433,-0.0018999403385449737,-0.006468295487883552,-0.00424926081068172
0.3,0.00038760800000004836,-0.7845529999999998,0.00022344723000004005,-2.3562448,0.00014803521000001196,1.5710442,0.7862242,0.039999943,0.039999958,-9.831667501305056,-0.0875760516926701,0.24072929831762765,-0.0015572958588300888,-0.006257707440130503,-0.004688663957951018
0.3025,0.00039470162450004875,-0.7845426454999999,0.0002293227465000404,-2.35625449,0.00014978965950001205,1.571046615,0.7862313955000001,0.039999943,0.0399999583,-9.848976239788561,-0.1020546295024754,0.25774136556078403,-0.0009541992878304839,-0.00646350059733003,-0.004060434049195591
0.305,0.0004017952490000492,-0.7845322909999999,0.0002351982630000407,-2.35626418,0.00015154410900001215,1.57104903,0.786238591,0.039999943,0.0399999586,-9.866284978272065,-0.1165332073122807,0.2747534328039404,-0.0003511027168308792,-0.006669293754529557,-0.003432204140440165
0.3075,0.0004088888735000496,-0.7845219364999999,0.00024107377950004105,-2.35627387,0.00015329855850001225,1.5710514450000002,0.7862457865000001,0.039999943,0.0399999589,-9.883593716755568,-0.131011785122086,0.2917655000470968,0.0002519938541687256,-0.006875086911729084,-0.002803974231684739
0.31,0.00041598249800005,-0.7845115819999999,0.0002469492960000414,-2.35628356,0.00015505300800001235,1.5710538600000001,0.786252982,0.039999943,0.039999959200000004,-9.900902455239072,-0.1454903629318913,0.30877756729025313,0.0008550904251683302,-0.0070808800689286105,-0.0021757443229293125
0.3125,0.0004230761225000504,-0.7845012275,0.0002528248125000417,-2.3562932500000002,0.00015680745750001245,1.5710562750000001,0.7862601775000001,0.039999943,0.0399999595,-9.918211193722575,-0.1599689407416966,0.3257896345334095,0.001458186996167935,-0.0072866732261281375,-0.001547514414173886
0.315,0.00043016974700005084,-0.784490873,0.00025870032900004205,-2.3563029400000004,0.00015856190700001255,1.57105869,0.786267373,0.039999943,0.0399999598,-9.935519932206079,-0.17444751855150192,0.3428017017765659,0.00206128356716754,-0.0074924663833276645,-0.0009192845054184595
0.3175,0.0004376001485000585,-0.7844803045,0.00026485393150004843,-2.3563127150000005,0.00016039928700001445,1.571061185,0.7862749145000001,0.039999942850000005,0.0399999599,-9.940481763396715,-0.1887578864024105,0.3194430867338304,0.0022050345283390342,-0.0076887016072399094,-0.0007028492694881542
0.32,0.000445704104000059,-0.7844693079999999,0.00027156370600004884,-2.3563226600000005,0.00016240252800001458,1.57106384,0.7862831480000001,0.0399999424,0.0399999596,-9.920749780002414,-0.2027318343355366,0.21534310712192775,0.0014300942698840795,-0.00786582096457821,-0.0013100033791813993
0.3225,0.0004538080595000595,-0.7844583115,0.0002782734805000492,-2.3563326050000004,0.0001644057690000147,1.571066495,0.7862913815000001,0.03999994195,0.0399999593,-9.901017796608112,-0.21670578226866266,0.11124312751002516,0.0006551540114291248,-0.00804294032191651,-0.0019171574888746444
0.325,0.00046191201500005993,-0.784447315,0.0002849832550000496,-2.3563425500000004,0.0001664090100000148,1.57106915,0.7862996150000001,0.0399999415,0.039999959,-9.881285813213811,-0.23067973020178878,0.007143147898122537,-0.00011978624702582968,-0.00822005967925481,-0.0025243115985678897
0.3275,0.0004700159705000604,-0.7844363185,0.00029169302950005,-2.3563524950000003,0.00016841225100001493,1.571071805,0.7863078485,0.03999994105,0.039999958700000005,-9.86155382981951,-0.24465367813491484,-0.09695683171378006,-0.0008947265054807842,-0.00839717903659311,-0.0031314657082611346
0.33,0.0004781199260000609,-0.7844253219999999,0.0002984028040000504,-2.3563624400000003,0.00017041549200001504,1.57107446,0.786316082,0.0399999406,0.0399999584,-9.841821846425209,-0.25862762606804096,-0.2010568113256827,-0.0016696667639357387,-0.00857429839393141,-0.00373861981795438
0.3325,0.00048622388150006135,-0.7844143255,0.0003051125785000508,-2.3563723850000002,0.00017241873300001518,1.571077115,0.7863243155,0.039999940149999996,0.0399999581,-9.822089863030907,-0.272601574001167,-0.30515679093758524,-0.002444607022390693,-0.00875141775126971,-0.004345773927647625
0.335,0.0004950517300000701,-0.7844028569999999,0.000312419968000058,-2.35638303,0.0001746000680000173,1.57108,0.786333277,0.03999994,0.039999958200000005,-9.809997579210702,-0.26821820915425126,-0.2846672914937286,-0.0025983034942140236,-0.008313280909941713,-0.004361244922438853
0.3375,0.0005042415250000707,-0.7843911524999999,0.00032002616500005843,-2.356394025,0.00017687045000001745,1.571083,0.7863426025000001,0.03999994,0.0399999585,-9.801725145177413,-0.2546561879176279,-0.20188305252411892,-0.002441378072732144,-0.00756751596929107,-0.0040808743597891715
0.34,0.0005134313200000712,-0.7843794479999999,0.0003276323620000589,-2.35640502,0.0001791408320000176,1.571086,0.7863519280000001,0.03999994,0.0399999588,-9.793452711144123,-0.2410941666810045,-0.11909881355450924,-0.0022844526512502653,-0.006821751028640428,-0.00380050379713949
0.3425,0.0005226211150000717,-0.7843677434999999,0.0003352385590000593,-2.356416015,0.00018141121400001771,1.5710890000000002,0.7863612535000001,0.03999994,0.0399999591,-9.785180277110834,-0.22753214544438113,-0.03631457458489956,-0.0021275272297683863,-0.006075986087989784,-0.0035201332344898086
0.34500000000000003,0.0005318109100000722,-0.784356039,0.0003428447560000598,-2.35642701,0.00018368159600001786,1.5710920000000002,0.7863705790000001,0.03999994,0.0399999594,-9.776907843077547,-0.21397012420775774,0.04646966438471012,-0.001970601808286507,-0.005330221147339141,-0.0032397626718401276
0.34750000000000003,0.0005410007050000728,-0.7843443344999999,0.0003504509530000602,-2.3564380050000002,0.00018595197800001797,1.5710950000000001,0.7863799045000001,0.03999994,0.039999959700000004,-9.768635409044258,-0.20040810297113437,0.1292539033543198,-0.001813676386804628,-0.0045844562066884986,-0.0029593921091904465
0.35000000000000003,0.0005501905000000826,-0.7843326299999999,0.00035805715000006825,-2.356449,0.0001882223600000204,1.571098,0.7863892300000002,0.03999994,0.03999996,-9.760362975010976,-0.18684608173463682,0.21203814232303114,-0.0016567509653219268,-0.0038386912660511897,-0.002679021546546361
0.3525,0.0005605419250000874,-0.7843201154999999,0.0003666222235000722,-2.3564605050000003,0.00019077857450002157,1.571101555,0.7863997180000001,0.03999994045,0.0399999615,-9.753081831870169,-0.18906789517019473,0.18212567621362064,-0.001396664182178259,-0.004765771716730078,-0.0031006534481963707
0.355,0.0005708933500000923,-0.7843076009999999,0.00037518729700007636,-2.35647201,0.00019333478900002282,1.5711051100000002,0.7864102060000001,0.0399999409,0.039999963,-9.745800688729362,-0.19128970860575273,0.15221321010420943,-0.0011365773990345853,-0.005692852167408987,-0.0035222853498463897
0.3575,0.0005812447750000974,-0.7842950864999999,0.0003837523705000805,-2.3564835150000003,0.00019589100350002404,1.5711086650000001,0.7864206940000001,0.03999994135,0.0399999645,-9.738519545588556,-0.1935115220413107,0.12230074399479825,-0.0008764906158909117,-0.006619932618087895,-0.003943917251496409
0.36,0.0005915962000001023,-0.7842825719999998,0.00039231744400008463,-2.35649502,0.00019844721800002526,1.57111222,0.7864311820000002,0.0399999418,0.039999966000000005,-9.731238402447747,-0.19573333547686866,0.09238827788538706,-0.0006164038327472381,-0.007547013068766804,-0.004365549153146428
0.3625,0.0006019476250001074,-0.7842700574999999,0.00040088251750008876,-2.3565065250000004,0.00020100343250002652,1.571115775,0.7864416700000001,0.039999942250000003,0.039999967500000004,-9.72395725930694,-0.19795514891242663,0.06247581177597586,-0.0003563170496035644,-0.008474093519445712,-0.004787181054796447
0.365,0.0006122990500001123,-0.7842575429999998,0.00040944759100009295,-2.35651803,0.00020355964700002774,1.57111933,0.7864521580000001,0.039999942700000006,0.039999969,-9.716676116166134,-0.2001769623479846,0.032563345666564686,-9.623026645989093e-05,-0.009401173970124622,-0.0052088129564464665
0.3675,0.000623062998000128,-0.7842447249999999,0.00041835312600010596,-2.3565297750000003,0.00020621735050003163,1.571122995,0.7864630660000002,0.039999943200000006,0.039999970350000004,-9.721893289037574,-0.18925913414169768,0.012904377326520392,2.2412658460353342e-05,-0.009908260571749655,-0.005242846237735973
0.37,0.0006346519920001238,-0.7842312999999999,0.0004279395840001024,-2.356542,0.00020907803200003057,1.57112688,0.7864748140000001,0.0399999438,0.0399999714,-9.752107093932253,-0.15206202265304264,0.01375240452417854,-0.00014183213305203382,-0.009575359475309183,-0.004501682278343441
0.3725,0.0006462409860001195,-0.7842178749999998,0.00043752604200009886,-2.3565542250000004,0.00021193871350002952,1.571130765,0.7864865620000001,0.0399999444,0.039999972450000004,-9.782320898826933,-0.11486491116438757,0.014600431721836688,-0.00030607692456442097,-0.009242458378868711,-0.003760518318950909
0.375,0.0006578299800001153,-0.7842044499999998,0.00044711250000009536,-2.3565664500000003,0.00021479939500002846,1.57113465,0.7864983100000001,0.039999945,0.0399999735,-9.812534703721612,-0.07766779967573254,0.015448458919494834,-0.00047032171607680815,-0.008909557282428239,-0.0030193543595583776
0.3775,0.000669418974000111,-0.7841910249999998,0.0004566989580000918,-2.356578675,0.00021766007650002742,1.571138535,0.7865100580000001,0.0399999456,0.03999997455,-9.84274850861629,-0.04047068818707747,0.01629648611715298,-0.0006345665075891953,-0.008576656185987765,-0.0022781904001658456
0.38,0.0006810079680001068,-0.7841775999999999,0.00046628541600008826,-2.3565909,0.00022052075800002636,1.57114242,0.7865218060000001,0.039999946200000004,0.0399999756,-9.87296231351097,-0.0032735766984224313,0.01714451331481113,-0.0007988112991015824,-0.008243755089547293,-0.001537026440773314
0.3825,0.0006925969620001025,-0.7841641749999999,0.00047587187400008476,-2.356603125,0.0002233814395000253,1.571146305,0.786533554,0.0399999468,0.03999997665,-9.903176118405648,0.03392353479023261,0.017992540512469277,-0.0009630560906139696,-0.007910853993106821,-0.0007958624813807821
0.385,0.000705061644000113,-0.7841500799999999,0.00048618096700009345,-2.35661612,0.0002264575280000279,1.5711503900000001,0.786546178,0.0399999473,0.0399999777,-9.886587188674971,0.060693866055742576,0.04852831881685593,-0.0014132085146093742,-0.007516778580219831,-0.0006494228205207717
0.3875,0.0007179641700001138,-0.7841356499999999,0.0004968513775000941,-2.3566295000000004,0.00022964132000002807,1.571154575,0.7865592400000001,0.03999994775,0.03999997875,-9.846596891632535,0.08225080720988456,0.09390797267402443,-0.002006314754840678,-0.0070921160091107814,-0.0008003453089153554
0.39,0.0007308666960001145,-0.7841212199999998,0.0005075217880000947,-2.3566428800000003,0.00023282511200002826,1.57115876,0.7865723020000001,0.0399999482,0.0399999798,-9.806606594590097,0.10380774836402654,0.13928762653119292,-0.002599420995071983,-0.006667453438001732,-0.0009512677973099391
0.3925,0.0007437692220001153,-0.7841067899999999,0.0005181921985000953,-2.3566562600000003,0.00023600890400002843,1.571162945,0.7865853640000001,0.03999994865,0.03999998085,-9.76661629754766,0.1253646895181685,0.18466728038836142,-0.0031925272353032874,-0.0062427908668926824,-0.0011021902857045228
0.395,0.0007566717480001159,-0.7840923599999999,0.0005288626090000959,-2.3566696400000002,0.0002391926960000286,1.57116713,0.7865984260000001,0.0399999491,0.0399999819,-9.726626000505222,0.14692163067231048,0.23004693424552994,-0.003785633475534592,-0.0058181282957836325,-0.0012531127740991067
0.3975,0.0007695742740001167,-0.7840779299999999,0.0005395330195000966,-2.35668302,0.0002423764880000288,1.5711713150000002,0.7866114880000001,0.03999994955,0.03999998295,-9.686635703462786,0.16847857182645248,0.27542658810269843,-0.004378739715765896,-0.005393465724674583,-0.0014040352624936903
0.4,0.0007824768000001301,-0.7840634999999999,0.0005502034300001075,-2.3566964,0.0002455602800000321,1.5711755,0.7866245500000001,0.03999995,0.039999984,-9.646645406421182,0.19003551298016114,0.32080624195943397,-0.004971845955991396,-0.004968803153561688,-0.00155495775088542
0.4025,0.000796768599000131,-0.7840480349999999,0.0005620201405001083,-2.3567109200000003,0.0002490858575000323,1.571180225,0.7866390175000001,0.0399999506,0.0399999846,-9.698373363493513,0.16399621092768793,0.31862914957742683,-0.004927442305655729,-0.0041216245882835685,-0.0013923952607788706
0.405,0.0008110603980001317,-0.7840325699999999,0.0005738368510001089,-2.3567254400000004,0.0002526114350000325,1.5711849500000001,0.7866534850000001,0.0399999512,0.039999985200000004,-9.750101320565843,0.1379569088752147,0.3164520571954197,-0.004883038655320061,-0.0032744460230054494,-0.0012298327706723212
0.40750000000000003,0.0008253521970001326,-0.7840171049999999,0.0005856535615001096,-2.35673996,0.00025613701250003267,1.571189675,0.7866679525000001,0.039999951799999996,0.0399999858,-9.801829277638173,0.11191760682274147,0.31427496481341255,-0.004838635004984393,-0.0024272674577273303,-0.001067270280565772
0.41000000000000003,0.0008396439960001334,-0.7840016399999998,0.0005974702720001103,-2.35675448,0.0002596625900000329,1.5711944,0.7866824200000001,0.0399999524,0.0399999864,-9.853557234710506,0.08587830477026825,0.3120978724314054,-0.004794231354648726,-0.0015800888924492112,-0.0009047077904592225
0.41250000000000003,0.0008539357950001343,-0.7839861749999999,0.000609286982500111,-2.356769,0.0002631881675000331,1.5711991250000001,0.7866968875000001,0.039999953,0.039999987,-9.905285191782836,0.05983900271779505,0.30992078004939827,-0.004749827704313058,-0.0007329103271710921,-0.0007421453003526731
0.41500000000000004,0.0008682275940001351,-0.7839707099999998,0.0006211036930001116,-2.35678352,0.0002667137450000333,1.57120385,0.7867113550000001,0.0399999536,0.0399999876,-9.957013148855166,0.033799700665321813,0.30774368766739113,-0.004705424053977391,0.00011426823810702699,-0.0005795828102461237
0.4175,0.0008830076520001495,-0.7839548629999998,0.0006333232400001235,-2.35679842,0.0002703593815000368,1.5712087650000002,0.7867263150000001,0.0399999542,0.03999998835,-9.98334864367528,0.029673200382921934,0.2887360072498022,-0.004634261690872167,0.0005373875738168186,-0.0005803692247685514
0.42,0.0008987642280001504,-0.7839382519999999,0.0006463484600001243,-2.35681408,0.0002742451360000371,1.57121406,0.7867422600000001,0.0399999548,0.0399999894,-9.958899213993126,0.06937230363880001,0.23606715076248347,-0.00450958190223011,0.00011238845042614402,-0.0009078534485350053
0.4225,0.0009145208040001513,-0.7839216409999998,0.000659373680000125,-2.35682974,0.0002781308905000373,1.571219355,0.7867582050000002,0.0399999554,0.03999999045,-9.934449784310972,0.10907140689467808,0.18339829427516474,-0.0043849021135880534,-0.0003126106729645305,-0.0012353376723014593
0.425,0.0009302773800001522,-0.7839050299999999,0.0006723989000001258,-2.3568454,0.00028201664500003754,1.57122465,0.7867741500000002,0.039999956,0.039999991500000005,-9.910000354628819,0.14877051015055615,0.130729437787846,-0.004260222324945996,-0.000737609796355205,-0.001562821896067913
0.4275,0.0009460339560001532,-0.7838884189999998,0.0006854241200001265,-2.35686106,0.00028590239950003775,1.571229945,0.7867900950000002,0.0399999566,0.03999999255,-9.885550924946664,0.1884696134064342,0.07806058130052726,-0.004135542536303939,-0.0011626089197458796,-0.001890306119834367
0.43,0.000961790532000154,-0.7838718079999999,0.0006984493400001273,-2.3568767200000003,0.000289788154000038,1.57123524,0.7868060400000002,0.0399999572,0.039999993600000006,-9.86110149526451,0.22816871666231228,0.025391724813208505,-0.004010862747661882,-0.0015876080431365541,-0.002217790343600821
0.4325,0.0009775471080001549,-0.7838551969999998,0.000711474560000128,-2.35689238,0.0002936739085000382,1.571240535,0.7868219850000001,0.0399999578,0.03999999465,-9.836652065582356,0.26786781991819036,-0.027277131674110222,-0.0038861829590198242,-0.0020126071665272287,-0.002545274567367275
0.435,0.0009943302700001712,-0.7838377139999998,0.0007253466850001413,-2.3569088000000002,0.0002978123800000422,1.57124621,0.7868389600000002,0.039999958,0.0399999955,-9.776315670357658,0.26595491367749224,-0.04216452006543381,-0.003800251328989892,-0.0027582049776044494,-0.0026211062947920655
0.4375,0.0010116267250001722,-0.7838197949999999,0.0007396422625001422,-2.3569256000000003,0.00030207721000004246,1.571252075,0.7868564500000002,0.039999958,0.03999999625,-9.69803579236248,0.2432360026894284,-0.03816117440959722,-0.003733693778265163,-0.003664102132517837,-0.002571111774051603
0.44,0.0010289231800001731,-0.7838018759999998,0.000753937840000143,-2.3569424000000003,0.0003063420400000427,1.57125794,0.7868739400000002,0.039999958,0.039999997,-9.619755914367305,0.22051709170136458,-0.034157828753760645,-0.003667136227540434,-0.004569999287431225,-0.0025211172533111397
0.4425,0.0010462196350001741,-0.7837839569999998,0.0007682334175001438,-2.3569592000000004,0.00031060687000004293,1.571263805,0.7868914300000002,0.039999958,0.03999999775,-9.541476036372128,0.19779818071330074,-0.030154483097924064,-0.003600578676815705,-0.0054758964423446115,-0.002471122732570677
0.445,0.001063516090000175,-0.7837660379999999,0.0007825289950001447,-2.356976,0.00031487170000004316,1.57126967,0.7869089200000002,0.039999958,0.0399999985,-9.463196158376952,0.1750792697252369,-0.026151137442087483,-0.0035340211260909767,-0.0063817935972579985,-0.002421128211830214
0.4475,0.001080812545000176,-0.7837481189999999,0.0007968245725001455,-2.3569928,0.0003191365300000434,1.571275535,0.7869264100000002,0.039999958,0.03999999925,-9.384916280381775,0.15236035873717307,-0.0221477917862509,-0.0034674635753662478,-0.007287690752171386,-0.002371133691089751
0.45,0.0010981090000001937,-0.7837301999999998,0.0008111201500001599,-2.3570096,0.0003234013600000477,1.5712814,0.7869439000000003,0.039999958,0.04,-9.306636402387893,0.12964144774937816,-0.018144446130522338,-0.003400906024647422,-0.008193587907060406,-0.002321139170351847
0.4525,0.0011170199650001947,-0.7837110239999998,0.0008267475775001608,-2.357027705,0.000328063025500048,1.571287805,0.7869630250000003,0.039999958,0.04,-9.354748960048724,0.13319282983082095,-0.024693510880468287,-0.003911045582421916,-0.006719035551175251,-0.0025211002976905134
0.455,0.0011359309300001958,-0.7836918479999998,0.0008423750050001618,-2.3570458100000002,0.00033272469100004826,1.57129421,0.7869821500000002,0.039999958,0.04,-9.402861517709555,0.13674421191226374,-0.031242575630414236,-0.004421185140196411,-0.005244483195290096,-0.00272106142502918
0.4575,0.0011548418950001968,-0.7836726719999999,0.0008580024325001627,-2.3570639150000003,0.0003373863565000485,1.571300615,0.7870012750000002,0.039999958,0.04,-9.450974075370388,0.14029559399370653,-0.03779164038036018,-0.004931324697970906,-0.003769930839404941,-0.0029210225523678465
0.46,0.001173752860000198,-0.7836534959999999,0.0008736298600001635,-2.3570820200000004,0.00034204802200004877,1.57130702,0.7870204000000002,0.039999958,0.04,-9.499086633031219,0.14384697607514932,-0.044340705130306135,-0.005441464255745401,-0.0022953784835197857,-0.003120983679706513
0.4625,0.001192663825000199,-0.7836343199999999,0.0008892572875001645,-2.357100125,0.0003467096875000491,1.571313425,0.7870395250000002,0.039999958,0.04,-9.54719919069205,0.1473983581565921,-0.05088976988025208,-0.005951603813519894,-0.0008208261276346305,-0.0033209448070451795
0.465,0.0012115747900002,-0.7836151439999999,0.0009048847150001654,-2.35711823,0.00035137135300004934,1.57131983,0.7870586500000002,0.039999958,0.04,-9.59531174835288,0.15094974023803492,-0.05743883463019803,-0.006461743371294389,0.0006537262282505247,-0.003520905934383846
0.4675,0.001231048565000216,-0.7835954919999998,0.0009209764100001787,-2.3571367350000005,0.0003561722185000533,1.5713264200000001,0.7870783400000002,0.0399999578,0.03999999975,-9.64393314801095,0.1646774976844756,-0.06974119486364058,-0.006792674733630217,0.0015319754833097898,-0.003716222007752458
0.47000000000000003,0.0012516479600002085,-0.7835748879999999,0.0009379966400001724,-2.3571560400000005,0.00036125148400005145,1.57133338,0.7870991600000001,0.0399999572,0.039999999,-9.693572231663447,0.19875800585993925,-0.09355014606352638,-0.006765189705105842,0.0012176185367742756,-0.0039022479731814046
0.47250000000000003,0.0012722473550002011,-0.7835542839999998,0.0009550168700001661,-2.3571753450000004,0.0003663307495000496,1.5713403400000001,0.7871199800000002,0.0399999566,0.03999999825,-9.743211315315945,0.2328385140354029,-0.1173590972634122,-0.006737704676581467,0.0009032615902387614,-0.004088273938610351
0.47500000000000003,0.0012928467500001935,-0.7835336799999998,0.0009720371000001599,-2.3571946500000003,0.0003714100150000477,1.5713473,0.7871408000000002,0.039999955999999996,0.0399999975,-9.792850398968442,0.26691902221086655,-0.141168048463298,-0.006710219648057092,0.0005889046437032473,-0.004274299904039297
0.47750000000000004,0.001313446145000186,-0.7835130759999999,0.0009890573300001535,-2.357213955,0.00037648928050004586,1.5713542600000001,0.7871616200000001,0.0399999554,0.03999999675,-9.842489482620941,0.3009995303863302,-0.1649769996631838,-0.006682734619532718,0.00027454769716773325,-0.004460325869468243
0.48,0.0013340455400001779,-0.7834924719999998,0.001006077560000147,-2.35723326,0.0003815685460000439,1.57136122,0.7871824400000001,0.0399999548,0.039999996,-9.892128566273437,0.3350800385617931,-0.1887859508630691,-0.006655249591008343,-3.980924936777407e-05,-0.004646351834897186
0.4825,0.0013546449350001703,-0.7834718679999998,0.0010230977900001408,-2.357252565,0.000386647811500042,1.5713681800000001,0.7872032600000002,0.0399999542,0.03999999525,-9.941767649925934,0.36916054673725673,-0.2125949020629549,-0.006627764562483968,-0.0003541661959032883,-0.004832377800326132
0.485,0.0013764189900001894,-0.7834502799999998,0.0010410868900001563,-2.3572731200000003,0.00039201590000004666,1.57137553,0.7872252650000001,0.039999954,0.0399999955,-9.957382823548144,0.3254115944491129,-0.18569647949019757,-0.0063692625830586444,-0.00015323868631495852,-0.004831950516819267
0.4875,0.0013987803750002002,-0.7834281999999998,0.0010595604250001652,-2.3572943,0.0003975284000000493,1.5713830750000002,0.7872478625000002,0.039999954,0.03999999625,-9.955986042155835,0.24274791193059098,-0.13344437003204748,-0.0059952521281870785,0.0003053310513258534,-0.004738296608847912
0.49,0.0014211417600002109,-0.7834061199999998,0.0010780339600001743,-2.35731548,0.00040304090000005204,1.57139062,0.7872704600000002,0.039999954,0.039999997,-9.954589260763527,0.16008422941206907,-0.08119226057389742,-0.005621241673315512,0.0007639007889666655,-0.0046446427008765565
0.4925,0.0014435031450002217,-0.7833840399999997,0.0010965074950001832,-2.35733666,0.0004085534000000547,1.5713981650000002,0.7872930575000002,0.039999954,0.03999999775,-9.953192479371216,0.07742054689354716,-0.028940151115747326,-0.005247231218443946,0.0012224705266074775,-0.004550988792905201
0.495,0.0014658645300002326,-0.7833619599999997,0.0011149810300001921,-2.35735784,0.00041406590000005736,1.57140571,0.7873156550000002,0.039999954,0.0399999985,-9.951795697978907,-0.0052431356249747485,0.02331195834240274,-0.00487322076357238,0.0016810402642482894,-0.004457334884933846
0.4975,0.0014882259150002435,-0.7833398799999998,0.001133454565000201,-2.35737902,0.00041957840000006,1.5714132550000002,0.7873382525000002,0.039999954,0.03999999925,-9.950398916586597,-0.08790681814349666,0.07556406780055283,-0.004499210308700814,0.0021396100018891014,-0.004363680976962491
0.5,0.0015105873000002751,-0.7833177999999997,0.0011519281000002273,-2.3574002000000003,0.0004250909000000678,1.5714208,0.7873608500000003,0.039999954,0.04,-9.949002135194068,-0.17057050066081794,0.12781617725816818,-0.004125199853839306,0.002598179739517013,-0.004270027068988912
0.5025000000000001,0.001534783290000277,-0.7832940999999997,0.0011719147150002288,-2.357422685,0.00043105121900006825,1.571428945,0.7873852925000003,0.03999995295,0.04,-9.92818499229089,-0.14762730120175763,0.13303092626957808,-0.0046359402390415624,0.001922014968582734,-0.003980799961328864
0.505,0.0015589792800002778,-0.7832703999999997,0.0011919013300002296,-2.35744517,0.0004370115380000685,1.57143709,0.7874097350000003,0.0399999519,0.04,-9.907367849387713,-0.12468410174269831,0.13824567528098777,-0.005146680624243795,0.001245850197648485,-0.0036915728536688285
0.5075000000000001,0.0015831752700002798,-0.7832466999999996,0.001211887945000231,-2.357467655,0.00044297185700006896,1.571445235,0.7874341775000003,0.03999995085,0.04,-9.886550706484535,-0.10174090228363797,0.14346042429239766,-0.005657421009446051,0.000569685426714206,-0.00340234574600878
0.51,0.0016073712600002807,-0.7832229999999997,0.001231874560000232,-2.3574901400000003,0.00044893217600006915,1.5714533800000001,0.7874586200000003,0.0399999498,0.04,-9.865733563581356,-0.07879770282457865,0.14867517330380733,-0.006168161394648285,-0.00010647934422004313,-0.003113118638348745
0.5125,0.0016315672500002815,-0.7831992999999997,0.0012518611750002326,-2.3575126250000005,0.0004548924950000694,1.5714615250000001,0.7874830625000003,0.03999994875,0.04,-9.84491642067818,-0.05585450336551934,0.153889922315217,-0.006678901779850517,-0.0007826441151542922,-0.0028238915306887094
0.515,0.0016557632400002833,-0.7831755999999996,0.0012718477900002343,-2.35753511,0.00046085281400006986,1.5714696700000002,0.7875075050000003,0.0399999477,0.04,-9.824099277775002,-0.032911303906458994,0.15910467132662692,-0.007189642165052773,-0.0014588088860885712,-0.0025346644230286614
0.5175,0.0016805946550003067,-0.7831513714999997,0.0012923585100002534,-2.3575580650000005,0.0004669697570000756,1.5714780300000002,0.7875325920000003,0.03999994665,0.04,-9.814721177134675,-0.009556256949192135,0.16124904778278965,-0.0074365629077439216,-0.001595471073042137,-0.0022522178681783204
0.52,0.0017066969200003087,-0.7831260859999997,0.0013139174400002551,-2.3575819600000005,0.0004733999480000761,1.57148682,0.7875589680000004,0.0399999456,0.04,-9.82822116101884,0.014622485004447447,0.15725267912878263,-0.007155844365440759,-0.0006531280920912916,-0.0019833324189466386
0.5225,0.0017327991850003097,-0.7831008004999996,0.0013354763700002558,-2.3576058550000005,0.0004798301390000763,1.5714956100000002,0.7875853440000004,0.03999994455,0.04,-9.841721144903003,0.03880122695808595,0.1532563104747758,-0.0068751258231376094,0.0002892148888595117,-0.0017144469697149695
0.525,0.0017589014500003118,-0.7830755149999997,0.0013570353000002576,-2.3576297500000005,0.0004862603300000768,1.5715044,0.7876117200000003,0.039999943499999996,0.04,-9.855221128787168,0.06297996891172554,0.1492599418207688,-0.006594407280834447,0.001231557869810357,-0.0014455615204832877
0.5275,0.0017850037150003127,-0.7830502294999997,0.0013785942300002583,-2.3576536450000005,0.0004926905210000771,1.5715131900000001,0.7876380960000003,0.03999994245,0.04,-9.868721112671333,0.08715871086536404,0.14526357316676197,-0.0063136887385312965,0.0021739008507611606,-0.0011766760712516183
0.53,0.0018111059800003148,-0.7830249439999997,0.0014001531600002601,-2.3576775400000005,0.0004991207120000776,1.5715219800000002,0.7876644720000003,0.039999941399999996,0.04,-9.882221096555497,0.11133745281900362,0.14126720451275498,-0.006032970196228135,0.003116243831712006,-0.0009077906220199368
0.5325,0.0018372082450003157,-0.7829996584999998,0.0014217120900002608,-2.3577014350000005,0.0005055509030000778,1.57153077,0.7876908480000003,0.03999994035,0.04,-9.89572108043966,0.13551619477264212,0.13727083585874816,-0.005752251653924984,0.00405858681266281,-0.0006389051727882671
0.535,0.0018646286000003418,-0.7829732229999997,0.0014443581700002823,-2.3577265900000004,0.0005123060540000843,1.5715400200000003,0.7877185460000004,0.0399999396,0.0399999995,-9.871177411699579,0.12906191505877324,0.10360348310626664,-0.006073483932290797,0.004197444173161969,-0.0011852830314684369
0.5375,0.001892708000000343,-0.7829462124999997,0.0014675478250002832,-2.3577523750000005,0.0005192236850000845,1.5715495000000002,0.7877469050000003,0.039999939,0.03999999875,-9.827611916648411,0.10729112451198669,0.05510063830535941,-0.0066956916209746494,0.003934558723457215,-0.0021392925440822507
0.54,0.001920787400000345,-0.7829192019999996,0.001490737480000285,-2.3577781600000005,0.0005261413160000851,1.5715589800000003,0.7877752640000004,0.0399999384,0.039999998,-9.784046421597242,0.08552033396519915,0.006597793504450028,-0.007317899309658529,0.003671673273752449,-0.003093302056696107
0.5425,0.0019488668000003462,-0.7828921914999997,0.0015139271350002859,-2.357803945,0.0005330589470000853,1.5715684600000002,0.7878036230000004,0.039999937799999996,0.03999999725,-9.740480926546075,0.06374954341841259,-0.04190505129645722,-0.007940106998342382,0.0034087878240476946,-0.004047311569309922
0.545,0.001976946200000348,-0.7828651809999997,0.0015371167900002877,-2.35782973,0.0005399765780000858,1.5715779400000003,0.7878319820000004,0.0399999372,0.0399999965,-9.696915431494906,0.04197875287162507,-0.0904078960973666,-0.00856231468702626,0.003145902374342928,-0.005001321081923777
0.5475,0.0020050256000003494,-0.7828381704999996,0.0015603064450002886,-2.3578555150000002,0.000546894209000086,1.5715874200000002,0.7878603410000004,0.0399999366,0.03999999575,-9.653349936443739,0.020207962324838513,-0.13891074089827385,-0.009184522375710113,0.002883016924638174,-0.005955330594537591
0.55,0.002033105000000377,-0.7828111599999996,0.0015834961000003116,-2.3578813000000003,0.0005538118400000929,1.5715969000000003,0.7878887000000003,0.039999936,0.039999995,-9.609784441393009,-0.0015628282220700694,-0.1874135856984396,-0.009806730064388784,0.0026201314749403305,-0.006909340107129826
0.5525,0.002063231750000378,-0.7827823269999996,0.0016083741550003124,-2.3579086300000003,0.0005612300540000932,1.5716070550000003,0.7879191260000004,0.0399999351,0.039999995,-9.601266556600233,-0.03299775928221286,-0.17653724106727958,-0.01001298582471663,0.002910014956718631,-0.0061368255512894735
0.555,0.0020933585000003805,-0.7827534939999996,0.0016332522100003144,-2.3579359600000003,0.0005686482680000937,1.57161721,0.7879495520000004,0.039999934200000004,0.039999995,-9.592748671807458,-0.06443269034235705,-0.16566089643611906,-0.010219241585044487,0.0031998984384969437,-0.005364310995449087
0.5575,0.002123485250000382,-0.7827246609999996,0.0016581302650003154,-2.3579632900000003,0.000576066482000094,1.571627365,0.7879799780000004,0.0399999333,0.039999995,-9.584230787014683,-0.09586762140249983,-0.15478455180495904,-0.010425497345372335,0.003489781920275244,-0.004591796439608734
0.56,0.0021536120000003843,-0.7826958279999996,0.0016830083200003172,-2.3579906200000003,0.0005834846960000946,1.5716375200000001,0.7880104040000004,0.0399999324,0.039999995,-9.575712902221907,-0.127302552462644,-0.14390820717379854,-0.01063175310570019,0.0037796654020535573,-0.003819281883768348
0.5625,0.0021837387500003853,-0.7826669949999996,0.0017078863750003182,-2.3580179500000003,0.0005909029100000948,1.5716476750000001,0.7880408300000005,0.0399999315,0.039999995,-9.567195017429132,-0.15873748352278677,-0.13303186254263852,-0.010838008866028039,0.004069548883831858,-0.0030467673279279952
0.5650000000000001,0.002213865500000388,-0.7826381619999996,0.00173276443000032,-2.3580452800000002,0.0005983211240000954,1.5716578300000001,0.7880712560000004,0.039999930600000004,0.039999995,-9.558677132636355,-0.19017241458293097,-0.12215551791147802,-0.011044264626355894,0.0043594323656101705,-0.0022742527720876083
0.5675,0.0022446976600004162,-0.7826087229999996,0.0017582242250003435,-2.3580732500000003,0.0006059128050001024,1.5716682150000003,0.7881023930000004,0.03999992975,0.03999999525,-9.55391098775296,-0.20084105241672595,-0.11560046617265982,-0.010968017362230815,0.004316180939400933,-0.0018889249673516508
0.5700000000000001,0.002276940640000419,-0.7825780719999996,0.0017848475000003456,-2.3581025,0.0006138514200001031,1.5716790600000001,0.7881349520000005,0.039999929000000004,0.039999996,-9.556648322687893,-0.1699771038002338,-0.1176880002180239,-0.010326764049232634,0.003606659697255247,-0.002277970664779572
0.5725,0.00230918362000042,-0.7825474209999996,0.0018114707750003466,-2.3581317500000005,0.0006217900350001033,1.5716899050000002,0.7881675110000005,0.039999928250000004,0.03999999675,-9.559385657622826,-0.13911315518374298,-0.11977553426338791,-0.009685510736234481,0.002897138455109592,-0.0026670163622074757
0.5750000000000001,0.0023414266000004224,-0.7825167699999995,0.0018380940500003487,-2.3581610000000004,0.000629728650000104,1.5717007500000002,0.7882000700000005,0.0399999275,0.0399999975,-9.562122992557759,-0.10824920656725082,-0.121863068308752,-0.0090442574232363,0.002187617212963905,-0.003056062059635397
0.5775,0.0023736695800004237,-0.7824861189999995,0.0018647173250003497,-2.3581902500000003,0.0006376672650001043,1.5717115950000002,0.7882326290000005,0.03999992675,0.03999999825,-9.564860327492692,-0.07738525795076001,-0.123950602354116,-0.008403004110238147,0.00147809597081825,-0.0034451077570633007
0.58,0.002405912560000425,-0.7824554679999995,0.0018913406000003507,-2.3582195,0.0006456058800001045,1.5717224400000003,0.7882651880000004,0.039999926,0.039999999,-9.567597662427625,-0.046521309334269206,-0.12603813639948,-0.007761750797239994,0.0007685747286725951,-0.0038341534544912045
0.5825,0.0024381555400004276,-0.7824248169999996,0.001917963875000353,-2.35824875,0.0006535444950001052,1.5717332850000003,0.7882977470000004,0.03999992525,0.03999999975,-9.570334997362558,-0.01565736071777704,-0.12812567044484408,-0.007120497484241812,5.9053486526908054e-05,-0.004223199151919125
0.585,0.0024718547300004575,-0.7823928699999996,0.0019457880300003778,-2.3582791700000003,0.0006618427200001126,1.5717446100000003,0.7883317800000005,0.0399999245,0.0399999995,-9.594352185117542,-0.024181307980133335,-0.13018602978923602,-0.007524945516722411,0.00028086570319984464,-0.004378385712424008
0.5875,0.0025062820250004603,-0.7823602749999995,0.00197421262500038,-2.358310175,0.0006703207500001133,1.5717561750000002,0.7883665500000004,0.03999992375,0.03999999875,-9.629009299281918,-0.052399203180739,-0.1322328017831428,-0.00845224422191122,0.0009683446492543145,-0.004416642704474362
0.59,0.0025407093200004614,-0.7823276799999995,0.002002637220000381,-2.3583411800000005,0.0006787987800001136,1.5717677400000003,0.7884013200000005,0.039999923,0.039999998,-9.663666413446293,-0.0806170983813434,-0.13427957377704952,-0.009379542927099988,0.001655823595308754,-0.004454899696524713
0.5925,0.002575136615000464,-0.7822950849999996,0.0020310618150003834,-2.3583721850000003,0.0006872768100001143,1.5717793050000002,0.7884360900000005,0.03999992225,0.03999999725,-9.69832352761067,-0.10883499358194906,-0.13632634577095631,-0.010306841632288797,0.002343302541363224,-0.004493156688575066
0.595,0.0026095639100004652,-0.7822624899999996,0.0020594864100003845,-2.35840319,0.0006957548400001145,1.5717908700000003,0.7884708600000006,0.0399999215,0.0399999965,-9.732980641775045,-0.13705288878255345,-0.138373117764863,-0.011234140337477565,0.0030307814874176633,-0.004531413680625417
0.5975,0.002643991205000468,-0.7822298949999995,0.002087911005000387,-2.3584341950000005,0.0007042328700001152,1.5718024350000002,0.7885056300000005,0.03999992075,0.03999999575,-9.767637755939422,-0.16527078398315911,-0.14041988975876982,-0.012161439042666373,0.0037182604334721333,-0.00456967067267577
0.6,0.0026784185000005,-0.7821972999999995,0.002116335600000413,-2.3584652000000004,0.000712710900000123,1.5718140000000003,0.7885404000000006,0.03999992,0.039999995,-9.802294870103738,-0.19348867918322918,-0.14246666175257125,-0.013088737747828089,0.004405739379529676,-0.004607927664734267
0.6025,0.002715096845000503,-0.7821627174999995,0.0021466165050004152,-2.3584981700000003,0.0007217400900001238,1.5718263900000002,0.7885774500000006,0.03999991955,0.03999999575,-9.832698433241507,-0.18251340098663044,-0.136792251413604,-0.012031813949858625,0.005320804944009444,-0.005243659325307443
0.605,0.002751775190000504,-0.7821281349999996,0.0021768974100004166,-2.35853114,0.0007307692800001241,1.5718387800000002,0.7886145000000006,0.0399999191,0.0399999965,-9.863101996379275,-0.17153812279003217,-0.131117841074637,-0.010974890151889207,0.006235870508489172,-0.005879390985880591
0.6075,0.002788453535000507,-0.7820935524999996,0.0022071783150004187,-2.3585641100000005,0.0007397984700001248,1.5718511700000002,0.7886515500000005,0.03999991865,0.03999999725,-9.893505559517044,-0.1605628445934334,-0.12544343073566977,-0.009917966353919744,0.00715093607296894,-0.006515122646453766
0.61,0.0028251318800005085,-0.7820589699999996,0.00223745922000042,-2.3585970800000005,0.0007488276600001252,1.5718635600000002,0.7886886000000005,0.039999918200000005,0.039999998,-9.923909122654809,-0.14958756639683513,-0.11976902039670277,-0.008861042555950327,0.008066001637448666,-0.007150854307026914
0.6125,0.0028618102250005115,-0.7820243874999996,0.002267740125000422,-2.3586300500000004,0.000757856850000126,1.5718759500000004,0.7887256500000005,0.03999991775,0.03999999875,-9.954312685792578,-0.13861228820023638,-0.11409461005773552,-0.007804118757980862,0.008981067201928435,-0.00778658596760009
0.615,0.0028984885700005128,-0.7819898049999996,0.0022980210300004235,-2.3586630200000003,0.0007668860400001262,1.5718883400000003,0.7887627000000006,0.0399999173,0.0399999995,-9.984716248930345,-0.12763701000363814,-0.10842019971876854,-0.006747194960011444,0.009896132766408163,-0.008422317628173238
0.6175,0.0029359391600005426,-0.7819545324999996,0.002328938785000448,-2.3586966500000006,0.0007761064600001336,1.5719009700000002,0.7888005200000006,0.03999991715,0.04,-10.000961025550108,-0.11492012268123401,-0.10731301405205362,-0.006279080244140399,0.010427301132451232,-0.00843179430903907
0.62,0.0029749342400005275,-0.7819178799999995,0.0023611302400004357,-2.3587316000000005,0.0007857093400001299,1.5719140800000002,0.7888398800000006,0.039999917600000004,0.04,-9.98888822913565,-0.09872001710743987,-0.11534027772926617,-0.006988583692391797,0.010190675101669398,-0.007188761030569366
0.6225,0.0030139293200005138,-0.7818812274999996,0.0023933216950004243,-2.3587665500000004,0.0007953122200001266,1.5719271900000003,0.7888792400000005,0.03999991805,0.04,-9.97681543272119,-0.082519911533645,-0.12336754140647907,-0.007698087140643226,0.009954049070887556,-0.005945727752099606
0.625,0.0030529244000004987,-0.7818445749999996,0.0024255131500004116,-2.3588015000000007,0.0008049151000001228,1.5719403000000003,0.7889186000000006,0.0399999185,0.04,-9.964742636306733,-0.06631980595985085,-0.1313948050836916,-0.008407590588894624,0.009717423040105724,-0.004702694473629902
0.6275000000000001,0.0030919194800004854,-0.7818079224999995,0.0024577046050004007,-2.3588364500000005,0.0008145179800001195,1.5719534100000003,0.7889579600000005,0.039999918950000005,0.04,-9.952669839892273,-0.050119700386055996,-0.13942206876090452,-0.009117094037146053,0.009480797009323881,-0.0034596611951601425
0.63,0.00313091456000047,-0.7817712699999996,0.002489896060000388,-2.3588714000000004,0.0008241208600001157,1.5719665200000001,0.7889973200000004,0.0399999194,0.04,-9.940597043477814,-0.03391959481226185,-0.1474493324381171,-0.00982659748539745,0.009244170978542047,-0.0022166279166904385
0.6325000000000001,0.0031699096400004565,-0.7817346174999996,0.0025220875150003767,-2.3589063500000003,0.0008337237400001124,1.5719796300000002,0.7890366800000005,0.03999991985,0.04,-9.928524247063354,-0.017719489238466987,-0.15547659611533,-0.01053610093364888,0.009007544947760205,-0.0009735946382206789
0.635,0.0032104923800004917,-0.7816965459999996,0.002555588200000406,-2.3589425800000003,0.000843717890000121,1.5719933000000001,0.7890776400000005,0.03999992,0.04,-9.937594809615192,-0.02545551744502043,-0.15074153088467795,-0.010211808007317693,0.008952206665329369,-0.0013022847952019851
0.6375000000000001,0.0032518689500005125,-0.7816577649999995,0.0025897435000004233,-2.3589794500000005,0.0008539076750001262,1.5720072500000002,0.7891194000000006,0.03999992,0.04,-9.957237051649628,-0.04515961254112512,-0.13962530120042554,-0.009370616893722102,0.008987512257069312,-0.0024168366698679093
0.64,0.003293245520000532,-0.7816189839999995,0.002623898800000439,-2.3590163200000007,0.000864097460000131,1.5720212000000002,0.7891611600000006,0.03999992,0.04,-9.97687929368406,-0.06486370763722892,-0.1285090715161736,-0.008529425780126549,0.009022817848809254,-0.003531388544533784
0.6425,0.003334622090000551,-0.7815802029999995,0.0026580541000004545,-2.3590531900000005,0.0008742872450001357,1.5720351500000003,0.7892029200000006,0.03999992,0.04,-9.996521535718495,-0.08456780273333273,-0.11739284183192168,-0.007688234666530996,0.009058123440549196,-0.004645940419199659
0.645,0.003375998660000572,-0.7815414219999994,0.002692209400000472,-2.3590900600000007,0.0008844770300001408,1.5720491,0.7892446800000006,0.03999992,0.04,-10.01616377775293,-0.10427189782943741,-0.10627661214766926,-0.006847043552935405,0.009093429032289138,-0.005760492293865584
0.6475,0.003417375230000591,-0.7815026409999994,0.0027263647000004875,-2.359126930000001,0.0008946668150001455,1.5720630500000001,0.7892864400000006,0.03999992,0.04,-10.035806019787364,-0.12397599292554122,-0.09516038246341733,-0.006005852439339852,0.00912873462402908,-0.006875044168531458
0.65,0.003458751800000648,-0.7814638599999995,0.0027605200000005345,-2.3591638000000006,0.0009048566000001596,1.5720770000000002,0.7893282000000007,0.03999992,0.04,-10.055448261821367,-0.1436800880208247,-0.08404415277950585,-0.005164661325775575,0.009164040215772485,-0.007989596043174512
0.6525,0.00350257328000065,-0.7814228754999994,0.002796691570000536,-2.3592028300000005,0.0009156476750001599,1.5720918050000001,0.7893724350000006,0.03999991955,0.04,-10.045844708130272,-0.10785280168079756,-0.09598224463768495,-0.006441009111335716,0.009433501200843599,-0.007557738298290078
0.655,0.003546394760000653,-0.7813818909999994,0.002832863140000539,-2.359241860000001,0.0009264387500001608,1.5721066100000003,0.7894166700000007,0.0399999191,0.04,-10.036241154439175,-0.07202551534076883,-0.10792033649586458,-0.007717356896895913,0.009702962185914725,-0.007125880553405624
0.6575,0.003590216240000655,-0.7813409064999994,0.0028690347100005405,-2.359280890000001,0.0009372298250001612,1.5721214150000002,0.7894609050000007,0.03999991865,0.04,-10.026637600748078,-0.0361982290007417,-0.11985842835404367,-0.008993704682456053,0.009972423170985841,-0.006694022808521188
0.66,0.003634037720000658,-0.7812999219999994,0.002905206280000543,-2.359319920000001,0.000948020900000162,1.5721362200000002,0.7895051400000007,0.039999918200000005,0.04,-10.017034047056983,-0.00037094266071296955,-0.13179652021222332,-0.010270052468016249,0.010241884156056967,-0.006262165063636734
0.6625,0.00367785920000066,-0.7812589374999994,0.0029413778500005446,-2.3593589500000007,0.0009588119750001625,1.5721510250000004,0.7895493750000007,0.03999991775,0.04,-10.007430493365886,0.03545634367931416,-0.1437346120704024,-0.01154640025357639,0.010511345141128082,-0.005830307318752299
0.665,0.003721680680000663,-0.7812179529999994,0.0029775494200005477,-2.3593979800000007,0.0009696030500001633,1.5721658300000003,0.7895936100000007,0.0399999173,0.04,-9.99782693967479,0.07128363001934288,-0.15567270392858204,-0.012822748039136588,0.010780806126199208,-0.0053984495738678435
0.6675,0.003766337920000703,-0.7811762234999994,0.00301441011000058,-2.359437760000001,0.000980599540000173,1.5721809050000004,0.7896386825000007,0.0399999168,0.04,-9.995030102733754,0.09254066121053392,-0.16383816209747662,-0.01370462786324644,0.010851391450077042,-0.005242313627744907
0.67,0.003812666680000707,-0.7811330039999993,0.0030526490400005833,-2.359479040000001,0.0009920068600001739,1.5721965200000003,0.7896854300000007,0.0399999162,0.04,-10.005846699291908,0.08465718210604012,-0.16445835288831684,-0.013797571764509537,0.010524225451595431,-0.005637621279107368
0.6725,0.0038589954400007082,-0.7810897844999993,0.0030908879700005847,-2.359520320000001,0.0010034141800001743,1.5722121350000002,0.7897321775000007,0.0399999156,0.04,-10.01666329585006,0.07677370300154668,-0.165078543679157,-0.01389051566577263,0.010197059453113834,-0.006032928930469812
0.675,0.003905324200000712,-0.7810465649999994,0.003129126900000588,-2.3595616000000006,0.0010148215000001753,1.5722277500000004,0.7897789250000007,0.039999915,0.04,-10.027479892408214,0.06889022389705288,-0.16569873446999722,-0.013983459567035728,0.009869893454632224,-0.006428236581832274
0.6775,0.003951652960000713,-0.7810033454999994,0.003167365830000589,-2.3596028800000006,0.0010262288200001757,1.5722433650000003,0.7898256725000007,0.0399999144,0.04,-10.038296488966369,0.061006744792559416,-0.1663189252608374,-0.014076403468298821,0.009542727456150627,-0.006823544233194718
0.68,0.003997981720000717,-0.7809601259999994,0.0032056047600005923,-2.3596441600000007,0.0010376361400001766,1.5722589800000002,0.7898724200000008,0.0399999138,0.04,-10.049113085524521,0.053123265688065614,-0.16693911605167763,-0.014169347369561918,0.009215561457669014,-0.007218851884557179
0.6825,0.0040443104800007195,-0.7809169064999993,0.0032438436900005937,-2.3596854400000007,0.001049043460000177,1.5722745950000003,0.7899191675000008,0.0399999132,0.04,-10.059929682082675,0.04523978658357217,-0.16755930684251782,-0.014262291270825012,0.008888395459187418,-0.0076141595359196235
0.685,0.0040923512200007625,-0.7808721439999994,0.0032834945000006295,-2.3597281300000006,0.001060871870000188,1.5722907800000003,0.7899676550000008,0.0399999127,0.04,-10.045333648025132,-0.02015091576019315,-0.14271138717135975,-0.014113541701474785,0.009256924258689013,-0.007918801708338365
0.6875,0.0041412479500007645,-0.7808266099999993,0.003323851250000631,-2.3597715250000006,0.0010729108250001882,1.5723072500000002,0.7900170125000008,0.03999991225,0.04,-10.018031298660627,-0.1142952297215789,-0.10512941227009485,-0.01384394539682636,0.009973300457157849,-0.008178111141288403
0.6900000000000001,0.004190144680000768,-0.7807810759999994,0.003364208000000634,-2.3598149200000007,0.0010849497800001892,1.5723237200000002,0.7900663700000008,0.039999911799999996,0.04,-9.990728949296123,-0.20843954368296885,-0.0675474373688283,-0.013574349092177924,0.010689676655626715,-0.008437420574238455
0.6925,0.00423904141000077,-0.7807355419999993,0.0034045647500006355,-2.3598583150000008,0.0010969887350001895,1.5723401900000002,0.7901157275000008,0.03999991135,0.04,-9.96342659993162,-0.3025838576443546,-0.02996546246756343,-0.0133047527875295,0.011406052854095551,-0.008696730007188494
0.6950000000000001,0.004287938140000774,-0.7806900079999993,0.0034449215000006386,-2.359901710000001,0.0011090276900001905,1.5723566600000003,0.7901650850000007,0.0399999109,0.04,-9.936124250567115,-0.39672817160574453,0.007616512433703121,-0.013035156482881064,0.012122429052564419,-0.008956039440138544
0.6975,0.004336834870000776,-0.7806444739999993,0.00348527825000064,-2.359945105000001,0.0011210666450001908,1.5723731300000001,0.7902144425000007,0.03999991045,0.04,-9.90882190120261,-0.4908724855671303,0.04519848733496801,-0.01276556017823264,0.012838805251033253,-0.009215348873088584
0.7000000000000001,0.004385731600000821,-0.7805989399999992,0.003525635000000678,-2.359988500000001,0.0011331056000002022,1.5723896000000002,0.7902638000000007,0.03999991,0.04,-9.881519551838482,-0.5850167995245367,0.08278046223503091,-0.012495963873590523,0.013555181449498795,-0.009474658306029712
0.7025,0.004437256285000823,-0.7805510449999992,0.0035681587700006796,-2.3600341300000007,0.0011457906800002027,1.5724069700000003,0.7903157750000008,0.0399999094,0.04,-9.877752776979303,-0.4292910187263963,0.04486420261799271,-0.012622839200765438,0.014063035991330039,-0.009174301974024222
0.705,0.004488780970000825,-0.7805031499999993,0.003610682540000681,-2.360079760000001,0.0011584757600002031,1.5724243400000002,0.7903677500000008,0.0399999088,0.04,-9.873986002120123,-0.2735652379282559,0.006947943000954512,-0.012749714527940352,0.014570890533161282,-0.008873945642018731
0.7075,0.004540305655000829,-0.7804552549999992,0.0036532063100006844,-2.3601253900000008,0.001171160840000204,1.5724417100000003,0.7904197250000008,0.0399999082,0.04,-9.870219227260945,-0.11783945713010857,-0.03096831661608536,-0.012876589855115273,0.015078745074992548,-0.008573589310013226
0.71,0.004591830340000831,-0.7804073599999992,0.003695730080000686,-2.3601710200000006,0.0011838459200002045,1.5724590800000002,0.7904717000000008,0.0399999076,0.04,-9.866452452401766,0.037886323668031796,-0.06888457623312355,-0.013003465182290187,0.015586599616823791,-0.008273232978007736
0.7125,0.004643355025000836,-0.7803594649999993,0.0037382538500006896,-2.360216650000001,0.0011965310000002056,1.5724764500000004,0.7905236750000009,0.039999907,0.04,-9.862685677542586,0.19361210446617916,-0.10680083585016342,-0.013130340509465106,0.01609445415865506,-0.007972876646002231
0.715,0.0046948797100008375,-0.7803115699999993,0.003780777620000691,-2.3602622800000006,0.001209216080000206,1.5724938200000003,0.7905756500000009,0.0399999064,0.04,-9.858918902683408,0.3493378852643195,-0.14471709546720163,-0.01325721583664002,0.0166023087004863,-0.007672520313996741
0.7175,0.004747299725000886,-0.7802628579999992,0.0038240397600007307,-2.360308685000001,0.0012221214100002179,1.5725114900000003,0.7906285220000009,0.039999905700000005,0.03999999975,-9.85132714769652,0.43631976844382486,-0.1673441808985394,-0.013422943000797645,0.01695527616534756,-0.007483117567813421
0.72,0.004801510400000888,-0.7802125119999992,0.0038687786400007323,-2.360356640000001,0.0012354672400002183,1.5725297600000003,0.7906831880000009,0.0399999048,0.039999999,-9.836085432454777,0.38581385639613214,-0.15939291796071586,-0.013666373838914963,0.016998469476291526,-0.007515621993258192
0.7225,0.004855721075000891,-0.7801621659999992,0.003913517520000736,-2.3604045950000008,0.0012488130700002195,1.5725480300000003,0.7907378540000009,0.0399999039,0.03999999825,-9.820843717213032,0.3353079443484372,-0.15144165502289197,-0.013909804677032293,0.017041662787235495,-0.007548126418702964
0.725,0.004909931750000893,-0.7801118199999992,0.003958256400000738,-2.3604525500000006,0.00126215890000022,1.5725663000000003,0.7907925200000009,0.039999902999999996,0.0399999975,-9.80560200197129,0.2848020323007445,-0.14349039208506845,-0.01415323551514961,0.017084856098179464,-0.007580630844147736
0.7275,0.004964142425000898,-0.7800614739999991,0.004002995280000741,-2.360500505000001,0.0012755047300002209,1.5725845700000003,0.7908471860000009,0.0399999021,0.03999999675,-9.790360286729545,0.23429612025304955,-0.13553912914724459,-0.01439666635326694,0.01712804940912343,-0.007613135269592508
0.73,0.0050183531000009,-0.7800111279999992,0.004047734160000743,-2.360548460000001,0.0012888505600002213,1.5726028400000003,0.790901852000001,0.0399999012,0.039999996,-9.7751185714878,0.18379020820535685,-0.12758786620942103,-0.014640097191384259,0.017171242720067398,-0.0076456396950372795
0.7325,0.005072563775000904,-0.7799607819999992,0.004092473040000746,-2.3605964150000007,0.0013021963900002225,1.5726211100000003,0.7909565180000009,0.039999900299999995,0.03999999525,-9.759876856246057,0.1332842961576619,-0.11963660327159717,-0.014883528029501589,0.017214436031011367,-0.007678144120482052
0.735,0.005128603540000952,-0.7799087859999991,0.0041387201500007855,-2.3606459600000007,0.0013159911100002343,1.5726399900000003,0.791013036000001,0.0399998995,0.0399999955,-9.772842303504522,0.10281867892371833,-0.1152520162388158,-0.014623248430709885,0.017508496745014257,-0.007977683060504864
0.7375,0.005185557850000956,-0.7798559649999991,0.004185721375000789,-2.3606963000000007,0.0013300102750002352,1.5726591750000003,0.791070480000001,0.03999989875,0.03999999625,-9.799911332012034,0.08237320909589621,-0.11265076715842154,-0.014111113613482553,0.017927991160537216,-0.008410739257806695
0.74,0.005242512160000958,-0.7798031439999991,0.004232722600000791,-2.360746640000001,0.0013440294400002357,1.5726783600000003,0.791127924000001,0.039999898,0.039999997,-9.826980360519544,0.061927739268074995,-0.11004951807802738,-0.013598978796255245,0.018347485576060158,-0.008843795455108504
0.7425,0.005299466470000963,-0.7797503229999991,0.004279723825000794,-2.360796980000001,0.001358048605000237,1.5726975450000003,0.791185368000001,0.03999989725,0.03999999775,-9.854049389027056,0.04148226944025288,-0.10744826899763311,-0.013086843979027913,0.018766979991583114,-0.009276851652410335
0.745,0.005356420780000965,-0.7796975019999991,0.004326725050000796,-2.360847320000001,0.0013720677700002374,1.5727167300000002,0.791242812000001,0.0399998965,0.0399999985,-9.881118417534566,0.021036799612431656,-0.10484701991723896,-0.012574709161800606,0.019186474407106056,-0.009709907849712145
0.7475,0.005413375090000969,-0.7796446809999992,0.0043737262750007996,-2.360897660000001,0.0013860869350002386,1.5727359150000002,0.791300256000001,0.03999989575,0.03999999925,-9.908187446042078,0.0005913297846095456,-0.10224577083684469,-0.012062574344573276,0.019605968822629015,-0.010142964047013975
0.75,0.005470329400001019,-0.779591859999999,0.00442072750000084,-2.360948000000001,0.0014001061000002506,1.5727551000000004,0.791357700000001,0.039999895,0.04,-9.93525647454824,-0.019854140042721773,-0.09964452175593072,-0.011550439527348836,0.02002546323813574,-0.01057602024429925
0.7525000000000001,0.0055300830850010235,-0.7795365084999991,0.0044700375250008445,-2.361000830000001,0.001414811275000252,1.5727752450000003,0.791417970000001,0.0399998938,0.04,-9.883284889337551,-0.01157238429455213,-0.0665611823500688,-0.011206543843255303,0.019494284635826625,-0.010039391277454107
0.755,0.0055898367700010256,-0.7794811569999991,0.004519347550000847,-2.361053660000001,0.0014295164500002524,1.5727953900000002,0.7914782400000011,0.039999892599999996,0.04,-9.831313304126864,-0.003290628546382856,-0.03347784294420837,-0.010862648159161787,0.01896310603351753,-0.009502762310608988
0.7575000000000001,0.00564959045500103,-0.7794258054999991,0.00456865757500085,-2.361106490000001,0.0014442216250002537,1.5728155350000004,0.7915385100000011,0.0399998914,0.04,-9.779341718916175,0.004991127201786787,-0.000394503538346469,-0.010518752475068253,0.018431927431208413,-0.008966133343763845
0.76,0.005709344140001032,-0.779370453999999,0.0046179676000008526,-2.361159320000001,0.0014589268000002541,1.5728356800000003,0.7915987800000011,0.0399998902,0.04,-9.727370133705488,0.013272882949956061,0.03268883586751396,-0.010174856790974737,0.01790074882889932,-0.008429504376918725
0.7625000000000001,0.005769097825001037,-0.779315102499999,0.004667277625000856,-2.361212150000001,0.0014736319750002554,1.5728558250000004,0.791659050000001,0.039999889,0.04,-9.6753985484948,0.0215546386981257,0.06577217527337588,-0.009830961106881204,0.017369570226590202,-0.007892875410073582
0.765,0.005828851510001039,-0.7792597509999991,0.004716587650000858,-2.361264980000001,0.0014883371500002559,1.5728759700000003,0.791719320000001,0.039999887799999995,0.04,-9.623426963284112,0.029836394446294972,0.09885551467923633,-0.009487065422787686,0.016838391624281107,-0.007356246443228463
0.7675000000000001,0.005889556535001094,-0.7792035349999991,0.004766682115000903,-2.361318620000001,0.0015032752050002692,1.5728964250000004,0.7917805550000011,0.03999988685,0.04,-9.596337540022144,0.04763518371995984,0.1136785091859634,-0.009467239525159378,0.016812833276335804,-0.007335896115353278
0.77,0.0059521642400010965,-0.7791455899999989,0.0048183454600009045,-2.361373880000001,0.0015186790200002699,1.5729175000000004,0.791843720000001,0.0399998864,0.04,-9.619012440653705,0.08446804004311864,0.09198081389728992,-0.010095553200410584,0.017798515437038667,-0.008348103065336869
0.7725,0.0060147719450010986,-0.7790876449999989,0.0048700088050009065,-2.361429140000001,0.0015340828350002703,1.5729385750000004,0.7919068850000011,0.03999988595,0.04,-9.641687341285268,0.12130089636627743,0.07028311860861644,-0.010723866875661792,0.018784197597741525,-0.00936031001532046
0.775,0.006077379650001104,-0.7790296999999989,0.004921672150000911,-2.361484400000001,0.0015494866500002716,1.5729596500000005,0.7919700500000011,0.0399998855,0.04,-9.66436224191683,0.15813375268943786,0.048585423319942006,-0.011352180550913027,0.01976987975844443,-0.010372516965304095
0.7775,0.006139987355001106,-0.7789717549999989,0.004973335495000912,-2.361539660000001,0.001564890465000272,1.5729807250000005,0.7920332150000011,0.039999885049999996,0.04,-9.687037142548391,0.19496660901259666,0.02688772803126853,-0.011980494226164234,0.02075556191914729,-0.011384723915287685
0.78,0.006202595060001111,-0.7789138099999989,0.005024998840000917,-2.361594920000001,0.0015802942800002733,1.5730018000000003,0.7920963800000012,0.0399998846,0.04,-9.709712043179954,0.23179946533575707,0.005190032742594081,-0.01260880790141547,0.021741244079850192,-0.012396930865271322
0.7825,0.006265202765001114,-0.7788558649999989,0.005076662185000919,-2.3616501800000007,0.001595698095000274,1.5730228750000004,0.7921595450000012,0.03999988415,0.04,-9.732386943811514,0.2686323216589159,-0.016507662546079382,-0.013237121576666677,0.02272692624055305,-0.013409137815254914
0.785,0.00632974850000117,-0.7787961619999989,0.005129923710000966,-2.3617071700000007,0.001611581310000288,1.5730446200000006,0.7922246540000012,0.0399998836,0.04,-9.755597467451842,0.24692239268659022,-0.0160016344384036,-0.013473484303918051,0.023124071113764817,-0.013034587819536746
0.7875,0.0063952632500011725,-0.7787355799999989,0.005183984325000967,-2.361765025000001,0.0016277042250002886,1.5730667000000005,0.7922907350000011,0.039999883,0.04,-9.779075802596529,0.19594107106886943,-0.0043937446334428795,-0.013513871557185198,0.023226947343254593,-0.011966659351023288
0.79,0.006460778000001177,-0.778674997999999,0.005238044940000972,-2.361822880000001,0.0016438271400002898,1.5730887800000004,0.7923568160000012,0.0399998824,0.04,-9.802554137741216,0.1449597494511464,0.007214145171518353,-0.013554258810452345,0.02332982357274437,-0.010898730882509783
0.7925,0.00652629275000118,-0.7786144159999989,0.005292105555000973,-2.361880735000001,0.0016599500550002904,1.5731108600000006,0.7924228970000011,0.0399998818,0.04,-9.826032472885903,0.09397842783342561,0.018822034976479073,-0.013594646063719492,0.02343269980223414,-0.009830802413996323
0.795,0.006591807500001185,-0.7785538339999989,0.005346166170000978,-2.361938590000001,0.0016760729700002917,1.5731329400000005,0.7924889780000012,0.039999881200000004,0.04,-9.84951080803059,0.042997106215702574,0.030429924781440305,-0.013635033316986641,0.02353557603172392,-0.008762873945482818
0.7975,0.0066573222500011875,-0.778493251999999,0.005400226785000979,-2.3619964450000013,0.0016921958850002923,1.5731550200000004,0.7925550590000011,0.0399998806,0.04,-9.872989143175277,-0.007984215402018213,0.04203781458640102,-0.013675420570253788,0.023638452261213694,-0.007694945476969361
0.8,0.006722837000001246,-0.7784326699999989,0.005454287400001028,-2.362054300000001,0.0017083188000003068,1.5731771000000006,0.7926211400000012,0.03999988,0.04,-9.89646747831818,-0.05896553701783137,0.05364570438996421,-0.013715807823528357,0.023741328490705444,-0.006627017008484044
0.8025,0.006791310650001249,-0.7783693969999989,0.005510788065001031,-2.3621147500000013,0.0017251687500003073,1.5732001850000006,0.7926902090000012,0.0399998788,0.04,-9.821916693488578,-0.005052393607073893,-0.01152972977000822,-0.014163824650098718,0.023952428510452255,-0.007107242453397621
0.805,0.006859784300001255,-0.7783061239999989,0.005567288730001035,-2.362175200000001,0.0017420187000003087,1.5732232700000006,0.7927592780000012,0.0399998776,0.04,-9.747365908658976,0.04886074980368597,-0.07670516392998353,-0.014611841476669099,0.02416352853019908,-0.007587467898311219
0.8075,0.006928257950001257,-0.7782428509999989,0.005623789395001038,-2.362235650000001,0.0017588686500003092,1.5732463550000004,0.7928283470000013,0.0399998764,0.04,-9.672815123829375,0.10277389321444344,-0.14188059808995596,-0.01505985830323946,0.02437462854994589,-0.008067693343224797
0.81,0.006996731600001262,-0.7781795779999988,0.005680290060001042,-2.3622961000000013,0.0017757186000003106,1.5732694400000005,0.7928974160000013,0.0399998752,0.04,-9.59826433899977,0.1566870366252033,-0.20705603224993124,-0.01550787512980984,0.024585728569692714,-0.008547918788138395
0.8125,0.007065205250001264,-0.7781163049999988,0.005736790725001044,-2.362356550000001,0.0017925685500003114,1.5732925250000005,0.7929664850000013,0.039999874,0.04,-9.523713554170172,0.2106001800359608,-0.2722314664099037,-0.015955891956380204,0.024796828589439525,-0.009028144233051972
0.8150000000000001,0.00713367890000127,-0.7780530319999989,0.005793291390001049,-2.362417000000001,0.0018094185000003126,1.5733156100000005,0.7930355540000014,0.039999872799999996,0.04,-9.449162769340568,0.2645133234467206,-0.337406900569879,-0.016403908782950585,0.02500792860918635,-0.00950836967796557
0.8175,0.007203155785001338,-0.7779888474999987,0.005850619300001105,-2.3624782850000012,0.0018265147800003295,1.5733390250000006,0.7931056350000014,0.03999987165,0.04,-9.435199691921577,0.29380850646518836,-0.36135840342953024,-0.016666214864063188,0.025274795497867764,-0.009626545308139625
0.8200000000000001,0.0072746391400013745,-0.7779228399999988,0.005909601700001135,-2.3625412400000014,0.0018441037200003384,1.5733631000000006,0.7931777400000014,0.0399998706,0.04,-9.542412029313677,0.2738677687031918,-0.3028620436954292,-0.016557099454291322,0.02565319612440908,-0.009020621308895143
0.8225,0.007346122495001408,-0.7778568324999987,0.005968584100001162,-2.362604195000001,0.0018616926600003466,1.5733871750000006,0.7932498450000015,0.03999986955,0.04,-9.649624366705773,0.2539270309411961,-0.24436568396133068,-0.01644798404451946,0.02603159675095038,-0.008414697309650688
0.8250000000000001,0.007417605850001444,-0.7777908249999986,0.006027566500001192,-2.3626671500000014,0.0018792816000003554,1.5734112500000006,0.7933219500000015,0.0399998685,0.04,-9.756836704097873,0.23398629317919958,-0.1858693242272296,-0.016338868634747598,0.026409997377491695,-0.007808773310406207
0.8275,0.007489089205001478,-0.7777248174999987,0.006086548900001219,-2.3627301050000016,0.0018968705400003636,1.5734353250000006,0.7933940550000016,0.039999867450000004,0.04,-9.864049041489968,0.2140455554172039,-0.12737296449313112,-0.016229753224975735,0.026788398004032994,-0.007202849311161752
0.8300000000000001,0.007560572560001514,-0.7776588099999986,0.006145531300001249,-2.3627930600000013,0.0019144594800003724,1.5734594000000006,0.7934661600000016,0.0399998664,0.04,-9.971261378882069,0.19410481765520737,-0.06887660475903001,-0.01612063781520387,0.02716679863057431,-0.00659692531191727
0.8325,0.007632055915001547,-0.7775928024999986,0.006204513700001276,-2.3628560150000015,0.0019320484200003806,1.5734834750000006,0.7935382650000016,0.039999865350000004,0.04,-10.078473716274164,0.1741640798932117,-0.010380245024931567,-0.01601152240543201,0.027545199257115613,-0.005991001312672816
0.835,0.0077055782800016055,-0.7775249199999985,0.006265177650001324,-2.3629207600000015,0.0019501373800003949,1.5735082200000006,0.7936124150000017,0.0399998639,0.04,-10.105390795285995,0.13365429893163752,0.004916833332600108,-0.015699063114662234,0.02739878567317402,-0.005791458637789188
0.8375,0.0077801201500015795,-0.7774560999999985,0.006326682375001303,-2.3629864000000014,0.0019684763500003883,1.5735333000000005,0.7936875875000017,0.039999862250000004,0.04,-10.092160245111632,0.08285999637128033,-0.0013857289960339091,-0.015284931883403453,0.02698996498401669,-0.005795106625066052
0.84,0.00785466202000155,-0.7773872799999986,0.006388187100001279,-2.3630520400000012,0.0019868153200003815,1.5735583800000006,0.7937627600000016,0.0399998606,0.04,-10.078929694937269,0.03206569381092539,-0.007688291324667647,-0.014870800652144689,0.026581144294859377,-0.005798754612342916
0.8425,0.007929203890001525,-0.7773184599999986,0.006449691825001257,-2.363117680000001,0.002005154290000375,1.5735834600000005,0.7938379325000016,0.03999985895,0.04,-10.065699144762906,-0.01872860874943183,-0.013990853653301664,-0.014456669420885908,0.026172323605702052,-0.005802402599619779
0.845,0.008003745760001495,-0.7772496399999986,0.006511196550001233,-2.3631833200000014,0.002023493260000368,1.5736085400000004,0.7939131050000016,0.039999857300000004,0.04,-10.052468594588543,-0.06952291130978677,-0.0202934159819354,-0.014042538189627144,0.02576350291654474,-0.005806050586896643
0.8475,0.00807828763000147,-0.7771808199999987,0.006572701275001212,-2.3632489600000013,0.0020418322300003616,1.5736336200000005,0.7939882775000014,0.03999985565,0.04,-10.03923804441418,-0.12031721387014396,-0.026595978310569417,-0.013628406958368363,0.02535468222738741,-0.005809698574173507
0.85,0.0081528295000015,-0.7771119999999987,0.006634206000001238,-2.363314600000001,0.002060171200000369,1.5736587000000004,0.7940634500000016,0.039999854,0.04,-10.026007494239439,-0.17111151642865277,-0.032898540639304544,-0.013214275727136897,0.024945861538241597,-0.005813346561467934
0.8525,0.008230477975001507,-0.7770403599999987,0.006698272650001243,-2.363382985000001,0.0020792723350003704,1.5736848300000004,0.7941417530000016,0.039999852350000004,0.04,-9.993169337911818,-0.1263386543361381,-0.04444954517767612,-0.014213219058030737,0.02513210269420464,-0.006726195479297482
0.855,0.008308126450001509,-0.7769687199999986,0.006762339300001245,-2.3634513700000013,0.0020983734700003713,1.5737109600000005,0.7942200560000016,0.0399998507,0.04,-9.9603311815842,-0.08156579224362547,-0.05600054971604718,-0.015212162388924533,0.02531834385016768,-0.0076390443971269895
0.8575,0.008385774925001515,-0.7768970799999986,0.00682640595000125,-2.3635197550000013,0.0021174746050003725,1.5737370900000005,0.7942983590000016,0.03999984905,0.04,-9.92749302525658,-0.03679293015111082,-0.06755155425441875,-0.01621110571981837,0.025504585006130724,-0.008551893314956538
0.86,0.008463423400001517,-0.7768254399999985,0.006890472600001253,-2.3635881400000014,0.0021365757400003734,1.5737632200000005,0.7943766620000016,0.0399998474,0.04,-9.89465486892896,0.007979931941401841,-0.07910255879278982,-0.01721004905071217,0.025690826162093762,-0.009464742232786046
0.8625,0.008541071875001523,-0.7767537999999986,0.006954539250001258,-2.3636565250000015,0.002155676875000375,1.5737893500000004,0.7944549650000016,0.03999984575,0.04,-9.86181671260134,0.0527527940339165,-0.0906535633311614,-0.018208992381606007,0.025877067318056807,-0.010377591150615591
0.865,0.008618720350001528,-0.7766821599999986,0.00701860590000126,-2.3637249100000015,0.0021747780100003756,1.5738154800000006,0.7945332680000016,0.0399998441,0.04,-9.828978556273722,0.09752565612642913,-0.10220456786953246,-0.019207935712499805,0.026063308474019845,-0.011290440068445099
