rsonawane2002/My_IMU/logs_2/traj_443/imu_400hz_443.csv
time,j1,j2,j3,j4,j5,j6,j7,gripper1,gripper2,imu_ax,imu_ay,imu_az,imu_gx,imu_gy,imu_gz
0.0,0.00016700293,-0.785875,4.0107683e-05,-2.3551247,9.29385e-05,1.570997,0.786,0.04,0.04,-9.552554,-0.037083700299263,0.10414309,-4.7383173e-07,-0.0011641272576525,6.9143704e-07
0.0025,0.000167003179,-0.7858577740000002,4.010801705e-05,-2.35513919,9.294440639999993e-05,1.570996565,0.786,0.04,0.04,-9.594843349999461,-0.031427870859696845,0.08987948545018161,-2.914392780023224e-07,-0.0013251609576379096,7.98637908998635e-07
0.005,0.00016700342799999998,-0.7858405480000005,4.0108351099999995e-05,-2.35515368,9.295031279999985e-05,1.57099613,0.786,0.04,0.04,-9.637132699998924,-0.02577204142013069,0.07561588090036322,-1.0904682600464477e-07,-0.0014861946576233192,9.058387779972699e-07
0.0075,0.000167003677,-0.7858233220000007,4.010868514999999e-05,-2.35516817,9.295621919999978e-05,1.5709956950000001,0.786,0.04,0.04,-9.679422049998385,-0.020116211980564538,0.061352276350544854,7.33456259930328e-08,-0.0016472283576087288,1.013039646995905e-06
0.01,0.000167003926,-0.785806096000001,4.010901919999999e-05,-2.3551826599999997,9.29621255999997e-05,1.5709952600000001,0.786,0.04,0.04,-9.721711399997847,-0.014460382540998382,0.04708867180072647,2.5573807799071043e-07,-0.0018082620575941384,1.12024051599454e-06
0.0125,0.00016700417499999998,-0.7857888700000011,4.010935324999998e-05,-2.355197149999999,9.296803199999962e-05,1.570994825,0.786,0.04,0.04,-9.764000749997308,-0.008804553101432227,0.032825067250908085,4.3813052998838806e-07,-0.001969295757579548,1.227441384993175e-06
0.015,0.000167004424,-0.7857716440000013,4.010968729999998e-05,-2.355211639999999,9.297393839999954e-05,1.57099439,0.786,0.04,0.04,-9.806290099996769,-0.003148723661866075,0.018561462701089715,6.205229819860656e-07,-0.0021303294575649575,1.3346422539918101e-06
0.0175,0.0001670042385000001,-0.7857548570000015,4.010837475000041e-05,-2.355225734999999,9.298103019999915e-05,1.57099396,0.786,0.04,0.04,-9.834386700000026,0.0006200738775082094,0.008981105300019061,1.0025753224303563e-06,-0.0022871168679425022,1.5705109099560407e-06
0.02,0.00016700318400000012,-0.7857389480000017,4.010376900000047e-05,-2.355239039999999,9.299049279999904e-05,1.5709935400000001,0.786,0.04,0.04,-9.83409780000003,0.0006148076150570965,0.008767242200021785,1.7839474399204068e-06,-0.002435411699101074,2.0637151399497605e-06
0.0225,0.00016700212950000013,-0.7857230390000018,4.009916325000053e-05,-2.3552523449999985,9.299995539999891e-05,1.57099312,0.786,0.04,0.04,-9.833808900000033,0.0006095413526059835,0.00855337910002451,2.5653195574104573e-06,-0.002583706530259646,2.5569193699434802e-06
0.025,0.00016700107500000014,-0.785707130000002,4.009455750000059e-05,-2.3552656499999984,9.30094179999988e-05,1.5709927000000001,0.786,0.04,0.04,-9.833520000000037,0.0006042750901548706,0.008339516000027232,3.3466916749005084e-06,-0.002732001361418218,3.050123599937201e-06
0.0275,0.00016700002050000016,-0.7856912210000022,4.0089951750000644e-05,-2.355278954999998,9.301888059999868e-05,1.57099228,0.786,0.04,0.04,-9.83323110000004,0.0005990088277037576,0.008125652900029954,4.128063792390559e-06,-0.0028802961925767897,3.54332782993092e-06
0.03,0.00016699896600000017,-0.7856753120000024,4.0085346000000704e-05,-2.355292259999998,9.302834319999856e-05,1.5709918600000001,0.786,0.04,0.04,-9.832942200000044,0.0005937425652526447,0.007911789800032678,4.90943590988061e-06,-0.0030285910237353615,4.03653205992464e-06
0.0325,0.00016699791150000018,-0.7856594030000027,4.0080740250000765e-05,-2.3553055649999974,9.303780579999843e-05,1.57099144,0.786,0.04,0.04,-9.832653300000047,0.0005884763028015317,0.0076979267000354,5.690808027370661e-06,-0.0031768858548939334,4.529736289918361e-06
0.035,0.00016699445000000084,-0.7856443340000027,4.006749650000313e-05,-2.3553180999999976,9.305397899999653e-05,1.57099101,0.786,0.04,0.04,-9.832341500000057,0.0005790216848274387,0.007512241400030589,7.369336259620823e-06,-0.00331704686393395,5.486781729788055e-06
0.0375,0.0001669897850000009,-0.7856296850000029,4.004993375000336e-05,-2.3553302499999975,9.307350749999627e-05,1.5709905750000002,0.786,0.04,0.04,-9.832018250000061,0.0005674728890902557,0.007340645000032774,9.496442549593734e-06,-0.003453140961911582,6.6757477747729135e-06
0.04,0.00016698512000000096,-0.785615036000003,4.003237100000358e-05,-2.3553423999999974,9.309303599999602e-05,1.5709901400000001,0.786,0.04,0.04,-9.831695000000066,0.0005559240933530727,0.007169048600034958,1.1623548839566653e-05,-0.0035892350598892143,7.864713819757777e-06
0.0425,0.00016698045500000103,-0.7856003870000032,4.0014808250003804e-05,-2.3553545499999973,9.311256449999578e-05,1.5709897050000001,0.786,0.04,0.04,-9.83137175000007,0.0005443752976158898,0.0069974522000371435,1.3750655129539568e-05,-0.0037253291578668466,9.053679864742638e-06
0.045,0.00016697579000000108,-0.7855857380000034,3.999724550000403e-05,-2.355366699999997,9.313209299999552e-05,1.57098927,0.786,0.04,0.04,-9.831048500000074,0.0005328265018787069,0.006825855800039329,1.587776141951248e-05,-0.0038614232558444785,1.0242645909727496e-05
0.0475,0.00016697112500000112,-0.7855710890000036,3.997968275000425e-05,-2.355378849999997,9.315162149999528e-05,1.570988835,0.786,0.04,0.04,-9.830725250000077,0.000521277706141524,0.006654259400041513,1.80048677094854e-05,-0.00399751735382211,1.1431611954712359e-05
0.05,0.0001669664600000012,-0.7855564400000038,3.9962120000004475e-05,-2.355390999999997,9.317114999999503e-05,1.5709884,0.786,0.04,0.04,-9.830402000000081,0.000509728910404341,0.006482663000043698,2.0131973999458314e-05,-0.004133611451799743,1.2620577999697222e-05
0.0525,0.00016695472100000314,-0.7855428740000037,3.992007200001124e-05,-2.355402099999997,9.321151199998921e-05,1.5709879800000002,0.786,0.04,0.03999999925,-9.830189150000056,0.0004939748701913875,0.0063106066400460065,2.4223250398906025e-05,-0.004258217383142727,1.4922616299384453e-05
0.055,0.0001669429820000033,-0.7855293080000039,3.987802400001178e-05,-2.355413199999997,9.32518739999887e-05,1.57098756,0.786,0.04,0.0399999985,-9.829976300000059,0.00047822082997736305,0.006138550280048197,2.8314526798853933e-05,-0.004382823314482785,1.7224654599355145e-05
0.0575,0.00016693124300000344,-0.785515742000004,3.9835976000012316e-05,-2.355424299999997,9.329223599998819e-05,1.5709871400000002,0.786,0.04,0.03999999775,-9.829763450000062,0.0004624667897633387,0.005966493920050388,3.240580319880185e-05,-0.004507429245822843,1.9526692899325836e-05
0.06,0.0001669195040000036,-0.7855021760000042,3.979392800001285e-05,-2.3554353999999966,9.333259799998767e-05,1.57098672,0.786,0.04,0.039999997,-9.829550600000065,0.0004467127495493143,0.0057944375600525785,3.649707959874974e-05,-0.004632035177162902,2.182873119929652e-05
0.0625,0.00016690776500000374,-0.7854886100000044,3.975188000001338e-05,-2.3554464999999967,9.337295999998715e-05,1.5709863000000002,0.786,0.04,0.03999999625,-9.829337750000066,0.0004309587093352899,0.00562238120005477,4.0588355998697655e-05,-0.004756641108502961,2.413076949926721e-05
0.065,0.0001668960260000039,-0.7854750440000045,3.9709832000013916e-05,-2.3554575999999963,9.341332199998665e-05,1.57098588,0.786,0.04,0.0399999955,-9.82912490000007,0.00041520466912126547,0.005450324840056961,4.467963239864556e-05,-0.004881247039843019,2.6432807799237898e-05
0.0675,0.000166880449000008,-0.7854618100000044,3.96547460000279e-05,-2.3554683349999967,9.346405424997543e-05,1.5709854550000002,0.7860000949999999,0.04,0.039999995,-9.828901450000084,0.000397727746174403,0.005289417410047652,4.9624910497712684e-05,-0.005002192407807328,2.9118404498813e-05
0.07,0.0001668571960000083,-0.7854492400000045,3.9573584000028934e-05,-2.3554783399999963,9.353552699997452e-05,1.5709850200000002,0.7860003799999999,0.04,0.039999995,-9.828656800000086,0.0003768050577565994,0.0051508078400494175,5.627819199762798e-05,-0.005115816649008951,3.257111799876904e-05
0.0725,0.00016683394300000859,-0.7854366700000046,3.9492422000029966e-05,-2.3554883449999964,9.360699974997361e-05,1.5709845850000002,0.7860006649999999,0.04,0.039999995,-9.828412150000089,0.00035588236933879584,0.005012198270051183,6.293147349754323e-05,-0.005229440890210574,3.602383149872506e-05
0.075,0.00016681069000000888,-0.7854241000000048,3.9411260000031e-05,-2.355498349999996,9.36784724999727e-05,1.5709841500000001,0.7860009499999999,0.04,0.039999995,-9.828167500000093,0.00033495968092099224,0.004873588700052948,6.958475499745852e-05,-0.005343065131412196,3.94765449986811e-05
0.0775,0.00016678743700000918,-0.785411530000005,3.933009800003203e-05,-2.355508354999996,9.374994524997179e-05,1.5709837150000001,0.786001235,0.04,0.039999995,-9.827922850000096,0.00031403699250318864,0.004734979130054712,7.623803649737382e-05,-0.00545668937261382,4.292925849863714e-05
0.08,0.00016676418400000947,-0.7853989600000052,3.924893600003307e-05,-2.3555183599999956,9.382141799997088e-05,1.5709832800000003,0.7860015199999999,0.04,0.039999995,-9.827678200000099,0.00029311430408538505,0.004596369560056477,8.28913179972891e-05,-0.005570313613815443,4.638197199859318e-05
0.0825,0.00016674093100000977,-0.7853863900000053,3.91677740000341e-05,-2.3555283649999956,9.389289074996997e-05,1.5709828450000003,0.7860018049999999,0.04,0.039999995,-9.827433550000102,0.00027219161566758145,0.0044577599900582415,8.95445994972044e-05,-0.005683937855017067,4.9834685498549225e-05
0.085,0.00016670641200001738,-0.7853744000000051,3.9048914400059614e-05,-2.3555377799999957,9.399335449995023e-05,1.5709824100000003,0.7860020899999999,0.04,0.0399999955,-9.8271974000001,0.00024877862889453493,0.004333936370050404,9.741436299632973e-05,-0.005790572892829768,5.4224722997896586e-05
0.08750000000000001,0.0001666662600000179,-0.7853627000000052,3.891120600006137e-05,-2.355546899999996,9.410831374994877e-05,1.5709819750000003,0.7860023749999999,0.04,0.03999999625,-9.826965500000103,0.00022412049294148889,0.004217505725051887,0.00010589236749622179,-0.005893713328941335,5.908342249783473e-05
0.09,0.00016662610800001842,-0.7853510000000054,3.877349760006312e-05,-2.355556019999996,9.422327299994731e-05,1.5709815400000002,0.7860026599999999,0.04,0.039999997,-9.826733600000106,0.00019946235698844295,0.00410107508005337,0.0001143703719961138,-0.005996853765052902,6.394212199777284e-05
0.0925,0.0001665859560000189,-0.7853393000000055,3.8635789200064876e-05,-2.3555651399999955,9.433823224994584e-05,1.5709811050000002,0.7860029449999999,0.04,0.03999999775,-9.82650170000011,0.00017480422103539688,0.003984644435054852,0.00012284837649600587,-0.006099994201164469,6.880082149771098e-05
0.095,0.00016654580400001943,-0.7853276000000057,3.8498080800066626e-05,-2.3555742599999956,9.445319149994437e-05,1.5709806700000002,0.7860032299999999,0.04,0.0399999985,-9.826269800000112,0.00015014608508235084,0.003868213790056335,0.0001313263809958979,-0.006203134637276036,7.365952099764912e-05
0.0975,0.00016650565200001995,-0.7853159000000058,3.836037240006838e-05,-2.3555833799999957,9.45681507499429e-05,1.5709802350000002,0.7860035149999999,0.04,0.03999999925,-9.826037900000115,0.00012548794912930477,0.003751783145057817,0.00013980438549578996,-0.0063062750733876025,7.851822049758725e-05
0.1,0.00016646550000002044,-0.785304200000006,3.822266400007013e-05,-2.3555924999999958,9.468310999994145e-05,1.5709798000000001,0.7860037999999999,0.04,0.04,-9.825806000000117,0.00010082981317625873,0.0036353525000592996,0.00014828238999568203,-0.006409415509499169,8.33769199975254e-05
0.10250000000000001,0.00016640222100003304,-0.7852932650000057,3.8008353150111875e-05,-2.3556010799999956,9.486103489990711e-05,1.57097983,0.7860040909999999,0.04,0.03999999925,-9.825573650000122,7.667614555779292e-05,0.003544797215047274,0.0001604206014936633,-0.006503259227562069,9.020754799643409e-05
0.105,0.00016633894200003384,-0.7852823300000058,3.779404230011461e-05,-2.3556096599999954,9.503895979990484e-05,1.57097986,0.7860043819999999,0.04,0.0399999985,-9.825341300000124,5.2522477939584146e-05,0.0034542419300484274,0.00017255881299350868,-0.006597102945620234,9.70381759963471e-05
0.1075,0.00016627566300003466,-0.785271395000006,3.757973145011734e-05,-2.355618239999995,9.521688469990257e-05,1.57097989,0.7860046729999999,0.04,0.03999999775,-9.825108950000127,2.836881032137525e-05,0.0033636866450495804,0.00018469702449335412,-0.006690946663678399,0.00010386880399626013
0.11,0.00016621238400003546,-0.7852604600000062,3.7365420600120066e-05,-2.355626819999995,9.539480959990032e-05,1.57097992,0.7860049639999999,0.04,0.039999997,-9.82487660000013,4.2151427031663404e-06,0.0032731313600507335,0.0001968352359931996,-0.006784790381736564,0.00011069943199617315
0.1125,0.00016614910500003626,-0.7852495250000062,3.71511097501228e-05,-2.355635399999995,9.557273449989805e-05,1.57097995,0.7860052549999998,0.04,0.03999999625,-9.824644250000132,-1.9938524915042555e-05,0.0031825760750518865,0.00020897344749304505,-0.0068786340997947296,0.00011753005999608619
0.115,0.00016608582600003707,-0.7852385900000064,3.6936798900125524e-05,-2.3556439799999946,9.575065939989578e-05,1.57097998,0.7860055459999998,0.04,0.0399999955,-9.824411900000136,-4.409219253325145e-05,0.0030920207900530395,0.0002211116589928905,-0.006972477817852894,0.0001243606879959992
0.11750000000000001,0.00016601252950005586,-0.7852278550000061,3.668955265018739e-05,-2.355652229999995,9.595442544984713e-05,1.57098002,0.7860059304999997,0.04,0.03999999525,-9.824215500000074,-7.062351212827074e-05,0.0029988128400589547,0.00023465139299021977,-0.007063224050165711,0.00013175695949489672
0.12,0.00016591919800005705,-0.7852175200000063,3.6376435600191373e-05,-2.355659819999995,9.620987379984387e-05,1.57098008,0.7860065019999997,0.04,0.039999996,-9.824091000000076,-0.0001019101356896258,0.0029002995600602094,0.0002509941719900116,-0.007147775310971264,0.0001402845179947881
0.1225,0.00016582586650005823,-0.7852071850000064,3.606331855019536e-05,-2.3556674099999952,9.646532214984062e-05,1.57098014,0.7860070734999997,0.04,0.03999999675,-9.823966500000077,-0.00013319675925098102,0.0028017862800614637,0.0002673369509898035,-0.007232326571776817,0.00014881207649467953
0.125,0.00016573253500005942,-0.7851968500000066,3.575020150019935e-05,-2.3556749999999953,9.672077049983738e-05,1.5709802,0.7860076449999996,0.04,0.0399999975,-9.823842000000079,-0.00016448338281233624,0.002703273000062718,0.0002836797299895954,-0.0073168778325823705,0.00015733963499457097
0.1275,0.0001656392035000606,-0.7851865150000067,3.543708445020333e-05,-2.355682589999995,9.697621884983412e-05,1.57098026,0.7860082164999996,0.04,0.03999999825,-9.82371750000008,-0.00019577000637369148,0.0026047597200639723,0.00030002250898938736,-0.007401429093387924,0.00016586719349446239
0.13,0.0001655458720000618,-0.7851761800000069,3.5123967400207314e-05,-2.355690179999995,9.723166719983087e-05,1.57098032,0.7860087879999996,0.04,0.039999999,-9.823593000000082,-0.0002270566299350467,0.0025062464400652266,0.00031636528798917925,-0.007485980354193477,0.00017439475199435383
0.1325,0.000165452540500063,-0.785165845000007,3.48108503502113e-05,-2.355697769999995,9.748711554982762e-05,1.57098038,0.7860093594999996,0.04,0.03999999975,-9.823468500000084,-0.0002583432534964019,0.002407733160066481,0.0003327080669889712,-0.007570531614999031,0.00018292231049424525
0.135,0.00016533409800009247,-0.7851558600000069,3.4415667800307865e-05,-2.3557047099999955,9.780839049975003e-05,1.57098045,0.7860101249999993,0.04,0.04,-9.823294500000141,-0.00028837941352063284,0.0023281059800495333,0.0003513023439860823,-0.00764885540114995,0.00019293718699240703
0.1375,0.0001652031000000977,-0.7851460500000074,3.397945250032532e-05,-2.3557113249999952,9.816257874973585e-05,1.570980525,0.7860109874999993,0.04,0.04,-9.823095750000148,-0.0003177903417743909,0.002257921850052342,0.0003710223699852932,-0.007724065449964035,0.0002036957224919765
0.14,0.00016507210200010294,-0.7851362400000077,3.3543237200342776e-05,-2.3557179399999946,9.851676699972169e-05,1.5709806,0.7860118499999993,0.04,0.04,-9.822897000000156,-0.00034720127002814893,0.0021877377200551504,0.00039074239598450405,-0.00779927549877812,0.00021445425799154598
0.14250000000000002,0.00016494110400010819,-0.7851264300000081,3.310702190036023e-05,-2.3557245549999943,9.887095524970751e-05,1.570980675,0.7860127124999993,0.04,0.04,-9.822698250000164,-0.000376612198281907,0.002117553590057959,0.0004104624219837149,-0.007874485547592206,0.00022521279349111545
0.145,0.00016481010600011343,-0.7851166200000086,3.2670806600377694e-05,-2.355731169999994,9.922514349969333e-05,1.57098075,0.7860135749999992,0.04,0.04,-9.822499500000172,-0.00040602312653566474,0.0020473694600607684,0.0004301824479829256,-0.00794969559640629,0.00023597132899068481
0.1475,0.00016467910800011868,-0.7851068100000089,3.2234591300395146e-05,-2.355737784999994,9.957933174967916e-05,1.570980825,0.7860144374999992,0.04,0.04,-9.82230075000018,-0.00043543405478942284,0.001977185330063577,0.00044990247398213643,-0.008024905645220376,0.0002467298644902543
0.15,0.0001645481100001239,-0.7850970000000094,3.1798376000412605e-05,-2.3557443999999936,9.993351999966498e-05,1.5709809,0.7860152999999992,0.04,0.04,-9.822102000000188,-0.0004648449830431809,0.0019070012000663855,0.0004696224999813473,-0.008100115694034462,0.00025748839998982376
0.1525,0.0001643712720001647,-0.7850875200000089,3.121302395054515e-05,-2.355750684999994,0.00010040738799955867,1.5709809899999998,0.786016379999999,0.04,0.04,-9.821889450000198,-0.0004928500216658232,0.0018596062400441401,0.0004931948049780465,-0.008166565326911875,0.00027050959098787305
0.155,0.0001641944340001621,-0.7850780400000087,3.0627671900536636e-05,-2.355756969999994,0.00010088125599956558,1.57098108,0.786017459999999,0.04,0.04,-9.821676900000194,-0.0005208550602871358,0.0018122112800434502,0.0005167671099783896,-0.008233014959781002,0.00028353078198806256
0.1575,0.00016401759600015954,-0.7850685600000086,3.0042319850528114e-05,-2.3557632549999945,0.00010135512399957247,1.5709811699999998,0.786018539999999,0.04,0.04,-9.821464350000191,-0.0005488600989084484,0.0017648163200427605,0.0005403394149787326,-0.008299464592650128,0.0002965519729882521
0.16,0.00016384075800015698,-0.7850590800000085,2.9456967800519596e-05,-2.3557695399999945,0.00010182899199957937,1.57098126,0.786019619999999,0.04,0.04,-9.821251800000187,-0.0005768651375297609,0.0017174213600420708,0.0005639117199790757,-0.008365914225519255,0.00030957316398844153
0.1625,0.00016366392000015438,-0.7850496000000083,2.8871615750511077e-05,-2.3557758249999945,0.00010230285999958626,1.5709813499999998,0.786020699999999,0.04,0.04,-9.821039250000185,-0.0006048701761510734,0.0016700264000413811,0.0005874840249794187,-0.008432363858388381,0.00032259435498863104
0.165,0.00016348708200015181,-0.7850401200000081,2.8286263700502562e-05,-2.3557821099999945,0.00010277672799959315,1.57098144,0.786021779999999,0.04,0.04,-9.820826700000183,-0.0006328752147723859,0.0016226314400406912,0.0006110563299797617,-0.00849881349125751,0.00033561554598882055
0.1675,0.00016329207850019524,-0.7850307350000078,2.7642001100643205e-05,-2.3557880649999956,0.00010329758799948107,1.570981535,0.7860229669999987,0.04,0.04,-9.82066490000005,-0.0006630267249128736,0.0015749157300408137,0.0006361761249761865,-0.008563657663710455,0.0003493956089870885
0.17,0.00016306074400019186,-0.7850215400000076,2.6879917400632113e-05,-2.355793359999996,0.00010391243199949002,1.5709816399999998,0.7860243679999989,0.04,0.04,-9.820604600000049,-0.0006974711781081099,0.00152655852004011,0.0006643908999765971,-0.008625290915318778,0.0003646934159873112
0.17250000000000001,0.0001628294095001885,-0.7850123450000075,2.6117833700621025e-05,-2.3557986549999956,0.00010452727599949896,1.5709817449999999,0.7860257689999989,0.04,0.04,-9.820544300000048,-0.0007319156313033462,0.0014782013100394062,0.0006926056749770078,-0.0086869241669271,0.0003799912229875338
0.17500000000000002,0.00016259807500018514,-0.7850031500000073,2.5355750000609933e-05,-2.355803949999996,0.0001051421199995079,1.57098185,0.7860271699999989,0.04,0.04,-9.820484000000048,-0.0007663600844985824,0.0014298441000387026,0.0007208204499774183,-0.008748557418535422,0.0003952890299877564
0.1775,0.00016236674050018179,-0.7849939550000072,2.4593666300598852e-05,-2.355809244999996,0.00010575696399951684,1.570981955,0.7860285709999989,0.04,0.04,-9.820423700000047,-0.0008008045376938183,0.0013814868900379994,0.0007490352249778286,-0.008810190670143743,0.0004105868369879789
0.18,0.0001621354060001784,-0.784984760000007,2.383158260058776e-05,-2.355814539999996,0.0001063718079995258,1.57098206,0.7860299719999989,0.04,0.04,-9.820363400000046,-0.0008352489908890545,0.0013331296800372957,0.0007772499999782392,-0.008871823921752064,0.0004258846439882015
0.1825,0.00016190407150017504,-0.7849755650000069,2.306949890057667e-05,-2.355819834999996,0.00010698665199953475,1.570982165,0.7860313729999989,0.04,0.04,-9.820303100000045,-0.0008696934440842908,0.001284772470036592,0.0008054647749786498,-0.008933457173360387,0.0004411824509884241
0.185,0.00016163029100022967,-0.7849664300000071,2.217025150075348e-05,-2.3558245799999966,0.00010771220899939204,1.57098228,0.7860329859999987,0.0399999995,0.0399999995,-9.820166700000136,-0.0009002186241336309,0.001246057720026387,0.0008367470899744517,-0.00898965978990797,0.0004583286879859316
0.1875,0.00016133528750024147,-0.7849573250000075,2.120242225079221e-05,-2.3558290499999965,0.00010849312249936079,1.5709824,0.7860347049999986,0.03999999875,0.03999999875,-9.819992250000142,-0.0009287841676033927,0.0012121642000277435,0.0008695631749731386,-0.009043147088915994,0.0004763991399852085
0.19,0.0001610402840002533,-0.7849482200000079,2.023459300083094e-05,-2.3558335199999965,0.00010927403599932953,1.5709825199999998,0.7860364239999985,0.039999998,0.039999998,-9.81981780000015,-0.0009573497110731547,0.0011782706800290996,0.0009023792599718253,-0.009096634387924017,0.0004944695919844854
0.1925,0.00016074528050026508,-0.7849391150000082,1.926676375086967e-05,-2.355837989999996,0.00011005494949929828,1.57098264,0.7860381429999985,0.03999999725,0.03999999725,-9.819643350000156,-0.0009859152545429164,0.001144377160030456,0.0009351953449705122,-0.009150121686932041,0.0005125400439837623
0.195,0.0001604502770002769,-0.7849300100000086,1.8298934500908402e-05,-2.355842459999996,0.00011083586299926704,1.57098276,0.7860398619999984,0.0399999965,0.0399999965,-9.819468900000164,-0.0010144807980126784,0.0011104836400318123,0.0009680114299691991,-0.009203608985940066,0.0005306104959830392
0.1975,0.0001601552735002887,-0.784920905000009,1.7331105250947132e-05,-2.355846929999996,0.00011161677649923578,1.5709828799999999,0.7860415809999983,0.03999999575,0.03999999575,-9.81929445000017,-0.0010430463414824404,0.0010765901200331686,0.0010008275149678857,-0.00925709628494809,0.0005486809479823161
0.2,0.0001598602700003005,-0.7849118000000094,1.636327600098586e-05,-2.3558513999999957,0.00011239768999920453,1.5709829999999998,0.7860432999999982,0.039999995,0.039999995,-9.819120000000177,-0.0010716118849522023,0.001042696600034525,0.0010336435999665726,-0.009310583583956115,0.0005667513999815929
0.2025,0.0001594921250003797,-0.7849027400000094,1.5159560351241467e-05,-2.355855389999996,0.00011336672539900058,1.5709831349999999,0.7860453699999979,0.039999994250000004,0.039999995,-9.818987025000137,-0.0011020881705602278,0.0010137259750298791,0.001071500329960956,-0.009357517911072828,0.000587193354978917
0.20500000000000002,0.0001591239800003844,-0.7848936800000095,1.3955844701256793e-05,-2.355859379999996,0.00011433576079898823,1.57098327,0.7860474399999978,0.039999993500000004,0.039999995,-9.818854050000139,-0.0011325644561701999,0.0009847553500302482,0.0011093570599604741,-0.009404452238182866,0.0006076353099786567
0.20750000000000002,0.00015875583500038907,-0.7848846200000096,1.2752129051272118e-05,-2.355863369999996,0.0001153047961989759,1.570983405,0.7860495099999978,0.039999992750000005,0.039999995,-9.818721075000141,-0.001163040741780172,0.0009557847250306169,0.0011472137899599922,-0.009451386565292904,0.0006280772649783964
0.21,0.00015838769000039375,-0.7848755600000097,1.1548413401287458e-05,-2.355867359999996,0.00011627383159896355,1.5709835399999998,0.7860515799999978,0.039999992000000005,0.039999995,-9.818588100000142,-0.0011935170273901436,0.0009268141000309861,0.0011850705199595098,-0.00949832089240294,0.0006485192199781359
0.2125,0.00015801954500039845,-0.7848665000000098,1.0344697751302782e-05,-2.3558713499999957,0.00011724286699895122,1.570983675,0.7860536499999977,0.03999999125,0.039999995,-9.818455125000144,-0.0012239933130001155,0.0008978434750313549,0.0012229272499590278,-0.009545255219512978,0.0006689611749778758
0.215,0.00015765140000040313,-0.7848574400000099,9.140982101318109e-06,-2.355875339999996,0.00011821190239893888,1.57098381,0.7860557199999977,0.0399999905,0.039999995,-9.818322150000146,-0.0012544695986100875,0.0008688728500317237,0.0012607839799585456,-0.009592189546623015,0.0006894031299776155
0.2175,0.0001572555790004998,-0.7848483530000101,7.848221826629356e-06,-2.3558790049999967,0.00011925243919868892,1.570983945,0.7860579599999971,0.0399999899,0.03999999465,-9.818197875000118,-0.0012814511544780836,0.0008427299900226951,0.0013004098099521845,-0.009637490892736154,0.0007108358699740625
0.22,0.00015680440600050554,-0.7848392120000102,6.377372301648083e-06,-2.3558820199999966,0.00012043597879867385,1.57098408,0.786060539999997,0.0399999896,0.039999993600000006,-9.81809100000012,-0.001301443250827419,0.0008222426600229559,0.001343573839951635,-0.00967952627683928,0.0007342501799737644
0.2225,0.00015635323300051127,-0.7848300710000103,4.90652277666681e-06,-2.355885034999997,0.00012161951839865879,1.570984215,0.786063119999997,0.0399999893,0.03999999255,-9.817984125000121,-0.0013214353471767545,0.0008017553300232168,0.0013867378699510852,-0.009721561660942405,0.0007576644899734662
0.225,0.00015590206000051703,-0.7848209300000104,3.4356732516855364e-06,-2.355888049999997,0.00012280305799864373,1.5709843499999998,0.786065699999997,0.039999989,0.039999991500000005,-9.817877250000121,-0.0013414274435260898,0.0007812680000234776,0.0014299018999505357,-0.009763597045045529,0.0007810787999731682
0.2275,0.00015545088700052277,-0.7848117890000106,1.964823726704263e-06,-2.3558910649999967,0.00012398659759862865,1.5709844849999999,0.786068279999997,0.0399999887,0.03999999045,-9.817770375000123,-0.0013614195398754252,0.0007607806700237385,0.0014730659299499861,-0.009805632429148654,0.0008044931099728701
0.23,0.00015499971400052853,-0.7848026480000106,4.939742017229898e-07,-2.3558940799999966,0.00012517013719861358,1.5709846199999997,0.7860708599999969,0.0399999884,0.039999989400000005,-9.817663500000124,-0.0013814116362247607,0.0007402933400239993,0.0015162299599494366,-0.00984766781325178,0.0008279074199725719
0.2325,0.00015454854100053426,-0.7847935070000108,-9.768753232582835e-07,-2.3558970949999964,0.0001263536767985985,1.5709847549999998,0.7860734399999969,0.0399999881,0.03999998835,-9.817556625000126,-0.001401403732574096,0.0007198060100242602,0.0015593939899488868,-0.009889703197354903,0.0008513217299722739
0.23500000000000001,0.0001540352700006515,-0.7847842240000111,-2.6472054478814214e-06,-2.3558996499999973,0.0001276971999982962,1.5709848999999998,0.7860763699999963,0.0399999876,0.0399999876,-9.81743690000015,-0.0014288623118399169,0.000706618200011416,0.0016058838999423663,-0.009927221294450218,0.0008765112599687886
0.23750000000000002,0.00015349095000065843,-0.7847748700000113,-4.417275872858884e-06,-2.3559019749999974,0.0001291207149982781,1.5709850499999998,0.7860794749999962,0.039999987,0.039999987,-9.817310750000152,-0.0014600541325839446,0.0006970801500115375,0.0016540367499417532,-0.009962480748029549,0.0009025883999684565
0.24,0.00015294663000066535,-0.7847655160000114,-6.187346297836329e-06,-2.355904299999997,0.00013054422999825996,1.5709851999999997,0.7860825799999962,0.0399999864,0.0399999864,-9.817184600000154,-0.001491245953327972,0.000687542100011659,0.0017021895999411395,-0.00999774020160888,0.0009286655399681242
0.2425,0.0001524023100006723,-0.7847561620000115,-7.957416722813792e-06,-2.355906624999997,0.00013196774499824184,1.57098535,0.7860856849999962,0.039999985800000006,0.039999985800000006,-9.817058450000156,-0.001522437774072,0.0006780040500117804,0.0017503424499405265,-0.010032999655188212,0.0009547426799677922
0.245,0.0001518579900006792,-0.7847468080000117,-9.727487147791255e-06,-2.3559089499999972,0.0001333912599982237,1.5709855,0.7860887899999961,0.039999985200000004,0.039999985200000004,-9.816932300000158,-0.001553629594816028,0.0006684660000119019,0.0017984952999399134,-0.010068259108767543,0.0009808198199674602
0.2475,0.00015131367000068615,-0.7847374540000118,-1.149755757276872e-05,-2.3559112749999973,0.00013481477499820558,1.57098565,0.7860918949999961,0.0399999846,0.0399999846,-9.81680615000016,-0.0015848214155600557,0.0006589279500120233,0.0018466481499393003,-0.010103518562346874,0.001006896959967128
0.25,0.00015076935000069307,-0.7847281000000119,-1.3267627997746182e-05,-2.355913599999997,0.00013623828999818747,1.5709857999999999,0.786094999999996,0.039999984,0.039999984,-9.81668000000016,-0.0016160132363040836,0.0006493899000121447,0.0018948009999386873,-0.010138778015926204,0.001032974099966796
0.2525,0.00015012150600083313,-0.7847184250000124,-1.5369800297296553e-05,-2.3559153099999977,0.00013792829949782663,1.5709860999999996,0.7860986899999952,0.0399999834,0.039999982950000006,-9.816585800000121,-0.001635957590744271,0.0006401044500119413,0.0019481505849313911,-0.010169060714503846,0.0010620376499626235
0.255,0.0001494736620008414,-0.7847087500000126,-1.747197259726979e-05,-2.355917019999998,0.0001396183089978051,1.5709863999999996,0.7861023799999952,0.0399999828,0.0399999819,-9.816491600000122,-0.001655901945170137,0.0006308190000120595,0.0020015001699307117,-0.01019934341307515,0.0010911011999622535
0.2575,0.00014882581800084965,-0.7846990750000127,-1.9574144897243024e-05,-2.3559187299999977,0.00014130831849778358,1.5709866999999997,0.7861060699999952,0.0399999822,0.039999980850000005,-9.816397400000124,-0.001675846299596003,0.0006215335500121778,0.0020548497549300326,-0.010229626111646455,0.0011201647499618835
0.26,0.00014817797400085787,-0.7846894000000129,-2.167631719721626e-05,-2.355920439999998,0.00014299832799776206,1.5709869999999997,0.7861097599999951,0.0399999816,0.0399999798,-9.816303200000124,-0.0016957906540218692,0.000612248100012296,0.0021081993399293536,-0.010259908810217759,0.0011492282999615135
0.2625,0.00014753013000086613,-0.7846797250000129,-2.3778489497189495e-05,-2.355922149999998,0.00014468833749774055,1.5709872999999996,0.7861134499999951,0.039999981,0.03999997875,-9.816209000000127,-0.0017157350084477353,0.0006029626500124142,0.002161548924928674,-0.010290191508789064,0.0011782918499611435
0.265,0.00014688228600087439,-0.7846700500000131,-2.5880661797162728e-05,-2.3559238599999976,0.00014637834699771904,1.5709875999999996,0.786117139999995,0.039999980399999996,0.0399999777,-9.816114800000127,-0.0017356793628736013,0.0005936772000125324,0.002214898509927995,-0.010320474207360368,0.0012073553999607735
0.2675,0.0001461964035010381,-0.7846602450000137,-2.8104682596637942e-05,-2.355925249999999,0.0001481660794972981,1.570988019999999,0.7861210499999941,0.03999997985,0.0399999768,-9.81602570000011,-0.0017548605741226466,0.0005848158550109172,0.0022700610649199057,-0.010349151259253465,0.001237346529956612
0.27,0.0001454344440010478,-0.7846501800000139,-3.057240039660652e-05,-2.355925999999999,0.00015014925799727285,1.570988679999999,0.7861253999999941,0.039999979399999996,0.0399999762,-9.815946800000109,-0.0017725154990087218,0.0005768027200110193,0.002328849559919157,-0.010374617017770522,0.0012691928199562066
0.2725,0.0001446724845010575,-0.784640115000014,-3.30401181965751e-05,-2.3559267499999987,0.00015213243649724758,1.570989339999999,0.786129749999994,0.03999997895,0.0399999756,-9.81586790000011,-0.001790170423894797,0.0005687895850111212,0.0023876380549184084,-0.010400082776287577,0.0013010391099558011
0.275,0.00014391052500106722,-0.7846300500000141,-3.550783599654368e-05,-2.355927499999999,0.00015411561499722233,1.570989999999999,0.786134099999994,0.0399999785,0.039999975,-9.81578900000011,-0.0018078253487808723,0.0005607764500112233,0.0024464265499176603,-0.010425548534804633,0.0013328853999553956
0.2775,0.0001431485655010769,-0.7846199850000143,-3.7975553796512264e-05,-2.355928249999999,0.0001560987934971971,1.570990659999999,0.7861384499999938,0.039999978049999996,0.0399999744,-9.815710100000112,-0.0018254802736669474,0.0005527633150113254,0.0025052150449169116,-0.010451014293321688,0.0013647316899549902
0.28,0.00014238660600108662,-0.7846099200000144,-4.0443271596480846e-05,-2.355928999999999,0.00015808197199717184,1.5709913199999992,0.7861427999999938,0.0399999776,0.039999973800000005,-9.815631200000112,-0.0018431351985530226,0.0005447501800114274,0.002564003539916163,-0.010476480051838743,0.0013965779799545847
0.28250000000000003,0.0001416246465010963,-0.7845998550000145,-4.291098939644943e-05,-2.3559297499999987,0.0001600651504971466,1.5709919799999992,0.7861471499999937,0.03999997715,0.039999973200000004,-9.815552300000114,-0.0018607901234390979,0.0005367370450115294,0.0026227920349154144,-0.0105019458103558,0.0014284242699541794
0.28500000000000003,0.00014077945700128724,-0.7845894200000154,-4.564508779583801e-05,-2.35593006,0.00016226199699665613,1.570992669999999,0.7861519499999927,0.0399999766,0.039999972700000004,-9.8154347000002,-0.0018690015189298545,0.000524660340020479,0.0026851443099069065,-0.010522493440631534,0.0014622390399494879
0.28750000000000003,0.00013989265250129854,-0.7845788000000156,-4.851237649580151e-05,-2.35593015,0.0001645656774966268,1.570993374999999,0.7861569749999926,0.039999976,0.03999997225,-9.8152977500002,-0.0018724911496922902,0.0005105518500206587,0.00274927847490609,-0.010540582006770638,0.0014970380499490447
0.29,0.00013900584800130984,-0.7845681800000157,-5.1379665195764936e-05,-2.3559302399999997,0.0001668693579965974,1.570994079999999,0.7861619999999926,0.0399999754,0.0399999718,-9.815160800000202,-0.0018759807804547256,0.0004964433600208386,0.002813412639905272,-0.010558670572909743,0.0015318370599486009
0.2925,0.00013811904350132114,-0.7845575600000159,-5.4246953895728426e-05,-2.35593033,0.00016917303849656808,1.570994784999999,0.7861670249999925,0.039999974800000004,0.03999997135,-9.815023850000204,-0.0018794704112171613,0.0004823348700210183,0.0028775468049044555,-0.010576759139048847,0.0015666360699481579
0.295,0.00013723223900133241,-0.784546940000016,-5.7114242595691917e-05,-2.35593042,0.00017147671899653873,1.570995489999999,0.7861720499999925,0.0399999742,0.0399999709,-9.814886900000205,-0.0018829600419795968,0.0004682263800211979,0.0029416809699036386,-0.01059484770518795,0.0016014350799477147
0.2975,0.00013634543450134371,-0.784536320000016,-5.998153129565541e-05,-2.35593051,0.0001737803994965094,1.5709961949999989,0.7861770749999923,0.0399999736,0.039999970450000005,-9.814749950000207,-0.0018864496727420323,0.00045411789002137754,0.003005815134902822,-0.010612936271327056,0.0016362340899472717
0.3,0.00013545863000135502,-0.7845257000000162,-6.284881999561891e-05,-2.3559306,0.00017608407999648008,1.5709968999999988,0.7861820999999923,0.039999973,0.03999997,-9.81461300000021,-0.0018899393035044679,0.00044000940002155716,0.0030699492999020058,-0.01063102483746616,0.0016710330999468287
0.3025,0.00013443607250157545,-0.7845144650000173,-6.61500640949138e-05,-2.355930030000001,0.00017873584749591445,1.5709975899999988,0.786187904999991,0.03999997255,0.0399999694,-9.814549100000098,-0.0019050035567255506,0.00044990367898475604,0.0031396997048925364,-0.010645001381614045,0.0017088222399417787
0.305,0.00013341351500158847,-0.7845032300000174,-6.945130819487177e-05,-2.355929460000001,0.0001813876149958807,1.5709982799999989,0.7861937099999909,0.0399999721,0.0399999688,-9.8144852000001,-0.0019200678099643188,0.00045979795798463006,0.0032094501098916483,-0.010658977925755648,0.0017466113799412975
0.3075,0.00013239095750160147,-0.7844919950000175,-7.275255229482975e-05,-2.3559288900000013,0.00018403938249584692,1.5709989699999989,0.786199514999991,0.03999997165,0.0399999682,-9.8144213000001,-0.001935132063203087,0.00046969223698450403,0.00327920051489076,-0.01067295446989725,0.0017844005199408165
0.31,0.0001313684000016145,-0.7844807600000178,-7.605379639478772e-05,-2.355928320000001,0.00018669114999581317,1.570999659999999,0.7862053199999909,0.039999971200000005,0.0399999676,-9.814357400000102,-0.0019501963164418553,0.00047958651598437805,0.003348950919889872,-0.010686931014038852,0.0018221896599403353
0.3125,0.00013034584250162752,-0.7844695250000179,-7.935504049474569e-05,-2.355927750000001,0.0001893429174957794,1.571000349999999,0.7862111249999908,0.03999997075,0.039999967,-9.814293500000103,-0.0019652605696806233,0.0004894807949842521,0.0034187013248889843,-0.010700907558180454,0.0018599787999398544
0.315,0.00012932328500164054,-0.784458290000018,-8.265628459470365e-05,-2.355927180000001,0.00019199468499574564,1.5710010399999987,0.7862169299999907,0.03999997030000001,0.039999966399999996,-9.814229600000102,-0.001980324822919392,0.0004993750739841262,0.003488451729888096,-0.010714884102322056,0.0018977679399393732
0.3175,0.0001282518310019014,-0.7844467950000196,-8.611374029386952e-05,-2.355926275000003,0.00019477175699507645,1.5710017399999987,0.7862230049999893,0.0399999698,0.0399999657,-9.814167550000095,-0.001990625879260285,0.0005085233869875493,0.0035600388798776132,-0.010727717354876504,0.0019365625149336432
0.32,0.0001270825840019482,-0.78443478000002,-8.988361919371866e-05,-2.3559247000000028,0.0001977994379949553,1.5710024599999988,0.7862296199999891,0.039999969200000006,0.0399999648,-9.814109200000098,-0.001991400541736289,0.000516179767987243,0.0036352995198746015,-0.010738264024240047,0.0019773679599320105
0.3225,0.00012591333700199498,-0.7844227650000205,-9.36534980935678e-05,-2.355923125000003,0.00020082711899483413,1.5710031799999988,0.7862362349999887,0.039999968600000005,0.0399999639,-9.8140508500001,-0.001992175204212293,0.0005238361489869366,0.00371056015987159,-0.01074881069360359,0.0020181734049303777
0.325,0.00012474409000204177,-0.7844107500000209,-9.742337699341694e-05,-2.355921550000003,0.00020385479999471297,1.5710038999999987,0.7862428499999885,0.039999968000000004,0.039999963,-9.813992500000102,-0.001992949866688297,0.0005314925299866303,0.0037858207998685777,-0.010759357362967133,0.0020589788499287445
0.3275,0.00012357484300208857,-0.7843987350000214,-0.00010119325589326608,-2.355919975000003,0.00020688248099459181,1.5710046199999987,0.7862494649999883,0.0399999674,0.0399999621,-9.813934150000104,-0.001993724529164301,0.0005391489109863238,0.003861081439865566,-0.010769904032330677,0.0020997842949271118
0.33,0.00012240559600213536,-0.784386720000022,-0.00010496313479311522,-2.355918400000003,0.00020991016199447065,1.5710053399999988,0.7862560799999879,0.0399999668,0.0399999612,-9.813875800000107,-0.001994499191640305,0.0005468052919860174,0.003936342079862555,-0.010780450701694219,0.002140589739925479
0.3325,0.00012123634900218214,-0.7843747050000224,-0.00010873301369296437,-2.355916825000003,0.00021293784299434952,1.5710060599999986,0.7862626949999877,0.0399999662,0.039999960300000005,-9.813817450000109,-0.001995273854116309,0.0005544616729857111,0.004011602719859543,-0.010790997371057763,0.002181395184923846
0.335,0.00011996193000248138,-0.784362130000024,-0.00011283859299200906,-2.3559147500000046,0.00021623485099358307,1.5710067799999987,0.786269899999986,0.0399999652,0.039999959,-9.813736800000171,-0.0019909427268558523,0.0005568321900005094,0.004090628239848709,-0.01079854490234308,0.002224308459917785
0.3375,0.00011863492500246208,-0.7843492750000238,-0.00011711202249207125,-2.3559124250000045,0.000219666522493633,1.5710074999999988,0.7862773999999861,0.039999964,0.0399999575,-9.81364500000017,-0.0019840587047055725,0.0005565597750005055,0.004171536199849887,-0.010804592864576605,0.0022682756499184252
0.34,0.00011730792000244277,-0.7843364200000237,-0.00012138545199213344,-2.3559101000000044,0.00022309819399368296,1.5710082199999986,0.7862848999999862,0.039999962800000004,0.039999956,-9.81355320000017,-0.001977174682555292,0.0005562873600005015,0.004252444159851064,-0.010810640826810127,0.002312242839919065
0.3425,0.00011598091500242345,-0.7843235650000234,-0.00012565888149219562,-2.3559077750000044,0.0002265298654937329,1.5710089399999987,0.7862923999999863,0.0399999616,0.039999954500000004,-9.813461400000168,-0.001970290660405012,0.0005560149450004975,0.004333352119852241,-0.01081668878904365,0.002356210029919705
0.34500000000000003,0.00011465391000240415,-0.7843107100000233,-0.00012993231099225783,-2.3559054500000043,0.00022996153699378282,1.5710096599999988,0.7862998999999865,0.039999960400000006,0.039999953000000005,-9.813369600000167,-0.0019634066382547316,0.0005557425300004936,0.004414260079853419,-0.010822736751277174,0.002400177219920345
0.34750000000000003,0.00011332690500238483,-0.7842978550000231,-0.00013420574049232,-2.355903125000004,0.00023339320849383277,1.5710103799999988,0.7863073999999866,0.039999959200000004,0.039999951500000006,-9.813277800000165,-0.0019565226161044518,0.0005554701150004896,0.004495168039854596,-0.010828784713510696,0.0024441444099209844
0.35000000000000003,0.00011199990000236552,-0.7842850000000229,-0.0001384791699923822,-2.355900800000004,0.0002368248799938827,1.5710110999999987,0.7863148999999867,0.039999958,0.03999995,-9.813186000000163,-0.0019496385939541715,0.0005551977000004856,0.0045760759998557735,-0.010834832675744218,0.0024881115999216244
0.3525,0.00011050405800268557,-0.7842712240000247,-0.00014329119999136072,-2.3558977250000055,0.00024068843599306356,1.5710123299999978,0.7863233494999848,0.0399999574,0.039999949550000004,-9.81311880000012,-0.0019262940856115617,0.0005440884660199449,0.004662598174844663,-0.010837484570215324,0.0025349942349158295
0.355,0.00010900821600270461,-0.784257448000025,-0.00014810322999129946,-2.3558946500000055,0.0002445519919930144,1.5710135599999977,0.7863317989999847,0.0399999568,0.0399999491,-9.813051600000122,-0.001902949577239609,0.0005329792320200865,0.004749120349843561,-0.010840136464680374,0.002581876869915232
0.3575,0.00010751237400272366,-0.7842436720000251,-0.00015291525999123817,-2.3558915750000056,0.00024841554799296517,1.5710147899999978,0.7863402484999846,0.0399999562,0.03999994865,-9.812984400000122,-0.001879605068867656,0.0005218699980202279,0.004835642524842459,-0.010842788359145426,0.0026287595049146353
0.36,0.00010601653200274269,-0.7842298960000252,-0.0001577272899911769,-2.3558885000000056,0.000252279103992916,1.5710160199999976,0.7863486979999845,0.0399999556,0.0399999482,-9.812917200000124,-0.0018562605604957032,0.0005107607640203693,0.004922164699841357,-0.010845440253610478,0.0026756421399140385
0.3625,0.00010452069000276174,-0.7842161200000254,-0.00016253931999111565,-2.3558854250000056,0.00025614265999286684,1.5710172499999977,0.7863571474999844,0.039999955,0.03999994775,-9.812850000000124,-0.0018329160521237504,0.0004996515300205107,0.005008686874840256,-0.010848092148075528,0.0027225247749134416
0.365,0.00010302484800278078,-0.7842023440000255,-0.00016735134999105438,-2.3558823500000057,0.0002600062159928176,1.5710184799999976,0.7863655969999843,0.039999954399999996,0.039999947300000005,-9.812782800000125,-0.0018095715437517978,0.0004885422960206522,0.005095209049839154,-0.01085074404254058,0.0027694074099128448
0.3675,0.00010146902350313664,-0.7841882120000278,-0.00017235462548991921,-2.3558789650000076,0.00026402316399190713,1.5710197249999975,0.7863743799999823,0.039999954,0.039999947,-9.812720425000098,-0.0017905970104229814,0.0004835857979862446,0.005183590574827612,-0.010851680906494106,0.002817305794906544
0.37,9.979323400315798e-05,-0.7841733680000279,-0.00017774039198985064,-2.3558749600000075,0.00026834689599185204,1.5710209999999976,0.7863838299999821,0.039999954,0.039999947,-9.8126677000001,-0.0017803624272538867,0.0004909347719861511,0.00527569079982644,-0.010849187709395757,0.0028672356799059086
0.3725,9.811744450317932e-05,-0.7841585240000282,-0.00018312615848978207,-2.3558709550000074,0.000272670627991797,1.5710222749999976,0.7863932799999821,0.039999954,0.039999947,-9.8126149750001,-0.001770127844084792,0.0004982837459860575,0.005367791024825267,-0.01084669451229741,0.0029171655649052725
0.375,9.644165500320065e-05,-0.7841436800000283,-0.0001885119249897135,-2.355866950000008,0.00027699435999174195,1.5710235499999976,0.786402729999982,0.039999954,0.039999947,-9.8125622500001,-0.0017598932609156975,0.000505632719985964,0.005459891249824094,-0.010844201315199063,0.002967095449904637
0.3775,9.4765865503222e-05,-0.7841288360000285,-0.00019389769148964493,-2.3558629450000077,0.0002813180919916869,1.5710248249999974,0.7864121799999818,0.039999954,0.039999947,-9.812509525000102,-0.0017496586777466026,0.0005129816939858704,0.0055519914748229215,-0.010841708118100713,0.0030170253349040012
0.38,9.309007600324334e-05,-0.7841139920000287,-0.00019928345798957635,-2.3558589400000076,0.00028564182399163187,1.5710260999999974,0.7864216299999817,0.039999954,0.039999947,-9.812456800000103,-0.001739424094577508,0.0005203306679857768,0.005644091699821749,-0.010839214921002366,0.0030669552199033656
0.3825,9.141428650326466e-05,-0.7840991480000289,-0.00020466922448950778,-2.355854935000008,0.0002899655559915768,1.5710273749999975,0.7864310799999816,0.039999954,0.039999947,-9.812404075000103,-0.0017291895114084133,0.0005276796419856832,0.005736191924820577,-0.010836721723904017,0.00311688510490273
0.385,8.961112700366063e-05,-0.7840835300000314,-0.0002104608719882454,-2.3558502800000096,0.0002946148119905643,1.5710286499999975,0.7864412519999794,0.039999954399999996,0.0399999473,-9.81233955000014,-0.0017058134079566017,0.0005305269299988305,0.005832093459808223,-0.010831774957490065,0.003168844499896125
0.3875,8.77442825036844e-05,-0.7840675250000315,-0.00021645545998816908,-2.3558453000000097,0.000299426829990503,1.5710299249999975,0.7864517849999793,0.039999955,0.03999994775,-9.812269125000139,-0.001675866544305703,0.0005311233749988229,0.0059298956498069775,-0.010825601406407535,0.0032218186498954504
0.39,8.587743800370818e-05,-0.7840515200000318,-0.00022245004798809276,-2.3558403200000098,0.0003042388479904418,1.5710311999999975,0.7864623179999791,0.0399999556,0.039999948199999996,-9.81219870000014,-0.0016459196806548042,0.0005317198199988153,0.006027697839805732,-0.010819427855325003,0.0032747927998947757
0.3925,8.401059350373194e-05,-0.784035515000032,-0.00022844463598801644,-2.35583534000001,0.0003090508659903805,1.5710324749999975,0.786472850999979,0.0399999562,0.03999994865,-9.812128275000141,-0.0016159728170039057,0.0005323162649988076,0.006125500029804487,-0.010813254304242471,0.0033277669498941015
0.395,8.214374900375571e-05,-0.7840195100000321,-0.00023443922398794012,-2.35583036000001,0.00031386288399031924,1.5710337499999976,0.7864833839999789,0.0399999568,0.0399999491,-9.81205785000014,-0.001586025953353007,0.0005329127099988001,0.006223302219803242,-0.01080708075315994,0.003380741099893427
0.3975,8.027690450377947e-05,-0.7840035050000324,-0.0002404338119878638,-2.35582538000001,0.00031867490199025795,1.5710350249999974,0.7864939169999787,0.0399999574,0.03999994955,-9.811987425000142,-0.0015560790897021083,0.0005335091549987925,0.006321104409801996,-0.010800907202077409,0.0034337152498927523
0.4,7.841006000380324e-05,-0.7839875000000326,-0.0002464283999877875,-2.35582040000001,0.00032348691999019665,1.5710362999999974,0.7865044499999786,0.039999958,0.03999995,-9.811917000000143,-0.0015261322260512096,0.0005341055999987849,0.006418906599800751,-0.010794733650994877,0.003486689399892078
0.4025,7.634108810424137e-05,-0.7839702950000352,-0.00025306684798639126,-2.355814535000012,0.0003288153399890768,1.5710378149999968,0.7865160974999761,0.0399999583,0.0399999506,-9.811854600000128,-0.001474458281987951,0.0005139505425413176,0.006522243909788159,-0.01078541423196014,0.0035427010198851765
0.405,7.427211620426771e-05,-0.7839530900000354,-0.0002597052959863067,-2.355808670000012,0.00033414375998900897,1.571039329999997,0.786527744999976,0.0399999586,0.039999951199999995,-9.811792200000129,-0.001422784337880429,0.0004937954850415743,0.006625581219786843,-0.010776094812918994,0.0035987126398844636
0.40750000000000003,7.220314430429406e-05,-0.7839358850000357,-0.0002663437439862222,-2.355802805000012,0.0003394721799889411,1.5710408449999969,0.7865393924999758,0.0399999589,0.039999951799999996,-9.81172980000013,-0.0013711103937729071,0.00047364042754183093,0.0067289185297855275,-0.010766775393877846,0.0036547242598837506
0.41000000000000003,7.01341724043204e-05,-0.783918680000036,-0.00027298219198613766,-2.3557969400000123,0.00034480059998887323,1.5710423599999968,0.7865510399999757,0.039999959200000004,0.0399999524,-9.81166740000013,-0.001319436449665385,0.0004534853700420875,0.006832255839784212,-0.0107574559748367,0.0037107358798830373
0.41250000000000003,6.806520050434673e-05,-0.7839014750000362,-0.00027962063998605315,-2.355791075000012,0.0003501290199888054,1.5710438749999969,0.7865626874999755,0.0399999595,0.039999953,-9.811605000000132,-0.001267762505557863,0.0004333303125423441,0.0069355931497828965,-0.010748136555795554,0.0037667474998823243
0.41500000000000004,6.599622860437309e-05,-0.7838842700000364,-0.00028625908798596863,-2.355785210000012,0.00035545743998873755,1.5710453899999968,0.7865743349999753,0.0399999598,0.0399999536,-9.811542600000132,-0.0012160885614503408,0.00041317525504260075,0.0070389304597815805,-0.010738817136754408,0.003822759119881611
0.4175,6.385619580485278e-05,-0.7838665975000396,-0.0002931237969844406,-2.3557790350000145,0.0003609673379875119,1.571047009999996,0.7865863829999726,0.0399999603,0.039999954,-9.811483750000109,-0.0011697554728773943,0.00040356819497556985,0.007144165549768156,-0.010728244343800332,0.0038798215598741933
0.42,6.157404120488184e-05,-0.7838479900000398,-0.0003004410279843474,-2.3557722400000145,0.00036684019198743713,1.571048839999996,0.7865992319999725,0.039999961199999996,0.039999954,-9.81143200000011,-0.0011341040954756033,0.0004150571299754236,0.007253196199766768,-0.010715164802996459,0.00393898563987344
0.4225,5.92918866049109e-05,-0.7838293825000401,-0.0003077582589842543,-2.3557654450000145,0.00037271304598736235,1.571050669999996,0.7866120809999724,0.0399999621,0.039999954,-9.811380250000111,-0.0010984527180738122,0.0004265460649752773,0.00736222684976538,-0.010702085262192585,0.003998149719872687
0.425,5.7009732004939955e-05,-0.7838107750000403,-0.0003150754899841611,-2.3557586500000145,0.00037858589998728757,1.571052499999996,0.7866249299999721,0.039999963,0.039999954,-9.811328500000112,-0.0010628013406720211,0.00043803499997513103,0.007471257499763992,-0.010689005721388712,0.004057313799871933
0.4275,5.472757740496901e-05,-0.7837921675000405,-0.0003223927209840679,-2.3557518550000145,0.0003844587539872128,1.571054329999996,0.786637778999972,0.0399999639,0.039999954,-9.811276750000113,-0.00102714996327023,0.00044952393497498476,0.007580288149762604,-0.01067592618058484,0.004116477879871181
0.43,5.244542280499807e-05,-0.7837735600000407,-0.0003297099519839748,-2.355745060000015,0.000390331607987138,1.571056159999996,0.7866506279999719,0.039999964799999996,0.039999954,-9.811225000000114,-0.000991498585868439,0.0004610128699748385,0.007689318799761216,-0.010662846639780964,0.004175641959870427
0.4325,5.0163268205027124e-05,-0.783754952500041,-0.0003370271829838816,-2.355738265000015,0.0003962044619870633,1.571057989999996,0.7866634769999717,0.039999965699999994,0.039999954,-9.811173250000115,-0.0009558472084666478,0.0004725018049746922,0.007798349449759828,-0.010649767098977091,0.004234806039869674
0.435,4.773167380555281e-05,-0.7837353850000444,-0.00034482008198220767,-2.3557308000000172,0.0004024587489857209,1.5710598399999958,0.7866771599999688,0.039999966,0.039999954,-9.811126700000099,-0.0009051408154317089,0.00046490971003795785,0.007911060699746208,-0.010634328797496337,0.00429588701986255
0.4375,4.522535950558473e-05,-0.7837153375000446,-0.00035285081498210544,-2.355723000000017,0.0004089037524856388,1.5710616999999958,0.7866912599999686,0.039999966,0.039999954,-9.811082750000098,-0.0008469069145054354,0.00044777710003817594,0.008025612249744749,-0.010617711115665429,0.0043579264498617605
0.44,4.2719045205616637e-05,-0.7836952900000449,-0.00036088154798200316,-2.3557152000000174,0.00041534875598555677,1.5710635599999958,0.7867053599999684,0.039999966,0.039999954,-9.811038800000098,-0.0007886730135791618,0.0004306444900383941,0.008140163799743291,-0.010601093433834521,0.00441996587986097
0.4425,4.0212730905648546e-05,-0.7836752425000452,-0.00036891228098190094,-2.3557074000000178,0.00042179375948547473,1.5710654199999958,0.7867194599999683,0.039999966,0.039999954,-9.8109948500001,-0.0007304391126528883,0.0004135118800386122,0.008254715349741832,-0.010584475752003612,0.00448200530986018
0.445,3.7706416605680456e-05,-0.7836551950000454,-0.0003769430139817987,-2.3556996000000177,0.0004282387629853927,1.5710672799999958,0.7867335599999681,0.039999966,0.039999954,-9.8109509000001,-0.0006722052117266147,0.00039637927003883036,0.008369266899740373,-0.010567858070172704,0.0045440447398593905
0.4475,3.5200102305712365e-05,-0.7836351475000457,-0.00038497374698169643,-2.355691800000018,0.0004346837664853106,1.5710691399999959,0.7867476599999679,0.039999966,0.039999954,-9.8109069500001,-0.0006139713108003411,0.00037924666003904845,0.008483818449738915,-0.010551240388341796,0.0046060841698586
0.45,3.269378800574428e-05,-0.783615100000046,-0.0003930044799815942,-2.355684000000018,0.00044112876998522857,1.5710709999999959,0.7867617599999677,0.039999966,0.039999954,-9.8108630000001,-0.0005557374098740676,0.0003621140500392666,0.008598369999737456,-0.010534622706510887,0.004668123599857811
0.4525,2.9952389656317978e-05,-0.7835935810000496,-0.000401783234479768,-2.3556752400000205,0.00044817367148376394,1.571072859999996,0.7867771919999644,0.039999966,0.039999954,-9.810813500000114,-0.0004865030294016458,0.00035087308002590656,0.008718472299723204,-0.010515366680964429,0.004733147309850143
0.455,2.721099130635288e-05,-0.7835720620000499,-0.00041056198897965624,-2.3556664800000204,0.00045521857298367425,1.5710747199999957,0.7867926239999642,0.039999966,0.039999954,-9.810764000000114,-0.0004172686489040118,0.00033963211002604966,0.008838574599721675,-0.010496110655411924,0.004798171019849315
0.4575,2.4469592956387786e-05,-0.7835505430000501,-0.00041934074347954446,-2.3556577200000204,0.00046226347448358456,1.5710765799999957,0.7868080559999641,0.039999966,0.039999954,-9.810714500000115,-0.00034803426840637774,0.00032839114002619277,0.008958676899720148,-0.010476854629859419,0.004863194729848488
0.46,2.1728194606422685e-05,-0.7835290240000504,-0.00042811949797943267,-2.3556489600000208,0.00046930837598349487,1.5710784399999957,0.7868234879999638,0.039999966,0.039999954,-9.810665000000116,-0.00027879988790874375,0.0003171501700263359,0.009078779199718619,-0.010457598604306914,0.004928218439847659
0.4625,1.898679625645759e-05,-0.7835075050000507,-0.00043689825247932094,-2.3556402000000207,0.0004763532774834051,1.5710802999999958,0.7868389199999637,0.039999966,0.039999954,-9.810615500000116,-0.0002095655074111097,0.00030590920002647904,0.00919888149971709,-0.010438342578754409,0.004993242149846831
0.465,1.6245397906492492e-05,-0.783485986000051,-0.00044567700697920916,-2.355631440000021,0.00048339817898331543,1.5710821599999956,0.7868543519999635,0.039999966,0.039999954,-9.810566000000117,-0.00014033112691347565,0.00029466823002662214,0.00931898379971556,-0.010419086553201904,0.005058265859846004
0.4675,1.3422031157112908e-05,-0.783463943000055,-0.0004547165294772347,-2.3556223350000236,0.000490652193481732,1.5710842049999942,0.78687023799996,0.039999966,0.039999954,-9.810519350000098,-6.183253158634924e-05,0.0002749844015870738,0.009440890249701144,-0.010399070754698456,0.005124275479838133
0.47000000000000003,1.0434727607150944e-05,-0.7834408520000553,-0.000464277587977113,-2.3556125400000236,0.0004983244339816343,1.5710866199999942,0.7868870319999598,0.039999966,0.039999954,-9.810478400000097,3.519449359793491e-05,0.0002384148560875394,0.009566404999699546,-0.01037753541027687,0.005192256919837268
0.47250000000000003,7.447424057188978e-06,-0.7834177610000556,-0.0004738386464769912,-2.3556027450000236,0.0005059966744815367,1.5710890349999942,0.7869038259999596,0.039999966,0.039999954,-9.810437450000098,0.00013222151878221903,0.000201845310588005,0.009691919749697946,-0.010356000065855285,0.005260238359836402
0.47500000000000003,4.460120507227013e-06,-0.7833946700000559,-0.0004833997049768695,-2.3555929500000237,0.000513668914981439,1.5710914499999942,0.7869206199999594,0.039999966,0.039999954,-9.810396500000099,0.00022924854396650317,0.0001652757650884706,0.009817434499696348,-0.010334464721433699,0.005328219799835537
0.47750000000000004,1.4728169572650469e-06,-0.7833715790000562,-0.0004929607634767477,-2.355583155000024,0.0005213411554813413,1.5710938649999941,0.7869374139999592,0.039999966,0.039999954,-9.810355550000098,0.0003262755691507873,0.0001287062195889362,0.00994294924969475,-0.010312929377012114,0.005396201239834671
0.48,-1.51448659269685e-06,-0.7833484880000564,-0.0005025218219766258,-2.355573360000024,0.0005290133959812435,1.5710962799999941,0.786954207999959,0.039999966,0.039999954,-9.8103146000001,0.0004233025943350693,9.213667408940261e-05,0.010068463999693151,-0.010291394032590528,0.0054641826798338036
0.4825,-4.501790142658818e-06,-0.7833253970000568,-0.0005120828804765041,-2.355563565000024,0.0005366856364811457,1.571098694999994,0.7869710019999587,0.039999966,0.039999954,-9.8102736500001,0.0005203296195193534,5.556712858986824e-05,0.010193978749691551,-0.010269858688168943,0.005532164119832939
0.485,-7.660190991986818e-06,-0.7833011640000612,-0.0005221880599743662,-2.355553100000027,0.0005447942909794311,1.571101119999994,0.786988739999955,0.039999966,0.0399999536,-9.810225900000127,0.000604423647554645,3.8844067416796866e-05,0.010323176899676306,-0.010245252121304426,0.005602179369824537
0.4875,-1.0904140491945517e-05,-0.7832763600000616,-0.0005325652999742341,-2.355542300000027,0.000553121152479325,1.5711035499999941,0.7870069499999548,0.039999966,0.039999953,-9.810174750000126,0.0006820511769438066,3.2044248516883443e-05,0.010454216749674637,-0.010219109943201434,0.0056732115248236325
0.49,-1.4148089991904215e-05,-0.7832515560000619,-0.000542942539974102,-2.355531500000027,0.000561448013979219,1.571105979999994,0.7870251599999546,0.039999966,0.0399999524,-9.810123600000127,0.0007596787063329683,2.5244429616970014e-05,0.010585256599672969,-0.010192967765098442,0.005744243679822728
0.4925,-1.7392039491862914e-05,-0.7832267520000622,-0.0005533197799739699,-2.355520700000027,0.000569774875479113,1.571108409999994,0.7870433699999543,0.039999966,0.0399999518,-9.810072450000128,0.00083730623572213,1.8444610717056592e-05,0.0107162964496713,-0.01016682558699545,0.005815275834821824
0.495,-2.0635988991821612e-05,-0.7832019480000625,-0.0005636970199738377,-2.3555099000000275,0.0005781017369790069,1.571110839999994,0.7870615799999541,0.039999966,0.0399999512,-9.810021300000129,0.0009149337651112915,1.1644791817143163e-05,0.010847336299669632,-0.010140683408892457,0.005886307989820919
0.4975,-2.3879938491780308e-05,-0.7831771440000629,-0.0005740742599737056,-2.3554991000000274,0.0005864285984789009,1.571113269999994,0.7870797899999539,0.039999966,0.0399999506,-9.80997015000013,0.0009925612945004532,4.844972917229741e-06,0.010978376149667965,-0.010114541230789465,0.0059573401448200156
0.5,-2.712388799173901e-05,-0.7831523400000632,-0.0005844514999735734,-2.3554883000000277,0.0005947554599787949,1.5711156999999938,0.7870979999999536,0.039999966,0.03999995,-9.80991900000013,0.0010701888238896149,-1.9548459826836814e-06,0.011109415999666297,-0.010088399052686473,0.006028372299819111
0.5025000000000001,-3.063510299101376e-05,-0.783125733000068,-0.0005956785649712666,-2.3554764050000307,0.0006037637609769451,1.5711182799999934,0.7871177249999495,0.039999966,0.03999995,-9.809889900000075,0.0011749301335886861,-2.781860553380701e-05,0.011245877899650755,-0.010060515534204046,0.0061021683998111345
0.505,-3.414631799096898e-05,-0.7830991260000685,-0.0006069056299711235,-2.3554645100000307,0.0006127720619768302,1.5711208599999933,0.7871374499999493,0.039999966,0.03999995,-9.809860800000076,0.0012796714433568003,-5.3682365133477136e-05,0.011382339799649014,-0.010032632015717188,0.006175964499810193
0.5075000000000001,-3.7657532990924354e-05,-0.7830725190000688,-0.0006181326949709807,-2.355452615000031,0.0006217803629767157,1.5711234399999934,0.787157174999949,0.039999966,0.03999995,-9.809831700000077,0.001384412753124919,-7.954612473314841e-05,0.01151880169964728,-0.010004748497230327,0.006249760599809255
0.51,-4.116874799087957e-05,-0.7830459120000691,-0.0006293597599708376,-2.355440720000031,0.0006307886639766008,1.5711260199999932,0.7871768999999488,0.039999966,0.03999995,-9.809802600000076,0.0014891540628930331,-0.00010540988433281853,0.011655263599645539,-0.009976864978743468,0.006323556699808314
0.5125,-4.467996299083479e-05,-0.7830193050000694,-0.0006405868249706944,-2.355428825000031,0.0006397969649764859,1.5711285999999933,0.7871966249999485,0.039999966,0.03999995,-9.809773500000077,0.0015938953726611473,-0.00013127364393248869,0.011791725499643798,-0.00994898146025661,0.0063973527998073725
0.515,-4.819117799079016e-05,-0.7829926980000698,-0.0006518138899705517,-2.355416930000031,0.0006488052659763714,1.5711311799999932,0.7872163499999483,0.039999966,0.03999995,-9.809744400000076,0.0016986366824292658,-0.00015713740353215995,0.011928187399642064,-0.00992109794176975,0.006471148899806435
0.5175,-5.1794978340013283e-05,-0.782965472000075,-0.000663335299968081,-2.3554046300000344,0.0006580495849743903,1.5711338949999922,0.787236584999944,0.039999966,0.03999995,-9.809714450000083,0.0018078362566098776,-0.00018734629439747227,0.012066409649626403,-0.009892488783304617,0.00654589653479797
0.52,-5.558394938996513e-05,-0.7829370080000754,-0.0006754453999679272,-2.3553915200000346,0.0006677659399742668,1.571136879999992,0.7872578399999437,0.039999966,0.03999995,-9.809682800000084,0.0019259523597210764,-0.0002262454478969779,0.012208152599624602,-0.009862428344865753,0.006622547239796995
0.5225,-5.9372920439916804e-05,-0.7829085440000757,-0.0006875554999677727,-2.355378410000035,0.0006774822949741429,1.5711398649999921,0.7872790949999434,0.039999966,0.03999995,-9.809651150000084,0.00204406846283227,-0.00026514460139648175,0.012349895549622795,-0.009832367906426892,0.006699197944796018
0.525,-6.316189148986865e-05,-0.7828800800000761,-0.0006996655999676188,-2.355365300000035,0.0006871986499740194,1.571142849999992,0.7873003499999432,0.039999966,0.03999995,-9.809619500000085,0.0021621845659434685,-0.00030404375489598734,0.012491638499620993,-0.00980230746798803,0.006775848649795043
0.5275,-6.695086253982033e-05,-0.7828516160000765,-0.0007117756999674643,-2.355352190000035,0.0006969150049738954,1.5711458349999918,0.787321604999943,0.039999966,0.03999995,-9.809587850000085,0.0022803006690546622,-0.00034294290839549126,0.012633381449619185,-0.009772247029549168,0.006852499354794065
0.53,-7.073983358977216e-05,-0.7828231520000768,-0.0007238857999673103,-2.3553390800000353,0.0007066313599737719,1.571148819999992,0.7873428599999427,0.039999966,0.03999995,-9.809556200000085,0.0023984167721658608,-0.0003818420618949968,0.012775124399617383,-0.009742186591110305,0.006929150059793092
0.5325,-7.452880463972384e-05,-0.7827946880000771,-0.000735995899967156,-2.3553259700000355,0.000716347714973648,1.5711518049999917,0.7873641149999424,0.039999966,0.03999995,-9.809524550000086,0.002516532875277054,-0.0004207412153945007,0.012916867349615576,-0.009712126152671443,0.007005800764792114
0.535,-7.850987298889053e-05,-0.7827649000000829,-0.0007487165239645066,-2.3553120700000387,0.0007265537399715231,1.5711547999999917,0.7873864499999377,0.039999966399999996,0.03999995,-9.809480900000136,0.0026575131337661317,-0.00048368255679573987,0.013062174599599206,-0.009679464064631015,0.0070844110397831304
0.5375,-8.258698998883853e-05,-0.7827344500000833,-0.0007617424099643405,-2.355297775000039,0.0007370045999713898,1.5711577999999917,0.7874093249999374,0.039999967,0.03999995,-9.809431250000136,0.002809925470083883,-0.0005586449922947837,0.013209263999597329,-0.009645501151773902,0.007164001099782115
0.54,-8.666410698878671e-05,-0.7827040000000838,-0.0007747682959641749,-2.3552834800000393,0.000747455459971257,1.5711607999999917,0.7874321999999372,0.0399999676,0.03999995,-9.809381600000137,0.0029623378064016406,-0.000633607427793831,0.01335635339959546,-0.009611538238916788,0.007243591159781104
0.5425,-9.074122398873471e-05,-0.7826735500000841,-0.0007877941819640088,-2.3552691850000396,0.0007579063199711237,1.5711637999999917,0.7874550749999368,0.0399999682,0.03999995,-9.809331950000137,0.0031147501427193918,-0.0007085698632928749,0.013503442799593585,-0.009577575326059677,0.007323181219780089
0.545,-9.481834098868289e-05,-0.7826431000000845,-0.0008008200679638433,-2.35525489000004,0.0007683571799709909,1.5711667999999916,0.7874779499999366,0.0399999688,0.03999995,-9.809282300000138,0.0032671624790371495,-0.0007835322987919222,0.013650532199591715,-0.009543612413202564,0.007402771279779077
0.5475,-9.889545798863089e-05,-0.782612650000085,-0.000813845953963677,-2.3552405950000397,0.0007788080399708577,1.5711697999999916,0.7875008249999362,0.0399999694,0.03999995,-9.809232650000139,0.0034195748153549007,-0.000858494734290966,0.013797621599589839,-0.009509649500345451,0.0074823613397780615
0.55,-0.00010297257498857906,-0.7825822000000853,-0.0008268718399635116,-2.35522630000004,0.0007892588999707248,1.5711727999999916,0.787523699999936,0.03999997,0.03999995,-9.80918300000014,0.0035719871516726584,-0.0009334571697900132,0.01394471099958797,-0.009475686587488338,0.00756195139977705
0.5525,-0.0001073480547375681,-0.7825497250000922,-0.0008408459914602957,-2.3552108500000437,0.0008004700649681462,1.5711761899999903,0.7875482399999303,0.03999997,0.03999995,-9.809147000000102,0.003697642776758064,-0.0009524560094460193,0.014096999549567309,-0.009440097725119903,0.00764418568976635
0.555,-0.0001117235344873931,-0.7825172500000935,-0.0008548201429597368,-2.3551954000000443,0.0008116812299676977,1.5711795799999901,0.7875727799999294,0.03999997,0.03999995,-9.809111000000104,0.003823298401768523,-0.0009714548489452594,0.014249288099561217,-0.009404508862746911,0.0077264199797630615
0.5575,-0.00011609901423721792,-0.782484775000095,-0.0008687942944591773,-2.355179950000045,0.0008228923949672489,1.57118296999999,0.7875973199999283,0.03999997,0.03999995,-9.809075000000105,0.003948954026778977,-0.0009904536884444988,0.01440157664955512,-0.00936892000037392,0.007808654269759769
0.56,-0.00012047449398704292,-0.7824523000000962,-0.0008827684459586184,-2.3551645000000456,0.0008341035599668005,1.57118635999999,0.7876218599999273,0.03999997,0.03999995,-9.809039000000107,0.0040746096517894365,-0.001009452527943739,0.01455386519954903,-0.009333331138000929,0.00789088855975648
0.5625,-0.00012484997373686773,-0.7824198250000975,-0.0008967425974580589,-2.3551490500000463,0.0008453147249663515,1.5711897499999898,0.7876463999999264,0.03999997,0.03999995,-9.809003000000107,0.00420026527679989,-0.0010284513674429783,0.014706153749542933,-0.00929774227562794,0.007973122849753187
0.5650000000000001,-0.00012922545348669273,-0.7823873500000988,-0.0009107167489575,-2.355133600000047,0.0008565258899659032,1.5711931399999897,0.7876709399999253,0.03999997,0.03999995,-9.80896700000011,0.00432592090181035,-0.0010474502069422185,0.014858442299536841,-0.009262153413254948,0.008055357139749898
0.5675,-0.00013370375398565225,-0.782354168500106,-0.0009250176274541922,-2.3551177700000507,0.0008679990524632506,1.571196589999989,0.7876960549999196,0.03999997015,0.039999950199999995,-9.80893310000009,0.00446335133115801,-0.0010806218698115617,0.01501244309951778,-0.009225604916109239,0.008138498949739762
0.5700000000000001,-0.00013838769598572051,-0.7823195740001055,-0.0009399719599544102,-2.3551011800000503,0.0008799962099634254,1.571200159999989,0.7877223199999199,0.039999970600000004,0.039999950799999996,-9.80890340000009,0.004624331369505216,-0.0011421391798124582,0.015169868399520075,-0.009187137149391593,0.008223455799741
0.5725,-0.0001430716379857886,-0.782284979500105,-0.0009549262924546275,-2.3550845900000503,0.0008919933674635998,1.571203729999989,0.7877485849999203,0.03999997105,0.0399999514,-9.80887370000009,0.0047853114078524155,-0.0012036564898133522,0.01532729369952236,-0.00914866938267395,0.008308412649742235
0.5750000000000001,-0.00014775557998585685,-0.7822503850001045,-0.0009698806249548455,-2.35506800000005,0.0009039905249637746,1.571207299999989,0.7877748499999206,0.0399999715,0.039999952,-9.80884400000009,0.004946291446199622,-0.0012651737998142488,0.015484718999524655,-0.009110201615956303,0.008393369499743474
0.5775,-0.00015243952198592492,-0.782215790500104,-0.0009848349574550627,-2.35505141000005,0.0009159876824639489,1.5712108699999892,0.787801114999921,0.03999997195,0.0399999526,-9.808814300000089,0.005107271484546821,-0.0013266911098151427,0.015642144299526945,-0.009071733849238659,0.008478326349744708
0.58,-0.00015712346398599297,-0.7821811960001035,-0.0009997892899552801,-2.3550348200000495,0.0009279848399641233,1.5712144399999894,0.7878273799999215,0.0399999724,0.039999953199999994,-9.808784600000088,0.00526825152289402,-0.0013882084198160365,0.01579956959952923,-0.009033266082521014,0.008563283199745942
0.5825,-0.00016180740598606123,-0.782146601500103,-0.001014743622455498,-2.3550182300000495,0.0009399819974642981,1.5712180099999895,0.7878536449999218,0.03999997285,0.039999953799999995,-9.808754900000089,0.005429231561241227,-0.001449725729816933,0.015956994899531524,-0.00899479831580337,0.00864824004974718
0.585,-0.0001667036199850954,-0.7821105490001097,-0.0010303723599524293,-2.355000830000053,0.0009525199349618373,1.5712216999999888,0.7878810939999165,0.0399999734,0.039999954399999996,-9.808732000000058,0.005600024479849081,-0.0015140091498043455,0.016117774499515958,-0.008955187909424742,0.008734982899738888
0.5875,-0.00017170596998503183,-0.7820737675001102,-0.0010463382999522262,-2.3549830250000534,0.0009653282624616746,1.5712254499999887,0.7879091349999161,0.039999974,0.039999955,-9.808712500000059,0.005775723838652868,-0.0015796756248035108,0.01628023124951389,-0.008915006183207983,0.008822618749737774
0.59,-0.00017670831998496802,-0.7820369860001106,-0.0010623042399520227,-2.3549652200000533,0.0009781365899615112,1.5712291999999888,0.7879371759999158,0.0399999746,0.0399999556,-9.808693000000059,0.0059514231974566465,-0.0016453420998026734,0.01644268799951182,-0.008874824456991224,0.008910254599736656
0.5925,-0.00018171066998490444,-0.7820002045001111,-0.0010782701799518198,-2.3549474150000536,0.0009909449174613483,1.5712329499999886,0.7879652169999154,0.039999975199999996,0.0399999562,-9.808673500000058,0.006127122556260433,-0.001711008574801839,0.016605144749509755,-0.008834642730774465,0.008997890449735542
0.595,-0.00018671301998484063,-0.7819634230001115,-0.001094236119951616,-2.354929610000054,0.001003753244961185,1.5712366999999887,0.787993257999915,0.0399999758,0.0399999568,-9.80865400000006,0.006302821915064212,-0.0017766750498010013,0.016767601499507682,-0.008794461004557708,0.009085526299734425
0.5975,-0.00019171536998477707,-0.7819266415001119,-0.0011102020599514132,-2.354911805000054,0.0010165615724610222,1.5712404499999886,0.7880212989999147,0.0399999764,0.0399999574,-9.808634500000059,0.006478521273867999,-0.0018423415248001668,0.01693005824950562,-0.00875427927834095,0.009173162149733311
0.6,-0.00019671771998471327,-0.7818898600001124,-0.0011261679999512097,-2.3548940000000544,0.001029369899960859,1.5712441999999884,0.7880493399999143,0.039999977,0.039999958,-9.80861500000006,0.0066542206326717784,-0.0019080079997993292,0.017092514999503546,-0.008714097552124192,0.009260797999732194
0.6025,-0.0002020482549836426,-0.78185079700012,-0.001143176589947807,-2.3548748150000587,0.0010430141699581308,1.5712483549999872,0.7880791989999084,0.039999977449999995,0.0399999583,-9.808596100000058,0.006867556412980918,-0.002013880099675119,0.01726002059948599,-0.008672186080494906,0.00935106379972301
0.605,-0.00020737878998357463,-0.7818117340001204,-0.0011601851799475902,-2.354855630000059,0.0010566584399579568,1.5712525099999872,0.788109057999908,0.0399999779,0.0399999586,-9.808577200000057,0.007080892193405062,-0.0021197521996737683,0.017427526199483852,-0.008630274608860334,0.009441329599721857
0.6075,-0.00021270932498350687,-0.7817726710001209,-0.001177193769947374,-2.354836445000059,0.0010703027099577835,1.571256664999987,0.7881389169999076,0.03999997835,0.0399999589,-9.808558300000058,0.0072942279738292155,-0.002225624299672423,0.01759503179948172,-0.008588363137225762,0.00953159539972071
0.61,-0.00021803985998343888,-0.7817336080001214,-0.001194202359947157,-2.3548172600000594,0.0010839469799576093,1.5712608199999871,0.7881687759999072,0.039999978799999995,0.0399999592,-9.808539400000058,0.0075075637542533595,-0.0023314963996710725,0.017762537399479587,-0.008546451665591192,0.00962186119971956
0.6125,-0.00022337039498337115,-0.7816945450001219,-0.0012112109499469409,-2.3547980750000597,0.001097591249957436,1.571264974999987,0.7881986349999068,0.03999997925,0.0399999595,-9.808520500000059,0.007720899534677514,-0.0024373684996697267,0.017930042999477456,-0.00850454019395662,0.00971212699971841
0.615,-0.00022870092998330315,-0.7816554820001224,-0.0012282195399467238,-2.35477889000006,0.001111235519957262,1.571269129999987,0.7882284939999065,0.039999979699999993,0.0399999598,-9.808501600000058,0.007934235315101658,-0.0025432405996683766,0.01809754859947532,-0.00846262872232205,0.00980239279971726
0.6175,-0.000234144066982173,-0.78161565950013,-0.0012455857899431333,-2.3547592600000646,0.0011251666149543825,1.5712732949999868,0.7882589799999001,0.03999998019999999,0.03999996,-9.808473950000142,0.008138428162198685,-0.0026325803248230147,0.018266702199457644,-0.008419667836420303,0.009893557949707628
0.62,-0.0002398124079821007,-0.7815743180001306,-0.0012636673599429025,-2.354738740000065,0.0011396713599541974,1.5712774799999867,0.7882907199998997,0.039999980799999994,0.03999996,-9.808428800000142,0.008324335142383009,-0.0026888552998222967,0.018439151799455444,-0.008374608121954548,0.009986521799706442
0.6225,-0.00024548074898202865,-0.7815329765001311,-0.0012817489299426729,-2.354718220000065,0.0011541761049540132,1.5712816649999868,0.7883224599998994,0.039999981399999995,0.03999996,-9.808383650000144,0.008510242122567341,-0.0027451302748215814,0.01861160139945325,-0.00832954840748879,0.01007948564970526
0.625,-0.0002511490899819564,-0.7814916350001316,-0.0012998304999424421,-2.3546977000000653,0.001168680849953828,1.5712858499999867,0.788354199999899,0.039999981999999996,0.03999996,-9.808338500000144,0.008696149102751665,-0.0028014052498208635,0.018784050999451053,-0.008284488693023034,0.010172449499704075
0.6275000000000001,-0.0002568174309818843,-0.7814502935001322,-0.0013179120699422125,-2.3546771800000657,0.0011831855949536437,1.5712900349999865,0.7883859399998986,0.0399999826,0.03999996,-9.808293350000143,0.008882056082935998,-0.002857680224820148,0.01895650059944886,-0.008239428978557279,0.010265413349702893
0.63,-0.00026248577198181204,-0.7814089520001327,-0.0013359936399419817,-2.354656660000066,0.0011976903399534588,1.5712942199999866,0.7884176799998982,0.0399999832,0.03999996,-9.808248200000145,0.009067963063120322,-0.0029139551998194307,0.019128950199446663,-0.008194369264091523,0.010358377199701707
0.6325000000000001,-0.00026815411298174,-0.7813676105001333,-0.001354075209941752,-2.354636140000066,0.0012121950849532743,1.5712984049999865,0.7884494199998978,0.0399999838,0.03999996,-9.808203050000145,0.009253870043304654,-0.0029702301748187154,0.01930139979944447,-0.008149309549625765,0.010451341049700526
0.635,-0.0002740539419805447,-0.7813246240001417,-0.0013728920699379544,-2.354614710000071,0.0012272894099502293,1.571302909999985,0.7884824599998911,0.039999984,0.03999996,-9.808168000000096,0.009464632439636508,-0.0030445444997304846,0.019477099699426504,-0.008103246428222988,0.01054590249969159
0.6375000000000001,-0.00028006951498046824,-0.7812808150001422,-0.0013920765749377106,-2.354592825000071,0.0012426785249500336,1.571307574999985,0.7885161499998906,0.039999984,0.03999996,-9.808138000000097,0.009687822544222532,-0.003127878499729425,0.01965442474942425,-0.008056681603344414,0.010641262749690378
0.64,-0.0002860850879803915,-0.7812370060001428,-0.0014112610799374657,-2.3545709400000714,0.0012580676399498373,1.5713122399999848,0.7885498399998901,0.039999984,0.03999996,-9.808108000000097,0.009911012648808545,-0.0032112124997283626,0.01983174979942199,-0.008010116778465843,0.010736622999689163
0.6425,-0.00029210066098031475,-0.7811931970001433,-0.001430445584937221,-2.3545490550000716,0.001273456754949641,1.5713169049999847,0.7885835299998898,0.039999984,0.03999996,-9.808078000000098,0.010134202753394559,-0.0032945464997272997,0.020009074849419727,-0.007963551953587273,0.010831983249687946
0.645,-0.0002981162339802383,-0.7811493880001439,-0.0014496300899369773,-2.354527170000072,0.0012888458699494454,1.5713215699999847,0.7886172199998893,0.039999984,0.03999996,-9.808048000000099,0.010357392857980582,-0.0033778804997262406,0.020186399899417472,-0.007916987128708699,0.010927343499686734
0.6475,-0.0003041318069801616,-0.7811055790001444,-0.0014688145949367326,-2.354505285000072,0.0013042349849492491,1.5713262349999846,0.7886509099998888,0.039999984,0.03999996,-9.808018000000098,0.010580582962566594,-0.0034612144997251777,0.020363724949415213,-0.007870422303830128,0.011022703749685517
0.65,-0.00031014737998008514,-0.781061770000145,-0.0014879990999364888,-2.3544834000000723,0.0013196240999490535,1.5713308999999844,0.7886845999998884,0.039999984,0.03999996,-9.8079880000001,0.010803773067152618,-0.0035445484997241187,0.020541049999412957,-0.007823857478951554,0.011118063999684305
0.6525,-0.0003165194819788235,-0.7810154920001537,-0.0015083158049324814,-2.3544601200000774,0.0013359211649458399,1.5713356549999842,0.7887202549998815,0.039999984,0.039999959700000004,-9.807959500000095,0.011068597621335562,-0.0036904903245149907,0.02072310649939497,-0.007774346065872011,0.011216012199674488
0.655,-0.00032289158397874254,-0.7809692140001544,-0.0015286325099322232,-2.3544368400000777,0.0013522182299456327,1.5713404099999841,0.788755909999881,0.039999984,0.0399999594,-9.807931000000096,0.011333422175656352,-0.0038364321495131357,0.020905162999392657,-0.0077248346527827106,0.011313960399673244
0.6575,-0.0003292636859786613,-0.7809229360001549,-0.0015489492149319641,-2.354413560000078,0.001368515294945425,1.5713451649999841,0.7887915649998806,0.039999984,0.0399999591,-9.807902500000095,0.011598246729977129,-0.003982373974511275,0.021087219499390335,-0.007675323239693412,0.011411908599671994
0.66,-0.0003356357879785803,-0.7808766580001555,-0.001569265919931706,-2.354390280000078,0.0013848123599452178,1.571349919999984,0.7888272199998801,0.039999984,0.039999958800000006,-9.807874000000096,0.011863071284297918,-0.004128315799509419,0.02126927599938802,-0.007625811826604111,0.01150985679967075
0.6625,-0.000342007889978499,-0.7808303800001561,-0.0015895826249314468,-2.3543670000000785,0.0014011094249450097,1.571354674999984,0.7888628749998796,0.039999984,0.0399999585,-9.807845500000097,0.012127895838618695,-0.004274257624507559,0.0214513324993857,-0.007576300413514813,0.011607804999669501
0.665,-0.00034837999197841803,-0.7807841020001567,-0.0016098993299311886,-2.3543437200000787,0.0014174064899448026,1.571359429999984,0.7888985299998792,0.039999984,0.039999958200000005,-9.807817000000096,0.012392720392939484,-0.004420199449505703,0.021633388999383385,-0.007526789000425513,0.011705753199668255
0.6675,-0.0003548739709770937,-0.7807369840001659,-0.0016306030899269819,-2.3543200300000833,0.00143401385494143,1.5713643299999824,0.7889348749998717,0.0399999842,0.0399999581,-9.80778925000009,0.012647171829963864,-0.004541072279759523,0.02181702639936494,-0.007476915465839833,0.011804463349659235
0.67,-0.0003616117039770081,-0.7806881860001664,-0.0016520809599267089,-2.3542955200000835,0.001451241819941211,1.5713695199999824,0.7889725999998712,0.0399999848,0.0399999584,-9.80776300000009,0.012880877032078464,-0.004611807119758624,0.022003825599362564,-0.0074263176882503204,0.01190469739965796
0.6725,-0.00036834943697692217,-0.7806393880001671,-0.0016735588299264348,-2.3542710100000837,0.0014684697849409914,1.5713747099999822,0.7890103249998708,0.0399999854,0.0399999587,-9.807736750000089,0.013114582234193052,-0.004682541959757722,0.02219062479936018,-0.007375719910660811,0.012004931449656682
0.675,-0.0003750871699768365,-0.7805905900001677,-0.001695036699926162,-2.3542465000000843,0.0014856977499407725,1.5713798999999822,0.7890480499998703,0.039999986,0.039999959,-9.80771050000009,0.013348287436307652,-0.004753276799756823,0.02237742399935781,-0.007325122133071299,0.012105165499655408
0.6775,-0.0003818249029767506,-0.7805417920001684,-0.0017165145699258879,-2.3542219900000845,0.0015029257149405527,1.5713850899999822,0.7890857749998699,0.0399999866,0.0399999593,-9.80768425000009,0.01358199263842224,-0.0048240116397559206,0.022564223199355426,-0.007274524355481789,0.01220539954965413
0.68,-0.00038856263597666495,-0.780492994000169,-0.0017379924399256149,-2.3541974800000847,0.0015201536799403336,1.5713902799999822,0.7891234999998694,0.039999987199999996,0.0399999596,-9.80765800000009,0.01381569784053684,-0.0048947464797550215,0.02275102239935305,-0.007223926577892277,0.012305633599652855
0.6825,-0.000395300368976579,-0.7804441960001696,-0.001759470309925341,-2.3541729700000853,0.001537381644940114,1.571395469999982,0.7891612249998688,0.0399999878,0.0399999599,-9.807631750000091,0.01404940304265143,-0.004965481319754119,0.022937821599350667,-0.007173328800302767,0.012405867649651577
0.685,-0.0004022877919751867,-0.7803936220001796,-0.0017817410699209188,-2.3541474700000906,0.001555245359936568,1.5714007499999814,0.7892003299998612,0.0399999876,0.039999959800000005,-9.807619800000017,0.014311261660388026,-0.005071289239569675,0.023127627899332558,-0.007121457066570102,0.012507667499642109
0.6875,-0.000409400059975096,-0.7803421600001802,-0.0018044082749206296,-2.354121475000091,0.0015734269499363361,1.5714060749999814,0.7892401249998606,0.039999987,0.0399999595,-9.807615000000016,0.014587196986156072,-0.005194633699568103,0.023318937749330117,-0.007068948354755887,0.012610250249640801
0.6900000000000001,-0.0004165123279750056,-0.7802906980001809,-0.0018270754799203414,-2.3540954800000913,0.0015916085399361052,1.5714113999999813,0.7892799199998601,0.03999998640000001,0.039999959200000004,-9.807610200000017,0.01486313231192413,-0.005317978159566535,0.023510247599327686,-0.00701643964294167,0.012712832999639496
0.6925,-0.00042362459597491487,-0.7802392360001815,-0.0018497426849200522,-2.3540694850000916,0.0016097901299358733,1.571416724999981,0.7893197149998596,0.039999985800000006,0.0399999589,-9.807605400000018,0.015139067637692176,-0.005441322619564962,0.023701557449325245,-0.006963930931127455,0.012815415749638188
0.6950000000000001,-0.0004307368639748245,-0.7801877740001822,-0.0018724098899197642,-2.354043490000092,0.0016279717199356421,1.5714220499999811,0.7893595099998592,0.039999985200000004,0.0399999586,-9.807600600000017,0.015415002963460234,-0.005564667079563395,0.023892867299322815,-0.006911422219313236,0.012917998499636884
0.6975,-0.0004378491319747338,-0.7801363120001829,-0.001895077094919475,-2.3540174950000923,0.0016461533099354103,1.571427374999981,0.7893993049998586,0.0399999846,0.039999958300000006,-9.807595800000017,0.015690938289228278,-0.005688011539561821,0.024084177149320374,-0.0068589135074990214,0.013020581249635576
0.7000000000000001,-0.00044496139997464337,-0.7800848500001836,-0.001917744299919187,-2.3539915000000926,0.0016643348999351793,1.571432699999981,0.7894390999998581,0.039999984,0.039999958,-9.807591000000018,0.015966873614996338,-0.005811355999560253,0.024275486999317943,-0.006806404795684804,0.013123163999634273
0.7025,-0.00045245692997318137,-0.7800307135001937,-0.0019416285299145434,-2.3539639750000982,0.0016834923449314558,1.5714384749999792,0.78948102499985,0.039999984599999996,0.039999958,-9.807566700000088,0.01626169029517781,-0.0059451390045213316,0.02447136464929916,-0.006752675469225601,0.013228170449624292
0.705,-0.0004599524599730858,-0.7799765770001944,-0.0019655127599142387,-2.3539364500000985,0.0017026497899312115,1.5714442499999792,0.7895229499998494,0.0399999852,0.039999958,-9.807542400000088,0.016556506975426603,-0.006078922009519625,0.02466724229929666,-0.006698946142762046,0.013333176899622953
0.7075,-0.00046744798997299053,-0.7799224405001951,-0.001989396989913935,-2.353908925000099,0.001721807234930968,1.5714500249999792,0.789564874999849,0.0399999858,0.039999958,-9.807518100000088,0.016851323655675404,-0.006212705014517925,0.02486311994929417,-0.006645216816298489,0.01343818334962162
0.71,-0.0004749435199728949,-0.7798683040001958,-0.0020132812199136307,-2.3538814000000996,0.0017409646799307235,1.571455799999979,0.7896067999998484,0.0399999864,0.039999958,-9.807493800000088,0.017146140335924195,-0.0063464880195162185,0.02505899759929167,-0.006591487489834934,0.01354318979962028
0.7125,-0.00048243904997279964,-0.7798141675001965,-0.002037165449913327,-2.3538538750001,0.00176012212493048,1.571461574999979,0.7896487249998478,0.039999987,0.039999958,-9.807469500000089,0.017440957016172997,-0.006480271024514518,0.025254875249289183,-0.006537758163371377,0.013648196249618945
0.715,-0.000489934579972704,-0.7797600310001972,-0.0020610496799130227,-2.3538263500001,0.0017792795699302357,1.571467349999979,0.7896906499998474,0.039999987599999995,0.039999958,-9.807445200000089,0.017735773696421785,-0.006614054029512812,0.025450752899286683,-0.006484028836907822,0.013753202699617606
0.7175,-0.000497560709971177,-0.7797049680002079,-0.002085348584908173,-2.3537983300001057,0.0017987694899263473,1.5714731749999784,0.7897333049998388,0.039999988349999994,0.0399999584,-9.807418450000117,0.01804469209041179,-0.006765452414317994,0.02564810429926804,-0.006429320667146016,0.013858907149608619
0.72,-0.0005054480399710764,-0.7796480520002087,-0.0021104768399078525,-2.353769320000106,0.0018189243599260902,1.5714790999999781,0.7897774199998383,0.0399999894,0.039999959599999996,-9.807386800000117,0.01838181391234744,-0.0069520815593156135,0.025848403199265485,-0.006372654810755559,0.013966007599607254
0.7225,-0.0005133353699709761,-0.7795911360002095,-0.002135605094907533,-2.3537403100001066,0.001839079229925834,1.571485024999978,0.7898215349998376,0.039999990449999995,0.0399999608,-9.807355150000117,0.018718935734283106,-0.007138710704313241,0.026048702099262938,-0.006315988954365099,0.014073108049605891
0.725,-0.0005212226999708755,-0.7795342200002102,-0.0021607333499072128,-2.353711300000107,0.001859234099925577,1.571490949999978,0.7898656499998371,0.0399999915,0.03999996199999999,-9.807323500000118,0.019056057556218756,-0.007325339849310861,0.026249000999260384,-0.006259323097974642,0.014180208499604526
0.7275,-0.0005291100299707753,-0.7794773040002109,-0.002185861604906893,-2.353682290000107,0.001879388969925321,1.571496874999978,0.7899097649998366,0.039999992549999995,0.039999963199999995,-9.807291850000118,0.01939317937815442,-0.007511968994308489,0.026449299899257837,-0.006202657241584182,0.014287308949603164
0.73,-0.0005369973599706747,-0.7794203880002116,-0.0022109898599065726,-2.3536532800001075,0.0018995438399250638,1.571502799999978,0.789953879999836,0.0399999936,0.0399999644,-9.807260200000119,0.01973030120009007,-0.007698598139306108,0.026649598799255284,-0.006145991385193724,0.014394409399601798
0.7325,-0.0005448846899705744,-0.7793634720002124,-0.0022361181149062534,-2.353624270000108,0.0019196987099248076,1.5715087249999777,0.7899979949998355,0.03999999465,0.03999996559999999,-9.807228550000119,0.020067423022025736,-0.007885227284303737,0.026849897699252737,-0.006089325528803265,0.014501509849600438
0.735,-0.0005530387799688251,-0.7793046900002246,-0.0022620933999006965,-2.3535942800001144,0.001940532699920352,1.571514929999976,0.7900435949998257,0.039999995,0.039999966,-9.807205500000071,0.020383255927606748,-0.008023128199572911,0.02705309739923017,-0.0060322004838209995,0.014610058899588949
0.7375,-0.0005613262499684937,-0.779244975000227,-0.0022884921998996407,-2.353563800000116,0.001961706249919505,1.5715212749999758,0.7900899374998238,0.039999995,0.039999966,-9.807186750000072,0.020688444374831548,-0.00813666499956837,0.02725774749922199,-0.005974845844538968,0.014719332249584579
0.74,-0.0005696137199681619,-0.7791852600002295,-0.0023148909998985836,-2.353533320000117,0.0019828797999186572,1.5715276199999755,0.7901362799998219,0.039999995,0.039999966,-9.807168000000072,0.020993632822056334,-0.008250201799563825,0.027462397599213796,-0.0059174912052569395,0.014828605599580203
0.7425,-0.0005779011899678304,-0.7791255450002318,-0.002341289799897528,-2.353502840000118,0.0020040533499178104,1.5715339649999753,0.7901826224998201,0.039999995,0.039999966,-9.807149250000073,0.021298821269281135,-0.008363738599559283,0.02766704769920561,-0.005860136565974909,0.014937878949575833
0.745,-0.0005861886599674987,-0.7790658300002342,-0.0023676885998964708,-2.3534723600001195,0.0020252268999169628,1.5715403099999752,0.7902289649998182,0.039999995,0.039999966,-9.807130500000074,0.02160400971650592,-0.008477275399554738,0.027871697799197417,-0.00580278192669288,0.015047152299571459
0.7475,-0.0005944761299671672,-0.7790061150002366,-0.002394087399895415,-2.353441880000121,0.002046400449916116,1.5715466549999748,0.7902753074998164,0.039999995,0.039999966,-9.807111750000075,0.02190919816373072,-0.008590812199550197,0.02807634789918923,-0.005745427287410849,0.015156425649567089
0.75,-0.0006027635999668354,-0.778946400000239,-0.002420486199894358,-2.3534114000001223,0.0020675739999152683,1.5715529999999747,0.7903216499998146,0.039999995,0.039999966,-9.807093000000075,0.022214386610955504,-0.008704348999545652,0.02828099799918104,-0.00568807264812882,0.015265698999562713
0.7525000000000001,-0.000611459423965328,-0.7788838200002496,-0.0024481814198895734,-2.353379330000128,0.002089787034911432,1.5715595849999737,0.7903702574998062,0.03999999575,0.039999967049999995,-9.807079350000054,0.02256494182953527,-0.008872919749327874,0.028489973349166774,-0.005628799530913744,0.015377076099555917
0.755,-0.0006201552479654543,-0.7788212400002487,-0.002475876639889976,-2.3533472600001275,0.002112000069911755,1.571566169999974,0.7904188649998068,0.0399999965,0.03999996809999999,-9.807065700000054,0.02291549704829656,-0.009041490499330325,0.02869894869916981,-0.005569526413690993,0.015488453199557536
0.7575000000000001,-0.0006288510719655811,-0.7787586600002477,-0.00250357185989038,-2.353315190000127,0.0021342131049120784,1.571572754999974,0.7904674724998076,0.03999999725,0.039999969149999995,-9.807052050000054,0.02326605226705787,-0.00921006124933278,0.02890792404917286,-0.0055102532964682385,0.015599830299559159
0.76,-0.0006375468959657075,-0.7786960800002468,-0.002531267079890782,-2.3532831200001265,0.0021564261399124015,1.571579339999974,0.7905160799998083,0.039999998,0.0399999702,-9.807038400000055,0.023616607485819164,-0.009378631999335231,0.029116899399175892,-0.005450980179245488,0.015711207399560778
0.7625000000000001,-0.0006462427199658341,-0.7786335000002459,-0.002558962299891186,-2.353251050000126,0.002178639174912725,1.5715859249999742,0.790564687499809,0.03999999875,0.039999971249999995,-9.807024750000053,0.023967162704580474,-0.009547202749337687,0.02932587474917894,-0.005391707062022734,0.015822584499562403
0.765,-0.0006549385439659605,-0.778570920000245,-0.002586657519891588,-2.3532189800001255,0.002200852209913048,1.5715925099999744,0.7906132949998097,0.0399999995,0.0399999723,-9.807011100000054,0.024317717923341767,-0.009715773499340137,0.029534850099181977,-0.005332433944799982,0.01593396159956402
0.7675000000000001,-0.0006637731434643808,-0.778507370000256,-0.002614793324886573,-2.353186405000131,0.002223418479909027,1.571599214999973,0.7906626749998009,0.04,0.03999997265000001,-9.806991400000125,0.024675101226607866,-0.009886555749315127,0.02974520354916696,-0.005272599240071864,0.016046050199556287
0.77,-0.0006728852939642645,-0.7784418800002568,-0.0026438102998862035,-2.353152820000132,0.0022466912199087304,1.5716061599999729,0.7907135999998003,0.04,0.0399999716,-9.806959600000125,0.025046140699123483,-0.010061760999312892,0.02995831319916424,-0.0052116413603132804,0.01615956179955484
0.7725,-0.0006819974444641484,-0.7783763900002577,-0.0026728272748858333,-2.353119235000132,0.0022699639599084334,1.5716131049999726,0.7907645249997997,0.04,0.03999997055000001,-9.806927800000125,0.0254171801716391,-0.010236966249310657,0.030171422849161522,-0.005150683480554698,0.01627307339955339
0.775,-0.0006911095949640325,-0.7783109000002585,-0.0027018442498854644,-2.353085650000133,0.0022932366999081377,1.5716200499999726,0.790815449999799,0.04,0.0399999695,-9.806896000000126,0.025788219644154734,-0.010412171499308431,0.030384532499158814,-0.005089725600796113,0.016386584999551947
0.7775,-0.0007002217454639163,-0.7782454100002594,-0.0027308612248850943,-2.353052065000133,0.002316509439907841,1.5716269949999726,0.7908663749997984,0.04,0.039999968450000006,-9.806864200000126,0.02615925911667035,-0.010587376749306196,0.030597642149156095,-0.00502876772103753,0.0165000965995505
0.78,-0.0007093338959638005,-0.7781799200002602,-0.0027598781998847254,-2.3530184800001335,0.0023397821799075453,1.5716339399999724,0.7909172999997978,0.04,0.0399999674,-9.806832400000125,0.026530298589185985,-0.01076258199930397,0.030810751799153387,-0.004967809841278945,0.016613608199549056
0.7825,-0.0007184460464636842,-0.778114430000261,-0.0027888951748843553,-2.352984895000134,0.0023630549199072483,1.5716408849999723,0.7909682249997971,0.04,0.03999996635,-9.806800600000127,0.026901338061701602,-0.010937787249301735,0.031023861449150668,-0.004906851961520363,0.01672711979954761
0.785,-0.0007278409229618729,-0.7780469400002739,-0.0028188097098786036,-2.3529501700001414,0.002387047289902637,1.571648059999971,0.7910207199997871,0.04,0.039999966399999996,-9.806784700000032,0.02730254120958299,-0.01115239709906319,0.03123971039913153,-0.004844785435375596,0.016841903799538534
0.7875,-0.0007373771624617513,-0.7779784500002748,-0.0028491730248782162,-2.352914875000142,0.0024113994749023265,1.5716553499999708,0.7910739999997863,0.04,0.039999967,-9.806776750000031,0.027718826195418007,-0.011386709249060201,0.03145692899912876,-0.00478216458602779,0.016957323999537064
0.79,-0.0007469134019616301,-0.7779099600002756,-0.0028795363398778306,-2.352879580000142,0.002435751659902017,1.5716626399999707,0.7911272799997857,0.04,0.0399999676,-9.806768800000032,0.028135111181253038,-0.011621021399057224,0.031674147599126,-0.0047195437366799806,0.017072744199535597
0.7925,-0.0007564496414615084,-0.7778414700002765,-0.002909899654877443,-2.3528442850001423,0.0024601038449017063,1.5716699299999706,0.791180559999785,0.04,0.0399999682,-9.806760850000032,0.028551396167088055,-0.011855333549054235,0.03189136619912323,-0.004656922887332175,0.017188164399534123
0.795,-0.0007659858809613872,-0.7777729800002773,-0.0029402629698770575,-2.3528089900001428,0.002484456029901397,1.5716772199999705,0.7912338399997844,0.04,0.0399999688,-9.806752900000031,0.02896768115292309,-0.012089645699051257,0.03210858479912047,-0.004594302037984365,0.017303584599532656
0.7975,-0.0007755221204612656,-0.7777044900002782,-0.00297062628487667,-2.352773695000143,0.002508808214901086,1.5716845099999703,0.7912871199997836,0.04,0.0399999694,-9.806744950000033,0.029383966138758103,-0.01232395784904827,0.0323258033991177,-0.004531681188636559,0.017419004799531186
0.8,-0.0007850583599611444,-0.7776360000002791,-0.0030009895998762844,-2.3527384000001437,0.0025331603999007766,1.5716917999999702,0.791340399999783,0.04,0.03999997,-9.806737000000032,0.029800251124593138,-0.012558269999045291,0.032543021999114935,-0.00446906033928875,0.017534424999529716
0.8025,-0.0007950262709592584,-0.7775644290002925,-0.0030327233448702957,-2.3527015900001502,0.002558611439895975,1.5716994049999689,0.7913960754997725,0.04,0.0399999694,-9.80669770000016,0.030183456091506557,-0.012718921499343373,0.03276432209909549,-0.00440452115170958,0.01765181664952019
0.805,-0.0008049941819591317,-0.7774928580002934,-0.0030644570898698924,-2.3526647800001506,0.0025840624798956512,1.5717070099999688,0.7914517509997718,0.04,0.0399999688,-9.806658400000162,0.030566661058285205,-0.012879572999341332,0.03298562219909267,-0.00433998196412259,0.017769208299518696
0.8075,-0.0008149620929590047,-0.7774212870002943,-0.0030961908348694873,-2.3526279700001513,0.0026095135198953264,1.5717146149999688,0.791507426499771,0.04,0.039999968200000006,-9.806619100000162,0.03094986602506384,-0.013040224499339283,0.03320692229908985,-0.004275442776535603,0.017886599949517197
0.81,-0.0008249300039588779,-0.7773497160002952,-0.003127924579869084,-2.3525911600001517,0.0026349645598950032,1.5717222199999688,0.7915631019997703,0.04,0.039999967600000005,-9.806579800000163,0.03133307099184249,-0.01320087599933724,0.033428222399087035,-0.004210903588948613,0.018003991599515705
0.8125,-0.0008348979149587508,-0.7772781450002961,-0.0031596583248686794,-2.3525543500001524,0.0026604155998946784,1.5717298249999685,0.7916187774997696,0.04,0.039999967000000004,-9.806540500000164,0.03171627595862112,-0.013361527499335193,0.03364952249908421,-0.004146364401361627,0.01812138324951421
0.8150000000000001,-0.0008448658259586242,-0.7772065740002971,-0.003191392069868276,-2.352517540000153,0.002685866639894355,1.5717374299999685,0.7916744529997689,0.04,0.0399999664,-9.806501200000163,0.03209948092539977,-0.01352217899933315,0.033870822599081404,-0.004081825213774637,0.018238774899512717
0.8175,-0.000854980084956669,-0.7771339770003108,-0.003223590389862068,-2.3524801500001606,0.0027116900998893786,1.5717451399999671,0.7917309514997579,0.04,0.039999966,-9.806476049999988,0.03249856028526444,-0.013701365749099578,0.03409341969906238,-0.004017081088657669,0.018356761599503786
0.8200000000000001,-0.0008653870399565367,-0.7770593280003117,-0.0032567178598616473,-2.352441600000161,0.0027382583998890406,1.571753059999967,0.7917890959997572,0.04,0.039999966,-9.806479199999988,0.03292938843189546,-0.013917622999096829,0.03431861079905952,-0.0039519270884730675,0.018475938399502272
0.8225,-0.000875793994956404,-0.7769846790003128,-0.0032898453298612247,-2.3524030500001616,0.002764826699888702,1.5717609799999668,0.7918472404997564,0.04,0.039999966,-9.806482349999987,0.03336021657852646,-0.014133880249094071,0.03454380189905665,-0.0038867730882884686,0.01859511519950075
0.8250000000000001,-0.0008862009499562717,-0.7769100300003137,-0.003322972799860804,-2.352364500000162,0.0027913949998883644,1.5717688999999668,0.7919053849997557,0.04,0.039999966,-9.806485499999987,0.03379104472515748,-0.014350137499091323,0.03476899299905378,-0.0038216190881038667,0.018714291999499238
