rsonawane2002/My_IMU/logs_2/traj_418/clean_418.csv
time,j1,j2,j3,j4,j5,j6,j7,gripper1,gripper2,imu_ax,imu_ay,imu_az,imu_gx,imu_gy,imu_gz,quat_x,quat_y,quat_z,quat_w
1846.3833333319828,0.00016700293,-0.785875,4.0107683e-05,-2.3551247,9.29385e-05,1.570997,0.786,0.04,0.04,0.0,-0.0,0.0,2.875329272945135e-08,-0.0011641195053377316,4.421952117202833e-08,0.9999995971961153,0.00020320632366974898,0.0008736418299892524,3.263050917662294e-05
1846.3999999986495,0.00016700388,-0.78576016,4.011668e-05,-2.3552213,9.297849e-05,1.5709941,0.786,0.04,0.04,-0.2919984599806025,-3.896973008877657e-05,0.020128407701802686,-2.0742240748774924e-07,-0.002238707289387665,2.537413615830137e-07,0.9999996850586852,0.00020320741268105882,0.0007665025181764388,3.2606249654286636e-05
1846.4166666653161,0.00016699254,-0.78565437,4.0139395e-05,-2.35531,9.304599e-05,1.5709913,0.786,0.04,0.04,0.023394600666093446,-2.334725197918313e-05,-0.001704298426385975,-2.016763493580474e-06,-0.0032296340816396355,1.4586926312994492e-06,0.9999997558252665,0.00020320939897346127,0.0006678270509817993,3.259413742562007e-05
1846.4333333319828,0.00016694906,-0.7855571,4.019932e-05,-2.355391,9.3191054e-05,1.5709884,0.786,0.04,0.04,0.022394873086373224,-6.649840323825888e-05,-0.0014910316029848047,-6.975506780941524e-06,-0.00414521587503924,4.5787098218222266e-06,0.9999998122242255,0.00020321391552178463,0.0005772279942248012,3.261074947323373e-05
1846.4499999986494,0.00016684555,-0.7854679,4.033006e-05,-2.3554654,9.348537e-05,1.5709856,0.786,0.04,0.04,0.020311346814261277,-0.00012873851087244676,-0.0016670521233441704,-1.611805913293098e-05,-0.004990305325925981,1.0442249636811452e-05,0.9999998567883772,0.00020322305088806307,0.0004940198869225877,3.267977776890984e-05
1846.466666665316,0.00016664663,-0.78538656,4.0574432e-05,-2.355533,9.402008e-05,1.5709827,0.786,0.04,0.04,0.020386054350618465,-0.00020823355820074252,-0.0013803100380682665,-3.158087204726069e-05,-0.005772520679520317,1.979487918627069e-05,0.9999998913736238,0.00020323935537535715,0.0004181729158370877,3.283165709599271e-05
1846.4833333319827,0.00016631023,-0.78531265,4.0983552e-05,-2.3555982,9.490358e-05,1.5709798,0.7859982,0.04,0.04,0.011885525822541432,-0.00030232150369999267,-0.003300147901152961,-5.440798513681477e-05,-0.006493390641483374,3.3298900778265636e-05,0.9999999187273948,0.00020237187392338626,0.0003471240975628478,3.3101199049791285e-05
1846.4999999986494,0.00016578831,-0.7852461,4.1615713e-05,-2.3556573,9.626165e-05,1.570977,0.7859963,0.04,0.04,0.01864189105322822,-0.00041238450609014377,-0.0014129807879736944,-7.797196208913682e-05,-0.0071788255825195315,5.1584008983306835e-05,0.9999999391457366,0.000201458375775001,0.00028284034168831574,3.3531883599643026e-05
1846.516666665316,0.00016502735,-0.7851866,4.2535903e-05,-2.3557146,9.8241544e-05,1.5709741,0.7859944,0.04,0.039999995,0.011084230612157242,-0.0005391981961802388,-0.0031912655576116222,-0.00011100540823834439,-0.007810979664843956,7.591004448552835e-05,0.9999999544263105,0.00020056240788766933,0.00022305665045260168,3.417349980939264e-05
1846.5333333319827,0.00016396926,-0.78513396,4.3814893e-05,-2.3557658,0.00010098216,1.5709713,0.78599167,0.04,0.039999995,0.017708409945815795,-0.0006626972245495999,-0.0012362841188773288,-0.00015593860979997765,-0.008411511408604326,0.00010520665737723435,0.9999999651348948,0.00019927065791026645,0.00016968036966339992,3.50711609866776e-05
1846.5499999986494,0.0001625518,-0.78508836,4.5528748e-05,-2.355816,0.00010465404,1.5709684,0.78598785,0.04,0.03999999,0.009802101288047815,-0.0008101705253076149,-0.0034677896770141103,-0.00020999423046177436,-0.008964834754140628,0.00014146668695301008,0.9999999725948306,0.00019746833445733887,0.00012041670370449297,3.628239488197651e-05
1846.566666665316,0.00016070894,-0.78504974,4.7758283e-05,-2.355864,0.00010939945,1.5709655,0.78598213,0.04,0.04,0.010951536914927118,-0.0009387529907391862,-0.0031100239183956546,-0.0002736898632898324,-0.00949293705411379,0.0001819769560896523,0.9999999774641501,0.00019474267063447008,7.559348009081921e-05,3.7849928930655165e-05
1846.5833333319827,0.00015837123,-0.78501815,5.0587885e-05,-2.3559086,0.00011541817,1.5709627,0.7859764,0.04,0.04,0.013853130136021186,-0.0011108095346135083,-0.002392138948326128,-0.0003442582786951883,-0.00999470888744785,0.00023100237397021372,0.9999999801134924,0.0001920522010894736,3.607490735807536e-05,3.984429415243415e-05
1846.5999999986493,0.00015546658,-0.7849938,5.4105683e-05,-2.3559523,0.00012289734,1.5709598,0.7859688,0.04,0.04,0.00965971248949593,-0.0012742760855965194,-0.0036994445403060183,-0.0004315463792225114,-0.010462787268920554,0.00028720580868743626,0.9999999813475939,0.00018844828078127325,6.689110851810621e-07,4.232741359818621e-05
1846.616666665316,0.00015192028,-0.78497684,5.840261e-05,-2.3559954,0.00013202567,1.570957,0.78595924,0.04,0.04,0.008915077978444153,-0.0014396350688203265,-0.0039445303525509345,-0.0005286803078176516,-0.010909416667421033,0.0003501891652062285,0.9999999815795673,0.0001839361853260335,-3.0833137974857526e-05,4.536146588121087e-05
1846.6333333319826,0.00014765568,-0.7849674,6.3572326e-05,-2.3560386,0.00014301078,1.5709541,0.7859478,0.04,0.04,0.008368051831864065,-0.0016201656036440209,-0.004291236516129615,-0.0006364633619964212,-0.011337952706707694,0.00042211817732234396,0.9999999811496737,0.0001785211939236,-5.8550461654740444e-05,4.90171305362613e-05
1846.6499999986493,0.0001425943,-0.7849658,6.971077e-05,-2.3560822,0.00015605186,1.5709512,0.7859343,0.04,0.04,0.007820967372529353,-0.0017950532612637834,-0.004638228339803874,-0.0007562530595388785,-0.011749033167193916,0.0005011860197586583,0.9999999803471294,0.00017214909804678903,-8.26022724632714e-05,5.336003629009127e-05
1846.666666665316,0.00013665619,-0.78497225,7.691568e-05,-2.3561258,0.00017136481,1.5709482,0.7859181,0.04,0.039999995,0.008856491409248157,-0.0019830505909021034,-0.004646339610059336,-0.0008885833208555226,-0.012146500959581369,0.0005889692164902322,0.9999999794935119,0.00016446771449900896,-0.00010269052985415245,5.846367860642197e-05
1846.6833333319826,0.00012976026,-0.78498715,8.528614e-05,-2.3561723,0.0001891488,1.5709453,0.78589916,0.04,0.039999995,0.004493479950928858,-0.0021583097224302868,-0.0060760220780720076,-0.001031524876963008,-0.01252822989515395,0.0006840217400169608,0.9999999786420788,0.00015548276952732988,-0.00011997751273323358,6.439213415215214e-05
1846.6999999986492,0.000121824356,-0.7850106,9.492252e-05,-2.356222,0.0002096085,1.570942,0.7858775,0.04,0.04,0.004078116283268152,-0.0023384188952144344,-0.0063933167098406685,-0.001186164329292495,-0.012907040073507533,0.0007864777849665797,0.9999999778503315,0.00014522974281800099,-0.00013467182083625815,7.121207138198781e-05
1846.7166666653159,0.00011276572,-0.7850431,0.000105926076,-2.3562725,0.00023295828,1.5709387,0.7858529,0.04,0.04,0.008419622401478755,-0.002526635911176818,-0.00567736853269718,-0.0013538681681949103,-0.01328390960915422,0.0008966459267918186,0.9999999773977766,0.00013356511724955123,-0.00014534290595529846,7.899522407685767e-05
1846.7333333319825,0.000102500635,-0.785085,0.00011839831,-2.3563237,0.00025944368,1.5709347,0.78582495,0.04,0.039999995,0.008898351451480657,-0.0027369264106479,-0.006148141937356577,-0.0015346337755107902,-0.013647092329324866,0.0010185364001329526,0.9999999773454775,0.00012031603468042813,-0.00015205032336247174,8.782821554581825e-05
1846.7499999986492,9.0946e-05,-0.78513664,0.00013244191,-2.356381,0.00028924985,1.570928,0.7857935,0.04,0.04,-0.0002237552860995251,-0.0029029391366565643,-0.010125483056411255,-0.0017276268768295464,-0.013997241899871834,0.001145795786970705,0.9999999771541885,0.00010539871678041747,-0.0001581914689726412,9.776600665902504e-05
1846.7666666653158,7.801769e-05,-0.78519845,0.0001481591,-2.356439,0.00032260478,1.5709213,0.7857582,0.039999995,0.039999995,0.009638792688004827,-0.003101887101552203,-0.006191890726747751,-0.0019331272417502953,-0.014370114525190445,0.0012821716568433934,0.9999999773864643,8.866977477903708e-05,-0.0001597131417754304,0.00010888734725358827
1846.7833333319825,6.363211e-05,-0.78527087,0.00016565235,-2.3565018,0.00035971685,1.5709145,0.78571904,0.03999999,0.039999995,0.003983608692714746,-0.003284799040567806,-0.008121063315624788,-0.002150855394193144,-0.014725585106802158,0.0014260742552182405,0.999999977668496,7.010534681794092e-05,-0.0001582543733428449,0.00012125923138869946
1846.7999999986491,4.7705606e-05,-0.7853542,0.00018502392,-2.356568,0.0004008071,1.5709075,0.7856756,0.039999988,0.039999995,0.005893174505589016,-0.003477947823961054,-0.007949229335180164,-0.0023816375464110573,-0.015081743205242326,0.0015782020774108476,0.9999999779256469,4.95024259547753e-05,-0.0001532487826561424,0.00013495564594349346
1846.8166666653158,3.0154823e-05,-0.78544885,0.00020637555,-2.3566408,0.0004460956,1.5708998,0.7856277,0.039999984,0.03999999,0.0013770078363561922,-0.0036689548447397754,-0.009734773821246101,-0.002624369734857217,-0.015432838792005882,0.0017394237211799286,0.9999999777110674,2.680751060754869e-05,-0.00014609693308083335,0.00015004968592473327
1846.8333333319824,1.0896896e-05,-0.78555536,0.0002298086,-2.356715,0.0004957966,1.5708894,0.7855751,0.03999998,0.039999988,0.009756339999089647,-0.003858156486336896,-0.009477714985428598,-0.0028798942040501084,-0.01579298234351235,0.0019088115403516702,0.9999999769844288,1.846477319160158e-06,-0.00013515950572241017,0.00016661224528528038
1846.849999998649,-1.0150499e-05,-0.7856738,0.00025542377,-2.356796,0.0005501227,1.5708789,0.7855177,0.039999977,0.039999988,0.001406983416174512,-0.004042631162567718,-0.00983901650473129,-0.003147096626233481,-0.016148786692313306,0.0020854413990499254,0.9999999752110447,-2.537404267392766e-05,-0.00012171780616737246,0.00018471286798177187
1846.8666666653157,-3.3069085e-05,-0.7858051,0.00028332087,-2.356884,0.00060928636,1.5708683,0.7854551,0.039999973,0.039999984,0.002418292455685922,-0.004228200612134392,-0.01046545539569177,-0.003427087204056064,-0.016512335494925298,0.002270952770292464,0.999999972040506,-5.505703649280706e-05,-0.00010535433947348285,0.0002044215580371946
1846.8833333319824,-5.7939735e-05,-0.78594935,0.000313599,-2.3569746,0.00067349646,1.5708573,0.7853872,0.039999966,0.039999977,0.00969564781581056,-0.004413070960949559,-0.008749887581283033,-0.0037187847178601855,-0.016881079641069368,0.002464378856578335,0.9999999671696742,-8.725756258501318e-05,-8.401247189888352e-05,0.00022580671541434476
1846.899999998649,-8.484266e-05,-0.786107,0.000346356,-2.3570724,0.0007429605,1.5708445,0.7853138,0.039999958,0.03999997,0.002066768378439221,-0.00459253138453926,-0.012116380943560934,-0.00402272855614617,-0.017235531092183943,0.002665636734567176,0.999999959736546,-0.00012208858089518673,-6.043369253641824e-05,0.00024893584238426124
1846.9166666653157,-0.00011385714,-0.78627855,0.0003816889,-2.357177,0.0008178836,1.5708302,0.78523463,0.03999995,0.03999996,0.003067563150693786,-0.004772168375898429,-0.012099281861610578,-0.004338654113854041,-0.01760324999044293,0.0028746191946148955,0.9999999491716999,-0.00015963418318242742,-3.414080398938316e-05,0.00027387575803608874
1846.9333333319823,-0.00014506136,-0.78646445,0.00041969362,-2.357289,0.0008984684,1.5708157,0.7851495,0.039999943,0.039999954,0.003192091202164349,-0.004949427940168535,-0.011603257793590949,-0.004666289039322027,-0.017980575631649873,0.003091198247542618,0.9999999347804598,-0.00020000808829316098,-4.477741624658451e-06,0.0003006921858553443
1846.949999998649,-0.00017853265,-0.7866652,0.00046046427,-2.3574088,0.0009849145,1.5708004,0.7850582,0.039999936,0.03999995,0.0031545018994938445,-0.005123265024545103,-0.012332622391908465,-0.005005916174167277,-0.01836024167968089,0.003314393246795084,0.9999999157238331,-0.0002433240875077456,2.8436749715087537e-05,0.0003294496416819141
1846.9666666653156,-0.00021434708,-0.78688115,0.0005040941,-2.3575358,0.0010774194,1.5707824,0.78496045,0.03999993,0.039999943,0.0033034982849233785,-0.0052965196881670775,-0.013935444519730389,-0.005356458449949656,-0.018745946505938436,0.003545795078569781,0.9999998911207447,-0.00028969672781102606,6.388793306681672e-05,0.0003602119327948713
1846.9833333319823,-0.0002525797,-0.7871126,0.00055067515,-2.3576708,0.0011761773,1.5707642,0.78485596,0.039999925,0.03999994,0.003605757822922051,-0.005465958103452375,-0.01244923237397888,-0.005718449115992943,-0.01914436907913902,0.0037843976691803926,0.99999985989895,-0.0003392694513518758,0.00010303868748309969,0.0003930411536192778
1846.999999998649,-0.00029330436,-0.7873601,0.0006002973,-2.3578134,0.0012813788,1.5707455,0.78474474,0.039999925,0.03999994,0.004516839883916823,-0.005632251492652799,-0.012820443994820963,-0.006090821239691091,-0.01954452500314806,0.004030045879504942,0.9999998208811577,-0.0003920372715988551,0.00014615782467685955,0.000427998037822701
1847.0166666653156,-0.00033659366,-0.7876241,0.00065304927,-2.357964,0.0013932125,1.5707248,0.78462654,0.03999992,0.039999936,0.0038332798871110185,-0.005796801257350629,-0.014399931944053534,-0.006474126581373274,-0.019945771792383937,0.004282595101953259,0.9999997728779252,-0.00044811466930199577,0.00019256058614693498,0.0004651427326804989
1847.0333333319822,-0.0003825188,-0.7879051,0.0007090187,-2.358123,0.0015118626,1.5707028,0.78450125,0.03999992,0.039999936,0.003960968237004536,-0.005958199008094123,-0.01434993255502448,-0.006868643724450077,-0.020355753127819558,0.004541885241705643,0.9999997145020814,-0.0005075565046324835,0.00024254572792936353,0.0005045331705144349
1847.049999998649,-0.00043115005,-0.7882032,0.0007682912,-2.3582902,0.0016375103,1.57068,0.78436846,0.03999992,0.039999936,0.0047765086214290875,-0.006115930768424622,-0.013807703555723805,-0.0072738345844912365,-0.020770880698095434,0.004807745281906517,0.9999996440358669,-0.0005705664768149004,0.000296680370875855,0.0005462259537846603
1847.0666666653156,-0.00048255586,-0.78851885,0.00083095056,-2.3584652,0.0017703323,1.5706556,0.7842281,0.039999925,0.039999943,0.005390131771321194,-0.006271296869403507,-0.014677542595920023,-0.007688902051103995,-0.021186572948898693,0.005079152263177584,0.999999559836015,-0.0006371704017722211,0.0003548461677879136,0.0005902760817362053
1847.0833333319822,-0.00053680385,-0.78885275,0.0008970793,-2.35865,0.001910505,1.5706296,0.78407985,0.03999993,0.039999947,0.0028928659979499116,-0.006422683268335577,-0.015807524883459934,-0.00811409702160767,-0.021605468093315577,0.005357669106433427,0.9999994602685222,-0.0007075117127916095,0.0004164778781868427,0.0006367385785337519
1847.0999999986489,-0.00059395964,-0.78920496,0.000966758,-2.3588457,0.0020581973,1.5706029,0.78392375,0.039999932,0.03999995,0.0011798919339556235,-0.006568727157374183,-0.015746239197933498,-0.008548885539508227,-0.02203203902767687,0.005642253811303349,0.9999993436075615,-0.0007815849514206222,0.0004814274804357452,0.0006856653636741644
1847.1166666653155,-0.00065408804,-0.7895758,0.001040066,-2.359051,0.0022135766,1.5705742,0.7837595,0.03999994,0.03999996,0.0035700116025383366,-0.006716693447980605,-0.016280685489755697,-0.008993309817957495,-0.022469717755945123,0.005931871295840245,0.9999992077209342,-0.0008595361181702888,0.0005499345557811621,0.0007371072850337317
1847.1333333319822,-0.0007172521,-0.78996587,0.0011170801,-2.3592653,0.0023768076,1.5705442,0.783587,0.03999994,0.03999996,0.0052160916488075415,-0.006860070792957676,-0.015744313289300926,-0.009447083633906493,-0.02291642429396551,0.0062280373700398135,0.9999990499434014,-0.0009413909189874247,0.0006229241416804274,0.0007911137376673582
1847.1499999986488,-0.00078351353,-0.7903756,0.0011978756,-2.3594906,0.002548048,1.5705132,0.783406,0.039999947,0.03999997,0.0025154813494188133,-0.006994732253145066,-0.016769455609533246,-0.009910474966866515,-0.02336337548236575,0.006529729307004432,0.9999988682207693,-0.0010272629271079565,0.0006997419035987078,0.0008477318722014033
1847.1666666653155,-0.0008529325,-0.7908051,0.0012825263,-2.3597264,0.0027274555,1.5704798,0.7832165,0.039999943,0.039999966,0.002979261290070312,-0.007133073822556454,-0.017682485126324643,-0.01038297191504195,-0.02381671745397381,0.0068367608343752944,0.9999986604104955,-0.001117208701066726,0.0007799719697857466,0.0009070091836462361
1847.183333331982,-0.00092556776,-0.79125494,0.0013711039,-2.3599722,0.002915181,1.5704454,0.7830181,0.03999995,0.039999977,0.004885818202016168,-0.007264429663677088,-0.016523681744473606,-0.010864302894204573,-0.024282107739073536,0.00714805301684221,0.9999984227780901,-0.0012113433557268815,0.0008649569465356283,0.0009689881770635426
1847.1999999986488,-0.0010014767,-0.79172534,0.0014636795,-2.3602295,0.003111373,1.5704094,0.78281075,0.039999954,0.03999998,0.002424804693634819,-0.007392277251327961,-0.017908638046515435,-0.011354194256224526,-0.02474719243317766,0.0074651645754982045,0.9999981532351069,-0.0013097517704887685,0.0009536851342540533,0.0010337124069625535
1847.2166666653154,-0.001080715,-0.7922166,0.0015603201,-2.3604977,0.0033161761,1.5703719,0.78259426,0.039999958,0.039999984,0.003572991610978349,-0.007517300183464267,-0.017767794016476657,-0.011852119698553347,-0.02522157486131447,0.007787025707827687,0.9999978483965387,-0.0014124898565302487,0.001046605214313362,0.0011012230581576607
1847.233333331982,-0.0011633375,-0.7927292,0.0016610931,-2.360777,0.0035297303,1.5703329,0.7823685,0.03999996,0.039999988,0.004105364734563466,-0.007638910400096241,-0.017940180787134885,-0.012358081018367514,-0.025701607497468977,0.00811343134169239,0.999997504676907,-0.0015196435096112536,0.0011440169841569672,0.0011715582371561526
1847.2499999986487,-0.0012493961,-0.79326326,0.0017660627,-2.3610685,0.0037521722,1.5702915,0.7821334,0.03999996,0.03999999,0.0014691317694381922,-0.007755817747870592,-0.019342545375189424,-0.012871535839496344,-0.026186026510730487,0.008443360578797274,0.9999971201138559,-0.0016312083649482301,0.0012447897317882084,0.0012447577227476885
1847.2666666653154,-0.0013389433,-0.79381925,0.0018752913,-2.361371,0.003983636,1.5702493,0.78188896,0.039999966,0.039999995,0.004885286163602842,-0.007871681750993252,-0.01781410027830166,-0.013393050431382971,-0.02668373453039245,0.008778288234112235,0.9999966891589392,-0.0017472110296188577,0.0013506538812843672,0.0013208553557077683
1847.283333331982,-0.0014320284,-0.79439723,0.0019888403,-2.361686,0.004224253,1.570205,0.7816347,0.03999997,0.04,0.002065763029834855,-0.007983432561772547,-0.019446934742939348,-0.013922911250011768,-0.02718015590166968,0.009117161871735273,0.9999962094549579,-0.001867885726038198,0.0014602706145214587,0.0013998886964914734
1847.2999999986487,-0.0015286996,-0.7949979,0.0021067692,-2.3620121,0.0044741533,1.5701592,0.7813706,0.03999997,0.039999995,0.0050031117822646465,-0.00809842201428242,-0.01874693734589261,-0.01445947406782433,-0.02768749035631973,0.009460699301972613,0.9999956753148416,-0.001993230963016031,0.0015749235159008927,0.001481889962511084
1847.3166666653153,-0.0016290037,-0.795621,0.0022291346,-2.3623514,0.0047334475,1.5701118,0.7810966,0.039999966,0.039999995,0.001449067251191316,-0.00818894505432129,-0.019654169091420925,-0.015002476350349977,-0.02819494435526296,0.009806051061566854,0.9999950843908639,-0.0021232702447588443,0.0016934525170167005,0.0015668874079761822
1847.333333331982,-0.001732986,-0.7962673,0.0023559926,-2.3627024,0.005002247,1.5700622,0.7808125,0.03999996,0.039999995,0.004472453532522458,-0.008291039175251265,-0.019769311889117347,-0.015552484571927736,-0.028712986529389764,0.010154555611869084,0.9999944309480714,-0.002258093042697405,0.0018166944871527368,0.0016549047687982369
1847.3499999986486,-0.0018406908,-0.7969368,0.0024873961,-2.3630657,0.0052806684,1.5700111,0.78051823,0.03999996,0.04,0.0035070842865803087,-0.008386006599793525,-0.019573446912080072,-0.016108928000066986,-0.029234768522520552,0.010506384938322726,0.9999937102684782,-0.0023977537036888384,0.0019446817224852725,0.0017459706920997917
1847.3666666653153,-0.0019521603,-0.79763,0.0026233972,-2.3634417,0.0055688377,1.5699579,0.78021365,0.03999996,0.039999995,0.0032468831085763483,-0.008493643661785111,-0.02052168520536579,-0.0166718741844592,-0.02976003615612585,0.010863009279379707,0.9999929181359482,-0.002542309741186249,0.002077089023148669,0.0018401196484972382
1847.383333331982,-0.002067435,-0.7983471,0.0027640457,-2.363831,0.0058668447,1.5699033,0.7798987,0.03999996,0.04,0.0025490692302954088,-0.008568404920869348,-0.020246858540340362,-0.017240457985365474,-0.03029268211201324,0.011220292416082597,0.9999920491714863,-0.0026917859707796983,0.002214157448374392,0.0019373664839025112
1847.3999999986486,-0.0021865552,-0.7990881,0.0029093898,-2.3642325,0.0061747883,1.5698464,0.7795732,0.039999954,0.03999999,0.004222512084783858,-0.00865720187374127,-0.02041642757815154,-0.017814979900130964,-0.030829703858878767,0.011581160484848693,0.9999910977647447,-0.002846271748313101,0.002356009086486924,0.0020377314788447964
1847.4166666653152,-0.0023095575,-0.79985344,0.0030594761,-2.364647,0.0064927735,1.5697881,0.7792371,0.03999995,0.03999999,0.0036782538073376614,-0.008744038577462691,-0.020330814965752175,-0.018395185101033763,-0.03136998948297282,0.011943480944048025,0.999990057815393,-0.0030057929995609277,0.0025029150524242465,0.002141236804093271
1847.4333333319819,-0.0024364786,-0.8006432,0.0032143488,-2.365075,0.006820896,1.5697277,0.7788903,0.03999995,0.03999999,0.0019037325456050525,-0.008821715717558572,-0.02133091221336869,-0.018980794264668865,-0.03191323092889294,0.01230879251313639,0.9999889256293588,-0.003170375304647028,0.002654103498416604,0.002247904288026507
1847.4499999986485,-0.0025673544,-0.8014577,0.0033740508,-2.365517,0.007159254,1.5696657,0.7785326,0.039999954,0.039999995,0.002770208839919519,-0.008902784309139725,-0.02093342336693116,-0.019571508720968755,-0.03246535590028627,0.012675973788098639,0.9999876937220085,-0.0033401349151525143,0.002810143991091936,0.0023577519030514925
1847.4666666653152,-0.0027022178,-0.8022972,0.0035386228,-2.3659716,0.0075079263,1.5696015,0.77816427,0.039999958,0.04,0.003998188203313546,-0.008973930906446253,-0.02118033021409893,-0.020166876285741916,-0.033021411615747905,0.013045062818495353,0.9999863559890269,-0.003514952750423483,0.0029712182025811006,0.002470790428606921
1847.4833333319818,-0.0028411006,-0.80316144,0.0037081041,-2.3664393,0.007866996,1.5695357,0.7777846,0.03999996,0.04,0.0034911872013321243,-0.009042497870216312,-0.020809575573310646,-0.020767932718484507,-0.033578866689619936,0.013415370127321843,0.9999849049256823,-0.0036951531980601387,0.0031373600087421447,0.002587032236489079
1847.4999999986485,-0.0029840323,-0.8040512,0.0038825322,-2.3669207,0.00823655,1.5694678,0.777394,0.03999996,0.04,0.0032440252564214234,-0.009114055360752438,-0.021757907851815972,-0.021372224321116826,-0.03413960070728135,0.01378697730853911,0.9999833351391012,-0.003880526025576575,0.0033084530835650883,0.002706492201849469
1847.5166666653151,-0.0031310443,-0.8049664,0.0040619425,-2.367416,0.008616676,1.5693982,0.7769923,0.039999966,0.039999995,0.002797339577575997,-0.009181471275860643,-0.021418148157037464,-0.021981162502605896,-0.03470483894859162,0.014161864100092616,0.9999816394474547,-0.004071155619230487,0.00348456077938001,0.0028291864695477328
1847.5333333319818,-0.0032821638,-0.80590725,0.0042463685,-2.3679254,0.009007423,1.5693263,0.7765794,0.039999966,0.039999995,0.002051421765059125,-0.009223547777426414,-0.022214676694565227,-0.02259470432921546,-0.03527234865015173,0.014535259016687866,0.9999798120446562,-0.0042671291176017605,0.0036652994809522736,0.002955112847704974
1847.5499999986484,-0.0034374155,-0.806874,0.004435844,-2.3684494,0.009408861,1.5692526,0.77615505,0.03999997,0.04,0.0019242276278363946,-0.009280342511743499,-0.022041058496746757,-0.023211778365338418,-0.03584718589295178,0.01490938143937134,0.9999778449672974,-0.0044685036177425225,0.003850881697328647,0.003084276273496074
1847.566666665315,-0.0035968255,-0.80786645,0.0046303957,-2.368987,0.009821061,1.5691769,0.77571946,0.03999997,0.039999995,0.003269958635865322,-0.00933760127469329,-0.021712638501747428,-0.023832136509164242,-0.036428310532758676,0.01528476968849117,0.9999757300387612,-0.004675218754684621,0.004041609111611517,0.0032166844469559814
1847.5833333319817,-0.0037604168,-0.8088852,0.0048300563,-2.3695378,0.010244058,1.5690993,0.7752724,0.03999997,0.04,0.004628998211742008,-0.009376680303835663,-0.021699219663107172,-0.02445634263739614,-0.037010273471034104,0.015657992158065993,0.9999734569007206,-0.004887365709427035,0.004238052068637716,0.003352322345574737
1847.5999999986484,-0.003928212,-0.80993026,0.005034852,-2.3701024,0.010677942,1.5690197,0.7748139,0.03999997,0.039999995,0.0032971219112942762,-0.009440324688849387,-0.022072123912986186,-0.02508383362071373,-0.03758992605312701,0.01603450060162137,0.9999710190523295,-0.005104969695158831,0.004439797570754743,0.003491208585537252
1847.616666665315,-0.004100231,-0.81100154,0.005244805,-2.370682,0.01112275,1.5689378,0.77434367,0.03999997,0.039999995,0.001047542915810773,-0.009462357246554226,-0.022701480559184084,-0.025714017986314567,-0.03817122753106228,0.016409274088285353,0.9999684113795966,-0.005328113697487739,0.004646105031050166,0.0036333394326912003
1847.6333333319817,-0.0042764945,-0.8120994,0.005459941,-2.371276,0.011578524,1.5688542,0.77386206,0.039999966,0.039999995,0.0027647276064524107,-0.009498009194050007,-0.022125785576898593,-0.026346427183827764,-0.038761854178854624,0.016782910441441277,0.9999656227691338,-0.005556648503087146,0.004857812553412382,0.0037787027598918128
1847.6499999986484,-0.0044570165,-0.8132237,0.005680281,-2.371884,0.012045301,1.5687683,0.77336866,0.039999966,0.04,0.0023212116436965857,-0.009532681331006834,-0.022559885538675495,-0.026982116031988142,-0.03935201160302326,0.017155329118279675,0.9999626455872599,-0.005790783691026432,0.005074508001669936,0.003927292058496427
1847.666666665315,-0.0046418156,-0.8143748,0.005905845,-2.3725066,0.012523147,1.5686806,0.77286357,0.03999997,0.04,0.002790288220477777,-0.009577924050852352,-0.02216895330608981,-0.02761974216746588,-0.03994565007179157,0.017529415855593644,0.9999594688841434,-0.006030455785545245,0.005296702300568859,0.004079109792506776
1847.6833333319817,-0.0048309094,-0.8155527,0.0061366516,-2.3731437,0.013012122,1.5685908,0.77234674,0.039999977,0.04,0.002167758222326732,-0.009618820239150686,-0.022716124840971297,-0.028259637698623805,-0.04054010879738717,0.017904161804857214,0.9999560854668321,-0.006275691942544282,0.005524012774949903,0.004234160052932237
1847.6999999986483,-0.0050243083,-0.8167574,0.0063727195,-2.3737953,0.013512236,1.568499,0.7718182,0.03999998,0.04,0.0021296512183743843,-0.009630416942944808,-0.022384759257798592,-0.028901165902392268,-0.04113843245991116,0.01827532113150418,0.9999524856633121,-0.006526462106442397,0.005756592840054015,0.0043924192662524505
1847.716666665315,-0.0052220267,-0.817989,0.0066140606,-2.3744617,0.014023507,1.568405,0.77127784,0.03999998,0.04,0.0017467834640738644,-0.009635560818723257,-0.022731498345041068,-0.029544870354793504,-0.04173749625837005,0.018644442069863466,0.9999486604669979,-0.006782851401116449,0.005994298583267983,0.004553871058949007
1847.7333333319816,-0.0054240744,-0.8192476,0.0068606897,-2.3751428,0.014546012,1.5683091,0.7707256,0.03999998,0.03999999,0.0017556317529754395,-0.009692612476472871,-0.02264233962743223,-0.030189769336119564,-0.04234122127148029,0.019015989180014643,0.9999445997202916,-0.0070448591744195115,0.006237224408352896,0.00471852531179787
1847.7499999986483,-0.005630463,-0.82053334,0.0071126204,-2.375839,0.01507971,1.5682111,0.7701616,0.039999977,0.04,0.0013804446909571055,-0.009657543577661423,-0.02277537294719245,-0.03083599128975881,-0.04294549707945708,0.01938037889939214,0.9999402946658569,-0.007312422426300017,0.006485315093327541,0.004886335023175423
1847.766666665315,-0.0058411974,-0.8218462,0.00736986,-2.3765492,0.015624644,1.5681108,0.7695858,0.039999973,0.04,0.0028288875532078706,-0.00969493437590497,-0.022512549619091438,-0.03148395279486607,-0.04355463370651916,0.019744581442130014,0.9999357325151782,-0.007585605231847638,0.006738933572558562,0.005057292448047808
1847.7833333319816,-0.0060562897,-0.8231863,0.0076324195,-2.3772738,0.016180834,1.5680088,0.7689979,0.039999973,0.04,0.0026054314589796235,-0.009698824462824746,-0.02229192059703955,-0.03213275690102732,-0.044161444019524286,0.020106802540487342,0.9999309009948766,-0.007864491897259912,0.006998264175788235,0.005231376615970807
1847.7999999986482,-0.0062757432,-0.8245536,0.007900306,-2.3780136,0.016748292,1.5679042,0.7683981,0.03999997,0.04,0.0006427204996217739,-0.009700872836625012,-0.02318467042610184,-0.032781565907123,-0.04476718140950071,0.02046687893393987,0.9999257958597031,-0.008149019138134738,0.007262477372196194,0.005408575028960497
1847.8166666653149,-0.006499563,-0.8259481,0.008173523,-2.378768,0.017327037,1.5677981,0.7677864,0.03999996,0.04,0.002004794565357848,-0.009706791703629342,-0.02210370723974009,-0.03343100111644019,-0.04537756660185565,0.020824590949749033,0.9999204008120904,-0.008439185437078481,0.007532383018995855,0.005588863480378008
1847.8333333319815,-0.0067277527,-0.82736975,0.008452078,-2.3795369,0.017917082,1.5676895,0.76716274,0.039999958,0.039999995,0.0015214356772430548,-0.009720421465554685,-0.022735737606982553,-0.034080780247993284,-0.045986848584838334,0.021180606808378088,0.9999147086458234,-0.008734993179518074,0.007807479811912199,0.0057722254701589966
1847.8499999986482,-0.0069603124,-0.8288188,0.008735973,-2.3803205,0.018518437,1.567579,0.7665272,0.039999966,0.04,0.0015194503935056503,-0.00971645046746808,-0.02252270337932405,-0.03473086203190909,-0.046597715815854306,0.021534699906516425,0.9999087058575001,-0.00903643900938151,0.008088100941091053,0.005958636049956204
1847.8666666653148,-0.007197245,-0.83029485,0.009025206,-2.3811193,0.019131098,1.5674664,0.7658796,0.039999966,0.04,0.00047762996238098765,-0.00969681429431185,-0.022516709461761764,-0.035380911574186186,-0.047208377640022406,0.0218842820006522,0.9999023843151799,-0.009343576630370522,0.008373805241535383,0.006148073059706042
1847.8833333319815,-0.0074385507,-0.8317983,0.009319779,-2.3819323,0.019755071,1.5673518,0.7652201,0.03999997,0.04,0.0021073328644094502,-0.009705321136957781,-0.022237536696456672,-0.03603029283152319,-0.04782076669584515,0.022232423941657864,0.9998957277332304,-0.009656321419815202,0.00866528301822831,0.00634050374061707
1847.8999999986481,-0.007684226,-0.833329,0.009619692,-2.3827598,0.020390354,1.5672351,0.7645486,0.03999997,0.04,0.001316073749180191,-0.009694889996909178,-0.02236653212739359,-0.0366796810297836,-0.048432454346224625,0.02257723077282929,0.9998887262349502,-0.009974760945148115,0.00896221261634507,0.00653590371374327
1847.9166666653148,-0.007934269,-0.83488697,0.009924938,-2.3836024,0.021036938,1.5671164,0.76386523,0.039999973,0.04,0.0004245018314863458,-0.009668668788307896,-0.022428972901944455,-0.037327733094940176,-0.04904099583185525,0.022917922132461337,0.9998813705512036,-0.010298799556856498,0.009264420319935993,0.006734245946643162
1847.9333333319814,-0.008188679,-0.8364722,0.010235512,-2.384459,0.021694802,1.5669956,0.7631698,0.039999973,0.04,0.0019949859112688983,-0.009649888989813477,-0.02202299309137512,-0.03797555884519861,-0.04965146576278162,0.023255018414547322,0.9998736431050488,-0.01062852958239137,0.009572418881227679,0.006935486970345642
1847.949999998648,-0.008447446,-0.8380845,0.010551409,-2.3853307,0.022363948,1.5668726,0.7624626,0.039999973,0.04,-8.503907498180752e-05,-0.009637339267736314,-0.022406882604752987,-0.03862180190706657,-0.05025843803928115,0.023589254643890133,0.9998655396450508,-0.010963827245677541,0.00988549813698508,0.0071396112654759656
1847.9666666653147,-0.008710564,-0.83972394,0.010872623,-2.3862166,0.023044338,1.5667475,0.7617437,0.03999997,0.04,0.0011542035143641272,-0.009606639730967356,-0.021921887290243802,-0.03926725841947681,-0.05086854694188827,0.023918065725711268,0.9998570438123027,-0.011304635933121003,0.010204169768197602,0.007346568224995776
1847.9833333319814,-0.008978028,-0.84139055,0.011199142,-2.3871174,0.023735981,1.5666205,0.76101226,0.03999997,0.039999995,0.00027899775469908406,-0.009588882735452747,-0.02210031054521444,-0.03991241876038837,-0.05147493208120889,0.024244442555952296,0.9998481399994752,-0.0116513959447443,0.01052823450559847,0.0075563344502342445
1847.999999998648,-0.00924983,-0.84308416,0.011530956,-2.388033,0.024438806,1.5664912,0.76026934,0.03999997,0.04,-7.710042624342606e-05,-0.00952301169020002,-0.0220333089385516,-0.040552402540512324,-0.052082106216333995,0.024563635269720066,0.9998388238338259,-0.012003538701475656,0.010857544705962216,0.007768856813709656
1848.0166666653147,-0.009525958,-0.8448046,0.011868057,-2.388963,0.025152853,1.5663601,0.7595147,0.039999973,0.039999995,9.314110362979022e-05,-0.009545433861226152,-0.02160451391286511,-0.04119278486977122,-0.052689041001649645,0.024884027220839947,0.9998290791451854,-0.012361213865698991,0.011192256666332473,0.007984126638032779
1848.0333333319813,-0.009806406,-0.8465522,0.012210426,-2.3899078,0.025878044,1.5662267,0.75874823,0.03999997,0.04,-0.00018671038835016418,-0.009465976185955502,-0.022115010800627388,-0.04183170217883369,-0.05329508286414149,0.025195272910316827,0.9998188942787674,-0.012724447369354871,0.011532257009242252,0.008202080870136422
1848.049999998648,-0.010091153,-0.8483265,0.01255805,-2.3908672,0.026614374,1.5660915,0.75797004,0.039999973,0.04,-0.00025424162595211186,-0.009453649429411876,-0.021337727306858234,-0.042468290136413386,-0.05389966780816571,0.02550434095179378,0.9998082551476141,-0.01309320982658812,0.011877670719909798,0.008422691576320524
1848.0666666653146,-0.010380192,-0.8501275,0.012910915,-2.3918412,0.027361806,1.5659543,0.75718,0.039999977,0.039999995,-0.00046629044945234455,-0.009408460451374237,-0.021456518901019628,-0.04310269660888112,-0.054503935083265224,0.02580944613648063,0.9997971492300338,-0.013467557757052577,0.012228385046097466,0.008645916881525799
1848.0833333319813,-0.010673506,-0.8519553,0.013268999,-2.3928297,0.02812031,1.5658151,0.7563783,0.039999984,0.04,-0.0005382017417732143,-0.009366924220182218,-0.021432355764527955,-0.043734081207237645,-0.0551067778279492,0.026108965800573477,0.9997855644953105,-0.013847370571327603,0.012584434738526863,0.008871716709038784
1848.099999998648,-0.010971087,-0.8538096,0.013632287,-2.3938327,0.028889833,1.5656736,0.75556487,0.03999998,0.039999995,-0.001004348686217682,-0.009311173127311834,-0.02141140332214686,-0.04436300339713467,-0.05570729139599563,0.026402704986963774,0.9997734898823379,-0.014232703988082419,0.012945587838667096,0.00910004512019034
1848.1166666653146,-0.011272912,-0.8556905,0.014000757,-2.3948495,0.029670335,1.5655303,0.75474,0.03999997,0.039999984,0.0003026881369549983,-0.009273672949492578,-0.020750066124142208,-0.044988686480968834,-0.05630870243513983,0.02669138373013731,0.9997609059333037,-0.014623414182796706,0.013312474561362796,0.009330849163464274
1848.1333333319812,-0.011578963,-0.85759753,0.014374392,-2.395881,0.030461745,1.5653849,0.7539036,0.03999997,0.039999988,-0.0016140068585634992,-0.009198260804026831,-0.020996754212099233,-0.04561213641450141,-0.056905591514896776,0.026974210627174814,0.99974780853313,-0.015019523959472765,0.013684355993734182,0.009564080419549328
1848.149999998648,-0.011889226,-0.85953087,0.014753165,-2.3969264,0.03126403,1.5652374,0.75305563,0.03999997,0.039999995,-0.0007737384678963011,-0.009152145955640054,-0.02072582007577317,-0.046232549305162005,-0.057501968377678625,0.027251022936801917,0.9997341783901886,-0.015421092053672762,0.014061596305869908,0.0097996932450584
1848.1666666653146,-0.012203676,-0.8614904,0.015137056,-2.3979852,0.032077126,1.5650882,0.75219613,0.03999997,0.04,0.0003259513944753323,-0.009109220329539536,-0.020173145565416384,-0.04684946729210307,-0.05809636966773332,0.027523185032793145,0.9997199960727724,-0.01582806724746417,0.014444647475955426,0.010037624159177763
1848.1833333319812,-0.012522298,-0.863476,0.015526037,-2.3990586,0.03290103,1.5649366,0.7513253,0.039999966,0.039999984,-0.0022614500690076866,-0.009055644177446628,-0.020790116302116246,-0.04746228055094712,-0.058683013385368965,0.027793084065315967,0.9997052624661593,-0.0162403433947112,0.014832561720048206,0.010277867323063818
1848.1999999986479,-0.012845069,-0.86548734,0.01592008,-2.4001458,0.033735663,1.5647832,0.7504432,0.03999997,0.039999995,-0.0012466672959954295,-0.008987295286683877,-0.020078133414269672,-0.048071713571871316,-0.05927085596357832,0.02805343034511679,0.9996899579340144,-0.016657894067233156,0.015225791228302702,0.010520354205329431
1848.2166666653145,-0.013171964,-0.86752445,0.01631916,-2.4012468,0.03458095,1.5646279,0.74954975,0.03999997,0.03999999,-0.001452011909108819,-0.008913825546979365,-0.019977516920532956,-0.04867788419973875,-0.05985541135349868,0.02831027580801683,0.9996740679529228,-0.01708077793209812,0.015624312486955411,0.010765024245175326
1848.2333333319812,-0.013502961,-0.8695871,0.016723245,-2.4023626,0.035436824,1.5644708,0.7486451,0.03999997,0.04,-0.0033718942126448326,-0.008818789032646185,-0.02008648544353786,-0.04927927792586757,-0.06043681614712729,0.028558441053459793,0.9996575886817023,-0.017508860080753943,0.016027623645785496,0.011011834090028767
1848.2499999986478,-0.013838039,-0.8716754,0.017132314,-2.4034917,0.03630327,1.5643116,0.74772936,0.039999977,0.04,-0.0011516307613534948,-0.008818833145284727,-0.019639011636529702,-0.04987729513394088,-0.06101921418446709,0.028805253759806335,0.9996404963361373,-0.01794215680586986,0.01643632650978993,0.011260739978274125
1848.2666666653145,-0.01417717,-0.87378854,0.017546324,-2.4046345,0.037180204,1.5641506,0.7468025,0.039999973,0.03999999,-0.002340184225002595,-0.008713006994585937,-0.019196463171455846,-0.05047080629846274,-0.061595837757006444,0.029044462709952444,0.9996227836854278,-0.018380626862644803,0.016850039260097104,0.01151169275414422
1848.283333331981,-0.014520328,-0.87592673,0.017965252,-2.40579,0.03806754,1.5639875,0.7458646,0.039999973,0.039999995,-0.0011802022325424488,-0.008652439269444395,-0.019009353030075005,-0.05105961453303529,-0.062170971023112725,0.029276041733985122,0.9996044311132626,-0.018824251086051055,0.01726912428898736,0.011764617123882683
1848.2999999986478,-0.014867485,-0.8780901,0.018389061,-2.4069593,0.03896521,1.5638226,0.74491584,0.03999997,0.03999999,-0.002346724428781144,-0.00856327585198255,-0.01910464507752785,-0.051643947084767425,-0.06273973967452305,0.02950224308949682,0.9995854285041467,-0.019272957886084238,0.01769340793009407,0.012019464726939733
1848.3166666653144,-0.01521861,-0.88027835,0.018817717,-2.4081426,0.039873153,1.5636557,0.74395615,0.03999997,0.039999988,-0.0036373215357654587,-0.008479315929824094,-0.019248002274241394,-0.05222331818385663,-0.06330481511867195,0.029722991419136494,0.9995657700939203,-0.019726739608312324,0.018122419299157155,0.012276193209600614
1848.333333331981,-0.0155736795,-0.8824912,0.019251188,-2.4093394,0.04079129,1.563487,0.74298567,0.039999973,0.03999999,-0.0032544584217530925,-0.00840298419824484,-0.018609917883116722,-0.05279768706566429,-0.0638702305743509,0.029936754402769827,0.9995454399685282,-0.020185535324695355,0.018556341896484536,0.012534742805405074
1848.3499999986477,-0.01593266,-0.88472825,0.019689431,-2.4105484,0.04171954,1.5633166,0.7420045,0.03999997,0.039999988,-0.001257781424413018,-0.008341543695621761,-0.017826597214187778,-0.05336710662585207,-0.06443145857140005,0.03014398538918867,0.9995244143705916,-0.02064930005089117,0.01899574618866644,0.012795042448931348
1848.3666666653144,-0.016295524,-0.8869894,0.020132411,-2.411771,0.04265782,1.5631442,0.7410129,0.03999997,0.039999988,-0.004077311246830639,-0.00821982245577807,-0.01827134892984361,-0.053931213572922784,-0.06498475072107948,0.030344827146018372,0.9995026973320427,-0.02111792167880422,0.019439772756659864,0.013057053461966152
1848.383333331981,-0.01666224,-0.88927454,0.02058009,-2.413007,0.04360603,1.56297,0.7400105,0.03999996,0.039999984,-0.0038978700147573875,-0.008127206012981808,-0.017946731736318,-0.05449028509542146,-0.06553831939449645,0.030538382878432465,0.9994802703597143,-0.021591518021629175,0.01988854744307793,0.01332070537916458
1848.3999999986477,-0.017032772,-0.8915836,0.021032427,-2.4142556,0.044564124,1.562794,0.7389979,0.039999973,0.03999999,-0.0028622997779947923,-0.008077583739173055,-0.0176900732968166,-0.05504333932527354,-0.06608934952275546,0.03072713289618479,0.9994571182431908,-0.022069860218180748,0.020342370410310492,0.013585949692831011
1848.4166666653143,-0.017407084,-0.8939163,0.021489374,-2.4155164,0.045532003,1.5626162,0.7379749,0.039999966,0.039999988,-0.0024744260596509804,-0.007987452662208683,-0.01705636875037886,-0.055591318908470425,-0.06663394564338246,0.030907485343430203,0.9994332216898144,-0.022553009155130713,0.020801426193479893,0.013852719194580298
1848.433333331981,-0.017785145,-0.8962723,0.021950902,-2.41679,0.046509556,1.5624366,0.73694164,0.039999966,0.039999988,-0.004232617936539285,-0.007863164976340542,-0.017242589190047397,-0.056133431773098166,-0.06717239950393199,0.031081965006631546,0.9994085809700505,-0.023040892276950765,0.02126509328889903,0.014120955135054736
1848.4499999986476,-0.018166922,-0.8986515,0.02241696,-2.4180768,0.047496706,1.5622551,0.7358982,0.039999973,0.039999995,-0.004867677094799738,-0.007756646518767424,-0.01709031072461009,-0.05666966820578475,-0.06770733097379134,0.031249909693079683,0.9993831856548481,-0.023533468250759144,0.021733257516352213,0.014390608749667431
1848.4666666653143,-0.01855238,-0.90105367,0.022887506,-2.419375,0.048493363,1.562072,0.73484474,0.039999973,0.039999995,-0.0022948445475901025,-0.007705592821272839,-0.01621212760458679,-0.05719962870157333,-0.06824075836772271,0.03141094611624136,0.9993570061523209,-0.024030669471635294,0.022206726260386216,0.014661599087796497
1848.483333331981,-0.018941479,-0.9034786,0.023362495,-2.4206858,0.049499437,1.5618871,0.7337814,0.039999966,0.039999988,-0.004766325329019772,-0.007578927139111069,-0.016512317786898656,-0.05772362488974408,-0.0687636377786128,0.031565239747608845,0.9993300468908245,-0.02453241567013006,0.02268472938327719,0.014933888153383847
1848.4999999986476,-0.019334178,-0.90592575,0.02384188,-2.422008,0.050514817,1.5617005,0.73270804,0.03999997,0.03999999,-0.0034683487893705234,-0.0074950866037280794,-0.015656578222089657,-0.058241521280068036,-0.06928469222891087,0.03171274508296369,0.9993022857060848,-0.02503877951872004,0.02316756994392564,0.015207399702143794
1848.5166666653142,-0.019730443,-0.90839535,0.024325619,-2.4233427,0.051539414,1.561512,0.73162514,0.03999997,0.03999999,-0.004949994268077518,-0.0073739463469522926,-0.016087069343639904,-0.058752116906855806,-0.06979917236933272,0.03185336366494666,0.9992737224985215,-0.025549506209766867,0.023654921502362366,0.01548208464974859
1848.5333333319809,-0.020130238,-0.91088665,0.024813658,-2.4246898,0.05257313,1.561322,0.73053247,0.03999997,0.03999999,-0.005786961120302081,-0.00724946630737619,-0.01537791179935244,-0.05925702009816392,-0.07030932035568396,0.03198707652211502,0.9992443473215304,-0.026064700135421268,0.02414652274778378,0.015757893006675412
1848.5499999986475,-0.020533515,-0.9133998,0.025305947,-2.4260483,0.053615846,1.5611303,0.7294304,0.039999966,0.03999999,-0.004159571926898309,-0.007167270663647335,-0.015144573208303314,-0.059754754261919965,-0.07081708169140594,0.0321131591427216,0.9992141391157897,-0.026584201188590915,0.024642880871277556,0.01603473918152889
1848.5666666653142,-0.02094024,-0.91593444,0.025802445,-2.4274187,0.054667458,1.560937,0.72831887,0.039999966,0.03999999,-0.00549543921768425,-0.00703757913627992,-0.014898500620597055,-0.0602460409428938,-0.07131755266042762,0.032233163795633554,0.9991830940868881,-0.02710799284038223,0.02514361309136007,0.01631256987205631
1848.5833333319808,-0.02135037,-0.9184903,0.026303098,-2.4288003,0.05572789,1.5607424,0.7271979,0.03999997,0.03999999,-0.004605375177813009,-0.006968205950090567,-0.014336482119259308,-0.060730679163339976,-0.071814732559299,0.03234694409311893,0.9991511901700977,-0.027636112444592926,0.02564902212922711,0.016591327085002237
1848.5999999986475,-0.021763863,-0.9210671,0.026807847,-2.4301941,0.056797,1.5605459,0.7260679,0.03999996,0.039999988,-0.00674665120310447,-0.006788137603007394,-0.014702664147758782,-0.061207167335018284,-0.07230458175262225,0.032452188352541086,0.9991184410035382,-0.02816829891159527,0.026158333909351596,0.016870961744174042
1848.6166666653141,-0.022180675,-0.9236646,0.027316645,-2.4315984,0.05787469,1.5603479,0.72492874,0.039999958,0.039999984,-0.004235213850223296,-0.006738871102996563,-0.013690222350359882,-0.061677578340737185,-0.0727925872608272,0.032551284578456866,0.9990848099171404,-0.0287046673177042,0.02667235726837677,0.01715138550553624
1848.6333333319808,-0.022600768,-0.9262826,0.027829444,-2.433014,0.058960848,1.5601482,0.7237806,0.039999958,0.039999984,-0.0058799909007811735,-0.006594691894955262,-0.01379869414390722,-0.062140144962491844,-0.07327179945647341,0.0326433753073233,0.9990503006731491,-0.02924510891531883,0.027190558751148362,0.017432551282643413
1848.6499999986474,-0.023024091,-0.92892057,0.028346179,-2.4344397,0.060055364,1.5599471,0.72262365,0.039999958,0.039999984,-0.004707037909645884,-0.006501748656986828,-0.012970187841343517,-0.06259511662651376,-0.07374723274437442,0.03272850214581613,0.9990148930799604,-0.02978951498396009,0.02771332701229323,0.017714392661489133
1848.666666665314,-0.0234506,-0.93157846,0.028866796,-2.4358764,0.06115811,1.5597445,0.721458,0.03999996,0.039999988,-0.006231196457417987,-0.006345006342933779,-0.013143775826529591,-0.06304280873623246,-0.07421306952710051,0.03280658895385431,0.9989785886680645,-0.03033783822004069,0.028240188649855953,0.017996852500284523
1848.6833333319807,-0.023880253,-0.934256,0.02939126,-2.4373236,0.062268984,1.5595403,0.72028387,0.039999958,0.039999984,-0.005783680018112136,-0.006268269067187526,-0.012754802052139524,-0.0634829652254459,-0.0746737449317772,0.03287765192677136,0.9989413741423075,-0.030889998351745006,0.0287712640629685,0.018279863039053178
1848.6999999986474,-0.024313007,-0.9369529,0.029919494,-2.438781,0.06338785,1.5593348,0.71910125,0.039999958,0.039999984,-0.005772554108318673,-0.0061028027800405504,-0.012205063715886588,-0.06391585652974181,-0.07512840084187597,0.03294180709546804,0.9989032366023989,-0.031445952250909646,0.029306615771139605,0.018563358110220245
1848.716666665314,-0.02474881,-0.93966866,0.030451441,-2.44025,0.064514585,1.5591277,0.7179102,0.039999958,0.039999984,-0.008444941542262718,-0.005937186512690318,-0.01244261442379102,-0.06434051366887746,-0.07557476546216167,0.0329991870278812,0.9988641912261015,-0.03200567269510903,0.02984532467720281,0.018847307406416557
1848.7333333319807,-0.0251876,-0.94240296,0.030987047,-2.4417279,0.065649085,1.5589192,0.716711,0.03999996,0.039999988,-0.004786282831070743,-0.005923665926726995,-0.01126709168304263,-0.06475704607242633,-0.07602197330929948,0.03304956891899989,0.9988241991281467,-0.0325690322582477,0.0303884610923367,0.019131617971758445
1848.7499999986474,-0.025629355,-0.9451559,0.03152626,-2.4432158,0.066791214,1.5587094,0.71550363,0.039999958,0.039999984,-0.006395050306107208,-0.005735198730665025,-0.011476170361612859,-0.06516584779597372,-0.07645810353672813,0.033092873373613066,0.9987832588646924,-0.03313602721458954,0.030935671229591098,0.019416224082797903
1848.766666665314,-0.026074015,-0.9479269,0.03206901,-2.4447134,0.06794085,1.5584983,0.7142885,0.039999958,0.039999984,-0.00633846403603755,-0.005614958193675412,-0.010850676137197368,-0.0655660543574726,-0.07688673089725954,0.033129474600689754,0.9987413668711386,-0.03370648031214162,0.03148686541530902,0.019701080976816075
1848.7833333319807,-0.026521528,-0.95071566,0.032615237,-2.4462206,0.069097854,1.5582856,0.7130654,0.039999958,0.039999984,-0.007133366858003143,-0.005465485751252053,-0.010907561140705013,-0.06595870367931056,-0.07730671689203708,0.033159134390841255,0.9986985202101355,-0.034280445282144995,0.03204171950004084,0.01998612050459032
1848.7999999986473,-0.026971847,-0.9535218,0.033164877,-2.4477375,0.070262104,1.5580717,0.7118346,0.039999954,0.039999984,-0.0071767699864944134,-0.005333743648225364,-0.010203743589265457,-0.06634236179736111,-0.07772255253620798,0.03318128061967248,0.998654709989206,-0.03485779382250932,0.03260029361751939,0.020271292071645085
1848.816666665314,-0.027424918,-0.956345,0.033717886,-2.449263,0.071433485,1.5578564,0.7105965,0.03999995,0.03999998,-0.006385101198169707,-0.005258352253410814,-0.009919353342913162,-0.066717721195415,-0.07813205654285331,0.03319734212874889,0.9986099269747305,-0.03543836724538588,0.03316270469739415,0.02055652917342447
1848.8333333319806,-0.027880702,-0.9591851,0.03427419,-2.4507983,0.07261182,1.55764,0.7093509,0.03999995,0.03999998,-0.007876458785993634,-0.005034565619024822,-0.009746212641537078,-0.06708543421135846,-0.07853399626613808,0.033206673573866384,0.9985641702769508,-0.03602222046859185,0.033728599521176225,0.02084176206459666
1848.8499999986473,-0.028339136,-0.9620417,0.034833737,-2.4523427,0.07379704,1.5574222,0.70809805,0.039999954,0.039999984,-0.008025836082126148,-0.004957504674087121,-0.009422949241488787,-0.06744403309348099,-0.07892909092159091,0.0332094697349183,0.9985174390366333,-0.03660921154585692,0.03429782889978244,0.02112696150598545
1848.866666665314,-0.028800169,-0.9649149,0.035396446,-2.4538953,0.07498895,1.5572032,0.7068381,0.039999958,0.039999988,-0.0058217174611074896,-0.004822426228183463,-0.00900975806721327,-0.06779432359290942,-0.07931980080903003,0.03320527792709457,0.9984696978440181,-0.037199332666916905,0.03487116597716619,0.021412004105271883
1848.8833333319806,-0.029263755,-0.9678037,0.035962254,-2.455457,0.07618744,1.556983,0.70557123,0.039999954,0.039999984,-0.00865339117341879,-0.004636452736127283,-0.008562670519030036,-0.06813560248406605,-0.07969862696470326,0.03319475889350731,0.9984209780481956,-0.03779239211454991,0.03544756970186625,0.02169690055689264
1848.8999999986472,-0.02972984,-0.97070795,0.036531117,-2.457027,0.0773924,1.5567615,0.7042976,0.039999954,0.039999984,-0.007690244802560642,-0.004565818225174545,-0.008266992598682243,-0.06846870643687117,-0.08007325003238172,0.033177556371331185,0.9983712624182725,-0.03838838250732902,0.03602727810750102,0.02198157633066407
1848.9166666653139,-0.030198358,-0.9736276,0.037102956,-2.458606,0.078603655,1.5565389,0.70301723,0.039999954,0.039999984,-0.008940990149053363,-0.004354997325511922,-0.008223947992802572,-0.06879267056588426,-0.08044122035373209,0.03315383785574361,0.9983205523002853,-0.038987248883986886,0.03661005386019891,0.022265965859686963
1848.9333333319805,-0.030669276,-0.9765621,0.037677705,-2.4601927,0.079821095,1.5563153,0.7017304,0.039999958,0.039999988,-0.007205660094000699,-0.004272821950244976,-0.0073149349629542115,-0.06910801008247044,-0.08080540899695786,0.033123675061969574,0.9982688282502928,-0.03958888968977396,0.037196282420215346,0.022550009557286043
1848.9499999986472,-0.03114252,-0.979511,0.038255297,-2.4617872,0.081044555,1.5560905,0.7004372,0.039999954,0.039999984,-0.008043682801828211,-0.004113596200397418,-0.007214879802797114,-0.06941406814187832,-0.0811587851116318,0.03308700627556594,0.9982160967512524,-0.04019321239592176,0.03778563508578823,0.022833651594833193
1848.9666666653138,-0.031618033,-0.9824739,0.038835652,-2.4633896,0.0822739,1.5558646,0.69913775,0.03999995,0.03999998,-0.008602425097259392,-0.003953404246445635,-0.006729814885564345,-0.06971151969088991,-0.08150589466650036,0.03304399758442712,0.9981623582319077,-0.040800174044900904,0.038377904647943425,0.02311685189761283
1848.9833333319805,-0.032095782,-0.9854509,0.039418727,-2.4649997,0.08350899,1.5556377,0.69783217,0.03999995,0.03999998,-0.008078872846506435,-0.003821932447010956,-0.006586412563946986,-0.06999959741439965,-0.08184751470441483,0.032994657448254035,0.9981075970963048,-0.041409713619752445,0.0389733571499515,0.023399522837719677
1848.9999999986471,-0.032575704,-0.9884413,0.04000444,-2.4666152,0.08474966,1.5554097,0.69652075,0.03999995,0.03999998,-0.005295086190315601,-0.003761978936017707,-0.005591663505422062,-0.07027851550950456,-0.08218125152094923,0.0329390015502451,0.9980517870741926,-0.04202173418130558,0.03957255330260191,0.023681579329065075
1849.0166666653138,-0.033057738,-0.991445,0.040592734,-2.468238,0.08599577,1.5551805,0.6952035,0.03999995,0.03999998,-0.008625483885738028,-0.003529625031950534,-0.0059875381840601705,-0.07054817541602804,-0.08249793955167521,0.03287734830532054,0.9979949558961125,-0.04263618298928055,0.040174602098521445,0.023962997563879075
1849.0333333319804,-0.033541817,-0.99446136,0.04118352,-2.4698684,0.0872472,1.5549507,0.69388074,0.03999995,0.039999984,-0.009244688337051166,-0.0033685165017338647,-0.0052292851566937415,-0.07080811659966288,-0.08280957931931027,0.03280891995324191,0.9979371105769874,-0.043252863979643154,0.0407793228405399,0.024243760423645754
1849.049999998647,-0.034027893,-0.9974902,0.041776735,-2.4715056,0.088503785,1.5547198,0.6925525,0.039999947,0.03999998,-0.008754832410828861,-0.0032358470727286703,-0.00519155378706504,-0.07105949244239383,-0.0831138499104288,0.032735189232976865,0.9978782438885843,-0.043871788008471635,0.04138671462659034,0.024523793409501785
1849.0666666653137,-0.034515914,-1.0005313,0.04237231,-2.4731486,0.089765385,1.5544878,0.691219,0.039999947,0.039999977,-0.007062119699230429,-0.0031480450807891414,-0.004594137242830421,-0.07130127461397942,-0.08341148583907655,0.03265620476016917,0.9978183332977706,-0.04449289228224047,0.0419972204215901,0.024803018930777024
1849.0833333319804,-0.035005827,-1.0035838,0.042970188,-2.4747982,0.09103185,1.5542549,0.68988025,0.039999947,0.039999977,-0.009511714324572651,-0.0029367920447373463,-0.0042171423819015175,-0.07153353405497105,-0.0836977381149911,0.032570558202504846,0.9977574100012528,-0.04511607564828131,0.04261000684653979,0.025081423847703316
1849.099999998647,-0.035497554,-1.0066476,0.043570273,-2.476455,0.092303015,1.5540215,0.6885366,0.039999947,0.03999998,-0.010281125201383468,-0.0027222946442209683,-0.0038903649747679125,-0.07175605210353769,-0.08397858352020242,0.03247857559889317,0.9976954756150785,-0.04574119398521107,0.043225041864226835,0.02535896026743348
1849.1166666653137,-0.03599105,-1.0097227,0.044172514,-2.478117,0.093578726,1.5537872,0.6871881,0.03999995,0.039999984,-0.007207738309400469,-0.0026971103472731017,-0.003529136791602383,-0.07196969895700189,-0.08425461973503418,0.03238133877763764,0.9976324920752065,-0.046368248665336655,0.04384309333914789,0.025635511268103296
1849.1333333319803,-0.036486268,-1.0128084,0.04477683,-2.4797847,0.09485885,1.5535522,0.68583494,0.039999947,0.039999977,-0.008754685000944562,-0.002495755337307559,-0.003170257859430592,-0.07217367275143272,-0.0845171903079176,0.03227937355896576,0.9975684832101901,-0.04699711593263395,0.04446356570506185,0.025911073395886594
1849.149999998647,-0.036983125,-1.0159041,0.04538315,-2.4814577,0.09614322,1.553316,0.6844774,0.039999947,0.03999998,-0.008744284201323005,-0.0023824161818342127,-0.0027206125676304538,-0.07236781448684185,-0.08477261890686641,0.03217048165326408,0.99750345839165,-0.0476276950307717,0.045086216858110234,0.026185610784880527
1849.1666666653136,-0.03748155,-1.0190097,0.045991417,-2.4831364,0.09743167,1.5530792,0.6831154,0.039999947,0.03999998,-0.009341542496743571,-0.0021882797115721497,-0.0025026299037111954,-0.07255278484755315,-0.08501964232160511,0.032056775099851796,0.9974374113487371,-0.048259970483484675,0.04571110385438497,0.026459037686144566
1849.1833333319803,-0.037981514,-1.0221248,0.046601534,-2.4848201,0.098724075,1.5528418,0.68174917,0.039999947,0.03999998,-0.00875336700083551,-0.0020594642384963446,-0.0019700466977745634,-0.0727277422726188,-0.08525976202063824,0.03193790614508395,0.9973703390201427,-0.048893877904988614,0.046338226284508115,0.026731336125665615
1849.199999998647,-0.038482945,-1.025249,0.047213428,-2.4865084,0.10002026,1.5526037,0.68037903,0.039999947,0.03999998,-0.00816055053032283,-0.0019134932940645388,-0.0015475843632595243,-0.07289266374476423,-0.08549113130204102,0.03181356371455632,0.9973022384679933,-0.04952922180019379,0.04696775413139899,0.02700243334311665
1849.2166666653136,-0.03898579,-1.0283822,0.047827035,-2.4882019,0.101320066,1.552365,0.6790051,0.039999943,0.039999977,-0.00970993743070192,-0.0017147452944815678,-0.0016116416401423805,-0.07304810666434502,-0.08571058602454339,0.03168419292378811,0.9972331323913812,-0.05016594505967055,0.047599150734211185,0.02727230218602832
1849.2333333319802,-0.039489977,-1.0315238,0.048442286,-2.4898996,0.10262336,1.5521253,0.67762744,0.039999947,0.03999998,-0.008593654978228393,-0.001640514213099853,-0.001097695736307358,-0.07319450310151125,-0.0859237353418806,0.03154971253131218,0.9971630098405458,-0.050804018328664845,0.04823259075952708,0.02754089170720831
1849.249999998647,-0.039995454,-1.0346733,0.04905909,-2.491602,0.10392996,1.5518851,0.6762463,0.039999947,0.03999998,-0.009495952503124627,-0.001414164574904675,-0.0005754309496897037,-0.07333066631886168,-0.08612774808886728,0.03141030954308846,0.9970918868865585,-0.05144332222108486,0.04886777389871321,0.027808171066149658
1849.2666666653136,-0.040502153,-1.0378304,0.049677383,-2.493308,0.10523973,1.5516446,0.6748617,0.039999947,0.03999998,-0.008535280366883669,-0.0013211422635384107,5.2930003779927404e-05,-0.07345706503331077,-0.08632343739671856,0.03126599400775207,0.9970197479852186,-0.052083817720142825,0.04950499289154251,0.028074075906334026
1849.2833333319802,-0.041010015,-1.0409944,0.05029709,-2.4950185,0.10655243,1.5514034,0.6734742,0.039999947,0.039999984,-0.009917685414717603,-0.0010675501203039062,0.00010289643627148237,-0.07357331228465039,-0.08650883088896688,0.031116116608674554,0.996946631575683,-0.05272527051787531,0.05014364485567227,0.028338569464681856
1849.2999999986469,-0.04151899,-1.0441655,0.050918136,-2.4967325,0.10786801,1.5511618,0.67208356,0.039999943,0.03999998,-0.008671150265415761,-0.0010250158060706727,0.0004370055325608746,-0.0736809786696497,-0.08668883787388748,0.030962413485516156,0.9968725095834585,-0.053367759740352086,0.05078414686699279,0.028601613312277875
1849.3166666653135,-0.042028993,-1.0473429,0.051540438,-2.4984496,0.109186254,1.5509195,0.67069006,0.039999947,0.03999998,-0.008566387094477435,-0.0008645844295121496,0.0009435778382638205,-0.07377862202432325,-0.08685768903038965,0.03080482576273051,0.9967973939431798,-0.054011181303699946,0.05142631376838862,0.028863159467723047
1849.3333333319802,-0.04253998,-1.0505269,0.05216394,-2.5001707,0.110507056,1.5506768,0.66929394,0.039999943,0.039999977,-0.009983750866626728,-0.0006805697402509359,0.0007183484741046797,-0.07386586655621391,-0.08701654611292167,0.030642051799191473,0.9967213053192174,-0.05465537967603206,0.052069844330759535,0.029123191902583067
1849.3499999986468,-0.043051876,-1.0537157,0.052788533,-2.5018947,0.11183021,1.5504338,0.6678954,0.03999994,0.039999977,-0.009382578914407524,-0.0005170669970688824,0.0021179009564109563,-0.07394382313822552,-0.0871684047317689,0.030474083621847274,0.9966442550981107,-0.05530027649284501,0.05271455585021956,0.029381691599719734
1849.3666666653135,-0.043564633,-1.0569104,0.053414166,-2.5036213,0.113155544,1.5501902,0.66649437,0.039999943,0.03999998,-0.008201344889813278,-0.0004025498592089005,0.0016004475017261655,-0.07401206730573386,-0.08731345879393712,0.030302423972890867,0.9965662146420013,-0.05594589588216244,0.0533609765736641,0.029638534834899366
1849.38333333198,-0.044078164,-1.0601099,0.054040764,-2.5053508,0.1144829,1.5499462,0.6650912,0.039999947,0.039999984,-0.009577355003465016,-0.0002331081065926055,0.0022132201670355123,-0.07406985042887265,-0.08744533302675285,0.03012674802964227,0.9964872245589064,-0.05659207480811895,0.05400844775426312,0.02989374401066249
1849.3999999986468,-0.044592448,-1.0633137,0.054668248,-2.5070827,0.11581213,1.5497019,0.66368616,0.03999995,0.039999988,-0.008989926555380556,-6.400643798726291e-05,0.002760005556501355,-0.07411795142738718,-0.08757055612342464,0.029947224395503222,0.9964072823641094,-0.05723868154728354,0.054657141437647376,0.03014726979949457
1849.4166666653134,-0.04510738,-1.066522,0.055296537,-2.5088162,0.11714308,1.5494574,0.6622792,0.03999994,0.039999977,-0.007767559702642757,-5.854783108327766e-06,0.0029750461295496855,-0.07415692727337969,-0.08768667823666264,0.02976344620977929,0.9963263656726158,-0.05788576359777227,0.0553074093115554,0.030399044615647772
1849.43333333198,-0.045622922,-1.0697339,0.05592555,-2.5105522,0.11847558,1.5492127,0.66087055,0.039999936,0.039999973,-0.009738622917287998,0.00025817728793592343,0.003337952213933182,-0.07418527196949652,-0.08778939752552013,0.029576094323306337,0.9962445247919866,-0.058533146439524196,0.05595847531099585,0.03064908857938085
1849.4499999986467,-0.046139006,-1.0729488,0.056555215,-2.5122907,0.11980945,1.5489676,0.65946066,0.03999994,0.039999977,-0.010616297062249203,0.000450286553768664,0.003523107967962069,-0.07420367125575583,-0.08788464699053643,0.02938493126891205,0.9961617961206444,-0.059180608837979605,0.056609914810125714,0.030897395237272522
1849.4666666653134,-0.046655558,-1.076167,0.057185452,-2.5140302,0.12114454,1.5487221,0.65804964,0.039999943,0.03999998,-0.0076357351521672,0.00044820207525386735,0.003882772837648929,-0.07421373628682673,-0.0879760958831413,0.02919006939592414,0.9960781316134767,-0.05982816585275204,0.057262609583881775,0.031143857110909945
1849.48333333198,-0.04717254,-1.0793875,0.057816185,-2.5157707,0.1224807,1.5484766,0.6566372,0.03999994,0.039999977,-0.008261400092823834,0.0006460730958099403,0.004570614098697856,-0.0742146209061205,-0.08805525358099325,0.02899141981336114,0.9959935401465602,-0.06047593714624759,0.057916265660674815,0.031388456230404094
1849.4999999986467,-0.04768987,-1.0826104,0.05844733,-2.5175126,0.123817734,1.548231,0.6552241,0.03999994,0.039999977,-0.009134317586712015,0.0008554732769047724,0.004654800238157453,-0.07420425705371457,-0.08812280231258499,0.02878963266253194,0.9959080606589586,-0.06112351848469019,0.058570629997121926,0.03163117930624488
1849.5166666653133,-0.04820747,-1.0858347,0.059078824,-2.5192554,0.12515555,1.5479853,0.65380985,0.039999943,0.03999998,-0.008962700911441246,0.0009104909839449671,0.005122867531381914,-0.07418578400528335,-0.08818018780643569,0.028584419654366436,0.995821687479129,-0.06177117208173569,0.05922552995345028,0.031872019823059504
1849.53333333198,-0.048725292,-1.0890605,0.059710573,-2.520999,0.1264939,1.5477394,0.6523953,0.03999994,0.039999977,-0.00869167811983207,0.0011379024707866559,0.005197437531656579,-0.07415553030747815,-0.08823040862608504,0.028375913867105626,0.9957344499908286,-0.06241847768372149,0.05988094579993256,0.03211091831783093
1849.5499999986466,-0.049243275,-1.0922873,0.060342517,-2.522743,0.12783264,1.5474933,0.6509804,0.03999994,0.039999977,-0.008626030919756111,0.0012579839902146506,0.005638761648607549,-0.07411740770317007,-0.0882712909850711,0.028164369775671882,0.9956463515430501,-0.06306546996834121,0.06053681523908895,0.032347846255874065
1849.5666666653133,-0.049761355,-1.0955147,0.060974568,-2.5244873,0.12917158,1.5472472,0.6495652,0.039999936,0.039999973,-0.00850052522891609,0.0014184319938104206,0.005925081172697411,-0.07406982362664868,-0.08830210313520198,0.027949891892686554,0.9955573999009174,-0.06371212175327425,0.06119307374542259,0.032582767988737854
1849.58333333198,-0.050279472,-1.0987422,0.06160665,-2.5262315,0.1305106,1.547001,0.64814985,0.039999936,0.039999973,-0.008321692017876359,0.0015446890454864914,0.006292117337158842,-0.07401234654954267,-0.08832382745445784,0.027732628962493414,0.9954676007622476,-0.06435837591596111,0.06184971630435893,0.032815665088256764
1849.5999999986466,-0.050797556,-1.1019696,0.062238682,-2.5279758,0.13184953,1.546755,0.64673465,0.039999943,0.03999998,-0.008652223840788231,0.0017081805175220288,0.006673160517567389,-0.07394490700068812,-0.08833498919804923,0.027512798932697424,0.9953769793791184,-0.06500404848354871,0.0625065554938353,0.03304652966873341
1849.6166666653132,-0.051315535,-1.1051962,0.0628706,-2.52972,0.13318822,1.5465089,0.64531976,0.039999936,0.039999977,-0.009074280168674953,0.0018430805822533536,0.006885292303304702,-0.07386830260634467,-0.08833599229580584,0.0272893858506518,0.995285560709117,-0.06564908231444079,0.0631632890840623,0.033275359461522054
1849.6333333319799,-0.05183336,-1.1084219,0.063502304,-2.5314631,0.13452648,1.5462631,0.6439052,0.039999932,0.039999973,-0.007088309942604454,0.001950621158272603,0.007453273401858418,-0.07378261719094317,-0.08833128092265688,0.02706402194242989,0.9951933126999601,-0.0662934807817014,0.0638205023135827,0.03350206333298629
1849.6499999986465,-0.052350957,-1.1116458,0.06413374,-2.5332053,0.13586414,1.5460174,0.64249104,0.039999936,0.039999973,-0.008215155556223763,0.0021099862340334674,0.007808970453571096,-0.07368678850714502,-0.08831137510281101,0.026837216068070803,0.995100275601126,-0.06693723568231859,0.06447759821775421,0.03372665571684473
1849.6666666653132,-0.05286827,-1.1148683,0.06476481,-2.5349467,0.13720103,1.5457718,0.64107805,0.039999943,0.03999998,-0.008286068931795398,0.002308694393210464,0.007575923166502907,-0.07358050673683635,-0.088284096885131,0.026607405556862307,0.995006479265916,-0.06757991880299104,0.06513461774848252,0.033949114335819736
1849.6833333319798,-0.053385228,-1.1180886,0.06539543,-2.5366871,0.13853703,1.5455263,0.63966566,0.03999994,0.03999998,-0.00847510495083359,0.0024115162064242135,0.007960375263860175,-0.07346651908246538,-0.08824601021103251,0.026374643901092967,0.994911924888619,-0.06822183278582114,0.06579127356040158,0.034169453742584566
1849.6999999986465,-0.053901773,-1.1213062,0.06602554,-2.5384262,0.13987191,1.545281,0.6382547,0.039999932,0.039999973,-0.007966715435347993,0.0025917302099442985,0.008651772548884384,-0.07334178356757524,-0.0881992169207447,0.02614048412431609,0.9948166400327075,-0.06886256931953366,0.06644766013738966,0.03438761002181631
1849.7166666653131,-0.054417845,-1.1245207,0.06665508,-2.540164,0.14120558,1.5450361,0.636845,0.039999932,0.039999973,-0.00867055768563052,0.0026963046341893504,0.00873466584301319,-0.07320929694147599,-0.08814530463111897,0.025904337732226723,0.9947206457061596,-0.0695022091945197,0.06710342419724366,0.03460361807682915
1849.7333333319798,-0.054933384,-1.1277317,0.067283936,-2.5418994,0.14253785,1.5447912,0.63543665,0.039999936,0.039999977,-0.006903968191140919,0.0027803351539068544,0.009084425379246586,-0.07306721764685048,-0.08808273344634117,0.02566618194797511,0.9946239259135536,-0.07014073968061532,0.06775891231544263,0.03481741574548756
1849.7499999986464,-0.05544832,-1.130939,0.067912064,-2.543633,0.14386855,1.5445467,0.63402987,0.039999936,0.039999977,-0.007775613325611275,0.0029599466587260093,0.00929571563463849,-0.07291541373018934,-0.08800827592238847,0.025426346624680032,0.994526509561465,-0.0707780528116072,0.06841387918120113,0.035028990209060716
1849.766666665313,-0.05596258,-1.134142,0.06853937,-2.5453644,0.14519744,1.5443023,0.632625,0.039999936,0.039999977,-0.007898908579817565,0.003162220999378129,0.009509477280023049,-0.07275377329521361,-0.0879237700668677,0.02518505939127985,0.9944284359862534,-0.07141397675193147,0.06906801477351895,0.03523831666884051
1849.7833333319797,-0.056476116,-1.1373405,0.06916577,-2.5470932,0.14652453,1.5440584,0.63122225,0.039999932,0.039999973,-0.007050540308384257,0.003151739791626418,0.009978142026834114,-0.07258374853323663,-0.08783292233077734,0.024942425072153794,0.9943296956184203,-0.07204840808970282,0.06972161370475284,0.035445449433241696
1849.7999999986464,-0.056988876,-1.1405342,0.069791205,-2.5488193,0.14784953,1.543815,0.6298218,0.039999936,0.039999977,-0.007291856468438773,0.0034146221969455492,0.01017383345969236,-0.07240548793218261,-0.08772997138523674,0.024697654172825018,0.9942303154866707,-0.07268127527038584,0.07037448449424791,0.03565030048280442
1849.816666665313,-0.057500776,-1.1437228,0.07041558,-2.5505428,0.14917228,1.5435721,0.62842363,0.039999936,0.039999977,-0.007321417457495372,0.003541547873389672,0.010230372019726097,-0.07221859349898532,-0.08761842123421458,0.024451741867715412,0.9941303075410525,-0.07331255971858766,0.07102656251927834,0.03585286086961302
1849.8333333319797,-0.058011737,-1.1469052,0.07103883,-2.5522623,0.1504927,1.5433296,0.62702787,0.039999936,0.03999998,-0.005749565826840275,0.0034813225226082434,0.011134074726593113,-0.07202311271390784,-0.08749539173879872,0.02420391806874976,0.9940296658640526,-0.07394229968195827,0.07167796093044874,0.03605314988730307
1849.8499999986464,-0.058521714,-1.1500815,0.07166087,-2.5539792,0.15181056,1.5430875,0.625635,0.039999932,0.039999973,-0.0081015528106132,0.003840468582000378,0.010724119350946637,-0.07181774525365126,-0.08736027360667956,0.023956315089032093,0.993928473595473,-0.07457015244646528,0.07232795548259695,0.036251187511467074
1849.866666665313,-0.059030667,-1.1532513,0.07228164,-2.5556922,0.15312569,1.5428458,0.6242448,0.039999932,0.039999973,-0.006308185303316449,0.003881924599244413,0.011262510902187994,-0.0716048507759051,-0.087220257151043,0.023706844477917294,0.9938266962397297,-0.07519631155748019,0.07297695747154018,0.036446896268012154
1849.8833333319797,-0.059538517,-1.1564142,0.07290104,-2.5574021,0.15443796,1.5426048,0.62285775,0.039999936,0.039999977,-0.007700319222458951,0.004090868609712972,0.011405344907111648,-0.07138225312223698,-0.08706847778095335,0.02345671048116217,0.9937243966484725,-0.07582047477729933,0.07362448290188252,0.03664034153231771
1849.8999999986463,-0.060045186,-1.1595697,0.07351904,-2.5591078,0.1557472,1.5423642,0.6214739,0.03999994,0.03999998,-0.005907430306528738,0.004059652653243262,0.011693134440715625,-0.07115209506551419,-0.0869109470372634,0.02320544854479359,0.9936215558614279,-0.07644269297970908,0.07427087396821946,0.036831449842792616
1849.916666665313,-0.060550638,-1.1627177,0.07413555,-2.5608099,0.15705326,1.5421242,0.62009335,0.039999932,0.039999973,-0.007343686244110081,0.004325914209346582,0.011755642167610159,-0.0709132499489308,-0.08674129221138294,0.022953654358173335,0.993518226310244,-0.07706288018683988,0.07491559622066461,0.03702026376942711
1849.9333333319796,-0.061054792,-1.1658577,0.07475045,-2.5625067,0.15835595,1.5418847,0.61871636,0.039999932,0.039999977,-0.004612528691594342,0.004312446440471462,0.012271805876185038,-0.07066556225451613,-0.08656562603904744,0.02270058576057775,0.9934143711191549,-0.07768097412756424,0.07555934443535842,0.03720670612975097
1849.9499999986463,-0.061557606,-1.1689892,0.07536371,-2.5641992,0.15965515,1.541646,0.61734307,0.03999993,0.039999973,-0.006453997610345041,0.004534453383350789,0.012520605013377484,-0.07040962821245207,-0.08637608710885203,0.022447703170342427,0.9933100501590265,-0.07829685636663795,0.07620152322055875,0.03739083303486148
1849.966666665313,-0.06205901,-1.1721121,0.07597524,-2.5658872,0.16095072,1.541408,0.6159737,0.03999993,0.039999984,-0.006146776375892671,0.004626456612785712,0.012424786903331153,-0.07014539063529221,-0.08617820585988631,0.022191960990826584,0.9932052845597223,-0.07891043312379337,0.07684206334204041,0.03757264388080947
1849.9833333319796,-0.06255895,-1.1752254,0.07658496,-2.5675697,0.16224244,1.5411706,0.6146084,0.039999925,0.039999973,-0.005212073134286399,0.004731351195480515,0.01321186708606037,-0.0698736660182676,-0.08597102359669082,0.021939608213997458,0.993100086933481,-0.07952167409168535,0.07748095447209502,0.037752117509636376
1849.9999999986462,-0.06305735,-1.1783293,0.077192806,-2.569247,0.16353019,1.5409338,0.61324716,0.039999925,0.03999998,-0.005297379977275973,0.004830339734346323,0.012848926114983339,-0.0695934914650589,-0.08575330474318098,0.021683968486585256,0.9929944661806032,-0.08013059398197059,0.0781181900545424,0.03792922916957364
1850.0166666653129,-0.06355419,-1.1814233,0.07779871,-2.5709195,0.1648139,1.5406979,0.61189026,0.039999925,0.03999998,-0.006480661192687087,0.004997455084679303,0.013305906514604615,-0.06930471055071524,-0.08552614169250679,0.021429945896278252,0.9928884809082608,-0.08073698921724388,0.07875329529670323,0.03810408812360378
1850.0333333319795,-0.06404936,-1.1845069,0.078402594,-2.5725863,0.16609327,1.5404629,0.6105379,0.03999992,0.03999998,-0.005029491961106025,0.005110318504714106,0.01358970283944494,-0.0690082590568129,-0.08529269998560712,0.02117442036197819,0.9927821251949537,-0.0813408408964569,0.07938654499217512,0.03827657207553875
1850.0499999986462,-0.06454281,-1.1875798,0.079004385,-2.574247,0.16736823,1.5402287,0.60919017,0.039999913,0.039999973,-0.004329678424985772,0.005121954108144866,0.01388661797911972,-0.06870399100890605,-0.08504918543456227,0.020920028469848438,0.9926754007021645,-0.08194211870926221,0.08001805259799263,0.03844670701970753
1850.0666666653128,-0.06503449,-1.1906418,0.07960399,-2.5759015,0.16863854,1.5399952,0.60784733,0.039999906,0.039999966,-0.004887531777497678,0.0053545866413068355,0.01362226034453684,-0.06839183104764354,-0.08479307040800521,0.02066564687773305,0.9925683578549037,-0.08254068713699941,0.08064745156423961,0.03861448573223985
1850.0833333319795,-0.06552434,-1.1936923,0.08020139,-2.5775502,0.16990414,1.5397626,0.6065096,0.03999991,0.039999973,-0.005098423439631183,0.005405333908195531,0.014144083039890898,-0.06807165989307362,-0.08452887646392829,0.020411051630147253,0.9924610250568023,-0.08313642849407737,0.08127461598630545,0.038779953542116996
1850.0999999986461,-0.06601231,-1.1967312,0.08079647,-2.5791929,0.17116483,1.539531,0.60517704,0.039999913,0.03999998,-0.00517774366801671,0.005594403561678951,0.014220187475744162,-0.0677447174535377,-0.08425641223795335,0.02015645703099765,0.9923534240352613,-0.08372933794641305,0.08189942144519301,0.038943093604526795
1850.1166666653128,-0.06649835,-1.1997578,0.08138919,-2.5808284,0.17242052,1.5393002,0.60384977,0.03999991,0.03999997,-0.0035242206167351853,0.005521373947972585,0.014567058589975979,-0.0674106675883145,-0.08397530157223013,0.019904576182033708,0.9922455481010324,-0.08431939482035634,0.0825220946211964,0.03910391067580011
1850.1333333319794,-0.06698236,-1.2027718,0.08197944,-2.5824573,0.17367102,1.5390705,0.602528,0.03999991,0.039999977,-0.00440985003953287,0.005740879827470513,0.014795218396923548,-0.06706842985262357,-0.08368448119382821,0.019649954576289354,0.9921374412018537,-0.08490648924124494,0.08314233263314694,0.039262429554012976
1850.149999998646,-0.06746432,-1.2057731,0.08256716,-2.5840797,0.1749162,1.5388418,0.6012118,0.039999913,0.039999977,-0.004712329789779979,0.005903106582025308,0.014704959067513013,-0.06671925213014111,-0.0833837617006559,0.01939805348144468,0.9920291317509391,-0.08549054205591389,0.08376000970120437,0.03941864725378155
1850.1666666653127,-0.067944184,-1.2087609,0.08315232,-2.5856946,0.17615592,1.538614,0.5999014,0.039999913,0.039999973,-0.003381567724036749,0.005836795815697404,0.015149421710602962,-0.06636300879952092,-0.08307535125263706,0.01914663965076211,0.9919206327541836,-0.08607153519018133,0.08437511442253166,0.03957258157778079
1850.1833333319794,-0.068421856,-1.2117351,0.08373479,-2.5873017,0.17739001,1.5383873,0.59859693,0.039999913,0.039999984,-0.0030701267180521796,0.006004517008031951,0.015168004532883916,-0.06599884050960003,-0.08275918480248656,0.018892681529657118,0.9918119494634217,-0.08664939044169381,0.08498781325218162,0.039724194595515995
1850.199999998646,-0.0688973,-1.2146955,0.08431457,-2.5889013,0.17861834,1.5381616,0.59729856,0.039999906,0.03999998,-0.0033287911731072484,0.006063663345134973,0.015356882699091301,-0.06562791170591561,-0.08243208561856033,0.01864092119748554,0.9917031179402064,-0.08722405415364842,0.0855978604836442,0.03987350655882983
1850.2166666653127,-0.069370486,-1.2176414,0.084891535,-2.5904932,0.17984068,1.537937,0.5960065,0.039999906,0.03999998,-0.0035718096192738358,0.006323100392729986,0.01554661229682397,-0.06524992331679777,-0.08209425982498725,0.018390933013721987,0.9915941836054737,-0.08779537714939943,0.08620501100497163,0.0400205305889524
1850.2333333319793,-0.069841295,-1.220574,0.085465655,-2.5920775,0.18105704,1.5377135,0.5947208,0.039999906,0.039999973,-0.0025477556794273326,0.006193930688896954,0.014804788912603506,-0.06486589517603,-0.0817497321953908,0.018143201229913086,0.9914851019047036,-0.08836344478467303,0.08680984739577041,0.04016521781253387
1850.249999998646,-0.07030972,-1.2234913,0.086036846,-2.5936537,0.18226717,1.5374912,0.59344167,0.039999906,0.03999998,-0.0031900623280955998,0.006428322787327412,0.016045698246092144,-0.06447404833622562,-0.08139209963375287,0.01789366799276721,0.9913759652373082,-0.08892806550475685,0.0874115934926914,0.0403076672414291
1850.2666666653126,-0.07077572,-1.2263935,0.08660505,-2.595222,0.18347098,1.5372701,0.5921691,0.039999906,0.039999988,-0.0032997116721000808,0.006536827278744162,0.015806411482688354,-0.06407594470039903,-0.08102805088305916,0.017645099477006154,0.9912667842225723,-0.08948926812852989,0.08801024532213692,0.04044786898215616
1850.2833333319793,-0.07123918,-1.2292787,0.087170206,-2.5967827,0.18466833,1.5370499,0.5909036,0.039999906,0.039999984,-0.005039675629614493,0.006668090130682036,0.01650598853627505,-0.06367116019573382,-0.08065432138813869,0.017400107021300244,0.9911576868959066,-0.09004680437031005,0.08860467357969205,0.04058601421287099
1850.299999998646,-0.07170015,-1.2321483,0.08773223,-2.598334,0.18585904,1.5368313,0.58964497,0.03999991,0.039999988,-0.0007931949331352328,0.006635822409487013,0.016298664337666136,-0.06326102572906295,-0.08028529072694833,0.017154497885870326,0.9910485289615484,-0.09060081089009193,0.08919663174186905,0.04072182701100509
1850.3166666653126,-0.07215849,-1.2350019,0.088291064,-2.5998764,0.18704301,1.536614,0.58839345,0.039999906,0.039999988,-0.0014517940943425955,0.006672922243766699,0.016201702978724253,-0.06284408285445217,-0.07990070904446087,0.016909640175063634,0.9909393613413804,-0.09115123330737265,0.08978570035335919,0.040855389154174956
1850.3333333319792,-0.07261419,-1.2378387,0.088846646,-2.6014097,0.18822013,1.5363976,0.5871492,0.039999902,0.039999977,-0.002111434156315539,0.006781005903364057,0.016324130134237613,-0.06242114846304944,-0.07950461241005298,0.01666836363878515,0.990830255843464,-0.09169797409688298,0.0903712833033206,0.04098678818612279
1850.349999998646,-0.07306714,-1.240659,0.089398935,-2.6029336,0.18939021,1.5361824,0.5859125,0.039999902,0.03999998,-0.0013025464566940315,0.006817735328515373,0.016276048492169792,-0.061991577537833534,-0.07910239381927893,0.01642599428848364,0.9907212065758796,-0.09224093886496647,0.0909537148812304,0.04111595538774262
1850.3666666653126,-0.07351735,-1.2434617,0.08994786,-2.6044483,0.19055313,1.5359689,0.58468336,0.039999902,0.03999998,-0.001677767873431435,0.007020342925714851,0.01703059697826248,-0.06155629463342506,-0.07868995866959558,0.01618593558032111,0.990612248522059,-0.09278010098050711,0.09153275998386894,0.04124293624189093
1850.3833333319792,-0.07396473,-1.2462469,0.09049333,-2.6059544,0.19170877,1.5357563,0.5834618,0.03999989,0.039999977,-0.003091699415680438,0.007140478049563748,0.01637339882276656,-0.061115092361670745,-0.07826945843398866,0.01594582596148196,0.9905034614688951,-0.09331540443417093,0.09210770877491696,0.04136783892904017
1850.3999999986459,-0.07440925,-1.2490143,0.09103533,-2.60745,0.19285698,1.5355452,0.58224815,0.039999884,0.039999977,0.000252842649217655,0.006999158214354706,0.016972868425524368,-0.06066763806590489,-0.07784673244837709,0.01570708664298602,0.9903947752277437,-0.09384684031517207,0.09267953878619148,0.04149051523932381
1850.4166666653125,-0.07485086,-1.2517633,0.091573745,-2.6089356,0.19399768,1.5353358,0.5810424,0.039999884,0.03999998,-0.0005873613021956103,0.007175789442623315,0.01717919265902257,-0.060214865676206666,-0.07741107593382925,0.015470773376149258,0.9902862326506876,-0.09437433574482153,0.09324795912787803,0.041611059752395485
1850.4333333319792,-0.0752895,-1.2544942,0.09210856,-2.6104121,0.19513068,1.5351276,0.57984483,0.039999876,0.03999998,-0.002275659833372856,0.007386394868796886,0.01674559874794701,-0.059755952939479884,-0.07696665188375792,0.015235175881474335,0.9901779220546711,-0.09489774305347363,0.09381230800374524,0.04172950881403713
1850.4499999986458,-0.07572513,-1.257206,0.09263971,-2.6118772,0.19625592,1.534921,0.5786555,0.03999988,0.039999988,0.0014574506503661766,0.007107418573581992,0.017460190678075804,-0.05929246716212386,-0.0765175046304183,0.01500198810783688,0.990069765572642,-0.09541717917336737,0.09437345764703994,0.04184580874201591
1850.4666666653125,-0.076157704,-1.2598989,0.093167126,-2.6133327,0.19737329,1.5347159,0.5774744,0.039999872,0.039999973,-0.0015799401652971667,0.007459374075849401,0.016977910276960717,-0.058823689765098844,-0.07605587341098978,0.014772502052098152,0.9899618693099032,-0.09593250578693306,0.09493052577829236,0.0419600634096171
1850.483333331979,-0.07658717,-1.2625726,0.09369074,-2.614778,0.19848259,1.5345119,0.5763019,0.039999876,0.03999998,-0.0005894758609237272,0.007487480215240261,0.01696230925638531,-0.05834884132593961,-0.07558904758629893,0.014542450244278242,0.9898542499125275,-0.096443657900407,0.09548355665542554,0.04207226151904472
1850.4999999986458,-0.07701351,-1.2652266,0.09421052,-2.6162126,0.19958381,1.5343097,0.5751379,0.039999876,0.03999998,0.00018837337210086957,0.007455018079585707,0.01761798895282274,-0.05786945081618883,-0.07511688499884725,0.01431496299357303,0.9897468995720052,-0.09695061930400035,0.09603278183485563,0.042182425454599035
1850.5166666653124,-0.07743665,-1.2678607,0.09472638,-2.6176362,0.20067671,1.5341089,0.57398266,0.039999876,0.039999984,0.0004238273829892947,0.007578963149718065,0.017261045371230743,-0.0573844922573639,-0.07463501523803731,0.014088307729255213,0.989639853748167,-0.09745336785011598,0.09657801004658594,0.04229053018606147
1850.533333331979,-0.077856526,-1.2704746,0.09523828,-2.6190486,0.20176119,1.5339096,0.5728362,0.039999872,0.039999977,0.0008931820455249095,0.007586417743160601,0.017449093095223134,-0.05689501253192788,-0.07414655554567057,0.013864994132538347,0.9895331180764707,-0.09795187548988235,0.09711935024903742,0.042396581525836925
1850.5499999986457,-0.078273125,-1.273068,0.09574618,-2.62045,0.2028372,1.5337119,0.5716988,0.03999988,0.039999988,0.0004052679489996436,0.007665228125830481,0.017591871499023082,-0.05639991279835328,-0.07364858097621423,0.013642515488854194,0.9894267375560826,-0.09844603115224942,0.09765656329939477,0.042500654160242915
1850.5666666653124,-0.078686416,-1.2756408,0.096250005,-2.6218402,0.20390464,1.5335156,0.57057065,0.03999988,0.039999988,0.0007871473520992822,0.00769211966440142,0.017254243168929317,-0.055900532741928174,-0.07314383363388549,0.013422358990101628,0.9893207434132428,-0.09893571786428114,0.09818957934496331,0.04260278032015119
1850.583333331979,-0.07909633,-1.2781925,0.09674971,-2.6232193,0.20496334,1.5333213,0.56945163,0.039999872,0.03999998,0.0007096162679465223,0.007847433496621647,0.01799683882039993,-0.055397273995877176,-0.07263194306239248,0.013203838000675004,0.9892151439770401,-0.0994210063622197,0.09871839452662809,0.04270293903810812
1850.5999999986457,-0.079502836,-1.2807227,0.09724526,-2.6245868,0.20601323,1.5331284,0.5683419,0.039999876,0.03999998,0.00080814818397279,0.007799137052977301,0.017621120165611792,-0.05488968250119958,-0.07211311595563606,0.012987992120618935,0.9891099850334518,-0.0999018553208047,0.09924270557941249,0.042801193906988624
1850.6166666653123,-0.079905875,-1.2832314,0.09773658,-2.6259432,0.20705415,1.532937,0.56724155,0.03999988,0.039999984,0.0004938353244332561,0.007962333371860919,0.017627728085423122,-0.054377150577120226,-0.0715900589419502,0.012773409508373003,0.9890052972206277,-0.1003782209988159,0.09976238936013822,0.04289755806345046
1850.633333331979,-0.08030543,-1.2857187,0.09822366,-2.6272871,0.20808607,1.5327476,0.56615096,0.039999876,0.03999998,0.002998520294661411,0.007768056542337143,0.01770045297163625,-0.053860140669251926,-0.0710607701826722,0.012560766812962289,0.9889010227941482,-0.1008499910160198,0.10027830656665046,0.04299194879138616
1850.6499999986456,-0.08070143,-1.2881837,0.09870642,-2.6286194,0.20910884,1.5325595,0.56507003,0.039999876,0.03999998,0.0009429034613095411,0.007975950520819342,0.017636028749479227,-0.05334002313032996,-0.07052006587470785,0.012350306676751209,0.9887972795476909,-0.1013171859750519,0.1007893438157101,0.043084521099589476
1850.6666666653123,-0.08109386,-1.2906265,0.09918479,-2.6299398,0.21012238,1.5323734,0.5639987,0.039999876,0.039999977,0.0018909480363538123,0.008037973664939968,0.01794669843425689,-0.052815697721744034,-0.06997643232007772,0.012142387642846579,0.9886940272926853,-0.10177983695712634,0.10129602765824443,0.0431752239763938
1850.683333331979,-0.08148268,-1.2930466,0.09965874,-2.6312475,0.2111266,1.5321888,0.5629373,0.039999872,0.039999973,0.0025504274636212187,0.007934271574125407,0.01778166286154903,-0.052286814336113374,-0.06942626408004272,0.011935933671097299,0.9885913135472879,-0.10223783978633448,0.10179810746572221,0.04326412152198369
1850.6999999986456,-0.08186784,-1.2954438,0.10012825,-2.632543,0.21212132,1.5320061,0.56188595,0.039999876,0.03999998,0.0020279000045198003,0.008138711288008249,0.018089062349713192,-0.051754122483871165,-0.06886917985283307,0.01173054484903456,0.9884891620540768,-0.10269112363268292,0.10229557376379977,0.04335118472454004
1850.7166666653122,-0.08224931,-1.2978184,0.10059327,-2.6338263,0.2131065,1.5318251,0.56084466,0.03999988,0.039999984,0.0025987046818443105,0.008081069882909242,0.017471030813365207,-0.05121811364076164,-0.06830529571017202,0.01152815934009395,0.9883875793833293,-0.10313971077971332,0.10278847690499976,0.0434364132565078
1850.7333333319789,-0.08262705,-1.3001696,0.10105373,-2.6350973,0.21408205,1.5316459,0.5598135,0.03999988,0.039999984,0.0018054660090971453,0.008213716228067103,0.018074443908056015,-0.05067879389589799,-0.06773509638156185,0.011328125281656304,0.9882866234506879,-0.10358353904568529,0.10327640855545898,0.04351992397850957
1850.7499999986455,-0.083001055,-1.3024974,0.1015096,-2.6363554,0.21504788,1.5314684,0.55879265,0.03999988,0.039999984,0.0031294592673258848,0.008137896439694425,0.017770605772204906,-0.050135806195915275,-0.06716208943703537,0.01113009674582869,0.9881862844289547,-0.10402257756673078,0.10375964771129323,0.0436016757670925
1850.7666666653122,-0.08337124,-1.3048015,0.101960845,-2.6376007,0.21600392,1.5312928,0.5577821,0.03999988,0.03999998,0.003105480403231553,0.00814990990424258,0.017981964441271536,-0.04958988784669839,-0.06658109574760628,0.010934946061464397,0.9880865787059977,-0.10445685187662135,0.10423813133474075,0.04368170158021703
1850.7833333319788,-0.08373758,-1.3070816,0.1024074,-2.638833,0.21695007,1.531119,0.5567822,0.039999876,0.03999998,0.003005871200545407,0.008229074747848064,0.01790384337235773,-0.04904004039494557,-0.0659941106881071,0.010740535840646818,0.9879875533996502,-0.10488621227980889,0.10471167374232665,0.04376005236569913
1850.7999999986455,-0.08410009,-1.3093379,0.102849275,-2.6400523,0.21788627,1.5309467,0.5557927,0.03999988,0.039999984,0.0035012239895326758,0.008180829490359032,0.017571452013520616,-0.04848784074751407,-0.06540395159777412,0.010548572718682536,0.9878892048705729,-0.1053107817506378,0.10518032858499483,0.043836704096101915
1850.8166666653121,-0.08445872,-1.3115698,0.10328638,-2.641259,0.21881232,1.5307765,0.5548139,0.039999887,0.03999999,0.0026820526054072147,0.008450262792703,0.017991658849647596,-0.047932006653572876,-0.06480553844689592,0.010359337260923043,0.9877915935339663,-0.10573035058790853,0.10564385240588131,0.04391169726883445
1850.8333333319788,-0.08481341,-1.3137772,0.103718705,-2.6424522,0.21972825,1.5306082,0.5538459,0.03999988,0.039999984,0.003808864720222793,0.008228120658390625,0.017934763902194284,-0.04737445610139056,-0.06420632373131689,0.01017210156708094,0.987694703603052,-0.10614501658756317,0.1061024154079576,0.04398505851652846
1850.8499999986454,-0.085164145,-1.3159605,0.104146205,-2.6436317,0.22063397,1.5304418,0.5528886,0.03999988,0.039999984,0.00507649806371635,0.008192959564953806,0.01758083518206277,-0.046814027658946655,-0.06359978927492954,0.009987065992865932,0.9875984976859744,-0.10655482298349675,0.10655647788477302,0.044056714450285396
1850.866666665312,-0.085510895,-1.3181185,0.10456884,-2.644798,0.22152944,1.5302771,0.55194217,0.039999876,0.03999998,0.0029980535056539637,0.008364462431686981,0.018031602906409816,-0.04625057812574175,-0.06298380634602055,0.009804561918815069,0.9875031093055006,-0.10695961658240472,0.1070049879281206,0.044126886260154215
1850.8833333319787,-0.085853636,-1.3202512,0.104986586,-2.6459503,0.22241452,1.5301147,0.5510067,0.039999884,0.039999984,0.005070686559638382,0.008274586134507378,0.018054093434149987,-0.045684506196600264,-0.062367018169559085,0.009623784563368085,0.9874084700461,-0.10735947121201045,0.10744869098135802,0.044195429952543525
1850.8999999986454,-0.08619234,-1.3223592,0.10539939,-2.64709,0.22328913,1.5299537,0.55008227,0.039999887,0.039999988,0.002702954226840859,0.008518891858433353,0.017290598393959744,-0.04511589712922498,-0.061743775997094075,0.009445411624415284,0.9873146937949765,-0.10775423044055393,0.1078867660365851,0.044262477934058145
1850.916666665312,-0.08652697,-1.3244416,0.10580725,-2.6482155,0.22415328,1.529795,0.549169,0.039999887,0.039999988,0.005020988395254555,0.008281059502723842,0.018127293074399198,-0.04454598373881405,-0.0611197707646103,0.009269878699603905,0.9872217197806582,-0.10814395400965514,0.10831984918165351,0.04432799880144635
1850.9333333319787,-0.08685751,-1.326499,0.10621011,-2.6493275,0.22500683,1.5296382,0.5482669,0.039999884,0.03999998,0.004584694495046726,0.0084000524483957,0.017296749818929147,-0.04397400568886538,-0.060488673006699994,0.009096449126184587,0.9871295759948528,-0.10852863700675865,0.10874781643051408,0.04439197638394467
1850.9499999986454,-0.08718393,-1.3285304,0.106607966,-2.650426,0.22584973,1.5294836,0.5473759,0.039999884,0.039999984,0.004166659584958765,0.008459154697590399,0.018045484956719093,-0.043399611305264214,-0.059854136271482734,0.008924098725803603,0.9870383066496402,-0.10890826084546548,0.10917037329638796,0.0444544881890897
1850.966666665312,-0.087506205,-1.3305362,0.107000746,-2.6515093,0.22668192,1.5293306,0.5464964,0.03999989,0.03999999,0.006709175313512894,0.00819943614342733,0.017381687209150343,-0.042823400217843116,-0.059215744778996625,0.008754668797324165,0.9869478656590254,-0.10928281981794677,0.10958808633147744,0.0445154703214186
1850.9833333319787,-0.08782433,-1.332516,0.107388444,-2.6525793,0.22750337,1.5291799,0.5456282,0.039999887,0.039999984,0.003895633732198256,0.008525800015005136,0.01785428934787392,-0.04224578939639978,-0.05856891706903513,0.008588177743782146,0.9868583517718772,-0.10965222316017254,0.11000020818836084,0.044575079278030914
1850.9999999986453,-0.08813827,-1.3344697,0.10777105,-2.6536348,0.228314,1.5290309,0.54477143,0.039999884,0.039999984,0.00584485434751425,0.008300619950560306,0.017303571911120308,-0.04166638204541025,-0.05792105508430541,0.008422360637240705,0.9867697364362624,-0.11001654598239281,0.11040706919822929,0.04463323800342963
1851.016666665312,-0.088448,-1.3363972,0.10814852,-2.6546762,0.22911376,1.528884,0.5439262,0.039999895,0.039999995,0.005188136837741553,0.008420311816303983,0.01760864715069088,-0.04108533335630948,-0.057269100936135756,0.008259828665273933,0.9866820513561191,-0.11037570941491916,0.11080855396506235,0.044690006388520886
1851.0333333319786,-0.088753514,-1.3382984,0.108520865,-2.6557035,0.22990258,1.5287391,0.5430924,0.039999895,0.039999995,0.00517239059762975,0.008416606177658048,0.017328546848438542,-0.04050329918272977,-0.05661265985308933,0.008099238480740088,0.986595320294369,-0.11072973607674004,0.11120453792751672,0.044745393795948336
1851.0499999986453,-0.08905478,-1.3401731,0.10888801,-2.6567163,0.23068045,1.5285963,0.54227024,0.0399999,0.039999995,0.005969184797449678,0.008365742494692574,0.017560957761952878,-0.0399198471279995,-0.05595517893779874,0.007941066869753759,0.9865095346521682,-0.11107862411370734,0.11159519651025367,0.04479943550097748
1851.066666665312,-0.089351766,-1.342021,0.109249964,-2.6577153,0.23144732,1.5284555,0.54145986,0.0399999,0.039999995,0.0046146394947266245,0.008467266362480186,0.017467611834165453,-0.03933540406154271,-0.055291303617914137,0.007785846588290374,0.9864247798313619,-0.11142222153721681,0.1119799962547974,0.044852232064147506
1851.0833333319786,-0.08964447,-1.3438424,0.109606706,-2.6586995,0.23220317,1.5283165,0.5406611,0.039999895,0.03999999,0.006482033133248244,0.008265213701377783,0.01702731769451793,-0.0387509846863104,-0.05463058284467889,0.007631382130915472,0.9863409919808399,-0.11176071546310327,0.11235945732588952,0.04490370103743485
1851.0999999986452,-0.089932896,-1.3456371,0.10995822,-2.6596692,0.23294783,1.5281796,0.53987396,0.039999906,0.04,0.006158782440435218,0.008443797130422426,0.01726751172708152,-0.038164728186024524,-0.0539634800007836,0.007479563007418338,0.9862581971762059,-0.11209406019090852,0.11273351276696117,0.044953812651193054
1851.1166666653119,-0.090216994,-1.3474051,0.11030445,-2.6606245,0.23368149,1.5280448,0.5390987,0.039999895,0.039999988,0.005814368718493057,0.008293063971617776,0.017062024856762115,-0.03757800244786709,-0.053294743353958805,0.00733089651407913,0.9861764281994757,-0.11242216507165806,0.11310199715856394,0.04500274995007935
1851.1333333319785,-0.09049683,-1.3491462,0.11064543,-2.6615653,0.23440386,1.527912,0.53833514,0.039999895,0.03999999,0.006203406915150644,0.008470206696006843,0.01702645547871917,-0.03699073721937947,-0.052622784575752424,0.0071825288177869845,0.9860956950957925,-0.1127450632079411,0.11346494918710058,0.045050373380824876
1851.1499999986452,-0.09077231,-1.3508601,0.11098112,-2.6624913,0.23511511,1.5277814,0.53758365,0.039999895,0.03999999,0.006453343330914407,0.008256220539912262,0.017224694197359725,-0.03640333123019798,-0.05194822464706378,0.007037372284984106,0.9860160186201691,-0.11306267306985542,0.1138223118618795,0.0450968325400637
1851.1666666653118,-0.09104344,-1.3525472,0.111311525,-2.6634028,0.23581508,1.5276529,0.5368443,0.039999902,0.039999995,0.006441682270597049,0.008371467273143862,0.016867215190663476,-0.0358163363085605,-0.05127346281667282,0.006893959483008777,0.9859374102017892,-0.11337492026469358,0.11417418779679826,0.045142058664896775
1851.1833333319785,-0.0913102,-1.3542072,0.11163662,-2.6642995,0.23650385,1.5275264,0.5361166,0.039999902,0.039999995,0.006732887562677092,0.008223886694710969,0.016799684782498048,-0.03523069893244419,-0.05059388853143163,0.006753317949667076,0.9858598478787319,-0.11368211245435951,0.11452053504219571,0.04518611182749801
1851.1999999986451,-0.091572605,-1.3558397,0.111956395,-2.6651816,0.23718134,1.5274018,0.53540033,0.039999906,0.04,0.006103049942418615,0.008333431165630234,0.01679640223636314,-0.03464341181256274,-0.04991240337946925,0.00661374674370685,0.9857833758684094,-0.11398430734805542,0.11486100133451295,0.04522901626499786
1851.2166666653118,-0.09183063,-1.3574454,0.11227085,-2.6660492,0.2378475,1.5272796,0.5346963,0.039999902,0.039999995,0.0067299620696292806,0.008317664567727978,0.01675703811420126,-0.03405451510224847,-0.04923292910494738,0.0064770825801454095,0.9857079969699222,-0.11428113167015233,0.11519603319640302,0.04527075865883518
1851.2333333319784,-0.09208428,-1.3590236,0.112579964,-2.666902,0.23850241,1.5271592,0.5340041,0.0399999,0.03999999,0.00662716673738295,0.008192420992617078,0.01650458757412876,-0.0334671990757493,-0.04854962251436803,0.0063425053450326604,0.985633739122319,-0.11457280353911391,0.11552523061078042,0.04531143437665722
1851.249999998645,-0.09233358,-1.3605745,0.11288374,-2.6677399,0.23914596,1.5270411,0.533324,0.039999906,0.04,0.007410829230880545,0.008230646290519061,0.016660125097889278,-0.032879857477377886,-0.04786623229488674,0.0062099021373700075,0.9855605846255104,-0.11485919713354305,0.11584898867261842,0.04535097231583415
1851.2666666653117,-0.09257848,-1.3620982,0.11318215,-2.6685636,0.23977819,1.5269248,0.53265566,0.039999902,0.039999995,0.0057752332238480975,0.008313435902260191,0.016247746462150214,-0.03229387045385946,-0.047181163412049656,0.0060792681316783545,0.9854885884074543,-0.11514045719171277,0.1161667389360887,0.0453894921906062
1851.2833333319784,-0.092818975,-1.3635945,0.1134752,-2.6693723,0.24039908,1.526811,0.53199947,0.03999991,0.04,0.007545246421658547,0.008142586265846852,0.016586741199331456,-0.03170757414313136,-0.04649772674037125,0.005951531698333106,0.9854177131888171,-0.11541644318826512,0.11647904642650693,0.04542694045457917
1851.299999998645,-0.093055114,-1.3650627,0.11376294,-2.6701663,0.24100864,1.526699,0.53135514,0.039999906,0.039999995,0.006448483710408404,0.008149696512288473,0.016467621687277223,-0.031122935892215833,-0.045811878438676706,0.005825014113792149,0.9853480379599079,-0.11568727755877219,0.116785159060135,0.045463441608599255
1851.3166666653117,-0.093286864,-1.3665041,0.11404533,-2.6709454,0.24160683,1.5265892,0.530723,0.039999906,0.039999995,0.00761851722488327,0.008113443005167142,0.01600829632862899,-0.030538651177882303,-0.04513065622694434,0.005700205392007874,0.985279490449206,-0.11595284884009728,0.11708593726859652,0.04549885536969874
1851.3333333319783,-0.09351418,-1.3679184,0.11432235,-2.6717098,0.24219367,1.5264814,0.5301026,0.03999991,0.04,0.007426811792554666,0.008056842545073328,0.015868873363156233,-0.02995658162167911,-0.04444663782503514,0.005577627826230558,0.9852120797430889,-0.11621336180185264,0.1173811574671818,0.045533244324053
1851.349999998645,-0.09373712,-1.3693055,0.114594035,-2.6724596,0.24276918,1.5263755,0.52949435,0.039999906,0.039999995,0.006945414316872345,0.00806083636090138,0.015768036870800195,-0.029374396521706328,-0.04376300897580396,0.0054572275267819464,0.9851458613427067,-0.1164686413079807,0.11767057898808397,0.045566679841947594
1851.3666666653116,-0.09395569,-1.3706653,0.11486037,-2.6731946,0.2433334,1.5262719,0.52889794,0.039999906,0.039999995,0.007516215636083068,0.008010610642941729,0.015974244681726812,-0.028794386088401066,-0.043078024135998316,0.0053387057657615054,0.9850808020463196,-0.11671880797296169,0.11795444210660275,0.045599154514865646
1851.3833333319783,-0.09416987,-1.371998,0.11512136,-2.673915,0.24388638,1.5261704,0.5283135,0.039999906,0.03999999,0.007554301378043249,0.007900920227141284,0.015662202814381576,-0.028215595603488762,-0.04239382018421503,0.005222869610465822,0.9850169181630278,-0.11696383824726557,0.11823268657975476,0.0456307275770613
1851.399999998645,-0.09437967,-1.3733033,0.115377024,-2.6746206,0.24442798,1.526071,0.5277411,0.039999913,0.04,0.007166203692654527,0.00803053586361513,0.015713702814146302,-0.027638662396413462,-0.041710394396001174,0.0051078393536272935,0.9849542397819288,-0.11720370213713088,0.11850518320617132,0.04566135449398475
