rsonawane2002/My_IMU/logs_2/traj_326/clean_326.csv
time,j1,j2,j3,j4,j5,j6,j7,gripper1,gripper2,imu_ax,imu_ay,imu_az,imu_gx,imu_gy,imu_gz,quat_x,quat_y,quat_z,quat_w
829.7833333329073,0.00016700293,-0.785875,4.0107683e-05,-2.3551247,9.29385e-05,1.570997,0.786,0.04,0.04,0.0,-0.0,0.0,2.875329272945135e-08,-0.0011641195053377316,4.421952117202833e-08,0.9999995971961153,0.00020320632366974898,0.0008736418299892524,3.263050917662294e-05
829.799999999574,0.00016700222,-0.78576016,4.0118735e-05,-2.3552213,9.296768e-05,1.5709941,0.786,0.04,0.04,-0.2919984606706505,-3.151731617838209e-05,0.02012840919960457,-1.9231131988104542e-07,-0.002238655158212605,-4.5290584749830214e-07,0.9999996850588617,0.00020320751820436853,0.0007665025206025346,3.2600120201193765e-05
829.8166666662406,0.00016697701,-0.7856541,4.0157804e-05,-2.35531,9.2950315e-05,1.5709913,0.786,0.04,0.04,0.023131095325945594,2.8395854552145045e-05,-0.0015688510744515938,-5.269422212266795e-07,-0.0032238087741301184,-4.113945986610858e-06,0.9999997559063675,0.00020321067795522817,0.0006677078632474938,3.253974674508376e-05
829.8333333329073,0.00016688796,-0.7855565,4.0271767e-05,-2.355391,9.281464e-05,1.5709884,0.786,0.04,0.04,0.022263100102648536,6.99142844121732e-05,-0.0014234325006690085,-1.9257548437271397e-06,-0.004128877626380988,-1.3838019410485147e-05,0.9999998124020953,0.00020321892488625153,0.0005769300557406531,3.239681130919487e-05
829.8499999995739,0.00016667912,-0.78546625,4.0527873e-05,-2.3554645,9.245809e-05,1.5709856,0.786,0.04,0.04,0.021141745575814497,0.00012853625288211028,-0.0008350982105831406,-4.8055391644445536e-06,-0.004951018324541961,-3.2242642044007485e-05,0.9999998569810561,0.00020323645249273035,0.0004936624901748656,3.20960706354306e-05
829.8666666662406,0.00016627954,-0.7853827,4.101173e-05,-2.3555312,9.1748276e-05,1.5709827,0.786,0.04,0.04,0.018728949656154903,0.00020447511567771694,-0.0008441958660121429,-9.32249523123901e-06,-0.00569448240791617,-6.167113709260532e-05,0.9999998918695421,0.00020326849731833212,0.0004170707409346246,3.154075421773815e-05
829.8833333329072,0.00016560483,-0.78530496,4.1825137e-05,-2.3555913,9.05315e-05,1.5709797,0.786,0.04,0.04,0.017767729609996508,0.0002918843887350273,-0.00045040330285406327,-1.619516495621035e-05,-0.006362727304447195,-0.00010424643470529046,0.9999999187686837,0.00020332123731789322,0.00034667801603495174,3.0617866842802896e-05
829.8999999995739,0.00016455859,-0.78523237,4.3084765e-05,-2.3556485,8.862971e-05,1.5709767,0.786,0.04,0.04,0.010530898822969093,0.000393652667423581,-0.0016550466845011158,-2.5878989172673427e-05,-0.006960045442111999,-0.00016185913563571654,0.999999939609505,0.00020340169095890053,0.0002802789952650394,2.919629101893019e-05
829.9166666662405,0.00016303355,-0.78516406,4.4920427e-05,-2.3556988,8.585354e-05,1.5709735,0.786,0.04,0.039999995,0.016420701921204817,0.0004993260865469862,0.0004595936301532433,-3.883940904677364e-05,-0.00750285893177297,-0.00023542721497894593,0.9999999548618961,0.00020351741864628722,0.00021936384920363618,2.7136097861427748e-05
829.9333333329072,0.00016091307,-0.78509945,4.7473553e-05,-2.355742,8.1977e-05,1.5709693,0.7859981,0.04,0.039999995,0.01593937067034812,0.0006295177519663215,0.0003775180646092835,-5.5550295163194486e-05,-0.007975266724708717,-0.000328026400124793,0.9999999658079226,0.0002027229688413514,0.00016339622189988278,2.4273980915619794e-05
829.9499999995738,0.00015807203,-0.7850378,5.0896073e-05,-2.3557806,7.67571e-05,1.5709627,0.7859962,0.04,0.04,0.010200144276617529,0.0007698901682606557,-0.0015415365933746372,-6.744548298106617e-05,-0.008381536950527983,-0.0004409235326895679,0.9999999733505321,0.00020198083907154034,0.00010993235881205571,2.043409188713083e-05
829.9666666662405,0.00015437766,-0.7849783,5.5348693e-05,-2.355815,6.996113e-05,1.5709556,0.7859943,0.04,0.04,0.00948676360468248,0.0008998491656219776,0.00046032300191622966,-8.406631840853109e-05,-0.00873995411694781,-0.0005737485940331531,0.9999999778509253,0.0002013005197121699,5.947895960272198e-05,1.5443545144206297e-05
829.9833333329071,0.00014969076,-0.78492004,6.100045e-05,-2.3558426,6.133042e-05,1.5709453,0.7859924,0.04,0.04,0.011736997252898007,0.001046734356577241,-0.00024983006863266155,-0.0001059101627784319,-0.0090450770682127,-0.0007283204860872791,0.9999999797554885,0.0002006916475173636,1.1350634366137448e-05,9.113073029798736e-06
829.9999999995738,0.00014386653,-0.7848625,6.802724e-05,-2.355864,5.0592764e-05,1.5709347,0.78598857,0.039999995,0.04,0.011249531396018142,0.001201415006176729,0.0021867465338498704,-0.00013320646949824665,-0.009299268918805349,-0.0009060913002494184,0.9999999795976865,0.0001992106716437028,-3.343927362282277e-05,1.2449208844154488e-06
830.0166666662404,0.00013675498,-0.784805,7.661092e-05,-2.3558817,3.7473546e-05,1.5709206,0.78598475,0.03999999,0.039999995,0.00538780532828298,0.0013577818751938774,-0.0008738466740210171,-0.00015796634606210508,-0.00949320194275154,-0.0011069965198368537,0.9999999773523937,0.00019782188091771268,-7.804977011850338e-05,-8.363555147613529e-06
830.0333333329071,0.00012820207,-0.78474677,8.6938504e-05,-2.3558931,2.1687489e-05,1.5709059,0.78598094,0.039999988,0.039999988,0.009554327124261519,0.001518829989320008,0.0027344624988323574,-0.00018893249308456425,-0.009653330294172275,-0.0013308246581017816,0.9999999732624796,0.00019653596605153273,-0.00012021582777639802,-1.9920067674185614e-05
830.0499999995737,0.00011805017,-0.7846873,9.9201556e-05,-2.3558977,2.9406503e-06,1.5708877,0.7859752,0.039999984,0.039999984,0.009232620457755303,0.0016859957966882668,0.0011400497404112642,-0.00022689738089712194,-0.009756866870847118,-0.0015801377079276376,0.9999999675215336,0.00019441017987782778,-0.00016133814235218063,-3.3639521081711574e-05
830.0666666662404,0.000106138636,-0.7846258,0.00011359504,-2.3558965,-1.906369e-05,1.5708658,0.7859695,0.03999998,0.039999977,0.00637871085711339,0.0018545512677102072,0.0009225724530326218,-0.0002633371675984819,-0.009813992754119616,-0.0018536796546686513,0.9999999597633455,0.00019240948302337146,-0.00020242995435290466,-4.973943692762798e-05
830.083333332907,9.2304675e-05,-0.78456146,0.00013031691,-2.3558893,-4.4628963e-05,1.5708417,0.78596187,0.039999977,0.039999973,0.006220001633949757,0.002026334485310025,0.0027255522111246933,-0.0003075587415101132,-0.009833583537094775,-0.002153538582796405,0.9999999501429748,0.0001895913822158131,-0.00024307407628187152,-6.844084491605674e-05
830.0999999995737,7.638326e-05,-0.7844941,0.00014956761,-2.3558764,-7.4060634e-05,1.5708143,0.7859542,0.039999977,0.039999973,0.005371635387696472,0.0021998148241683594,0.0017647938640452665,-0.00035131784917025177,-0.00980777418031506,-0.00247915202537536,0.9999999381563416,0.00018689125825713932,-0.0002840155371313135,-8.996746779487914e-05
830.1166666662403,5.8208072e-05,-0.7844228,0.00017154931,-2.3558571,-0.00010766763,1.5707829,0.78594464,0.039999973,0.03999997,0.005343995242124144,0.002374854518597631,0.0021823381264107766,-0.00040365335582975836,-0.009743277362312203,-0.002830735149336056,0.9999999235860811,0.00018342652882343997,-0.0003256716897957973,-0.0001145447102591037
830.133333332907,3.761171e-05,-0.7843469,0.00019646541,-2.3558304,-0.00014576013,1.5707473,0.7859337,0.03999997,0.039999966,0.0060603440400042174,0.0025504647765899006,0.0027498892750887904,-0.0004563272267961333,-0.009642615455999036,-0.003208443471581707,0.9999999060163165,0.00017941741906362494,-0.00036810222046543636,-0.00014239909795120238
830.1499999995737,1.4426172e-05,-0.784266,0.00022452002,-2.3557963,-0.00018865032,1.570707,0.785922,0.03999997,0.039999966,0.005617738315333298,0.002727584369161,0.002652984536055669,-0.000511802706638172,-0.009502793678232346,-0.0036123662407244687,0.999999884828937,0.00017523324015838798,-0.0004116350236573675,-0.00017375854435269797
830.1666666662403,-1.1516837e-05,-0.78417933,0.00025591775,-2.3557549,-0.00023665043,1.5706617,0.78590864,0.03999997,0.039999966,0.004582162716459948,0.0029045144486696006,0.00285940076656388,-0.0005741899532316845,-0.009326390628807114,-0.004042532572462782,0.9999998593076384,0.00017040877203965322,-0.00045686637847871034,-0.0002088508226802774
830.183333332907,-4.038562e-05,-0.78408635,0.00029086307,-2.355706,-0.00029007232,1.5706118,0.7858934,0.039999966,0.039999958,0.004139875221031986,0.0030811240131118646,0.0035192457406241218,-0.0006388272673759028,-0.009115961125643394,-0.00449806803066476,0.9999998287659665,0.00016483639401487606,-0.0005038263412120105,-0.0002479032450532311
830.1999999995736,-7.234793e-05,-0.7839868,0.00032956025,-2.3556492,-0.00034922906,1.5705568,0.78587663,0.03999997,0.039999966,0.004460261587668768,0.0032583406407196073,0.003336284893351582,-0.0007057154272814076,-0.008871201078673976,-0.004981479118109941,0.9999997922507646,0.0001587362506494854,-0.0005527535599547578,-0.0002911438341759634
830.2166666662403,-0.000107571184,-0.7838799,0.0003722125,-2.3555849,-0.00041442981,1.5704957,0.78585833,0.03999997,0.039999966,0.0029068177229252257,0.0034339022847915167,0.0031687420235737562,-0.0007765032162347311,-0.008593081871535794,-0.0054900764694464175,0.9999997483063712,0.00015209021672970673,-0.0006045424338881087,-0.00033879817883372806
830.2333333329069,-0.00014622182,-0.7837651,0.0004190223,-2.3555117,-0.00048598356,1.5704292,0.7858383,0.03999997,0.03999996,0.004555271951844908,0.0036079398555221914,0.004331250622557903,-0.0008517450097152658,-0.008286392310726084,-0.006023705113818929,0.9999996961622414,0.00014482021611499687,-0.0006585973334283344,-0.0003910908875676775
830.2499999995736,-0.00018846519,-0.7836418,0.00047019075,-2.3554294,-0.0005641981,1.5703562,0.78581643,0.03999997,0.03999996,0.004000017154104363,0.003782488954986098,0.004065871756475659,-0.0009308982057660902,-0.007946689370043898,-0.0065838954949208744,0.9999996341466583,0.00013687813147964417,-0.0007155743963734922,-0.00044824570249967367
830.2666666662402,-0.00023446533,-0.78350955,0.0005259173,-2.3553383,-0.0006493778,1.570277,0.7857926,0.03999997,0.03999996,0.003039716659980485,0.003954765369978367,0.0043522028615017305,-0.001013699663476161,-0.007576796004828481,-0.0071695679366835675,0.999999560549077,0.00012821552161894364,-0.0007758020206112649,-0.0005104837487422465
830.2833333329069,-0.00028438482,-0.7833677,0.00058639946,-2.355238,-0.00074182445,1.5701909,0.7857667,0.03999997,0.03999996,0.0030401327111739818,0.004125585888164008,0.0045497668754501674,-0.0011001610046675087,-0.007177837700736952,-0.007780459610405684,0.999999473439281,0.00011881380652065736,-0.0008395788777915273,-0.000578024003106501
830.2999999995735,-0.00033838462,-0.783216,0.0006518333,-2.3551283,-0.00084183656,1.5700977,0.7857388,0.03999997,0.03999996,0.0026639317949550545,0.004294271032948688,0.00441950608049968,-0.0011900203935668744,-0.006752775333659811,-0.008416281861579104,0.9999993706297817,0.00010868400265943622,-0.0009072037130417761,-0.0006510831367640659
830.3166666662402,-0.0003966239,-0.78305405,0.0007224122,-2.355009,-0.0009497098,1.5699971,0.7857088,0.03999997,0.03999996,0.0025326184673435392,0.0044617006379152665,0.0045866971636776555,-0.0012835622075188249,-0.006301573247886878,-0.009076730832925907,0.9999992497517782,9.777748867704788e-05,-0.0009788859983428412,-0.0007298750889896753
830.3333333329068,-0.00045925975,-0.78288084,0.0007983274,-2.3548787,-0.0010657364,1.5698892,0.7856763,0.03999997,0.03999996,0.0042837615662705275,0.004625332064039987,0.0060022852154562045,-0.0013810574716909148,-0.005825334587900771,-0.009761477021608685,0.999999108799785,8.595574814714245e-05,-0.0010542393478351496,-0.0008146107305935441
830.3499999995735,-0.0005264475,-0.7826965,0.0008797675,-2.3547382,-0.0011902034,1.5697734,0.7856413,0.03999997,0.03999996,0.002203726412153273,0.004788773648635252,0.004955671869266709,-0.0014811891439635609,-0.005319152887179258,-0.010470157304073205,0.9999989442666372,7.319980979385985e-05,-0.0011340993193087762,-0.0009054977266516376
830.3666666662401,-0.0005983397,-0.78250027,0.00096691865,-2.3545876,-0.0013233952,1.5696497,0.78560406,0.039999973,0.039999966,0.001780359822367572,0.004949277508948125,0.005380881909644586,-0.001584217098430913,-0.004789504154407704,-0.011202380862576782,0.999998752781875,5.963893784717608e-05,-0.0012187650039405824,-0.0010027411214613097
830.3833333329068,-0.0006750872,-0.7822918,0.0010599637,-2.3544247,-0.0014655937,1.5695177,0.78556436,0.039999973,0.03999997,0.0045482789136963575,0.005107183933209208,0.006267690426264849,-0.001690939801939378,-0.004238482856121774,-0.01195967712190372,0.9999985318734876,4.519441550529583e-05,-0.001307582120632376,-0.0011065429643844571
830.3999999995734,-0.0007568386,-0.78207064,0.0011590836,-2.354252,-0.0016170692,1.569377,0.785522,0.039999973,0.039999966,-0.0002799569380318445,0.005262219654011257,0.005054373998536477,-0.001801500214173205,-0.0036563276562616605,-0.012736870745817287,0.9999982756537465,2.9756745508138134e-05,-0.0014023105703498317,-0.0012170986541201836
830.4166666662401,-0.0008437391,-0.7818362,0.0012644557,-2.3540668,-0.0017780964,1.5692273,0.7854769,0.039999973,0.039999973,0.004049949450601886,0.005413330297456042,0.006617220972771065,-0.001915028825671142,-0.0030614845836531204,-0.013539126433544851,0.9999979816837955,1.3335742403445064e-05,-0.0015017598513195772,-0.0013346040020161365
830.4333333329067,-0.00093593216,-0.7815885,0.0013762539,-2.3538702,-0.0019489388,1.5690686,0.7854292,0.039999973,0.03999997,0.0018484840112575895,0.005564313399220575,0.005849986843942112,-0.0020315091718730222,-0.002438820093244842,-0.01436058720110046,0.9999976444857912,-4.058587044648606e-06,-0.0016067363548480432,-0.0014592479854737988
830.4499999995734,-0.001033558,-0.7813265,0.0014946493,-2.3536613,-0.00212986,1.5689003,0.7853786,0.039999973,0.039999977,0.0018669433882845254,0.005712230333972828,0.0065714169915631615,-0.0021513397640847295,-0.001796025051394574,-0.015206902858441746,0.9999972588353133,-2.25067858326034e-05,-0.0017175103149444427,-0.0015912176538887633
830.46666666624,-0.0011367553,-0.7810502,0.0016198095,-2.353439,-0.002321114,1.5687227,0.7853251,0.039999973,0.039999973,0.003956528526205538,0.005853688069654942,0.007080087420141545,-0.0022741167732005557,-0.0011357052066814591,-0.01607074569205718,0.999996820677662,-4.199876811325709e-05,-0.0018334579422251782,-0.0017306942668447998
830.4833333329067,-0.0012456593,-0.78075916,0.0017518996,-2.3532047,-0.0025229524,1.5685356,0.78526866,0.039999973,0.03999998,0.0013028530038816655,0.00599703212201823,0.006760821158713348,-0.0023997188242916466,-0.00044868653531863686,-0.016957632308347306,0.9999963228624154,-6.258593004657102e-05,-0.001955505432760517,-0.0018778559986637779
830.4999999995733,-0.001360402,-0.7804531,0.0018910804,-2.3529584,-0.002735621,1.5683382,0.7852093,0.03999998,0.039999995,0.0004109781041483629,0.006137009746573128,0.00625853727862502,-0.0025283921572541042,0.0002556720535387431,-0.017863565118324133,0.999995758098322,-8.422943210654652e-05,-0.0020842511723754816,-0.002032876733995454
830.51666666624,-0.0014811131,-0.78013146,0.0020375098,-2.3526983,-0.0029593434,1.5681303,0.7851467,0.039999977,0.04,0.002979459156393638,0.006255939784333099,0.0072506333924859945,-0.0026604423047793487,0.000975296958706233,-0.01878907831667361,0.9999951209576108,-0.00010706921576985188,-0.002219131798720432,-0.0021959169420477887
830.5333333329066,-0.0016079193,-0.7797942,0.0021913417,-2.352424,-0.0031943715,1.567912,0.785081,0.039999977,0.04,0.0037604359802045906,0.006399125141529028,0.007594734295057748,-0.0027947148039613916,0.0017142905946169393,-0.01973279057086342,0.9999944051774095,-0.00013103715213307694,-0.002359881753295925,-0.0023671504502609827
830.5499999995733,-0.0017409442,-0.7794406,0.0023527269,-2.352136,-0.0034409226,1.567683,0.78501207,0.039999977,0.04,0.001577634784410975,0.006521023319506214,0.0074486479224589175,-0.002931871420638781,0.0024755327761012934,-0.020695047275446646,0.9999936012608766,-0.00015621531369258343,-0.0025074280806716494,-0.0025467309435520157
830.5666666662399,-0.0018803092,-0.7790703,0.0025218125,-2.351834,-0.0036992317,1.5674429,0.7849398,0.039999977,0.039999995,0.0016070695818104497,0.006655357504618958,0.0074305300482579995,-0.0030713246788839276,0.0032541148771260114,-0.02167450706348616,0.9999927006869039,-0.00018259525564186558,-0.0026619527766483324,-0.002734819792913822
830.5833333329066,-0.0020261325,-0.7786833,0.0026987423,-2.3515184,-0.003969522,1.5671916,0.78486425,0.039999977,0.039999995,0.0014390517303786154,0.006781729692000504,0.007415504931107542,-0.0032134689244714496,0.004046485541579416,-0.022673015956219303,0.9999916945215327,-0.00021019899096649496,-0.0028235785093648556,-0.0029315710360359355
830.5999999995732,-0.0021785283,-0.7782792,0.0028836566,-2.3511884,-0.004252,1.5669292,0.7847852,0.039999973,0.039999995,0.0018899295454621878,0.00689275554395909,0.007929739299195049,-0.003358560125618571,0.0048536185916971085,-0.023688462909623866,0.9999905739910385,-0.00023907961492046042,-0.002992189835801135,-0.003137127666775699
830.6166666662399,-0.0023376097,-0.7778575,0.0030766919,-2.3508437,-0.0045468914,1.5666555,0.78470266,0.03999997,0.04,0.0020966198853056284,0.007023484602471488,0.008245002785112199,-0.0035055160628199257,0.005677704787872889,-0.024721071811889324,0.9999893291163438,-0.00026925935875535473,-0.0031679098843724195,-0.003351641360107814
830.6333333329065,-0.0025034843,-0.777418,0.0032779807,-2.3504837,-0.004854401,1.56637,0.78461665,0.03999996,0.04,0.00255894151928171,0.0071354790163060886,0.008214236567538613,-0.003654881380819503,0.006517263687424203,-0.025769439199234537,0.999987949469911,-0.0003007012463900802,-0.0033508319908739244,-0.003575250857215685
830.6499999995732,-0.0026762586,-0.7769605,0.0034876526,-2.3501086,-0.005174709,1.5660728,0.7845271,0.03999996,0.04,0.0018627018847361398,0.007233569490302551,0.008372529151778885,-0.003806711670810467,0.007373314563919615,-0.02683141080133152,0.9999864236409434,-0.0003334291154947935,-0.0035411691026382246,-0.003808080908688869
830.6666666662398,-0.0028560362,-0.77648455,0.003705832,-2.349718,-0.005508007,1.5657634,0.7844339,0.039999958,0.04,0.0020898230084442915,0.007342229334964413,0.008354770599150463,-0.003961278949713471,0.008244401761567268,-0.02790899220790552,0.9999847393709261,-0.000367524390638611,-0.003739164445394043,-0.004050259292139661
830.6833333329065,-0.0030429177,-0.77599007,0.003932642,-2.349312,-0.005854467,1.5654417,0.784337,0.039999958,0.04,0.0019960209649116933,0.007433825752404697,0.008520947569334858,-0.00411753577227076,0.009129570712499547,-0.029000017470621243,0.9999828846567023,-0.00040298141638493777,-0.003944822739248609,-0.004301903438537759
830.6999999995732,-0.003237,-0.77547675,0.0041682,-2.3488903,-0.0062142946,1.5651076,0.7842364,0.03999995,0.04,0.001959788618188796,0.007553643468530833,0.008540532986023308,-0.004276041962026198,0.010027916263821957,-0.03010634813502011,0.9999808459933186,-0.0004397936552524609,-0.00415835754083874,-0.004563144813618835
830.7166666662398,-0.0034383757,-0.7749441,0.004412621,-2.348452,-0.0065876674,1.5647609,0.78413194,0.039999947,0.04,0.0026436017141362456,0.00764782279183804,0.009146127753556499,-0.004436840738052646,0.010939523276030372,-0.0312249005993801,0.9999786105770935,-0.0004780161161225927,-0.004379655077276514,-0.004834098706325832
830.7333333329065,-0.0036471365,-0.7743921,0.0046660136,-2.3479977,-0.0069747404,1.5644015,0.78402376,0.039999943,0.04,0.0021006881792073884,0.007735481837207363,0.00890462264184766,-0.004599372541845837,0.011865496338195164,-0.032355996955622045,0.9999761634325244,-0.0005176121554994046,-0.004608988826257607,-0.00511486719527423
830.7499999995731,-0.0038633698,-0.7738204,0.0049284888,-2.347527,-0.0073756822,1.5640292,0.78391165,0.03999994,0.04,0.0016683116038640478,0.007825916808896745,0.009029608991717453,-0.004764241365159805,0.01280406583338312,-0.03349908720079285,0.9999734887839434,-0.0005586679038062568,-0.0048466032885543355,-0.005405557881051243
830.7666666662398,-0.004087163,-0.77322876,0.0052001495,-2.3470407,-0.00779062,1.563644,0.78379565,0.03999994,0.039999995,0.0006640544490288391,0.00789614490735559,0.00892579341378319,-0.004930625613467306,0.013753397199654013,-0.03465204165527673,0.9999705697345326,-0.0006011482135056473,-0.005092832006821023,-0.005706255144157693
830.7833333329064,-0.004318596,-0.77261716,0.0054810927,-2.3465366,-0.008219737,1.5632457,0.7836757,0.039999936,0.039999995,0.0037173315917460314,0.007993373574121786,0.009573506472970728,-0.005099128124369922,0.014710612445550856,-0.035817618010942895,0.9999673939629881,-0.0006451052404692449,-0.005346936389949805,-0.0060170691653508145
830.7999999995731,-0.004557748,-0.7719852,0.0057714162,-2.3460157,-0.008663181,1.562834,0.7835517,0.039999932,0.039999995,0.0020444984219603057,0.00807934780388377,0.009497725394758127,-0.005269184251684409,0.015684366357136735,-0.03699354772753971,0.999963942046811,-0.0006905363593307328,-0.005609489037007177,-0.006338091075557275
830.8166666662397,-0.0048046946,-0.7713326,0.0060712127,-2.3454783,-0.0091211,1.5624088,0.78342366,0.039999932,0.04,0.0009305146169591438,0.008164844205479655,0.009127650217055638,-0.005441112647515437,0.0166689986342861,-0.038180033575542956,0.9999601936737814,-0.0007374673157007207,-0.0058810033533553616,-0.006669408475251871
830.8333333329064,-0.005059511,-0.77065927,0.0063805734,-2.3449235,-0.009593618,1.56197,0.78329146,0.039999936,0.04,0.0022804231868844838,0.00822364763651117,0.009712339881340348,-0.00561437366615406,0.017660632538572713,-0.03937419436356728,0.9999561326815624,-0.0007859530768223733,-0.006161128955565976,-0.00701109693896455
830.849999999573,-0.005322265,-0.7699651,0.0066995802,-2.3443515,-0.010080846,1.5615177,0.78315526,0.039999936,0.04,0.0019150302491777182,0.008283354820323111,0.00970814584722035,-0.005789057759410396,0.018661350594989846,-0.040577073720720225,0.9999517401334843,-0.0008359009087549784,-0.006449931873861347,-0.007363222970259184
830.8666666662397,-0.005593023,-0.7692497,0.0070283148,-2.3437617,-0.010582926,1.5610516,0.7830149,0.039999936,0.04,0.0024856236431114453,0.008359923519026414,0.010053269431331557,-0.0059656504454484805,0.019674475171464173,-0.04178978421180787,0.9999469961249533,-0.0008873964348272472,-0.006747479611622599,-0.007725864815073298
830.8833333329063,-0.0058718505,-0.7685131,0.0073668584,-2.343154,-0.011099973,1.5605716,0.7828704,0.039999932,0.04,0.0025825693495740154,0.008419325677580178,0.009913378602011136,-0.0061436601693833776,0.020695145187507986,-0.043009306603860334,0.9999418806049701,-0.0009404056365159887,-0.007053779451210654,-0.008099089139411418
830.899999999573,-0.0061588106,-0.7677549,0.0077152853,-2.342529,-0.01163212,1.5600772,0.7827217,0.039999925,0.04,0.0008020434584476988,0.008505895352841318,0.009571251595286157,-0.006323119658248139,0.021727708524913687,-0.044236700733462885,0.9999363672421191,-0.0009949853051884994,-0.007369584627253571,-0.008482964888415325
830.9166666662396,-0.0064539583,-0.7669753,0.008073665,-2.3418863,-0.012179453,1.5595694,0.7825687,0.039999917,0.04,0.002399681326847869,0.008534020825311846,0.010474621004163964,-0.006504065925058761,0.02276373694814622,-0.04546980077619766,0.9999304404122459,-0.0010511653487394615,-0.007694068910135157,-0.00887753862214226
830.9333333329063,-0.0067573506,-0.7661739,0.008442064,-2.3412254,-0.012742086,1.5590471,0.7824114,0.039999917,0.04,0.0021803887511495645,0.00860515002012955,0.0100563183866198,-0.006685905334489669,0.023811728056297155,-0.04670889177470318,0.9999240740746209,-0.0011089384613377333,-0.008027747107027807,-0.009282866900193254
830.9499999995729,-0.0070690415,-0.7653505,0.008820555,-2.3405466,-0.01332012,1.5585104,0.78224975,0.039999913,0.04,0.0015137957343647201,0.008651178647544559,0.01010111774264466,-0.006868691664876163,0.02486652089021711,-0.047954237368607856,0.9999172430624351,-0.00116833617757398,-0.008370866291559934,-0.009699000697184962
830.9666666662396,-0.0073890793,-0.7645054,0.00920919,-2.3398492,-0.013913655,1.5579594,0.78208375,0.03999991,0.04,0.0030244817672331337,0.008707942115185677,0.01040375330265686,-0.007052463556933921,0.02592580294343073,-0.04920447289348395,0.9999099280187898,-0.0012293512140745997,-0.008722898672126202,-0.010125985572138028
830.9833333329062,-0.0077175107,-0.76363784,0.009608028,-2.339134,-0.014522755,1.5573939,0.78191346,0.039999906,0.04,0.0010150314448953424,0.00874198093951048,0.010288187234741564,-0.0072372230287558945,0.026996586160883903,-0.05045822945931063,0.9999020977029317,-0.0012919568347259526,-0.009084657292008495,-0.01056384677570695
830.9999999995729,-0.008054382,-0.7627481,0.010017126,-2.3383994,-0.015147501,1.5568138,0.7817388,0.039999902,0.04,0.0036949769386174225,0.008769561602410894,0.010832631450852226,-0.007423228335373693,0.02807020004362196,-0.05171591611198263,0.9998937343355039,-0.001356175808818183,-0.009455316997694257,-0.011012620226332058
831.0166666662395,-0.008399731,-0.7618361,0.010436529,-2.3376472,-0.015787987,1.5562193,0.7815598,0.039999902,0.04,0.0007841956228382685,0.008838328631007378,0.010243118271180407,-0.0076102725900164874,0.02915431284068597,-0.05297694032495166,0.9998848042958214,-0.001422012312881671,-0.009835721333854925,-0.011472340874107409
831.0333333329062,-0.008753598,-0.76090145,0.010866288,-2.336876,-0.01644427,1.5556101,0.78137624,0.0399999,0.04,0.002689958428803152,0.008851353501097663,0.010858967643279094,-0.00779835986586101,0.030241852841454996,-0.054240803313886865,0.999875284213656,-0.0014895804170139153,-0.010225523374294842,-0.01194302476609906
831.0499999995728,-0.009116018,-0.7599442,0.011306445,-2.3360858,-0.017116418,1.5549859,0.7811883,0.039999895,0.04,0.002318884664687104,0.008889612827894973,0.010649180534594294,-0.007986164434065735,0.031335806443437655,-0.05550698178979886,0.9998651454836407,-0.0015587594138977735,-0.010624880243658548,-0.012424694598890493
831.0666666662395,-0.009487021,-0.7589643,0.011757041,-2.335277,-0.0178045,1.554347,0.78099597,0.03999989,0.04,0.0019229850310109597,0.008920277862672042,0.010776023886815977,-0.008175347375883369,0.032435123107827146,-0.056775745354121485,0.9998543596974968,-0.0016295827442569522,-0.011033831692491992,-0.012917368624067978
831.0833333329061,-0.009866644,-0.7579616,0.012218116,-2.3344493,-0.018508574,1.5536933,0.78079915,0.039999884,0.04,0.002455100521681075,0.008952566673056835,0.010943301343502299,-0.008365297240874144,0.03353995330804665,-0.05804576288212611,0.9998428984593565,-0.001702074743517174,-0.011452358113133361,-0.013421059407099959
831.0999999995728,-0.0102549065,-0.7569361,0.0126897,-2.3336027,-0.0192287,1.5530248,0.7805978,0.039999876,0.04,0.0021560481909821405,0.00897837242310618,0.01091431345141558,-0.008555871284218716,0.034649250836329956,-0.05931729310797762,0.9998307320326006,-0.0017762688502338598,-0.011880499621155966,-0.013935777010170222
831.1166666662394,-0.010651841,-0.75588775,0.0131718265,-2.3327374,-0.019964915,1.5523413,0.780392,0.039999872,0.04,0.0016524586259336616,0.009002351957759433,0.010773650053086392,-0.00874665129238331,0.035765423840442956,-0.060587365181287794,0.9998178280495764,-0.0018521322369637152,-0.012318474500083009,-0.01446151812207429
831.1333333329061,-0.011057468,-0.7548165,0.013664522,-2.3318532,-0.020717245,1.551643,0.78018165,0.03999987,0.04,0.0023212738897049334,0.009002850254219777,0.011088962375938038,-0.008938055555201451,0.03688279114289756,-0.06185721858344939,0.9998041580139753,-0.001929694864378069,-0.01276611451943761,-0.014998273759770173
831.1499999995727,-0.011471806,-0.7537222,0.014167809,-2.3309498,-0.021485733,1.5509298,0.77996683,0.039999865,0.04,0.002254025831782691,0.009024350577568029,0.01115026050850787,-0.009129561245715657,0.03800463315770389,-0.06312719691661554,0.9997896903767844,-0.002008927448538321,-0.013223459308081718,-0.015546039712013772
831.1666666662394,-0.011894871,-0.7526049,0.014681711,-2.330027,-0.022270426,1.5502013,0.7797475,0.03999986,0.04,0.0025482664960163603,0.009042013384542857,0.01101993888641406,-0.009321591318710198,0.03913098151138203,-0.06439506893920514,0.9997743923127247,-0.002089858195209615,-0.013690579272236202,-0.016104813182293586
831.183333332906,-0.012326679,-0.75146437,0.015206246,-2.329086,-0.023071328,1.5494578,0.7795235,0.039999854,0.04,0.0007481354126204209,0.009053597641448148,0.010919307781365184,-0.009514097676610845,0.040261091287260006,-0.06566206522855253,0.9997582246621449,-0.0021725522331369064,-0.014167962619232982,-0.016674563634784485
831.1999999995727,-0.01276724,-0.7503007,0.015741423,-2.3281252,-0.023888482,1.548699,0.779295,0.039999846,0.04,0.003214390860883931,0.009056567635219379,0.011367560515496145,-0.009706099606974813,0.041390219200661535,-0.06692690244623467,0.999741163288123,-0.002256913156716021,-0.014654962866196674,-0.017255284225532908
831.2166666662393,-0.013216562,-0.7491139,0.01628726,-2.3271456,-0.024721889,1.5479249,0.779062,0.03999985,0.04,0.0015758628358231164,0.009057115195986419,0.010863005343053622,-0.009898552122490252,0.04252342786192808,-0.06818817428106078,0.9997231666674224,-0.0023430063203811703,-0.015152127908988861,-0.017846942866311586
831.233333332906,-0.013674653,-0.747904,0.016843762,-2.3261466,-0.025571577,1.5471361,0.77882445,0.039999846,0.04,0.002585862791892879,0.009062313521301935,0.011655652089692659,-0.010091156352266442,0.04365653987308409,-0.06944794536188868,0.999704209370915,-0.0024307750641055135,-0.015658871461425805,-0.01844952149016838
831.2499999995727,-0.01414152,-0.7466707,0.017410934,-2.3251286,-0.026437532,1.5463319,0.77858245,0.039999843,0.04,0.0017053808976985607,0.009059621505985022,0.011171322575198595,-0.010283841743750046,0.04479391059360823,-0.07070243886885244,0.9996842476981481,-0.002520216444110901,-0.016175799949191803,-0.019062972204414507
831.2666666662393,-0.014617163,-0.74541444,0.017988782,-2.3240917,-0.027319789,1.5455128,0.77833575,0.039999835,0.04,0.0018457673655492002,0.00907112039265287,0.011247939141689756,-0.010477013450644822,0.04593085671178256,-0.07195446012109755,0.999663250095361,-0.002611454623077693,-0.01670262847860027,-0.01968727800985253
831.283333332906,-0.015101579,-0.7441347,0.018577304,-2.323035,-0.028218322,1.5446786,0.7780845,0.039999828,0.04,0.002902937351900725,0.0090333115153364,0.011785023487287383,-0.010669217359927222,0.04706886662068711,-0.07320106810951836,0.9996411837794322,-0.0027044005238236776,-0.017239216919995227,-0.020322384452799484
831.2999999995726,-0.015594768,-0.7428321,0.019176492,-2.3219597,-0.029133145,1.5438291,0.7778288,0.03999982,0.04,0.0014710239918169776,0.009066464114845796,0.01086340844540512,-0.010861342261311482,0.04821027461705387,-0.07444509740758304,0.9996180055969472,-0.0027990214351620263,-0.017785962802162703,-0.020968259169203498
831.3166666662393,-0.016096722,-0.74150616,0.019786349,-2.3208652,-0.030064242,1.5429647,0.77756846,0.039999828,0.04,0.0022342451005297193,0.009024467312506931,0.01177459291927807,-0.011053745921555403,0.049349950833587425,-0.0756829030339447,0.9995936835458015,-0.0028954182943523904,-0.018342580554409717,-0.02162484929061188
831.3333333329059,-0.016607434,-0.7401571,0.020406857,-2.319752,-0.031011607,1.5420853,0.77730364,0.039999835,0.04,0.0013340880638201824,0.009038502854354438,0.011212357288026276,-0.01124526015464665,0.05049118175293321,-0.07691802772908445,0.999568175509794,-0.0029935001351780884,-0.018909347121357185,-0.022292107491358328
831.3499999995726,-0.017126892,-0.73878497,0.021038009,-2.3186188,-0.031975184,1.5411907,0.77703416,0.039999828,0.04,0.0036214286001978735,0.008959167921044134,0.01186561663604202,-0.011436763900036642,0.05163018322699704,-0.07814187877465492,0.9995414556573181,-0.0030933529176235047,-0.019485649204135286,-0.022969960062440016
831.3666666662392,-0.017655084,-0.7373896,0.021679789,-2.317467,-0.032954972,1.540281,0.7767602,0.039999828,0.04,0.0011572738731313592,0.008990855190433786,0.011260345768215885,-0.011627057333249587,0.052772952427458546,-0.07935822258420364,0.999513471618434,-0.0031948965244079203,-0.0200722401917774,-0.023658357152347813
831.3833333329059,-0.018191997,-0.7359714,0.022332178,-2.3162963,-0.033950925,1.5393565,0.77648175,0.039999817,0.04,0.0019556714599744396,0.008945661582646439,0.011419276419655233,-0.011817072018058868,0.05391141707889485,-0.08056816626494909,0.9994841922796666,-0.0032981604338698208,-0.020668743856987033,-0.024357227842864083
831.3999999995725,-0.01873761,-0.73453,0.022995155,-2.3151064,-0.034963034,1.5384165,0.77619874,0.039999805,0.04,0.002276291048652901,0.008936092655698752,0.01149000217750551,-0.012006755732375845,0.055049737438973755,-0.08177139364517992,0.9994535753778073,-0.0034031436471489034,-0.0212753193477325,-0.025066512810653016
831.4166666662392,-0.019291906,-0.73306555,0.0236687,-2.3138974,-0.035991274,1.5374616,0.77591115,0.0399998,0.04,0.002210323195073194,0.008909803723133533,0.011674089523872055,-0.012195649714316397,0.0561856408167372,-0.0829665015896864,0.9994215855504156,-0.0035098846373978715,-0.02189176917678395,-0.02578614915096525
831.4333333329058,-0.019854866,-0.7315784,0.024352785,-2.3126698,-0.037035555,1.5364919,0.77561915,0.039999798,0.04,0.0017430636344295536,0.00886281687631392,0.011315438982206771,-0.012383522530468346,0.05732063109771378,-0.08415159923887641,0.9993881821837464,-0.00361829191380934,-0.022518190503898736,-0.026516039891427215
831.4499999995725,-0.020426465,-0.7300684,0.025047375,-2.3114233,-0.038095877,1.535507,0.7753228,0.039999787,0.04,0.0018677322458637846,0.008867904483480724,0.01138735193220164,-0.01257091628292091,0.05845375463647332,-0.0853295470023731,0.9993533228294628,-0.003728335697574067,-0.023154681695158778,-0.027256125517648423
831.4666666662391,-0.021006666,-0.7285357,0.02575245,-2.310158,-0.039172165,1.5345076,0.77502173,0.039999783,0.04,0.0023310068877124834,0.008775614424829173,0.011833557296259123,-0.01275798851275576,0.059582562540063874,-0.08649665953671318,0.9993169776841753,-0.003840214040901832,-0.023800780590775797,-0.02800631556551583
831.4833333329058,-0.021595448,-0.7269801,0.026467968,-2.3088737,-0.040264394,1.5334934,0.7747163,0.039999772,0.04,0.0022499489997107602,0.008780383212328435,0.011794453529234694,-0.012943279537572846,0.06071143672554186,-0.0876557570998129,0.9992791008046316,-0.003953741370004347,-0.02445676001080944,-0.028766534619934416
831.4999999995724,-0.022192784,-0.72540206,0.027193889,-2.3075712,-0.0413725,1.5324644,0.7744065,0.03999976,0.04,0.0012939169310000054,0.008763999149462645,0.011163105504774506,-0.013127979761893628,0.06183786212625721,-0.08880484594251749,0.9992396476625068,-0.00406894731702885,-0.025122779228984145,-0.02953669194158584
831.5166666662391,-0.022798637,-0.7238014,0.02793018,-2.3062494,-0.042496394,1.5314207,0.77409226,0.039999757,0.04,0.0030324498154543633,0.008658152216965698,0.012000049106597466,-0.013311573337787121,0.06295976284181411,-0.08994194287561882,0.9991985911839103,-0.004185837503941424,-0.02579831091801759,-0.03031668343102246
831.5333333329057,-0.023412969,-0.7221785,0.028676795,-2.3049097,-0.04363603,1.5303626,0.77377367,0.03999975,0.04,0.0012500885115063198,0.008661012903628251,0.011265074259814156,-0.013494243913211645,0.06408026966515037,-0.0910700729774813,0.999155881257997,-0.004304391557690487,-0.026483720744675525,-0.03110642532325564
831.5499999995724,-0.02403575,-0.7205329,0.029433692,-2.3035517,-0.044791352,1.52929,0.7734506,0.03999975,0.04,0.0013256537417793979,0.008624967529402214,0.011783220361838431,-0.013676109078626531,0.06519626242443022,-0.0921869887762401,0.9991114731204722,-0.004424674811520401,-0.027179138229708768,-0.031905814155769936
831.566666666239,-0.024666937,-0.7188651,0.030200817,-2.3021748,-0.04596228,1.5282029,0.77312315,0.039999735,0.04,0.0028163278855020124,0.008555429768686978,0.011804664906978068,-0.013856260188486331,0.06630780010452436,-0.09329335470684536,0.9990653415684537,-0.004546650273937236,-0.02788397533168863,-0.03271475458714463
831.5833333329057,-0.025306484,-0.7171753,0.030978134,-2.300779,-0.047148727,1.5271015,0.77279145,0.039999735,0.04,0.003038988229864259,0.008463886160493123,0.011836892686822864,-0.014034824443728099,0.06741596086443608,-0.09438468876665249,0.9990174505779227,-0.004670239381707139,-0.028598088245052777,-0.03353314261493579
831.5999999995723,-0.025954355,-0.7154635,0.03176558,-2.299367,-0.04835062,1.5259857,0.7724554,0.039999723,0.04,-0.0009610675163695959,0.00852575412840749,0.01063738351123611,-0.014212558187231342,0.06852385112400737,-0.09546713582513597,0.9989677228833717,-0.0047955114714275365,-0.029322737933626757,-0.034360860685006045
831.616666666239,-0.026610497,-0.7137298,0.03256311,-2.2979362,-0.049567882,1.5248557,0.772115,0.039999712,0.04,0.0027222790747627457,0.008381008508442575,0.011862084777436444,-0.014389098989978697,0.0696195061766549,-0.09653624241694023,0.9989161514804922,-0.004922466101577861,-0.030056710641291628,-0.03519780936801241
831.6333333329056,-0.027274868,-0.71197444,0.033370666,-2.2964869,-0.050800424,1.5237114,0.77177036,0.039999705,0.04,0.0030150030384312743,0.008322479182244422,0.011644974384972251,-0.014563489632274402,0.0707117469436473,-0.09759340513852144,0.9988626984867366,-0.005051040041283466,-0.030799922314545276,-0.036043880919152706
831.6499999995723,-0.027947422,-0.71019745,0.034188177,-2.2950199,-0.05204814,1.5225528,0.7714214,0.0399997,0.04,0.0014204366704850813,0.008311009873310585,0.011225767842693024,-0.014736513281120309,0.0718026347176512,-0.09863504624818059,0.9988073085954646,-0.005181294914213748,-0.03155285863750303,-0.03689893753345761
831.6666666662389,-0.028628105,-0.7083988,0.035015594,-2.2935352,-0.053310953,1.5213805,0.77106833,0.039999686,0.04,0.0015683671147792566,0.008234305937467046,0.011724225071185757,-0.014907584869284498,0.07288506768225664,-0.09966567385717214,0.9987499498030391,-0.005313104663551775,-0.03231522290764216,-0.0377628793352747
831.6833333329056,-0.029316856,-0.70657885,0.035852846,-2.2920327,-0.054588746,1.5201942,0.77071095,0.039999682,0.04,0.002190566422655138,0.00814910418448292,0.011440352203173632,-0.015077796228065422,0.07396198016820059,-0.10068012677427132,0.9986905836360546,-0.005446610455542282,-0.03308693732592641,-0.03863556871087405
831.6999999995722,-0.030013634,-0.70473784,0.036699865,-2.2905133,-0.055881433,1.5189941,0.7703496,0.039999675,0.04,0.0010353071534074942,0.008140820740283605,0.011121830263349786,-0.015245280665713363,0.07503445295860356,-0.1016823657430494,0.9986291649464741,-0.0055816085265550435,-0.03386814920854829,-0.039516895548002216
831.7166666662389,-0.030718379,-0.7028756,0.037556585,-2.2889757,-0.057188902,1.5177802,0.76998436,0.039999664,0.04,0.0027532085847159493,0.008023713431502127,0.011758260632754869,-0.015412366289069869,0.07609934460682172,-0.10267007682344448,0.9985656682434092,-0.005718098362138854,-0.03465841667560626,-0.04040672852699871
831.7333333329055,-0.031431038,-0.7009926,0.03842294,-2.287421,-0.05851104,1.5165527,0.76961446,0.03999966,0.04,0.001700007795335523,0.007981352003961356,0.011281015912412151,-0.015578308847154044,0.07715827148929517,-0.10364327764740856,0.9985000459859918,-0.005856443704555898,-0.03545790859942532,-0.041304926472062554
831.7499999995722,-0.032151524,-0.6990889,0.039298847,-2.285849,-0.059847746,1.5153115,0.7692407,0.039999653,0.04,0.0017886273889988757,0.00789448555242947,0.011166203879331427,-0.015740065401786525,0.07821097712630401,-0.1046016693339691,0.9984322599099877,-0.005996268797924858,-0.036266613479313044,-0.04221137143329845
831.7666666662388,-0.032879803,-0.6971644,0.040184237,-2.2842607,-0.0611989,1.5140572,0.7688629,0.039999645,0.04,0.0006789738951074042,0.007873856195007162,0.011349169401064785,-0.015900910204523812,0.07925606681000043,-0.10554486137605996,0.9983622662132917,-0.0061376441255397,-0.03708462787086038,-0.043125921459471916
831.7833333329055,-0.03361579,-0.6952194,0.041079033,-2.2826555,-0.06256441,1.5127895,0.76848114,0.039999634,0.04,0.0015901351711367084,0.007772811575991467,0.011342951772053134,-0.01605976032919534,0.0802929460006021,-0.10647359544641749,0.9982900318640304,-0.006280573577771787,-0.03791174662421486,-0.044048452235559615
831.7999999995722,-0.03435944,-0.69325423,0.04198316,-2.2810333,-0.06394414,1.5115082,0.76809543,0.03999963,0.04,0.0019865793246420793,0.0077050034503457765,0.010965223681647096,-0.016216356908737115,0.08132080672097147,-0.10738410012836179,0.9982155209406204,-0.006425008799610385,-0.0387478829220704,-0.044978823731043505
831.8166666662388,-0.035110675,-0.69126904,0.042896543,-2.2793941,-0.06533792,1.5102141,0.76770586,0.03999961,0.04,0.0022841821216479374,0.007561661940209269,0.01149121973915701,-0.01637130130738666,0.08234028534638381,-0.10828183373305318,0.9981387114726239,-0.006570945084181625,-0.03959262130730632,-0.04591687792617201
831.8333333329055,-0.03586943,-0.6892639,0.04381909,-2.2777395,-0.066745654,1.5089068,0.7673123,0.039999608,0.04,-8.016894628148918e-05,0.007589659091999934,0.01061163184243874,-0.016524493811813458,0.08335404367409764,-0.10916110771529268,0.9980595322857094,-0.006718448114005466,-0.04044677091819305,-0.04686247102812225
831.8499999995721,-0.036635622,-0.68723893,0.04475071,-2.2760684,-0.068167225,1.5075871,0.76691484,0.039999597,0.04,0.0018248906158202516,0.00744896709298018,0.011482268024387565,-0.01667500299528015,0.08435461228332614,-0.11002502396694978,0.997977978912084,-0.006867470539838428,-0.041309467637039486,-0.047815471747969296
831.8666666662388,-0.037409183,-0.6851945,0.045691334,-2.2743807,-0.06960245,1.5062546,0.7665135,0.039999586,0.04,0.0024704366990091486,0.007307744282247092,0.01129243936319746,-0.016822789190309963,0.08534714142157523,-0.11087304300259464,0.9978940209356895,-0.007018006230257727,-0.042180564043628264,-0.04877571717889054
831.8833333329054,-0.038190052,-0.6831308,0.046640854,-2.272677,-0.07105127,1.5049094,0.7661084,0.039999574,0.04,0.0015818569290448892,0.007343580880773276,0.010936283022378035,-0.016967911862690272,0.08633428722927664,-0.11170354668245286,0.9978076127772504,-0.007170019355104353,-0.04306023927511899,-0.049743084944356336
831.8999999995721,-0.038978137,-0.6810479,0.04759919,-2.270958,-0.07251349,1.503552,0.76569957,0.03999956,0.04,0.0005399175890374863,0.007217400079184699,0.010866610738036186,-0.017110892090915857,0.08731293164442566,-0.1125176907751152,0.9977187123274843,-0.007323483318165917,-0.043948639128667234,-0.050717401179608976
831.9166666662387,-0.039773375,-0.67894614,0.048566222,-2.2692235,-0.07398896,1.5021821,0.76528704,0.03999956,0.04,0.0012190232063780115,0.00715238796703474,0.010764287915021598,-0.017251234463592696,0.08827935236427947,-0.11331234380641486,0.9976272926892891,-0.00747837534162833,-0.04484555565101356,-0.05169850019140875
831.9333333329054,-0.04057567,-0.67682576,0.04954189,-2.267473,-0.07547757,1.5007997,0.7648708,0.039999556,0.04,0.002262054980928241,0.007013056428765291,0.010693716960141764,-0.017389500283817468,0.08923565189870575,-0.11409215640197239,0.9975333281853151,-0.007634701294543146,-0.045750720017366776,-0.05268626114618427
831.949999999572,-0.04138497,-0.67468685,0.050526083,-2.2657075,-0.07697912,1.4994055,0.764451,0.039999537,0.04,0.0009746312559011372,0.00696190636776603,0.010960038888851997,-0.017524930518216162,0.09018200277022645,-0.11485431525282072,0.9974367872133704,-0.007792419968120007,-0.046664099443203266,-0.05368049485301736
831.9666666662387,-0.04220116,-0.6725295,0.051518697,-2.2639267,-0.07849353,1.4979995,0.76402754,0.039999537,0.04,0.0014487999853818323,0.006872081014248216,0.010964104747701597,-0.01765769986943741,0.09111915153649344,-0.115597196005349,0.9973376387668734,-0.00795160279848864,-0.047585575844714026,-0.0546810687841742
831.9833333329053,-0.043024175,-0.67035437,0.052519634,-2.2621312,-0.080020614,1.4965819,0.7636005,0.03999952,0.04,0.0013586337932691706,0.006790093448461737,0.010517495124018339,-0.017787683348660713,0.09204534862197578,-0.11632453799642388,0.9972358555259474,-0.00811215181916911,-0.048515024203711024,-0.05568782517577577
831.999999999572,-0.043853946,-0.6681612,0.0535288,-2.260321,-0.08156021,1.4951527,0.76317,0.03999951,0.04,0.0011489905441086634,0.00670208316868523,0.010754775730981159,-0.017914657668397636,0.09296379776091723,-0.11703206012450657,0.9971314036091434,-0.008274073812890283,-0.04945247182112174,-0.056700587913878345
832.0166666662386,-0.04469036,-0.6659505,0.054546084,-2.2584965,-0.08311216,1.4937121,0.76273596,0.039999504,0.04,0.00046523502350570567,0.006612237205896876,0.010290240140986562,-0.018038904544910927,0.09386918894504484,-0.1177220956446634,0.9970242455655681,-0.008437385703579835,-0.050398004518346314,-0.057719194532387476
832.0333333329053,-0.045533333,-0.66372234,0.05557138,-2.2566578,-0.084676296,1.49226,0.7622985,0.03999949,0.04,0.001030816753155861,0.006505190293787377,0.010349042888657678,-0.01816020118422951,0.09476167691970817,-0.11839404697904088,0.9969143601407396,-0.008602023047901412,-0.051351407086773125,-0.05874348248845638
832.0499999995719,-0.046382785,-0.66147697,0.056604583,-2.2548048,-0.08625244,1.490797,0.7618579,0.039999478,0.04,0.0013461552069049532,0.006386671088918355,0.01074903499929114,-0.01827825897933465,0.09564295563145891,-0.11904588963491816,0.9968017373344418,-0.008767881272498348,-0.052312282011096334,-0.059773287142513454
832.0666666662386,-0.04723863,-0.65921456,0.057645593,-2.252938,-0.087840445,1.4893231,0.76141393,0.039999466,0.04,0.0007162550330841455,0.0063136148888164045,0.010355028563813207,-0.01839449246020262,0.09651323081161609,-0.11968051403728257,0.9966863348926914,-0.008935083967322089,-0.05328083981416477,-0.060808438734833214
832.0833333329052,-0.04810075,-0.65693563,0.058694284,-2.2510564,-0.08944016,1.4878379,0.7609666,0.039999455,0.04,0.0027746684909679686,0.006172012232684432,0.010295292591644412,-0.01850686676506969,0.0973715713195533,-0.12029502577157034,0.9965681528921054,-0.00910357145180506,-0.05425650808604204,-0.061848791082351834
832.0999999995719,-0.048969083,-0.65464044,0.05975056,-2.2491612,-0.09105138,1.4863415,0.760516,0.039999444,0.04,0.0011060827328046585,0.006113281529059045,0.009686029136557472,-0.018616152114778507,0.0982201075587035,-0.1208927676726632,0.9964471419082108,-0.009273322850822704,-0.05523969643591587,-0.06289415556258081
832.1166666662385,-0.049843512,-0.6523286,0.0608143,-2.2472534,-0.092673935,1.4848348,0.76006234,0.039999433,0.04,-0.0006711782867485638,0.0060509277919292,0.010185516209260115,-0.01872240754130014,0.09905495381641168,-0.12147007854075267,0.9963232648891583,-0.009444284669452286,-0.05623056888845862,-0.06394435432601096
832.1333333329052,-0.050723966,-0.65000105,0.06188537,-2.2453325,-0.09430769,1.4833181,0.75960547,0.039999418,0.04,0.0011678860644570577,0.005956568514500077,0.010135839833047555,-0.018826098262514804,0.09987443799231742,-0.12202987906448375,0.996196536611583,-0.009616508683991975,-0.05722832342604666,-0.06499924770073566
832.1499999995718,-0.05161032,-0.64765805,0.06296369,-2.2433987,-0.09595241,1.4817904,0.7591456,0.039999407,0.04,0.0008692459302350741,0.005784034369816365,0.009143737751160508,-0.018925658808235317,0.10068184826323585,-0.12256812484802301,0.9960669088264441,-0.009789865485685804,-0.058233389089663766,-0.06605864114433822
832.1666666662385,-0.052502494,-0.6452996,0.06404911,-2.2414515,-0.09760794,1.4802535,0.7586828,0.0399994,0.04,0.0019855370365862157,0.005669230738583608,0.010721001862679103,-0.019023233048687797,0.1014738626630925,-0.12308930203047987,0.9959344170616197,-0.0099643944686497,-0.059244689304680784,-0.0671223848220298
832.1833333329051,-0.05340039,-0.642926,0.065141514,-2.239493,-0.0992741,1.4787061,0.75821686,0.03999939,0.04,-0.00110275599372045,0.005713811965493698,0.008809468790049735,-0.019117256179543067,0.10225961517941559,-0.12359043193945224,0.9957989579202988,-0.010140139339172276,-0.06026358667459817,-0.06819027130128136
832.1999999995718,-0.054303903,-0.6405375,0.0662408,-2.2375214,-0.10095069,1.4771495,0.75774807,0.039999377,0.04,0.0018286514592569247,0.005434327814540091,0.010209963638940778,-0.01920757200724625,0.10302371237587753,-0.12407229947378035,0.9956605926462437,-0.010317001694300588,-0.06128863787288043,-0.06926215846374903
832.2166666662384,-0.05521294,-0.6381341,0.067346826,-2.235539,-0.10263751,1.475583,0.7572764,0.039999373,0.04,-0.001495551841168563,0.005504888061766411,0.008833470165137136,-0.019294330894477196,0.10377947343115985,-0.12453298707242959,0.9955192236196828,-0.010494982488759597,-0.062321111093603006,-0.07033782665311299
832.2333333329051,-0.056127377,-0.6357163,0.068459496,-2.233544,-0.1043344,1.4740074,0.75680196,0.03999935,0.04,0.0015185842113796255,0.005219316407042984,0.00998373701790456,-0.01937892930416512,0.1045138500967262,-0.1249782639318355,0.9953749102534252,-0.010674073029247383,-0.06335962699850999,-0.07141715388869652
832.2499999995717,-0.05704713,-0.63328457,0.06957866,-2.2315369,-0.10604118,1.4724227,0.75632477,0.03999934,0.04,0.002033441383275658,0.005155890498030613,0.009743081101509787,-0.01945936824019945,0.10523708849079053,-0.12540378915343825,0.9952276492273057,-0.010854210710966832,-0.06440393680579057,-0.07249996722239752
832.2666666662384,-0.057972096,-0.6308392,0.07070423,-2.229519,-0.1077576,1.4708287,0.7558447,0.039999336,0.04,-0.00035877125550420885,0.005084582157235951,0.008430704557271795,-0.019535714674821986,0.10595018784770091,-0.12580503069183888,0.9950773694362537,-0.0110354688730705,-0.06545486574656628,-0.07358605718936073
832.283333332905,-0.05890216,-0.62838024,0.07183601,-2.2274892,-0.10948352,1.4692261,0.7553621,0.03999933,0.04,0.001272960338338791,0.004984257185480789,0.009733060985572806,-0.019608513151134682,0.1066451774867142,-0.12618920545047677,0.9949241133782195,-0.011217710199488666,-0.06651147092824115,-0.0746752692087932
832.2999999995717,-0.059837215,-0.625908,0.07297391,-2.2254488,-0.111218706,1.4676151,0.754877,0.03999931,0.04,0.00018121343725585604,0.004860644492811483,0.009032554299115425,-0.019678038057195417,0.10732923479507273,-0.12655503154436878,0.9947678477491555,-0.011400921294525638,-0.06757400561972073,-0.07576741940078979
832.3166666662383,-0.060777146,-0.6234228,0.0741178,-2.2233984,-0.112962976,1.4659954,0.7543893,0.039999302,0.04,-0.0007789859749252059,0.004787730730033968,0.008368723400464795,-0.019744200807962367,0.10799869383156657,-0.12689961071286782,0.9946085314289965,-0.011585138009078651,-0.06864281550252584,-0.07686232930279757
832.333333332905,-0.061721854,-0.62092507,0.075267546,-2.2213368,-0.114716105,1.4643676,0.753899,0.03999929,0.04,0.0017731507438334404,0.004573522390954876,0.009208937862270616,-0.019806502536155613,0.108648335559951,-0.12722311040438194,0.9944462264653452,-0.011770368396597447,-0.06971676265831607,-0.07795982363427931
832.3499999995717,-0.06267123,-0.6184148,0.07642303,-2.2192652,-0.116477944,1.4627317,0.75340647,0.039999276,0.04,-0.00018024856167642156,0.004561186301217657,0.008619352915206768,-0.019864678336911967,0.109287767304555,-0.12753013526678095,0.9942808794331838,-0.011956436123842139,-0.07079641137951362,-0.07905975312745261
832.3666666662383,-0.06362517,-0.61589247,0.07758408,-2.2171838,-0.11824821,1.4610881,0.75291157,0.03999926,0.04,-5.090981596289623e-05,0.004430616792362729,0.008558673856029486,-0.019920213615750193,0.1099093610846296,-0.12781619341886363,0.9941124987339043,-0.012143421466758486,-0.07188148853691279,-0.08016189108193157
832.383333332905,-0.06458356,-0.6133584,0.078750595,-2.215092,-0.120026775,1.4594367,0.75241417,0.039999258,0.04,0.0014758018119565008,0.004276089900168145,0.008758016506216215,-0.019971642380816047,0.11051635505449538,-0.12808129493026402,0.9939411068854203,-0.012331371645659825,-0.07297145042709713,-0.08126611064452362
832.3999999995716,-0.065546274,-0.6108128,0.07992246,-2.2129915,-0.121813424,1.4577777,0.7519146,0.039999247,0.04,-0.0012899843287561552,0.0042288414942304176,0.007835628722063781,-0.020018803364448428,0.11111003581873627,-0.1283291415450216,0.9937666439278202,-0.012520164062752333,-0.07406698033302019,-0.08237223641875212
832.4166666662383,-0.0665132,-0.608256,0.08109949,-2.2108817,-0.1236079,1.4561116,0.75141287,0.039999235,0.04,0.00019954010883616036,0.004086490266812237,0.008246564097391662,-0.02006243198449789,0.11168350735336018,-0.12855626104731474,0.9935891486652997,-0.012709794833729438,-0.07516744299493922,-0.08348005919650567
832.4333333329049,-0.06748425,-0.60568833,0.08228156,-2.2087631,-0.12541002,1.4544383,0.750909,0.03999923,0.04,-0.00013668167977431978,0.003995066537762493,0.008000676671771068,-0.020101885721984014,0.1122417865942499,-0.12876081203698414,0.9934086166933749,-0.012900240697897967,-0.0762727624559401,-0.08458941882192778
832.4499999995716,-0.068459295,-0.60311,0.08346854,-2.2066357,-0.12721954,1.4527582,0.750403,0.039999213,0.04,4.480280926255631e-05,0.003835610593713734,0.00801592994001954,-0.02013823839758383,0.11278392289566445,-0.12894952965070772,0.9932250538350235,-0.013091482023609213,-0.07738277130990351,-0.08570012973875402
832.4666666662382,-0.069438204,-0.6005213,0.08466031,-2.2044995,-0.12903629,1.4510713,0.749895,0.039999194,0.04,0.0003740818027342385,0.0037013153899062567,0.0079625829505936,-0.0201703940524403,0.11330945820552162,-0.12911881306916878,0.9930384691474543,-0.013283495215984023,-0.07849724294468709,-0.08681204062922533
832.4833333329049,-0.07042087,-0.59792256,0.085856706,-2.202354,-0.13086002,1.4493777,0.74938506,0.039999187,0.04,0.001449018136479019,0.003519979937090245,0.008158810907077374,-0.020198253403811976,0.11381844811221004,-0.12926630478649295,0.9928488965551232,-0.013476202547727007,-0.07961571084837052,-0.08792496323727236
832.4999999995715,-0.071407184,-0.5953144,0.08705755,-2.2002008,-0.1326905,1.4476781,0.74887323,0.039999187,0.04,-0.00033292952434926804,0.0035576705236795014,0.007472551585108178,-0.020221901975981532,0.11431622128866595,-0.1293929158334718,0.9926563217211476,-0.013669619021306792,-0.08073831034851105,-0.08903872025653374
832.5166666662382,-0.07239702,-0.5926968,0.08826277,-2.1980407,-0.13452753,1.4459722,0.74835956,0.03999917,0.04,-0.0015903418040474904,0.0034185124545865753,0.006835607081567829,-0.020242174747999633,0.11479699860980691,-0.1295024758616602,0.9924606996956901,-0.013863746033037107,-0.081865553271836,-0.0901531324634315
832.5333333329048,-0.07339024,-0.59007007,0.08947219,-2.195873,-0.13637093,1.4442605,0.74784416,0.039999142,0.04,-5.749889044892598e-05,0.003228194832874398,0.007437537340204692,-0.02025864865658087,0.11525666910824729,-0.1295943034286483,0.992262087972817,-0.014058531430008452,-0.0829966747602366,-0.09126805818357547
832.5499999995715,-0.07438676,-0.5874346,0.09068567,-2.1936982,-0.13822046,1.4425433,0.74732697,0.039999127,0.04,-0.00037374098895703867,0.0031868570758819548,0.007270728864372522,-0.02027118893731545,0.11570009147558727,-0.1296657442023823,0.9920604969142145,-0.014253991028410873,-0.08413154453825855,-0.09238331784305373
832.5666666662381,-0.07538645,-0.5847906,0.09190307,-2.1915166,-0.14007583,1.4408205,0.7468081,0.039999127,0.04,-0.0009317551991960826,0.003024482600628986,0.006800890789926406,-0.02027866385149516,0.1161271360980683,-0.12971524349891178,0.9918559182250531,-0.014450074005078289,-0.0852703155586368,-0.09349869586103876
832.5833333329048,-0.07638919,-0.58213866,0.09312421,-2.1893287,-0.14193685,1.4390924,0.74628776,0.039999112,0.04,-0.0005767730295369589,0.0029441219533174467,0.006621095789038911,-0.02028294782160294,0.11653428073427152,-0.12974828253713216,0.9916483840090348,-0.014646676673156035,-0.08641260791451212,-0.09461405047938062
832.5999999995714,-0.07739486,-0.5794789,0.09434899,-2.187134,-0.14380339,1.4373592,0.74576586,0.03999909,0.04,-8.024253641547574e-05,0.0028049179491188014,0.006792212222062055,-0.02028381454373863,0.11692374263984827,-0.1297636827644831,0.9914379136636315,-0.014843845179245743,-0.08755816772783796,-0.09572925819593409
832.6166666662381,-0.07840334,-0.57681173,0.09557725,-2.1849334,-0.14567511,1.4356213,0.7452425,0.03999907,0.04,-0.0007860839175588552,0.002670109821108213,0.006492541644709249,-0.020280195322526555,0.11729667372471332,-0.12975917696272246,0.991224518053151,-0.01504155957944622,-0.08870697495942748,-0.09684409578938648
832.6333333329047,-0.079414494,-0.5741372,0.096808836,-2.1827266,-0.14755188,1.4338785,0.74471766,0.039999064,0.04,-0.0003129863620277007,0.0025764443419853955,0.006565279483261577,-0.020272216623729543,0.11765187800147749,-0.1297339337834795,0.9910082162622387,-0.015239789957630274,-0.08985882901781964,-0.09795843480951236
832.6499999995714,-0.0804282,-0.57145596,0.09804358,-2.180514,-0.14943339,1.4321316,0.7441915,0.03999905,0.04,-0.0003108780992633342,0.0024058784719199755,0.006440899492754504,-0.020260282203982884,0.11798979564892416,-0.12969133959900062,0.9907890523936471,-0.015438486279523883,-0.09101335148544969,-0.09907207805270737
832.666666666238,-0.08144436,-0.5687684,0.09928139,-2.1782966,-0.1513194,1.4303803,0.74366415,0.03999903,0.04,-0.0010330848908335355,0.002302357736573557,0.005635019190264323,-0.020244238092279446,0.11831155592354846,-0.12963103447358473,0.9905670113093119,-0.01563760945012893,-0.09217078798607686,-0.10018486471742423
832.6833333329047,-0.08246282,-0.56607443,0.10052209,-2.1760743,-0.15320976,1.4286252,0.7431356,0.03999902,0.04,-0.0014229393563436332,0.00222429559403603,0.006020405595053013,-0.020224592705456457,0.11861402929149097,-0.12955143589637047,0.9903421138640826,-0.01583718326003031,-0.0933309665525674,-0.10129665254080489
832.6999999995713,-0.08348347,-0.5633746,0.10176551,-2.1738467,-0.15510422,1.4268663,0.7426059,0.039999,0.04,-0.0001625970138530164,0.0020860961722421467,0.006003483576266788,-0.020200537071665796,0.11889706763193811,-0.12945438923167676,0.9901144182354537,-0.01603709478223935,-0.09449338992070247,-0.10240727344534038
832.716666666238,-0.084506206,-0.56066936,0.10301153,-2.1716144,-0.15700252,1.4251038,0.742075,0.039998997,0.04,-0.0002838083734024721,0.0019190816397382515,0.005629788783356737,-0.02017233117727506,0.11916368896803015,-0.12933676790176946,0.9898839492541345,-0.016237441265007042,-0.09565790098755446,-0.10351656142308265
832.7333333329046,-0.08553089,-0.5579588,0.10425997,-2.1693778,-0.15890445,1.4233377,0.7415431,0.039998982,0.04,-0.0010907739739440814,0.0018930318906054677,0.005371683891097767,-0.020139658716273677,0.11941439269657435,-0.1292026015773039,0.9896507027301286,-0.01643810674029658,-0.09682470437550271,-0.10462433682061577
832.7499999995713,-0.08655739,-0.55524373,0.105510674,-2.1671376,-0.16080973,1.4215685,0.7410103,0.039998967,0.04,-0.0011060684634189855,0.0017115182537469353,0.0048434393795648845,-0.020102918225501334,0.11964516780431685,-0.1290492836768164,0.9894147240780665,-0.01663904249827764,-0.09799345100833937,-0.10573045730412936
832.7666666662379,-0.087585576,-0.552524,0.10676351,-2.1648934,-0.1627182,1.4197965,0.7404765,0.03999895,0.04,-0.0006622769173070253,0.0016103248130450165,0.005433225327844404,-0.020062785921420734,0.11985690790701428,-0.12887970991183584,0.9891760492295825,-0.016840324739535006,-0.09916388936992249,-0.10683477962841165
832.7833333329046,-0.088615336,-0.5497999,0.10801833,-2.162646,-0.16462956,1.4180214,0.73994213,0.03999893,0.04,-0.0017380713060788366,0.0014922877962966763,0.004574288752778877,-0.020017746853894056,0.12005342050654627,-0.1286930203815163,0.988934672243347,-0.017041716034966382,-0.10033630010389007,-0.1079371151689239
832.7999999995712,-0.08964651,-0.54707205,0.10927499,-2.1603951,-0.16654365,1.416244,0.73940694,0.03999892,0.04,-0.0003649582971831933,0.0012930793425888765,0.005032715365049789,-0.019970174181468653,0.12022748755901681,-0.12848672187455942,0.9886906788593552,-0.0172433781734982,-0.10150991043817101,-0.10903735840815097
832.8166666662379,-0.090679005,-0.54434055,0.110533305,-2.1581414,-0.16846018,1.4144646,0.73887104,0.039998908,0.04,-0.0012757952974062903,0.0012568566529411185,0.004811931825998705,-0.01991825046015911,0.12038495512306174,-0.12826514628209784,0.9884440857110791,-0.017445258206099577,-0.10268478554019927,-0.11013531317191036
832.8333333329045,-0.09171268,-0.5416059,0.11179314,-2.1558855,-0.17037892,1.4126829,0.73833454,0.039998896,0.04,-0.0019008227649885967,0.0011631549456478374,0.003950967557919682,-0.01986154907549497,0.12052566493006422,-0.1280244323395725,0.98819488868594,-0.01764728958042915,-0.10386113570283789,-0.11123083941049733
832.8499999995712,-0.092747405,-0.53886837,0.11305436,-2.1536272,-0.1722997,1.4108995,0.7377975,0.039998878,0.04,-0.0011276399893844768,0.0009678725416378819,0.004379140079557864,-0.019801812453320328,0.12064450389951087,-0.1277688406380324,0.9879431637262641,-0.01784947097288016,-0.10503837623043906,-0.11232382272430534
832.8666666662378,-0.09378309,-0.5361283,0.11431679,-2.151366,-0.17422223,1.4091145,0.7372599,0.039998863,0.04,-9.382175616412525e-05,0.0008428316470618369,0.00445553250594255,-0.019737317920422597,0.12074609661612012,-0.12749484198284783,0.9876889781115291,-0.018051746769311518,-0.10621610585476556,-0.11341409000926343
832.8833333329045,-0.094819546,-0.5333862,0.11558027,-2.1491036,-0.17614622,1.4073279,0.73672193,0.039998855,0.04,-0.0020752304602744687,0.0007475972483572679,0.0033134426088876623,-0.019668685413810477,0.1208320468320393,-0.12720352719212338,0.9874323065642524,-0.018254105710175845,-0.10739479989120422,-0.1145014608389354
832.8999999995712,-0.0958567,-0.530642,0.11684465,-2.1468399,-0.17807148,1.40554,0.7361836,0.039998837,0.04,-0.0017985941072495848,0.0006714750271807901,0.003656319096689842,-0.019596431843752232,0.12089752413069094,-0.12689662026745102,0.987173195286597,-0.018456515131352574,-0.10857422972756473,-0.11558579582250737
832.9166666662378,-0.096894406,-0.5278964,0.11810979,-2.1445749,-0.17999782,1.4037513,0.73564506,0.03999882,0.04,-0.001270047424628551,0.0005109924162555179,0.0034788624161397053,-0.01952099472852946,0.12094149677794071,-0.12657492213795768,0.9869117167430096,-0.01865889172338164,-0.10975389577497498,-0.11666701109241044
832.9333333329045,-0.09793252,-0.5251496,0.11937552,-2.1423092,-0.18192491,1.4019616,0.73510617,0.039998807,0.04,-0.0019530104047982277,0.00038614675124948317,0.00303686792613167,-0.019441583346412356,0.12096881116354057,-0.1262347225816603,0.986647877540013,-0.018861330387371207,-0.11093402332729041,-0.11774488706617414
832.9499999995711,-0.09897097,-0.522402,0.12064171,-2.1400423,-0.18385258,1.4001714,0.73456717,0.039998785,0.04,-0.0006129320836878449,0.00025355533832538413,0.0033868098645584155,-0.01935852874488514,0.1209747016149009,-0.12588174426481769,0.9863817806684134,-0.019063681148343413,-0.11211387613396838,-0.11881934861251126
832.9666666662378,-0.100009575,-0.51965404,0.12190819,-2.1377752,-0.18578066,1.3983812,0.7340279,0.03999877,0.04,-0.0015512513012128082,0.00016541366903710664,0.002985111075926028,-0.01927092191676425,0.1209651967635465,-0.12551000680397953,0.9861134466208212,-0.019266061205530483,-0.11329347144092428,-0.11989027737099536
832.9833333329044,-0.101048216,-0.5169057,0.123174794,-2.1355078,-0.1877088,1.3965908,0.7334887,0.039998762,0.04,-0.0016688197405967387,1.0415673923347413e-05,0.0027755977496379813,-0.019178899590231065,0.12093800681100594,-0.12512344254106555,0.9858429042357703,-0.019468334036503596,-0.1144728931561061,-0.12095746719527437
832.9999999995711,-0.102086745,-0.51415753,0.124441385,-2.1332407,-0.1896368,1.3948007,0.73294944,0.039998747,0.04,-0.0017995055875408283,-0.00012275621558005545,0.0025988556570766264,-0.019083826338823134,0.1208922640723006,-0.1247230559025395,0.9855702061336871,-0.01967053131104322,-0.11565188791578687,-0.12202081708076266
833.0166666662377,-0.103125066,-0.51140994,0.12570779,-2.130974,-0.1915644,1.3930105,0.73241043,0.03999873,0.04,-0.0016729239905366455,-0.00019676103943655487,0.0019731709470338643,-0.018984412183451177,0.12082653104767563,-0.12430772002271723,0.9852953893987778,-0.019872478945611366,-0.11683042585025095,-0.12308018445597235
833.0333333329044,-0.10416303,-0.5086631,0.1269739,-2.1287081,-0.19349138,1.3912213,0.73187166,0.03999872,0.04,-0.0017461415833253113,-0.00041055369989911883,0.0024841257856733634,-0.018881919569080675,0.1207418281279383,-0.12387439506177467,0.9850185333291598,-0.02007426467196514,-0.11800804613615051,-0.12413546609683689
833.049999999571,-0.10520053,-0.5059175,0.12823948,-2.1264436,-0.19541752,1.3894327,0.7313331,0.0399987,0.04,-0.0024304787908269176,-0.0003430687458116921,0.0015232667021747304,-0.018775757435519864,0.12064042999812123,-0.12342851565605606,0.984739636596522,-0.02027585392788764,-0.11918506286096074,-0.12518649549401736
833.0666666662377,-0.10623744,-0.50317353,0.12950443,-2.1241798,-0.19734253,1.3876452,0.7307947,0.039998677,0.04,-0.0007354904717260524,-0.0006713373737921025,0.0021015408601332553,-0.01866658545826533,0.1205162744784866,-0.12296879233184844,0.9844588391001858,-0.020477220756639918,-0.12036057178626589,-0.12623315850790212
833.0833333329043,-0.10727363,-0.50043136,0.1307686,-2.1219175,-0.19926624,1.3858589,0.73025686,0.03999867,0.04,-0.0017443267710248733,-0.0006999829256476575,0.0015178173538021866,-0.018552721493803655,0.1203793161657124,-0.1224929462924971,0.9841761334293423,-0.02067826727290384,-0.12153489355819001,-0.12727536013879265
833.099999999571,-0.10830896,-0.49769148,0.13203183,-2.1196573,-0.20118845,1.384074,0.7297193,0.039998658,0.04,-0.002211497932580464,-0.0007681942014003962,0.0010810756857715376,-0.018436531273404236,0.12022216422458475,-0.12200485316411866,0.9838915591660434,-0.020879095686443867,-0.12270795199526122,-0.12831298329575744
833.1166666662376,-0.109343335,-0.49495405,0.13329397,-2.1173992,-0.20310882,1.3822907,0.7291822,0.03999864,0.04,-0.002074486536352005,-0.000953743260655171,0.0011550247002833913,-0.01831593783252214,0.12004682224139608,-0.12150262475943042,0.9836051851253588,-0.021079622016746236,-0.12387952867711574,-0.1293458607952942
833.1333333329043,-0.1103766,-0.49221948,0.13455488,-2.1151435,-0.20502712,1.3805095,0.7286458,0.039998624,0.04,-0.0019325529156954957,-0.0011261153448488548,0.001038767047178979,-0.018191824906776115,0.11985147502725392,-0.12098558651503219,0.9833170828815134,-0.021279749124398898,-0.12504932760215315,-0.13037389484418666
833.1499999995709,-0.11140861,-0.4894881,0.13581438,-2.1128905,-0.20694317,1.37873,0.7281101,0.03999861,0.04,-0.0019604527109695624,-0.0011791662508919831,0.0004945061354399982,-0.018064850003126638,0.11963921528617123,-0.12045505198349712,0.9830272789385534,-0.02147947629446154,-0.12621741057952698,-0.13139697952151858
833.1666666662376,-0.11243926,-0.4867603,0.1370723,-2.11064,-0.2088568,1.3769531,0.72757494,0.03999859,0.04,-0.0014329797920265008,-0.0012454468989869794,0.0008065807929558133,-0.017935164206848254,0.11940756954083526,-0.11991261712827014,0.9827358755258521,-0.021678839359979,-0.12738322580625352,-0.13241503185678802
833.1833333329042,-0.11346844,-0.48403636,0.13832854,-2.1083927,-0.21076761,1.3751788,0.7270406,0.039998583,0.04,-0.0018685059125944647,-0.0015490610861035314,0.00043276347645448965,-0.01780122987952809,0.11915920643790195,-0.11935551602703669,0.9824429205169891,-0.021877781864243145,-0.12854677629973946,-0.13342787148753504
833.1999999995709,-0.11449597,-0.48131654,0.1395829,-2.106149,-0.21267547,1.3734072,0.726507,0.03999857,0.04,-0.0023115136181139917,-0.001538383034310753,8.842217518179041e-05,-0.017664345563000356,0.11889463375378755,-0.1187868043785867,0.9821484418318996,-0.022076314778892724,-0.12970810572793465,-0.13443541885018895
833.2166666662375,-0.115521766,-0.47860137,0.14083526,-2.103909,-0.21458015,1.3716384,0.72597444,0.039998554,0.04,-0.0020503307679664573,-0.0016365504461601788,-0.00039480792535240283,-0.01752375220591977,0.11861099841452537,-0.11820540316220537,0.9818524998720155,-0.02227428340177234,-0.13086704105639096,-0.13543759581134093
833.2333333329042,-0.11654571,-0.475891,0.14208542,-2.1016736,-0.21648139,1.3698729,0.7254428,0.039998535,0.04,-0.0029410839809562717,-0.0016983798174330378,-0.0004490118650890551,-0.01738098375811098,0.11830953988794783,-0.1176119833348194,0.9815551403972361,-0.022471765616305737,-0.13202356052120695,-0.1364342536797524
833.2499999995708,-0.117567696,-0.47318587,0.14333327,-2.0994422,-0.21837889,1.368111,0.72491217,0.039998524,0.04,-0.0017012225896007038,-0.0019635951361646198,-0.0002843858604606453,-0.01723491400829886,0.11798691215115033,-0.11700480999133163,0.9812564839123646,-0.022668735213702766,-0.13317708006799475,-0.1374252763079527
833.2666666662375,-0.11858754,-0.47048625,0.14457865,-2.0972157,-0.22027251,1.3663527,0.7243826,0.03999851,0.04,-0.0024761765278213943,-0.002016739534621559,-0.0008745851205249622,-0.01708602904657524,0.11764901951035026,-0.11638729368097193,0.9809565393913794,-0.02286516888443559,-0.13432779646096782,-0.13841060282766005
833.2833333329041,-0.11960516,-0.46779248,0.14582142,-2.094994,-0.22216207,1.3645983,0.7238541,0.039998494,0.04,-0.0024287871348116497,-0.002077725738983127,-0.0009552684831160008,-0.01693419758731935,0.11729237208231777,-0.11575865322352132,0.9806553766713432,-0.023061033199998034,-0.1354754779050774,-0.13939015689683962
833.2999999995708,-0.1206204,-0.4651049,0.14706142,-2.0927768,-0.22404723,1.3628478,0.7233269,0.039998483,0.04,-0.0009759159548483609,-0.002397282318705729,-0.0007934974987078292,-0.016778984538770282,0.1169178253227103,-0.11511717022966668,0.9803531209904901,-0.023256238458741908,-0.13661957303596844,-0.14036380516509636
833.3166666662374,-0.12163317,-0.46242374,0.14829847,-2.090565,-0.22592781,1.3611014,0.7228012,0.03999847,0.04,-0.002535299219363907,-0.002274061963336571,-0.0015451302007862822,-0.01662098298952774,0.11652864998017173,-0.11446465606068032,0.9800497605359075,-0.02345067468812722,-0.1377604851826351,-0.14133145952839674
833.3333333329041,-0.122643344,-0.45974946,0.14953247,-2.0883596,-0.22780357,1.3593595,0.7222767,0.039998453,0.04,-0.0033702937928481447,-0.002439006021373591,-0.0020186397007959656,-0.016462029161115357,0.11612119256575347,-0.11380151193025285,0.9797453324413832,-0.023644552253698443,-0.13889822639052438,-0.1422930125256064
833.3499999995707,-0.12365078,-0.45708233,0.1507633,-2.0861597,-0.22967431,1.3576224,0.7217535,0.03999844,0.04,-0.0016189401937038994,-0.002734247867744455,-0.0014719788687944657,-0.01629986908051604,0.11569376413664412,-0.11312781184759789,0.9794399793737344,-0.023837801801902,-0.1400320566915889,-0.14324841747243047
833.3666666662374,-0.12465538,-0.45442274,0.15199077,-2.0839665,-0.23153977,1.35589,0.7212317,0.039998423,0.04,-0.0029680912481788724,-0.002660605859877707,-0.0024325651802881154,-0.016134066842354425,0.11525113684493321,-0.11244307722442598,0.9791336971337569,-0.024030352180740972,-0.14116235993531287,-0.14419755007885268
833.383333332904,-0.12565699,-0.45177087,0.1532147,-2.081779,-0.23339975,1.354163,0.72071165,0.03999841,0.04,-0.00130338368498073,-0.0028947138286383733,-0.0015558133413584585,-0.015966138389065226,0.11478825389326028,-0.1117486183506483,0.9788266559849907,-0.024222057306238883,-0.14228825398266035,-0.14514035362937366
833.3999999995707,-0.12665553,-0.44912714,0.15443496,-2.0795984,-0.235254,1.3524413,0.7201932,0.039998394,0.04,-0.0026193390612494483,-0.002923526329298709,-0.0026195708320519984,-0.015796565774239976,0.11431381958227627,-0.11104464514555551,0.9785188378622428,-0.024412983454164712,-0.14341018285725068,-0.1460767251838647
833.4166666662373,-0.12765086,-0.4464919,0.15565144,-2.077425,-0.23710237,1.350725,0.7196763,0.039998382,0.04,-0.002529438756448954,-0.0030341336926670293,-0.0028133931718299365,-0.015624358938426832,0.11382027644751751,-0.11032898309126403,0.978210308305176,-0.024603174566961275,-0.14452796721277586,-0.1470066094434635
833.433333332904,-0.1286428,-0.4438654,0.15686396,-2.0752585,-0.23894456,1.3490145,0.7191612,0.03999837,0.04,-0.0019132446099412448,-0.003308678781055452,-0.0026650287932472594,-0.01544970777273037,0.11330986745321434,-0.10960429602978802,0.9779011740617344,-0.024792532416119034,-0.14564122748701877,-0.14792990556730493
833.4499999995707,-0.1296313,-0.441248,0.1580724,-2.0730996,-0.2407803,1.3473098,0.71864784,0.039998353,0.04,-0.002530629251551453,-0.003351064386980518,-0.003258824826390949,-0.015273358993952815,0.11278513945267253,-0.10887155529422214,0.9775914696139262,-0.024981074945449083,-0.14675007025134199,-0.14884650252484927
833.4666666662373,-0.13061628,-0.43864003,0.15927662,-2.0709484,-0.24260943,1.3456116,0.7181363,0.03999834,0.04,-0.0021268273056707088,-0.0034166361727316907,-0.003002616968461602,-0.015094403725076231,0.11224233526426197,-0.10812892574816257,0.9772813019962164,-0.025168751856964853,-0.14785404653624987,-0.14975637422627192
833.483333332904,-0.13159755,-0.43604168,0.16047643,-2.0688052,-0.24443172,1.3439194,0.7176268,0.039998323,0.04,-0.002647427667290536,-0.0035121657199793654,-0.0037306560386918264,-0.01491337406702141,0.11168634378494176,-0.10737791455616083,0.9769706814576367,-0.025355472302332874,-0.14895344028328625,-0.15065941797411836
833.4999999995706,-0.13257499,-0.43345332,0.16167179,-2.066671,-0.246247,1.3422335,0.7171193,0.039998308,0.04,-0.0032635131623104385,-0.003693417571731805,-0.0041911446083675585,-0.014731596138910211,0.11111121413848495,-0.10661841105565328,0.9766596365865936,-0.0255413298275312,-0.15004830830935031,-0.151555600050563
833.5166666662373,-0.13354853,-0.4308753,0.16286248,-2.0645454,-0.24805501,1.3405547,0.71661377,0.039998304,0.04,-0.002790990369416768,-0.0037333638853387363,-0.0038899135816450325,-0.014547621148635444,0.11051705597306903,-0.105848074123124,0.9763482972921675,-0.025726281893478434,-0.1511381232791405,-0.1524448375192876
833.5333333329039,-0.13451803,-0.42830783,0.16404834,-2.062428,-0.2498556,1.3388827,0.7161103,0.03999829,0.04,-0.001514734227447967,-0.0038860362306547547,-0.003839036497699233,-0.014361852598612026,0.10990788781733381,-0.10507121550640781,0.9760367647830004,-0.025910265564550995,-0.15222254252431133,-0.15332706700952287
833.5499999995706,-0.1354834,-0.4257513,0.16522934,-2.0603197,-0.25164843,1.3372178,0.71560895,0.03999827,0.04,-0.00246740017437741,-0.004114701542515253,-0.004367558042828179,-0.014174772963761295,0.10928470699558958,-0.10428752808805314,0.9757250745126063,-0.026093296139339472,-0.1533016581328504,-0.15420220646175042
833.5666666662372,-0.13644446,-0.42320606,0.16640523,-2.0582206,-0.25343338,1.3355603,0.71510977,0.03999825,0.04,-0.0023588769201943194,-0.004139907409109189,-0.004574234447018988,-0.013986036972869419,0.10864597150331097,-0.10349649367400451,0.9754132980390365,-0.02627537178211665,-0.15437529256778304,-0.15507021600208254
833.5833333329039,-0.13740115,-0.42067227,0.16757585,-2.0561314,-0.25521025,1.3339103,0.71461284,0.039998244,0.04,-0.002895832433247314,-0.004090139304546714,-0.004902032721543215,-0.013794489534684606,0.1079935097025746,-0.10269548892098794,0.9751014717527512,-0.026456421588151303,-0.15544354178877548,-0.15593101955201186
833.5999999995705,-0.13835336,-0.41815034,0.16874115,-2.0540514,-0.25697896,1.332268,0.71411836,0.039998226,0.04,-0.0016513435351139805,-0.004297757904084265,-0.004809332723665349,-0.013602574133281966,0.10732175239276293,-0.101889042401442,0.9747897101293572,-0.026636339597250567,-0.1565058932804281,-0.15678466700311916
833.6166666662372,-0.13930099,-0.4156405,0.16990095,-2.0519817,-0.25873902,1.3306335,0.71362615,0.039998215,0.04,-0.0028363153749655368,-0.0044816601223879315,-0.005371986165703113,-0.013409639012466619,0.10663945971221861,-0.10107405507081946,0.974478044844812,-0.02681525772587732,-0.15756259662663852,-0.15763093038105955
833.6333333329038,-0.1402439,-0.4131431,0.17105512,-2.0499225,-0.26049027,1.3290071,0.7131364,0.039998204,0.04,-0.0027733192644374682,-0.004589564602963669,-0.005558931725535565,-0.01321526644378299,0.10594025873874584,-0.10025396832637895,0.9741665486268236,-0.02699310070291713,-0.1586134781998072,-0.15846978445212753
833.6499999995705,-0.14118196,-0.41065836,0.17220356,-2.047873,-0.26223257,1.3273892,0.71264905,0.039998192,0.04,-0.0014026634983510533,-0.0048383385529787715,-0.005033015648647776,-0.013020184365069437,0.1052255821189929,-0.09942686176646102,0.9738553646257543,-0.027169880357980722,-0.15965789187297025,-0.15930123651011333
833.6666666662371,-0.14211513,-0.40818664,0.17334615,-2.0458348,-0.2639659,1.3257796,0.71216434,0.039998177,0.04,-0.0030436113615417426,-0.004607773630399548,-0.006317394705956936,-0.012823050448769895,0.10450015177230736,-0.09859428922534451,0.9735444261626329,-0.02734549345948703,-0.16069647487312727,-0.1601253172939157
833.6833333329038,-0.14304328,-0.40572822,0.17448269,-2.043807,-0.26568994,1.3241786,0.7116822,0.039998163,0.04,-0.001677274362799075,-0.004855931506272948,-0.005738414989187035,-0.012625666074467093,0.10375810691164,-0.09775478025725057,0.9732339089466289,-0.02751994659085648,-0.16172851974133462,-0.16094190541427683
833.6999999995704,-0.14396627,-0.40328318,0.17561309,-2.0417912,-0.26740444,1.3225868,0.7112028,0.039998155,0.04,-0.003673002219173327,-0.004954151496538994,-0.006279336003567337,-0.012427033765276199,0.10300430557076659,-0.09690803087124442,0.9729237942839009,-0.027693290532277027,-0.16275443583786672,-0.16175093752683564
833.7166666662371,-0.14488408,-0.40085208,0.17673722,-2.0397866,-0.26910922,1.3210037,0.7107261,0.03999815,0.04,-0.0019365897551582023,-0.0050374699420069335,-0.006642868260264834,-0.012227400446760194,0.10223289929096306,-0.09605520581359643,0.9726141941627763,-0.027865396418359997,-0.16377384364450953,-0.16255238273690265
833.7333333329037,-0.14579652,-0.398435,0.17785498,-2.0377936,-0.27080405,1.3194298,0.71025217,0.039998136,0.04,-0.002570469488261118,-0.0052981623635817154,-0.006605822961236463,-0.01202829192126173,0.10144916566109208,-0.0951986218629841,0.972305163606396,-0.02803632558423819,-0.1647867004724094,-0.1633461864246933
833.7499999995704,-0.1467035,-0.39603248,0.17896618,-2.0358124,-0.2724887,1.3178654,0.70978105,0.03999812,0.04,-0.0018389957111120125,-0.005359453434150563,-0.006715387718303489,-0.011828508409919725,0.10065026714225102,-0.09433704077717882,0.9719968262760925,-0.02820603096067365,-0.1657925662318006,-0.16413230793759973
833.766666666237,-0.14760494,-0.39364448,0.18007073,-2.0338435,-0.27416325,1.3163105,0.70931274,0.039998107,0.04,-0.0029312916847823445,-0.005222941469468223,-0.0071396273980894875,-0.011627835668144255,0.09984181788325891,-0.09347057237918513,0.9716891501453503,-0.028374549251133998,-0.16679182425824848,-0.16491078741309603
833.7833333329037,-0.1485007,-0.39127144,0.18116847,-2.0318873,-0.27582726,1.3147656,0.70884734,0.0399981,0.04,-0.0027497107740748206,-0.005525058586342002,-0.007307705239734119,-0.011426528467671839,0.09901697065922649,-0.09259834251269616,0.9713822437906054,-0.028541854667133416,-0.16778419291641197,-0.16568151251083327
833.7999999995703,-0.1493907,-0.38891363,0.1822594,-2.0299432,-0.27748054,1.3132303,0.708385,0.039998077,0.04,-0.0017465269958272245,-0.005825493957747896,-0.007415813100597468,-0.011223806567266001,0.09817999301018233,-0.09171969315511294,0.9710761968762555,-0.028707861012063227,-0.16876941695732384,-0.1664444726518274
833.816666666237,-0.15027484,-0.38657114,0.18334325,-2.0280123,-0.279123,1.3117055,0.7079256,0.03999807,0.04,-0.0029724478824322276,-0.005589335074748791,-0.007425163845975469,-0.011021418915083419,0.09733046571136998,-0.09083678345391996,0.9707710489633398,-0.0288726528051175,-0.16974753104741777,-0.1671996295388179
833.8333333329036,-0.15115301,-0.3842444,0.18441997,-2.0260942,-0.28075442,1.3101901,0.7074695,0.03999806,0.04,-0.0021243337966714293,-0.005873781031462411,-0.00845037325993836,-0.010818359539659378,0.09646766686474378,-0.08995130258661065,0.9704668233400323,-0.029035987830957805,-0.17071869904581796,-0.1679469618751418
833.8499999995703,-0.15202512,-0.38193363,0.18548946,-2.0241895,-0.2823746,1.308686,0.7070165,0.039998047,0.04,-0.0025140252026156773,-0.006016257741917053,-0.007347409011004835,-0.01061696886372977,0.09558994178228175,-0.08905994431211825,0.9701636889614278,-0.029198135069431513,-0.17168216443742734,-0.1686864545341487
833.8666666662369,-0.15289111,-0.37963915,0.18655162,-2.0222971,-0.2839833,1.3071928,0.7065667,0.039998036,0.04,-0.0007197770787392699,-0.006242413495316512,-0.007439498776218301,-0.010413715177246584,0.09470416892200036,-0.08816609497382374,0.9698617724818174,-0.029358939937074908,-0.1726375239824986,-0.16941806349203353
833.8833333329036,-0.15375085,-0.37736103,0.18760626,-2.020419,-0.28558055,1.3057083,0.70611995,0.039998025,0.04,-0.003111823428136873,-0.005870478560665582,-0.010229559552832335,-0.010210207139310357,0.09381249164176146,-0.0872703316626381,0.9695607965674437,-0.029518308714848424,-0.17358661562850322,-0.17014175879178328
833.8999999995702,-0.15460424,-0.3750997,0.18865332,-2.018554,-0.28716597,1.3042352,0.70567656,0.039998006,0.04,-0.0014830279204680608,-0.006432956832100323,-0.007893968081007507,-0.010009905921432808,0.09289778029390497,-0.08637090127872321,0.9692611396200791,-0.02967633360268989,-0.1745275455926152,-0.17085752624834807
833.9166666662369,-0.15545127,-0.37285537,0.18969268,-2.0167031,-0.28873947,1.3027736,0.70523655,0.039997987,0.04,-0.0021985724568907017,-0.0062927621207853335,-0.008513711360902398,-0.009808772293666189,0.09197624958266062,-0.08546910105344169,0.9689628013136625,-0.029832962725863662,-0.17546055915900607,-0.17156537000509736
833.9333333329035,-0.15629177,-0.37062815,0.19072427,-2.0148668,-0.29030094,1.3013234,0.7047999,0.039997976,0.04,-0.0027725883025464526,-0.006471253725831572,-0.008873082847071778,-0.009607647304272209,0.09104546306135759,-0.08456366057985956,0.9686657856004104,-0.029988304143099234,-0.17638585066253834,-0.1722652870076077
833.9499999995702,-0.15712564,-0.36841837,0.19174793,-2.013045,-0.2918502,1.2998847,0.7043667,0.03999797,0.04,-0.00234484425956083,-0.006518773141683809,-0.009122169563124949,-0.009405652241451056,0.09010226940142185,-0.08365471255884635,0.9683701667690626,-0.03014226010960352,-0.1773032624373794,-0.17295727043465028
833.9666666662368,-0.15795282,-0.3662262,0.19276355,-2.011238,-0.2933871,1.2984574,0.7039369,0.03999796,0.04,-0.002475889427078215,-0.006576374785288719,-0.009424734812779612,-0.009204314437517505,0.08914855187084708,-0.08274293746836575,0.968075987631312,-0.03029484643349037,-0.1782128420277465,-0.17364126061401616
833.9833333329035,-0.15877324,-0.36405194,0.19377097,-2.0094457,-0.29491132,1.2970415,0.7035106,0.039997954,0.04,-0.0017677131362692222,-0.006678011828445407,-0.009523905067787553,-0.009003253175936914,0.08818300611123037,-0.08182914969691629,0.9677833492146279,-0.03044594472131031,-0.17911433351777717,-0.17431720787526137
833.9999999995702,-0.15958682,-0.36189574,0.19477016,-2.007668,-0.29642293,1.295638,0.7030878,0.039997943,0.04,-0.0018535845974110288,-0.006786319343302094,-0.009106317966889321,-0.008803335166075569,0.08720735083287855,-0.08091377377547913,0.9674923391737591,-0.030595665998971115,-0.18000738351657658,-0.17498520149339314
834.0166666662368,-0.16039349,-0.35975793,0.19576101,-2.0059052,-0.29792172,1.2942464,0.7026687,0.039997928,0.04,-0.0014416037859454889,-0.006874788020835854,-0.009543962090230451,-0.008602825717948697,0.08622396366348836,-0.0799960627532103,0.9672030133578051,-0.03074386514191829,-0.18089194801592984,-0.17564523577575045
834.0333333329035,-0.16119312,-0.3576387,0.19674343,-2.0041578,-0.29940742,1.292867,0.7022533,0.039997917,0.04,-0.002272616738596689,-0.007065470023948084,-0.010111013091385068,-0.008403424952957567,0.08523310498202517,-0.07907669210572038,0.9669153736974513,-0.03089063591777882,-0.18176830084921305,-0.17629723062630148
834.0499999995701,-0.1619857,-0.3555382,0.19771731,-2.0024264,-0.30088004,1.2914996,0.7018415,0.03999791,0.04,-0.0026773199221619137,-0.006890169109338706,-0.010456581474493909,-0.008204528892868863,0.0842324316435792,-0.07815589491608617,0.9666294323714691,-0.03103595659363085,-0.18263654970559517,-0.17694123483000043
834.0666666662368,-0.162771,-0.3534565,0.19868255,-2.000711,-0.30233926,1.2901449,0.7014335,0.0399979,0.04,-0.0026423031908473504,-0.007318401089864701,-0.01013765162436453,-0.008006394014584065,0.08321912941281355,-0.07723267499776658,0.9663452938316884,-0.03117986605129086,-0.1834964180461714,-0.17757717647996354
834.0833333329034,-0.16354905,-0.35139406,0.19963904,-1.9990112,-0.3037851,1.2888027,0.7010292,0.03999789,0.04,-0.0014879001372980483,-0.0072091471746249525,-0.010342715469269237,-0.007808667890610002,0.08219660672411286,-0.07630865362691396,0.9660630432174802,-0.03132229714558253,-0.18434760652771168,-0.1782051351628472
834.0999999995701,-0.16431983,-0.34935105,0.20058672,-1.9973271,-0.30521718,1.2874727,0.70062864,0.039997876,0.04,-0.0014944058302823748,-0.007403621619048173,-0.010864608540628318,-0.007611241284777772,0.08116641118949405,-0.07538357505929183,0.9657827151873634,-0.03146317947095732,-0.18519027093770069,-0.17882499526890433
834.1166666662367,-0.1650832,-0.3473276,0.20152546,-1.9956589,-0.3066356,1.2861557,0.70023197,0.039997865,0.04,-0.0014308602077184318,-0.007390892165407004,-0.010366491881708129,-0.00741582663253266,0.08012689687805097,-0.07445852133227579,0.9655044062485494,-0.0316025389190451,-0.18602400788352888,-0.17943686783784193
834.1333333329034,-0.16583909,-0.34532392,0.20245522,-1.9940071,-0.3080401,1.2848514,0.6998391,0.039997857,0.04,-0.0019917808208758103,-0.007534179862414558,-0.011088881335163947,-0.007220575040292386,0.07908169254334638,-0.0735319443244477,0.9652281035683932,-0.031740421580146526,-0.18684912504302786,-0.18004071259115983
834.14999999957,-0.1665874,-0.34334013,0.20337586,-1.9923719,-0.30943066,1.2835603,0.6994502,0.039997842,0.04,-0.0020212977797529064,-0.007567154226578721,-0.010968629687524434,-0.00702696008474599,0.07802701016878992,-0.0726062434636073,0.9649538738014279,-0.03187680484583716,-0.187665466437373,-0.18063655071795778
834.1666666662367,-0.16732812,-0.34137648,0.20428732,-1.9907534,-0.31080705,1.2822821,0.69906527,0.039997835,0.04,-0.0018463453524075746,-0.007629932995961708,-0.011345101675708236,-0.006833268274705954,0.07696474914718081,-0.07167910658778284,0.9646817614413121,-0.03201161618833693,-0.1884730325753684,-0.18122436801749994
834.1833333329033,-0.1680612,-0.3394332,0.2051895,-1.9891512,-0.31216922,1.2810173,0.69868433,0.039997827,0.04,-0.0010274051707392928,-0.007689927187176648,-0.011013363222800443,-0.006641205123979102,0.0758934236285038,-0.07075094615573141,0.9644118823359953,-0.03214484147779982,-0.18927139243989197,-0.18180420891545415
834.19999999957,-0.16878651,-0.33751032,0.20608228,-1.9875664,-0.313517,1.2797655,0.69830745,0.039997816,0.04,-0.0023246400120857658,-0.007721809783589606,-0.011940119553077722,-0.006450057686396551,0.07481752100486919,-0.06982262312256525,0.9641441642603127,-0.032276490963422354,-0.19006115904666573,-0.18237602494765953
834.2166666662366,-0.16950403,-0.33560815,0.20696571,-1.985998,-0.3148504,1.2785275,0.69793457,0.03999781,0.04,-0.0008536448522056261,-0.007966678955179107,-0.011039710485172272,-0.006260938288677179,0.07373212021231645,-0.06889522467818102,0.9638787927398608,-0.03240663709524332,-0.19084145655532025,-0.18293993888260107
834.2333333329033,-0.17021367,-0.3337267,0.20783958,-1.9844474,-0.31616902,1.2773031,0.69756573,0.0399978,0.04,-0.0024488464983818403,-0.007926838754115928,-0.011938096273134136,-0.006072010817251598,0.07264363938996864,-0.06796768863028387,0.9636157102867643,-0.03253526659656727,-0.19161293566266835,-0.18349578252036022
834.2499999995699,-0.17091534,-0.33186635,0.20870388,-1.9829139,-0.3174731,1.276092,0.6972011,0.039997794,0.04,-0.0011468001546388606,-0.007982597921624146,-0.012083638435855804,-0.005884010612131103,0.07154548871204655,-0.06704079122019745,0.9633549775110356,-0.03266226716986735,-0.19237529118964367,-0.184043774542189
834.2666666662366,-0.17160898,-0.33002707,0.20955849,-1.981398,-0.3187623,1.274895,0.6968406,0.039997786,0.04,-0.001924008470743921,-0.008119006402210194,-0.011927828947144725,-0.005698329661143552,0.07044144010553424,-0.06611486729092979,0.9630966588329333,-0.03278772436616069,-0.19312850053016242,-0.18458378357456112
834.2833333329032,-0.17229465,-0.32820907,0.2104034,-1.9798994,-0.32003653,1.2737119,0.6964843,0.039997775,0.04,-0.001112083901366745,-0.008179320781526167,-0.011783723883862507,-0.00551368707270579,0.06933129869920188,-0.06518997435775928,0.962840846839144,-0.032911567276231644,-0.19387224711413165,-0.18511586694937715
834.2999999995699,-0.17297222,-0.32641247,0.21123852,-1.9784186,-0.3212957,1.2725422,0.69613224,0.039997768,0.04,-0.0016184119586482026,-0.008190283237569096,-0.012746799972740419,-0.0053298697471074585,0.06821744968185495,-0.06426543976204593,0.9625874736171651,-0.03303378939957516,-0.19460706715997278,-0.18564001132466545
834.3166666662365,-0.17364162,-0.3246375,0.21206374,-1.9769558,-0.32253975,1.2713869,0.6957843,0.03999776,0.04,-0.0016100694479659339,-0.008260660808065423,-0.012297855635035049,-0.005148675669175776,0.06709445021008337,-0.06334213341891014,0.9623366520965193,-0.03315450543870979,-0.19533252564845435,-0.18615625486287962
834.3333333329032,-0.17430276,-0.32288417,0.21287905,-1.9755106,-0.32376853,1.2702459,0.6954406,0.03999775,0.04,-0.001100553138821958,-0.008503971012374656,-0.012011432180880632,-0.0049677378138527255,0.06596741126307348,-0.062420327679850375,0.9620884637725088,-0.033273671029363704,-0.19604838239728908,-0.18666462560295166
834.3499999995698,-0.17495567,-0.3211527,0.21368437,-1.9740832,-0.32498208,1.2691191,0.69510126,0.03999774,0.04,-0.0009380005874026764,-0.008342293147703406,-0.012443906161507812,-0.004787671020220783,0.06483713439362683,-0.06150053836500686,0.9618429159488708,-0.03339117450416642,-0.19675472923380177,-0.1871651971610615
834.3666666662365,-0.17560025,-0.31944305,0.21447967,-1.9726747,-0.3261802,1.2680067,0.6947661,0.039997738,0.04,-0.0026457034345339636,-0.008479794122609463,-0.013077295040653247,-0.004609246637122081,0.06370325378497274,-0.06058077618391494,0.9615999372521116,-0.03350723899227873,-0.19745211331060578,-0.18765790300710808
834.3833333329031,-0.17623654,-0.31775552,0.21526487,-1.9712839,-0.32736275,1.2669086,0.6944354,0.039997734,0.04,-0.00042274748401904816,-0.0085685899960386,-0.012420952470160174,-0.0044310048596016595,0.06256099739061027,-0.05966286333087504,0.9613597325187618,-0.03362158036418929,-0.19813971063744812,-0.18814278910916962
834.3999999995698,-0.17686442,-0.31609035,0.21603994,-1.9699113,-0.32852978,1.265825,0.6941091,0.039997727,0.04,-0.0008902204805316671,-0.00865510113748913,-0.01292063941278343,-0.004255245950998006,0.06141752520621134,-0.05874772559197495,0.9611222763273383,-0.03373432046138562,-0.19881771487986868,-0.1886199401450213
834.4166666662364,-0.17748383,-0.31444743,0.21680471,-1.9685576,-0.3296812,1.2647557,0.6937871,0.03999772,0.04,-0.0018370444167858935,-0.008472409827708915,-0.013373318753595598,-0.004080498329904796,0.060270766140156216,-0.057833403021631535,0.9608875259161521,-0.03384545405704867,-0.19948653618496934,-0.18908931661871084
834.4333333329031,-0.17809479,-0.31282693,0.21755923,-1.9672219,-0.3308168,1.263701,0.6934694,0.039997704,0.04,-0.00047398891831473833,-0.008783396121100906,-0.012801027882303195,-0.0039079263754918025,0.05911751015844481,-0.056922593935111974,0.9606556320470573,-0.03395499694770178,-0.20014560509961876,-0.18955092075180707
834.4499999995697,-0.17869726,-0.31122887,0.21830349,-1.9659047,-0.33193666,1.262661,0.6931563,0.039997697,0.04,-0.0012253504606984933,-0.008761158641618083,-0.01299747672129925,-0.0037363913571225723,0.057963384852112915,-0.05601374211887969,0.960426579849029,-0.034062882236528445,-0.20079506687333912,-0.19000485754992796
834.4666666662364,-0.1792912,-0.30965343,0.21903735,-1.9646064,-0.33304062,1.2616357,0.69284743,0.039997693,0.04,-0.001311430905870381,-0.008714110762425564,-0.01338910275290317,-0.0035665510998581806,0.05680579612201976,-0.05510641213846236,0.9602003778127522,-0.03416923984004824,-0.2014350646458089,-0.19045107568123637
834.483333332903,-0.17987658,-0.30810067,0.21976085,-1.9633268,-0.33412877,1.2606252,0.69254315,0.039997682,0.04,-0.001005504577200611,-0.008796654709852803,-0.01317068432855617,-0.003397924699272645,0.0556444278966755,-0.054202640100912414,0.9599770817390274,-0.03427393968977528,-0.2020653744703114,-0.19088971694183873
834.4999999995697,-0.18045333,-0.30657065,0.22047384,-1.9620659,-0.3352009,1.2596294,0.6922433,0.039997675,0.04,-0.0009365735601063463,-0.008814891264119495,-0.013543325508869053,-0.0032305085166842865,0.0544816047486607,-0.05330045473042018,0.9597567008786154,-0.03437701097457659,-0.20268617529436153,-0.19132070086530895
834.5166666662363,-0.18102147,-0.30506358,0.22117639,-1.960824,-0.33625698,1.2586486,0.6919479,0.03999767,0.04,-0.0009698312585015856,-0.008964332506050665,-0.013341085647211592,-0.003065111064213152,0.05331540872419536,-0.052401346474842854,0.9595393039068686,-0.03447850678234718,-0.20329720713844715,-0.1917441065526893
834.533333332903,-0.181581,-0.3035793,0.22186838,-1.9596009,-0.33729708,1.2576828,0.691657,0.039997667,0.04,-0.0009373973561377369,-0.00872278875639898,-0.01341884243801772,-0.0029005750658044503,0.05214855227589868,-0.0515054092453284,0.9593248838431077,-0.03457833175078517,-0.20389861351075778,-0.19215998964698963
834.5499999995696,-0.1821318,-0.3021181,0.22254981,-1.9583967,-0.33832097,1.2567319,0.6913708,0.039997663,0.04,-0.0006057694753813792,-0.009122464426059018,-0.013584250141152054,-0.0027380944632993754,0.05097978245393523,-0.050612105813199935,0.9591135022599444,-0.034676483815925224,-0.20449025995333286,-0.19256833809597484
834.5666666662363,-0.18267392,-0.30067995,0.22322068,-1.9572116,-0.33932865,1.2557963,0.6910889,0.03999766,0.04,-0.0010738793348563647,-0.009017424309479272,-0.013446234458269757,-0.0025778114317479266,0.04981041083290026,-0.049722090248275834,0.9589051786488156,-0.03477314862236916,-0.20507214272190447,-0.19296917571160546
834.583333332903,-0.18320724,-0.29926482,0.22388089,-1.9560456,-0.34032023,1.2548757,0.69081163,0.039997652,0.04,-0.0009074909024242572,-0.00895698703886616,-0.013737724542939311,-0.002417974528027316,0.048641011430653386,-0.04883663411029095,0.9586998870406944,-0.03486817849431472,-0.2056444461135055,-0.1933626088449316
834.5999999995696,-0.18373188,-0.29787293,0.2245305,-1.954899,-0.34129557,1.25397,0.6905388,0.03999765,0.04,-0.0009248193393096571,-0.009031474024120967,-0.01395667348911278,-0.0022594466116207168,0.0474695123805686,-0.04795393874621068,0.9584976596215956,-0.03496162172264955,-0.20620715047622715,-0.19374863250851765
834.6166666662363,-0.1842478,-0.2965041,0.2251695,-1.9537714,-0.34225473,1.2530795,0.6902706,0.039997645,0.04,-0.0007824357463936948,-0.00900979246439837,-0.013631857858720231,-0.002102889244672819,0.04629733632623736,-0.04707456551482084,0.9582985297232491,-0.035053443341840435,-0.20676016893913626,-0.1941273205409256
834.6333333329029,-0.1847549,-0.29515848,0.22579773,-1.9526625,-0.34319752,1.2522041,0.690007,0.039997637,0.04,-0.00013523815807214845,-0.009166530013687835,-0.0136195694738106,-0.0019476558970316928,0.04512458915114834,-0.046199300947733384,0.9581025701289421,-0.03514361055452386,-0.2073033416336724,-0.19449862800806697
834.6499999995696,-0.18525325,-0.29383612,0.22641532,-1.951573,-0.34412393,1.2513436,0.68974787,0.03999763,0.04,-0.0009873479372091154,-0.009166353998060761,-0.014110842103787213,-0.0017945070564795535,0.04395370641750781,-0.045328400392533295,0.9579097250170873,-0.03523219580337909,-0.20783699673963574,-0.19486260257630034
834.6666666662362,-0.18574275,-0.2925371,0.22702222,-1.9505026,-0.34503403,1.2504984,0.6894933,0.039997622,0.04,-0.0003434447480410441,-0.009245557860204645,-0.013744574769525286,-0.0016432127415590234,0.04278185241823363,-0.044461800249138164,0.9577200656303584,-0.03531922709493769,-0.20836082528342018,-0.19521934989547152
834.6833333329029,-0.18622354,-0.29126126,0.2276184,-1.9494514,-0.34592786,1.2496684,0.6892432,0.039997615,0.04,-0.0006691686836646227,-0.008995722734866929,-0.013869497255680763,-0.0014924128924831556,0.04161165944454727,-0.04359928730839031,0.9575335682568277,-0.035404678226302194,-0.20887504582210267,-0.1955688872337662
834.6999999995695,-0.18669552,-0.2900087,0.22820383,-1.9484196,-0.34680542,1.2488532,0.68899786,0.03999761,0.04,-0.0006724723514039965,-0.009072515358277133,-0.014191685158637668,-0.0013431900562545385,0.040442082496300324,-0.04274060315872253,0.9573502233645116,-0.035488413844054705,-0.20937976647678444,-0.1959112954805825
834.7166666662362,-0.18715873,-0.28877938,0.22877857,-1.9474068,-0.34766668,1.2480536,0.6887568,0.039997604,0.04,-0.000367560404312961,-0.009163195374597977,-0.013568039772304807,-0.0011966599470885598,0.03927270509368506,-0.04188619485014565,0.9571701158747236,-0.035570720306589046,-0.20987466298796073,-0.19624657696104805
834.7333333329028,-0.18761306,-0.28757337,0.22934255,-1.9464132,-0.34851158,1.2472689,0.6885206,0.039997596,0.04,-0.00042767457215653337,-0.009286763634222539,-0.01406515384960727,-0.0010499910137408857,0.038106549918155035,-0.041036496389301305,0.9569932212303518,-0.03565133789686938,-0.2103599453583768,-0.19657479496145666
834.7499999995695,-0.18805861,-0.28639057,0.2298958,-1.9454389,-0.3493401,1.2464993,0.68828875,0.039997596,0.04,-0.0006845769884966657,-0.009136593493949685,-0.01411874120216261,-0.0009053814484215788,0.03694269509152188,-0.040190359620534605,0.9568195233762514,-0.03573046718881609,-0.21083578467820938,-0.1968959250457858
834.7666666662361,-0.18849546,-0.28523108,0.23043832,-1.9444839,-0.35015237,1.2457452,0.6880618,0.039997593,0.04,-0.0005083179281495376,-0.00905387656931489,-0.013805017113655005,-0.000762115922987105,0.03577833394890717,-0.03935019265839806,0.9566490886805218,-0.03580787151664322,-0.21130187596909838,-0.19721012822904033
834.7833333329028,-0.18892346,-0.28409484,0.23097017,-1.943548,-0.3509483,1.2450063,0.6878391,0.039997585,0.04,-0.00024322126752629458,-0.009370679760969947,-0.013802892561920466,-0.0006214863161396907,0.03461956086459829,-0.038514393407289786,0.9564819163254046,-0.0358838941995102,-0.21175830219095546,-0.19751736969888062
834.7999999995694,-0.18934274,-0.28298187,0.23149128,-1.9426308,-0.351728,1.2442822,0.6876211,0.039997578,0.04,0.00036697090606274685,-0.009083123088471368,-0.01403933645758304,-0.00048080381403174405,0.033463657503738524,-0.03768488780536226,0.9563180171957248,-0.03595817483351733,-0.2122050907472669,-0.19781774215278003
834.8166666662361,-0.18975322,-0.28189197,0.23200168,-1.9417331,-0.35249147,1.2435733,0.6874075,0.039997574,0.04,-0.001049705092048825,-0.009101752545173647,-0.014118196619183898,-0.0003425465062272515,0.03231211308790854,-0.03685950764263213,0.9561573163598538,-0.036031046353287355,-0.21264261197263676,-0.19811125572178964
834.8333333329027,-0.19015503,-0.28082517,0.23250142,-1.9408544,-0.3532388,1.2428795,0.68719846,0.039997566,0.04,-0.0001314696331800036,-0.009062408671040023,-0.01380203063958696,-0.0002052416807367956,0.031161691096151238,-0.036040484624075386,0.9559998885821521,-0.03610232341241814,-0.2130705601387435,-0.19839801328969975
834.8499999995694,-0.1905481,-0.2797815,0.23299049,-1.9399946,-0.35396987,1.2422009,0.686994,0.039997563,0.04,7.590095911780281e-05,-0.009216197438211005,-0.0137576812933915,-6.934061311571899e-05,0.030015694896202164,-0.03522587178078698,0.9558457678294797,-0.0361720275814748,-0.21348887146692375,-0.198678016657346
