rsonawane2002/My_IMU/logs_2/traj_354/imu_354.csv
time,j1,j2,j3,j4,j5,j6,j7,gripper1,gripper2,imu_ax,imu_ay,imu_az,imu_gx,imu_gy,imu_gz
1139.183333332626,0.00016700293,-0.785875,4.0107683e-05,-2.3551247,9.29385e-05,1.570997,0.786,0.04,0.04,-9.547865,-0.008739236742258072,0.09738447,-8.976451e-08,-0.0011641276068985462,6.1311106e-08
1139.1999999992927,0.00016701216,-0.78576016,4.0122246e-05,-2.3552213,9.297397e-05,1.5709941,0.786,0.04,0.04,-9.834513,0.0006511137471534312,0.009052605,-8.250335e-07,-0.0022387132048606873,6.7960354e-07
1139.2166666659593,0.00016706607,-0.7856541,4.018905e-05,-2.35531,9.300645e-05,1.5709913,0.786,0.04,0.04,-9.8323965,0.0007606286089867353,0.0076652165,-5.646841e-06,-0.0032268960494548082,-1.0407356e-06
1139.233333332626,0.00016724133,-0.7855565,4.039531e-05,-2.355391,9.3036746e-05,1.5709884,0.786,0.04,0.04,-9.830844,0.0009699315996840596,0.006347256,-1.7656614e-05,-0.004137474577873945,-6.3461403e-06
1139.2499999992926,0.00016764988,-0.78546625,4.0866304e-05,-2.3554645,9.306607e-05,1.5709856,0.786,0.04,0.04,-9.829088,0.0012648450210690498,0.0053084134,-4.097866e-05,-0.004973508417606354,-1.6765027e-05
1139.2666666659593,0.00016843536,-0.7853827,4.17617e-05,-2.3555312,9.309633e-05,1.5709827,0.786,0.04,0.04,-9.827596,0.0016393467085435987,0.0043520485,-7.7728e-05,-0.005738440435379744,-3.365676e-05
1139.283333332626,0.00016976972,-0.78530496,4.327178e-05,-2.3555903,9.3139424e-05,1.5709798,0.786,0.04,0.039999995,-9.826396,0.0020975980442017317,0.0034852414,-0.00013078886,-0.006438783369958401,-5.7540892e-05
1139.2999999992926,0.00017185065,-0.78523237,4.5614688e-05,-2.355646,9.3176444e-05,1.570977,0.786,0.04,0.04,-9.824994,0.002578944666311145,0.0028036432,-0.00020218949,-0.007075611036270857,-9.183715e-05
1139.3166666659592,0.00017489807,-0.78516406,4.9032715e-05,-2.355696,9.3228584e-05,1.5709741,0.786,0.04,0.039999995,-9.824387,0.0031656615901738405,0.0021681886,-0.0002942381,-0.007669045589864254,-0.0001343923
1139.333333332626,0.00017915248,-0.7850993,5.3790598e-05,-2.3557389,9.327806e-05,1.5709713,0.786,0.04,0.04,-9.823423,0.003738531144335866,0.0016490673,-0.00040842502,-0.008213335648179054,-0.00018922919
1139.3499999992925,0.00018487211,-0.7850376,6.017191e-05,-2.355775,9.333765e-05,1.5709684,0.7860017,0.04,0.04,-9.822521,0.004410051740705967,0.0011726872,-0.00054656283,-0.00870445091277361,-0.00025476233
1139.3666666659592,0.0001923309,-0.78497785,6.847782e-05,-2.3558066,9.3400056e-05,1.5709655,0.7860036,0.04,0.04,-9.821605,0.005042028147727251,0.00084602286,-0.00071709754,-0.009147589094936848,-0.0003332496
1139.3833333326259,0.00020181667,-0.7849192,7.9023994e-05,-2.3558333,9.348558e-05,1.5709627,0.7860055,0.04,0.04,-9.8212185,0.0057782395742833614,0.00053037645,-0.0009151221,-0.009555567987263203,-0.0004229178
1139.3999999992925,0.00021362912,-0.7848614,9.213943e-05,-2.3558526,9.35968e-05,1.5709597,0.7860074,0.04,0.039999995,-9.820751,0.006437433417886496,0.00026376723,-0.0011399296,-0.009931664913892746,-0.000525965
1139.4166666659592,0.00022807876,-0.78480357,0.00010816471,-2.355865,9.37012e-05,1.5709567,0.7860093,0.039999995,0.04,-9.820133,0.007176749873906374,9.066769e-05,-0.0013928461,-0.010264838114380836,-0.00064592174
1139.4333333326258,0.0002454841,-0.7847448,0.00012744943,-2.3558707,9.383466e-05,1.5709535,0.7860112,0.03999999,0.039999995,-9.819548,0.007866495288908482,-4.6677073e-05,-0.0016739562,-0.01056115236133337,-0.0007767647
1139.4499999992925,0.00026617222,-0.78468484,0.00015035196,-2.35587,9.397929e-05,1.5709498,0.78601503,0.039999988,0.04,-9.819238,0.008621872402727604,-0.00013562234,-0.0019839997,-0.010826718993484974,-0.0009245525
1139.466666665959,0.00029047555,-0.7846227,0.00017723702,-2.3558629,9.414863e-05,1.5709431,0.78601885,0.039999984,0.039999995,-9.818856,0.009269433096051216,-0.00017757504,-0.002332121,-0.011063211597502232,-0.0010853583
1139.4833333326258,0.0003187321,-0.784558,0.00020847515,-2.3558486,9.434408e-05,1.5709364,0.78602266,0.039999977,0.03999999,-9.818778,0.010029206983745098,-0.00012837513,-0.0027097824,-0.01128754299134016,-0.0012619757
1139.4999999992924,0.00035128373,-0.78448975,0.00024444115,-2.3558266,9.456873e-05,1.5709296,0.78602713,0.039999966,0.03999998,-9.818487,0.010627052746713161,-0.00015625008,-0.0031171148,-0.011485045775771141,-0.0014528525
1139.516666665959,0.0003884755,-0.78441757,0.00028551326,-2.3557966,9.4823976e-05,1.5709226,0.78603286,0.039999958,0.039999977,-9.818292,0.011267106048762798,-0.000162184,-0.0035571835,-0.01165669783949852,-0.0016598172
1139.5333333326257,0.0004306544,-0.78434074,0.000332072,-2.3557587,9.511334e-05,1.5709147,0.7860386,0.03999995,0.03999997,-9.818158,0.01197977177798748,-8.092495e-05,-0.0040326677,-0.011803538538515568,-0.0018812343
1139.5499999992924,0.00047816895,-0.78425866,0.0003844994,-2.3557122,9.543812e-05,1.5709043,0.786046,0.039999947,0.03999997,-9.817998,0.01245914213359356,-4.0493906e-05,-0.004537948,-0.011931282468140125,-0.0021188767
1139.566666665959,0.0005313679,-0.78417087,0.00044317808,-2.3556566,9.5801675e-05,1.5708936,0.78605366,0.039999943,0.039999966,-9.818014,0.013115286827087402,0.000112251844,-0.0050805,-0.012048131786286831,-0.0023710164
1139.5833333326257,0.0005906006,-0.7840768,0.00050849083,-2.3555923,9.620604e-05,1.5708823,0.7860622,0.03999994,0.03999996,-9.81782,0.013504309579730034,0.00013737613,-0.005653198,-0.01214172225445509,-0.0026385137
1139.5999999992923,0.00065621507,-0.78397566,0.0005808196,-2.355518,9.665301e-05,1.570868,0.7860717,0.03999994,0.039999966,-9.81791,0.014073307625949383,0.0002935524,-0.0062589906,-0.012219947762787342,-0.0029221629
1139.616666665959,0.0007285586,-0.7838669,0.0006605447,-2.3554342,9.7145574e-05,1.5708536,0.78608215,0.03999994,0.03999997,-9.817826,0.014356058090925217,0.00036654808,-0.0068977675,-0.01228910218924284,-0.0032210285
1139.6333333326256,0.00080797635,-0.7837503,0.0007480449,-2.3553402,9.768595e-05,1.5708383,0.7860936,0.03999994,0.039999973,-9.817888,0.014834918081760406,0.00048300996,-0.0075690825,-0.012340536341071129,-0.0035350104
1139.6499999992923,0.0008948111,-0.7836255,0.00084369635,-2.3552353,9.827708e-05,1.5708202,0.78610635,0.039999947,0.03999998,-9.81789,0.01498945988714695,0.0005345843,-0.008272729,-0.01237728726118803,-0.0038631205
1139.666666665959,0.0009894035,-0.78349125,0.00094787223,-2.3551195,9.892028e-05,1.5708017,0.7861197,0.039999954,0.03999999,-9.817925,0.015364335849881172,0.000760342,-0.009009828,-0.012404426001012325,-0.004206929
1139.6833333326256,0.00109209,-0.78334725,0.0010609421,-2.3549924,9.964888e-05,1.5707812,0.7861349,0.039999966,0.03999999,-9.817931,0.015396764501929283,0.00073339883,-0.00977652,-0.012416721321642399,-0.0045621935
1139.6999999992922,0.0012032056,-0.78319323,0.0011832727,-2.3548532,0.00010042447,1.570759,0.78615093,0.03999997,0.04,-9.818107,0.015624204650521278,0.00089974236,-0.010577957,-0.012422031722962856,-0.004936055
1139.7166666659589,0.0013230789,-0.7830285,0.0013152256,-2.3547015,0.00010129851,1.5707357,0.7861681,0.039999977,0.039999995,-9.818053,0.015511296689510345,0.00091112405,-0.0114088645,-0.012414687313139439,-0.0053195604
1139.7333333326255,0.0014520368,-0.78285265,0.0014571587,-2.3545382,0.0001022209,1.5707097,0.78618693,0.03999998,0.04,-9.818198,0.01560367364436388,0.0010353522,-0.012270501,-0.012396173551678658,-0.005721901
1139.7499999992922,0.0015904008,-0.78266513,0.0016094255,-2.354361,0.00010322256,1.5706826,0.78620696,0.03999998,0.04,-9.818355,0.015308091416954994,0.0010303818,-0.013164092,-0.01237600389868021,-0.0061357473
1139.7666666659588,0.0017384882,-0.7824657,0.0017723731,-2.3541708,0.00010429316,1.5706528,0.78622836,0.039999973,0.039999995,-9.818331,0.015092391520738602,0.0010395413,-0.014087583,-0.012340638786554337,-0.006563967
1139.7833333326255,0.001896612,-0.7822538,0.0019463454,-2.3539665,0.00010540777,1.5706218,0.7862513,0.03999997,0.04,-9.818515,0.014973260462284088,0.0011806265,-0.015040532,-0.012300638481974602,-0.0070078564
1139.7999999992921,0.0020650786,-0.7820289,0.002131679,-2.3537488,0.00010659911,1.5705881,0.7862757,0.039999966,0.04,-9.818512,0.014414469711482525,0.0010898756,-0.016023556,-0.012248896062374115,-0.007462393
1139.8166666659588,0.00224419,-0.78179073,0.0023287062,-2.3535173,0.000107858745,1.5705528,0.7863016,0.03999996,0.04,-9.818797,0.014142675325274467,0.0011726413,-0.017035082,-0.012196050956845284,-0.007930501
1139.8333333326254,0.002434244,-0.7815388,0.002537753,-2.3532708,0.00010918085,1.5705148,0.78632915,0.039999954,0.04,-9.818928,0.013369117863476276,0.0010503139,-0.01807545,-0.0121374586597085,-0.008411861
1139.849999999292,0.0026355323,-0.78127265,0.0027591398,-2.3530095,0.000110570254,1.5704749,0.78635836,0.039999947,0.04,-9.819078,0.01292719691991806,0.0011046724,-0.019143876,-0.012073864229023457,-0.008905384
1139.8666666659587,0.0028483407,-0.78099203,0.002993179,-2.3527322,0.00011202173,1.5704328,0.78638935,0.03999994,0.04,-9.819181,0.011957773938775063,0.0009156,-0.020240122,-0.012005160562694073,-0.0094115315
1139.8833333326254,0.0030729482,-0.78069633,0.0032401788,-2.3524384,0.00011356993,1.5703878,0.78642184,0.03999994,0.04,-9.819319,0.011349665001034737,0.0009206971,-0.021364218,-0.011928077787160873,-0.00992608
1139.899999999292,0.0033096303,-0.7803852,0.0035004416,-2.352128,0.00011520024,1.5703412,0.78645605,0.039999936,0.04,-9.819279,0.010162310674786568,0.0007015001,-0.022514,-0.011844850145280361,-0.010453502
1139.9166666659587,0.003558656,-0.78005826,0.0037742613,-2.3518016,0.00011691637,1.5702916,0.786492,0.039999932,0.04,-9.819421,0.009342743083834648,0.000636993,-0.023689754,-0.011752266436815262,-0.010991839
1139.9333333326254,0.0038202882,-0.77971524,0.0040619285,-2.3514585,0.000118708296,1.5702398,0.7865298,0.03999993,0.04,-9.819544,0.007947083562612534,0.000380761,-0.024891205,-0.011660353280603886,-0.011541568
1139.949999999292,0.004094782,-0.77935565,0.004363723,-2.3510985,0.00012059662,1.5701857,0.7865694,0.03999993,0.04,-9.819771,0.006933713331818581,0.00028358307,-0.026117804,-0.01156424917280674,-0.012099959
1139.9666666659587,0.004382388,-0.7789793,0.004679922,-2.3507204,0.00012257585,1.5701284,0.786611,0.03999992,0.04,-9.819835,0.005314253270626068,-6.250013e-05,-0.02736929,-0.011463893577456474,-0.012669101
1139.9833333326253,0.0046833525,-0.7785859,0.005010791,-2.3503249,0.00012463951,1.5700688,0.78665453,0.039999913,0.04,-9.819974,0.0040789078921079636,-0.00018939562,-0.02864513,-0.011360018514096737,-0.013248569
1139.999999999292,0.0049979133,-0.778175,0.0053565954,-2.3499115,0.00012678737,1.5700067,0.78670007,0.03999991,0.04,-9.820016,0.0022294707596302032,-0.00058512576,-0.029944746,-0.011251600459218025,-0.013837219
1140.0166666659586,0.0053263027,-0.77774626,0.0057175877,-2.3494792,0.00012904787,1.5699416,0.7867476,0.03999991,0.04,-9.820209,0.0005331151187419891,-0.00089946017,-0.031267583,-0.011142649687826633,-0.014432362
1140.0333333326253,0.005668749,-0.7772995,0.0060940185,-2.3490288,0.00013140506,1.5698738,0.7867971,0.03999991,0.04,-9.820313,-0.0010213702917099,-0.0011250321,-0.03261339,-0.011028654873371124,-0.015037678
1140.049999999292,0.006025468,-0.77683437,0.0064861276,-2.3485591,0.00013387905,1.5698032,0.7868487,0.03999991,0.04,-9.820407,-0.0032260455191135406,-0.0016096234,-0.033981033,-0.010913756676018238,-0.015649574
1140.0666666659586,0.006396674,-0.77635056,0.006894152,-2.3480704,0.00013645954,1.5697298,0.78690237,0.039999913,0.04,-9.820554,-0.0050046928226947784,-0.0018948428,-0.035370808,-0.010795128531754017,-0.0162701
1140.0833333326252,0.0067825764,-0.7758478,0.0073183184,-2.3475628,0.00013914803,1.5696534,0.7869581,0.039999913,0.04,-9.820576,-0.007455147802829742,-0.002452366,-0.03678137,-0.01067374087870121,-0.016898068
1140.0999999992919,0.0071833744,-0.77532554,0.0077588465,-2.3470347,0.00014195425,1.5695741,0.78701603,0.039999913,0.04,-9.82084,-0.00945640355348587,-0.0028059427,-0.03821236,-0.01055428571999073,-0.017532384
1140.1166666659585,0.007599264,-0.7747842,0.008215952,-2.3464868,0.0001448615,1.5694917,0.7870762,0.039999917,0.04,-9.820806,-0.012163922190666199,-0.0034501012,-0.039664127,-0.010431584902107716,-0.018174926
1140.1333333326252,0.008030432,-0.7742229,0.008689843,-2.345919,0.00014787013,1.5694064,0.7871386,0.039999902,0.04,-9.820918,-0.014409452676773071,-0.0038316231,-0.041135553,-0.010304713621735573,-0.01882453
1140.1499999992918,0.00847706,-0.7736417,0.00918072,-2.3453305,0.00015096577,1.5693178,0.78720325,0.039999902,0.04,-9.820997,-0.0173628069460392,-0.0045464393,-0.042626344,-0.010179930366575718,-0.019479956
1140.1666666659585,0.008939326,-0.7730402,0.009688776,-2.3447213,0.0001541672,1.5692265,0.78727007,0.0399999,0.04,-9.821155,-0.019831441342830658,-0.0050118715,-0.04413629,-0.01005399040877819,-0.020140138
1140.1833333326251,0.0094174035,-0.77241826,0.010214196,-2.3440905,0.0001574757,1.569132,0.7873392,0.039999895,0.04,-9.821096,-0.023043237626552582,-0.0058102272,-0.045664005,-0.009924029000103474,-0.02080545
1140.1999999992918,0.009911453,-0.7717756,0.010757162,-2.3434393,0.00016090367,1.5690342,0.7874106,0.0399999,0.04,-9.821185,-0.02575630322098732,-0.0063386746,-0.047209486,-0.009791478514671326,-0.021474788
1140.2166666659584,0.010421632,-0.7711122,0.011317846,-2.342767,0.00016443992,1.5689331,0.7874844,0.039999895,0.04,-9.821235,-0.029230374842882156,-0.0071907844,-0.04877215,-0.009661129675805569,-0.022149365
1140.233333332625,0.010948094,-0.77042764,0.01189642,-2.342073,0.0001680925,1.5688288,0.7875605,0.039999887,0.04,-9.821425,-0.03219601511955261,-0.007791342,-0.050351843,-0.009532877244055271,-0.022828761
1140.2499999992917,0.011490976,-0.76972187,0.012493038,-2.3413575,0.00017184563,1.5687214,0.78763914,0.03999989,0.04,-9.821333,-0.035921741276979446,-0.00872853,-0.051947687,-0.009401831775903702,-0.023510942
1140.2666666659584,0.012050427,-0.76899457,0.013107853,-2.3406203,0.00017572058,1.5686108,0.78772,0.039999876,0.04,-9.821414,-0.03946240246295929,-0.009555783,-0.053560298,-0.009271487593650818,-0.024196459
1140.283333332625,0.012626575,-0.7682456,0.013741013,-2.3398612,0.00017970223,1.568497,0.78780323,0.039999876,0.04,-9.821538,-0.0427984818816185,-0.010282403,-0.05518749,-0.009141161106526852,-0.024884786
1140.2999999992917,0.0132195465,-0.76747483,0.014392656,-2.3390796,0.00018380061,1.5683799,0.78788894,0.03999987,0.04,-9.821522,-0.04691784083843231,-0.011333281,-0.056829263,-0.009012511931359768,-0.025575683
1140.3166666659583,0.013829464,-0.76668215,0.015062921,-2.3382757,0.00018801734,1.5682592,0.7879772,0.03999986,0.04,-9.8215885,-0.05050920322537422,-0.012142584,-0.058485754,-0.008881863206624985,-0.026269536
1140.333333332625,0.014456444,-0.76586735,0.015751924,-2.3374493,0.0001923409,1.5681351,0.7880678,0.03999986,0.04,-9.821487,-0.054889578372240067,-0.013255887,-0.06015694,-0.008751781657338142,-0.026964253
1140.3499999992916,0.0151005965,-0.7650302,0.016459795,-2.3366,0.00019678262,1.5680077,0.7881609,0.03999986,0.04,-9.821629,-0.058731336146593094,-0.014127469,-0.061840888,-0.008623912930488586,-0.027660394
1140.3666666659583,0.015762022,-0.7641709,0.017186645,-2.3357282,0.00020134416,1.5678768,0.7882566,0.039999865,0.04,-9.821484,-0.06337957084178925,-0.015346587,-0.06353794,-0.008495031856000423,-0.02835751
1140.383333332625,0.016440818,-0.76328856,0.017932585,-2.3348334,0.00020604146,1.5677426,0.78835475,0.039999854,0.04,-9.821584,-0.06747396290302277,-0.01627857,-0.06524821,-0.008367452770471573,-0.02905537
1140.3999999992916,0.017137075,-0.762384,0.018697707,-2.3339155,0.00021084183,1.5676049,0.7884554,0.03999985,0.04,-9.821501,-0.07238861173391342,-0.017608084,-0.06697053,-0.008241971954703331,-0.029754201
1140.4166666659582,0.017850876,-0.76145655,0.01948211,-2.3329737,0.00021577005,1.5674635,0.78855854,0.039999843,0.04,-9.821537,-0.07673101127147675,-0.018607393,-0.06870454,-0.008116403594613075,-0.03045211
1140.433333332625,0.018582307,-0.7605062,0.020285886,-2.3320093,0.00022081501,1.5673188,0.7886643,0.039999843,0.04,-9.821315,-0.08190122246742249,-0.019983819,-0.070449375,-0.007989419624209404,-0.031149613
1140.4499999992915,0.019331437,-0.75953305,0.021109112,-2.3310213,0.00022598026,1.5671706,0.78877264,0.03999984,0.04,-9.821421,-0.08650565147399902,-0.021100305,-0.07220512,-0.007865525782108307,-0.03184699
1140.4666666659582,0.020098336,-0.7585368,0.021951865,-2.3300097,0.00023123728,1.5670189,0.7888835,0.039999843,0.04,-9.821267,-0.0919770821928978,-0.022537649,-0.07397193,-0.007742135785520077,-0.032550167
1140.4833333326249,0.020883068,-0.75751746,0.02281422,-2.3289745,0.00023662158,1.5668638,0.78899693,0.039999846,0.04,-9.821229,-0.09679646790027618,-0.023726707,-0.07574836,-0.007618767209351063,-0.03324624
1140.4999999992915,0.021685695,-0.75647485,0.02369623,-2.3279164,0.00024214055,1.566705,0.7891129,0.039999843,0.04,-9.821089,-0.1024765819311142,-0.025265768,-0.07753425,-0.007496393285691738,-0.03393796
1140.5166666659582,0.022506263,-0.755409,0.024597956,-2.326835,0.0002477835,1.5665427,0.78923154,0.03999984,0.04,-9.821061,-0.10794013738632202,-0.026690498,-0.07932903,-0.007379419635981321,-0.034627564
1140.5333333326248,0.02334482,-0.75431967,0.025519451,-2.325729,0.000253553,1.5663769,0.78935266,0.03999984,0.04,-9.821136,-0.11316043138504028,-0.028007781,-0.081132874,-0.007265974301844835,-0.03531438
1140.5499999992915,0.024201406,-0.7532069,0.026460763,-2.3245993,0.00025946504,1.5662076,0.7894764,0.039999835,0.04,-9.820811,-0.11923662573099136,-0.029689575,-0.08294421,-0.007150514516979456,-0.03599844
1140.566666665958,0.025076058,-0.75207067,0.027421925,-2.3234458,0.00026549518,1.5660348,0.7896028,0.03999984,0.04,-9.820829,-0.12471392750740051,-0.03108454,-0.084763564,-0.007038027048110962,-0.036679715
1140.5833333326248,0.025968809,-0.75091094,0.028402975,-2.3222687,0.00027165576,1.5658584,0.78973186,0.03999984,0.04,-9.820592,-0.1310407817363739,-0.03284881,-0.08659057,-0.0069268872030079365,-0.037356697
1140.5999999992914,0.026879678,-0.7497277,0.029403938,-2.3210676,0.00027795284,1.5656782,0.78986347,0.039999835,0.04,-9.820587,-0.1367502212524414,-0.03433442,-0.08842436,-0.006819756701588631,-0.038029704
1140.616666665958,0.027808683,-0.7485211,0.030424837,-2.3198426,0.00028438916,1.5654944,0.78999776,0.039999828,0.04,-9.82034,-0.1433263123035431,-0.036159694,-0.09026465,-0.0067151696421206,-0.038698282
1140.6333333326247,0.028755842,-0.7472908,0.031465683,-2.318594,0.0002909247,1.5653073,0.79013467,0.039999828,0.04,-9.820271,-0.14929142594337463,-0.037734926,-0.0921111,-0.0066128442995250225,-0.03936372
1140.6499999992914,0.029721161,-0.7460369,0.032526497,-2.317321,0.00029761012,1.5651165,0.7902742,0.03999983,0.04,-9.820053,-0.15610134601593018,-0.039660387,-0.09396323,-0.006514011882245541,-0.040021803
1140.666666665958,0.030704647,-0.7447595,0.033607267,-2.3160238,0.00030443692,1.5649221,0.79041636,0.039999824,0.04,-9.819904,-0.16229736804962158,-0.04133597,-0.095820986,-0.006415688432753086,-0.04067533
1140.6833333326247,0.031706292,-0.74345857,0.034708012,-2.3147035,0.00031137813,1.5647241,0.79056114,0.03999982,0.04,-9.81958,-0.16937005519866943,-0.04333041,-0.0976833,-0.006318581290543079,-0.041324627
1140.6999999992913,0.03272609,-0.74213386,0.035828713,-2.313359,0.00031842478,1.5645224,0.79070854,0.039999813,0.04,-9.819575,-0.17579631507396698,-0.045080774,-0.09954993,-0.006228380370885134,-0.041968845
1140.716666665958,0.03376404,-0.7407857,0.03696937,-2.3119903,0.00032559436,1.5643172,0.7908587,0.03999981,0.04,-9.819254,-0.18307450413703918,-0.04719118,-0.10142071,-0.006141173653304577,-0.04260426
1140.7333333326246,0.03482012,-0.7394141,0.038129948,-2.310597,0.00033290492,1.5641085,0.7910113,0.039999805,0.04,-9.819042,-0.18973174691200256,-0.049034595,-0.1032955,-0.006053558550775051,-0.043232914
1140.7499999992913,0.03589431,-0.73801893,0.03931043,-2.3091803,0.00034033455,1.5638963,0.7911665,0.039999798,0.04,-9.818671,-0.19726227223873138,-0.05120609,-0.10517274,-0.005967926234006882,-0.043855313
1140.766666665958,0.03698658,-0.73660046,0.040510792,-2.30774,0.0003478788,1.5636803,0.7913243,0.039999794,0.04,-9.818433,-0.20451641082763672,-0.053287968,-0.1070524,-0.00588509114459157,-0.044469688
1140.7833333326246,0.038096897,-0.7351584,0.041731004,-2.3062766,0.0003555738,1.5634608,0.7914848,0.03999979,0.04,-9.818287,-0.21149992942810059,-0.055245228,-0.10893482,-0.005806944333016872,-0.04507655
1140.7999999992912,0.03922524,-0.73369294,0.042971026,-2.3047888,0.00036340492,1.5632375,0.79164785,0.039999787,0.04,-9.818053,-0.21936501562595367,-0.05758239,-0.11081924,-0.0057372162118554115,-0.04567569
1140.8166666659579,0.040371556,-0.73220396,0.044230804,-2.3032775,0.000371349,1.5630109,0.79181343,0.039999787,0.04,-9.817744,-0.22656306624412537,-0.059643157,-0.112705074,-0.005667575169354677,-0.046266552
1140.8333333326245,0.041535806,-0.7306917,0.045510303,-2.3017423,0.0003794214,1.5627806,0.7919817,0.039999783,0.04,-9.817403,-0.23463565111160278,-0.06206963,-0.114591435,-0.005603014957159758,-0.046849053
1140.8499999992912,0.042717934,-0.72915626,0.046809454,-2.3001838,0.00038763543,1.5625468,0.79215246,0.03999978,0.04,-9.817131,-0.24204754829406738,-0.064232804,-0.11647896,-0.005540905520319939,-0.047422834
1140.8666666659578,0.043917894,-0.7275977,0.048128203,-2.2986019,0.00039597836,1.5623096,0.79232585,0.039999776,0.04,-9.816732,-0.2503274083137512,-0.066732034,-0.11836629,-0.0054823532700538635,-0.04798771
1140.8833333326245,0.045135614,-0.7260161,0.0494665,-2.2969964,0.0004044551,1.5620688,0.7925019,0.03999978,0.04,-9.816509,-0.25793230533599854,-0.06898204,-0.12025383,-0.005428970791399479,-0.048542533
1140.8999999992911,0.046371043,-0.7244117,0.050824266,-2.2953675,0.00041306982,1.5618246,0.7926804,0.03999978,0.04,-9.816002,-0.266422837972641,-0.07157205,-0.1221411,-0.005376429762691259,-0.04908953
1140.9166666659578,0.0476241,-0.7227844,0.052201424,-2.2937157,0.000421772,1.5615766,0.7928616,0.039999776,0.04,-9.815737,-0.2742936313152313,-0.07389436,-0.124026805,-0.005328676663339138,-0.04963655
1140.9333333326244,0.048894726,-0.72113377,0.0535979,-2.2920406,0.00043055974,1.5613253,0.79304516,0.039999776,0.04,-9.815296,-0.2829177975654602,-0.07657593,-0.1259118,-0.005286259111016989,-0.050166562
1140.949999999291,0.050182845,-0.7194609,0.055013616,-2.2903423,0.00043945762,1.5610707,0.79323125,0.039999783,0.04,-9.815005,-0.29089853167533875,-0.07905902,-0.12779431,-0.0052488092333078384,-0.050682936
1140.9666666659577,0.051488362,-0.7177654,0.05644847,-2.2886217,0.00044850513,1.5608127,0.79341984,0.03999978,0.04,-9.814447,-0.2997499108314514,-0.08179519,-0.12967438,-0.005211834795773029,-0.051187925
1140.9833333326244,0.0528112,-0.71604735,0.05790239,-2.2868776,0.00045766833,1.5605513,0.79361093,0.03999978,0.04,-9.814202,-0.30792558193206787,-0.08433224,-0.13155168,-0.0051822965033352375,-0.051682148
1140.999999999291,0.05415127,-0.71430683,0.05937525,-2.2851112,0.00046697244,1.5602864,0.79380465,0.039999772,0.04,-9.813553,-0.31695258617401123,-0.087195486,-0.13342601,-0.005151842720806599,-0.05216552
1141.0166666659577,0.055508494,-0.71254414,0.060866974,-2.2833223,0.00047640188,1.5600182,0.7940008,0.039999776,0.04,-9.813196,-0.32568472623825073,-0.08995977,-0.13529776,-0.005129785742610693,-0.052636597
1141.0333333326244,0.05688275,-0.7107593,0.062377438,-2.2815108,0.00048596426,1.5597465,0.79419935,0.039999772,0.04,-9.812808,-0.33412379026412964,-0.092627354,-0.1371648,-0.005111549980938435,-0.053097256
1141.049999999291,0.058273956,-0.7089525,0.06390655,-2.279677,0.0004956517,1.5594712,0.7944004,0.039999772,0.04,-9.812197,-0.3433970808982849,-0.09562826,-0.13902767,-0.005095909349620342,-0.05354634
1141.0666666659577,0.059681993,-0.7071236,0.06545418,-2.2778203,0.00050546596,1.559193,0.7946038,0.039999764,0.04,-9.811811,-0.3519992530345917,-0.09838191,-0.14088564,-0.005086553283035755,-0.053984296
1141.0833333326243,0.06110676,-0.7052731,0.067020185,-2.2759426,0.00051538594,1.5589113,0.79480964,0.039999746,0.04,-9.811124,-0.36143672466278076,-0.101492584,-0.14273869,-0.005076609086245298,-0.054411445
1141.099999999291,0.06254814,-0.70340115,0.06860449,-2.274042,0.00052538404,1.5586264,0.7950179,0.03999973,0.04,-9.810788,-0.370178759098053,-0.104332626,-0.14458577,-0.005075673572719097,-0.054827258
1141.1166666659576,0.06400602,-0.7015076,0.07020693,-2.27212,0.00053549255,1.5583382,0.79522854,0.03999972,0.04,-9.810028,-0.37974584102630615,-0.10748975,-0.14642699,-0.005073466803878546,-0.055228714
1141.1333333326243,0.06548029,-0.699593,0.071827404,-2.2701762,0.0005456836,1.5580468,0.79544157,0.039999712,0.04,-9.809641,-0.38864174485206604,-0.11044925,-0.14826179,-0.005079710390418768,-0.055619027
1141.149999999291,0.0669708,-0.69765735,0.07346577,-2.2682114,0.0005559837,1.5577523,0.795657,0.039999705,0.04,-9.808895,-0.3983307182788849,-0.113702185,-0.15008983,-0.005085613578557968,-0.055995006
1141.1666666659576,0.06847744,-0.69570065,0.07512187,-2.266225,0.0005663977,1.5574543,0.79587466,0.039999712,0.04,-9.808468,-0.4073457717895508,-0.1167328,-0.15191095,-0.005098901689052582,-0.056356058
1141.1833333326242,0.070000075,-0.693723,0.07679557,-2.2642183,0.000576942,1.5571532,0.7960947,0.039999712,0.04,-9.807742,-0.4171719253063202,-0.120079786,-0.15372369,-0.005115424282848835,-0.0567031
1141.1999999992909,0.07153856,-0.6917249,0.07848675,-2.2621903,0.0005876078,1.556849,0.7963169,0.039999712,0.04,-9.807291,-0.4263167977333069,-0.12324036,-0.15552884,-0.0051397220231592655,-0.057038076
1141.2166666659575,0.073092744,-0.6897064,0.08019521,-2.2601414,0.0005983928,1.5565417,0.7965415,0.039999712,0.04,-9.806553,-0.43625736236572266,-0.12666184,-0.15732487,-0.005166610237210989,-0.057358567
1141.2333333326242,0.07466249,-0.68766767,0.08192082,-2.258072,0.000609304,1.5562313,0.7967683,0.039999712,0.04,-9.805913,-0.4455285370349884,-0.1298973,-0.1591125,-0.005195991601794958,-0.0576689
1141.2499999992908,0.07624771,-0.6856088,0.083663404,-2.2559824,0.0006202993,1.5559181,0.79699737,0.03999971,0.04,-9.805191,-0.45560479164123535,-0.13341115,-0.16089076,-0.005230069160461426,-0.057970416
1141.2666666659575,0.07784819,-0.6835302,0.085422836,-2.2538726,0.00063137815,1.5556018,0.79722863,0.039999705,0.04,-9.804548,-0.46531185507774353,-0.13687122,-0.16265911,-0.005268201231956482,-0.058255214
1141.2833333326241,0.07946381,-0.6814318,0.08719891,-2.251743,0.0006425653,1.5552824,0.79746205,0.039999697,0.04,-9.8039,-0.4747062623500824,-0.14022656,-0.16441742,-0.005310474429279566,-0.058522645
1141.2999999992908,0.08109439,-0.679314,0.088991456,-2.249594,0.0006538616,1.55496,0.7976977,0.039999705,0.04,-9.803176,-0.4848584234714508,-0.1438835,-0.16616443,-0.005359098315238953,-0.05877259
1141.3166666659574,0.08273977,-0.677177,0.090800315,-2.2474248,0.00066528784,1.5546348,0.7979354,0.0399997,0.04,-9.802511,-0.4943629801273346,-0.14734934,-0.16790146,-0.005411465186625719,-0.059010208
1141.333333332624,0.084399804,-0.6750211,0.09262531,-2.2452364,0.00067680044,1.5543067,0.79817545,0.039999705,0.04,-9.801649,-0.504610538482666,-0.15107639,-0.1696264,-0.005465532653033733,-0.05923346
1141.3499999992907,0.08607432,-0.6728463,0.09446627,-2.2430289,0.00068844756,1.5539758,0.7984174,0.0399997,0.04,-9.800961,-0.5141842365264893,-0.15462512,-0.17134038,-0.005523374304175377,-0.059442304
1141.3666666659574,0.08776315,-0.67065287,0.09632298,-2.2408025,0.00070020993,1.5536422,0.79866123,0.039999697,0.04,-9.800099,-0.5244882106781006,-0.15844135,-0.17304128,-0.005584086291491985,-0.0596351
1141.383333332624,0.089466125,-0.6684411,0.09819532,-2.2385576,0.00071205304,1.5533057,0.79890716,0.039999694,0.04,-9.799418,-0.5341548323631287,-0.1620875,-0.17472859,-0.005650413688272238,-0.059818126
1141.3999999992907,0.09118305,-0.6662111,0.100082986,-2.236295,0.00072395726,1.5529664,0.7991554,0.039999682,0.04,-9.798554,-0.544533371925354,-0.1659836,-0.17640299,-0.005719611421227455,-0.05998715
1141.4166666659573,0.09291379,-0.6639632,0.10198587,-2.234013,0.0007359803,1.5526243,0.7994056,0.039999682,0.04,-9.797922,-0.5541833639144897,-0.1697194,-0.17806546,-0.005798057187348604,-0.06013662
1141.433333332624,0.094658144,-0.6616976,0.10390375,-2.2317142,0.00074808113,1.5522797,0.79965764,0.03999967,0.04,-9.796908,-0.5646146535873413,-0.17369637,-0.17971337,-0.005875441711395979,-0.060274493
1141.4499999992906,0.0964159,-0.65941477,0.105836436,-2.229397,0.00076027797,1.5519322,0.7999117,0.039999668,0.04,-9.796236,-0.5743495225906372,-0.17752379,-0.18134661,-0.00596002209931612,-0.060396083
1141.4666666659573,0.09818692,-0.65711445,0.1077837,-2.2270622,0.00077256357,1.5515822,0.8001675,0.03999966,0.04,-9.795229,-0.5847774744033813,-0.18156722,-0.1829654,-0.006045509595423937,-0.060502592
1141.483333332624,0.09997099,-0.65479726,0.109745376,-2.224711,0.0007849263,1.5512296,0.80042523,0.03999966,0.04,-9.79441,-0.5945530533790588,-0.1854978,-0.18456835,-0.006134652998298407,-0.06059417
1141.4999999992906,0.10176793,-0.6524634,0.1117212,-2.2223427,0.0007973912,1.5508745,0.8006848,0.03999966,0.04,-9.793584,-0.6050043106079102,-0.18962301,-0.18615541,-0.006230897270143032,-0.060670048
1141.5166666659572,0.103577524,-0.6501131,0.11371101,-2.2199576,0.0008099528,1.5505168,0.80094624,0.03999965,0.04,-9.792701,-0.6151294112205505,-0.19371183,-0.18772668,-0.006330887787044048,-0.06073185
1141.533333332624,0.10539958,-0.64774674,0.115714565,-2.217556,0.000822591,1.5501567,0.8012095,0.039999653,0.04,-9.79181,-0.6249300837516785,-0.19775334,-0.18928151,-0.006433483213186264,-0.060777906
1141.5499999992905,0.10723392,-0.6453643,0.11773168,-2.215138,0.00083531,1.5497942,0.8014745,0.039999645,0.04,-9.790828,-0.6354009509086609,-0.2019965,-0.19081996,-0.006538482382893562,-0.06081208
1141.5666666659572,0.10908033,-0.64296633,0.119762085,-2.2127042,0.0008481162,1.5494297,0.8017412,0.039999645,0.04,-9.789905,-0.6452205777168274,-0.20612645,-0.19234072,-0.0066460175439715385,-0.06083215
1141.5833333326239,0.110938616,-0.64055276,0.1218056,-2.210255,0.00086098566,1.5490623,0.8020096,0.03999965,0.04,-9.788922,-0.6556654572486877,-0.21044223,-0.19384344,-0.006754829548299313,-0.06083893
1141.5999999992905,0.11280853,-0.6381241,0.12386196,-2.2077901,0.00087395264,1.5486928,0.80227965,0.03999964,0.04,-9.788105,-0.6654499173164368,-0.21465267,-0.19532806,-0.006873127073049545,-0.060825013
1141.6166666659572,0.1146899,-0.6356803,0.12593098,-2.2053103,0.00088699174,1.5483208,0.80255145,0.03999964,0.04,-9.787029,-0.6758493781089783,-0.21905582,-0.1967944,-0.006990635767579079,-0.060796097
1141.6333333326238,0.1165825,-0.63322204,0.12801239,-2.2028162,0.00090008095,1.5479466,0.80282485,0.039999645,0.04,-9.786163,-0.6856588125228882,-0.22336224,-0.19824205,-0.007115338463336229,-0.06075505
1141.6499999992905,0.118486114,-0.63074946,0.13010596,-2.2003074,0.00091326854,1.5475705,0.8030999,0.039999645,0.04,-9.785186,-0.6960195899009705,-0.22783564,-0.1996704,-0.0072447978891432285,-0.06069663
1141.666666665957,0.12040054,-0.6282631,0.13221154,-2.1977842,0.0009265473,1.5471922,0.8033765,0.039999638,0.04,-9.784187,-0.7057865262031555,-0.23220706,-0.20107898,-0.007374669425189495,-0.06062347
1141.6833333326238,0.122325554,-0.62576294,0.13432875,-2.1952467,0.0009398755,1.5468118,0.80365455,0.03999963,0.04,-9.783094,-0.7161362171173096,-0.23673582,-0.20246807,-0.007505218498408794,-0.06053764
1141.6999999992904,0.12426094,-0.62324923,0.13645741,-2.192696,0.00095327885,1.5464293,0.80393404,0.03999963,0.04,-9.782105,-0.7258495092391968,-0.24117354,-0.20383607,-0.007639145012944937,-0.060435627
1141.716666665957,0.12620647,-0.6207223,0.1385973,-2.1901321,0.0009667754,1.5460447,0.804215,0.039999623,0.04,-9.7811,-0.7361137866973877,-0.24579132,-0.20518301,-0.007777887396514416,-0.060318526
1141.7333333326237,0.12816192,-0.61818254,0.14074816,-2.1875546,0.0009803311,1.5456582,0.80449754,0.039999615,0.04,-9.78013,-0.7458005547523499,-0.25031623,-0.20650887,-0.007920891977846622,-0.0601884
1141.7499999992904,0.13012704,-0.61563015,0.14290974,-2.184965,0.0009939376,1.54527,0.8047815,0.03999961,0.04,-9.778968,-0.7560020685195923,-0.25498208,-0.2078136,-0.008062969893217087,-0.060042936
1141.766666665957,0.13210167,-0.6130655,0.1450818,-2.1823628,0.0010076072,1.5448798,0.80506676,0.039999604,0.04,-9.778016,-0.7658835053443909,-0.25964692,-0.20909677,-0.008210938423871994,-0.05988329
1141.7833333326237,0.13408549,-0.6104888,0.14726406,-2.179748,0.001021361,1.5444878,0.80535334,0.039999604,0.04,-9.776985,-0.775460958480835,-0.26427427,-0.21035707,-0.008361460641026497,-0.059707623
1141.7999999992903,0.13607831,-0.6079003,0.14945629,-2.1771214,0.0010351449,1.544094,0.8056412,0.0399996,0.04,-9.77583,-0.785540759563446,-0.26903793,-0.21159473,-0.00851237028837204,-0.059521362
1141.816666665957,0.13807996,-0.60530055,0.15165824,-2.1744835,0.0010490017,1.5436983,0.8059304,0.039999593,0.04,-9.774771,-0.79503333568573,-0.27374738,-0.21280922,-0.008665397763252258,-0.05931843
1141.8333333326236,0.14009012,-0.60268974,0.15386964,-2.1718342,0.0010629244,1.543301,0.8062207,0.039999586,0.04,-9.77374,-0.8050204515457153,-0.2785618,-0.21400057,-0.008823777548968792,-0.059102476
1141.8499999992903,0.14210856,-0.6000682,0.15609023,-2.169174,0.0010768984,1.542902,0.8065123,0.039999582,0.04,-9.77262,-0.814444363117218,-0.28332427,-0.21516755,-0.008982342667877674,-0.05887274
1141.866666665957,0.14413506,-0.59743595,0.15831977,-2.1665034,0.0010909333,1.5425016,0.806805,0.039999582,0.04,-9.771485,-0.8242942690849304,-0.28820148,-0.2163108,-0.00914233922958374,-0.058629397
1141.8833333326236,0.14616942,-0.5947937,0.16055797,-2.1638227,0.0011050184,1.5420996,0.8070988,0.039999574,0.04,-9.770484,-0.8336313962936401,-0.2930665,-0.21742919,-0.009306280873715878,-0.05837284
1141.8999999992902,0.14821136,-0.5921416,0.16280459,-2.1611316,0.0011191448,1.5416961,0.8073937,0.039999563,0.04,-9.769369,-0.8433742523193359,-0.2979872,-0.21852264,-0.009473022073507309,-0.05810332
1141.9166666659569,0.15026063,-0.58948,0.16505933,-2.1584313,0.001133315,1.5412912,0.8076897,0.03999956,0.04,-9.768211,-0.8525910377502441,-0.30287987,-0.21959107,-0.009638953022658825,-0.057819966
1141.9333333326235,0.15231699,-0.5868092,0.16732195,-2.1557217,0.0011475261,1.5408847,0.80798674,0.039999552,0.04,-9.767177,-0.8621986508369446,-0.30788025,-0.22063386,-0.00980959739536047,-0.057524495
1141.9499999992902,0.15438017,-0.5841295,0.16959216,-2.153003,0.001161785,1.540477,0.80828476,0.039999552,0.04,-9.766049,-0.871296763420105,-0.31281418,-0.22165102,-0.009982161223888397,-0.05721507
1141.9666666659568,0.15644996,-0.58144134,0.17186978,-2.1502755,0.0011760918,1.540068,0.80858374,0.039999552,0.04,-9.76489,-0.8807728290557861,-0.3178703,-0.22264197,-0.010154643096029758,-0.05689505
1141.9833333326235,0.15852611,-0.57874477,0.1741544,-2.1475394,0.0011904384,1.5396578,0.80888367,0.039999556,0.04,-9.76378,-0.8897556066513062,-0.32286736,-0.2236064,-0.01032879576086998,-0.05656217
1141.9999999992901,0.16060835,-0.57604027,0.1764459,-2.1447952,0.0012048377,1.5392464,0.8091845,0.03999955,0.04,-9.762626,-0.899068295955658,-0.32796195,-0.22454424,-0.01050359196960926,-0.056217022
1142.0166666659568,0.16269645,-0.5733282,0.17874387,-2.1420434,0.0012192447,1.5388339,0.80948603,0.039999545,0.04,-9.761489,-0.9081209897994995,-0.33303982,-0.22545479,-0.010679640807211399,-0.05586128
1142.0333333326234,0.16479015,-0.5706089,0.18104805,-2.1392844,0.0012336823,1.5384201,0.80978835,0.039999545,0.04,-9.760352,-0.9168645739555359,-0.3381288,-0.22633755,-0.010855882428586483,-0.055490483
1142.04999999929,0.16688916,-0.56788236,0.1833582,-2.1365185,0.0012481598,1.5380054,0.81009144,0.039999537,0.04,-9.759258,-0.9259363412857056,-0.34326652,-0.22719212,-0.011035440489649773,-0.0551086
1142.0666666659567,0.16899326,-0.5651495,0.18567409,-2.1337466,0.0012626733,1.5375896,0.81039536,0.03999954,0.04,-9.758188,-0.9345417022705078,-0.34842938,-0.22801894,-0.011217651888728142,-0.05471298
1142.0833333326234,0.1711022,-0.5624104,0.18799539,-2.1309679,0.0012772386,1.537173,0.8107,0.03999953,0.04,-9.757105,-0.943453848361969,-0.35360023,-0.22881787,-0.011402604170143604,-0.05430791
1142.09999999929,0.17321576,-0.5596652,0.19032182,-2.1281824,0.0012918251,1.5367554,0.81100523,0.039999526,0.04,-9.755897,-0.9519191980361938,-0.3587775,-0.22958806,-0.011584830470383167,-0.053891156
1142.1166666659567,0.1753336,-0.5569143,0.1926531,-2.125392,0.0013064477,1.536337,0.81131107,0.03999952,0.04,-9.7546835,-0.9606321454048157,-0.3640025,-0.23032922,-0.01176605373620987,-0.05346381
1142.1333333326234,0.17745547,-0.5541583,0.19498894,-2.1225972,0.0013210865,1.5359176,0.8116175,0.03999952,0.04,-9.753655,-0.9689282178878784,-0.36923635,-0.23104087,-0.011950777843594551,-0.053025857
1142.14999999929,0.17958118,-0.55139726,0.19732907,-2.1197956,0.0013357674,1.5354977,0.81192446,0.039999507,0.04,-9.752678,-0.9774355888366699,-0.37448296,-0.23172368,-0.012142779305577278,-0.05257691
1142.1666666659567,0.18171042,-0.54863167,0.19967327,-2.1169906,0.0013504492,1.5350772,0.812232,0.039999504,0.04,-9.751259,-0.9855800271034241,-0.37973535,-0.23237664,-0.012323702685534954,-0.052118894
1142.1833333326233,0.18384297,-0.5458618,0.20202112,-2.1141803,0.0013651524,1.5346558,0.81254005,0.039999496,0.04,-9.750354,-0.9938946962356567,-0.38502365,-0.23299962,-0.012512163259088993,-0.051650364
1142.19999999929,0.18597855,-0.54308784,0.20437245,-2.1113667,0.0013798599,1.5342339,0.8128485,0.039999485,0.04,-9.749092,-1.0018445253372192,-0.3903166,-0.2335928,-0.012696949765086174,-0.051172934
1142.2166666659566,0.18811691,-0.54031044,0.20672694,-2.1085486,0.0013945819,1.5338113,0.81315726,0.039999474,0.04,-9.748048,-1.009941816329956,-0.3956234,-0.2341552,-0.012884525582194328,-0.05068532
1142.2333333326233,0.19025776,-0.5375298,0.20908429,-2.105729,0.0014092952,1.5333884,0.8134664,0.039999474,0.04,-9.746832,-1.0177162885665894,-0.4009312,-0.23468645,-0.01306881569325924,-0.050188992
1142.24999999929,0.19240089,-0.5347463,0.21144421,-2.1029043,0.0014240446,1.5329652,0.8137759,0.039999463,0.04,-9.745953,-1.0255964994430542,-0.40626514,-0.23518746,-0.013260689564049244,-0.0496825
1142.2666666659566,0.19454597,-0.53196037,0.21380647,-2.1000783,0.0014387969,1.5325414,0.8140858,0.039999466,0.04,-9.744532,-1.0332704782485962,-0.41159904,-0.23565699,-0.013440335169434547,-0.049166918
1142.2833333326232,0.19669278,-0.52917194,0.21617068,-2.097251,0.0014535642,1.5321172,0.8143958,0.039999463,0.04,-9.743619,-1.0407464504241943,-0.41694245,-0.23609617,-0.013627570122480392,-0.048644554
1142.2999999992899,0.19884105,-0.5263816,0.21853667,-2.0944195,0.0014683376,1.531693,0.814706,0.039999455,0.04,-9.742659,-1.0482903718948364,-0.42231748,-0.2365028,-0.01381946261972189,-0.048113715
1142.3166666659565,0.2009905,-0.52358985,0.22090407,-2.0915868,0.0014831244,1.5312684,0.81501645,0.039999448,0.04,-9.741282,-1.0555636882781982,-0.4277085,-0.23687792,-0.014000107534229755,-0.04757384
1142.3333333326232,0.20314093,-0.5207967,0.2232726,-2.088753,0.0014979178,1.5308434,0.8153269,0.03999944,0.04,-9.740245,-1.0628734827041626,-0.43302867,-0.23722163,-0.014182223938405514,-0.047027174
1142.3499999992898,0.205292,-0.5180027,0.225642,-2.0859191,0.0015127059,1.5304184,0.8156375,0.039999433,0.04,-9.7391615,-1.06993567943573,-0.4384383,-0.23753254,-0.0143645154312253,-0.046473414
1142.3666666659565,0.20744346,-0.5152082,0.22801195,-2.0830848,0.0015274844,1.5299934,0.8159481,0.039999418,0.04,-9.738247,-1.0770313739776611,-0.44381124,-0.23781133,-0.014550549909472466,-0.04591356
1142.3833333326231,0.20959507,-0.51241356,0.2303822,-2.0802503,0.001542247,1.5295684,0.8162587,0.039999418,0.04,-9.737182,-1.0838531255722046,-0.4492273,-0.23805806,-0.014736353419721127,-0.04534616
1142.3999999992898,0.21174654,-0.50961906,0.23275244,-2.077416,0.0015570116,1.5291435,0.8165693,0.03999941,0.04,-9.73611,-1.0906985998153687,-0.45458332,-0.23827174,-0.014919530600309372,-0.044772126
1142.4166666659564,0.21389766,-0.5068252,0.23512241,-2.0745819,0.0015717634,1.5287185,0.8168799,0.039999403,0.04,-9.7350445,-1.097322940826416,-0.4600086,-0.2384533,-0.015102420002222061,-0.044191852
1142.433333332623,0.21604809,-0.5040322,0.23749182,-2.0717492,0.0015865072,1.5282935,0.8171904,0.039999396,0.04,-9.734022,-1.1039257049560547,-0.46536392,-0.2386019,-0.015283620916306973,-0.043605696
1142.4499999992897,0.2181976,-0.5012403,0.23986036,-2.0689175,0.0016012498,1.5278689,0.81750077,0.03999939,0.04,-9.733026,-1.1103157997131348,-0.47079304,-0.23871772,-0.01546624954789877,-0.043012917
1142.4666666659564,0.22034591,-0.49845,0.2422277,-2.066087,0.0016159787,1.5274447,0.817811,0.039999377,0.04,-9.731978,-1.1166664361953735,-0.4761586,-0.23880066,-0.015645962208509445,-0.042416774
1142.483333332623,0.22249283,-0.49566156,0.2445936,-2.0632598,0.0016306842,1.5270208,0.818121,0.039999373,0.04,-9.730927,-1.1228315830230713,-0.48159498,-0.23885074,-0.015822047367691994,-0.04181452
1142.4999999992897,0.224638,-0.49287537,0.24695781,-2.060434,0.0016453831,1.5265971,0.81843084,0.039999362,0.04,-9.730119,-1.1289165019989014,-0.48694608,-0.23886742,-0.016003374010324478,-0.04120787
1142.5166666659563,0.2267812,-0.49009183,0.24932,-2.0576103,0.0016600545,1.526174,0.81874025,0.03999935,0.04,-9.729018,-1.1348681449890137,-0.49232897,-0.23885155,-0.016179494559764862,-0.04059746
1142.533333332623,0.22892217,-0.48731107,0.25167984,-2.0547907,0.0016746976,1.525751,0.81904936,0.039999347,0.04,-9.727954,-1.14068603515625,-0.49774507,-0.2388015,-0.016351163387298584,-0.039981764
1142.5499999992896,0.23106062,-0.48453355,0.25403702,-2.0519738,0.0016893346,1.5253284,0.8193581,0.039999336,0.04,-9.727175,-1.1463757753372192,-0.50308174,-0.23871815,-0.016528194770216942,-0.039361957
1142.5666666659563,0.23319635,-0.4817597,0.25639147,-2.049161,0.0017039316,1.5249066,0.8196665,0.039999332,0.04,-9.726111,-1.151948094367981,-0.50849235,-0.23860191,-0.016701387241482735,-0.038739532
1142.583333332623,0.23532908,-0.4789897,0.25874266,-2.0463517,0.0017185125,1.5244853,0.81997454,0.039999317,0.04,-9.725245,-1.1574171781539917,-0.5138128,-0.23845176,-0.01687305048108101,-0.038114168
1142.5999999992896,0.23745851,-0.47622398,0.26109037,-2.0435472,0.0017330489,1.5240651,0.820282,0.03999931,0.04,-9.724254,-1.1627495288848877,-0.519214,-0.23826858,-0.017042985185980797,-0.03748528
1142.6166666659562,0.23958443,-0.4734629,0.26343456,-2.0407467,0.0017475659,1.5236453,0.8205889,0.03999931,0.04,-9.723416,-1.1679046154022217,-0.5245148,-0.2380515,-0.017210502177476883,-0.036853135
1142.633333332623,0.24170657,-0.4707068,0.26577452,-2.0379522,0.0017620813,1.523226,0.8208953,0.039999306,0.04,-9.722398,-1.1730384826660156,-0.5298878,-0.23779988,-0.017375051975250244,-0.036217425
1142.6499999992895,0.24382465,-0.46795592,0.26811028,-2.0351627,0.001776552,1.5228078,0.8212011,0.039999288,0.04,-9.721665,-1.1779307126998901,-0.5351435,-0.23751596,-0.017542574554681778,-0.035583388
1142.6666666659562,0.2459384,-0.4652106,0.27044153,-2.0323782,0.0017909877,1.5223902,0.82150626,0.039999284,0.04,-9.720714,-1.1828022003173828,-0.5405261,-0.23719771,-0.01770574040710926,-0.03494501
1142.6833333326229,0.24804756,-0.46247128,0.27276784,-2.0296001,0.0018053727,1.5219738,0.8218108,0.039999276,0.04,-9.719789,-1.1874467134475708,-0.5457459,-0.23684582,-0.01786414533853531,-0.03430664
1142.6999999992895,0.25015196,-0.4597382,0.27508897,-2.026829,0.0018197384,1.5215583,0.82211447,0.039999273,0.04,-9.718958,-1.1920559406280518,-0.55109173,-0.23646066,-0.018021779134869576,-0.03366491
1142.7166666659562,0.25225127,-0.4570118,0.27740473,-2.0240648,0.001834063,1.5211438,0.8224175,0.03999926,0.04,-9.718244,-1.1964311599731445,-0.55628467,-0.2360415,-0.01818089373409748,-0.033024803
1142.7333333326228,0.2543452,-0.4542923,0.27971482,-2.0213075,0.0018483539,1.5207303,0.82271993,0.039999247,0.04,-9.717398,-1.2008150815963745,-0.56160086,-0.23558947,-0.018337871879339218,-0.032383412
1142.7499999992895,0.25643364,-0.4515801,0.282019,-2.0185575,0.0018625853,1.5203178,0.82302135,0.039999243,0.04,-9.716603,-1.2049167156219482,-0.5667685,-0.2351044,-0.0184918399900198,-0.031740896
1142.766666665956,0.25851613,-0.44887543,0.28431687,-2.0158148,0.0018767824,1.5199065,0.823322,0.039999224,0.04,-9.715829,-1.2089608907699585,-0.5719675,-0.23458463,-0.01864483952522278,-0.031095512
1142.7833333326228,0.26059255,-0.4461786,0.28660825,-2.0130804,0.0018909277,1.5194964,0.8236217,0.03999921,0.04,-9.714932,-1.2129801511764526,-0.57724,-0.23403256,-0.018792521208524704,-0.030452358
1142.7999999992894,0.2626627,-0.44349015,0.28889278,-2.010354,0.0019049979,1.5190877,0.8239206,0.039999202,0.04,-9.714274,-1.2166868448257446,-0.582345,-0.23344693,-0.018940484151244164,-0.02981176
1142.816666665956,0.2647262,-0.44081023,0.29117027,-2.007637,0.0019190303,1.5186801,0.8242184,0.039999194,0.04,-9.713421,-1.2204629182815552,-0.587554,-0.2328289,-0.019083188846707344,-0.029170029
1142.8333333326227,0.2667829,-0.4381392,0.2934405,-2.0049293,0.0019330331,1.518274,0.8245153,0.039999187,0.04,-9.712823,-1.223882794380188,-0.59260476,-0.23217727,-0.01922767236828804,-0.028529603
1142.8499999992894,0.2688325,-0.43547744,0.2957031,-2.0022306,0.0019469658,1.5178692,0.82481116,0.039999176,0.04,-9.712106,-1.2274798154830933,-0.5977975,-0.23149267,-0.019370824098587036,-0.027893744
1142.866666665956,0.27087492,-0.43282518,0.2979579,-1.9995414,0.0019608513,1.5174661,0.8251059,0.039999165,0.04,-9.711392,-1.2306149005889893,-0.602793,-0.23077536,-0.019509710371494293,-0.027258053
1142.8833333326227,0.2729096,-0.43018284,0.30020446,-1.9968624,0.0019746744,1.5170645,0.8253995,0.039999157,0.04,-9.71063,-1.2339578866958618,-0.60793674,-0.23002453,-0.01964433491230011,-0.026623294
1142.8999999992893,0.27493656,-0.4275506,0.3024426,-1.9941933,0.0019884515,1.5166641,0.8256919,0.03999915,0.04,-9.710033,-1.2368155717849731,-0.6128694,-0.22924246,-0.01977768912911415,-0.025991809
1142.916666665956,0.2769556,-0.4249289,0.3046721,-1.9915351,0.0020021708,1.5162656,0.8259833,0.03999914,0.04,-9.709285,-1.2399067878723145,-0.61796194,-0.22842714,-0.019907621666789055,-0.025363075
1142.9333333326226,0.2789662,-0.42231786,0.3068927,-1.9888879,0.0020158153,1.5158687,0.8262735,0.039999124,0.04,-9.708709,-1.2425642013549805,-0.6228404,-0.22757944,-0.020034892484545708,-0.024736954
1142.9499999992893,0.28096834,-0.41971794,0.3091041,-1.9862522,0.002029396,1.5154732,0.8265624,0.03999912,0.04,-9.708079,-1.2453914880752563,-0.6278897,-0.226701,-0.020161526277661324,-0.024113156
1142.966666665956,0.28296167,-0.41712946,0.3113062,-1.983628,0.0020429264,1.5150796,0.82685006,0.03999911,0.04,-9.707546,-1.2477833032608032,-0.6327035,-0.22578995,-0.020287033170461655,-0.023493486
1142.9833333326226,0.28494602,-0.41455278,0.3134985,-1.9810158,0.002056379,1.514688,0.8271364,0.03999909,0.04,-9.706882,-1.2504310607910156,-0.63769555,-0.2248469,-0.02040930464863777,-0.022878852
1142.9999999992892,0.28692114,-0.41198808,0.3156808,-1.9784157,0.0020697375,1.5142982,0.8274213,0.03999908,0.04,-9.706353,-1.252533197402954,-0.64245456,-0.22387324,-0.020527610555291176,-0.022267183
1143.0166666659559,0.2888868,-0.40943557,0.31785303,-1.9758282,0.0020830417,1.5139103,0.827705,0.039999075,0.04,-9.7058,-1.25471031665802,-0.64727825,-0.222868,-0.020644135773181915,-0.021657094
1143.0333333326225,0.29084277,-0.40689576,0.32001474,-1.9732536,0.0020962798,1.5135242,0.8279872,0.03999907,0.04,-9.705218,-1.2570148706436157,-0.65218127,-0.22183189,-0.02075829915702343,-0.02105207
1143.0499999992892,0.2927889,-0.4043687,0.32216567,-1.970692,0.0021094547,1.5131401,0.828268,0.039999064,0.04,-9.704751,-1.258757472038269,-0.65683085,-0.22076508,-0.020870305597782135,-0.020452537
1143.0666666659558,0.29472488,-0.40185493,0.3243057,-1.9681438,0.0021225524,1.512758,0.82854724,0.03999905,0.04,-9.704184,-1.26083505153656,-0.6616787,-0.21966767,-0.020979832857847214,-0.019858997
1143.0833333326225,0.29665047,-0.39935458,0.32643443,-1.9656093,0.002135575,1.5123781,0.82882494,0.03999904,0.04,-9.703737,-1.2623378038406372,-0.6662578,-0.21853986,-0.021086955443024635,-0.019269204
1143.0999999992891,0.2985655,-0.396868,0.32855183,-1.9630891,0.0021485237,1.5120002,0.8291012,0.039999023,0.04,-9.703208,-1.2641663551330566,-0.671029,-0.21738215,-0.021190952509641647,-0.018685149
1143.1166666659558,0.30046982,-0.3943955,0.33065763,-1.9605827,0.0021613822,1.5116245,0.8293759,0.039999016,0.04,-9.702828,-1.2654563188552856,-0.6755424,-0.21619484,-0.021294163540005684,-0.018106258
1143.1333333326224,0.30236304,-0.3919374,0.3327514,-1.9580909,0.0021741642,1.5112506,0.829649,0.03999901,0.04,-9.702255,-1.2671091556549072,-0.68024284,-0.21497758,-0.02139171026647091,-0.017532697
1143.149999999289,0.30424517,-0.38949385,0.33483303,-1.9556143,0.00218687,1.5108794,0.82992053,0.039999,0.04,-9.701898,-1.26813542842865,-0.6846563,-0.21373151,-0.02148904651403427,-0.016964294
1143.1666666659557,0.30611578,-0.3870652,0.33690238,-1.9531528,0.0021995015,1.5105103,0.83019036,0.039998982,0.04,-9.701469,-1.2695780992507935,-0.6892984,-0.21245661,-0.021583957597613335,-0.01640212
1143.1833333326224,0.30797473,-0.38465166,0.33895907,-1.9507066,0.0022120464,1.5101433,0.83045846,0.039998963,0.04,-9.70109,-1.2703760862350464,-0.69366086,-0.21115257,-0.021675344556570053,-0.015842127
1143.199999999289,0.3098218,-0.3822537,0.34100294,-1.9482759,0.0022245073,1.5097791,0.83072484,0.039998952,0.04,-9.700677,-1.2716172933578491,-0.69820964,-0.2098206,-0.02176673337817192,-0.015292676
1143.2166666659557,0.31165686,-0.37987143,0.3430337,-1.9458615,0.0022368727,1.5094168,0.8309895,0.03999894,0.04,-9.700297,-1.2722259759902954,-0.70249254,-0.20846048,-0.02185160666704178,-0.014750468
1143.2333333326224,0.31347972,-0.37750506,0.34505117,-1.9434631,0.0022491438,1.5090573,0.83125234,0.039998934,0.04,-9.699932,-1.273264765739441,-0.7069531,-0.20707318,-0.021937154233455658,-0.014215057
1143.249999999289,0.31529018,-0.37515485,0.34705514,-1.9410814,0.0022613301,1.5087001,0.83151335,0.03999892,0.04,-9.699611,-1.273643970489502,-0.7111638,-0.20565781,-0.022017914801836014,-0.013685808
1143.2666666659557,0.31708792,-0.37282118,0.34904534,-1.9387163,0.0022734122,1.5083454,0.83177257,0.039998908,0.04,-9.699331,-1.2742124795913696,-0.7154399,-0.20421508,-0.02209882065653801,-0.013164586
1143.2833333326223,0.31887272,-0.37050423,0.35102162,-1.9363682,0.0022854109,1.5079933,0.83203006,0.0399989,0.04,-9.698925,-1.2749662399291992,-0.7197884,-0.20274645,-0.022176142781972885,-0.012650072
1143.299999999289,0.32064453,-0.3682043,0.35298383,-1.9340371,0.002297323,1.5076439,0.83228564,0.039998896,0.04,-9.698685,-1.2750288248062134,-0.72387344,-0.20125231,-0.02225063554942608,-0.012142894
1143.3166666659556,0.32240304,-0.36592147,0.35493156,-1.9317236,0.0023091624,1.5072968,0.8325393,0.03999888,0.04,-9.698295,-1.275631070137024,-0.72812307,-0.19973193,-0.02232116460800171,-0.011643015
1143.3333333326223,0.32414824,-0.36365625,0.35686478,-1.929428,0.0023208822,1.5069525,0.83279103,0.039998878,0.04,-9.698126,-1.275490403175354,-0.7321276,-0.1981863,-0.022391971200704575,-0.011153174
1143.349999999289,0.32587975,-0.36140868,0.35878322,-1.9271504,0.00233252,1.506611,0.83304083,0.039998863,0.04,-9.69779,-1.2759150266647339,-0.73629624,-0.1966152,-0.022459033876657486,-0.010669231
1143.3666666659556,0.3275976,-0.35917902,0.36068672,-1.9248912,0.0023440463,1.5062723,0.8332885,0.03999885,0.04,-9.697608,-1.2755924463272095,-0.7402001,-0.19501957,-0.022524021565914154,-0.010194145
1143.3833333326222,0.3293014,-0.35696754,0.36257505,-1.9226503,0.0023554636,1.5059363,0.83353406,0.039998844,0.04,-9.697358,-1.2758612632751465,-0.744302,-0.19339827,-0.022587895393371582,-0.009727802
1143.3999999992889,0.33099112,-0.3547745,0.36444798,-1.9204282,0.002366797,1.5056032,0.8337776,0.039998833,0.04,-9.697171,-1.2753442525863647,-0.74811304,-0.19175328,-0.022648857906460762,-0.009268405
1143.4166666659555,0.33266646,-0.35260013,0.36630538,-1.9182249,0.0023780393,1.5052727,0.8340192,0.039998822,0.04,-9.696894,-1.2754544019699097,-0.752119,-0.19008419,-0.022706782445311546,-0.008817336
1143.4333333326222,0.33432746,-0.3504446,0.36814708,-1.916041,0.00238917,1.5049453,0.8342585,0.039998807,0.04,-9.696764,-1.27476966381073,-0.7558341,-0.18839292,-0.022763419896364212,-0.00837537
1143.4499999992888,0.33597383,-0.34830812,0.3699728,-1.9138765,0.0024001815,1.5046207,0.8344957,0.039998796,0.04,-9.696522,-1.2747442722320557,-0.7597539,-0.18667704,-0.022817187011241913,-0.007942599
1143.4666666659555,0.33760527,-0.3461908,0.37178242,-1.9117315,0.0024110898,1.5042989,0.8347309,0.039998792,0.04,-9.6964245,-1.2738893032073975,-0.7633791,-0.18493879,-0.02286953292787075,-0.0075171352
1143.4833333326221,0.33922184,-0.3440931,0.37357578,-1.9096061,0.002421931,1.50398,0.83496386,0.039998785,0.04,-9.696202,-1.273635983467102,-0.7672201,-0.18317984,-0.02291976660490036,-0.007094072
1143.4999999992888,0.34082323,-0.34201497,0.37535277,-1.9075009,0.002432665,1.5036643,0.8351946,0.039998773,0.04,-9.696101,-1.2726951837539673,-0.7707475,-0.18139854,-0.022967884317040443,-0.006685378
1143.5166666659554,0.34240925,-0.33995685,0.37711295,-1.9054154,0.002443292,1.5033517,0.8354231,0.039998762,0.04,-9.695973,-1.2719982862472534,-0.7743712,-0.17959559,-0.023014189675450325,-0.006286458
1143.533333332622,0.34398,-0.3379188,0.37885642,-1.9033506,0.0024538054,1.5030423,0.83564943,0.03999875,0.04,-9.695729,-1.2715617418289185,-0.7780553,-0.17777288,-0.023055294528603554,-0.005896387
1143.5499999992887,0.34553516,-0.33590105,0.3805829,-1.9013062,0.0024641906,1.5027359,0.8358735,0.03999874,0.04,-9.695687,-1.2703726291656494,-0.7814563,-0.17592949,-0.02309397980570793,-0.005516169
1143.5666666659554,0.34707454,-0.33390376,0.38229215,-1.8992827,0.0024744582,1.5024325,0.83609533,0.03999873,0.04,-9.695506,-1.2698581218719482,-0.78503174,-0.17406632,-0.023131471127271652,-0.0051454715
1143.583333332622,0.34859806,-0.3319271,0.3839841,-1.89728,0.0024846117,1.502132,0.83631486,0.03999872,0.04,-9.695486,-1.2684664726257324,-0.7883298,-0.17218454,-0.02316691167652607,-0.004782607
1143.5999999992887,0.35010558,-0.32997128,0.38565865,-1.8952985,0.0024946802,1.501835,0.83653206,0.039998714,0.04,-9.695319,-1.2678087949752808,-0.79183334,-0.17028415,-0.02320050820708275,-0.0044273483
1143.6166666659553,0.35159692,-0.32803643,0.3873157,-1.8933386,0.002504639,1.5015411,0.8367469,0.03999871,0.04,-9.695317,-1.2663415670394897,-0.79503816,-0.16836506,-0.02323182299733162,-0.0040821247
1143.633333332622,0.35307205,-0.32612276,0.38895497,-1.8913997,0.0025144997,1.5012505,0.8369594,0.039998706,0.04,-9.69523,-1.265593409538269,-0.79845184,-0.16642776,-0.0232622679322958,-0.0037459251
1143.6499999992886,0.35453072,-0.3242304,0.3905764,-1.8894826,0.002524244,1.5009631,0.8371695,0.039998688,0.04,-9.695159,-1.2640000581741333,-0.80154186,-0.16447324,-0.023288825526833534,-0.0034206207
1143.6666666659553,0.35597295,-0.32235953,0.3921798,-1.8875877,0.0025338556,1.5006789,0.8373772,0.039998677,0.04,-9.695077,-1.2631443738937378,-0.8048674,-0.16250166,-0.023313747718930244,-0.0031044174
1143.683333332622,0.35739857,-0.32051024,0.393765,-1.8857147,0.0025433647,1.500398,0.8375825,0.03999867,0.04,-9.69515,-1.2614233493804932,-0.80786806,-0.16051301,-0.0233394093811512,-0.0027957868
1143.6999999992886,0.35880738,-0.3186828,0.3953319,-1.8838636,0.0025527477,1.5001204,0.83778536,0.039998665,0.04,-9.695038,-1.26047945022583,-0.8110974,-0.15850875,-0.023362305015325546,-0.0024981298
1143.7166666659552,0.3601994,-0.3168773,0.39688054,-1.8820347,0.0025620128,1.4998459,0.8379859,0.039998658,0.04,-9.695061,-1.2586387395858765,-0.81399554,-0.15648934,-0.023383062332868576,-0.0022087893
1143.733333332622,0.36157444,-0.31509382,0.39841056,-1.8802283,0.0025711583,1.4995748,0.83818394,0.03999865,0.04,-9.694975,-1.2576302289962769,-0.8171163,-0.1544548,-0.023402631282806396,-0.0019290403
1143.7499999992885,0.36293232,-0.31333253,0.39992198,-1.8784443,0.0025802073,1.4993072,0.83837944,0.03999864,0.04,-9.69505,-1.2557034492492676,-0.8199337,-0.15240595,-0.023420678451657295,-0.0016571187
1143.7666666659552,0.36427313,-0.31159353,0.40141457,-1.876683,0.0025891152,1.4990429,0.83857256,0.03999864,0.04,-9.695028,-1.2541686296463013,-0.82283753,-0.150343,-0.02343568578362465,-0.0013958693
1143.7833333326219,0.36559665,-0.30987704,0.40288845,-1.8749444,0.0025979183,1.4987822,0.8387632,0.039998632,0.04,-9.694975,-1.252991795539856,-0.8258213,-0.14826697,-0.023449543863534927,-0.0011408165
1143.7999999992885,0.36690277,-0.30818313,0.40434313,-1.8732288,0.0026066187,1.4985249,0.83895135,0.039998613,0.04,-9.695051,-1.2509570121765137,-0.8284818,-0.14617775,-0.023461265489459038,-0.0008936249
1143.8166666659552,0.36819154,-0.30651182,0.40577874,-1.871536,0.0026151661,1.4982711,0.83913684,0.039998602,0.04,-9.694994,-1.2497278451919556,-0.8313669,-0.14407758,-0.02347058244049549,-0.0006595946
1143.8333333326218,0.36946285,-0.30486336,0.4071952,-1.8698663,0.0026236067,1.4980209,0.8393198,0.03999859,0.04,-9.695085,-1.2476030588150024,-0.8339378,-0.14196424,-0.023478440940380096,-0.00043225996
1143.8499999992885,0.3707164,-0.30323777,0.4085925,-1.8682201,0.0026319006,1.497774,0.83950025,0.039998587,0.04,-9.695016,-1.2463487386703491,-0.83672035,-0.13983984,-0.023482555523514748,-0.0002167106
1143.866666665955,0.37195227,-0.30163518,0.4099704,-1.8665969,0.0026401028,1.4975306,0.83967805,0.039998576,0.04,-9.695191,-1.2441332340240479,-0.83919543,-0.1377046,-0.02348841354250908,-6.005696e-06
1143.8833333326218,0.37317038,-0.3000556,0.41132882,-1.8649973,0.0026481736,1.4972907,0.8398534,0.03999857,0.04,-9.695134,-1.2428040504455566,-0.84187245,-0.13555938,-0.023491516709327698,0.00019285273
1143.8999999992884,0.37437063,-0.29849917,0.41266775,-1.8634216,0.0026561096,1.4970545,0.84002626,0.039998572,0.04,-9.695238,-1.2405320405960083,-0.84427667,-0.13340536,-0.023492366075515747,0.0003842948
1143.916666665955,0.3755532,-0.2969661,0.41398713,-1.861869,0.0026639616,1.4968218,0.84019643,0.03999856,0.04,-9.695317,-1.2391393184661865,-0.8468646,-0.13124284,-0.023495126515626907,0.000568201
1143.9333333326217,0.37671772,-0.2954562,0.41528684,-1.8603401,0.0026716911,1.4965926,0.840364,0.03999855,0.04,-9.695352,-1.2368628978729248,-0.8491422,-0.1290709,-0.02349276840686798,0.00074284174
1143.9499999992884,0.37786418,-0.29396966,0.41656682,-1.858835,0.0026793054,1.4963669,0.8405289,0.039998543,0.04,-9.695386,-1.235425353050232,-0.8516537,-0.12689118,-0.023490093648433685,0.0009089275
1143.966666665955,0.37899268,-0.2925065,0.41782704,-1.8573533,0.002686774,1.4961444,0.8406914,0.03999854,0.04,-9.695522,-1.2330735921859741,-0.85384095,-0.12470448,-0.023486735299229622,0.0010651622
1143.9833333326217,0.38010305,-0.29106683,0.41906735,-1.8558953,0.0026941188,1.4959257,0.8408512,0.03999853,0.04,-9.695509,-1.2316113710403442,-0.85623544,-0.12251142,-0.023482510820031166,0.0012140961
1143.9999999992883,0.38119537,-0.28965068,0.4202878,-1.8544614,0.0027013337,1.4957104,0.84100825,0.039998528,0.04,-9.695631,-1.2292131185531616,-0.8583432,-0.12031266,-0.023475555703043938,0.0013547136
1144.016666665955,0.38226947,-0.2882581,0.4214883,-1.8530524,0.0027084386,1.4954988,0.8411628,0.039998524,0.04,-9.695748,-1.2272520065307617,-0.86051583,-0.118108004,-0.023468777537345886,0.0014882919
1144.0333333326216,0.38332534,-0.28688917,0.42266887,-1.8516668,0.0027154062,1.4952908,0.84131473,0.039998524,0.04,-9.695889,-1.2257548570632935,-0.86280435,-0.115898825,-0.023464588448405266,0.0016133405
1144.0499999992883,0.38436309,-0.28554395,0.4238295,-1.8503051,0.0027222661,1.4950864,0.841464,0.039998516,0.04,-9.695973,-1.2233045101165771,-0.86475784,-0.113686085,-0.023457113653421402,0.0017314908
1144.066666665955,0.3853826,-0.28422236,0.42497012,-1.8489672,0.002729005,1.4948857,0.84161055,0.03999851,0.04,-9.695986,-1.2217915058135986,-0.8669261,-0.111469,-0.023447487503290176,0.0018415059
1144.0833333326216,0.38638383,-0.28292438,0.4260907,-1.8476529,0.0027356201,1.4946886,0.8417546,0.03999851,0.04,-9.69612,-1.2193400859832764,-0.86880326,-0.10924872,-0.023435531184077263,0.001944684
1144.0999999992882,0.3873669,-0.28165016,0.42719126,-1.8463631,0.0027421073,1.4944952,0.841896,0.039998505,0.04,-9.696115,-1.2177945375442505,-0.870887,-0.1070267,-0.023420630022883415,0.0020397035
1144.1166666659549,0.3883316,-0.2803995,0.4282717,-1.845097,0.002748476,1.4943053,0.8420347,0.039998505,0.04,-9.696319,-1.215334415435791,-0.8726519,-0.10480243,-0.023406118154525757,0.0021287191
1144.1333333326215,0.38927808,-0.2791725,0.429332,-1.843855,0.0027547232,1.4941189,0.8421708,0.0399985,0.04,-9.696355,-1.213760256767273,-0.8746437,-0.10257752,-0.02339078299701214,0.0022103547
1144.1499999992882,0.3902062,-0.27796927,0.43037224,-1.8426371,0.0027608525,1.4939363,0.8423042,0.0399985,0.04,-9.696533,-1.2112665176391602,-0.8763394,-0.10035234,-0.023374563083052635,0.0022848856
1144.1666666659548,0.39111608,-0.2767896,0.43139237,-1.841443,0.002766868,1.4937572,0.8424352,0.039998494,0.04,-9.696592,-1.2096819877624512,-0.8782359,-0.09812807,-0.023357098922133446,0.0023551278
1144.1833333326215,0.39200777,-0.27563366,0.43239263,-1.8402727,0.002772756,1.4935819,0.84256345,0.039998487,0.04,-9.696728,-1.2071977853775024,-0.87983364,-0.09590526,-0.02333759143948555,0.0024173325
1144.1999999992881,0.3928814,-0.2745013,0.43337274,-1.8391265,0.0027785245,1.4934099,0.84268904,0.03999848,0.04,-9.696785,-1.2056483030319214,-0.8816381,-0.09368384,-0.023317070677876472,0.002473369
1144.2166666659548,0.39373678,-0.27339247,0.43433276,-1.838004,0.002784174,1.4932415,0.84281206,0.039998468,0.04,-9.696971,-1.203178882598877,-0.88313437,-0.09146357,-0.02329673245549202,0.0025223559
1144.2333333326214,0.39457393,-0.2723071,0.43527284,-1.8369056,0.0027896904,1.4930768,0.84293246,0.039998468,0.04,-9.697003,-1.2015907764434814,-0.8848605,-0.08924745,-0.023274051025509834,0.0025659045
1144.249999999288,0.395393,-0.2712452,0.43619296,-1.835831,0.00279508,1.4929159,0.84305036,0.039998457,0.04,-9.697244,-1.199120283126831,-0.8862883,-0.08703498,-0.023253029212355614,0.0026019013
1144.2666666659547,0.39619398,-0.2702067,0.4370931,-1.8347796,0.0028003603,1.4927584,0.8431655,0.039998453,0.04,-9.697343,-1.1970876455307007,-0.8878008,-0.08482735,-0.023229023441672325,0.0026338338
1144.2833333326214,0.39697695,-0.2691916,0.43797338,-1.8337524,0.002805508,1.4926045,0.84327817,0.039998453,0.04,-9.697352,-1.1955225467681885,-0.88938236,-0.08262502,-0.023202836513519287,0.0026583737
1144.299999999288,0.39774197,-0.26819965,0.43883383,-1.8327485,0.0028105373,1.492454,0.84338814,0.039998453,0.04,-9.697604,-1.1930627822875977,-0.8906725,-0.080428615,-0.023178420960903168,0.002678548
1144.3166666659547,0.398489,-0.26723096,0.4396745,-1.831768,0.0028154415,1.4923071,0.8434956,0.03999845,0.04,-9.6976385,-1.1915029287338257,-0.8921759,-0.07823827,-0.023152170702815056,0.002693335
1144.3333333326214,0.39921823,-0.26628533,0.44049552,-1.8308111,0.0028202292,1.4921635,0.8436006,0.039998446,0.04,-9.697828,-1.1890453100204468,-0.89338356,-0.07605636,-0.023125801235437393,0.0027030837
1144.349999999288,0.3999297,-0.26536283,0.44129688,-1.8298777,0.002824901,1.4920235,0.8437029,0.039998442,0.04,-9.697908,-1.1875154972076416,-0.89480126,-0.0738823,-0.02309906855225563,0.002708083
1144.3666666659547,0.40062347,-0.26446307,0.44207877,-1.8289676,0.0028294416,1.491887,0.84380275,0.039998442,0.04,-9.698106,-1.1850844621658325,-0.8959167,-0.07171733,-0.023072218522429466,0.002707897
1144.3833333326213,0.40129948,-0.26358604,0.44284126,-1.82808,0.002833868,1.4917538,0.8439,0.03999844,0.04,-9.698212,-1.1835635900497437,-0.8972729,-0.069561504,-0.023045774549245834,0.0027038106
1144.399999999288,0.4019581,-0.2627316,0.4435844,-1.8272156,0.0028381855,1.4916241,0.8439948,0.03999844,0.04,-9.698347,-1.1811443567276,-0.8983211,-0.06741612,-0.02301730588078499,0.0026961549
1144.4166666659546,0.40259928,-0.26189962,0.44430822,-1.8263739,0.0028424032,1.491498,0.8440871,0.03999844,0.04,-9.698454,-1.1796447038650513,-0.899579,-0.06528122,-0.02298939786851406,0.0026842244
1144.4333333326213,0.4032231,-0.26109013,0.44501278,-1.8255548,0.002846498,1.4913751,0.8441769,0.03999844,0.04,-9.69864,-1.1772589683532715,-0.90056217,-0.06315901,-0.022960854694247246,0.0026672855
1144.449999999288,0.40382975,-0.26030287,0.44569838,-1.8247583,0.0028504904,1.4912555,0.8442642,0.039998434,0.04,-9.698683,-1.175745964050293,-0.90172213,-0.061049294,-0.0229304451495409,0.0026473722
1144.4666666659546,0.40441927,-0.25953776,0.44636512,-1.8239841,0.0028543512,1.4911392,0.84434915,0.039998434,0.04,-9.698892,-1.1734148263931274,-0.90261936,-0.058953047,-0.022901156917214394,0.0026224158
1144.4833333326212,0.40499175,-0.25879458,0.44701305,-1.8232323,0.0028581142,1.4910264,0.8444315,0.03999844,0.04,-9.69897,-1.171932578086853,-0.9037043,-0.056871157,-0.02287161722779274,0.0025958805
1144.4999999992879,0.40554738,-0.2580732,0.4476423,-1.8225027,0.002861775,1.4909171,0.84451145,0.039998434,0.04,-9.699154,-1.1696133613586426,-0.90452594,-0.05480375,-0.022840466350317,0.0025650912
1144.5166666659545,0.4060863,-0.2573733,0.44825298,-1.8217946,0.0028653217,1.490811,0.84458905,0.039998434,0.04,-9.69933,-1.1677303314208984,-0.9054263,-0.05275207,-0.022809984162449837,0.0025314451
1144.5333333326212,0.40660858,-0.25669485,0.44884533,-1.8211082,0.0028687436,1.4907082,0.8446643,0.03999844,0.04,-9.699365,-1.166277527809143,-0.90640503,-0.050717264,-0.02277773804962635,0.0024946164
1144.5499999992878,0.40711442,-0.2560376,0.4494194,-1.8204434,0.002872084,1.4906086,0.8447371,0.039998446,0.04,-9.699549,-1.163988709449768,-0.9071138,-0.048700165,-0.022744718939065933,0.002456636
1144.5666666659545,0.40760395,-0.25540134,0.44997552,-1.8197997,0.0028753188,1.4905119,0.8448076,0.039998442,0.04,-9.69967,-1.1625661849975586,-0.90801173,-0.04670118,-0.022713234648108482,0.002414564
1144.5833333326211,0.40807736,-0.2547858,0.4505137,-1.8191772,0.0028784503,1.4904184,0.84487593,0.039998446,0.04,-9.699822,-1.1603223085403442,-0.90863806,-0.044721358,-0.022680960595607758,0.0023710798
1144.5999999992878,0.4085347,-0.25419092,0.45103416,-1.8185754,0.0028814746,1.4903282,0.8449419,0.039998442,0.04,-9.699954,-1.1589150428771973,-0.90947694,-0.042761665,-0.0226499754935503,0.0023243253
1144.6166666659544,0.40897632,-0.25361648,0.45153713,-1.8179945,0.0028843912,1.490241,0.8450055,0.03999844,0.04,-9.700098,-1.1566919088363647,-0.9100399,-0.040823083,-0.022616952657699585,0.0022757459
1144.633333332621,0.40940222,-0.25306213,0.45202273,-1.8174337,0.0028872031,1.4901569,0.8450669,0.039998442,0.04,-9.700229,-1.1553034782409668,-0.9107809,-0.038905486,-0.022585144266486168,0.0022264102
1144.6499999992877,0.40981278,-0.25252765,0.4524912,-1.8168933,0.0028899086,1.4900758,0.8451262,0.039998446,0.04,-9.700393,-1.1531243324279785,-0.91128516,-0.03701053,-0.022552920505404472,0.002174464
1144.6666666659544,0.41020808,-0.25201276,0.45294273,-1.8163729,0.0028925142,1.4899979,0.8451833,0.039998446,0.04,-9.70052,-1.1517561674118042,-0.91196537,-0.035139445,-0.022521577775478363,0.002121186
1144.683333332621,0.41058826,-0.2515173,0.45337757,-1.8158715,0.0028950186,1.4899226,0.8452383,0.03999845,0.04,-9.7007065,-1.1496142148971558,-0.9124077,-0.033292484,-0.02248968556523323,0.0020665263
1144.6999999992877,0.41095352,-0.25104085,0.45379585,-1.81539,0.002897428,1.4898503,0.84529114,0.03999845,0.04,-9.700746,-1.148234248161316,-0.91300243,-0.031471264,-0.02245650440454483,0.0020114647
1144.7166666659543,0.41130424,-0.2505833,0.4541979,-1.8149278,0.002899738,1.4897809,0.8453418,0.03999845,0.04,-9.701015,-1.1461238861083984,-0.9133835,-0.02967594,-0.022427063435316086,0.0019546414
1144.733333332621,0.41164055,-0.2501443,0.454584,-1.8144842,0.0029019665,1.4897146,0.84539044,0.03999845,0.04,-9.701118,-1.1447712182998657,-0.913926,-0.027907092,-0.022396773099899292,0.0018978688
1144.7499999992876,0.41196266,-0.24972354,0.45495424,-1.8140593,0.0029040878,1.4896507,0.84543705,0.03999845,0.04,-9.701286,-1.1427147388458252,-0.91423744,-0.026166148,-0.022365054115653038,0.0018397124
1144.7666666659543,0.4122706,-0.2493207,0.4553091,-1.813652,0.0029061108,1.4895896,0.8454817,0.039998453,0.04,-9.701464,-1.1410069465637207,-0.9146053,-0.02445394,-0.022336455062031746,0.0017811557
1144.783333332621,0.41256502,-0.24893545,0.45564857,-1.8132623,0.0029080538,1.4895313,0.84552443,0.039998457,0.04,-9.701514,-1.1396613121032715,-0.91504097,-0.022772033,-0.022306159138679504,0.001723159
1144.7999999992876,0.41284585,-0.24856748,0.45597312,-1.8128904,0.0029099102,1.4894755,0.8455653,0.039998453,0.04,-9.701655,-1.13764226436615,-0.9152699,-0.02112042,-0.022273264825344086,0.0016636903
1144.8166666659542,0.41311347,-0.24821647,0.45628303,-1.8125356,0.002911666,1.4894222,0.84560436,0.039998457,0.04,-9.701813,-1.1363105773925781,-0.91563326,-0.01950084,-0.022243624553084373,0.001604431
1144.833333332621,0.4133682,-0.24788207,0.45657855,-1.8121979,0.0029133516,1.4893717,0.84564155,0.039998457,0.04,-9.702002,-1.1343138217926025,-0.9158019,-0.01791413,-0.022214137017726898,0.001546079
1144.8499999992875,0.4136102,-0.24756391,0.45685998,-1.8118764,0.0029149519,1.4893233,0.8456769,0.039998464,0.04,-9.702131,-1.132987141609192,-0.91611046,-0.016360281,-0.022185102105140686,0.0014881154
1144.8666666659542,0.41383982,-0.24726169,0.4571276,-1.8115706,0.002916473,1.4892776,0.8457104,0.039998464,0.04,-9.70229,-1.1310367584228516,-0.9162121,-0.014840751,-0.02215667814016342,0.0014296676
1144.8833333326209,0.4140573,-0.24697502,0.45738164,-1.8112807,0.0029179202,1.4892342,0.84574205,0.039998464,0.04,-9.702369,-1.1297045946121216,-0.91645616,-0.013355774,-0.022125985473394394,0.0013723867
1144.8999999992875,0.41426295,-0.24670345,0.4576226,-1.8110064,0.0029192825,1.489193,0.84577197,0.039998468,0.04,-9.702561,-1.1277607679367065,-0.91650516,-0.011906787,-0.022096524015069008,0.0013149413
1144.9166666659542,0.41445717,-0.24644665,0.4578507,-1.8107471,0.0029205824,1.4891542,0.84580034,0.039998468,0.04,-9.702731,-1.1264220476150513,-0.9166952,-0.010494677,-0.022069988772273064,0.0012592376
1144.9333333326208,0.4146401,-0.2462042,0.45806625,-1.8105023,0.0029218015,1.4891171,0.84582716,0.039998468,0.04,-9.702925,-1.1245319843292236,-0.9167032,-0.009120644,-0.022043006494641304,0.0012036962
1144.9499999992875,0.41481206,-0.24597569,0.45826977,-1.8102716,0.0029229198,1.4890828,0.84585255,0.039998475,0.04,-9.703053,-1.1231721639633179,-0.91682386,-0.0077862684,-0.022018911316990852,0.0011492099
1144.966666665954,0.4149734,-0.2457607,0.45846143,-1.8100543,0.0029239787,1.4890497,0.8458762,0.03999848,0.04,-9.703236,-1.1212854385375977,-0.9167936,-0.006492507,-0.021992748603224754,0.0010967473
1144.9833333326208,0.4151245,-0.24555881,0.45864162,-1.8098503,0.002924993,1.4890195,0.8458985,0.03999848,0.04,-9.703337,-1.1199177503585815,-0.9168416,-0.00523937,-0.02196979522705078,0.0010453522
1144.9999999992874,0.41526568,-0.2453696,0.45881087,-1.809659,0.0029259385,1.4889902,0.8459196,0.039998483,0.04,-9.703521,-1.1180384159088135,-0.91678303,-0.0040285885,-0.021942928433418274,0.0009950409
1145.016666665954,0.4153974,-0.24519256,0.45896944,-1.8094803,0.0029268397,1.488964,0.84593916,0.039998483,0.04,-9.703697,-1.116432547569275,-0.9167003,-0.0028620968,-0.021921813488006592,0.00094653975
1145.0333333326207,0.41551977,-0.24502729,0.4591178,-1.809313,0.002927668,1.4889385,0.8459572,0.039998487,0.04,-9.703847,-1.115065097808838,-0.9167213,-0.001738025,-0.0218972135335207,0.00089865766
1145.0499999992874,0.41563338,-0.24487327,0.45925632,-1.8091573,0.002928447,1.4889157,0.84597456,0.039998487,0.04,-9.704005,-1.113208293914795,-0.91653436,-0.00065841404,-0.021876340731978416,0.0008534452
1145.066666665954,0.41573846,-0.24473004,0.45938534,-1.8090125,0.0029291515,1.4888939,0.8459903,0.039998494,0.04,-9.704136,-1.1118087768554688,-0.91649437,0.00037279527,-0.021851802244782448,0.0008091151
1145.0833333326207,0.41583547,-0.24459708,0.45950532,-1.8088785,0.0029298093,1.4888737,0.84600496,0.039998498,0.04,-9.704377,-1.1099586486816406,-0.9162867,0.0013585255,-0.021832162514328957,0.00076757744
1145.0999999992873,0.4159247,-0.24447389,0.45961663,-1.8087541,0.0029304232,1.4888556,0.8460186,0.039998494,0.04,-9.704565,-1.1085243225097656,-0.9161877,0.0022959593,-0.021814676001667976,0.0007270776
1145.116666665954,0.41600662,-0.24436,0.45971984,-1.808639,0.0029309916,1.4888377,0.84603095,0.039998498,0.04,-9.704714,-1.1066720485687256,-0.91596836,0.0031833919,-0.021793900057673454,0.0006890552
1145.1333333326206,0.41608158,-0.2442549,0.45981532,-1.8085328,0.002931519,1.4888223,0.8460427,0.0399985,0.04,-9.704903,-1.1051913499832153,-0.9157873,0.004021938,-0.021779591217637062,0.00065352087
1145.1499999992873,0.41615018,-0.244158,0.45990363,-1.808435,0.002932,1.488808,0.8460532,0.0399985,0.04,-9.705062,-1.1033629179000854,-0.91554236,0.004807078,-0.021761076524853706,0.0006191522
1145.166666665954,0.41621268,-0.24406877,0.45998517,-1.8083451,0.0029324417,1.488794,0.846063,0.039998505,0.04,-9.705251,-1.101863145828247,-0.91533417,0.0055422485,-0.021744614467024803,0.0005879784
1145.1833333326206,0.41626945,-0.24398667,0.46006033,-1.8082621,0.0029328465,1.4887812,0.84607255,0.039998513,0.04,-9.705508,-1.100034236907959,-0.9150241,0.006223756,-0.02173430658876896,0.0005595676
1145.1999999992872,0.41632095,-0.24391116,0.46012974,-1.8081859,0.0029332207,1.4887705,0.8460806,0.03999851,0.04,-9.705636,-1.0984771251678467,-0.9148,0.0068485523,-0.02172321081161499,0.00053234084
1145.2166666659539,0.41636783,-0.24384168,0.46019366,-1.8081161,0.0029335637,1.4887601,0.8460885,0.039998513,0.04,-9.705828,-1.0967392921447754,-0.91454136,0.0074252416,-0.021709313616156578,0.00050799333
1145.2333333326205,0.41641018,-0.24377775,0.46025267,-1.8080515,0.0029338812,1.4887499,0.84609574,0.039998516,0.04,-9.706022,-1.0953609943389893,-0.9143273,0.007951595,-0.02170008420944214,0.00048570553
1145.2499999992872,0.4164486,-0.24371895,0.46030712,-1.8079917,0.0029341702,1.4887398,0.8461019,0.039998516,0.04,-9.70616,-1.0938791036605835,-0.9140741,0.008433881,-0.021693678572773933,0.00046451663
1145.2666666659538,0.4164835,-0.24366492,0.4603574,-1.8079374,0.0029344414,1.4887325,0.8461079,0.039998516,0.04,-9.706271,-1.0926038026809692,-0.91387534,0.00887767,-0.021689310669898987,0.0004457987
1145.2833333326205,0.41651517,-0.24361515,0.46040368,-1.8078873,0.0029346822,1.4887257,0.8461138,0.03999852,0.04,-9.706417,-1.091557264328003,-0.9137683,0.009282833,-0.021679813042283058,0.0004275852
1145.2999999992871,0.4165438,-0.24356937,0.46044648,-1.8078413,0.0029349101,1.4887191,0.8461186,0.039998524,0.04,-9.706541,-1.090402364730835,-0.91357476,0.009652214,-0.02167103998363018,0.00041133648
1145.3166666659538,0.41656977,-0.24352722,0.4604859,-1.8077989,0.002935118,1.4887127,0.84612286,0.039998524,0.04,-9.706655,-1.0895123481750488,-0.91342723,0.009993292,-0.021664926782250404,0.0003959003
1145.3333333326204,0.41659328,-0.2434885,0.46052226,-1.80776,0.0029353052,1.4887062,0.84612703,0.039998524,0.04,-9.706756,-1.08854341506958,-0.9132685,0.010306597,-0.0216609425842762,0.00038159688
1145.349999999287,0.41661462,-0.24345283,0.4605558,-1.807724,0.0029354815,1.4887,0.84613115,0.039998528,0.04,-9.706866,-1.087780475616455,-0.9131426,0.010592059,-0.02166041173040867,0.00036945046
1145.3666666659537,0.41663393,-0.24342,0.46058682,-1.8076906,0.0029356366,1.488694,0.84613514,0.039998528,0.04,-9.70693,-1.0869876146316528,-0.91300964,0.010852334,-0.02166045643389225,0.00035669666
1145.3833333326204,0.4166514,-0.24338982,0.46061543,-1.8076602,0.0029357823,1.4886903,0.846139,0.039998535,0.04,-9.706979,-1.086349368095398,-0.912921,0.011089857,-0.02166139706969261,0.0003465616
1145.399999999287,0.4166673,-0.24336204,0.46064183,-1.8076322,0.0029359201,1.4886869,0.84614164,0.03999853,0.04,-9.707042,-1.0856825113296509,-0.9128534,0.011306531,-0.02165471576154232,0.00033596967
1145.4166666659537,0.4166816,-0.24333645,0.46066615,-1.8076061,0.002936042,1.4886839,0.846144,0.039998535,0.04,-9.707093,-1.0851585865020752,-0.9127605,0.01150964,-0.021648336201906204,0.00032627615
1145.4333333326204,0.4166946,-0.24331295,0.46068856,-1.8075826,0.002936158,1.4886811,0.8461463,0.03999853,0.04,-9.707119,-1.0845764875411987,-0.91265166,0.011695399,-0.02164086326956749,0.00031706085
1145.449999999287,0.41670635,-0.24329132,0.4607092,-1.8075606,0.002936261,1.4886782,0.84614855,0.039998535,0.04,-9.707239,-1.0841264724731445,-0.9125761,0.011865407,-0.021636873483657837,0.000309615
1145.4666666659537,0.4167169,-0.24327146,0.4607283,-1.8075405,0.0029363595,1.4886755,0.84615076,0.039998535,0.04,-9.70724,-1.0836470127105713,-0.9124808,0.012019991,-0.02163226529955864,0.0003018673
1145.4833333326203,0.41672647,-0.24325314,0.46074593,-1.8075218,0.00293645,1.4886727,0.8461529,0.039998535,0.04,-9.707315,-1.083270788192749,-0.9124081,0.01216082,-0.021629784256219864,0.00029491243
1145.499999999287,0.41673505,-0.24323629,0.4607622,-1.8075049,0.0029365316,1.4886701,0.84615505,0.039998535,0.04,-9.707333,-1.0828732252120972,-0.9123304,0.012289436,-0.021627534180879593,0.00028856855
1145.5166666659536,0.41674298,-0.24322079,0.46077716,-1.8074894,0.0029366044,1.4886675,0.84615713,0.039998535,0.04,-9.70741,-1.0825260877609253,-0.91227514,0.012406204,-0.021627118811011314,0.0002827114
1145.5333333326203,0.41675013,-0.24320656,0.46079093,-1.8074745,0.0029366703,1.4886649,0.8461591,0.039998535,0.04,-9.707458,-1.0822557210922241,-0.9122204,0.012513133,-0.021628258749842644,0.00027747077
1145.549999999287,0.41675648,-0.24319343,0.46080363,-1.8074613,0.0029367288,1.4886624,0.84616107,0.039998535,0.04,-9.707406,-1.08193838596344,-0.91215503,0.0126105845,-0.021627195179462433,0.00027247283
1145.5666666659536,0.4167623,-0.24318141,0.46081537,-1.8074495,0.0029367825,1.4886599,0.846163,0.039998535,0.04,-9.707499,-1.0816929340362549,-0.91212595,0.012698873,-0.021628854796290398,0.00026799407
1145.5833333326202,0.41676757,-0.24317034,0.46082625,-1.807438,0.0029368347,1.4886575,0.8461637,0.03999854,0.04,-9.707575,-1.081437587738037,-0.9120782,0.012779469,-0.021633051335811615,0.0002649333
1145.5999999992869,0.41677222,-0.24316019,0.4608362,-1.8074279,0.0029368866,1.4886552,0.8461642,0.03999854,0.04,-9.12291,-0.7330713272094727,-0.64686376,0.0,-0.0,0.0
1145.6166666659535,0.41677222,-0.24316019,0.4608362,-1.8074279,0.0029368866,1.4886552,0.8461642,0.03999854,0.04,-9.707782,-1.0790760517120361,-0.9114102,0.0,-0.0,0.0
1145.6333333326202,0.41677222,-0.24316019,0.4608362,-1.8074279,0.0029368866,1.4886552,0.8461642,0.03999854,0.04,-9.707782,-1.0790760517120361,-0.9114102,0.0,-0.0,0.0
1145.6499999992868,0.41677222,-0.24316019,0.4608362,-1.8074279,0.0029368866,1.4886552,0.8461642,0.03999854,0.04,-9.707782,-1.0790760517120361,-0.9114102,0.0,-0.0,0.0
1145.6666666659535,0.41677222,-0.24316019,0.4608362,-1.8074279,0.0029368866,1.4886552,0.8461642,0.03999854,0.04,-9.707782,-1.0790760517120361,-0.9114102,0.0,-0.0,0.0
1145.6833333326201,0.41677222,-0.24316019,0.4608362,-1.8074279,0.0029368866,1.4886552,0.8461642,0.03999854,0.04,-9.707782,-1.0790760517120361,-0.9114102,0.0,-0.0,0.0
1145.6999999992868,0.41677222,-0.24316019,0.4608362,-1.8074279,0.0029368866,1.4886552,0.8461642,0.03999854,0.04,-9.707782,-1.0790760517120361,-0.9114102,0.0,-0.0,0.0
1145.7166666659534,0.41677222,-0.24316019,0.4608362,-1.8074279,0.0029368866,1.4886552,0.8461642,0.03999854,0.04,-9.707782,-1.0790760517120361,-0.9114102,0.0,-0.0,0.0
1145.73333333262,0.41677222,-0.24316019,0.4608362,-1.8074279,0.0029368866,1.4886552,0.8461642,0.03999854,0.04,-9.707782,-1.0790760517120361,-0.9114102,0.0,-0.0,0.0
1145.7499999992867,0.41677222,-0.24316019,0.4608362,-1.8074279,0.0029368866,1.4886552,0.8461642,0.03999854,0.04,-9.707782,-1.0790760517120361,-0.9114102,0.0,-0.0,0.0
1145.7666666659534,0.41677222,-0.24316019,0.4608362,-1.8074279,0.0029368866,1.4886552,0.8461642,0.03999854,0.04,-9.707782,-1.0790760517120361,-0.9114102,0.0,-0.0,0.0
1145.78333333262,0.41677222,-0.24316019,0.4608362,-1.8074279,0.0029368866,1.4886552,0.8461642,0.03999854,0.04,-9.707782,-1.0790760517120361,-0.9114102,0.0,-0.0,0.0
1145.7999999992867,0.41677222,-0.24316019,0.4608362,-1.8074279,0.0029368866,1.4886552,0.8461642,0.03999854,0.04,-9.707782,-1.0790760517120361,-0.9114102,0.0,-0.0,0.0
1145.8166666659533,0.41677222,-0.24316019,0.4608362,-1.8074279,0.0029368866,1.4886552,0.8461642,0.03999854,0.04,-9.707782,-1.0790760517120361,-0.9114102,0.0,-0.0,0.0
1145.83333333262,0.41677222,-0.24316019,0.4608362,-1.8074279,0.0029368866,1.4886552,0.8461642,0.03999854,0.04,-9.707782,-1.0790760517120361,-0.9114102,0.0,-0.0,0.0
1145.8499999992866,0.41677222,-0.24316019,0.4608362,-1.8074279,0.0029368866,1.4886552,0.8461642,0.03999854,0.04,-9.707782,-1.0790760517120361,-0.9114102,0.0,-0.0,0.0
1145.8666666659533,0.41677222,-0.24316019,0.4608362,-1.8074279,0.0029368866,1.4886552,0.8461642,0.03999854,0.04,-9.707782,-1.0790760517120361,-0.9114102,0.0,-0.0,0.0
1145.88333333262,0.41677222,-0.24316019,0.4608362,-1.8074279,0.0029368866,1.4886552,0.8461642,0.03999854,0.04,-9.707782,-1.0790760517120361,-0.9114102,0.0,-0.0,0.0
1145.8999999992866,0.41677222,-0.24316019,0.4608362,-1.8074279,0.0029368866,1.4886552,0.8461642,0.03999854,0.04,-9.707782,-1.0790760517120361,-0.9114102,0.0,-0.0,0.0
1145.9166666659532,0.41677222,-0.24316019,0.4608362,-1.8074279,0.0029368866,1.4886552,0.8461642,0.03999854,0.04,-9.707782,-1.0790760517120361,-0.9114102,0.0,-0.0,0.0
1145.93333333262,0.41677222,-0.24316019,0.4608362,-1.8074279,0.0029368866,1.4886552,0.8461642,0.03999854,0.04,-9.707782,-1.0790760517120361,-0.9114102,0.0,-0.0,0.0
1145.9499999992865,0.41677222,-0.24316019,0.4608362,-1.8074279,0.0029368866,1.4886552,0.8461642,0.03999854,0.04,-9.707782,-1.0790760517120361,-0.9114102,0.0,-0.0,0.0
1145.9666666659532,0.41677222,-0.24316019,0.4608362,-1.8074279,0.0029368866,1.4886552,0.8461642,0.03999854,0.04,-9.707782,-1.0790760517120361,-0.9114102,0.0,-0.0,0.0
1145.9833333326198,0.41677222,-0.24316019,0.4608362,-1.8074279,0.0029368866,1.4886552,0.8461642,0.03999854,0.04,-9.707782,-1.0790760517120361,-0.9114102,0.0,-0.0,0.0
1145.9999999992865,0.41677222,-0.24316019,0.4608362,-1.8074279,0.0029368866,1.4886552,0.8461642,0.03999854,0.04,-9.707782,-1.0790760517120361,-0.9114102,0.0,-0.0,0.0
1146.0166666659532,0.41677222,-0.24316019,0.4608362,-1.8074279,0.0029368866,1.4886552,0.8461642,0.03999854,0.04,-9.707782,-1.0790760517120361,-0.9114102,0.0,-0.0,0.0
1146.0333333326198,0.41677222,-0.24316019,0.4608362,-1.8074279,0.0029368866,1.4886552,0.8461642,0.03999854,0.04,-9.707782,-1.0790760517120361,-0.9114102,0.0,-0.0,0.0
1146.0499999992865,0.41677222,-0.24316019,0.4608362,-1.8074279,0.0029368866,1.4886552,0.8461642,0.03999854,0.04,-9.707782,-1.0790760517120361,-0.9114102,0.0,-0.0,0.0
1146.066666665953,0.41677222,-0.24316019,0.4608362,-1.8074279,0.0029368866,1.4886552,0.8461642,0.03999854,0.04,-9.707782,-1.0790760517120361,-0.9114102,0.0,-0.0,0.0
1146.0833333326198,0.41677222,-0.24316019,0.4608362,-1.8074279,0.0029368866,1.4886552,0.8461642,0.03999854,0.04,-9.707782,-1.0790760517120361,-0.9114102,0.0,-0.0,0.0
1146.0999999992864,0.41677222,-0.24316019,0.4608362,-1.8074279,0.0029368866,1.4886552,0.8461642,0.03999854,0.04,-9.707782,-1.0790760517120361,-0.9114102,0.0,-0.0,0.0
1146.116666665953,0.41677222,-0.24316019,0.4608362,-1.8074279,0.0029368866,1.4886552,0.8461642,0.03999854,0.04,-9.707782,-1.0790760517120361,-0.9114102,0.0,-0.0,0.0
1146.1333333326197,0.41677222,-0.24316019,0.4608362,-1.8074279,0.0029368866,1.4886552,0.8461642,0.03999854,0.04,-9.707782,-1.0790760517120361,-0.9114102,0.0,-0.0,0.0
1146.1499999992864,0.41677222,-0.24316019,0.4608362,-1.8074279,0.0029368866,1.4886552,0.8461642,0.03999854,0.04,-9.707782,-1.0790760517120361,-0.9114102,0.0,-0.0,0.0
1146.166666665953,0.41677222,-0.24316019,0.4608362,-1.8074279,0.0029368866,1.4886552,0.8461642,0.03999854,0.04,-9.707782,-1.0790760517120361,-0.9114102,0.0,-0.0,0.0
1146.1833333326197,0.41677222,-0.24316019,0.4608362,-1.8074279,0.0029368866,1.4886552,0.8461642,0.03999854,0.04,-9.707782,-1.0790760517120361,-0.9114102,0.0,-0.0,0.0
1146.1999999992863,0.41677222,-0.24316019,0.4608362,-1.8074279,0.0029368866,1.4886552,0.8461642,0.03999854,0.04,-9.707782,-1.0790760517120361,-0.9114102,0.0,-0.0,0.0
1146.216666665953,0.41677222,-0.24316019,0.4608362,-1.8074279,0.0029368866,1.4886552,0.8461642,0.03999854,0.04,-9.707782,-1.0790760517120361,-0.9114102,0.0,-0.0,0.0
1146.2333333326196,0.41677222,-0.24316019,0.4608362,-1.8074279,0.0029368866,1.4886552,0.8461642,0.03999854,0.04,-9.707782,-1.0790760517120361,-0.9114102,0.0,-0.0,0.0
1146.2499999992863,0.41677222,-0.24316019,0.4608362,-1.8074279,0.0029368866,1.4886552,0.8461642,0.03999854,0.04,-9.707782,-1.0790760517120361,-0.9114102,0.0,-0.0,0.0
1146.266666665953,0.41677222,-0.24316019,0.4608362,-1.8074279,0.0029368866,1.4886552,0.8461642,0.03999854,0.04,-9.707782,-1.0790760517120361,-0.9114102,0.0,-0.0,0.0
1146.2833333326196,0.41677222,-0.24316019,0.4608362,-1.8074279,0.0029368866,1.4886552,0.8461642,0.03999854,0.04,-9.707782,-1.0790760517120361,-0.9114102,0.0,-0.0,0.0
1146.2999999992862,0.41677222,-0.24316019,0.4608362,-1.8074279,0.0029368866,1.4886552,0.8461642,0.03999854,0.04,-9.707782,-1.0790760517120361,-0.9114102,0.0,-0.0,0.0
1146.3166666659529,0.41677222,-0.24316019,0.4608362,-1.8074279,0.0029368866,1.4886552,0.8461642,0.03999854,0.04,-9.707782,-1.0790760517120361,-0.9114102,0.0,-0.0,0.0
1146.3333333326195,0.41677222,-0.24316019,0.4608362,-1.8074279,0.0029368866,1.4886552,0.8461642,0.03999854,0.04,-9.707782,-1.0790760517120361,-0.9114102,0.0,-0.0,0.0
1146.3499999992862,0.41677222,-0.24316019,0.4608362,-1.8074279,0.0029368866,1.4886552,0.8461642,0.03999854,0.04,-9.707782,-1.0790760517120361,-0.9114102,0.0,-0.0,0.0
1146.3666666659528,0.41677222,-0.24316019,0.4608362,-1.8074279,0.0029368866,1.4886552,0.8461642,0.03999854,0.04,-9.707782,-1.0790760517120361,-0.9114102,0.0,-0.0,0.0
1146.3833333326195,0.41677222,-0.24316019,0.4608362,-1.8074279,0.0029368866,1.4886552,0.8461642,0.03999854,0.04,-9.707782,-1.0790760517120361,-0.9114102,0.0,-0.0,0.0
1146.3999999992861,0.41677222,-0.24316019,0.4608362,-1.8074279,0.0029368866,1.4886552,0.8461642,0.03999854,0.04,-9.707782,-1.0790760517120361,-0.9114102,0.0,-0.0,0.0
1146.4166666659528,0.41677222,-0.24316019,0.4608362,-1.8074279,0.0029368866,1.4886552,0.8461642,0.03999854,0.04,-9.707782,-1.0790760517120361,-0.9114102,0.0,-0.0,0.0
1146.4333333326194,0.41677222,-0.24316019,0.4608362,-1.8074279,0.0029368866,1.4886552,0.8461642,0.03999854,0.04,-9.707782,-1.0790760517120361,-0.9114102,0.0,-0.0,0.0
1146.449999999286,0.41677222,-0.24316019,0.4608362,-1.8074279,0.0029368866,1.4886552,0.8461642,0.03999854,0.04,-9.707782,-1.0790760517120361,-0.9114102,0.0,-0.0,0.0
1146.4666666659527,0.41677222,-0.24316019,0.4608362,-1.8074279,0.0029368866,1.4886552,0.8461642,0.03999854,0.04,-9.707782,-1.0790760517120361,-0.9114102,0.0,-0.0,0.0
1146.4833333326194,0.41677222,-0.24316019,0.4608362,-1.8074279,0.0029368866,1.4886552,0.8461642,0.03999854,0.04,-9.707782,-1.0790760517120361,-0.9114102,0.0,-0.0,0.0
1146.499999999286,0.41677222,-0.24316019,0.4608362,-1.8074279,0.0029368866,1.4886552,0.8461642,0.03999854,0.04,-9.707782,-1.0790760517120361,-0.9114102,0.0,-0.0,0.0
1146.5166666659527,0.41677222,-0.24316019,0.4608362,-1.8074279,0.0029368866,1.4886552,0.8461642,0.03999854,0.04,-9.707782,-1.0790760517120361,-0.9114102,0.0,-0.0,0.0
1146.5333333326193,0.41677222,-0.24316019,0.4608362,-1.8074279,0.0029368866,1.4886552,0.8461642,0.03999854,0.04,-9.707782,-1.0790760517120361,-0.9114102,0.0,-0.0,0.0
1146.549999999286,0.41677222,-0.24316019,0.4608362,-1.8074279,0.0029368866,1.4886552,0.8461642,0.03999854,0.04,-9.707782,-1.0790760517120361,-0.9114102,0.0,-0.0,0.0
1146.5666666659527,0.41677222,-0.24316019,0.4608362,-1.8074279,0.0029368866,1.4886552,0.8461642,0.03999854,0.04,-9.707782,-1.0790760517120361,-0.9114102,0.0,-0.0,0.0
1146.5833333326193,0.41677222,-0.24316019,0.4608362,-1.8074279,0.0029368866,1.4886552,0.8461642,0.03999854,0.04,-9.707782,-1.0790760517120361,-0.9114102,0.0,-0.0,0.0
1146.599999999286,0.41677222,-0.24316019,0.4608362,-1.8074279,0.0029368866,1.4886552,0.8461642,0.03999854,0.04,-9.707782,-1.0790760517120361,-0.9114102,0.0,-0.0,0.0
1146.6166666659526,0.41677222,-0.24316019,0.4608362,-1.8074279,0.0029368866,1.4886552,0.8461642,0.03999854,0.04,-9.707782,-1.0790760517120361,-0.9114102,0.0,-0.0,0.0
1146.6333333326193,0.41677222,-0.24316019,0.4608362,-1.8074279,0.0029368866,1.4886552,0.8461642,0.03999854,0.04,-9.707782,-1.0790760517120361,-0.9114102,0.0,-0.0,0.0
1146.649999999286,0.41677222,-0.24316019,0.4608362,-1.8074279,0.0029368866,1.4886552,0.8461642,0.03999854,0.04,-9.707782,-1.0790760517120361,-0.9114102,0.0,-0.0,0.0
1146.6666666659526,0.41677222,-0.24316019,0.4608362,-1.8074279,0.0029368866,1.4886552,0.8461642,0.03999854,0.04,-9.707782,-1.0790760517120361,-0.9114102,0.0,-0.0,0.0
1146.6833333326192,0.41677222,-0.24316019,0.4608362,-1.8074279,0.0029368866,1.4886552,0.8461642,0.03999854,0.04,-9.707782,-1.0790760517120361,-0.9114102,0.0,-0.0,0.0
1146.6999999992859,0.41677222,-0.24316019,0.4608362,-1.8074279,0.0029368866,1.4886552,0.8461642,0.03999854,0.04,-9.707782,-1.0790760517120361,-0.9114102,0.0,-0.0,0.0
1146.7166666659525,0.41677222,-0.24316019,0.4608362,-1.8074279,0.0029368866,1.4886552,0.8461642,0.03999854,0.04,-9.707782,-1.0790760517120361,-0.9114102,0.0,-0.0,0.0
1146.7333333326192,0.41677222,-0.24316019,0.4608362,-1.8074279,0.0029368866,1.4886552,0.8461642,0.03999854,0.04,-9.707782,-1.0790760517120361,-0.9114102,0.0,-0.0,0.0
1146.7499999992858,0.41677222,-0.24316019,0.4608362,-1.8074279,0.0029368866,1.4886552,0.8461642,0.03999854,0.04,-9.707782,-1.0790760517120361,-0.9114102,0.0,-0.0,0.0
1146.7666666659525,0.41677222,-0.24316019,0.4608362,-1.8074279,0.0029368866,1.4886552,0.8461642,0.03999854,0.04,-9.707782,-1.0790760517120361,-0.9114102,0.0,-0.0,0.0
1146.7833333326191,0.41677222,-0.24316019,0.4608362,-1.8074279,0.0029368866,1.4886552,0.8461642,0.03999854,0.04,-9.707782,-1.0790760517120361,-0.9114102,0.0,-0.0,0.0
1146.7999999992858,0.41677222,-0.24316019,0.4608362,-1.8074279,0.0029368866,1.4886552,0.8461642,0.03999854,0.04,-9.707782,-1.0790760517120361,-0.9114102,0.0,-0.0,0.0
1146.8166666659524,0.41677222,-0.24316019,0.4608362,-1.8074279,0.0029368866,1.4886552,0.8461642,0.03999854,0.04,-9.707782,-1.0790760517120361,-0.9114102,0.0,-0.0,0.0
1146.833333332619,0.41677222,-0.24316019,0.4608362,-1.8074279,0.0029368866,1.4886552,0.8461642,0.03999854,0.04,-9.707782,-1.0790760517120361,-0.9114102,0.0,-0.0,0.0
1146.8499999992857,0.41677222,-0.24316019,0.4608362,-1.8074279,0.0029368866,1.4886552,0.8461642,0.03999854,0.04,-9.707782,-1.0790760517120361,-0.9114102,0.0,-0.0,0.0
1146.8666666659524,0.41677222,-0.24316019,0.4608362,-1.8074279,0.0029368866,1.4886552,0.8461642,0.03999854,0.04,-9.707782,-1.0790760517120361,-0.9114102,0.0,-0.0,0.0
1146.883333332619,0.41677222,-0.24316019,0.4608362,-1.8074279,0.0029368866,1.4886552,0.8461642,0.03999854,0.04,-9.707782,-1.0790760517120361,-0.9114102,0.0,-0.0,0.0
1146.8999999992857,0.41677222,-0.24316019,0.4608362,-1.8074279,0.0029368866,1.4886552,0.8461642,0.03999854,0.04,-9.707782,-1.0790760517120361,-0.9114102,0.0,-0.0,0.0
1146.9166666659523,0.41677222,-0.24316019,0.4608362,-1.8074279,0.0029368866,1.4886552,0.8461642,0.03999854,0.04,-9.707782,-1.0790760517120361,-0.9114102,0.0,-0.0,0.0
1146.933333332619,0.41677222,-0.24316019,0.4608362,-1.8074279,0.0029368866,1.4886552,0.8461642,0.03999854,0.04,-9.707782,-1.0790760517120361,-0.9114102,0.0,-0.0,0.0
1146.9499999992856,0.41677222,-0.24316019,0.4608362,-1.8074279,0.0029368866,1.4886552,0.8461642,0.03999854,0.04,-9.707782,-1.0790760517120361,-0.9114102,0.0,-0.0,0.0
1146.9666666659523,0.41677222,-0.24316019,0.4608362,-1.8074279,0.0029368866,1.4886552,0.8461642,0.03999854,0.04,-9.707782,-1.0790760517120361,-0.9114102,0.0,-0.0,0.0
1146.983333332619,0.41677222,-0.24316019,0.4608362,-1.8074279,0.0029368866,1.4886552,0.8461642,0.03999854,0.04,-9.707782,-1.0790760517120361,-0.9114102,0.0,-0.0,0.0
1146.9999999992856,0.41677222,-0.24316019,0.4608362,-1.8074279,0.0029368866,1.4886552,0.8461642,0.03999854,0.04,-9.707782,-1.0790760517120361,-0.9114102,0.0,-0.0,0.0
1147.0166666659522,0.41677222,-0.24316019,0.4608362,-1.8074279,0.0029368866,1.4886552,0.8461642,0.03999854,0.04,-9.707782,-1.0790760517120361,-0.9114102,0.0,-0.0,0.0
1147.033333332619,0.41677222,-0.24316019,0.4608362,-1.8074279,0.0029368866,1.4886552,0.8461642,0.03999854,0.04,-9.707782,-1.0790760517120361,-0.9114102,0.0,-0.0,0.0
1147.0499999992855,0.41677222,-0.24316019,0.4608362,-1.8074279,0.0029368866,1.4886552,0.8461642,0.03999854,0.04,-9.707782,-1.0790760517120361,-0.9114102,0.0,-0.0,0.0
1147.0666666659522,0.41677222,-0.24316019,0.4608362,-1.8074279,0.0029368866,1.4886552,0.8461642,0.03999854,0.04,-9.707782,-1.0790760517120361,-0.9114102,0.0,-0.0,0.0
1147.0833333326188,0.41677222,-0.24316019,0.4608362,-1.8074279,0.0029368866,1.4886552,0.8461642,0.03999854,0.04,-9.707782,-1.0790760517120361,-0.9114102,0.0,-0.0,0.0
1147.0999999992855,0.41677222,-0.24316019,0.4608362,-1.8074279,0.0029368866,1.4886552,0.8461642,0.03999854,0.04,-9.707782,-1.0790760517120361,-0.9114102,0.0,-0.0,0.0
1147.1166666659522,0.41677222,-0.24316019,0.4608362,-1.8074279,0.0029368866,1.4886552,0.8461642,0.03999854,0.04,-9.707782,-1.0790760517120361,-0.9114102,0.0,-0.0,0.0
1147.1333333326188,0.41677222,-0.24316019,0.4608362,-1.8074279,0.0029368866,1.4886552,0.8461642,0.03999854,0.04,-9.707782,-1.0790760517120361,-0.9114102,0.0,-0.0,0.0
1147.1499999992855,0.41677222,-0.24316019,0.4608362,-1.8074279,0.0029368866,1.4886552,0.8461642,0.03999854,0.04,-9.707782,-1.0790760517120361,-0.9114102,0.0,-0.0,0.0
1147.166666665952,0.41677222,-0.24316019,0.4608362,-1.8074279,0.0029368866,1.4886552,0.8461642,0.03999854,0.04,-9.707782,-1.0790760517120361,-0.9114102,0.0,-0.0,0.0
1147.1833333326188,0.41677222,-0.24316019,0.4608362,-1.8074279,0.0029368866,1.4886552,0.8461642,0.03999854,0.04,-9.707782,-1.0790760517120361,-0.9114102,0.0,-0.0,0.0
1147.1999999992854,0.41677222,-0.24316019,0.4608362,-1.8074279,0.0029368866,1.4886552,0.8461642,0.03999854,0.04,-9.707782,-1.0790760517120361,-0.9114102,0.0,-0.0,0.0
