rsonawane2002/My_IMU/logs_2/traj_296/clean_296.csv
time,j1,j2,j3,j4,j5,j6,j7,gripper1,gripper2,imu_ax,imu_ay,imu_az,imu_gx,imu_gy,imu_gz,quat_x,quat_y,quat_z,quat_w
498.2833333332088,0.00016700293,-0.785875,4.0107683e-05,-2.3551247,9.29385e-05,1.570997,0.786,0.04,0.04,0.0,-0.0,0.0,2.875329272945135e-08,-0.0011641195053377316,4.421952117202833e-08,0.9999995971961153,0.00020320632366974898,0.0008736418299892524,3.263050917662294e-05
498.29999999987547,0.00016700904,-0.78576016,4.0120194e-05,-2.3552213,9.297078e-05,1.5709941,0.786,0.04,0.04,-0.2919984606416737,-4.309573033307304e-05,0.02012840628273782,-6.716942276170972e-07,-0.0022386663558028467,-3.3103977324216805e-07,0.9999996850596268,0.00020320358891721767,0.0007665025200476731,3.2601157030015464e-05
498.3166666665421,0.00016703818,-0.7856543,4.0170733e-05,-2.35531,9.2978094e-05,1.5709913,0.786,0.04,0.04,0.023328720985382745,-5.202248999007877e-05,-0.0016704490035213126,-4.307224542556051e-06,-0.0032332355721860027,-3.150172670287945e-06,0.999999755853509,0.0002031755145392351,0.000667797265199921,3.254912072217185e-05
498.33333333320877,0.00016713033,-0.78555703,4.032297e-05,-2.355391,9.2924514e-05,1.5709884,0.786,0.04,0.04,0.022460735220519723,-0.00014478640379469456,-0.0015249321195787147,-1.414353415655389e-05,-0.004158024113817556,-1.0654308406247131e-05,0.999999812274431,0.0002030795956232598,0.0005771982568623557,3.243382167200714e-05
498.3499999998754,0.00016734423,-0.78546757,4.0668387e-05,-2.3554652,9.275882e-05,1.5709856,0.786,0.04,0.04,0.020387178505587578,-0.00027966496725528476,-0.0013914254036961893,-3.265638700788664e-05,-0.005018274930358853,-2.4872536779042976e-05,0.9999998569082937,0.00020285415246352385,0.0004939604594769049,3.219704196401823e-05
498.3666666665421,0.0001677554,-0.7853855,4.132339e-05,-2.355532,9.241664e-05,1.570986,0.786,0.04,0.04,0.021794795978768988,-0.00045333659468083163,0.001555988613755055,-6.265023311535114e-05,-0.005827102940226111,-4.76000369789751e-05,0.9999998908997346,0.00020242028713058673,0.0004197826323992069,3.1766145140604634e-05
498.3833333332087,0.00016845435,-0.7853102,4.242695e-05,-2.3555968,9.182057e-05,1.5709869,0.786,0.04,0.04,0.010868274980579962,-0.0006589252425823016,-0.002768240539596789,-0.00010617816109776472,-0.006572548107657869,-8.049613918414825e-05,0.9999999178825324,0.00020168369844693592,0.00035013485570783954,3.105151956503599e-05
498.3999999998754,0.00016954522,-0.78524137,4.4137967e-05,-2.355655,9.08813e-05,1.5709878,0.786,0.04,0.04,0.018501087235622826,-0.0008959371032602761,-0.000603994727033097,-0.0001651063551427426,-0.007299067548623134,-0.00012500207827720748,0.9999999382299055,0.00020053595869966905,0.0002871033287703873,2.995318543033876e-05
498.416666666542,0.00017114391,-0.78517854,4.663334e-05,-2.3557074,8.9509216e-05,1.5709921,0.786,0.04,0.039999995,0.017439056257462227,-0.0011666859467648221,0.0016112686620939343,-0.00024167737523523504,-0.007991448255820174,-0.0001816610505435309,0.9999999530037108,0.0001988565990024955,0.00023161196378410044,2.8364189938755196e-05
498.4333333332087,0.00017337724,-0.78512144,5.0106006e-05,-2.3557575,8.7586945e-05,1.5709968,0.7859981,0.04,0.039999995,0.010490864704748581,-0.0014465807094145387,-0.0019288132401262814,-0.00033770357630254043,-0.008645016008838238,-0.00025319967862242606,0.9999999642724461,0.00019556031696670874,0.0001803527778210298,2.6156156908501083e-05
498.44999999987533,0.00017638138,-0.78506976,5.4762982e-05,-2.3558023,8.499729e-05,1.5710049,0.7859962,0.04,0.039999995,0.016005759213610915,-0.001755329918202151,0.0018350409625833564,-0.000445528219628149,-0.009293120694598396,-0.0003398172375732475,0.999999972133195,0.0001914593834888469,0.00013615701480913924,2.3198724516084006e-05
498.466666666542,0.00018030107,-0.7850231,6.0823888e-05,-2.3558452,8.161003e-05,1.5710135,0.7859943,0.04,0.04,0.008926762929251097,-0.002076920228111988,-0.001640393057589229,-0.0005754593633925291,-0.009913764758573376,-0.0004431923780753113,0.9999999778645119,0.0001864037643988736,9.565707300101057e-05,1.9347781236600388e-05
498.48333333320863,0.000185288,-0.78498137,6.851901e-05,-2.3558857,7.729955e-05,1.5710258,0.7859924,0.04,0.04,0.010728810636706498,-0.002423735419289873,0.0010969578521535794,-0.0007291852832835037,-0.010541858803115796,-0.0005632151372686788,0.9999999818088267,0.00018023611338489475,6.0730565191608246e-05,1.4459883905612779e-05
498.4999999998753,0.00019150035,-0.7849443,7.808825e-05,-2.3559217,7.193745e-05,1.571042,0.7859905,0.04,0.04,0.014007318669362334,-0.0027869643346530915,0.002141808901634512,-0.0009074583403788445,-0.011161187427155399,-0.0007001189254100561,0.9999999845164725,0.00017279232306867935,3.224183527878749e-05,8.38641714679787e-06
498.51666666654194,0.00019910187,-0.7849118,8.977989e-05,-2.3559566,6.538472e-05,1.5710618,0.78598666,0.04,0.04,0.008306671275026822,-0.0031573227654170654,0.0007702021894262501,-0.0011114753162548838,-0.011769555657009259,-0.0008549473587820399,0.9999999866867686,0.00016294903707253752,8.551847447476071e-06,9.694504241734534e-07
498.5333333332086,0.0002082609,-0.7848838,0.00010384898,-2.355991,5.7500183e-05,1.5710857,0.78598285,0.04,0.04,0.00699699831514522,-0.0035396673769626883,0.0006071541809316017,-0.0013332948484435475,-0.012385075767432543,-0.0010283379936713126,0.9999999884372527,0.00015148544053024694,-1.0696937702369393e-05,-7.951816119517355e-06
498.54999999987524,0.00021914991,-0.7848601,0.00012055683,-2.356021,4.8136597e-05,1.5711133,0.78597903,0.04,0.04,0.013243641761051528,-0.0039306218132431625,0.0023323363276706033,-0.001582705448896909,-0.013012561333177611,-0.0012207038674229684,0.9999999899934034,0.00013822261495071697,-2.3746061663885172e-05,-1.8542555384026992e-05
498.5666666665419,0.0002319443,-0.78484076,0.00014016936,-2.3560488,3.7154805e-05,1.5711462,0.7859733,0.04,0.04,0.010182256736568362,-0.004335383556857483,0.002369579819361256,-0.0018606511849400748,-0.013639868044693644,-0.001431653612730152,0.9999999915982876,0.00012202502571303821,-3.0893435227731456e-05,-3.096632530223712e-05
498.58333333320854,0.00024682286,-0.78482556,0.00016295696,-2.3560765,2.4385221e-05,1.5711854,0.7859676,0.039999995,0.04,0.006913872823854916,-0.004726545654982123,0.0023936606434959984,-0.002158948044000391,-0.01427344580657805,-0.0016637904259714895,0.9999999930596738,0.0001036611486078153,-3.276472949388268e-05,-4.5403646081074164e-05
498.5999999998752,0.0002639659,-0.78481454,0.00018919303,-2.3561037,9.6764115e-06,1.5712299,0.78596014,0.03999999,0.04,0.007158584545341462,-0.005136682244735551,0.0019340843035120514,-0.0024866240965982066,-0.01492041247991735,-0.0019157503170418645,0.9999999942706603,8.207963406321676e-05,-2.9568416970811962e-05,-6.202678196099503e-05
498.61666666654185,0.00028355548,-0.7848074,0.00021915325,-2.3561304,-7.1169907e-06,1.5712808,0.7859525,0.039999988,0.039999995,0.007093851178474608,-0.005556663418449653,0.0027244966027240025,-0.0028367449169218037,-0.015585978239561132,-0.0021868655768217983,0.999999994823529,5.786648418145458e-05,-2.103603061031873e-05,-8.100553965947175e-05
498.6333333332085,0.00030577503,-0.7848045,0.00025311523,-2.356157,-2.6154976e-05,1.5713389,0.78594303,0.039999984,0.039999995,0.007009749883746252,-0.005969452331891544,0.0028957893289272008,-0.0032168517244104675,-0.016272642839631632,-0.0024789302344069863,0.9999999942721766,2.999701384198365e-05,-6.7799590967470095e-06,-0.00010251759953210463
498.64999999987515,0.00033080828,-0.7848058,0.00029135743,-2.356182,-4.7590038e-05,1.5714042,0.7859335,0.03999998,0.03999999,0.009686830737343222,-0.006390525919946761,0.0038343895260917193,-0.003619625605123412,-0.016977049279185256,-0.0027903056150239327,0.9999999918704716,-8.255333209332787e-07,1.4004825079074846e-05,-0.00012673689306994833
498.6666666665418,0.00035883978,-0.7848112,0.0003341591,-2.3562064,-7.157943e-05,1.5714774,0.78592205,0.039999977,0.03999999,0.0083221663266686,-0.006809126927581296,0.0038155883234969323,-0.0040538832375681426,-0.017694703577723098,-0.0031227287094184684,0.9999999866812641,-3.571651285817367e-05,4.1169533583037894e-05,-0.00015384041019681757
498.68333333320845,0.00039005364,-0.7848208,0.00038179924,-2.35623,-9.827802e-05,1.5715594,0.7859094,0.039999973,0.039999988,0.008625918742288796,-0.007229926817406223,0.004524697962904334,-0.004510851011765897,-0.01843086244915936,-0.0034744609497923016,0.9999999774686483,-7.450964041961351e-05,7.519141245417692e-05,-0.00018400344518417318
498.6999999998751,0.00042463385,-0.7848345,0.00043455657,-2.3562536,-0.00012784227,1.5716501,0.7858958,0.03999997,0.039999984,0.007308590045163044,-0.007648369535220639,0.004146425729167902,-0.004994875851355922,-0.019184410648911163,-0.0038463084377717586,0.9999999628067282,-0.00011727685894174707,0.00011562388426134863,-0.0002174023874994258
498.71666666654176,0.0004627635,-0.78485245,0.0004927083,-2.3562777,-0.00016042803,1.5717499,0.78588057,0.039999966,0.039999984,0.006745484484382835,-0.008065203456829427,0.004128919501100725,-0.005506982534751265,-0.01995972451373904,-0.0042390251975741615,0.9999999409491707,-0.00016456608186172597,0.00016246736825836083,-0.00025421253746192785
498.7333333332084,0.0005046251,-0.78487486,0.0005565306,-2.3563023,-0.00019618856,1.5718598,0.7858635,0.03999996,0.03999998,0.007351799256971603,-0.008483498015119936,0.004790491805639618,-0.006043776628046017,-0.020760023652387383,-0.004650780244825344,0.9999999097300402,-0.00021662673213877865,0.00021637803989963216,-0.0002946070507302041
498.74999999987506,0.00055039965,-0.78490144,0.0006262978,-2.3563278,-0.00023527809,1.5719799,0.7858451,0.039999958,0.039999977,0.006214742814569796,-0.008896671653325982,0.00474156456657937,-0.006605387940612479,-0.021582266335149643,-0.005082278182728232,0.9999998668807626,-0.0002734386570654931,0.00027696915012254407,-0.00033875927707946793
498.7666666665417,0.00060026697,-0.7849323,0.0007022823,-2.3563545,-0.0002778486,1.5721109,0.78582513,0.039999954,0.039999977,0.006209307056526114,-0.009309342164590942,0.005184821982551213,-0.0071936260047255765,-0.022432959893164826,-0.005534187211448282,0.999999809597139,-0.0003352786576769742,0.00034459901430170664,-0.0003868403117172964
498.78333333320836,0.0006544049,-0.7849679,0.0007847538,-2.3563812,-0.00032405043,1.5722531,0.78580344,0.03999995,0.039999973,0.008776815130873139,-0.009719920191228158,0.005656773413287297,-0.007807978479264032,-0.023309451337790516,-0.006004604156379552,0.9999997343787902,-0.0004024216580260186,0.00042019226775084494,-0.0004390189248684475
498.799999999875,0.00071298995,-0.78500795,0.0008739795,-2.356408,-0.00037403384,1.572407,0.78577995,0.039999947,0.039999973,0.00826393870274611,-0.0101255943699218,0.006034458382586649,-0.008447438592884559,-0.024206501456283003,-0.006495018692014199,0.9999996375248356,-0.00047508158729056446,0.0005037497850921724,-0.0004954632550107882
498.81666666654166,0.00077619596,-0.7850528,0.00097022305,-2.3564353,-0.00042794546,1.572573,0.7857546,0.039999943,0.03999997,0.008712511567199321,-0.010528160843372141,0.006126027465702677,-0.009111781150961243,-0.02512656402189071,-0.007003473388928557,0.9999995147093966,-0.0005534699819969803,0.0005956003653672912,-0.0005563381662901894
498.8333333332083,0.00084419566,-0.7851023,0.0010737457,-2.356463,-0.00048593216,1.5727514,0.7857273,0.039999943,0.039999973,0.008398725923730588,-0.010926840082339144,0.006401001074585189,-0.009801044604418347,-0.02606799634629678,-0.0075314225657445175,0.9999993611730424,-0.0006378268946754303,0.000695834478964438,-0.0006218076368943318
498.84999999987497,0.00091715856,-0.78515667,0.0011848046,-2.3564913,-0.0005481369,1.5729429,0.78569806,0.039999943,0.039999973,0.008283437342049282,-0.011321241928977143,0.006573966677025922,-0.010514421375693146,-0.027032442377125182,-0.008076881722550007,0.9999991715967584,-0.0007283299585956486,0.0008046321491569083,-0.0006920320605480223
498.8666666665416,0.0009952519,-0.78521585,0.0013036538,-2.356521,-0.0006147026,1.5731477,0.78566676,0.039999943,0.039999977,0.007593591645083109,-0.011709488783592055,0.006617919382301274,-0.011251914279786142,-0.028020046423782717,-0.008641254523840066,0.9999989402771104,-0.0008251845115211647,0.0009219350887786507,-0.0007671706916192475
498.88333333320827,0.0010786413,-0.78528017,0.0014305426,-2.3565526,-0.0006857679,1.5733662,0.7856334,0.039999943,0.039999977,0.006422981374365477,-0.012092666990930851,0.0062786877571108235,-0.012013536887838646,-0.029034125523067743,-0.009222524915812191,0.9999986611022509,-0.0009285933620966867,0.001047595731650217,-0.000847379051176215
498.8999999998749,0.001167489,-0.7853494,0.0015657177,-2.356587,-0.00076147163,1.5735991,0.7855979,0.039999943,0.03999998,0.005649961847775664,-0.012472333256869847,0.006688857310033214,-0.012798446381301433,-0.03007778525612731,-0.009822073866253885,0.999998327309458,-0.001038727743293321,0.0011816454909084851,-0.000932811285948564
498.9166666665416,0.0012619541,-0.7854239,0.0017094213,-2.3566217,-0.0008419479,1.5738467,0.7855602,0.03999994,0.039999977,0.009649228260610876,-0.012853608897740992,0.007681670912362826,-0.013607161256494993,-0.031150452855644058,-0.010437854525790283,0.9999979297752771,-0.0011558449403031431,0.00132539733811526,-0.0010236159094641672
498.9333333332082,0.0013621935,-0.7855037,0.0018618903,-2.3566575,-0.00092733034,1.5741094,0.78552,0.039999936,0.039999977,0.009198910994334675,-0.013222499978617422,0.007709026879654246,-0.014438263357080854,-0.03224521264821481,-0.011071248759395512,0.9999974597723159,-0.0012801996557537867,0.0014789424799471743,-0.0011199405778994215
498.9499999998749,0.0014683615,-0.78558886,0.0020233588,-2.3566937,-0.0010177493,1.5743876,0.78547746,0.039999932,0.039999977,0.01009825542825915,-0.013591138384511769,0.008086125688233636,-0.015291151291869535,-0.03336087615929248,-0.011721060861003956,0.9999969075390294,-0.001411925243748825,0.0016426406206866684,-0.001221929324981249
498.9666666665415,0.0015806089,-0.7856795,0.0021940554,-2.356733,-0.0011133323,1.5746818,0.7854325,0.039999932,0.039999977,0.006008214768105091,-0.013942617784263901,0.0073622397090744585,-0.016165815799412567,-0.03449661729368572,-0.012386059264837601,0.9999962646259353,-0.001551181411449532,0.0018155999156036931,-0.0013297245397039827
498.9833333332082,0.0016990835,-0.7857757,0.0023742046,-2.3567753,-0.0012142055,1.5749923,0.78538513,0.039999936,0.039999984,0.006568774043103076,-0.014296674650687846,0.0075973503476323145,-0.017062440201059126,-0.03566154556106585,-0.013067556413870585,0.9999955201458038,-0.001698155054007043,0.0019980909489968972,-0.0014434646844665238
498.99999999987483,0.0018239305,-0.7858775,0.002564026,-2.3568187,-0.0013204914,1.5753195,0.78533524,0.03999994,0.039999988,0.009604142400365667,-0.0146534620222568,0.008559168121058391,-0.017980179958975565,-0.036856778089156245,-0.013763478694144762,0.9999946606081762,-0.0018530305772690892,0.002191159337946362,-0.0015632829475679332
499.0166666665415,0.0019552915,-0.7859851,0.0027637354,-2.3568623,-0.0014323045,1.5756638,0.7852826,0.039999943,0.03999999,0.011556675107882164,-0.015007634876307643,0.00913100957264934,-0.018918948255623957,-0.038072428340811905,-0.014474090341762728,0.999993671477583,-0.0020160786336530278,0.0023955527011620768,-0.0016893072493708043
499.03333333320813,0.0020933053,-0.78609854,0.0029735428,-2.3569083,-0.0015497751,1.5760258,0.78522736,0.039999947,0.04,0.00821583525711933,-0.015328947683358653,0.008649951435124592,-0.019877280571256723,-0.03930272187374202,-0.015201467305735756,0.9999925408049183,-0.002187388309247679,0.0026105886350654096,-0.001821673375452183
499.0499999998748,0.0022381078,-0.78621805,0.0031936532,-2.3569584,-0.0016729792,1.5764053,0.7851695,0.03999995,0.03999999,0.005540138921622528,-0.01567752219494567,0.007482730979035956,-0.02085570460859322,-0.0405574719039788,-0.015937574832297796,0.999991256934128,-0.002367103920644124,0.002835376194270101,-0.001960488757618263
499.06666666654144,0.002389831,-0.7863436,0.0034242678,-2.3570094,-0.0018020659,1.5768028,0.7851087,0.039999958,0.04,0.011001453088921309,-0.015996865358357086,0.009409693947026732,-0.02185416189611417,-0.04184440437570547,-0.01669171582762696,0.9999897992599889,-0.0025555179271773993,0.0030717960099071358,-0.0021058901596086167
499.0833333332081,0.0025486045,-0.7864752,0.0036655823,-2.357061,-0.0019371052,1.5772189,0.7850452,0.039999966,0.039999995,0.01201648054580673,-0.01635409898159681,0.009828899264086033,-0.022870596316721174,-0.04314871146102822,-0.017455296677644522,0.9999881499693095,-0.0027526510488212527,0.0033202988628851394,-0.0022579744512182176
499.09999999987474,0.0027145536,-0.78661305,0.0039177886,-2.3571155,-0.0020782282,1.5776536,0.7849788,0.039999973,0.04,0.007845026814767841,-0.016636508736350263,0.00870893916122828,-0.023906600725410638,-0.04446627707012754,-0.01823435700200861,0.9999862947130541,-0.002958758489299273,0.003579785617314059,-0.0024168717783910436
499.1166666665414,0.0028878015,-0.78675723,0.004181072,-2.3571737,-0.0022255124,1.5781077,0.7849095,0.039999984,0.039999995,0.0073123627886806375,-0.016964384450710284,0.008878632654885088,-0.02496050335883898,-0.04580961809196389,-0.019023638535390103,0.9999842151059066,-0.0031739740303265342,0.0038503496236330097,-0.002582679936489683
499.13333333320804,0.0030684671,-0.78690785,0.004455612,-2.3572323,-0.0023790963,1.5785812,0.78483725,0.039999984,0.04,0.012791503206255328,-0.01726281494517437,0.010250286142277076,-0.026031860331066903,-0.04717990972560929,-0.019829038512096074,0.9999818851453859,-0.003398427716550033,0.004133664049717156,-0.0027555202158357876
499.1499999998747,0.0032566672,-0.78706497,0.004741588,-2.3572924,-0.0025390692,1.5790745,0.784762,0.039999984,0.04,0.011374720021484208,-0.01757061453370387,0.010025095792709493,-0.02712091580259066,-0.04856147639890954,-0.020645420862837646,0.9999792844198291,-0.0036322783948776077,0.004429465028773317,-0.0029354938983766335
499.16666666654135,0.0034525127,-0.7872286,0.00503917,-2.357358,-0.002705538,1.5795877,0.78468364,0.03999998,0.04,0.004527277600208102,-0.017817181476933834,0.008279440016178974,-0.028227324520838974,-0.04995796846890149,-0.021473887518658877,0.9999763995287159,-0.0038757376049918277,0.004735790048425463,-0.003122712958372417
499.183333333208,0.0036561147,-0.7873989,0.0053485236,-2.3574243,-0.0028786082,1.580121,0.7846023,0.039999973,0.04,0.012964790862279862,-0.018140881170353867,0.010439710627374588,-0.029349401550924435,-0.051389493396568856,-0.022313828490879362,0.99997319612517,-0.004128838952420401,0.00505523706672373,-0.0033172727226399488
499.19999999987465,0.0038675799,-0.78757584,0.005669809,-2.3574922,-0.0030583665,1.580675,0.7845177,0.039999966,0.04,0.01152420747849714,-0.01842202917200532,0.01033213351195883,-0.030488097435551833,-0.05283282247449917,-0.02316417794587206,0.999969649915429,-0.004391820085959952,0.005387572415752352,-0.0035192652375062535
499.2166666665413,0.0040870104,-0.7877598,0.0060031833,-2.357564,-0.0032449118,1.5812495,0.78442997,0.039999954,0.04,0.008185862171306013,-0.018668229198101106,0.009083776786567022,-0.031642275565176285,-0.05429094011507872,-0.024025294298946495,0.9999657405879163,-0.00466476518622957,0.005731818127836756,-0.0037287903087564454
499.23333333320795,0.004314505,-0.78795046,0.0063488,-2.3576381,-0.003438316,1.5818454,0.784339,0.039999947,0.04,0.010705995780502242,-0.018974454125811682,0.010520906113709039,-0.03281162141876367,-0.05577304132175048,-0.024895168820976445,0.9999614353604988,-0.004947818895097433,0.006089052550351622,-0.00394592435194824
499.2499999998746,0.0045501613,-0.7881481,0.006706801,-2.357714,-0.0036386556,1.5824627,0.78424484,0.039999936,0.039999995,0.012189663007777796,-0.01925015123966419,0.010569992490072622,-0.03399573699956318,-0.0572714709508853,-0.025774053133484253,0.9999567031474127,-0.005241089037434889,0.00645969875044101,-0.0041707443355279246
499.26666666654125,0.0047940724,-0.7883529,0.007077331,-2.3577926,-0.0038460244,1.5831016,0.7841473,0.039999925,0.039999995,0.010506338149274264,-0.019495937921501158,0.01016032105289888,-0.035194571670549846,-0.05878212589358943,-0.026662450570742208,0.9999515157366502,-0.005544742929504562,0.006843434796312426,-0.004403339869922438
499.2833333332079,0.0050463257,-0.7885647,0.0074605243,-2.3578744,-0.0040604877,1.5837623,0.7840465,0.039999917,0.039999995,0.009938170615653164,-0.01975197935274557,0.01011041916088029,-0.036407210675243794,-0.06030970698430589,-0.02755829533688848,0.9999458437157102,-0.005858881798356374,0.00724005837944056,-0.004643780185554954
499.29999999987456,0.005307011,-0.78878367,0.007856512,-2.3579578,-0.0042821057,1.5844449,0.7839422,0.039999913,0.039999995,0.012766595780533407,-0.020039809383854898,0.010733047115274452,-0.03763310505088638,-0.06185704518326711,-0.0284612441384337,0.9999396477361948,-0.006183637753680546,0.0076505295532451004,-0.004892127032361863
499.3166666665412,0.005576208,-0.78900975,0.008265422,-2.3580449,-0.0045109396,1.58515,0.7838347,0.03999991,0.039999995,0.00961037689748423,-0.02027111535807917,0.010349380958429855,-0.03887216597974359,-0.06341439520916618,-0.02937179197882242,0.9999328996381294,-0.006519047946313574,0.008074140171396278,-0.005148445945043508
499.33333333320786,0.005853998,-0.7892434,0.008687371,-2.3581343,-0.0047470694,1.5858775,0.7837237,0.039999906,0.039999995,0.012184038691165355,-0.02051787697306285,0.01046055716467098,-0.04012456479645511,-0.06499059090879496,-0.03028935342325463,0.9999255575863275,-0.006865294909030747,0.00851167171526063,-0.0054128048270624275
499.3499999998745,0.0061404575,-0.78948426,0.009122481,-2.3582256,-0.004990547,1.586628,0.7836092,0.039999902,0.039999995,0.012805335264953754,-0.02078362432172704,0.011170462243392798,-0.041389178000885485,-0.06657871951739264,-0.031213717496314047,0.9999175817315525,-0.007222502656361793,0.008963429272215629,-0.005685255947162371
499.36666666654116,0.0064356616,-0.78973275,0.009570862,-2.3583224,-0.0052414536,1.5874007,0.78349125,0.039999902,0.039999995,0.00699758072346679,-0.020936214641169466,0.00886177455596826,-0.04266544030494291,-0.06817693071422112,-0.03214351431692329,0.9999089511537562,-0.007590727069323465,0.00942754315428393,-0.0059658775740186
499.3833333332078,0.0067396774,-0.78998846,0.010032619,-2.3584206,-0.0054998216,1.5881964,0.78336984,0.039999902,0.039999995,0.0137554058423639,-0.021254920534283413,0.01134969355138793,-0.04395329291633871,-0.0698012547071238,-0.03307903130553864,0.9998996071004517,-0.007970055292193693,0.009906196500028287,-0.006254695028898808
499.39999999987447,0.0070525752,-0.79025173,0.010507856,-2.3585198,-0.0057657245,1.5890156,0.78324485,0.039999902,0.039999995,0.015182282152270687,-0.021489594639811233,0.011640379960731195,-0.045252608391710795,-0.07143474496252444,-0.03402015526290575,0.9998895004537919,-0.008360632402244522,0.010400052589785967,-0.006551764207515555
499.4166666665411,0.007374418,-0.7905225,0.010996668,-2.3586247,-0.006039202,1.5898579,0.7831163,0.039999902,0.039999995,0.006877988591469375,-0.021622019400277873,0.00925653943235627,-0.046562505871174414,-0.07306992412087962,-0.03496638928405291,0.9998786152777372,-0.008762534713971221,0.010906526972511177,-0.0068571397141133665
499.43333333320777,0.007705265,-0.7908009,0.011499148,-2.3587313,-0.006320317,1.5907241,0.7829841,0.039999902,0.039999995,0.01424861797529875,-0.021914852628184683,0.011422604238076062,-0.04788277972112116,-0.07473065864481572,-0.03591707278375473,0.9998668818376737,-0.00917587187878932,0.011428071505218967,-0.007170854979925766
499.4499999998744,0.008045175,-0.791087,0.012015385,-2.3588383,-0.0066091195,1.5916141,0.78284824,0.039999902,0.039999995,0.016352960105847636,-0.02215448698042119,0.01186905617009959,-0.049212680564269286,-0.07639717524818566,-0.03687207586729837,0.9998542462627454,-0.009600719249754723,0.011965290812085175,-0.007492945750965704
499.4666666665411,0.008394202,-0.79138076,0.012545454,-2.3589518,-0.0069056503,1.5925277,0.7827087,0.039999902,0.039999995,0.0062370863623817385,-0.022222967745514147,0.008951981609395254,-0.05055189905982048,-0.0780623283814065,-0.0378311395433338,0.9998406970696867,-0.010037171660682239,0.012515153938419402,-0.007823464076392523
499.4833333332077,0.008752396,-0.7916823,0.013089445,-2.359066,-0.0072099525,1.5934653,0.78256553,0.039999902,0.039999995,0.016234883281129875,-0.02256662537989812,0.011633503542896051,-0.05190032531755684,-0.07975376010525974,-0.0387932848036348,0.9998261493352082,-0.01048527438074026,0.013080709723271489,-0.008162423649024123
499.4999999998744,0.009119807,-0.79199165,0.013647424,-2.3591821,-0.0075220694,1.594427,0.78241885,0.0399999,0.03999999,0.014359361288218686,-0.02273276046636727,0.011086654693892584,-0.05325738259947517,-0.08144618150418001,-0.03975864535519625,0.9998105586328511,-0.010945031133585165,0.013661461344526565,-0.008509853916671698
499.516666666541,0.009496483,-0.7923089,0.014219463,-2.3593037,-0.007842053,1.5954131,0.7822683,0.0399999,0.03999999,0.008530983273802306,-0.022841638273018994,0.009647966300074806,-0.05462338530874618,-0.08314170397591189,-0.04072762329695284,0.9997938922886016,-0.011416686339544645,0.014255867311844162,-0.008865802987871303
499.5333333332077,0.009882461,-0.7926342,0.014805622,-2.3594263,-0.008169939,1.5964234,0.782114,0.03999989,0.03999999,0.016366530024236603,-0.023127223494999113,0.011318910202917642,-0.05599703579139325,-0.08485763145880335,-0.04169924040448053,0.999776067828371,-0.011900207303477012,0.014866113269360553,-0.00923027302074633
499.54999999987433,0.010277783,-0.7929672,0.015405963,-2.359555,-0.008505769,1.5974581,0.781956,0.03999988,0.03999999,0.007226562769191425,-0.023173826570869333,0.009275675122788485,-0.057377884389914265,-0.08657106554862642,-0.04267360319450353,0.9997570686195975,-0.012395681941044309,0.015489586587891001,-0.009603307852100207
499.566666666541,0.010682482,-0.7933082,0.01602054,-2.359685,-0.008849568,1.5985173,0.7817943,0.039999872,0.03999999,0.01617188931948288,-0.023490748419508628,0.011214038259788062,-0.05876637977057266,-0.08830816427496835,-0.04364818054947109,0.9997367997923038,-0.012903136005560815,0.016128919735103265,-0.009984897117319758
499.58333333320763,0.011096596,-0.7936569,0.016649405,-2.359816,-0.009201353,1.5996011,0.78162897,0.03999987,0.03999999,0.0159932915341221,-0.023689605822587237,0.011464921118076177,-0.06016151768245319,-0.09004530191929905,-0.04462318934122257,0.9997152027394735,-0.013422595668697765,0.01678409333688391,-0.010375044479277671
499.5999999998743,0.011520153,-0.7940137,0.017292606,-2.3599532,-0.009561155,1.6007097,0.7814598,0.039999865,0.03999999,0.008319080339203033,-0.02371592945736231,0.009076197994972723,-0.06156405177439971,-0.0917800428858115,-0.04559901843160008,0.9996922530496465,-0.013954195730269027,0.017452941654927768,-0.010773784926038369
499.61666666654094,0.011953179,-0.79437864,0.017950179,-2.3600912,-0.009928993,1.601843,0.78128684,0.03999986,0.03999999,0.017124401620316476,-0.024030430420125468,0.011184558474575113,-0.06297246912917398,-0.09353445939972807,-0.046574852412529635,0.9996678459066347,-0.014497982392797327,0.018138067362716816,-0.011181094726030256
499.6333333332076,0.012395703,-0.7947515,0.018622166,-2.360232,-0.010304889,1.6030011,0.7811101,0.039999854,0.03999999,0.013646919778431688,-0.02414807988586065,0.010400498700668948,-0.06438619783137883,-0.0952841181165674,-0.04755156305229234,0.9996419369807552,-0.015053973993127108,0.018838408709824436,-0.011596984679629566
499.64999999987424,0.012847739,-0.7951322,0.019308588,-2.3603773,-0.010688872,1.6041842,0.78092945,0.03999985,0.03999999,0.011161566585382587,-0.02423120227778644,0.009843121535046961,-0.06580577237679228,-0.09703766042929925,-0.048527071123339066,0.9996144748714443,-0.015622293756956965,0.019553260225860507,-0.012021463296869513
499.6666666665409,0.013309307,-0.79552096,0.020009484,-2.360524,-0.011080929,1.605392,0.78074485,0.039999846,0.039999988,0.016401916955222084,-0.024517099096518086,0.010732727394224817,-0.06722972583666754,-0.09880298127840752,-0.04950075717971106,0.9995853656035266,-0.016202984374572117,0.020284122251465947,-0.012454499311852408
499.68333333320754,0.013780426,-0.7959179,0.020724876,-2.3606765,-0.011481095,1.606625,0.7805567,0.039999843,0.039999988,0.008982654317968297,-0.024495269389894492,0.008850985610231454,-0.0686577556119899,-0.10056579398483803,-0.05047430830139479,0.9995545851077658,-0.016795901334833434,0.02102901177135885,-0.012896113845363516
499.6999999998742,0.014261109,-0.79632294,0.021454792,-2.3608298,-0.011889369,1.607883,0.7803647,0.03999984,0.039999988,0.017881599134206283,-0.024854110514765243,0.010988252969723611,-0.07009160940635287,-0.1023441874411134,-0.05144594084926184,0.99952201240668,-0.017401204336389378,0.021790411190669597,-0.01334626473157638
499.71666666654085,0.014751364,-0.7967359,0.02219923,-2.3609858,-0.012305776,1.609166,0.7801689,0.03999984,0.039999988,0.014537151793536651,-0.024894056352409155,0.010129810746817292,-0.07152905439380997,-0.10411499981371125,-0.05241514854416934,0.9994875978280456,-0.018018915961759904,0.022567318535805354,-0.013804948011108218
499.7333333332075,0.015251201,-0.79715705,0.022958208,-2.3611467,-0.012730297,1.6104741,0.77996916,0.039999835,0.039999988,0.010828812492702511,-0.024962543465252562,0.008829132757104396,-0.07297018500266758,-0.10588723443845333,-0.05338295901510118,0.9994512929174563,-0.018649123838935435,0.02335870121529428,-0.014272152717779938
499.74999999987415,0.01576062,-0.7975863,0.023731736,-2.361309,-0.013162954,1.6118071,0.7797657,0.039999835,0.039999988,0.016926402185468703,-0.0252261628090944,0.010204066055918837,-0.07441410982747107,-0.10766987295781696,-0.05434796792575214,0.9994129891652371,-0.019291735372492156,0.024166240482681314,-0.014747842386484092
499.7666666665408,0.016279629,-0.7980237,0.024519822,-2.3614757,-0.013603732,1.6131651,0.7795585,0.039999828,0.039999984,0.01209972613123167,-0.025264104802091847,0.00895920743433365,-0.07586172693854853,-0.10944681112548921,-0.05531030033611805,0.9993726436322219,-0.019946836108219117,0.024988576215206545,-0.015232004055686855
499.78333333320745,0.01680822,-0.7984692,0.025322462,-2.361645,-0.0140526565,1.6145486,0.7793473,0.03999982,0.039999984,0.015204610999641766,-0.025446231222486793,0.009797313871784397,-0.07731203727353615,-0.1112315654349864,-0.05626996056433167,0.9993301550198904,-0.02061450542251164,0.025826731618918325,-0.01572461026516082
499.7999999998741,0.017346393,-0.79892254,0.026139645,-2.3618162,-0.014509719,1.6159568,0.77913237,0.039999817,0.039999984,0.016056115416818173,-0.025589266570739955,0.009671788505083434,-0.07876412340570844,-0.11301319365477033,-0.05722517047107091,0.9992854490341738,-0.021294670043053465,0.026680659640326444,-0.016225621019979573
499.81666666654075,0.017894149,-0.79938406,0.026971366,-2.361993,-0.0149749275,1.6173902,0.77891356,0.03999981,0.039999988,0.009987559366941845,-0.025536575405046835,0.00803007780190157,-0.08021818461396246,-0.11479183121280534,-0.058178045176639506,0.9992384883359515,-0.021987405527040378,0.027548791825777234,-0.016735037950717305
499.8333333332074,0.018451467,-0.7998537,0.027817614,-2.3621707,-0.015448253,1.6188493,0.7786909,0.039999805,0.039999988,0.018915960595888848,-0.025925043080086974,0.010453427390699765,-0.0816739872664531,-0.11658177825385316,-0.059124627137654095,0.9991891185938071,-0.02269272949514725,0.028433909251474473,-0.017252771269274516
499.84999999987406,0.01901834,-0.8003314,0.028678363,-2.362352,-0.015929699,1.6203322,0.77846444,0.039999798,0.039999988,0.013358602912649786,-0.025805829453285495,0.0077377088130825555,-0.08313041415959449,-0.1183566104912234,-0.060067894195968474,0.9991373259673183,-0.023410572742789473,0.02933364123364495,-0.017778819834489486
499.8666666665407,0.019594759,-0.80081713,0.029553596,-2.3625364,-0.016419262,1.6218406,0.77823424,0.039999798,0.03999999,0.014284272819775623,-0.025989999698302485,0.008891551964507194,-0.0845884499610963,-0.12013817581916225,-0.061005096718092226,0.9990830052486505,-0.024140960072669998,0.03024883285935632,-0.018313131374547213
499.88333333320736,0.020180704,-0.8013107,0.030443296,-2.3627236,-0.016916888,1.6233739,0.77800024,0.039999798,0.039999995,0.015315350055367105,-0.02615219052074999,0.008767404983012206,-0.08604739811607487,-0.12191770230796199,-0.06193709795077433,0.9990260709363661,-0.024883926246506184,0.031179553861384268,-0.018855641728947818
499.899999999874,0.02077616,-0.8018125,0.031347428,-2.3629146,-0.017422589,1.6249317,0.7777625,0.03999979,0.03999999,0.013609547618864681,-0.02614077236476678,0.0076606352997110605,-0.08750618448742256,-0.12369368485252275,-0.06286376793899112,0.9989664579379054,-0.025639434992149605,0.03212522020239316,-0.01940632668039637
499.91666666654066,0.021381095,-0.80232227,0.032265965,-2.363108,-0.017936325,1.6265146,0.77752095,0.039999783,0.039999988,0.01603138825829742,-0.02635262706433758,0.008621235731709476,-0.0889655903338133,-0.12547106944350808,-0.06378437086620029,0.998904055760555,-0.026407491772507553,0.03308664649279675,-0.019965109247375976
499.9333333332073,0.021995492,-0.80284005,0.03319887,-2.3633041,-0.018458096,1.6281221,0.7772756,0.03999978,0.039999988,0.015303448056780411,-0.026393847764596967,0.007943399756560332,-0.09042445943932437,-0.12724262324156943,-0.06469986140334034,0.9988387877242922,-0.02718812215939492,0.03406348558984098,-0.020531953155577654
499.94999999987397,0.022619331,-0.8033657,0.034146093,-2.3635044,-0.018987853,1.6297545,0.77702653,0.039999764,0.039999966,0.013203084285673405,-0.026435087543532493,0.007579273923274954,-0.09188265208939114,-0.1290093427688596,-0.0656054965429759,0.9987705866882429,-0.027981292759155812,0.035055182442724396,-0.02110679051530113
499.9666666665406,0.023252575,-0.8038992,0.035107583,-2.3637068,-0.019525591,1.6314114,0.7767736,0.039999753,0.03999995,0.016455705029216894,-0.026581831592838168,0.007858871265953304,-0.09333999197931173,-0.13077776066213742,-0.06650514212374534,0.9986993380815039,-0.02878704672846914,0.03606246088070167,-0.021689559042234175
499.98333333320727,0.023895198,-0.80444086,0.036083326,-2.3639119,-0.020071276,1.6330929,0.7765168,0.039999742,0.039999936,0.016036306159583624,-0.026691373158993503,0.007444226045993929,-0.09479531489209927,-0.1325373993866174,-0.06739721870657639,0.9986249535486342,-0.029605357292911857,0.03708527210626335,-0.02228020561735196
499.9999999998739,0.02454716,-0.8049902,0.037073243,-2.364121,-0.020624937,1.6347989,0.7762564,0.039999735,0.03999993,0.01316153321209157,-0.026592495250445103,0.006954700461125896,-0.09624871857631684,-0.13429082888743918,-0.06828427768825453,0.9985473787875728,-0.030436112377498874,0.03812270528605655,-0.022878695799459257
500.0166666665406,0.025208425,-0.8055476,0.038077284,-2.3643322,-0.02118648,1.6365288,0.7759922,0.039999727,0.03999992,0.016847439223899308,-0.026805672663866853,0.006882162799448643,-0.09770036445658443,-0.1360432490764802,-0.06916275085196151,0.9984664895839426,-0.031279347804540454,0.03917563175859077,-0.023484919739198355
500.0333333332072,0.02587896,-0.8061127,0.039095394,-2.364547,-0.021755897,1.6382833,0.7757243,0.03999972,0.03999992,0.014145851211999627,-0.02680293012535806,0.006728800261979195,-0.0991499924515388,-0.1377878860906936,-0.07003528801663214,0.9983822188764498,-0.032135059779876005,0.04024337642112587,-0.024098830231110414
500.0499999998739,0.026558723,-0.8066856,0.04012751,-2.364765,-0.02233315,1.6400617,0.7754527,0.039999712,0.039999917,0.015081643115966159,-0.026867970564842247,0.006424484689837584,-0.10059642099907051,-0.13952903987598822,-0.07089859819244973,0.998294470480422,-0.03300319030811162,0.041326068268269144,-0.02472035030469497
500.0666666665405,0.027247675,-0.80726624,0.04117358,-2.364985,-0.022918196,1.6418647,0.7751775,0.039999705,0.03999991,0.01685347000957016,-0.027057334633817653,0.006956726424123261,-0.1020401492181238,-0.14126409482304728,-0.07175367733939744,0.9982031270433013,-0.03388367339463225,0.04242431312276788,-0.025349388440789978
500.0833333332072,0.027945759,-0.8078545,0.04223352,-2.3652081,-0.023511002,1.643691,0.77489865,0.039999694,0.039999906,0.014809096265078203,-0.026934899512451316,0.0056718796391574955,-0.10348091450421304,-0.1429877486456849,-0.07260118557533743,0.9981081367577013,-0.034776486319644306,0.04353707699451717,-0.02598588586334747
500.09999999987383,0.028652942,-0.8084502,0.04330727,-2.3654346,-0.024111541,1.6455413,0.7746161,0.039999694,0.03999991,0.01462279327304472,-0.02704075708579584,0.005981902865048738,-0.10491834731998616,-0.1447065459936912,-0.07343881622939652,0.998009395244213,-0.03568165599986906,0.04466454645875191,-0.026629771291196057
500.1166666665405,0.029369166,-0.8090538,0.044394743,-2.3656635,-0.024719754,1.6474152,0.7743301,0.039999682,0.03999991,0.0165131895295767,-0.02710136654328621,0.005575736806462395,-0.10635166991303774,-0.1464204718022198,-0.07426888894047426,0.9979067961431256,-0.03659904176380028,0.045807059022928885,-0.027280940178148225
500.13333333320713,0.030094385,-0.8096651,0.045495868,-2.3658962,-0.025335604,1.6493127,0.7740404,0.03999968,0.03999991,0.014118757358039247,-0.02706036393176764,0.005034780712942499,-0.10778131982612228,-0.1481239044083772,-0.07508820196800899,0.99780026808996,-0.0375286799339511,0.04696399596701432,-0.027939331860822182
500.1499999998738,0.030828547,-0.810284,0.046610568,-2.3661308,-0.025959032,1.6512338,0.77374715,0.039999675,0.03999991,0.017349646161335386,-0.02725712091376231,0.005499585060153578,-0.10920615927276123,-0.1498210961703756,-0.07589841145238518,0.9976896790858012,-0.038470508447693494,0.04813613916614079,-0.028604830564521486
500.16666666654044,0.031571582,-0.8109102,0.047738757,-2.3663683,-0.026589982,1.6531777,0.7734504,0.039999668,0.039999902,0.015131293782744137,-0.02716971785955563,0.004732101390736432,-0.11062639566871227,-0.1515046963949586,-0.07669765905862931,0.9975749774222962,-0.03942444960529139,0.04932254402476677,-0.02927736062472427
500.1833333332071,0.032323435,-0.8115434,0.048880346,-2.3666093,-0.027228456,1.6551448,0.7731501,0.039999653,0.039999902,0.013718694116304775,-0.027123318526205142,0.004619605329669874,-0.11204176172901195,-0.153180540744426,-0.07749008109482888,0.9974560841509487,-0.04039047267405096,0.050522831035167824,-0.029956859842351587
500.19999999987374,0.03308406,-0.8121843,0.05003524,-2.3668523,-0.027874373,1.6571348,0.7728463,0.03999965,0.039999902,0.017489435903117467,-0.02729566622301921,0.004471058832766772,-0.11345194534734715,-0.15485287018805943,-0.07826935713008981,0.9973328483709952,-0.04136852817389645,0.051738077451589655,-0.030643201179645536
500.2166666665404,0.033853393,-0.81283283,0.051203325,-2.367098,-0.02852768,1.6591477,0.77253896,0.03999964,0.039999906,0.015953090600540065,-0.02721929205525414,0.003992005604480653,-0.11485618807012432,-0.15651110654734257,-0.07904008217460351,0.9972051910622591,-0.042358564836766865,0.05296787221063334,-0.03133629552022198
500.23333333320704,0.03463136,-0.8134885,0.05238453,-2.3673475,-0.029188316,1.6611832,0.7722281,0.03999964,0.03999991,0.013913481773109027,-0.027166883026849553,0.0035490738234278396,-0.11625392866159116,-0.15815500718748737,-0.0798051897157343,0.99707305955155,-0.04336054110625768,0.05421132823924411,-0.032036062211525086
500.2499999998737,0.0354179,-0.8141512,0.053578757,-2.3675985,-0.029856246,1.6632411,0.77191395,0.039999634,0.039999913,0.01734003247868543,-0.02734479181894789,0.003998516068048907,-0.11764585493659202,-0.15979508109597318,-0.08055464664848173,0.9969363105598181,-0.044374323518989504,0.05546934621389103,-0.03274238430862221
500.26666666654035,0.03621295,-0.8148213,0.054785896,-2.3678527,-0.030531388,1.6653211,0.77159643,0.039999627,0.03999991,0.015036088864395225,-0.027200406039427916,0.0028550791251191754,-0.11903145373513109,-0.16141829469624125,-0.08129254598285662,0.9967948867189089,-0.045399849919349373,0.056741157099759194,-0.03345517193676668
500.283333333207,0.037016433,-0.81549853,0.05600583,-2.36811,-0.03121368,1.6674234,0.7712756,0.03999962,0.039999906,0.015019310213926218,-0.027198999476599206,0.0029348280090157886,-0.12041074210209972,-0.1630319535905901,-0.08201814372897423,0.9966486876249997,-0.04643706399377939,0.05802679435035998,-0.03417431316682503
500.29999999987365,0.03782828,-0.8161826,0.057238486,-2.3683693,-0.031903088,1.6695476,0.7709514,0.039999608,0.039999906,0.016322075084707066,-0.027300886829416393,0.0030223861647415973,-0.12178300832585122,-0.1646333649422671,-0.08273432859522489,0.9964976034419889,-0.04748592621726559,0.05932641108443241,-0.03489971480545408
500.3166666665403,0.03864841,-0.8168739,0.058483712,-2.368632,-0.032599524,1.6716931,0.7706238,0.039999608,0.039999906,0.014471894442413813,-0.02707599762720586,0.001737939978530001,-0.12314818899382299,-0.16622176158837232,-0.08343619138770461,0.9963415768612923,-0.04854637115627116,0.06063929488708804,-0.03563127812341054
500.33333333320695,0.03947676,-0.81757206,0.059741415,-2.3688974,-0.033302948,1.6738603,0.77029294,0.039999597,0.03999991,0.015566241857900565,-0.027192758944408202,0.0022707649404818397,-0.12450522788961638,-0.1678013220002487,-0.08412966162093179,0.9961804888238901,-0.049618305093110736,0.0619658078176773,-0.03636888983437842
500.3499999998736,0.040313248,-0.818277,0.06101146,-2.369165,-0.03401328,1.676049,0.76995885,0.03999959,0.039999906,0.016343353663605953,-0.027200210132549696,0.002110998928861463,-0.1258542913071871,-0.1693665936672699,-0.08480856852489546,0.9960142361209333,-0.05070162614569947,0.06330604175861203,-0.0371124187769052
500.36666666654025,0.041157797,-0.8189886,0.062293753,-2.3694348,-0.034730442,1.6782587,0.7696216,0.039999574,0.0399999,0.015679112634225945,-0.027155742309750708,0.0015524487997131686,-0.12719512310656764,-0.17091651093449534,-0.08547659609160592,0.9958427456566405,-0.05179624295735567,0.06465958336563564,-0.037861767226696506
500.3833333332069,0.042010315,-0.8197071,0.063588165,-2.3697078,-0.03545442,1.6804891,0.769281,0.039999567,0.039999902,0.014605518272015061,-0.026963152729130024,0.0008104464969127534,-0.12852775905478844,-0.17245241421285828,-0.08613418892656138,0.9956659381973559,-0.052902160157894486,0.06602604429625418,-0.038616867283564026
500.39999999987356,0.042870738,-0.8204323,0.06489454,-2.369983,-0.036185067,1.68274,0.76893735,0.039999563,0.039999902,0.01615607140990072,-0.027057651275967654,0.000854981942244315,-0.129851301389228,-0.17397723683452931,-0.08677628209079702,0.995483704167816,-0.0540191859025732,0.0674057256913471,-0.039377537185181284
500.4166666665402,0.043738976,-0.8211641,0.06621279,-2.3702602,-0.036922395,1.6850116,0.7685906,0.039999552,0.039999906,0.01613948640692975,-0.027028207201613974,0.0009199525449421486,-0.13116570186735904,-0.17548577033179152,-0.08740891544084096,0.9952959408659572,-0.05514723698436544,0.06879865954847869,-0.040143701785855496
500.43333333320686,0.04461493,-0.82190216,0.067542754,-2.3705409,-0.03766627,1.6873034,0.76824075,0.03999954,0.039999902,0.013569190127515895,-0.026797143085435793,1.4580446050516116e-05,-0.13247113696386076,-0.1769771029306309,-0.08802711099596497,0.9951026179656303,-0.0562862753849498,0.07020383117333678,-0.04091524177887904
500.4499999998735,0.045498516,-0.82264686,0.06888433,-2.3708236,-0.03841662,1.6896151,0.7678878,0.039999533,0.0399999,0.0160305658923221,-0.02688747115279916,-0.00011954713599049427,-0.1337668103131978,-0.17845816308142765,-0.08863132703940291,0.994903596615125,-0.05743619531853978,0.07162186475439103,-0.04169203039818245
500.46666666654016,0.046389658,-0.82339805,0.07023737,-2.3711083,-0.03917339,1.6919467,0.76753193,0.039999522,0.0399999,0.016405596795854294,-0.026864454523459202,-0.00017612111509190953,-0.13505214148238803,-0.17992192115740904,-0.08922548289852264,0.9946987805799635,-0.05859680544982778,0.07305282296629982,-0.0424739374259445
500.4833333332068,0.04728826,-0.82415557,0.071601726,-2.3713956,-0.039936498,1.6942977,0.767173,0.03999952,0.0399999,0.014749356776322387,-0.026649582532421723,-0.0009416985143673173,-0.136328085265301,-0.18136561232066,-0.08980427251369566,0.9944881199765438,-0.05976812873437101,0.07449595556309152,-0.043260867049249356
500.49999999987347,0.04819423,-0.8249191,0.072977275,-2.3716853,-0.040705845,1.6966677,0.76681113,0.039999507,0.0399999,0.014806036003234269,-0.026623648224108343,-0.0010482609464457227,-0.1375929164802623,-0.18279525860320323,-0.09037157499339285,0.9942715359482744,-0.060949997054885366,0.07595111446901562,-0.04405268292605125
500.5166666665401,0.049107473,-0.82568866,0.074363865,-2.3719773,-0.041481387,1.6990569,0.7664465,0.0399995,0.039999902,0.01493560478573741,-0.026540594774490667,-0.001178187316908108,-0.13884744489750434,-0.1842108197750491,-0.09092538343470687,0.9940489320891425,-0.06214226887309754,0.07741835844578342,-0.04484926763392475
500.53333333320677,0.050027892,-0.8264643,0.07576132,-2.3722718,-0.042263016,1.7014649,0.76607877,0.03999949,0.0399999,0.014929648042238952,-0.026396953360177666,-0.0016722086397580327,-0.1400914228738588,-0.18560936511765413,-0.09146515442062274,0.9938202203335246,-0.06334495021218463,0.07889752831864927,-0.04565048700778873
500.5499999998734,0.05095539,-0.8272461,0.07716955,-2.3725681,-0.043050654,1.7038914,0.7657083,0.03999948,0.0399999,0.015846755215642716,-0.026418533807631706,-0.0020489547694513277,-0.14132323274071285,-0.18699082556898472,-0.09199131187666293,0.9935853044446881,-0.0645578162721229,0.08038874516679805,-0.046456224558598186
500.5666666665401,0.05188986,-0.82803386,0.078588374,-2.3728676,-0.043844238,1.7063363,0.765335,0.039999474,0.039999902,0.013376400013642709,-0.026087795528143,-0.0025589671463821517,-0.14254356527832912,-0.18835279329206095,-0.09250600424460462,0.9933441523335037,-0.06578081886558622,0.08189119879524939,-0.04726637762810486
500.5833333332067,0.05283122,-0.8288274,0.08001765,-2.3731687,-0.044643648,1.7087994,0.7649591,0.039999466,0.0399999,0.015831092918583423,-0.026253570475112675,-0.00229601820236347,-0.14375248791044803,-0.18969918593419485,-0.09300391396245529,0.9930966324289906,-0.06701376140135566,0.08340548188615667,-0.04808076572163341
500.5999999998734,0.053779352,-0.82962656,0.08145722,-2.3734715,-0.045448825,1.7112797,0.7645805,0.03999945,0.039999902,0.015353327971379116,-0.026007193940288942,-0.00307785187236842,-0.14494903112816282,-0.19102510861937508,-0.09349227971932941,0.9928426960994141,-0.0682565468806441,0.08493105228943285,-0.04889929413587251
500.61666666654,0.054734167,-0.8304313,0.08290692,-2.373777,-0.04625969,1.7137779,0.7641991,0.039999444,0.039999902,0.013764585235609417,-0.025821091495184523,-0.0032155866573457814,-0.14613395419961156,-0.19233276187368725,-0.09396406476501834,0.9925822735210224,-0.06950915213738569,0.08646760257034325,-0.049721843959344585
500.6333333332067,0.055695552,-0.83124155,0.084366605,-2.374085,-0.047076155,1.7162932,0.7638148,0.039999425,0.0399999,0.013566360658456844,-0.025660403238858542,-0.003829231584218107,-0.1473054997070718,-0.19362238419012429,-0.09442365320681709,0.9923152997587834,-0.07077149676050333,0.08801482638495574,-0.05054830805615664
500.64999999987333,0.056663405,-0.83205736,0.0858361,-2.3743947,-0.04789812,1.7188253,0.76342845,0.039999418,0.039999895,0.015197754687124032,-0.025617916348827374,-0.003962314006300538,-0.14846337359688247,-0.19489647881090352,-0.09486671446900918,0.9920416915757219,-0.07204307613024385,0.08957303056344203,-0.051378493097334804
500.66666666654,0.057637606,-0.8328786,0.08731524,-2.374706,-0.048725463,1.721374,0.76303923,0.039999407,0.039999895,0.015011498210082408,-0.025491786010153894,-0.004262311603064894,-0.14961022261517312,-0.19614812645352703,-0.09529760366656569,0.9917613517884959,-0.07332416164399488,0.0911420066876082,-0.05221228815917274
500.68333333320663,0.05861807,-0.83370507,0.08880389,-2.3750193,-0.049558144,1.7239392,0.7626476,0.0399994,0.0399999,0.014378225937061728,-0.025339575578745,-0.004520293156184962,-0.1507421738084111,-0.1973796585286102,-0.09571425471836637,0.9914742325520435,-0.07461443234094242,0.09272149154808729,-0.05304957753717879
500.6999999998733,0.059604682,-0.8345366,0.09030187,-2.3753355,-0.05039604,1.7265205,0.76225346,0.03999939,0.0399999,0.01238342551381777,-0.025042086355289706,-0.005083255083060401,-0.15186129005996937,-0.1985900816293332,-0.09611709675739172,0.9911803077599565,-0.07591386224139846,0.09431078684339714,-0.05389024506765021
500.71666666653994,0.06059732,-0.83537334,0.091809,-2.375653,-0.05123906,1.7291176,0.7618569,0.039999373,0.0399999,0.01496335426685036,-0.025012834369830816,-0.005217898025255963,-0.15296567329227015,-0.19978471483164748,-0.09650601289428162,0.9908794562887736,-0.07722221946572005,0.09591041855322915,-0.05473411677004511
500.7333333332066,0.061595865,-0.8362149,0.093325116,-2.375972,-0.05208712,1.73173,0.761458,0.03999937,0.0399999,0.014381570535659804,-0.024832557600318328,-0.005513960180447697,-0.1540563409163685,-0.20095658524126608,-0.09687921895003734,0.9905716351204505,-0.07853939515089721,0.09751996007821252,-0.0555810803284006
500.74999999987324,0.06260023,-0.8370615,0.09485004,-2.3762932,-0.0529401,1.7343576,0.76105684,0.039999343,0.03999988,0.013406933700821355,-0.02458865481267669,-0.006107297442770054,-0.15513249824640044,-0.2021066300711325,-0.09723833923338329,0.9902567958085708,-0.07986518476298006,0.09913916581948606,-0.05643098810347004
500.7666666665399,0.06361029,-0.83791286,0.09638362,-2.3766162,-0.053797945,1.7370002,0.76065326,0.03999933,0.039999876,0.013359706912341451,-0.0244250804717544,-0.006156958267022894,-0.1561946252251424,-0.2032367712187512,-0.09758416465732805,0.9899348675022844,-0.08119959358209987,0.10076783840682971,-0.057283739823369845
500.78333333320654,0.06462591,-0.83876896,0.097925656,-2.376941,-0.054660507,1.7396574,0.76024747,0.039999314,0.03999986,0.01368876107505912,-0.02423226858559724,-0.006638033089201301,-0.1572414439429925,-0.20434494096648873,-0.09791253564270815,0.9896057968018462,-0.08254235472695749,0.10240587953950504,-0.05813916449393225
500.7999999998732,0.065647,-0.83962965,0.099476,-2.3772674,-0.055527743,1.7423289,0.75983965,0.03999929,0.039999854,0.013413614844859367,-0.024056088982740698,-0.006881777989464766,-0.15827286491756698,-0.20543285728752705,-0.09823063169061788,0.9892695341116586,-0.08389328041287905,0.1040530744698463,-0.05899715309606566
500.81666666653985,0.06667346,-0.84049475,0.10103445,-2.3775957,-0.056399528,1.7450144,0.7594297,0.039999284,0.03999985,0.012695135535611968,-0.023815938836921346,-0.007193909981717539,-0.15928962414677156,-0.20649678778976202,-0.09853151579249728,0.9889260377082874,-0.08525230411537077,0.1057090780248518,-0.059857559328319224
500.8333333332065,0.067705125,-0.8413645,0.102600835,-2.3779254,-0.05727575,1.7477134,0.7590175,0.039999273,0.03999985,0.013609120985735856,-0.02360530587000309,-0.0077880481222036835,-0.16029040494591873,-0.20754173728583922,-0.09881984507837593,0.9885752311740386,-0.0866192915841421,0.10737393010307529,-0.060720258307071916
500.84999999987315,0.06874189,-0.8422384,0.10417497,-2.3782573,-0.05815634,1.7504259,0.7586034,0.039999258,0.039999846,0.01177063412418633,-0.023278014543137715,-0.007879406756861052,-0.16127499145172455,-0.2085617854433831,-0.09909482545470472,0.9882171173458211,-0.08799401441646176,0.10904702971271717,-0.06158512582129639
500.8666666665398,0.06978364,-0.8431165,0.10575668,-2.37859,-0.059041142,1.7531517,0.75818723,0.039999247,0.039999828,0.0138698175880414,-0.02333172101830483,-0.007880055850839618,-0.1622449089248162,-0.20956130881317253,-0.0993495146668936,0.9878515785724408,-0.08937637520470494,0.11072882978828484,-0.06245196971210577
500.88333333320645,0.07083026,-0.84399885,0.10734577,-2.3789246,-0.05993009,1.7558899,0.7577691,0.039999228,0.039999824,0.012330106600133561,-0.022852125043271165,-0.00878018083538823,-0.16319683669759585,-0.21053600042222653,-0.0995962729673359,0.9874786262704666,-0.09076618885565796,0.11241863466323836,-0.06332070909319232
500.8999999998731,0.07188163,-0.8448852,0.108942054,-2.3792608,-0.060823094,1.7586405,0.75734913,0.03999921,0.03999982,0.012016310297191524,-0.02262957375554764,-0.008883218182442754,-0.1641320768518979,-0.211488297537311,-0.09982921690595858,0.9870982228580358,-0.09216327124111867,0.11411625213904339,-0.06419120549095228
500.91666666653975,0.07293761,-0.8457754,0.11054536,-2.3795984,-0.061720047,1.7614033,0.75692725,0.0399992,0.039999824,0.012293160808907189,-0.022427413119616157,-0.009110771066977996,-0.16505073286698393,-0.21241804864063754,-0.10004662684882343,0.9867103093886175,-0.0935675109292495,0.11582163083977752,-0.06506332357279036
500.9333333332064,0.07399807,-0.84666944,0.112155475,-2.3799374,-0.062620796,1.7641778,0.75650376,0.039999187,0.03999982,0.011873130311323976,-0.022142606254399455,-0.009478506238491669,-0.16595238114584135,-0.2133237561904373,-0.10024891584389674,0.9863148826089688,-0.09497860727165176,0.11753443388776164,-0.06593688918562206
500.94999999987306,0.0750629,-0.84756714,0.11377221,-2.3802776,-0.063525304,1.7669637,0.7560784,0.039999176,0.039999828,0.012152208552640431,-0.021894738688901794,-0.009696102759693126,-0.16683755677848466,-0.2142068426279258,-0.10043891359870724,0.985911876224173,-0.09639654256090492,0.11925460519325415,-0.06681181065227526
500.9666666665397,0.076131985,-0.8484682,0.1153954,-2.3806193,-0.06443341,1.7697607,0.7556513,0.039999165,0.039999828,0.011125299063596827,-0.02164172051716262,-0.009934949399759141,-0.16770487408999166,-0.2150644421687487,-0.10061271729166583,0.9855012955993474,-0.09782116079043458,0.12098165205409601,-0.06768793644277606
500.98333333320636,0.07720518,-0.8493728,0.11702483,-2.3809626,-0.065345,1.7725686,0.7552225,0.039999146,0.039999828,0.010865864373466039,-0.021289361457982325,-0.010478812650194236,-0.168553612842571,-0.21590040685300088,-0.10077393178811439,0.985083111831509,-0.09925223835977642,0.12271543739049989,-0.06856513247258536
500.999999999873,0.07828236,-0.8502809,0.118660346,-2.3813071,-0.06625999,1.7753868,0.75479215,0.03999914,0.03999983,0.011386314719086243,-0.02107358426544359,-0.010735458746968796,-0.16938471910543915,-0.2167126902141817,-0.1009196916787346,0.98465728747685,-0.10068957396048692,0.12445588534268531,-0.06944327554166663
501.01666666653966,0.0793634,-0.85119224,0.1203017,-2.3816524,-0.06717829,1.778215,0.7543602,0.03999913,0.03999984,0.011894780371868308,-0.020799994397632804,-0.010865752670219386,-0.170197682657022,-0.21749940109224175,-0.10105145045613478,0.984223779288809,-0.10213303040581918,0.12620294091478118,-0.07032221616984206
501.0333333332063,0.080448166,-0.85210675,0.12194872,-2.3819988,-0.068099745,1.7810532,0.7539269,0.03999911,0.039999835,0.010812479172006562,-0.02048820096448578,-0.011158349533157974,-0.17099147787450586,-0.21826023961496135,-0.10117019174795505,0.9837825984008364,-0.10358235616728827,0.12795623385387297,-0.07120180329503407
501.04999999987297,0.08153655,-0.8530244,0.1236012,-2.3823466,-0.06902429,1.7839007,0.753492,0.039999098,0.039999835,0.010145743558487297,-0.0200712831086719,-0.01167173197411664,-0.17176800107816143,-0.21899685045289718,-0.10127279011261199,0.9833337376984637,-0.10503748227621454,0.12971538127238613,-0.07208194976831866
501.0666666665396,0.08262839,-0.853945,0.12525895,-2.3826954,-0.06995175,1.7867575,0.7530557,0.039999083,0.03999983,0.010619868378292097,-0.01990123616484596,-0.011687104594693132,-0.17252470407218728,-0.21970701470837067,-0.10136235550865488,0.9828771670825739,-0.10649819726885146,0.1314803607659912,-0.07296247761050742
501.08333333320627,0.08372357,-0.85486835,0.12692174,-2.383046,-0.07088206,1.7896229,0.75261825,0.039999064,0.039999828,0.008848795257332398,-0.019310295462973692,-0.012178548846586423,-0.1732625034667102,-0.22039283088190434,-0.10143810194217376,0.9824129556929788,-0.10796418272412937,0.1332504806959747,-0.07384327409851037
501.0999999998729,0.084821954,-0.8557944,0.12858944,-2.383397,-0.07181512,1.7924966,0.7521794,0.039999045,0.039999828,0.010373932252427664,-0.019239373551904748,-0.012381610129774678,-0.17398207664484328,-0.22105618166771293,-0.10150033144501061,0.981941019630909,-0.10943544922048355,0.13502594282113584,-0.0747242342576042
501.1166666665396,0.08592342,-0.856723,0.13026176,-2.3837492,-0.072750844,1.7953781,0.75173914,0.039999034,0.039999828,0.00946915856765429,-0.018734404850775932,-0.012619238163025237,-0.17468179101786402,-0.22169256394896975,-0.10154669548394879,0.981461388857619,-0.11091178899591383,0.13680631065880683,-0.07560522870361194
501.1333333332062,0.08702782,-0.85765415,0.1319385,-2.3841016,-0.073689036,1.7982675,0.75129795,0.03999901,0.039999824,0.010853606247351877,-0.018618557549898718,-0.01261952937887667,-0.1753603693248017,-0.22230638691719992,-0.10158243886408137,0.9809740122594677,-0.11239282561498862,0.13859195256136142,-0.0764860164152234
501.1499999998729,0.08813504,-0.8585877,0.1336196,-2.384455,-0.07462969,1.8011643,0.75085557,0.039999,0.03999983,0.009056272251317665,-0.018237311900248798,-0.01311918549755653,-0.17602064532075035,-0.2228881007764651,-0.10160298550841522,0.9804789248424971,-0.1138785869419816,0.14038216171754403,-0.0773666210151892
501.1666666665395,0.089244924,-0.85952353,0.1353047,-2.3848097,-0.07557259,1.8040681,0.7504122,0.039998986,0.039999828,0.007905893868764835,-0.01755418985446844,-0.013500714885839038,-0.17666057102863708,-0.22344436972377615,-0.10160814512171301,0.9799761969993378,-0.11536870975562098,0.1421764720525051,-0.07824682050244322
501.1833333332062,0.09035735,-0.8604615,0.1369937,-2.3851652,-0.07651766,1.806979,0.7499677,0.03999896,0.039999828,0.00892603676612147,-0.017569593879124268,-0.01330195096551634,-0.177280219586045,-0.22397771442950476,-0.10160343497904528,0.9794657510635361,-0.11686321655106757,0.14397508490476388,-0.07912651918002966
501.19999999987283,0.09147217,-0.8614015,0.13868636,-2.3855212,-0.077464804,1.8098953,0.74952227,0.039998945,0.039999828,0.008582218951502796,-0.01691034718683815,-0.014279702811004213,-0.17787870793727673,-0.22448311472382845,-0.10158306160346167,0.978947685597846,-0.11836172638455789,0.1457773389743941,-0.08000561249957776
501.2166666665395,0.092589274,-0.8623433,0.1403824,-2.385878,-0.07841384,1.812818,0.7490759,0.039998937,0.039999824,0.007782742640749518,-0.016665821866895802,-0.013712241466889985,-0.17845841183793026,-0.22496272449525492,-0.10154478522585064,0.9784219736335629,-0.1198641408113175,0.14758328654518785,-0.08088388461918362
501.23333333320613,0.09370847,-0.86328703,0.14208168,-2.386236,-0.07936473,1.8157458,0.74862903,0.03999892,0.03999983,0.007182322959176091,-0.016006406200025358,-0.014741545127794353,-0.17901551997909132,-0.2254171410670594,-0.10149942406766227,0.977888724286708,-0.1213700141597241,0.14939227582040876,-0.08176130197704716
501.2499999998728,0.0948297,-0.8642323,0.14378399,-2.3865948,-0.080317296,1.8186796,0.7481811,0.03999889,0.039999824,0.0071952982763967555,-0.01600458096661095,-0.014036312727516709,-0.17955435324644337,-0.22584773613961417,-0.10143945986579837,0.977347846547204,-0.12287955875229048,0.15120454548281592,-0.0826376809677071
501.26666666653944,0.095952794,-0.86517906,0.14548911,-2.3869538,-0.08127151,1.8216177,0.74773234,0.03999888,0.039999828,0.007658353301920329,-0.015418763739932784,-0.01482548791531535,-0.18007080120657581,-0.22625059630403282,-0.10136386503221159,0.9767994164570786,-0.12439242644204349,0.15301963948410616,-0.0835129581868928
501.2833333332061,0.09707756,-0.86612755,0.14719683,-2.3873134,-0.08222718,1.8245599,0.7472831,0.039998867,0.03999983,0.007277333899491367,-0.014878788843086799,-0.01532927300156306,-0.18056547162184539,-0.2266273616261282,-0.101276028461381,0.976243489339396,-0.12590822153448197,0.15483736246094887,-0.08438696853543902
501.29999999987274,0.098203935,-0.8670773,0.14890705,-2.3876734,-0.08318423,1.8275065,0.7468331,0.039998844,0.03999983,0.006838951940757454,-0.014840454361997324,-0.014895303585360509,-0.18104004184622288,-0.22697865380987522,-0.10117578783553642,0.9756800373337475,-0.1274270402162847,0.15665761770054987,-0.08525963280781158
501.3166666665394,0.09933174,-0.86802816,0.15061948,-2.3880334,-0.08414247,1.8304571,0.7463824,0.039998822,0.039999828,0.00731176189914251,-0.014396318285281318,-0.015041918888658579,-0.18149182057735222,-0.22730141801518317,-0.10106122878032985,0.9751090928062078,-0.12894859438265327,0.15848031664584736,-0.08613075158864199
501.33333333320604,0.100460865,-0.8689803,0.15233383,-2.388394,-0.08510189,1.8334106,0.7459312,0.039998807,0.039999828,0.005602926421222065,-0.013504550201953736,-0.01587507225115914,-0.1819216485003311,-0.22759500655604328,-0.1009342473364739,0.9745307889696062,-0.13047261189841075,0.16030467618276642,-0.08700028556632472
501.3499999998727,0.10159113,-0.8699334,0.15404992,-2.3887548,-0.086062305,1.8363676,0.7454797,0.039998785,0.039999828,0.0068545023277355455,-0.013463265816393566,-0.015337613430510544,-0.18232933008648788,-0.22786391919170051,-0.10079490944910616,0.9739450779245755,-0.13199882645995825,0.16213114027734674,-0.08786801666165828
501.36666666653934,0.102722466,-0.8708872,0.15576763,-2.389116,-0.087023616,1.8393283,0.7450277,0.039998766,0.039999828,0.005598382722205031,-0.01323067568189118,-0.015131842161886233,-0.18271620564996904,-0.22810321420537896,-0.1006425443997292,0.9733519892854436,-0.13352725464514545,0.1639593802364901,-0.08873386531345333
501.383333333206,0.10385468,-0.8718419,0.15748665,-2.3894775,-0.087985665,1.8422906,0.7445753,0.039998755,0.039999828,0.005248238035759911,-0.012247734596715354,-0.016431481335965614,-0.18307944149545924,-0.22831102933515815,-0.10047607105147797,0.9727516876651666,-0.1350575365821077,0.16578860490976696,-0.08959773679628291
501.39999999987265,0.104987636,-0.87279725,0.15920685,-2.3898392,-0.08894836,1.8452553,0.7441227,0.039998733,0.039999828,0.005213878670806693,-0.012139177180958693,-0.01597448290906467,-0.18342027519115342,-0.22849618786006923,-0.10030062141197613,0.9721441600758782,-0.13658949816831328,0.1676189678436671,-0.09045950828695332
501.4166666665393,0.1061212,-0.87375313,0.16092789,-2.390201,-0.08991162,1.848221,0.74366975,0.039998706,0.03999982,0.004417418508584348,-0.011262952380342028,-0.01655767163417643,-0.18373865604084483,-0.22865129550398042,-0.10011075857361962,0.9715295448517508,-0.13812290285939322,0.16944979219961942,-0.09131908403696484
501.43333333320595,0.10725522,-0.8747093,0.16264968,-2.390563,-0.09087533,1.8511891,0.74321675,0.039998688,0.039999828,0.0052697933704770605,-0.011434330796250558,-0.015576246154291873,-0.18403456592519457,-0.22878177588245246,-0.09991006236843242,0.9709077460385259,-0.13965758431986708,0.17128175785542415,-0.09217628355647935
501.4499999998726,0.10838956,-0.8756659,0.16437197,-2.390925,-0.091839306,1.8541576,0.74276364,0.039998677,0.03999983,0.0041663048978790584,-0.010482372367065507,-0.016962544522192147,-0.18430746135443932,-0.22887856600925002,-0.0996967621887043,0.970278979351833,-0.14119328269467943,0.1731137795696615,-0.09303106187167885
501.46666666653925,0.10952411,-0.8766226,0.16609462,-2.3912868,-0.09280348,1.857126,0.7423104,0.03999865,0.039999828,0.003619736823079478,-0.010142559589199074,-0.016906281195794293,-0.18455811922313806,-0.2289507576537649,-0.09947178095288521,0.9696433091877956,-0.14272988063045364,0.17494556785371976,-0.09388334469381218
501.4833333332059,0.110658735,-0.87757945,0.16781725,-2.3916488,-0.09376771,1.8600944,0.7418572,0.039998636,0.03999983,0.003583347584257268,-0.009519774989158458,-0.01686308076376264,-0.18478563833903958,-0.228996696724301,-0.09923270968551051,0.9690007924044204,-0.1442670886061491,0.17677709325813548,-0.09473294444867304
501.49999999987256,0.11179327,-0.8785363,0.16953981,-2.3920107,-0.09473188,1.8630629,0.7414038,0.039998606,0.03999982,0.003363813067291943,-0.009282494445145284,-0.016798752772628767,-0.18499101410339974,-0.22901578574974762,-0.09898235395077327,0.9683514533924097,-0.14580484606513286,0.17860826094293716,-0.09557980278108087
501.5166666665392,0.11292757,-0.879493,0.171262,-2.3923726,-0.095695876,1.8660313,0.7409504,0.03999859,0.03999982,0.0031753083430619,-0.008745267223186914,-0.016672830627717516,-0.18517198675217314,-0.229006670012879,-0.09871961209237011,0.9676953516528494,-0.14734292423395065,0.18043898100761813,-0.09642376885700357
501.53333333320586,0.11406149,-0.88044935,0.17298368,-2.3927348,-0.09665957,1.8689994,0.74049723,0.03999857,0.03999982,0.0021737185243786428,-0.00828116869422968,-0.01673315091608174,-0.18532826336651667,-0.22896746671406565,-0.09844666203517395,0.9670326155303518,-0.1488810359025397,0.18226882894078497,-0.09726475027299605
501.5499999998725,0.11519495,-0.8814051,0.17470452,-2.3930967,-0.097622894,1.8719643,0.74004436,0.039998543,0.039999813,0.0012730118427395354,-0.007206220618377612,-0.01793419311097999,-0.18546156335203998,-0.2288998875345462,-0.09816113447674442,0.9663635329626176,-0.1504188593578388,0.18409656229500113,-0.09810272504195476
501.56666666653916,0.116327725,-0.8823604,0.17642444,-2.3934581,-0.09858567,1.8749287,0.73959166,0.039998524,0.039999813,0.003139213398828389,-0.007564611227467433,-0.016585531360502337,-0.18557343267464183,-0.22881467953629875,-0.09786356158091547,0.9656878751381353,-0.15195639121655305,0.18592353242331328,-0.09893747050977388
501.5833333332058,0.117459744,-0.8833151,0.1781432,-2.3938193,-0.09954778,1.8778901,0.7391393,0.0399985,0.039999805,0.0011923434715566117,-0.00649207110445249,-0.01780154294712677,-0.1856604308959041,-0.22869367456650125,-0.09755388041625428,0.965005960791531,-0.15349329218546412,0.18774838477635644,-0.09976897766716397
501.59999999987247,0.11859084,-0.8842688,0.17986055,-2.3941805,-0.10050916,1.8808504,0.73868734,0.03999847,0.0399998,0.0012886702445147336,-0.0063781328521694824,-0.016454721401637507,-0.18572408048202121,-0.22855121747151727,-0.09723475295045773,0.9643177150763845,-0.15502947635609357,0.18957172313012285,-0.10059705582218688
501.6166666665391,0.11972087,-0.8852218,0.18157631,-2.3945415,-0.10146961,1.8838072,0.73823595,0.039998446,0.03999979,0.0005208535910572465,-0.005439754123448548,-0.017861907495686502,-0.18576359967865214,-0.2283760216134576,-0.09690242796736623,0.9636234177327306,-0.15656454497863037,0.19139251483866657,-0.10142168070218803
501.63333333320577,0.12084973,-0.88617367,0.18329021,-2.3949022,-0.10242913,1.8867604,0.73778486,0.03999843,0.039999798,0.00011459879885045154,-0.004893891861856847,-0.01753989090209629,-0.18577961277954894,-0.22817747854312578,-0.09656165730631358,0.9629231302595559,-0.15809848423602083,0.1932105733630432,-0.10224279355600151
501.6499999998724,0.121977255,-0.8871247,0.18500212,-2.3952627,-0.10338749,1.88971,0.7373344,0.039998412,0.039999794,0.0003179992437374324,-0.00454171586858898,-0.01766034650458881,-0.18577312514911837,-0.22795445982059753,-0.09620579965794503,0.9622169186181307,-0.15963097599457973,0.1950259957828619,-0.10306024450267223
501.6666666665391,0.12310328,-0.88807434,0.1867118,-2.3956227,-0.104344636,1.8926558,0.73688436,0.03999839,0.039999798,-7.80615520223904e-05,-0.004097859292995221,-0.017138785370507392,-0.18574184383933331,-0.22770442607444008,-0.0958421679155721,0.9615048808111895,-0.1611619243819591,0.19683851423015464,-0.1038739506393655
501.6833333332057,0.12422772,-0.8890227,0.18841897,-2.3959823,-0.10530043,1.8955977,0.73643494,0.039998367,0.039999798,-0.00010815218640658486,-0.0034694456289396935,-0.017358482989204838,-0.18568611465598256,-0.227426881614665,-0.09546661693407943,0.9607871203410975,-0.16269105976242215,0.19864801801432966,-0.10468377810826325
501.6999999998724,0.12535037,-0.8899697,0.19012348,-2.3963406,-0.10625474,1.8985351,0.7359865,0.039998345,0.039999798,0.0008426709326325721,-0.003193624109865123,-0.017273211639023955,-0.18560562057449997,-0.22712222906961022,-0.0950816504992301,0.9600637116777566,-0.16421803327903706,0.20045461226127548,-0.10548959895968982
501.716666666539,0.12647116,-0.8909151,0.1918252,-2.396698,-0.1072075,1.9014685,0.73553866,0.039998326,0.039999798,0.00022695958712404263,-0.0029038133584180503,-0.016867336841253078,-0.18550259641566402,-0.22678473613781633,-0.09468596226736078,0.9593346959596665,-0.16574290367059655,0.20225819663446568,-0.10629135856215023
501.7333333332057,0.1275899,-0.89185876,0.19352381,-2.397055,-0.10815854,1.9043957,0.7350918,0.039998304,0.039999798,-0.0020820850315850237,-0.0015317773071954477,-0.017790471966594446,-0.18537275547442433,-0.22641577324965995,-0.09428154818516038,0.9586004685522032,-0.16726520327831965,0.20405742365361274,-0.10708903452552526
501.74999999987233,0.12870651,-0.89280057,0.19521907,-2.397411,-0.10910775,1.9073176,0.7346456,0.039998278,0.039999794,-0.0013008495944433207,-0.0014492545428235193,-0.017063868995004228,-0.18522059120766693,-0.22602427895313157,-0.09386622125106156,0.957860972225228,-0.16878497855947552,0.2058527705608875,-0.10788246267501025
501.766666666539,0.12982081,-0.8937405,0.19691093,-2.397766,-0.110055044,1.9102331,0.7342005,0.039998267,0.0399998,-0.00120736788367104,-0.0009074647805695779,-0.01746208558590645,-0.185043424265736,-0.2256052855450528,-0.0934412391302935,0.9571163926045538,-0.17030183470213564,0.20764385963862272,-0.1086716322648565
501.78333333320563,0.13093266,-0.8946784,0.198599,-2.3981206,-0.111000285,1.9131433,0.73375624,0.03999823,0.039999794,-0.0020894717096542337,-0.0002808994709835311,-0.016755753692332398,-0.18484148085010804,-0.2251584165717236,-0.09300853748974267,0.9563667815991812,-0.17181568271100356,0.20943078903812357,-0.10945636039556968
501.7999999998723,0.13204192,-0.8956142,0.20028326,-2.3984742,-0.11194343,1.9160464,0.73331296,0.039998226,0.0399998,-0.002415796325383468,0.000279424964766406,-0.017316647706366872,-0.18461631876837453,-0.2246802528865601,-0.09256174425361838,0.9556123517234631,-0.17332633072737735,0.21121288024993126,-0.11023672494529307
501.81666666653894,0.1331485,-0.89654756,0.20196337,-2.3988276,-0.11288424,1.9189422,0.73287076,0.0399982,0.0399998,-0.0043552167808158515,0.0011031875450651096,-0.01710984805995963,-0.18436451256554237,-0.22417834428389177,-0.09210935961535834,0.9548533510233649,-0.17483353186408296,0.2129895007124648,-0.1110125522706172
501.8333333332056,0.13425227,-0.8974786,0.20363916,-2.3991797,-0.11382267,1.9218305,0.7324298,0.039998174,0.0399998,-0.0025699296434922303,0.0013491430249978897,-0.01705402999858663,-0.1840899791785066,-0.22365421398687238,-0.09164578664164748,0.9540897967863601,-0.17633702180770083,0.21476104313329267,-0.1117837589296965
501.84999999987224,0.13535304,-0.8984072,0.20531045,-2.3995316,-0.11475857,1.9247111,0.7319899,0.039998155,0.0399998,-0.004682895085306171,0.002230614114068219,-0.017034893592526856,-0.18379179415300695,-0.22310154592097958,-0.09117116413414086,0.9533219015326662,-0.17783670732694146,0.21652686127181767,-0.11255032622355457
501.8666666665389,0.13645072,-0.89933324,0.20697705,-2.3998816,-0.11569187,1.9275838,0.73155135,0.03999813,0.0399998,-0.0018949320392813718,0.002097994352046051,-0.016597723803557507,-0.1834685115090747,-0.22252444599986576,-0.09068890429741722,0.9525496402248038,-0.17933233576115903,0.2182875835420531,-0.11331207847981102
501.88333333320554,0.13754517,-0.90025663,0.20863876,-2.4002306,-0.11662243,1.9304478,0.731114,0.039998118,0.0399998,-0.004266681163178632,0.003183376343079969,-0.01689879341360001,-0.1831217336182404,-0.22191705198912604,-0.09019536727819567,0.951773295274704,-0.18082375427236336,0.2200423118484419,-0.11406903738163082
501.8999999998722,0.13863628,-0.9011769,0.2102953,-2.4005785,-0.11755014,1.9333028,0.7306781,0.039998084,0.039999798,-0.00465653323620252,0.0036786561373070015,-0.016481344755359117,-0.1827485749800244,-0.22128514591795276,-0.08969633615436239,0.9509930632761889,-0.18231066651230637,0.22179075221809308,-0.11482106386435187
501.91666666653884,0.13972384,-0.9020945,0.21194653,-2.4009256,-0.11847492,1.9361489,0.73024356,0.03999806,0.0399998,-0.005058356993670188,0.0043655168317779935,-0.016445940844156404,-0.1823519788943124,-0.22062832141556735,-0.08918860853275139,0.950209024306448,-0.18379293678166,0.2235329270471524,-0.11556814890571462
501.9333333332055,0.14080782,-0.90300894,0.21359228,-2.401271,-0.11939665,1.9389852,0.7298105,0.03999805,0.039999813,-0.004275713165524664,0.004590212944644012,-0.01640439129575455,-0.18193259698311653,-0.21994408071511315,-0.08866921378237329,0.9494213222985227,-0.1852704078295867,0.22526865408727292,-0.11631019832023207
501.94999999987215,0.14188805,-0.9039202,0.21523231,-2.4016156,-0.12031517,1.941812,0.7293788,0.039998025,0.03999981,-0.005729319330161076,0.005319066968528796,-0.016003712832346473,-0.18148748163157002,-0.21923543702350842,-0.08814299042287019,0.9486301365942819,-0.1867429108482689,0.22699761481278516,-0.11704713607062821
501.9666666665388,0.14296438,-0.90482825,0.21686645,-2.4019594,-0.12123042,1.9446287,0.7289488,0.039998002,0.03999981,-0.006511861367730631,0.006127793580157359,-0.016106443707752938,-0.18101824529667707,-0.21849951643586993,-0.08760749608826641,0.9478356812165308,-0.1882101639632329,0.22871942532142062,-0.11777894580257908
501.98333333320545,0.1440367,-0.90573287,0.2184945,-2.4023013,-0.122142255,1.9474348,0.7285204,0.039997976,0.03999981,-0.004918846904189422,0.0062279198139614245,-0.0158155882028721,-0.180525212624137,-0.21774069776761706,-0.08706417964598569,0.9470380316449512,-0.18967198685005554,0.23043427280543052,-0.11850548484792325
501.9999999998721,0.14510487,-0.90663403,0.22011624,-2.4026418,-0.12305061,1.9502299,0.7280937,0.039997954,0.03999981,-0.006087907242724455,0.007092749966502998,-0.015747098690610528,-0.1800078120753934,-0.21695529942039976,-0.086512937064172,0.9462373977694295,-0.19112819170836245,0.2321417345562823,-0.11922674395466244
502.01666666653875,0.14616877,-0.9075316,0.2217315,-2.402981,-0.123955354,1.9530139,0.72766864,0.039997935,0.039999813,-0.006831011900532147,0.00765118478189275,-0.015481644014370133,-0.1794667465173891,-0.21614336838244344,-0.08595298510188172,0.9454339479371289,-0.19257863479459847,0.2338415590909378,-0.11994267276737756
502.0333333332054,0.14722826,-0.9084254,0.22334006,-2.403319,-0.12485638,1.9557866,0.72724515,0.039997917,0.039999817,-0.006855898717139652,0.008128301472948296,-0.015128819345289202,-0.17890195937206577,-0.21530743855777187,-0.08538487349920267,0.9446278197341372,-0.19402321288868954,0.2355336045663468,-0.1206532061930567
502.04999999987206,0.14828323,-0.90931547,0.22494176,-2.4036555,-0.12575354,1.9585472,0.72682357,0.039997887,0.039999813,-0.0076502393624000575,0.008878492176056518,-0.015320828734877168,-0.17831133852407144,-0.2144477625760448,-0.08481053144921907,0.9438192692174288,-0.1954615706249539,0.23721747298054188,-0.12135827938558869
502.0666666665387,0.14933354,-0.91020167,0.22653645,-2.4039903,-0.12664683,1.9612956,0.72640395,0.03999788,0.039999824,-0.006667278657568332,0.009171928636236837,-0.014981550583703651,-0.17769901783235742,-0.21356278241771978,-0.08422550498310953,0.9430083783166813,-0.19689354195380632,0.2388932996810951,-0.12205786713238101
502.08333333320536,0.1503791,-0.9110838,0.22812387,-2.4043233,-0.12753606,1.9640316,0.72598624,0.039997842,0.03999982,-0.007474141538876822,0.00975759297036638,-0.014637727812849555,-0.1770611050832961,-0.2126537909740202,-0.08363724488204813,0.9421953394863848,-0.19831900114586146,0.24056080199810365,-0.12275184958554847
502.099999999872,0.15141973,-0.91196173,0.22970386,-2.404655,-0.12842117,1.9667544,0.72557044,0.03999782,0.039999824,-0.008622550808157214,0.010644812665627779,-0.014506523456669917,-0.176400410655924,-0.21171867253440374,-0.08303996003967672,0.9413804141892103,-0.19973774948108056,0.24221941828394664,-0.12344027146507076
502.11666666653866,0.15245537,-0.9128356,0.23127623,-2.4049852,-0.12930205,1.9694647,0.7251567,0.039997805,0.039999824,-0.00817204655345627,0.010866643197321446,-0.01418681897438212,-0.17571819826442225,-0.21076249878640113,-0.08243224016215796,0.9405636602800067,-0.20114961279270038,0.243869460682991,-0.12412300504020177
502.1333333332053,0.15348583,-0.91370517,0.2328408,-2.4053142,-0.13017857,1.9721614,0.7247451,0.039997783,0.03999983,-0.009476016357590211,0.011765810485397932,-0.014048887222561923,-0.1750100054895291,-0.20978007369572055,-0.08182178716697475,0.9397453758831723,-0.20255438007818918,0.2455102798329832,-0.12480005654512309
502.14999999987197,0.1545111,-0.9145701,0.23439741,-2.4056408,-0.13105065,1.9748441,0.7243354,0.039997753,0.039999828,-0.007996642802732268,0.011825361164086168,-0.013746049489671286,-0.1742804069837386,-0.20877753442374444,-0.08120190419613879,0.9389256373231376,-0.20395203055450936,0.24714197706611457,-0.12547135123957373
502.1666666665386,0.155531,-0.91543084,0.23594585,-2.4059658,-0.13191819,1.9775131,0.72392803,0.039997734,0.039999828,-0.008620030320738437,0.012575259349884016,-0.013657650640630514,-0.173526942326224,-0.20774780830271136,-0.08057381137001733,0.938104612127403,-0.20534216676207712,0.24876461939405317,-0.12613681220199713
502.18333333320527,0.1565454,-0.91628665,0.23748598,-2.4062889,-0.13278101,1.9801676,0.72352284,0.0399977,0.039999828,-0.00960968828191966,0.013064918502209144,-0.013041890006149082,-0.172748345919653,-0.20669531056214907,-0.07994464895909775,0.937282569149025,-0.20672476508288387,0.25037757518924625,-0.126796399448814
502.1999999998719,0.15755418,-0.9171381,0.23901756,-2.4066105,-0.13363917,1.9828076,0.7231197,0.039997693,0.03999984,-0.009867936405605349,0.013966900011741501,-0.013221289233622535,-0.17194924590732835,-0.20561960590174966,-0.0793039653836161,0.936459624494139,-0.20809969051163585,0.25198082973481195,-0.12745019398735097
502.2166666665386,0.15855725,-0.9179845,0.2405405,-2.40693,-0.1344924,1.9854326,0.7227191,0.039997667,0.03999983,-0.00973423709917931,0.014012314263101011,-0.012590249214783356,-0.17112657737150883,-0.20451954157411184,-0.07865620199714077,0.9356360318972666,-0.20946660819837717,0.25357417585222086,-0.12809798283451387
502.2333333332052,0.15955448,-0.91882586,0.24205458,-2.4072473,-0.13534065,1.9880424,0.72232074,0.039997645,0.03999983,-0.009818581382337044,0.014683201748466601,-0.012378388126710327,-0.1702811403490593,-0.203398873827094,-0.07800477210685913,0.9348119250695947,-0.21082547992488188,0.25515749857079284,-0.12873978672196693
502.2499999998719,0.16054575,-0.9196624,0.24355964,-2.407563,-0.1361839,1.9906366,0.72192466,0.039997626,0.03999984,-0.010692705722847862,0.01545570822195641,-0.012284021071540252,-0.16941264019912045,-0.20225501543436825,-0.07734764493534513,0.9339874994631686,-0.21217615941917745,0.25673053346525976,-0.12937566002656223
502.2666666665385,0.16153099,-0.9204939,0.2450555,-2.4078772,-0.13702202,1.9932148,0.7215311,0.03999761,0.03999984,-0.011779223581331877,0.016106310241914557,-0.01196631912698809,-0.16852266060715154,-0.20108649429951125,-0.07668119813210693,0.933163043418902,-0.21351840381140355,0.2582928314135334,-0.13000553400291376
502.2833333332052,0.1625101,-0.9213202,0.246542,-2.4081886,-0.1378549,1.9957769,0.7211398,0.039997585,0.039999846,-0.00931780138206939,0.015988995041360532,-0.011665555215012446,-0.1676089442136876,-0.1999020942074779,-0.0760127229568264,0.9323385359777489,-0.21485220041052197,0.259844887191027,-0.13062932637929092
502.29999999987183,0.16348284,-0.9221412,0.24801895,-2.4084985,-0.13868253,1.9983225,0.7207512,0.039997566,0.039999858,-0.012408245662154371,0.017344167845134706,-0.011208503506132672,-0.16667162777829042,-0.19869318748591358,-0.0753386262548779,0.931514404598997,-0.21617713184467185,0.26138585989251545,-0.13124707212062983
502.3166666665385,0.16444926,-0.92295665,0.2494862,-2.4088063,-0.13950469,2.0008516,0.7203651,0.03999754,0.03999985,-0.011366051671846122,0.017210953742685664,-0.010767963867963637,-0.16571621170635265,-0.19746299405478,-0.0746549557916975,0.9306906921448819,-0.21749329214778962,0.26291595611584667,-0.13185864948984918
502.33333333320513,0.16540912,-0.9237667,0.25094354,-2.4091125,-0.14032136,2.0033634,0.71998173,0.039997526,0.039999858,-0.012727671424794806,0.018420085895687333,-0.010811092832563318,-0.1647375116492074,-0.19621138307233263,-0.07396748173247554,0.9298677570742644,-0.2188002976542721,0.26443456188809406,-0.13246413318000644
502.3499999998718,0.16636245,-0.92457116,0.2523909,-2.409416,-0.14113241,2.0058577,0.7196008,0.0399975,0.039999858,-0.01105919929473842,0.018199787936912237,-0.010470630904313438,-0.16373908190814535,-0.19494394425466954,-0.07327412733531477,0.9290455883280434,-0.22009824596799935,0.26594205956867817,-0.13306343555755307
502.36666666653844,0.1673091,-0.9253701,0.25382808,-2.4097178,-0.14193782,2.0083349,0.7192228,0.03999748,0.03999986,-0.012791400499212457,0.01903063321159193,-0.009950515386059067,-0.16271764065294705,-0.1936538306897665,-0.07257592928910206,0.9282244676372748,-0.22138679976615588,0.26743812952103385,-0.1336565353699118
502.3833333332051,0.16824886,-0.9261633,0.25525498,-2.4100173,-0.1427374,2.0107942,0.71884745,0.039997462,0.039999858,-0.012094119852390506,0.01944853728353957,-0.009720220111408828,-0.1616773811454714,-0.19234163688963316,-0.07187042647683606,0.9274045603330389,-0.22266586985840797,0.2689226601979987,-0.13424341587471997
502.39999999987174,0.16918175,-0.9269507,0.2566714,-2.410314,-0.14353116,2.0132358,0.7184747,0.039997436,0.039999865,-0.011623247910552692,0.01963494657893916,-0.009198069882154769,-0.1606133012642344,-0.191011520578261,-0.07116427202582945,0.9265859323109643,-0.22393546342126083,0.2703958201198632,-0.13482402874648375
502.4166666665384,0.17010762,-0.92773205,0.25807709,-2.4106095,-0.14431901,2.0156589,0.7181051,0.039997414,0.039999865,-0.014753040707882192,0.021051502277780187,-0.008948085622262347,-0.15952819103615667,-0.1896583505905443,-0.07045184383080959,0.9257691173465952,-0.22519510900847617,0.2718565380840173,-0.13539840082859175
502.43333333320504,0.1710264,-0.92850745,0.259472,-2.4109018,-0.14510074,2.0180635,0.71773803,0.039997403,0.039999872,-0.011335941063839172,0.020439709678399254,-0.008682088265521415,-0.15842625872952665,-0.18828904693509918,-0.06973265732686208,0.9249539355815324,-0.22644500687942654,0.27330570707455565,-0.1359664164126139
502.4499999998717,0.17193796,-0.92927694,0.260856,-2.411192,-0.14587638,2.0204496,0.71737397,0.03999738,0.039999876,-0.01325898852031493,0.021466822972215915,-0.008366246892266282,-0.15730066855761637,-0.18689763206811305,-0.06901195583919306,0.9241407218637763,-0.22768483085752453,0.2747428160388604,-0.1365281254010179
502.46666666653834,0.17284225,-0.93004024,0.26222897,-2.4114795,-0.14664587,2.0228162,0.71701294,0.039997354,0.039999876,-0.01329647493069075,0.02187934048576423,-0.008172934870476212,-0.15615567327479413,-0.18548725293135393,-0.06828681319388079,0.9233297231596557,-0.2289144512018085,0.2761675118670407,-0.13708355754814783
502.483333333205,0.17373909,-0.93079716,0.26359057,-2.411765,-0.14740908,2.0251634,0.7166546,0.039997336,0.03999988,-0.014757080630278807,0.022792906639090837,-0.007395305720603318,-0.15499130760846083,-0.18405945036072818,-0.06755671329011509,0.9225211687166482,-0.23013385194115263,0.2775794433377305,-0.13763268542287724
502.49999999987165,0.17462848,-0.93154794,0.26494098,-2.4120483,-0.14816593,2.027491,0.71629936,0.039997324,0.039999884,-0.013747560032362216,0.02260817268006088,-0.007496259294303975,-0.15380905672535683,-0.1826136723943881,-0.06681960616517806,0.9217151425099297,-0.23134284711616948,0.27897887900521495,-0.13817549791869113
502.5166666665383,0.17551029,-0.9322923,0.2662798,-2.4123285,-0.14891632,2.029799,0.71594733,0.039997295,0.03999988,-0.012811520284650157,0.02312847703366261,-0.006874432721071244,-0.1526058485860766,-0.18115134852406534,-0.06608081786274075,0.9209118231521368,-0.23254117059780588,0.28036590919629145,-0.13871184129751368
502.53333333320495,0.17638445,-0.9330301,0.267607,-2.4126072,-0.14966023,2.0320866,0.71559817,0.039997265,0.039999884,-0.01648272046530508,0.02419431757089141,-0.006573604283910406,-0.15138313433138229,-0.1796704291145073,-0.0653415367085463,0.9201115826403664,-0.23372895293483495,0.28173946941735317,-0.13924195999573602
502.5499999998716,0.17725083,-0.93376136,0.26892248,-2.4128833,-0.15039755,2.034354,0.715252,0.039997257,0.039999887,-0.014299275504869868,0.024113639136358334,-0.006134694897075299,-0.15014469060401844,-0.17817434863225323,-0.0645916626229463,0.9193144494226058,-0.23490600942854703,0.28310007764843376,-0.13976571773012642
502.56666666653825,0.17810933,-0.93448627,0.270226,-2.413156,-0.15112825,2.0366013,0.7149091,0.03999724,0.03999989,-0.012351302544733045,0.024276466154227183,-0.005915372095155469,-0.14888610267088154,-0.17666321350843564,-0.06383984128609181,0.9185204448661884,-0.2360720500676858,0.28444834906563915,-0.1402829863293891
502.5833333332049,0.17896,-0.93520427,0.27151752,-2.4134274,-0.15185213,2.0388274,0.71456957,0.03999721,0.039999887,-0.01761294544211367,0.0255281643969818,-0.005439744864754736,-0.14760808593602137,-0.17512905617517144,-0.06308763233797418,0.9177302183082128,-0.23722701291293852,0.28578255401713953,-0.14079390103198755
502.59999999987156,0.17980266,-0.9359157,0.27279684,-2.4136958,-0.15256932,2.0410326,0.7142329,0.039997198,0.0399999,-0.01415900653523039,0.025497428012843937,-0.005271197176348608,-0.14631526745218826,-0.1735862102412317,-0.062329883289352184,0.9169435764970338,-0.23837097349885022,0.2871036230299571,-0.14129850019413173
502.6166666665382,0.18063721,-0.93662024,0.27406394,-2.413961,-0.15327963,2.0432162,0.7138995,0.03999718,0.039999906,-0.014007700860041439,0.025613256277323693,-0.004846248102419182,-0.14500229870896653,-0.17202706488430486,-0.06156997918798214,0.9161607591443848,-0.23950369327809815,0.2884114155844699,-0.14179668427257874
502.63333333320486,0.18146363,-0.9373179,0.2753187,-2.414224,-0.153983,2.045379,0.7135694,0.039997168,0.039999906,-0.01597760234397505,0.02625219421807934,-0.004256580759265383,-0.14367540833002435,-0.17044922726396217,-0.060802668978427184,0.9153819980992002,-0.24062509399175394,0.2897056323167163,-0.14228846861691544
502.6499999998715,0.18228178,-0.93800867,0.2765609,-2.4144845,-0.15467936,2.0475202,0.71324277,0.03999715,0.039999913,-0.0158388978768631,0.026900759793924145,-0.003922448121507216,-0.14232844321616422,-0.1688575039817481,-0.06003650648961295,0.9146075205793581,-0.2417349410446251,0.2909861458317554,-0.14277382292216934
502.66666666653816,0.18309163,-0.9386924,0.27779052,-2.414742,-0.15536867,2.0496395,0.71291953,0.039997123,0.03999991,-0.014894644142060542,0.026884892106260327,-0.0037432631200706723,-0.1409663283152583,-0.16725162148503822,-0.05926672399751524,0.9138374256525474,-0.24283321958199852,0.2922530263152759,-0.14325276804909715
502.6833333332048,0.18389305,-0.9393691,0.27900735,-2.4149969,-0.1560508,2.0517373,0.7125994,0.039997105,0.039999913,-0.015517721440216903,0.02739352214274904,-0.003083217380406289,-0.1395885511902384,-0.16563142432190536,-0.058494515039482706,0.9130718378281546,-0.24391996001898245,0.29350624665716785,-0.14372527697895035
502.69999999987147,0.18468608,-0.9400384,0.2802113,-2.4152493,-0.15672578,2.0538123,0.71228266,0.039997093,0.039999917,-0.01729681367894642,0.028229010526625853,-0.002915192580932313,-0.13819377976926928,-0.16399463921658297,-0.05771928433092697,0.912311205644069,-0.2449949550562024,0.294744900928394,-0.14419146795142113
502.7166666665381,0.18547054,-0.9407003,0.2814023,-2.4154987,-0.15739352,2.0558653,0.7119692,0.03999707,0.039999917,-0.015299348876585128,0.027933268217783525,-0.002222777426519329,-0.13678436023933618,-0.1623506337843914,-0.05694090743115264,0.9115554223529418,-0.24605819528918493,0.2959697634939858,-0.14465122055238044
502.73333333320477,0.1862464,-0.9413557,0.28258032,-2.4157455,-0.158054,2.0578957,0.7116592,0.039997056,0.039999925,-0.015564301117532153,0.02870416616845839,-0.002863615436976552,-0.13535810993210717,-0.160690523584283,-0.056160930064090654,0.9108046780930784,-0.24710946221249067,0.2971807248326088,-0.14510468233927795
502.7499999998714,0.18701367,-0.94200367,0.28374505,-2.4159899,-0.15870707,2.0599039,0.71135277,0.039997045,0.03999993,-0.016878584362567395,0.02895108567529947,-0.001430533610768947,-0.13391894998132597,-0.15901552237690994,-0.055376816601184785,0.910059244632903,-0.24814870364025038,0.29837746094444656,-0.1455516504207307
502.7666666665381,0.18777211,-0.9426441,0.28489664,-2.416231,-0.15935272,2.0618887,0.71104985,0.03999702,0.03999993,-0.015857923595063994,0.02917421972263856,-0.0015173908737509123,-0.13246232708146105,-0.15732985057419774,-0.05459569200871425,0.9093192895931811,-0.24917580937012102,0.2995598409177113,-0.14599228509703163
502.7833333332047,0.18852177,-0.9432771,0.28603488,-2.4164698,-0.1599909,2.0638506,0.71075064,0.03999701,0.039999936,-0.017787410768299594,0.02983500933306793,-0.0009000886076471204,-0.13099474168217926,-0.1556312223580744,-0.05380794140008841,0.9085850559891457,-0.2501906881965993,0.3007275803364599,-0.14642656179085412
502.7999999998714,0.18926261,-0.94390255,0.28715974,-2.4167056,-0.16062154,2.0657895,0.710455,0.039996993,0.039999943,-0.016213497965411605,0.029640599916302968,-0.0006570140052009066,-0.1295130071233379,-0.15392553843870949,-0.053021300630042484,0.9078565735973725,-0.25119334401118265,0.30188096743743614,-0.14685444221934768
502.816666666538,0.18999453,-0.94452053,0.28827113,-2.4169378,-0.1612446,2.0677054,0.7101629,0.03999697,0.039999943,-0.014950217475995231,0.029690509289337363,-0.0003358314752288649,-0.12801756533108485,-0.1522064226110619,-0.05223293206767173,0.9071338462706243,-0.25218372224964186,0.3030203991034758,-0.14727590743142324
502.8333333332047,0.1907175,-0.9451309,0.28936884,-2.4171684,-0.16186008,2.069598,0.70987403,0.03999696,0.039999947,-0.01917046981279036,0.031108753099029496,0.00030584907986241916,-0.12650978877757144,-0.15047293434317227,-0.05144197230522089,0.9064173512599378,-0.25316186640053545,0.3041446658514968,-0.1476911539991386
502.84999999987133,0.19143142,-0.9457337,0.2904528,-2.4173954,-0.16246784,2.0714664,0.7095888,0.03999695,0.039999958,-0.015709023637100472,0.03081365123248636,0.00010738966116363713,-0.12498722895595449,-0.14873378035504164,-0.050649445753590844,0.9057071026820068,-0.25412744776418966,0.30525442641144873,-0.14810003241202024
502.866666666538,0.19213629,-0.94632906,0.291523,-2.4176192,-0.16306788,2.0733116,0.7093073,0.039996926,0.039999954,-0.016187743855766712,0.030864778015393668,0.0007130563221879882,-0.12345321221136876,-0.14698361208788965,-0.04985718117699732,0.9050031676082522,-0.255080491790159,0.30634980998340944,-0.1485025361744687
502.88333333320463,0.19283202,-0.9469167,0.29257944,-2.4178412,-0.16366021,2.075133,0.7090295,0.039996907,0.039999954,-0.018900471071026104,0.0316775728181562,0.0013059044709606837,-0.12190719048756035,-0.14521993061539162,-0.04906416069538998,0.9043058891058853,-0.256020986640595,0.3074300733524563,-0.14889883588025035
502.8999999998713,0.19351862,-0.94749653,0.293622,-2.4180593,-0.16424477,2.07693,0.70875525,0.039996896,0.039999958,-0.015853840335333658,0.031396266988126253,0.0011856107275942662,-0.12035159739109273,-0.14345149133101173,-0.048267345822475945,0.9036152744330161,-0.25694886517799154,0.30849562913211614,-0.14928885859791197
502.91666666653794,0.19419603,-0.94806844,0.29465058,-2.4182744,-0.16482142,2.078703,0.7084847,0.03999689,0.03999996,-0.01711525432699368,0.03169539574179314,0.0018824292716601576,-0.11878501543412553,-0.14167258100933772,-0.04746938949331986,0.9029315141295142,-0.2578640726734447,0.30954632113802416,-0.14967256223490852
502.9333333332046,0.19486414,-0.9486327,0.29566514,-2.418487,-0.16539028,2.0804517,0.7082178,0.03999687,0.039999966,-0.018088475488253764,0.032465453444097125,0.0021509402273300893,-0.11720492497641011,-0.13988711691628827,-0.046675070227764084,0.9022547733582201,-0.2587665530492448,0.31058196435003954,-0.15005011961271453
502.94999999987124,0.19552298,-0.9491891,0.29666552,-2.4186964,-0.16595119,2.0821764,0.7079546,0.039996855,0.039999966,-0.01648431650220772,0.032168870417059736,0.0025413082378467067,-0.11561732760306995,-0.13809411511552966,-0.04587647693530496,0.9015850930092839,-0.25965623909104346,0.31160291440616833,-0.15042134588587416
502.9666666665379,0.19617248,-0.94973767,0.2976518,-2.418903,-0.16650423,2.0838764,0.7076952,0.039996844,0.039999966,-0.01833761992333649,0.0328734348326698,0.0027280369949034267,-0.11401978436636304,-0.1362917722945839,-0.04507761924365104,0.9009227889512341,-0.26053305733459314,0.3126085342036902,-0.15078646732130815
502.98333333320454,0.19681263,-0.9502782,0.29862377,-2.4191067,-0.16704926,2.085552,0.7074395,0.039996825,0.039999966,-0.017201083700602027,0.03274858608912634,0.003281833380652799,-0.11241285390010432,-0.1344858804366054,-0.04427976932283559,0.9002678629031243,-0.26139701330770965,0.31359921450333694,-0.15114532450770857
502.9999999998712,0.19744337,-0.95081097,0.2995816,-2.4193065,-0.16758633,2.0872028,0.70718765,0.039996803,0.039999966,-0.015878363921695282,0.03262845750504617,0.00313340326405509,-0.11079624784871059,-0.13267379753286243,-0.04348328682634105,0.8996203586967099,-0.26224800029283846,0.31457518970379106,-0.15149800851375747
503.01666666653784,0.1980647,-0.9513356,0.300525,-2.419505,-0.16811532,2.088829,0.7069397,0.0399968,0.039999966,-0.020748092504474513,0.033925911899168604,0.004215944974728103,-0.1091731679460112,-0.13084997514468247,-0.04268460591799092,0.8989807729863096,-0.2630860186882122,0.31553532050263,-0.15184458530690348
503.0333333332045,0.19867654,-0.9518522,0.30145413,-2.4196987,-0.16863632,2.090431,0.70669556,0.039996784,0.03999997,-0.014393450555827414,0.03249496112709416,0.004054669402631106,-0.1075428714078341,-0.1290307450446061,-0.04188686253436622,0.8983486741878193,-0.2639110616320177,0.31648121822529596,-0.15218491923933014
503.04999999987115,0.19927895,-0.952361,0.3023688,-2.4198902,-0.16914919,2.0920076,0.7064551,0.039996766,0.039999966,-0.01889631236724476,0.03407355650251187,0.004187787199616544,-0.10590322590807463,-0.12719758900022082,-0.04109181350660634,0.8977246097606671,-0.26472309868701027,0.31741155398285426,-0.15251921665742618
503.0666666665378,0.19987184,-0.95286185,0.30326906,-2.4200795,-0.16965403,2.0935593,0.7062184,0.03999675,0.03999997,-0.01934653459034763,0.03420745823271565,0.004729307998219134,-0.10425716683101295,-0.12536478288850753,-0.04029641902860228,0.8971086807946909,-0.2655221331462843,0.31832629334283485,-0.15284757969581317
503.08333333320445,0.20045516,-0.95335454,0.30415493,-2.4202642,-0.17015076,2.095086,0.70598567,0.039996736,0.039999973,-0.014780627222954479,0.0330453268911568,0.004902455864663757,-0.10260549331097797,-0.12353118150137427,-0.039500329185132604,0.8965006553015287,-0.26630806699200943,0.31922658322434533,-0.15316976549508451
503.0999999998711,0.20102893,-0.9538393,0.30502623,-2.4204466,-0.17063941,2.0965889,0.70575666,0.039996732,0.03999998,-0.01819073322453235,0.03410624683705121,0.005620097305336635,-0.10094713548845753,-0.1216878449838194,-0.038706947422946454,0.8959007862074486,-0.2670809867671156,0.32011185936954967,-0.15348591228952854
503.11666666653775,0.20159318,-0.954316,0.30588296,-2.420626,-0.17111991,2.098065,0.70553154,0.039996725,0.039999984,-0.018568978026012317,0.03483713744968364,0.0050558947354728545,-0.09928321875559087,-0.11984015845790012,-0.03791378849756672,0.8953095254388171,-0.2678406877066672,0.3209812319865833,-0.1537961910442344
503.1333333332044,0.20214784,-0.9547845,0.30672523,-2.4208014,-0.17159224,2.0995173,0.7053102,0.039996717,0.03999999,-0.015451762376006428,0.03314325974168586,0.0062475925205252025,-0.09761664408722667,-0.11799624836365459,-0.03712127984810398,0.894726345669539,-0.26858742463269464,0.3218363813772687,-0.1541003092663814
503.14999999987106,0.2026929,-0.9552449,0.30755296,-2.4209754,-0.17205642,2.1009438,0.7050927,0.0399967,0.039999995,-0.021456565459176957,0.03551581244498614,0.0061850725221468394,-0.09594075028565707,-0.11614368764709529,-0.03633474077963046,0.8941520798503315,-0.2693210387269452,0.32267517255766526,-0.1543987344936697
503.1666666665377,0.20322835,-0.9556971,0.30836606,-2.4211445,-0.17251244,2.102345,0.70487905,0.03999669,0.039999995,-0.013967559663674578,0.033679765981320386,0.006102325305867851,-0.0942665321230852,-0.11429770383872348,-0.03554233538379866,0.8935861794698804,-0.2700414987592589,0.32349960314406045,-0.15469109726778457
503.18333333320436,0.20375422,-0.95614135,0.30916446,-2.4213116,-0.17296024,2.1037219,0.7046692,0.039996684,0.04,-0.019240184061564136,0.03489520592900863,0.007050567634525606,-0.09258749952549727,-0.11244370393679719,-0.03475473878910258,0.8930290224102533,-0.2707488814824949,0.3243087520814884,-0.15497755202710192
503.199999999871,0.20427044,-0.9565776,0.3099484,-2.4214768,-0.17339985,2.105073,0.70446306,0.039996665,0.039999995,-0.02018366509246583,0.03529298646801626,0.006802070799016846,-0.09090404288588842,-0.11059179695345926,-0.033970904780954526,0.892480881031864,-0.2714432031954438,0.3251019832147857,-0.1552583812275462
503.21666666653766,0.20477708,-0.95700556,0.31071782,-2.421637,-0.1738313,2.106399,0.70426095,0.039996654,0.039999995,-0.013924242542584508,0.03358905551748004,0.0069533002969413005,-0.08922017840813629,-0.10874666698106387,-0.03318567554183531,0.8919413240746449,-0.2721243832816685,0.32588098072058175,-0.15553321457532124
503.2333333332043,0.2052741,-0.9574255,0.3114726,-2.4217958,-0.17425455,2.1077006,0.70406276,0.039996643,0.04,-0.02035097810471065,0.03532983354850305,0.00784371631485925,-0.0875321523076946,-0.10689421452181655,-0.0324060367184245,0.8914108686299399,-0.2727924758180112,0.32664440468864886,-0.15580231484510668
503.24999999987097,0.2057616,-0.95783734,0.31221282,-2.4219496,-0.17466967,2.1089764,0.70386827,0.039996628,0.04,-0.014021470547032067,0.033997919659822795,0.006978333872553755,-0.085843784961471,-0.10504833515196824,-0.031628451987417344,0.890889182341422,-0.2734475258289843,0.3273933989522927,-0.15606561994079404
503.2666666665376,0.20623942,-0.95824087,0.31293854,-2.422101,-0.17507665,2.1102273,0.7036774,0.039996624,0.04,-0.018967200528985373,0.03495412949453547,0.008310470530137337,-0.08415476643625829,-0.10319707739543808,-0.03085249383831285,0.8903766230282031,-0.27408966055334294,0.32812703350008127,-0.15632330929545693
503.28333333320427,0.20670767,-0.9586366,0.31364965,-2.422251,-0.1754754,2.1114528,0.7034905,0.039996613,0.04,-0.02059744803037944,0.035829238931850416,0.008016721302595009,-0.08246481698257108,-0.10134994974120734,-0.03007800231591774,0.8898735052635983,-0.27471867345070505,0.32884483012824145,-0.15657545396801317
503.2999999998709,0.20716631,-0.959024,0.31434622,-2.4223957,-0.17586605,2.1126533,0.7033073,0.039996598,0.04,-0.01331922665759322,0.033783783949059565,0.008067603213479657,-0.08077622919894828,-0.09951494211836984,-0.029306500290492053,0.889379252353403,-0.2753347044542249,0.32954857384990915,-0.15682182080277415
503.31666666653757,0.20761545,-0.95940346,0.31502828,-2.4225388,-0.17624858,2.113829,0.70312804,0.03999659,0.04,-0.0198581884212512,0.03532665117144118,0.008703908772522695,-0.07908781702923134,-0.09767462389387,-0.028539062684487082,0.8888944190363912,-0.27593773339029276,0.3302368849340632,-0.15706265923646687
503.3333333332042,0.20805506,-0.9597751,0.31569594,-2.4226792,-0.17662293,2.114979,0.7029526,0.039996587,0.04,-0.018224744285699757,0.0350815438209251,0.00831237932545914,-0.07740243559400456,-0.09584127470678364,-0.027773122846244426,0.8884189874976243,-0.27652779713923287,0.3309099689988739,-0.1572980371148463
