rsonawane2002/My_IMU/logs_2/traj_296/imu_296.csv
time,j1,j2,j3,j4,j5,j6,j7,gripper1,gripper2,imu_ax,imu_ay,imu_az,imu_gx,imu_gy,imu_gz
498.2833333332088,0.00016700293,-0.785875,4.0107683e-05,-2.3551247,9.29385e-05,1.570997,0.786,0.04,0.04,-9.494321,0.01820557937026024,0.058414955,-2.689146e-09,-0.0011641276068985462,1.1384183e-07
498.29999999987547,0.00016700904,-0.78576016,4.0120194e-05,-2.3552213,9.297078e-05,1.5709941,0.786,0.04,0.04,-9.834413,0.0006457341369241476,0.009094858,-8.173878e-07,-0.002238714136183262,5.7883636e-07
498.3166666665421,0.00016703818,-0.7856543,4.0170733e-05,-2.35531,9.2978094e-05,1.5709913,0.786,0.04,0.04,-9.832462,0.0007077461923472583,0.0075945123,-4.520935e-06,-0.0032331866677850485,-1.8313634e-06
498.33333333320877,0.00016713033,-0.78555703,4.032297e-05,-2.355391,9.2924514e-05,1.5709884,0.786,0.04,0.04,-9.830754,0.0008283522911369801,0.0062418287,-1.4424415e-05,-0.004158033058047295,-8.948866e-06
498.3499999998754,0.00016734423,-0.78546757,4.0668387e-05,-2.3554652,9.275882e-05,1.5709856,0.786,0.04,0.04,-9.829072,0.0010011661797761917,0.005034295,-3.3004533e-05,-0.00501822168007493,-2.2802555e-05
498.3666666665421,0.0001677554,-0.7853855,4.132339e-05,-2.355532,9.241664e-05,1.570986,0.786,0.04,0.04,-9.827624,0.0012163750361651182,0.0039367555,-6.306229e-05,-0.0058271270245313644,-4.518343e-05
498.3833333332087,0.00016845435,-0.7853102,4.242695e-05,-2.3555968,9.182057e-05,1.5709869,0.786,0.04,0.04,-9.8260975,0.0014703843044117093,0.0028771916,-0.000106647116,-0.006572630722075701,-7.776049e-05
498.3999999998754,0.00016954522,-0.78524137,4.4137967e-05,-2.355655,9.08813e-05,1.5709878,0.786,0.04,0.04,-9.825391,0.0017574968514963984,0.0020008385,-0.00016562469,-0.007299093529582024,-0.000121963814
498.416666666542,0.00017114391,-0.78517854,4.663334e-05,-2.3557074,8.9509216e-05,1.5709921,0.786,0.04,0.039999995,-9.824156,0.002073485404253006,0.0011967104,-0.00024222763,-0.007991519756615162,-0.0001783474
498.4333333332087,0.00017337724,-0.78512144,5.0106006e-05,-2.3557575,8.7586945e-05,1.5709968,0.7859981,0.04,0.039999995,-9.823008,0.002404891885817051,0.00043005543,-0.00033826914,-0.008645099587738514,-0.00024964657
498.44999999987533,0.00017638138,-0.78506976,5.4762982e-05,-2.3558023,8.499729e-05,1.5710049,0.7859962,0.04,0.039999995,-9.822398,0.002746220212429762,-0.0001406169,-0.0004460771,-0.009293211624026299,-0.00033607456
498.466666666542,0.00018030107,-0.7850231,6.0823888e-05,-2.3558452,8.161003e-05,1.5710135,0.7859943,0.04,0.04,-9.821425,0.0030988818034529686,-0.0007308263,-0.0005759622,-0.009913860820233822,-0.0004393066
498.48333333320863,0.000185288,-0.78498137,6.851901e-05,-2.3558857,7.729955e-05,1.5710258,0.7859924,0.04,0.04,-9.821023,0.003457277547568083,-0.0011521932,-0.0007296012,-0.010542010888457298,-0.00055922987
498.4999999998753,0.00019150035,-0.7849443,7.808825e-05,-2.3559217,7.193745e-05,1.571042,0.7859905,0.04,0.04,-9.8204565,0.003821084974333644,-0.0015748193,-0.0009077449,-0.011161399073898792,-0.0006960888
498.51666666654194,0.00019910187,-0.7849118,8.977989e-05,-2.3559566,6.538472e-05,1.5710618,0.78598666,0.04,0.04,-9.819703,0.004168823827058077,-0.0018828243,-0.0011115798,-0.011769848875701427,-0.00085093355
498.5333333332086,0.0002082609,-0.7848838,0.00010384898,-2.355991,5.7500183e-05,1.5710857,0.78598285,0.04,0.04,-9.81941,0.00450294092297554,-0.0020860715,-0.0013331547,-0.012385438196361065,-0.0010244274
498.54999999987524,0.00021914991,-0.7848601,0.00012055683,-2.356021,4.8136597e-05,1.5711133,0.78597903,0.04,0.04,-9.819191,0.0048181964084506035,-0.00221272,-0.0015822577,-0.013012968935072422,-0.0012169741
498.5666666665419,0.0002319443,-0.78484076,0.00014016936,-2.3560488,3.7154805e-05,1.5711462,0.7859733,0.04,0.04,-9.818536,0.005109953694045544,-0.0022397912,-0.0018598271,-0.013640371151268482,-0.0014281825
498.58333333320854,0.00024682286,-0.78482556,0.00016295696,-2.3560765,2.4385221e-05,1.5711854,0.7859676,0.039999995,0.04,-9.818173,0.005373530555516481,-0.0021697036,-0.0021576674,-0.014273927547037601,-0.0016606823
498.5999999998752,0.0002639659,-0.78481454,0.00018919303,-2.3561037,9.6764115e-06,1.5712299,0.78596014,0.03999999,0.04,-9.81804,0.005603125784546137,-0.0020372046,-0.0024848043,-0.01492105983197689,-0.0019130994
498.61666666654185,0.00028355548,-0.7848074,0.00021915325,-2.3561304,-7.1169907e-06,1.5712808,0.7859525,0.039999988,0.039999995,-9.817897,0.005798888858407736,-0.0017722666,-0.0028342872,-0.015586688183248043,-0.0021847968
498.6333333332085,0.00030577503,-0.7848045,0.00025311523,-2.356157,-2.6154976e-05,1.5713389,0.78594303,0.039999984,0.039999995,-9.817834,0.005945394281297922,-0.0014356729,-0.003213664,-0.016273463144898415,-0.002477547
498.64999999987515,0.00033080828,-0.7848058,0.00029135743,-2.356182,-4.7590038e-05,1.5714042,0.7859335,0.03999998,0.03999999,-9.817749,0.006055836100131273,-0.0009948518,-0.0036156068,-0.01697787083685398,-0.0027897477
498.6666666665418,0.00035883978,-0.7848112,0.0003341591,-2.3562064,-7.157943e-05,1.5714774,0.78592205,0.039999977,0.03999999,-9.81745,0.006097607314586639,-0.00042637222,-0.004048921,-0.01769569143652916,-0.0031231027
498.68333333320845,0.00039005364,-0.7848208,0.00038179924,-2.35623,-9.827802e-05,1.5715594,0.7859094,0.039999973,0.039999988,-9.817345,0.006092165596783161,0.00023857673,-0.0045048282,-0.018431995064020157,-0.003475922
498.6999999998751,0.00042463385,-0.7848345,0.00043455657,-2.3562536,-0.00012784227,1.5716501,0.7858958,0.03999997,0.039999984,-9.817196,0.006004776805639267,0.0010329993,-0.0049876827,-0.019185636192560196,-0.0038489862
498.71666666654176,0.0004627635,-0.78485245,0.0004927083,-2.3562777,-0.00016042803,1.5717499,0.78588057,0.039999966,0.039999984,-9.81717,0.005887266714125872,0.0019436085,-0.005498501,-0.019961081445217133,-0.0042430707
498.7333333332084,0.0005046251,-0.78487486,0.0005565306,-2.3563023,-0.00019618856,1.5718598,0.7858635,0.03999996,0.03999998,-9.81719,0.005686154123395681,0.002992318,-0.006033867,-0.020761532709002495,-0.0046563437
498.74999999987506,0.00055039965,-0.78490144,0.0006262978,-2.3563278,-0.00023527809,1.5719799,0.7858451,0.039999958,0.039999977,-9.817194,0.005407709628343582,0.004167606,-0.006593917,-0.021583793684840202,-0.005089542
498.7666666665417,0.00060026697,-0.7849323,0.0007022823,-2.3563545,-0.0002778486,1.5721109,0.78582513,0.039999954,0.039999977,-9.81731,0.005045776255428791,0.0054590544,-0.007180444,-0.022434651851654053,-0.0055433125
498.78333333320836,0.0006544049,-0.7849679,0.0007847538,-2.3563812,-0.00032405043,1.5722531,0.78580344,0.03999995,0.039999973,-9.817417,0.004615220241248608,0.0068695843,-0.0077929446,-0.02331138402223587,-0.0060157687
498.799999999875,0.00071298995,-0.78500795,0.0008739795,-2.356408,-0.00037403384,1.572407,0.78577995,0.039999947,0.039999973,-9.817362,0.0040822820737957954,0.008460472,-0.008430398,-0.02420857734978199,-0.0065084035
498.81666666654166,0.00077619596,-0.7850528,0.00097022305,-2.3564353,-0.00042794546,1.572573,0.7857546,0.039999943,0.03999997,-9.817348,0.003451787866652012,0.010175587,-0.0090925945,-0.025128798559308052,-0.0070192544
498.8333333332083,0.00084419566,-0.7851023,0.0010737457,-2.356463,-0.00048593216,1.5727514,0.7857273,0.039999943,0.039999973,-9.817329,0.0027640871703624725,0.012067799,-0.0097795585,-0.026070496067404747,-0.0075497855
498.84999999987497,0.00091715856,-0.78515667,0.0011848046,-2.3564913,-0.0005481369,1.5729429,0.78569806,0.039999943,0.039999973,-9.81732,0.0019628461450338364,0.01411168,-0.010490485,-0.027034999802708626,-0.00809801
498.8666666665416,0.0009952519,-0.78521585,0.0013036538,-2.356521,-0.0006147026,1.5731477,0.78566676,0.039999943,0.039999977,-9.817366,0.0010564308613538742,0.016323293,-0.011225366,-0.028022877871990204,-0.008665339
498.88333333320827,0.0010786413,-0.78528017,0.0014305426,-2.3565526,-0.0006857679,1.5733662,0.7856334,0.039999943,0.039999977,-9.817479,4.833657294511795e-05,0.018700192,-0.011984195,-0.029037142172455788,-0.009249757
498.8999999998749,0.001167489,-0.7853494,0.0015657177,-2.356587,-0.00076147163,1.5735991,0.7855979,0.039999943,0.03999998,-9.81768,-0.0010734312236309052,0.021243725,-0.012766121,-0.030080966651439667,-0.009852713
498.9166666665416,0.0012619541,-0.7854239,0.0017094213,-2.3566217,-0.0008419479,1.5738467,0.7855602,0.03999994,0.039999977,-9.817916,-0.0022941045463085175,0.023933144,-0.013571655,-0.031153954565525055,-0.010472114
498.9333333332082,0.0013621935,-0.7855037,0.0018618903,-2.3566575,-0.00092733034,1.5741094,0.78552,0.039999936,0.039999977,-9.81793,-0.0036420300602912903,0.026812904,-0.014399409,-0.032248929142951965,-0.011109343
498.9499999998749,0.0014683615,-0.78558886,0.0020233588,-2.3566937,-0.0010177493,1.5743876,0.78547746,0.039999932,0.039999977,-9.81792,-0.005133908241987228,0.029884253,-0.015248789,-0.0333649180829525,-0.0117631955
498.9666666665415,0.0015806089,-0.7856795,0.0021940554,-2.356733,-0.0011133323,1.5746818,0.7854325,0.039999932,0.039999977,-9.817907,-0.006675491109490395,0.033154268,-0.01611975,-0.034500814974308014,-0.012432431
498.9833333332082,0.0016990835,-0.7857757,0.0023742046,-2.3567753,-0.0012142055,1.5749923,0.78538513,0.039999936,0.039999984,-9.818186,-0.008384278044104576,0.03659831,-0.017012456,-0.03566603362560272,-0.013118464
498.99999999987483,0.0018239305,-0.7858775,0.002564026,-2.3568187,-0.0013204914,1.5753195,0.78533524,0.03999994,0.039999988,-9.818468,-0.010210363194346428,0.040233094,-0.017926043,-0.03686155378818512,-0.013819162
499.0166666665415,0.0019552915,-0.7859851,0.0027637354,-2.3568623,-0.0014323045,1.5756638,0.7852826,0.039999943,0.03999999,-9.818496,-0.012168530374765396,0.044053856,-0.018860472,-0.03807749226689339,-0.014534792
499.03333333320813,0.0020933053,-0.78609854,0.0029735428,-2.3569083,-0.0015497751,1.5760258,0.78522736,0.039999947,0.04,-9.818358,-0.014273596927523613,0.048100762,-0.019814303,-0.0393080934882164,-0.015267369
499.0499999998748,0.0022381078,-0.78621805,0.0031936532,-2.3569584,-0.0016729792,1.5764053,0.7851695,0.03999995,0.03999999,-9.818546,-0.016468344256281853,0.052360173,-0.020787988,-0.04056315869092941,-0.016008945
499.06666666654144,0.002389831,-0.7863436,0.0034242678,-2.3570094,-0.0018020659,1.5768028,0.7851087,0.039999958,0.04,-9.818882,-0.018901608884334564,0.05683055,-0.02178142,-0.041850410401821136,-0.016768886
499.0833333332081,0.0025486045,-0.7864752,0.0036655823,-2.357061,-0.0019371052,1.5772189,0.7850452,0.039999966,0.039999995,-9.818865,-0.02134300395846367,0.061494112,-0.022792663,-0.04315510764718056,-0.017538512
499.09999999987474,0.0027145536,-0.78661305,0.0039177886,-2.3571155,-0.0020782282,1.5776536,0.7849788,0.039999973,0.04,-9.818733,-0.024008523672819138,0.066383794,-0.023823284,-0.04447309300303459,-0.01832377
499.1166666665414,0.0028878015,-0.78675723,0.004181072,-2.3571737,-0.0022255124,1.5781077,0.7849095,0.039999984,0.039999995,-9.818936,-0.026794375851750374,0.071512684,-0.024871506,-0.04581683874130249,-0.019119583
499.13333333320804,0.0030684671,-0.78690785,0.004455612,-2.3572323,-0.0023790963,1.5785812,0.78483725,0.039999984,0.04,-9.819215,-0.029763106256723404,0.07685218,-0.025936965,-0.047187529504299164,-0.019931832
499.1499999998747,0.0032566672,-0.78706497,0.004741588,-2.3572924,-0.0025390692,1.5790745,0.784762,0.039999984,0.04,-9.819052,-0.03284809738397598,0.08241478,-0.027019951,-0.04856947436928749,-0.02075524
499.16666666654135,0.0034525127,-0.7872286,0.00503917,-2.357358,-0.002705538,1.5795877,0.78468364,0.03999998,0.04,-9.819003,-0.03610065206885338,0.088233314,-0.028120058,-0.04996652528643608,-0.021590954
499.183333333208,0.0036561147,-0.7873989,0.0053485236,-2.3574243,-0.0028786082,1.580121,0.7846023,0.039999973,0.04,-9.819486,-0.03951366990804672,0.09427346,-0.029235478,-0.05139841139316559,-0.022438632
499.19999999987465,0.0038675799,-0.78757584,0.005669809,-2.3574922,-0.0030583665,1.580675,0.7845177,0.039999966,0.04,-9.819309,-0.043113283812999725,0.100543834,-0.030367328,-0.052842363715171814,-0.02329691
499.2166666665413,0.0040870104,-0.7877598,0.0060031833,-2.357564,-0.0032449118,1.5812495,0.78442997,0.039999954,0.04,-9.819281,-0.04679930955171585,0.10705976,-0.03151443,-0.05430100858211517,-0.024166184
499.23333333320795,0.004314505,-0.78795046,0.0063488,-2.3576381,-0.003438316,1.5818454,0.784339,0.039999947,0.04,-9.819459,-0.050677716732025146,0.11384168,-0.032676354,-0.055783651769161224,-0.0250446
499.2499999998746,0.0045501613,-0.7881481,0.006706801,-2.357714,-0.0036386556,1.5824627,0.78424484,0.039999936,0.039999995,-9.819482,-0.05472331494092941,0.12082848,-0.033852804,-0.057282816618680954,-0.025932321
499.26666666654125,0.0047940724,-0.7883529,0.007077331,-2.3577926,-0.0038460244,1.5831016,0.7841473,0.039999925,0.039999995,-9.819362,-0.05894387513399124,0.12808678,-0.035043754,-0.0587940439581871,-0.026829714
499.2833333332079,0.0050463257,-0.7885647,0.0074605243,-2.3578744,-0.0040604877,1.5837623,0.7840465,0.039999917,0.039999995,-9.8194,-0.06332103163003922,0.13561304,-0.03624821,-0.060322415083646774,-0.027734937
499.29999999987456,0.005307011,-0.78878367,0.007856512,-2.3579578,-0.0042821057,1.5844449,0.7839422,0.039999913,0.039999995,-9.819475,-0.06787372380495071,0.14337425,-0.037465587,-0.061870455741882324,-0.02864757
499.3166666665412,0.005576208,-0.78900975,0.008265422,-2.3580449,-0.0045109396,1.58515,0.7838347,0.03999991,0.039999995,-9.819258,-0.07264086604118347,0.1513942,-0.038695853,-0.0634286105632782,-0.029568082
499.33333333320786,0.005853998,-0.7892434,0.008687371,-2.3581343,-0.0047470694,1.5858775,0.7837237,0.039999906,0.039999995,-9.81937,-0.07750081270933151,0.15967391,-0.039939146,-0.06500573456287384,-0.030495925
499.3499999998745,0.0061404575,-0.78948426,0.009122481,-2.3582256,-0.004990547,1.586628,0.7836092,0.039999902,0.039999995,-9.8192425,-0.08257471024990082,0.16823962,-0.041194394,-0.06659477949142456,-0.031430826
499.36666666654116,0.0064356616,-0.78973275,0.009570862,-2.3583224,-0.0052414536,1.5874007,0.78349125,0.039999902,0.039999995,-9.819076,-0.08782000094652176,0.1770411,-0.04246096,-0.06819400191307068,-0.0323714
499.3833333332078,0.0067396774,-0.78998846,0.010032619,-2.3584206,-0.0054998216,1.5881964,0.78336984,0.039999902,0.039999995,-9.819292,-0.09325620532035828,0.18614995,-0.043738604,-0.06981941312551498,-0.033318322
499.39999999987447,0.0070525752,-0.79025173,0.010507856,-2.3585198,-0.0057657245,1.5890156,0.78324485,0.039999902,0.039999995,-9.819049,-0.09886565804481506,0.19545712,-0.045027472,-0.07145419716835022,-0.034271058
499.4166666665411,0.007374418,-0.7905225,0.010996668,-2.3586247,-0.006039202,1.5898579,0.7831163,0.039999902,0.039999995,-9.818644,-0.10466061532497406,0.20505968,-0.046326697,-0.07309059053659439,-0.03522897
499.43333333320777,0.007705265,-0.7908009,0.011499148,-2.3587313,-0.006320317,1.5907241,0.7829841,0.039999902,0.039999995,-9.818841,-0.11064706742763519,0.21495329,-0.04763572,-0.07475272566080093,-0.036192015
499.4499999998744,0.008045175,-0.791087,0.012015385,-2.3588383,-0.0066091195,1.5916141,0.78284824,0.039999902,0.039999995,-9.818498,-0.11685390770435333,0.22508816,-0.04895418,-0.0764206200838089,-0.03715956
499.4666666665411,0.008394202,-0.79138076,0.012545454,-2.3589518,-0.0069056503,1.5925277,0.7827087,0.039999902,0.039999995,-9.81799,-0.1231541559100151,0.23551233,-0.050281756,-0.07808739691972733,-0.038131088
499.4833333332077,0.008752396,-0.7916823,0.013089445,-2.359066,-0.0072099525,1.5934653,0.78256553,0.039999902,0.039999995,-9.818183,-0.12969502806663513,0.24624074,-0.051617887,-0.0797804519534111,-0.039106578
499.4999999998744,0.009119807,-0.79199165,0.013647424,-2.3591821,-0.0075220694,1.594427,0.78241885,0.0399999,0.03999999,-9.817664,-0.13642138242721558,0.257214,-0.05296244,-0.08147471398115158,-0.04008526
499.516666666541,0.009496483,-0.7923089,0.014219463,-2.3593037,-0.007842053,1.5954131,0.7822683,0.0399999,0.03999999,-9.817203,-0.1433422714471817,0.26847363,-0.054315675,-0.08317220956087112,-0.04106773
499.5333333332077,0.009882461,-0.7926342,0.014805622,-2.3594263,-0.008169939,1.5964234,0.782114,0.03999989,0.03999999,-9.817231,-0.15045885741710663,0.28003117,-0.055675954,-0.0848902016878128,-0.042053476
499.54999999987433,0.010277783,-0.7929672,0.015405963,-2.359555,-0.008505769,1.5974581,0.781956,0.03999988,0.03999999,-9.816564,-0.15776601433753967,0.2918595,-0.057043213,-0.08660576492547989,-0.043042015
499.566666666541,0.010682482,-0.7933082,0.01602054,-2.359685,-0.008849568,1.5985173,0.7817943,0.039999872,0.03999999,-9.816591,-0.1653091460466385,0.3039552,-0.058417376,-0.08834515511989594,-0.0440316
499.58333333320763,0.011096596,-0.7936569,0.016649405,-2.359816,-0.009201353,1.5996011,0.78162897,0.03999987,0.03999999,-9.815984,-0.1729448288679123,0.3163331,-0.059797876,-0.09008483588695526,-0.045021676
499.5999999998743,0.011520153,-0.7940137,0.017292606,-2.3599532,-0.009561155,1.6007097,0.7814598,0.039999865,0.03999999,-9.8152685,-0.18083210289478302,0.32896176,-0.061185464,-0.09182239323854446,-0.046012558
499.61666666654094,0.011953179,-0.79437864,0.017950179,-2.3600912,-0.009928993,1.601843,0.78128684,0.03999986,0.03999999,-9.815146,-0.1889234185218811,0.34193033,-0.062578194,-0.09357967227697372,-0.047004264
499.6333333332076,0.012395703,-0.7947515,0.018622166,-2.360232,-0.010304889,1.6030011,0.7811101,0.039999854,0.03999999,-9.8143215,-0.19720888137817383,0.35515958,-0.06397613,-0.0953323096036911,-0.04799674
499.64999999987424,0.012847739,-0.7951322,0.019308588,-2.3603773,-0.010688872,1.6041842,0.78092945,0.03999985,0.03999999,-9.813694,-0.20568424463272095,0.3686711,-0.06537933,-0.09708923101425171,-0.048988264
499.6666666665409,0.013309307,-0.79552096,0.020009484,-2.360524,-0.011080929,1.605392,0.78074485,0.039999846,0.039999988,-9.813276,-0.2143692970275879,0.38245487,-0.06678625,-0.09885817766189575,-0.049978644
499.68333333320754,0.013780426,-0.7959179,0.020724876,-2.3606765,-0.011481095,1.606625,0.7805567,0.039999843,0.039999988,-9.812396,-0.2232532501220703,0.39652818,-0.068196885,-0.100624680519104,-0.05096894
499.6999999998742,0.014261109,-0.79632294,0.021454792,-2.3608298,-0.011889369,1.607883,0.7803647,0.03999984,0.039999988,-9.81202,-0.23239628970623016,0.41089657,-0.069612496,-0.10240724682807922,-0.051958084
499.71666666654085,0.014751364,-0.7967359,0.02219923,-2.3609858,-0.012305776,1.609166,0.7801689,0.03999984,0.039999988,-9.81097,-0.24162302911281586,0.42553234,-0.071031466,-0.10418237745761871,-0.052944597
499.7333333332075,0.015251201,-0.79715705,0.022958208,-2.3611467,-0.012730297,1.6104741,0.77996916,0.039999835,0.039999988,-9.810106,-0.25111478567123413,0.44044244,-0.07245368,-0.10595915466547012,-0.053929992
499.74999999987415,0.01576062,-0.7975863,0.023731736,-2.361309,-0.013162954,1.6118071,0.7797657,0.039999835,0.039999988,-9.809478,-0.2608194053173065,0.45567578,-0.07387782,-0.10774658620357513,-0.054913297
499.7666666665408,0.016279629,-0.7980237,0.024519822,-2.3614757,-0.013603732,1.6131651,0.7795585,0.039999828,0.039999984,-9.808335,-0.2707103490829468,0.47115764,-0.07530532,-0.10952883958816528,-0.055893794
499.78333333320745,0.01680822,-0.7984692,0.025322462,-2.361645,-0.0140526565,1.6145486,0.7793473,0.03999982,0.039999984,-9.807534,-0.280825138092041,0.4869447,-0.076734714,-0.11131903529167175,-0.056872256
499.7999999998741,0.017346393,-0.79892254,0.026139645,-2.3618162,-0.014509719,1.6159568,0.77913237,0.039999817,0.039999984,-9.806421,-0.29112571477890015,0.5029768,-0.078165404,-0.11310643702745438,-0.057846367
499.81666666654075,0.017894149,-0.79938406,0.026971366,-2.361993,-0.0149749275,1.6173902,0.77891356,0.03999981,0.039999988,-9.805162,-0.30169326066970825,0.51929414,-0.07959756,-0.11489130556583405,-0.05881825
499.8333333332074,0.018451467,-0.7998537,0.027817614,-2.3621707,-0.015448253,1.6188493,0.7786909,0.039999805,0.039999988,-9.804361,-0.31236353516578674,0.5359254,-0.08103034,-0.11668772995471954,-0.0597848
499.84999999987406,0.01901834,-0.8003314,0.028678363,-2.362352,-0.015929699,1.6203322,0.77846444,0.039999798,0.039999988,-9.80282,-0.3232877552509308,0.55278146,-0.08246372,-0.11846967786550522,-0.06074743
499.8666666665407,0.019594759,-0.80081713,0.029553596,-2.3625364,-0.016419262,1.6218406,0.77823424,0.039999798,0.03999999,-9.801608,-0.334420770406723,0.56999,-0.08389757,-0.12025856226682663,-0.061704807
499.88333333320736,0.020180704,-0.8013107,0.030443296,-2.3627236,-0.016916888,1.6233739,0.77800024,0.039999798,0.039999995,-9.800291,-0.34576088190078735,0.58741885,-0.08533177,-0.12204594910144806,-0.06265711
499.899999999874,0.02077616,-0.8018125,0.031347428,-2.3629146,-0.017422589,1.6249317,0.7777625,0.03999979,0.03999999,-9.798805,-0.35730892419815063,0.6051211,-0.08676506,-0.12383020669221878,-0.063604265
499.91666666654066,0.021381095,-0.80232227,0.032265965,-2.363108,-0.017936325,1.6265146,0.77752095,0.039999783,0.039999988,-9.797394,-0.3690674304962158,0.6231311,-0.08819804,-0.1256164312362671,-0.06454594
499.9333333332073,0.021995492,-0.80284005,0.03319887,-2.3633041,-0.018458096,1.6281221,0.7772756,0.03999978,0.039999988,-9.795744,-0.3810325860977173,0.64138085,-0.089630015,-0.1273970901966095,-0.06548239
499.94999999987397,0.022619331,-0.8033657,0.034146093,-2.3635044,-0.018987853,1.6297545,0.77702653,0.039999764,0.039999966,-9.794006,-0.3932349383831024,0.65990907,-0.09106028,-0.12917360663414001,-0.066409275
499.9666666665406,0.023252575,-0.8038992,0.035107583,-2.3637068,-0.019525591,1.6314114,0.7767736,0.039999753,0.03999995,-9.79248,-0.405572772026062,0.67871505,-0.09248875,-0.13095247745513916,-0.067330755
499.98333333320727,0.023895198,-0.80444086,0.036083326,-2.3639119,-0.020071276,1.6330929,0.7765168,0.039999742,0.039999936,-9.790521,-0.4181521236896515,0.697766,-0.09391453,-0.13272292912006378,-0.06824465
499.9999999998739,0.02454716,-0.8049902,0.037073243,-2.364121,-0.020624937,1.6347989,0.7762564,0.039999735,0.03999993,-9.788575,-0.43096181750297546,0.71712095,-0.0953378,-0.13448767364025116,-0.069153614
500.0166666665406,0.025208425,-0.8055476,0.038077284,-2.3643322,-0.02118648,1.6365288,0.7759922,0.039999727,0.03999992,-9.786709,-0.4439643621444702,0.7367055,-0.09675814,-0.1362522840499878,-0.070054606
500.0333333332072,0.02587896,-0.8061127,0.039095394,-2.364547,-0.021755897,1.6382833,0.7757243,0.03999972,0.03999992,-9.784529,-0.45718079805374146,0.7565867,-0.09817588,-0.13800938427448273,-0.07094956
500.0499999998739,0.026558723,-0.8066856,0.04012751,-2.364765,-0.02233315,1.6400617,0.7754527,0.039999712,0.039999917,-9.78245,-0.4706021845340729,0.77668595,-0.09958925,-0.13976377248764038,-0.07183592
500.0666666665405,0.027247675,-0.80726624,0.04117358,-2.364985,-0.022918196,1.6418647,0.7751775,0.039999705,0.03999991,-9.780149,-0.48427432775497437,0.79706013,-0.100999035,-0.14151260256767273,-0.07271418
500.0833333332072,0.027945759,-0.8078545,0.04223352,-2.3652081,-0.023511002,1.643691,0.77489865,0.039999694,0.039999906,-9.777736,-0.4980599284172058,0.8176647,-0.102405265,-0.14325061440467834,-0.07358467
500.09999999987383,0.028652942,-0.8084502,0.04330727,-2.3654346,-0.024111541,1.6455413,0.7746161,0.039999694,0.03999991,-9.775296,-0.5120968818664551,0.8385589,-0.103806995,-0.14498475193977356,-0.07444562
500.1166666665405,0.029369166,-0.8090538,0.044394743,-2.3656635,-0.024719754,1.6474152,0.7743301,0.039999682,0.03999991,-9.7728195,-0.5263582468032837,0.8596738,-0.10520353,-0.14671438932418823,-0.07529953
500.13333333320713,0.030094385,-0.8096651,0.045495868,-2.3658962,-0.025335604,1.6493127,0.7740404,0.03999968,0.03999991,-9.770086,-0.5407975316047668,0.8810634,-0.10659547,-0.14843453466892242,-0.07614254
500.1499999998738,0.030828547,-0.810284,0.046610568,-2.3661308,-0.025959032,1.6512338,0.77374715,0.039999675,0.03999991,-9.767422,-0.5554684400558472,0.9026952,-0.10798149,-0.15014919638633728,-0.07697695
500.16666666654044,0.031571582,-0.8109102,0.047738757,-2.3663683,-0.026589982,1.6531777,0.7734504,0.039999668,0.039999902,-9.76442,-0.5703222155570984,0.9245582,-0.10936206,-0.15185107290744781,-0.077800065
500.1833333332071,0.032323435,-0.8115434,0.048880346,-2.3666093,-0.027228456,1.6551448,0.7731501,0.039999653,0.039999902,-9.761425,-0.5854036808013916,0.94664776,-0.110736795,-0.15354573726654053,-0.07861667
500.19999999987374,0.03308406,-0.8121843,0.05003524,-2.3668523,-0.027874373,1.6571348,0.7728463,0.03999965,0.039999902,-9.758472,-0.60071861743927,0.96895534,-0.112104654,-0.15523795783519745,-0.07942085
500.2166666665404,0.033853393,-0.81283283,0.051203325,-2.367098,-0.02852768,1.6591477,0.77253896,0.03999964,0.039999906,-9.755164,-0.6161515712738037,0.99154514,-0.113465995,-0.1569167822599411,-0.080216125
500.23333333320704,0.03463136,-0.8134885,0.05238453,-2.3673475,-0.029188316,1.6611832,0.7722281,0.03999964,0.03999991,-9.751761,-0.6318589448928833,1.0143656,-0.114820346,-0.1585816890001297,-0.08100581
500.2499999998737,0.0354179,-0.8141512,0.053578757,-2.3675985,-0.029856246,1.6632411,0.77191395,0.039999634,0.039999913,-9.748494,-0.6477219462394714,1.037397,-0.11616694,-0.1602439284324646,-0.081780486
500.26666666654035,0.03621295,-0.8148213,0.054785896,-2.3678527,-0.030531388,1.6653211,0.77159643,0.039999627,0.03999991,-9.744768,-0.663796067237854,1.0606271,-0.117506325,-0.16189044713974,-0.08254322
500.283333333207,0.037016433,-0.81549853,0.05600583,-2.36811,-0.03121368,1.6674234,0.7712756,0.03999962,0.039999906,-9.74112,-0.6800867319107056,1.084112,-0.11883777,-0.1635284423828125,-0.08329396
500.29999999987365,0.03782828,-0.8161826,0.057238486,-2.3683693,-0.031903088,1.6695476,0.7709514,0.039999608,0.039999906,-9.737314,-0.6965808272361755,1.1078143,-0.120161414,-0.16515512764453888,-0.08403522
500.3166666665403,0.03864841,-0.8168739,0.058483712,-2.368632,-0.032599524,1.6716931,0.7706238,0.039999608,0.039999906,-9.733315,-0.7132917642593384,1.1316899,-0.12147645,-0.166769877076149,-0.08476223
500.33333333320695,0.03947676,-0.81757206,0.059741415,-2.3688974,-0.033302948,1.6738603,0.77029294,0.039999597,0.03999991,-9.729333,-0.7301561832427979,1.1558462,-0.122782126,-0.16837644577026367,-0.08548148
500.3499999998736,0.040313248,-0.818277,0.06101146,-2.369165,-0.03401328,1.676049,0.76995885,0.03999959,0.039999906,-9.725116,-0.7472275495529175,1.1801417,-0.12407833,-0.16996997594833374,-0.08618614
500.36666666654025,0.041157797,-0.8189886,0.062293753,-2.3694348,-0.034730442,1.6782587,0.7696216,0.039999574,0.0399999,-9.720725,-0.7645040154457092,1.204657,-0.12536547,-0.1715492159128189,-0.08687975
500.3833333332069,0.042010315,-0.8197071,0.063588165,-2.3697078,-0.03545442,1.6804891,0.769281,0.039999567,0.039999902,-9.716206,-0.7819918394088745,1.2293731,-0.12664312,-0.17311522364616394,-0.087562904
500.39999999987356,0.042870738,-0.8204323,0.06489454,-2.369983,-0.036185067,1.68274,0.76893735,0.039999563,0.039999902,-9.711654,-0.7996455430984497,1.2543095,-0.12790985,-0.17467154562473297,-0.08823116
500.4166666665402,0.043738976,-0.8211641,0.06621279,-2.3702602,-0.036922395,1.6850116,0.7685906,0.039999552,0.039999906,-9.706831,-0.8175175189971924,1.2794219,-0.12916662,-0.1762123703956604,-0.088889666
500.43333333320686,0.04461493,-0.82190216,0.067542754,-2.3705409,-0.03766627,1.6873034,0.76824075,0.03999954,0.039999902,-9.701872,-0.8355630040168762,1.3047024,-0.13041295,-0.17773747444152832,-0.089533515
500.4499999998735,0.045498516,-0.82264686,0.06888433,-2.3708236,-0.03841662,1.6896151,0.7678878,0.039999533,0.0399999,-9.696909,-0.8538509011268616,1.3301733,-0.13164769,-0.17925332486629486,-0.090164125
500.46666666654016,0.046389658,-0.82339805,0.07023737,-2.3711083,-0.03917339,1.6919467,0.76753193,0.039999522,0.0399999,-9.691674,-0.8722561001777649,1.3558389,-0.13287123,-0.18075290322303772,-0.090784416
500.4833333332068,0.04728826,-0.82415557,0.071601726,-2.3713956,-0.039936498,1.6942977,0.767173,0.03999952,0.0399999,-9.686233,-0.8908557295799255,1.3816755,-0.13408399,-0.18223367631435394,-0.091388784
500.49999999987347,0.04819423,-0.8249191,0.072977275,-2.3716853,-0.040705845,1.6966677,0.76681113,0.039999507,0.0399999,-9.680749,-0.9096817970275879,1.4076948,-0.13528423,-0.18370164930820465,-0.09198201
500.5166666665401,0.049107473,-0.82568866,0.074363865,-2.3719773,-0.041481387,1.6990569,0.7664465,0.0399995,0.039999902,-9.675117,-0.92867511510849,1.4338567,-0.13647234,-0.18515655398368835,-0.09256216
500.53333333320677,0.050027892,-0.8264643,0.07576132,-2.3722718,-0.042263016,1.7014649,0.76607877,0.03999949,0.0399999,-9.669313,-0.9478504657745361,1.4601822,-0.13764863,-0.18659590184688568,-0.09312814
500.5499999998734,0.05095539,-0.8272461,0.07716955,-2.3725681,-0.043050654,1.7038914,0.7657083,0.03999948,0.0399999,-9.663336,-0.967214822769165,1.4866685,-0.13881116,-0.1880192756652832,-0.09368072
500.5666666665401,0.05188986,-0.82803386,0.078588374,-2.3728676,-0.043844238,1.7063363,0.765335,0.039999474,0.039999902,-9.657093,-0.986796498298645,1.5133175,-0.13996127,-0.18942423164844513,-0.09422139
500.5833333332067,0.05283122,-0.8288274,0.08001765,-2.3731687,-0.044643648,1.7087994,0.7649591,0.039999466,0.0399999,-9.650912,-1.0064719915390015,1.5401305,-0.14109777,-0.19081518054008484,-0.09474578
500.5999999998734,0.053779352,-0.82962656,0.08145722,-2.3734715,-0.045448825,1.7112797,0.7645805,0.03999945,0.039999902,-9.644393,-1.026395320892334,1.5670538,-0.14222136,-0.1921866089105606,-0.09526003
500.61666666654,0.054734167,-0.8304313,0.08290692,-2.373777,-0.04625969,1.7137779,0.7641991,0.039999444,0.039999902,-9.637719,-1.0464495420455933,1.5941371,-0.14333127,-0.19354145228862762,-0.09575771
500.6333333332067,0.055695552,-0.83124155,0.084366605,-2.374085,-0.047076155,1.7162932,0.7638148,0.039999425,0.0399999,-9.630952,-1.0667117834091187,1.6213436,-0.14442657,-0.19487908482551575,-0.09624347
500.64999999987333,0.056663405,-0.83205736,0.0858361,-2.3743947,-0.04789812,1.7188253,0.76342845,0.039999418,0.039999895,-9.624091,-1.0871306657791138,1.648703,-0.1455059,-0.19620288908481598,-0.09671344
500.66666666654,0.057637606,-0.8328786,0.08731524,-2.374706,-0.048725463,1.721374,0.76303923,0.039999407,0.039999895,-9.616857,-1.107724905014038,1.6761581,-0.14657328,-0.19750536978244781,-0.097170256
500.68333333320663,0.05861807,-0.83370507,0.08880389,-2.3750193,-0.049558144,1.7239392,0.7626476,0.0399994,0.0399999,-9.6095085,-1.128481149673462,1.703759,-0.14762433,-0.19878911972045898,-0.09761294
500.6999999998733,0.059604682,-0.8345366,0.09030187,-2.3753355,-0.05039604,1.7265205,0.76225346,0.03999939,0.0399999,-9.601971,-1.1494442224502563,1.7314508,-0.14866114,-0.2000531405210495,-0.098041534
500.71666666653994,0.06059732,-0.83537334,0.091809,-2.375653,-0.05123906,1.7291176,0.7618569,0.039999373,0.0399999,-9.594476,-1.1705187559127808,1.759283,-0.14968134,-0.20130234956741333,-0.09845692
500.7333333332066,0.061595865,-0.8362149,0.093325116,-2.375972,-0.05208712,1.73173,0.761458,0.03999937,0.0399999,-9.586574,-1.191758632659912,1.7872031,-0.15068628,-0.20253050327301025,-0.09885621
500.74999999987324,0.06260023,-0.8370615,0.09485004,-2.3762932,-0.0529401,1.7343576,0.76105684,0.039999343,0.03999988,-9.578493,-1.2131688594818115,1.8152125,-0.15167531,-0.2037382423877716,-0.099241115
500.7666666665399,0.06361029,-0.83791286,0.09638362,-2.3766162,-0.053797945,1.7370002,0.76065326,0.03999933,0.039999876,-9.570347,-1.2347604036331177,1.8433584,-0.15264879,-0.2049272507429123,-0.099612735
500.78333333320654,0.06462591,-0.83876896,0.097925656,-2.376941,-0.054660507,1.7396574,0.76024747,0.039999314,0.03999986,-9.561981,-1.2564789056777954,1.8715544,-0.15360484,-0.2060960978269577,-0.0999671
500.7999999998732,0.065647,-0.83962965,0.099476,-2.3772674,-0.055527743,1.7423289,0.75983965,0.03999929,0.039999854,-9.55343,-1.2783852815628052,1.8998638,-0.15454471,-0.207245334982872,-0.100311056
500.81666666653985,0.06667346,-0.84049475,0.10103445,-2.3775957,-0.056399528,1.7450144,0.7594297,0.039999284,0.03999985,-9.544626,-1.3004318475723267,1.9282291,-0.15546817,-0.20837253332138062,-0.100637354
500.8333333332065,0.067705125,-0.8413645,0.102600835,-2.3779254,-0.05727575,1.7477134,0.7590175,0.039999273,0.03999985,-9.535822,-1.322609543800354,1.9566926,-0.15637408,-0.20948174595832825,-0.1009516
500.84999999987315,0.06874189,-0.8422384,0.10417497,-2.3782573,-0.05815634,1.7504259,0.7586034,0.039999258,0.039999846,-9.52663,-1.344954490661621,1.9852371,-0.15726279,-0.21056723594665527,-0.10125201
500.8666666665398,0.06978364,-0.8431165,0.10575668,-2.37859,-0.059041142,1.7531517,0.75818723,0.039999247,0.039999828,-9.517426,-1.3674081563949585,2.013829,-0.15813377,-0.21163468062877655,-0.10153232
500.88333333320645,0.07083026,-0.84399885,0.10734577,-2.3789246,-0.05993009,1.7558899,0.7577691,0.039999228,0.039999824,-9.507886,-1.3900641202926636,2.042464,-0.15898709,-0.2126772552728653,-0.1018043
500.8999999998731,0.07188163,-0.8448852,0.108942054,-2.3792608,-0.060823094,1.7586405,0.75734913,0.03999921,0.03999982,-9.498223,-1.4128317832946777,2.0711985,-0.1598223,-0.21369877457618713,-0.10206238
500.91666666653975,0.07293761,-0.8457754,0.11054536,-2.3795984,-0.061720047,1.7614033,0.75692725,0.0399992,0.039999824,-9.488411,-1.4357280731201172,2.099961,-0.16063927,-0.21469920873641968,-0.10230506
500.9333333332064,0.07399807,-0.84666944,0.112155475,-2.3799374,-0.062620796,1.7641778,0.75650376,0.039999187,0.03999982,-9.478372,-1.458763837814331,2.1287708,-0.16143766,-0.21567685902118683,-0.102532536
500.94999999987306,0.0750629,-0.84756714,0.11377221,-2.3802776,-0.063525304,1.7669637,0.7560784,0.039999176,0.039999828,-9.468138,-1.481971263885498,2.1576147,-0.16221833,-0.21663324534893036,-0.1027475
500.9666666665397,0.076131985,-0.8484682,0.1153954,-2.3806193,-0.06443341,1.7697607,0.7556513,0.039999165,0.039999828,-9.457725,-1.5052292346954346,2.186505,-0.16297965,-0.21756553649902344,-0.10294584
500.98333333320636,0.07720518,-0.8493728,0.11702483,-2.3809626,-0.065345,1.7725686,0.7552225,0.039999146,0.039999828,-9.447184,-1.5286816358566284,2.2154028,-0.1637211,-0.2184770405292511,-0.10313252
500.999999999873,0.07828236,-0.8502809,0.118660346,-2.3813071,-0.06625999,1.7753868,0.75479215,0.03999914,0.03999983,-9.436425,-1.5522277355194092,2.244353,-0.16444331,-0.21936604380607605,-0.1033036
501.01666666653966,0.0793634,-0.85119224,0.1203017,-2.3816524,-0.06717829,1.778215,0.7543602,0.03999913,0.03999984,-9.42544,-1.575903296470642,2.273315,-0.16514622,-0.2202310860157013,-0.1034603
501.0333333332063,0.080448166,-0.85210675,0.12194872,-2.3819988,-0.068099745,1.7810532,0.7539269,0.03999911,0.039999835,-9.414224,-1.5996993780136108,2.3022783,-0.1658291,-0.22107098996639252,-0.10360369
501.04999999987297,0.08153655,-0.8530244,0.1236012,-2.3823466,-0.06902429,1.7839007,0.753492,0.039999098,0.039999835,-9.402908,-1.6236026287078857,2.3312654,-0.16649276,-0.22188828885555267,-0.10373086
501.0666666665396,0.08262839,-0.853945,0.12525895,-2.3826954,-0.06995175,1.7867575,0.7530557,0.039999083,0.03999983,-9.391332,-1.6476556062698364,2.3602462,-0.16713601,-0.22268010675907135,-0.10384479
501.08333333320627,0.08372357,-0.85486835,0.12692174,-2.383046,-0.07088206,1.7896229,0.75261825,0.039999064,0.039999828,-9.37966,-1.6717731952667236,2.3892448,-0.16775899,-0.22344852983951569,-0.103944935
501.0999999998729,0.084821954,-0.8557944,0.12858944,-2.383397,-0.07181512,1.7924966,0.7521794,0.039999045,0.039999828,-9.367826,-1.696021318435669,2.4182305,-0.1683623,-0.224195659160614,-0.10403201
501.1166666665396,0.08592342,-0.856723,0.13026176,-2.3837492,-0.072750844,1.7953781,0.75173914,0.039999034,0.039999828,-9.355698,-1.720366358757019,2.4471886,-0.16894421,-0.2249172329902649,-0.10410302
501.1333333332062,0.08702782,-0.85765415,0.1319385,-2.3841016,-0.073689036,1.7982675,0.75129795,0.03999901,0.039999824,-9.343434,-1.7448283433914185,2.4761348,-0.16950457,-0.22561602294445038,-0.10416426
501.1499999998729,0.08813504,-0.8585877,0.1336196,-2.384455,-0.07462969,1.8011643,0.75085557,0.039999,0.03999983,-9.330849,-1.7693439722061157,2.5050483,-0.17004594,-0.22628481686115265,-0.10420814
501.1666666665395,0.089244924,-0.85952353,0.1353047,-2.3848097,-0.07557259,1.8040681,0.7504122,0.039998986,0.039999828,-9.318229,-1.7940019369125366,2.5339453,-0.17056528,-0.22692927718162537,-0.10423708
501.1833333332062,0.09035735,-0.8604615,0.1369937,-2.3851652,-0.07651766,1.806979,0.7499677,0.03999896,0.039999828,-9.305452,-1.8187516927719116,2.562835,-0.17106417,-0.22755080461502075,-0.10425665
501.19999999987283,0.09147217,-0.8614015,0.13868636,-2.3855212,-0.077464804,1.8098953,0.74952227,0.039998945,0.039999828,-9.292424,-1.843588948249817,2.5916526,-0.17154066,-0.22814565896987915,-0.1042603
501.2166666665395,0.092589274,-0.8623433,0.1403824,-2.385878,-0.07841384,1.812818,0.7490759,0.039998937,0.039999824,-9.2792,-1.8684645891189575,2.620461,-0.17199582,-0.22871673107147217,-0.104246214
501.23333333320613,0.09370847,-0.86328703,0.14208168,-2.386236,-0.07936473,1.8157458,0.74862903,0.03999892,0.03999983,-9.265874,-1.8934941291809082,2.6491926,-0.17242944,-0.2292618602514267,-0.104225144
501.2499999998728,0.0948297,-0.8642323,0.14378399,-2.3865948,-0.080317296,1.8186796,0.7481811,0.03999889,0.039999824,-9.252348,-1.918559193611145,2.6779025,-0.17284305,-0.22978433966636658,-0.10418968
501.26666666653944,0.095952794,-0.86517906,0.14548911,-2.3869538,-0.08127151,1.8216177,0.74773234,0.03999888,0.039999828,-9.238663,-1.9437097311019897,2.706523,-0.17323302,-0.23028048872947693,-0.10413883
501.2833333332061,0.09707756,-0.86612755,0.14719683,-2.3873134,-0.08222718,1.8245599,0.7472831,0.039998867,0.03999983,-9.224703,-1.9689319133758545,2.7350812,-0.1736006,-0.23075079917907715,-0.104075916
501.29999999987274,0.098203935,-0.8670773,0.14890705,-2.3876734,-0.08318423,1.8275065,0.7468331,0.039998844,0.03999983,-9.210613,-1.9942320585250854,2.7636104,-0.17394742,-0.23119623959064484,-0.10400067
501.3166666665394,0.09933174,-0.86802816,0.15061948,-2.3880334,-0.08414247,1.8304571,0.7463824,0.039998822,0.039999828,-9.196328,-2.0196025371551514,2.792007,-0.17427082,-0.23161399364471436,-0.10391094
501.33333333320604,0.100460865,-0.8689803,0.15233383,-2.388394,-0.08510189,1.8334106,0.7459312,0.039998807,0.039999828,-9.181843,-2.045015573501587,2.8203504,-0.17457198,-0.2320031225681305,-0.10380843
501.3499999998727,0.10159113,-0.8699334,0.15404992,-2.3887548,-0.086062305,1.8363676,0.7454797,0.039998785,0.039999828,-9.167254,-2.0705013275146484,2.848642,-0.17485036,-0.23236775398254395,-0.1036941
501.36666666653934,0.102722466,-0.8708872,0.15576763,-2.389116,-0.087023616,1.8393283,0.7450277,0.039998766,0.039999828,-9.152452,-2.0960259437561035,2.8768284,-0.17510761,-0.23270365595817566,-0.10356564
501.383333333206,0.10385468,-0.8718419,0.15748665,-2.3894775,-0.087985665,1.8422906,0.7445753,0.039998755,0.039999828,-9.137496,-2.1216166019439697,2.9048781,-0.17534092,-0.2330087274312973,-0.10342249
501.39999999987265,0.104987636,-0.87279725,0.15920685,-2.3898392,-0.08894836,1.8452553,0.7441227,0.039998733,0.039999828,-9.122405,-2.1472842693328857,2.9329236,-0.17555209,-0.23329049348831177,-0.10327139
501.4166666665393,0.1061212,-0.87375313,0.16092789,-2.390201,-0.08991162,1.848221,0.74366975,0.039998706,0.03999982,-9.107109,-2.1729519367218018,2.960817,-0.17574032,-0.2335432916879654,-0.103105165
501.43333333320595,0.10725522,-0.8747093,0.16264968,-2.390563,-0.09087533,1.8511891,0.74321675,0.039998688,0.039999828,-9.091677,-2.198680877685547,2.9886293,-0.17590585,-0.23377102613449097,-0.10292906
501.4499999998726,0.10838956,-0.8756659,0.16437197,-2.390925,-0.091839306,1.8541576,0.74276364,0.039998677,0.03999983,-9.076029,-2.2244458198547363,3.0162756,-0.17604907,-0.23396596312522888,-0.10273818
501.46666666653925,0.10952411,-0.8766226,0.16609462,-2.3912868,-0.09280348,1.857126,0.7423104,0.03999865,0.039999828,-9.060282,-2.2502498626708984,3.0438952,-0.17616946,-0.2341361939907074,-0.1025365
501.4833333332059,0.110658735,-0.87757945,0.16781725,-2.3916488,-0.09376771,1.8600944,0.7418572,0.039998636,0.03999983,-9.04437,-2.276085138320923,3.0713673,-0.17626591,-0.23428066074848175,-0.1023215
501.49999999987256,0.11179327,-0.8785363,0.16953981,-2.3920107,-0.09473188,1.8630629,0.7414038,0.039998606,0.03999982,-9.028295,-2.3019330501556396,3.098717,-0.17634018,-0.23439836502075195,-0.102095045
501.5166666665392,0.11292757,-0.879493,0.171262,-2.3923726,-0.095695876,1.8660313,0.7409504,0.03999859,0.03999982,-9.012089,-2.3278307914733887,3.1259377,-0.17639017,-0.23448777198791504,-0.10185647
501.53333333320586,0.11406149,-0.88044935,0.17298368,-2.3927348,-0.09665957,1.8689994,0.74049723,0.03999857,0.03999982,-8.995696,-2.3537354469299316,3.153009,-0.17641644,-0.23454660177230835,-0.101607315
501.5499999998725,0.11519495,-0.8814051,0.17470452,-2.3930967,-0.097622894,1.8719643,0.74004436,0.039998543,0.039999813,-8.979232,-2.37966251373291,3.1799662,-0.1764197,-0.23457732796669006,-0.10134543
501.56666666653916,0.116327725,-0.8823604,0.17642444,-2.3934581,-0.09858567,1.8749287,0.73959166,0.039998524,0.039999813,-8.962659,-2.4056079387664795,3.206812,-0.17639987,-0.23459023237228394,-0.101074316
501.5833333332058,0.117459744,-0.8833151,0.1781432,-2.3938193,-0.09954778,1.8778901,0.7391393,0.0399985,0.039999805,-8.945771,-2.4315383434295654,3.2334435,-0.17635654,-0.23456762731075287,-0.100788884
501.59999999987247,0.11859084,-0.8842688,0.17986055,-2.3941805,-0.10050916,1.8808504,0.73868734,0.03999847,0.0399998,-8.928886,-2.4575183391571045,3.260011,-0.17629002,-0.23452237248420715,-0.10049599
501.6166666665391,0.11972087,-0.8852218,0.18157631,-2.3945415,-0.10146961,1.8838072,0.73823595,0.039998446,0.03999979,-8.911839,-2.48345685005188,3.2863467,-0.1761998,-0.23444490134716034,-0.100188516
501.63333333320577,0.12084973,-0.88617367,0.18329021,-2.3949022,-0.10242913,1.8867604,0.73778486,0.03999843,0.039999798,-8.894671,-2.5094268321990967,3.3125904,-0.1760868,-0.2343427538871765,-0.09987389
501.6499999998724,0.121977255,-0.8871247,0.18500212,-2.3952627,-0.10338749,1.88971,0.7373344,0.039998412,0.039999794,-8.877406,-2.535369873046875,3.3386714,-0.17594962,-0.23421697318553925,-0.0995456
501.6666666665391,0.12310328,-0.88807434,0.1867118,-2.3956227,-0.104344636,1.8926558,0.73688436,0.03999839,0.039999798,-8.859959,-2.5613269805908203,3.3645835,-0.17578956,-0.23406261205673218,-0.09920967
501.6833333332057,0.12422772,-0.8890227,0.18841897,-2.3959823,-0.10530043,1.8955977,0.73643494,0.039998367,0.039999798,-8.842411,-2.5872528553009033,3.390296,-0.1756051,-0.23388054966926575,-0.09886251
501.6999999998724,0.12535037,-0.8899697,0.19012348,-2.3963406,-0.10625474,1.8985351,0.7359865,0.039998345,0.039999798,-8.824731,-2.613149404525757,3.415861,-0.17539743,-0.2336699217557907,-0.09850611
501.716666666539,0.12647116,-0.8909151,0.1918252,-2.396698,-0.1072075,1.9014685,0.73553866,0.039998326,0.039999798,-8.806827,-2.639024257659912,3.4412456,-0.17516844,-0.23342709243297577,-0.09813651
501.7333333332057,0.1275899,-0.89185876,0.19352381,-2.397055,-0.10815854,1.9043957,0.7350918,0.039998304,0.039999798,-8.788863,-2.664907455444336,3.4664419,-0.17491506,-0.23315109312534332,-0.09775741
501.74999999987233,0.12870651,-0.89280057,0.19521907,-2.397411,-0.10910775,1.9073176,0.7346456,0.039998278,0.039999794,-8.770889,-2.690747022628784,3.4915266,-0.17463912,-0.2328519970178604,-0.097368926
501.766666666539,0.12982081,-0.8937405,0.19691093,-2.397766,-0.110055044,1.9102331,0.7342005,0.039998267,0.0399998,-8.752789,-2.7165534496307373,3.5163965,-0.17433955,-0.23252423107624054,-0.09697101
501.78333333320563,0.13093266,-0.8946784,0.198599,-2.3981206,-0.111000285,1.9131433,0.73375624,0.03999823,0.039999794,-8.734474,-2.7423336505889893,3.5410743,-0.17401737,-0.2321670800447464,-0.09656505
501.7999999998723,0.13204192,-0.8956142,0.20028326,-2.3984742,-0.11194343,1.9160464,0.73331296,0.039998226,0.0399998,-8.716186,-2.768040895462036,3.565579,-0.17367192,-0.23177941143512726,-0.09614387
501.81666666653894,0.1331485,-0.89654756,0.20196337,-2.3988276,-0.11288424,1.9189422,0.73287076,0.0399982,0.0399998,-8.697762,-2.7937569618225098,3.5898955,-0.17330252,-0.23136495053768158,-0.0957188
501.8333333332056,0.13425227,-0.8974786,0.20363916,-2.3991797,-0.11382267,1.9218305,0.7324298,0.039998174,0.0399998,-8.679376,-2.819417953491211,3.6140583,-0.1729102,-0.2309274822473526,-0.09528429
501.84999999987224,0.13535304,-0.8984072,0.20531045,-2.3995316,-0.11475857,1.9247111,0.7319899,0.039998155,0.0399998,-8.660752,-2.845012664794922,3.6379812,-0.17249519,-0.2304612100124359,-0.09483813
501.8666666665389,0.13645072,-0.89933324,0.20697705,-2.3998816,-0.11569187,1.9275838,0.73155135,0.03999813,0.0399998,-8.642128,-2.8705742359161377,3.661734,-0.17205676,-0.22996854782104492,-0.09438577
501.88333333320554,0.13754517,-0.90025663,0.20863876,-2.4002306,-0.11662243,1.9304478,0.731114,0.039998118,0.0399998,-8.623318,-2.8960413932800293,3.6852353,-0.17159599,-0.2294451892375946,-0.093920626
501.8999999998722,0.13863628,-0.9011769,0.2102953,-2.4005785,-0.11755014,1.9333028,0.7306781,0.039998084,0.039999798,-8.604483,-2.921491861343384,3.7085783,-0.17111196,-0.22889429330825806,-0.093451336
501.91666666653884,0.13972384,-0.9020945,0.21194653,-2.4009256,-0.11847492,1.9361489,0.73024356,0.03999806,0.0399998,-8.585588,-2.9468536376953125,3.7316997,-0.17060605,-0.22831714153289795,-0.09297368
501.9333333332055,0.14080782,-0.90300894,0.21359228,-2.401271,-0.11939665,1.9389852,0.7298105,0.03999805,0.039999813,-8.566675,-2.972134828567505,3.7546296,-0.17007753,-0.22771252691745758,-0.09248427
501.94999999987215,0.14188805,-0.9039202,0.21523231,-2.4016156,-0.12031517,1.941812,0.7293788,0.039998025,0.03999981,-8.547634,-2.997363805770874,3.777335,-0.16952597,-0.2270808070898056,-0.09198917
501.9666666665388,0.14296438,-0.90482825,0.21686645,-2.4019594,-0.12123042,1.9446287,0.7289488,0.039998002,0.03999981,-8.528556,-3.022522211074829,3.7998328,-0.16895194,-0.22642064094543457,-0.091484554
501.98333333320545,0.1440367,-0.90573287,0.2184945,-2.4023013,-0.122142255,1.9474348,0.7285204,0.039997976,0.03999981,-8.509499,-3.0476155281066895,3.8221638,-0.16835576,-0.2257353514432907,-0.090973295
501.9999999998721,0.14510487,-0.90663403,0.22011624,-2.4026418,-0.12305061,1.9502299,0.7280937,0.039997954,0.03999981,-8.490277,-3.0726003646850586,3.8442094,-0.16773768,-0.22502194344997406,-0.09045416
502.01666666653875,0.14616877,-0.9075316,0.2217315,-2.402981,-0.123955354,1.9530139,0.72766864,0.039997935,0.039999813,-8.471014,-3.0974979400634766,3.8660717,-0.16709769,-0.22428056597709656,-0.08992618
502.0333333332054,0.14722826,-0.9084254,0.22334006,-2.403319,-0.12485638,1.9557866,0.72724515,0.039997917,0.039999817,-8.451788,-3.1223132610321045,3.887725,-0.16643585,-0.22351324558258057,-0.0893908
502.04999999987206,0.14828323,-0.90931547,0.22494176,-2.4036555,-0.12575354,1.9585472,0.72682357,0.039997887,0.039999813,-8.432498,-3.147047519683838,3.9091408,-0.165751,-0.22271916270256042,-0.08885038
502.0666666665387,0.14933354,-0.91020167,0.22653645,-2.4039903,-0.12664683,1.9612956,0.72640395,0.03999788,0.039999824,-8.413189,-3.1716420650482178,3.9303632,-0.16504516,-0.22189949452877045,-0.08829936
502.08333333320536,0.1503791,-0.9110838,0.22812387,-2.4043233,-0.12753606,1.9640316,0.72598624,0.039997842,0.03999982,-8.393769,-3.196213483810425,3.9513352,-0.16431817,-0.22105178236961365,-0.08774561
502.099999999872,0.15141973,-0.91196173,0.22970386,-2.404655,-0.12842117,1.9667544,0.72557044,0.03999782,0.039999824,-8.374359,-3.2206192016601562,3.9720793,-0.16357012,-0.2201768159866333,-0.08718233
502.11666666653866,0.15245537,-0.9128356,0.23127623,-2.4049852,-0.12930205,1.9694647,0.7251567,0.039997805,0.039999824,-8.35504,-3.244939088821411,3.9926484,-0.16280049,-0.21928009390830994,-0.08661027
502.1333333332053,0.15348583,-0.91370517,0.2328408,-2.4053142,-0.13017857,1.9721614,0.7247451,0.039997783,0.03999983,-8.335591,-3.269164800643921,4.012943,-0.16201033,-0.21835288405418396,-0.08603509
502.14999999987197,0.1545111,-0.9145701,0.23439741,-2.4056408,-0.13105065,1.9748441,0.7243354,0.039997753,0.039999828,-8.31624,-3.2932651042938232,4.0330667,-0.16119926,-0.21740436553955078,-0.08545212
502.1666666665386,0.155531,-0.91543084,0.23594585,-2.4059658,-0.13191819,1.9775131,0.72392803,0.039997734,0.039999828,-8.296715,-3.3172261714935303,4.052865,-0.16036662,-0.21642696857452393,-0.084860414
502.18333333320527,0.1565454,-0.91628665,0.23748598,-2.4062889,-0.13278101,1.9801676,0.72352284,0.0399977,0.039999828,-8.277261,-3.341113805770874,4.072522,-0.1595147,-0.2154219001531601,-0.084267914
502.1999999998719,0.15755418,-0.9171381,0.23901756,-2.4066105,-0.13363917,1.9828076,0.7231197,0.039997693,0.03999984,-8.257886,-3.3648018836975098,4.0919127,-0.158642,-0.21439382433891296,-0.083664194
502.2166666665386,0.15855725,-0.9179845,0.2405405,-2.40693,-0.1344924,1.9854326,0.7227191,0.039997667,0.03999983,-8.238412,-3.38844895362854,4.1110992,-0.15774824,-0.21333914995193481,-0.083053775
502.2333333332052,0.15955448,-0.91882586,0.24205458,-2.4072473,-0.13534065,1.9880424,0.72232074,0.039997645,0.03999983,-8.219032,-3.4119510650634766,4.1300287,-0.15683585,-0.21226023137569427,-0.082440436
502.2499999998719,0.16054575,-0.9196624,0.24355964,-2.407563,-0.1361839,1.9906366,0.72192466,0.039997626,0.03999984,-8.199589,-3.435293674468994,4.148725,-0.15590347,-0.2111552655696869,-0.081821434
502.2666666665385,0.16153099,-0.9204939,0.2450555,-2.4078772,-0.13702202,1.9932148,0.7215311,0.03999761,0.03999984,-8.1802,-3.458502769470215,4.1672144,-0.15495089,-0.21002496778964996,-0.08119294
502.2833333332052,0.1625101,-0.9213202,0.246542,-2.4081886,-0.1378549,1.9957769,0.7211398,0.039997585,0.039999846,-8.160944,-3.4816231727600098,4.1854925,-0.15397894,-0.2088734656572342,-0.08056553
502.29999999987183,0.16348284,-0.9221412,0.24801895,-2.4084985,-0.13868253,1.9983225,0.7207512,0.039997566,0.039999858,-8.14151,-3.5045361518859863,4.2034817,-0.1529872,-0.20769467949867249,-0.079932064
502.3166666665385,0.16444926,-0.92295665,0.2494862,-2.4088063,-0.13950469,2.0008516,0.7203651,0.03999754,0.03999985,-8.122309,-3.5272834300994873,4.2212887,-0.15197736,-0.20649468898773193,-0.079288885
502.33333333320513,0.16540912,-0.9237667,0.25094354,-2.4091125,-0.14032136,2.0033634,0.71998173,0.039997526,0.039999858,-8.103039,-3.549975872039795,4.2388186,-0.15094844,-0.20526953041553497,-0.078642614
502.3499999998718,0.16636245,-0.92457116,0.2523909,-2.409416,-0.14113241,2.0058577,0.7196008,0.0399975,0.039999858,-8.083913,-3.5724754333496094,4.2561855,-0.14990166,-0.2040257751941681,-0.07799262
502.36666666653844,0.1673091,-0.9253701,0.25382808,-2.4097178,-0.14193782,2.0083349,0.7192228,0.03999748,0.03999986,-8.064679,-3.5948121547698975,4.2732353,-0.1488356,-0.20275624096393585,-0.07733801
502.3833333332051,0.16824886,-0.9261633,0.25525498,-2.4100173,-0.1427374,2.0107942,0.71884745,0.039997462,0.039999858,-8.045613,-3.6170029640197754,4.290112,-0.14775245,-0.20146377384662628,-0.076675124
502.39999999987174,0.16918175,-0.9269507,0.2566714,-2.410314,-0.14353116,2.0132358,0.7184747,0.039997436,0.039999865,-8.026547,-3.639052152633667,4.3067245,-0.14665128,-0.20014777779579163,-0.07601339
502.4166666665384,0.17010762,-0.92773205,0.25807709,-2.4106095,-0.14431901,2.0156589,0.7181051,0.039997414,0.039999865,-8.007499,-3.6608974933624268,4.3231,-0.14553197,-0.19880664348602295,-0.07534447
502.43333333320504,0.1710264,-0.92850745,0.259472,-2.4109018,-0.14510074,2.0180635,0.71773803,0.039997403,0.039999872,-7.9886765,-3.6825990676879883,4.339293,-0.14439669,-0.19744813442230225,-0.07466997
502.4499999998717,0.17193796,-0.92927694,0.260856,-2.411192,-0.14587638,2.0204496,0.71737397,0.03999738,0.039999876,-7.9697394,-3.704089641571045,4.35519,-0.1432437,-0.19606269896030426,-0.07399361
502.46666666653834,0.17284225,-0.93004024,0.26222897,-2.4114795,-0.14664587,2.0228162,0.71701294,0.039997354,0.039999876,-7.950923,-3.725492000579834,4.3709126,-0.1420745,-0.19465574622154236,-0.07331285
502.483333333205,0.17373909,-0.93079716,0.26359057,-2.411765,-0.14740908,2.0251634,0.7166546,0.039997336,0.03999988,-7.9322233,-3.7466986179351807,4.386383,-0.1408884,-0.19322863221168518,-0.07262818
502.49999999987165,0.17462848,-0.93154794,0.26494098,-2.4120483,-0.14816593,2.027491,0.71629936,0.039997324,0.039999884,-7.913647,-3.767688035964966,4.401644,-0.13968591,-0.19178225100040436,-0.071937114
502.5166666665383,0.17551029,-0.9322923,0.2662798,-2.4123285,-0.14891632,2.029799,0.71594733,0.039997295,0.03999988,-7.8950806,-3.788569211959839,4.416664,-0.13846706,-0.19031481444835663,-0.071245745
502.53333333320495,0.17638445,-0.9330301,0.267607,-2.4126072,-0.14966023,2.0320866,0.71559817,0.039997265,0.039999884,-7.8765526,-3.8092093467712402,4.431432,-0.13723437,-0.18882441520690918,-0.070552915
502.5499999998716,0.17725083,-0.93376136,0.26892248,-2.4128833,-0.15039755,2.034354,0.715252,0.039997257,0.039999887,-7.8583446,-3.8296988010406494,4.446046,-0.13598427,-0.18731935322284698,-0.069851786
502.56666666653825,0.17810933,-0.93448627,0.270226,-2.413156,-0.15112825,2.0366013,0.7149091,0.03999724,0.03999989,-7.84009,-3.849963903427124,4.460363,-0.13471843,-0.18579451739788055,-0.06915027
502.5833333332049,0.17896,-0.93520427,0.27151752,-2.4134274,-0.15185213,2.0388274,0.71456957,0.03999721,0.039999887,-7.821757,-3.870086669921875,4.474433,-0.13343942,-0.18424329161643982,-0.06844516
502.59999999987156,0.17980266,-0.9359157,0.27279684,-2.4136958,-0.15256932,2.0410326,0.7142329,0.039997198,0.0399999,-7.80391,-3.890043020248413,4.488389,-0.132146,-0.1826811283826828,-0.067738056
502.6166666665382,0.18063721,-0.93662024,0.27406394,-2.413961,-0.15327963,2.0432162,0.7138995,0.03999718,0.039999906,-7.785885,-3.9097678661346436,4.50204,-0.13083701,-0.18109826743602753,-0.067029946
502.63333333320486,0.18146363,-0.9373179,0.2753187,-2.414224,-0.153983,2.045379,0.7135694,0.039997168,0.039999906,-7.7680006,-3.9292731285095215,4.515465,-0.12951453,-0.17949727177619934,-0.06631294
502.6499999998715,0.18228178,-0.93800867,0.2765609,-2.4144845,-0.15467936,2.0475202,0.71324277,0.03999715,0.039999913,-7.7503037,-3.9486422538757324,4.528684,-0.12817821,-0.1778765320777893,-0.06559828
502.66666666653816,0.18309163,-0.9386924,0.27779052,-2.414742,-0.15536867,2.0496395,0.71291953,0.039997123,0.03999991,-7.7327666,-3.9677891731262207,4.541703,-0.12682916,-0.17623932659626007,-0.06488032
502.6833333332048,0.18389305,-0.9393691,0.27900735,-2.4149969,-0.1560508,2.0517373,0.7125994,0.039997105,0.039999913,-7.7152653,-3.9867327213287354,4.5544915,-0.12546778,-0.1745852530002594,-0.064160034
502.69999999987147,0.18468608,-0.9400384,0.2802113,-2.4152493,-0.15672578,2.0538123,0.71228266,0.039997093,0.039999917,-7.697931,-4.005416393280029,4.5670652,-0.12409289,-0.17291158437728882,-0.0634363
502.7166666665381,0.18547054,-0.9407003,0.2814023,-2.4154987,-0.15739352,2.0558653,0.7119692,0.03999707,0.039999917,-7.680785,-4.024022102355957,4.5794296,-0.12270527,-0.17122749984264374,-0.062713236
502.73333333320477,0.1862464,-0.9413557,0.28258032,-2.4157455,-0.158054,2.0578957,0.7116592,0.039997056,0.039999925,-7.6636777,-4.042351722717285,4.5915356,-0.12130514,-0.1695239245891571,-0.06198772
502.7499999998714,0.18701367,-0.94200367,0.28374505,-2.4159899,-0.15870707,2.0599039,0.71135277,0.039997045,0.03999993,-7.646681,-4.060482501983643,4.603508,-0.119893774,-0.16780449450016022,-0.061257187
502.7666666665381,0.18777211,-0.9426441,0.28489664,-2.416231,-0.15935272,2.0618887,0.71104985,0.03999702,0.03999993,-7.6299405,-4.078419208526611,4.6152287,-0.11847182,-0.16606813669204712,-0.060530636
502.7833333332047,0.18852177,-0.9432771,0.28603488,-2.4164698,-0.1599909,2.0638506,0.71075064,0.03999701,0.039999936,-7.6132755,-4.096112251281738,4.6267242,-0.11703852,-0.16431927680969238,-0.059797436
502.7999999998714,0.18926261,-0.94390255,0.28715974,-2.4167056,-0.16062154,2.0657895,0.710455,0.039996993,0.039999943,-7.596862,-4.113644123077393,4.638048,-0.11559545,-0.16255860030651093,-0.05906751
502.816666666538,0.18999453,-0.94452053,0.28827113,-2.4169378,-0.1612446,2.0677054,0.7101629,0.03999697,0.039999943,-7.5805244,-4.130874156951904,4.649128,-0.11414217,-0.16078200936317444,-0.058335032
502.8333333332047,0.1907175,-0.9451309,0.28936884,-2.4171684,-0.16186008,2.069598,0.70987403,0.03999696,0.039999947,-7.564238,-4.147982120513916,4.6600037,-0.11267913,-0.1589895784854889,-0.057598308
502.84999999987133,0.19143142,-0.9457337,0.2904528,-2.4173954,-0.16246784,2.0714664,0.7095888,0.03999695,0.039999958,-7.5483384,-4.164876937866211,4.670734,-0.111204185,-0.1571870595216751,-0.056864128
502.866666666538,0.19213629,-0.94632906,0.291523,-2.4176192,-0.16306788,2.0733116,0.7093073,0.039996926,0.039999954,-7.532385,-4.18149471282959,4.6812057,-0.10972168,-0.15537086129188538,-0.0561291
502.88333333320463,0.19283202,-0.9469167,0.29257944,-2.4178412,-0.16366021,2.075133,0.7090295,0.039996907,0.039999954,-7.5166154,-4.197901725769043,4.691473,-0.10823079,-0.1535390168428421,-0.05539149
502.8999999998713,0.19351862,-0.94749653,0.293622,-2.4180593,-0.16424477,2.07693,0.70875525,0.039996896,0.039999958,-7.501239,-4.214141845703125,4.7016325,-0.10673061,-0.15170083940029144,-0.054652654
502.91666666653794,0.19419603,-0.94806844,0.29465058,-2.4182744,-0.16482142,2.078703,0.7084847,0.03999689,0.03999996,-7.4857783,-4.230104446411133,4.711499,-0.10522234,-0.14984995126724243,-0.05391226
502.9333333332046,0.19486414,-0.9486327,0.29566514,-2.418487,-0.16539028,2.0804517,0.7082178,0.03999687,0.039999966,-7.47058,-4.245889186859131,4.721178,-0.103706524,-0.14798690378665924,-0.05317668
502.94999999987124,0.19552298,-0.9491891,0.29666552,-2.4186964,-0.16595119,2.0821764,0.7079546,0.039996855,0.039999966,-7.4556637,-4.261378765106201,4.730746,-0.10218302,-0.14611634612083435,-0.052437134
502.9666666665379,0.19617248,-0.94973767,0.2976518,-2.418903,-0.16650423,2.0838764,0.7076952,0.039996844,0.039999966,-7.44075,-4.2767229080200195,4.7400317,-0.100652665,-0.14423425495624542,-0.051696613
502.98333333320454,0.19681263,-0.9502782,0.29862377,-2.4191067,-0.16704926,2.085552,0.7074395,0.039996825,0.039999966,-7.4261403,-4.291835784912109,4.7491946,-0.099116124,-0.14234484732151031,-0.05095878
502.9999999998712,0.19744337,-0.95081097,0.2995816,-2.4193065,-0.16758633,2.0872028,0.70718765,0.039996803,0.039999966,-7.411663,-4.306700229644775,4.7581296,-0.09757363,-0.14044611155986786,-0.05022271
503.01666666653784,0.1980647,-0.9513356,0.300525,-2.419505,-0.16811532,2.088829,0.7069397,0.0399968,0.039999966,-7.397269,-4.32130765914917,4.7668533,-0.09602602,-0.13853603601455688,-0.049481176
503.0333333332045,0.19867654,-0.9518522,0.30145413,-2.4196987,-0.16863632,2.090431,0.70669556,0.039996784,0.03999997,-7.3834224,-4.335770130157471,4.775531,-0.09447298,-0.1366264373064041,-0.04874592
503.04999999987115,0.19927895,-0.952361,0.3023688,-2.4198902,-0.16914919,2.0920076,0.7064551,0.039996766,0.039999966,-7.3692894,-4.349904537200928,4.783831,-0.09291604,-0.13470065593719482,-0.048008475
503.0666666665378,0.19987184,-0.95286185,0.30326906,-2.4200795,-0.16965403,2.0935593,0.7062184,0.03999675,0.03999997,-7.3557076,-4.363834381103516,4.7921367,-0.091353856,-0.132772758603096,-0.047273777
503.08333333320445,0.20045516,-0.95335454,0.30415493,-2.4202642,-0.17015076,2.095086,0.70598567,0.039996736,0.039999973,-7.342233,-4.377631664276123,4.8002114,-0.08978709,-0.1308422088623047,-0.04654049
503.0999999998711,0.20102893,-0.9538393,0.30502623,-2.4204466,-0.17063941,2.0965889,0.70575666,0.039996732,0.03999998,-7.3287654,-4.391098499298096,4.8079996,-0.08821795,-0.1288999319076538,-0.045806084
503.11666666653775,0.20159318,-0.954316,0.30588296,-2.420626,-0.17111991,2.098065,0.70553154,0.039996725,0.039999984,-7.315686,-4.40436315536499,4.815738,-0.08664521,-0.12695185840129852,-0.04507148
503.1333333332044,0.20214784,-0.9547845,0.30672523,-2.4208014,-0.17159224,2.0995173,0.7053102,0.039996717,0.03999999,-7.3027797,-4.417396068572998,4.823292,-0.08507044,-0.12500564754009247,-0.04434051
503.14999999987106,0.2026929,-0.9552449,0.30755296,-2.4209754,-0.17205642,2.1009438,0.7050927,0.0399967,0.039999995,-7.289952,-4.430200576782227,4.8305902,-0.08349338,-0.12304633855819702,-0.04361238
503.1666666665377,0.20322835,-0.9556971,0.30836606,-2.4211445,-0.17251244,2.102345,0.70487905,0.03999669,0.039999995,-7.2776847,-4.442811489105225,4.8379006,-0.08191312,-0.12109548598527908,-0.042882964
503.18333333320436,0.20375422,-0.95614135,0.30916446,-2.4213116,-0.17296024,2.1037219,0.7046692,0.039996684,0.04,-7.265109,-4.455081939697266,4.8448243,-0.08033313,-0.1191343441605568,-0.04215388
503.199999999871,0.20427044,-0.9565776,0.3099484,-2.4214768,-0.17339985,2.105073,0.70446306,0.039996665,0.039999995,-7.253186,-4.467171669006348,4.851774,-0.07875209,-0.1171717643737793,-0.041430146
503.21666666653766,0.20477708,-0.95700556,0.31071782,-2.421637,-0.1738313,2.106399,0.70426095,0.039996654,0.039999995,-7.241388,-4.479151248931885,4.85854,-0.07716906,-0.11521518975496292,-0.040709343
503.2333333332043,0.2052741,-0.9574255,0.3114726,-2.4217958,-0.17425455,2.1077006,0.70406276,0.039996643,0.04,-7.229474,-4.490744590759277,4.8649774,-0.0755874,-0.11324901133775711,-0.03998924
503.24999999987097,0.2057616,-0.95783734,0.31221282,-2.4219496,-0.17466967,2.1089764,0.70386827,0.039996628,0.04,-7.218187,-4.502207279205322,4.871472,-0.07400615,-0.11128726601600647,-0.039273884
503.2666666665376,0.20623942,-0.95824087,0.31293854,-2.422101,-0.17507665,2.1102273,0.7036774,0.039996624,0.04,-7.206699,-4.513331413269043,4.8776264,-0.07242597,-0.10932055860757828,-0.038556345
503.28333333320427,0.20670767,-0.9586366,0.31364965,-2.422251,-0.1754754,2.1114528,0.7034905,0.039996613,0.04,-7.1957293,-4.5243144035339355,4.8837366,-0.070845634,-0.10735636949539185,-0.037842162
503.2999999998709,0.20716631,-0.959024,0.31434622,-2.4223957,-0.17586605,2.1126533,0.7033073,0.039996598,0.04,-7.1850924,-4.535090446472168,4.889787,-0.069267094,-0.10540151596069336,-0.03713592
503.31666666653757,0.20761545,-0.95940346,0.31502828,-2.4225388,-0.17624858,2.113829,0.70312804,0.03999659,0.04,-7.1742735,-4.54545259475708,4.895482,-0.06769189,-0.10344123840332031,-0.03642839
503.3333333332042,0.20805506,-0.9597751,0.31569594,-2.4226792,-0.17662293,2.114979,0.7029526,0.039996587,0.04,-7.1639724,-4.555802345275879,4.9011803,-0.066119224,-0.10148753225803375,-0.035723977
503.3499999998709,0.20848516,-0.96013856,0.31634912,-2.422815,-0.17698923,2.116105,0.70278084,0.03999657,0.04,-7.153813,-4.5658721923828125,4.9067283,-0.06455003,-0.09954078495502472,-0.03502689
503.3666666665375,0.20890579,-0.9604939,0.31698787,-2.4229498,-0.17734747,2.1172059,0.70261294,0.039996576,0.04,-7.143657,-4.575606346130371,4.9119906,-0.06298456,-0.09758895635604858,-0.034326904
503.3833333332042,0.20931692,-0.96084136,0.3176123,-2.4230788,-0.17769763,2.1182818,0.70244867,0.03999656,0.04,-7.134117,-4.585246562957764,4.917306,-0.061422557,-0.09565047919750214,-0.033635072
503.39999999987083,0.20971859,-0.961181,0.31822237,-2.4232063,-0.17803977,2.1193337,0.70228815,0.03999655,0.04,-7.124238,-4.5945210456848145,4.922254,-0.059866827,-0.09370528161525726,-0.032945607
503.4166666665375,0.21011087,-0.96151245,0.31881824,-2.4233322,-0.17837393,2.1203606,0.7021315,0.039996542,0.04,-7.1150875,-4.603672027587891,4.927302,-0.058315597,-0.09177127480506897,-0.032258797
503.43333333320413,0.21049382,-0.96183604,0.31939986,-2.4234529,-0.17870015,2.121363,0.7019786,0.039996535,0.04,-7.1061835,-4.612631797790527,4.9321957,-0.056769192,-0.08985258638858795,-0.031580128
503.4499999998708,0.21086746,-0.96215194,0.31996724,-2.4235718,-0.1790185,2.1223416,0.7018295,0.039996527,0.04,-7.097046,-4.621168613433838,4.936764,-0.055231053,-0.08793055266141891,-0.030902505
503.46666666653744,0.21123181,-0.96245986,0.32052055,-2.4236896,-0.17932881,2.1232953,0.7016842,0.039996523,0.04,-7.088461,-4.629693508148193,4.9413853,-0.05369922,-0.08601921796798706,-0.030227605
503.4833333332041,0.21158691,-0.96276,0.32105988,-2.4238017,-0.17963128,2.1242251,0.7015425,0.039996527,0.04,-7.0802455,-4.637956619262695,4.945912,-0.052174293,-0.0841270387172699,-0.029558495
503.49999999987074,0.21193281,-0.96305233,0.32158527,-2.423912,-0.17992596,2.1251304,0.7014045,0.03999651,0.04,-7.0716677,-4.645899295806885,4.950056,-0.05065892,-0.08223135024309158,-0.028897762
503.5166666665374,0.2122696,-0.963337,0.32209682,-2.4240177,-0.18021287,2.1260118,0.70127016,0.039996505,0.04,-7.063797,-4.653698444366455,4.9543147,-0.04915109,-0.08035304397344589,-0.02823958
503.53333333320404,0.21259733,-0.963614,0.32259464,-2.4241211,-0.18049203,2.12687,0.7011394,0.0399965,0.04,-7.0557327,-4.661198616027832,4.9582677,-0.04765356,-0.07847610116004944,-0.027584774
503.5499999998707,0.21291606,-0.9638833,0.32307872,-2.4242237,-0.18076351,2.1277044,0.7010123,0.039996494,0.04,-7.0482464,-4.66857385635376,4.9622607,-0.046164505,-0.07661352306604385,-0.026936123
503.56666666653734,0.2132258,-0.96414506,0.32354918,-2.424321,-0.1810274,2.1285152,0.7008887,0.039996486,0.04,-7.041155,-4.675699234008789,4.9662037,-0.044684812,-0.07477134466171265,-0.026294906
503.583333333204,0.21352667,-0.96439934,0.32400614,-2.4244163,-0.18128368,2.129303,0.7007687,0.039996475,0.04,-7.0336237,-4.682569980621338,4.969748,-0.04321728,-0.07293125241994858,-0.025658054
503.59999999987065,0.21381867,-0.96464616,0.32444978,-2.424511,-0.18153247,2.1300673,0.70065206,0.03999648,0.04,-7.0268097,-4.689285755157471,4.9734144,-0.041760247,-0.07110890746116638,-0.025024762
503.6166666665373,0.21410196,-0.96488565,0.32487997,-2.4245992,-0.18177383,2.1308086,0.70053893,0.039996475,0.04,-7.020303,-4.695831298828125,4.9770045,-0.040312774,-0.06931066513061523,-0.024401465
503.63333333320395,0.21437657,-0.9651179,0.32529727,-2.4246867,-0.18200779,2.131527,0.7004292,0.03999648,0.04,-7.013351,-4.701971054077148,4.9801927,-0.038880646,-0.06751349568367004,-0.023779338
503.6499999998706,0.21464258,-0.96534294,0.3257014,-2.424773,-0.18223438,2.1322236,0.70032305,0.039996468,0.04,-7.0072417,-4.708127975463867,4.9835525,-0.037458524,-0.06573952734470367,-0.023167433
503.66666666653725,0.21490008,-0.9655608,0.32609254,-2.4248533,-0.18245377,2.132898,0.7002202,0.039996453,0.04,-7.001325,-4.714017391204834,4.9868035,-0.036050316,-0.06398672610521317,-0.022565525
503.6833333332039,0.21514913,-0.9657713,0.32647088,-2.424933,-0.182666,2.1335502,0.7001208,0.039996453,0.04,-6.9949975,-4.719536304473877,4.9896564,-0.034658123,-0.06223522126674652,-0.021962862
503.69999999987056,0.21538979,-0.9659748,0.32683665,-2.42501,-0.18287112,2.1341803,0.7000247,0.039996453,0.04,-6.9895906,-4.72499418258667,4.992745,-0.033278976,-0.06051240861415863,-0.021370567
503.7166666665372,0.2156222,-0.9661715,0.32718977,-2.4250824,-0.18306918,2.1347888,0.69993204,0.039996453,0.04,-6.98407,-4.730289459228516,4.9955792,-0.031914804,-0.058809030801057816,-0.020785343
503.73333333320386,0.21584655,-0.9663613,0.3275305,-2.425154,-0.1832603,2.1353755,0.69984245,0.03999645,0.04,-6.9785285,-4.735260009765625,4.998247,-0.030569103,-0.05711723491549492,-0.020207256
503.7499999998705,0.21606272,-0.9665441,0.32785904,-2.425223,-0.18344456,2.135942,0.6997562,0.039996445,0.04,-6.973635,-4.740151405334473,5.0010066,-0.029237192,-0.055453162640333176,-0.019637354
503.76666666653716,0.21627103,-0.96672034,0.32817554,-2.425288,-0.18362212,2.1364875,0.69967306,0.039996445,0.04,-6.9687653,-4.744795799255371,5.0035534,-0.027923187,-0.053809478878974915,-0.019075241
503.7833333332038,0.21647148,-0.9668898,0.32848006,-2.4253519,-0.18379292,2.1370127,0.69959307,0.039996445,0.04,-6.963814,-4.749197483062744,5.0059304,-0.0266266,-0.052178289741277695,-0.018518213
503.79999999987047,0.2166642,-0.96705276,0.32877287,-2.4254143,-0.1839572,2.1375172,0.6995161,0.039996438,0.04,-6.959493,-4.75351095199585,5.008391,-0.025347864,-0.05057601258158684,-0.017974826
503.8166666665371,0.21684927,-0.9672092,0.32905412,-2.4254715,-0.18411493,2.1380024,0.69944227,0.039996438,0.04,-6.9553604,-4.757574558258057,5.010771,-0.024086304,-0.049003805965185165,-0.017438296
503.83333333320377,0.21702683,-0.96735966,0.32932395,-2.425528,-0.18426628,2.138467,0.6993715,0.03999644,0.04,-6.950815,-4.761404037475586,5.012784,-0.022846568,-0.04744061082601547,-0.01690568
503.8499999998704,0.21719702,-0.96750355,0.3295826,-2.4255834,-0.18441132,2.1389127,0.69930345,0.039996438,0.04,-6.947062,-4.765166282653809,5.0150313,-0.021626478,-0.045910947024822235,-0.016385375
503.86666666653707,0.2173599,-0.9676413,0.3298303,-2.4256337,-0.18455012,2.1393394,0.6992384,0.03999644,0.04,-6.943495,-4.76872444152832,5.017124,-0.020424195,-0.044413696974515915,-0.015873728
503.8833333332037,0.21751565,-0.96777314,0.33006695,-2.4256825,-0.18468283,2.1397474,0.69917613,0.039996434,0.04,-6.939549,-4.772004127502441,5.0189056,-0.01924582,-0.04292895644903183,-0.015372473
503.8999999998704,0.21766442,-0.9678992,0.33029315,-2.425731,-0.18480967,2.1401372,0.69911665,0.039996423,0.04,-6.9362655,-4.775181770324707,5.020857,-0.018089127,-0.0414755754172802,-0.01488304
503.916666666537,0.21780628,-0.96801937,0.33050886,-2.425776,-0.18493067,2.1405087,0.69906,0.039996423,0.04,-6.9332333,-4.778246879577637,5.0227513,-0.016952481,-0.04005656763911247,-0.014400548
503.9333333332037,0.21794143,-0.9681338,0.33071432,-2.4258173,-0.18504594,2.1408625,0.6990061,0.039996423,0.04,-6.9300594,-4.781038284301758,5.0244207,-0.01584063,-0.03866367042064667,-0.013927396
503.94999999987033,0.21807003,-0.96824265,0.33090982,-2.425858,-0.1851556,2.1411994,0.69895464,0.039996415,0.04,-6.9269853,-4.783618927001953,5.0259843,-0.0147537775,-0.03729267790913582,-0.013465619
503.966666666537,0.21819215,-0.9683461,0.33109552,-2.4258976,-0.18525979,2.1415193,0.6989059,0.039996415,0.04,-6.9244404,-4.786214351654053,5.027645,-0.013689112,-0.03595733642578125,-0.013014531
503.98333333320363,0.218308,-0.9684442,0.3312717,-2.425934,-0.18535869,2.1418226,0.69885963,0.039996415,0.04,-6.9220037,-4.788577556610107,5.029222,-0.012649727,-0.03465883433818817,-0.012573875
503.9999999998703,0.21841772,-0.96853715,0.33143857,-2.4259677,-0.18545236,2.14211,0.69881576,0.039996415,0.04,-6.919451,-4.790741920471191,5.0305843,-0.011636075,-0.033387139439582825,-0.012143023
504.01666666653693,0.21852145,-0.968625,0.33159634,-2.4260006,-0.18554085,2.1423821,0.69877446,0.039996415,0.04,-6.917125,-4.792750835418701,5.031932,-0.010649293,-0.032144710421562195,-0.011722944
504.0333333332036,0.21861939,-0.968708,0.33174527,-2.4260325,-0.18562444,2.142639,0.69873536,0.039996423,0.04,-6.915153,-4.7946600914001465,5.0332966,-0.009689746,-0.030938725918531418,-0.011314185
504.04999999987024,0.2187117,-0.9687861,0.3318856,-2.4260619,-0.18570314,2.1428807,0.6986985,0.039996423,0.04,-6.9133277,-4.796442031860352,5.034604,-0.008756745,-0.029771389439702034,-0.01091944
504.0666666665369,0.2187985,-0.9688598,0.33201763,-2.4260883,-0.1857772,2.143108,0.69866383,0.039996423,0.04,-6.9114776,-4.798001289367676,5.0357757,-0.007852474,-0.028637588024139404,-0.010536504
504.08333333320354,0.21888001,-0.9689288,0.3321417,-2.4261138,-0.18584679,2.1433213,0.6986313,0.039996427,0.04,-6.909664,-4.799449920654297,5.0368595,-0.0069780713,-0.027536172419786453,-0.010163516
504.0999999998702,0.21895635,-0.9689936,0.33225796,-2.4261389,-0.18591201,2.143521,0.6986007,0.03999643,0.04,-6.9082274,-4.800818920135498,5.0379624,-0.006132139,-0.026473915204405785,-0.009804808
504.11666666653684,0.21902782,-0.9690543,0.3323667,-2.426163,-0.18597302,2.143709,0.6985722,0.03999643,0.04,-6.907029,-4.802058696746826,5.0390983,-0.0053156693,-0.025457892566919327,-0.009460173
504.1333333332035,0.2190945,-0.96911097,0.3324682,-2.426184,-0.18602996,2.1438844,0.69854563,0.039996427,0.04,-6.9058,-4.803162097930908,5.040061,-0.0045304163,-0.024475891143083572,-0.009129783
504.14999999987015,0.21915664,-0.9691637,0.33256283,-2.4262028,-0.18608302,2.1440468,0.6985209,0.039996427,0.04,-6.904465,-4.804057598114014,5.040911,-0.0037780863,-0.02352728694677353,-0.00881028
504.1666666665368,0.2192144,-0.96921295,0.33265084,-2.4262204,-0.18613237,2.1441991,0.6984978,0.03999643,0.04,-6.903387,-4.804880619049072,5.041773,-0.0030585285,-0.02262127958238125,-0.008503221
504.18333333320345,0.21926798,-0.96925867,0.3327325,-2.4262378,-0.18617822,2.1443388,0.6984765,0.03999643,0.04,-6.902498,-4.805630207061768,5.042621,-0.0023713643,-0.021751318126916885,-0.0082109645
504.1999999998701,0.21931766,-0.96930087,0.33280817,-2.4262543,-0.18622069,2.1444693,0.6984564,0.03999643,0.04,-6.9018707,-4.8062543869018555,5.043535,-0.0017178501,-0.020935704931616783,-0.007933953
504.21666666653675,0.21936356,-0.9693397,0.33287814,-2.4262698,-0.18625991,2.1445901,0.698438,0.039996427,0.04,-6.9012184,-4.80682373046875,5.044271,-0.0010965221,-0.02016039937734604,-0.0076732063
504.2333333332034,0.21940583,-0.96937585,0.33294275,-2.4262826,-0.18629612,2.1447015,0.698421,0.039996423,0.04,-6.9006934,-4.8072614669799805,5.044994,-0.00051089184,-0.019429026171565056,-0.007427816
504.24999999987006,0.2194448,-0.96940887,0.33300245,-2.426294,-0.18632951,2.1448038,0.6984056,0.039996423,0.04,-6.8999987,-4.807528018951416,5.0456195,3.730689e-05,-0.01873745210468769,-0.0071944497
504.2666666665367,0.2194807,-0.9694395,0.33305734,-2.4263048,-0.1863603,2.1448982,0.69839114,0.039996427,0.04,-6.8996058,-4.807778835296631,5.046266,0.0005484718,-0.01809309422969818,-0.0069758547
504.28333333320336,0.21951368,-0.9694675,0.33310756,-2.4263148,-0.1863886,2.1449852,0.6983779,0.039996427,0.04,-6.899248,-4.807923316955566,5.04689,0.0010236508,-0.017491992563009262,-0.006773445
504.29999999987,0.21954411,-0.96949327,0.33315384,-2.4263246,-0.18641469,2.145065,0.69836557,0.039996427,0.04,-6.89909,-4.807991981506348,5.047527,0.0014597907,-0.016940556466579437,-0.0065879957
504.31666666653666,0.21957207,-0.96951693,0.33319652,-2.4263337,-0.18643863,2.1451373,0.6983543,0.039996427,0.04,-6.898969,-4.808089733123779,5.0481257,0.0018630198,-0.016436485573649406,-0.006417918
504.3333333332033,0.21959776,-0.96953875,0.3332359,-2.4263425,-0.1864607,2.145205,0.698344,0.039996427,0.04,-6.8988085,-4.808181285858154,5.0486565,0.002233763,-0.015978587791323662,-0.006261985
504.34999999986996,0.21962139,-0.9695588,0.333272,-2.4263513,-0.18648101,2.1452682,0.6983346,0.039996427,0.04,-6.8986588,-4.808266639709473,5.0491157,0.0025754268,-0.015554084442555904,-0.006118102
504.3666666665366,0.21964307,-0.96957725,0.3333052,-2.426359,-0.18649974,2.1453252,0.6983258,0.039996427,0.04,-6.8985615,-4.808328151702881,5.0495644,0.0028895517,-0.015162394382059574,-0.00598613
504.38333333320327,0.21966305,-0.9695944,0.33333582,-2.4263654,-0.18651696,2.145378,0.69831795,0.039996427,0.04,-6.898372,-4.808347702026367,5.0499544,0.0031783793,-0.014805200509727001,-0.00586441
504.3999999998699,0.2196814,-0.9696102,0.33336404,-2.4263709,-0.18653281,2.1454275,0.6983105,0.039996427,0.04,-6.8981204,-4.808383464813232,5.0502696,0.0034429547,-0.014470884576439857,-0.005751423
504.41666666653657,0.21969827,-0.9696245,0.33338997,-2.4263756,-0.18654737,2.1454713,0.69830364,0.039996427,0.04,-6.8979173,-4.808414459228516,5.05057,0.0036871936,-0.014158513396978378,-0.005646556
504.4333333332032,0.21971378,-0.969638,0.33341378,-2.42638,-0.18656078,2.145513,0.69829756,0.03999643,0.04,-6.897835,-4.8084516525268555,5.050903,0.00391174,-0.013877779245376587,-0.0055499
504.4499999998699,0.21972807,-0.96965027,0.3334357,-2.426384,-0.18657312,2.145551,0.6982919,0.03999643,0.04,-6.8976517,-4.808469772338867,5.05117,0.004116696,-0.013611651957035065,-0.0054608686
504.4666666665365,0.21974121,-0.96966153,0.3334559,-2.4263878,-0.18658447,2.145585,0.69828653,0.03999643,0.04,-6.8975863,-4.808525562286377,5.051455,0.004305927,-0.013369903899729252,-0.0053793895
504.4833333332032,0.21975331,-0.9696719,0.33347458,-2.4263914,-0.1865949,2.1456184,0.6982816,0.03999643,0.04,-6.897534,-4.808564186096191,5.0517287,0.004480868,-0.013151345774531364,-0.0053048637
504.49999999986983,0.21976441,-0.96968156,0.33349165,-2.4263945,-0.18660447,2.1456468,0.69827724,0.03999643,0.04,-6.897402,-4.808609485626221,5.051905,0.004642391,-0.012941409833729267,-0.0052366597
504.5166666665365,0.21977465,-0.9696902,0.33350745,-2.4263973,-0.18661338,2.1456733,0.6982732,0.03999643,0.04,-6.8973565,-4.80861234664917,5.0521774,0.0047891447,-0.012757837772369385,-0.005173544
504.53333333320313,0.21978404,-0.9696984,0.33352187,-2.4264,-0.1866215,2.1456993,0.6982694,0.03999643,0.04,-6.8973083,-4.808655261993408,5.052342,0.0049254014,-0.012588215060532093,-0.005115387
504.5499999998698,0.21979271,-0.9697058,0.33353522,-2.4264026,-0.18662901,2.1457226,0.6982659,0.03999643,0.04,-6.897163,-4.808656215667725,5.0524907,0.005049765,-0.012423433363437653,-0.00506099
504.56666666653643,0.21980067,-0.9697125,0.33354756,-2.4264047,-0.18663594,2.1457415,0.69826263,0.03999643,0.04,-6.8971705,-4.808699131011963,5.052679,0.0051654163,-0.0122761819511652,-0.005011612
504.5833333332031,0.21980797,-0.9697189,0.3335589,-2.4264069,-0.1866423,2.1457603,0.6982596,0.03999643,0.04,-6.897172,-4.808724880218506,5.0528717,0.005272168,-0.012151875533163548,-0.0049670218
504.59999999986974,0.21981469,-0.9697248,0.33356932,-2.426409,-0.18664815,2.145779,0.6982568,0.03999643,0.04,-6.897078,-4.808736324310303,5.052973,0.0053701773,-0.01203058660030365,-0.0049250857
504.6166666665364,0.21982087,-0.9697301,0.33357888,-2.426411,-0.18665355,2.145797,0.69825447,0.03999643,0.04,-6.897016,-4.80875825881958,5.0530806,0.0054604276,-0.011914030648767948,-0.004886112
504.63333333320304,0.21982658,-0.96973485,0.33358762,-2.4264128,-0.18665853,2.1458125,0.69825226,0.03999643,0.04,-6.89695,-4.808767795562744,5.0531673,0.005542358,-0.011802221648395061,-0.0048500127
504.6499999998697,0.21983181,-0.96973944,0.3335957,-2.4264143,-0.18666314,2.1458247,0.6982501,0.039996427,0.04,-6.8969693,-4.808790683746338,5.0533247,0.0056180656,-0.01170584186911583,-0.004818867
504.66666666653634,0.2198366,-0.96974367,0.33360317,-2.4264157,-0.1866673,2.1458359,0.6982481,0.03999643,0.04,-6.896924,-4.808788776397705,5.0534616,0.0056879534,-0.011624510399997234,-0.004787957
504.683333333203,0.21984099,-0.9697475,0.33361,-2.426417,-0.18667108,2.145847,0.6982463,0.03999643,0.04,-6.896915,-4.808812141418457,5.0535393,0.005752526,-0.011550240218639374,-0.004760746
504.69999999986965,0.21984503,-0.969751,0.3336163,-2.4264185,-0.18667467,2.1458583,0.6982446,0.03999643,0.04,-6.5871606,-4.652914524078369,5.0016084,0.0,-0.0,0.0
504.7166666665363,0.21984503,-0.969751,0.3336163,-2.4264185,-0.18667467,2.1458583,0.6982446,0.03999643,0.04,-6.897762,-4.8077592849731445,5.053953,0.0,-0.0,0.0
504.73333333320295,0.21984503,-0.969751,0.3336163,-2.4264185,-0.18667467,2.1458583,0.6982446,0.03999643,0.04,-6.897762,-4.8077592849731445,5.053953,0.0,-0.0,0.0
504.7499999998696,0.21984503,-0.969751,0.3336163,-2.4264185,-0.18667467,2.1458583,0.6982446,0.03999643,0.04,-6.897762,-4.8077592849731445,5.053953,0.0,-0.0,0.0
504.76666666653625,0.21984503,-0.969751,0.3336163,-2.4264185,-0.18667467,2.1458583,0.6982446,0.03999643,0.04,-6.897762,-4.8077592849731445,5.053953,0.0,-0.0,0.0
504.7833333332029,0.21984503,-0.969751,0.3336163,-2.4264185,-0.18667467,2.1458583,0.6982446,0.03999643,0.04,-6.897762,-4.8077592849731445,5.053953,0.0,-0.0,0.0
504.79999999986956,0.21984503,-0.969751,0.3336163,-2.4264185,-0.18667467,2.1458583,0.6982446,0.03999643,0.04,-6.897762,-4.8077592849731445,5.053953,0.0,-0.0,0.0
504.8166666665362,0.21984503,-0.969751,0.3336163,-2.4264185,-0.18667467,2.1458583,0.6982446,0.03999643,0.04,-6.897762,-4.8077592849731445,5.053953,0.0,-0.0,0.0
504.83333333320286,0.21984503,-0.969751,0.3336163,-2.4264185,-0.18667467,2.1458583,0.6982446,0.03999643,0.04,-6.897762,-4.8077592849731445,5.053953,0.0,-0.0,0.0
504.8499999998695,0.21984503,-0.969751,0.3336163,-2.4264185,-0.18667467,2.1458583,0.6982446,0.03999643,0.04,-6.897762,-4.8077592849731445,5.053953,0.0,-0.0,0.0
504.86666666653616,0.21984503,-0.969751,0.3336163,-2.4264185,-0.18667467,2.1458583,0.6982446,0.03999643,0.04,-6.897762,-4.8077592849731445,5.053953,0.0,-0.0,0.0
504.8833333332028,0.21984503,-0.969751,0.3336163,-2.4264185,-0.18667467,2.1458583,0.6982446,0.03999643,0.04,-6.897762,-4.8077592849731445,5.053953,0.0,-0.0,0.0
504.89999999986946,0.21984503,-0.969751,0.3336163,-2.4264185,-0.18667467,2.1458583,0.6982446,0.03999643,0.04,-6.897762,-4.8077592849731445,5.053953,0.0,-0.0,0.0
504.9166666665361,0.21984503,-0.969751,0.3336163,-2.4264185,-0.18667467,2.1458583,0.6982446,0.03999643,0.04,-6.897762,-4.8077592849731445,5.053953,0.0,-0.0,0.0
504.93333333320277,0.21984503,-0.969751,0.3336163,-2.4264185,-0.18667467,2.1458583,0.6982446,0.03999643,0.04,-6.897762,-4.8077592849731445,5.053953,0.0,-0.0,0.0
504.9499999998694,0.21984503,-0.969751,0.3336163,-2.4264185,-0.18667467,2.1458583,0.6982446,0.03999643,0.04,-6.897762,-4.8077592849731445,5.053953,0.0,-0.0,0.0
504.96666666653607,0.21984503,-0.969751,0.3336163,-2.4264185,-0.18667467,2.1458583,0.6982446,0.03999643,0.04,-6.897762,-4.8077592849731445,5.053953,0.0,-0.0,0.0
504.9833333332027,0.21984503,-0.969751,0.3336163,-2.4264185,-0.18667467,2.1458583,0.6982446,0.03999643,0.04,-6.897762,-4.8077592849731445,5.053953,0.0,-0.0,0.0
504.9999999998694,0.21984503,-0.969751,0.3336163,-2.4264185,-0.18667467,2.1458583,0.6982446,0.03999643,0.04,-6.897762,-4.8077592849731445,5.053953,0.0,-0.0,0.0
505.016666666536,0.21984503,-0.969751,0.3336163,-2.4264185,-0.18667467,2.1458583,0.6982446,0.03999643,0.04,-6.897762,-4.8077592849731445,5.053953,0.0,-0.0,0.0
505.0333333332027,0.21984503,-0.969751,0.3336163,-2.4264185,-0.18667467,2.1458583,0.6982446,0.03999643,0.04,-6.897762,-4.8077592849731445,5.053953,0.0,-0.0,0.0
505.0499999998693,0.21984503,-0.969751,0.3336163,-2.4264185,-0.18667467,2.1458583,0.6982446,0.03999643,0.04,-6.897762,-4.8077592849731445,5.053953,0.0,-0.0,0.0
505.066666666536,0.21984503,-0.969751,0.3336163,-2.4264185,-0.18667467,2.1458583,0.6982446,0.03999643,0.04,-6.897762,-4.8077592849731445,5.053953,0.0,-0.0,0.0
505.08333333320263,0.21984503,-0.969751,0.3336163,-2.4264185,-0.18667467,2.1458583,0.6982446,0.03999643,0.04,-6.897762,-4.8077592849731445,5.053953,0.0,-0.0,0.0
505.0999999998693,0.21984503,-0.969751,0.3336163,-2.4264185,-0.18667467,2.1458583,0.6982446,0.03999643,0.04,-6.897762,-4.8077592849731445,5.053953,0.0,-0.0,0.0
505.11666666653593,0.21984503,-0.969751,0.3336163,-2.4264185,-0.18667467,2.1458583,0.6982446,0.03999643,0.04,-6.897762,-4.8077592849731445,5.053953,0.0,-0.0,0.0
505.1333333332026,0.21984503,-0.969751,0.3336163,-2.4264185,-0.18667467,2.1458583,0.6982446,0.03999643,0.04,-6.897762,-4.8077592849731445,5.053953,0.0,-0.0,0.0
505.14999999986924,0.21984503,-0.969751,0.3336163,-2.4264185,-0.18667467,2.1458583,0.6982446,0.03999643,0.04,-6.897762,-4.8077592849731445,5.053953,0.0,-0.0,0.0
505.1666666665359,0.21984503,-0.969751,0.3336163,-2.4264185,-0.18667467,2.1458583,0.6982446,0.03999643,0.04,-6.897762,-4.8077592849731445,5.053953,0.0,-0.0,0.0
505.18333333320254,0.21984503,-0.969751,0.3336163,-2.4264185,-0.18667467,2.1458583,0.6982446,0.03999643,0.04,-6.897762,-4.8077592849731445,5.053953,0.0,-0.0,0.0
505.1999999998692,0.21984503,-0.969751,0.3336163,-2.4264185,-0.18667467,2.1458583,0.6982446,0.03999643,0.04,-6.897762,-4.8077592849731445,5.053953,0.0,-0.0,0.0
505.21666666653584,0.21984503,-0.969751,0.3336163,-2.4264185,-0.18667467,2.1458583,0.6982446,0.03999643,0.04,-6.897762,-4.8077592849731445,5.053953,0.0,-0.0,0.0
505.2333333332025,0.21984503,-0.969751,0.3336163,-2.4264185,-0.18667467,2.1458583,0.6982446,0.03999643,0.04,-6.897762,-4.8077592849731445,5.053953,0.0,-0.0,0.0
505.24999999986915,0.21984503,-0.969751,0.3336163,-2.4264185,-0.18667467,2.1458583,0.6982446,0.03999643,0.04,-6.897762,-4.8077592849731445,5.053953,0.0,-0.0,0.0
505.2666666665358,0.21984503,-0.969751,0.3336163,-2.4264185,-0.18667467,2.1458583,0.6982446,0.03999643,0.04,-6.897762,-4.8077592849731445,5.053953,0.0,-0.0,0.0
505.28333333320245,0.21984503,-0.969751,0.3336163,-2.4264185,-0.18667467,2.1458583,0.6982446,0.03999643,0.04,-6.897762,-4.8077592849731445,5.053953,0.0,-0.0,0.0
505.2999999998691,0.21984503,-0.969751,0.3336163,-2.4264185,-0.18667467,2.1458583,0.6982446,0.03999643,0.04,-6.897762,-4.8077592849731445,5.053953,0.0,-0.0,0.0
505.31666666653575,0.21984503,-0.969751,0.3336163,-2.4264185,-0.18667467,2.1458583,0.6982446,0.03999643,0.04,-6.897762,-4.8077592849731445,5.053953,0.0,-0.0,0.0
505.3333333332024,0.21984503,-0.969751,0.3336163,-2.4264185,-0.18667467,2.1458583,0.6982446,0.03999643,0.04,-6.897762,-4.8077592849731445,5.053953,0.0,-0.0,0.0
505.34999999986906,0.21984503,-0.969751,0.3336163,-2.4264185,-0.18667467,2.1458583,0.6982446,0.03999643,0.04,-6.897762,-4.8077592849731445,5.053953,0.0,-0.0,0.0
505.3666666665357,0.21984503,-0.969751,0.3336163,-2.4264185,-0.18667467,2.1458583,0.6982446,0.03999643,0.04,-6.897762,-4.8077592849731445,5.053953,0.0,-0.0,0.0
505.38333333320236,0.21984503,-0.969751,0.3336163,-2.4264185,-0.18667467,2.1458583,0.6982446,0.03999643,0.04,-6.897762,-4.8077592849731445,5.053953,0.0,-0.0,0.0
505.399999999869,0.21984503,-0.969751,0.3336163,-2.4264185,-0.18667467,2.1458583,0.6982446,0.03999643,0.04,-6.897762,-4.8077592849731445,5.053953,0.0,-0.0,0.0
505.41666666653566,0.21984503,-0.969751,0.3336163,-2.4264185,-0.18667467,2.1458583,0.6982446,0.03999643,0.04,-6.897762,-4.8077592849731445,5.053953,0.0,-0.0,0.0
505.4333333332023,0.21984503,-0.969751,0.3336163,-2.4264185,-0.18667467,2.1458583,0.6982446,0.03999643,0.04,-6.897762,-4.8077592849731445,5.053953,0.0,-0.0,0.0
505.44999999986896,0.21984503,-0.969751,0.3336163,-2.4264185,-0.18667467,2.1458583,0.6982446,0.03999643,0.04,-6.897762,-4.8077592849731445,5.053953,0.0,-0.0,0.0
505.4666666665356,0.21984503,-0.969751,0.3336163,-2.4264185,-0.18667467,2.1458583,0.6982446,0.03999643,0.04,-6.897762,-4.8077592849731445,5.053953,0.0,-0.0,0.0
505.48333333320227,0.21984503,-0.969751,0.3336163,-2.4264185,-0.18667467,2.1458583,0.6982446,0.03999643,0.04,-6.897762,-4.8077592849731445,5.053953,0.0,-0.0,0.0
505.4999999998689,0.21984503,-0.969751,0.3336163,-2.4264185,-0.18667467,2.1458583,0.6982446,0.03999643,0.04,-6.897762,-4.8077592849731445,5.053953,0.0,-0.0,0.0
505.51666666653557,0.21984503,-0.969751,0.3336163,-2.4264185,-0.18667467,2.1458583,0.6982446,0.03999643,0.04,-6.897762,-4.8077592849731445,5.053953,0.0,-0.0,0.0
505.5333333332022,0.21984503,-0.969751,0.3336163,-2.4264185,-0.18667467,2.1458583,0.6982446,0.03999643,0.04,-6.897762,-4.8077592849731445,5.053953,0.0,-0.0,0.0
505.5499999998689,0.21984503,-0.969751,0.3336163,-2.4264185,-0.18667467,2.1458583,0.6982446,0.03999643,0.04,-6.897762,-4.8077592849731445,5.053953,0.0,-0.0,0.0
505.5666666665355,0.21984503,-0.969751,0.3336163,-2.4264185,-0.18667467,2.1458583,0.6982446,0.03999643,0.04,-6.897762,-4.8077592849731445,5.053953,0.0,-0.0,0.0
505.5833333332022,0.21984503,-0.969751,0.3336163,-2.4264185,-0.18667467,2.1458583,0.6982446,0.03999643,0.04,-6.897762,-4.8077592849731445,5.053953,0.0,-0.0,0.0
505.5999999998688,0.21984503,-0.969751,0.3336163,-2.4264185,-0.18667467,2.1458583,0.6982446,0.03999643,0.04,-6.897762,-4.8077592849731445,5.053953,0.0,-0.0,0.0
505.6166666665355,0.21984503,-0.969751,0.3336163,-2.4264185,-0.18667467,2.1458583,0.6982446,0.03999643,0.04,-6.897762,-4.8077592849731445,5.053953,0.0,-0.0,0.0
505.63333333320213,0.21984503,-0.969751,0.3336163,-2.4264185,-0.18667467,2.1458583,0.6982446,0.03999643,0.04,-6.897762,-4.8077592849731445,5.053953,0.0,-0.0,0.0
505.6499999998688,0.21984503,-0.969751,0.3336163,-2.4264185,-0.18667467,2.1458583,0.6982446,0.03999643,0.04,-6.897762,-4.8077592849731445,5.053953,0.0,-0.0,0.0
505.66666666653543,0.21984503,-0.969751,0.3336163,-2.4264185,-0.18667467,2.1458583,0.6982446,0.03999643,0.04,-6.897762,-4.8077592849731445,5.053953,0.0,-0.0,0.0
505.6833333332021,0.21984503,-0.969751,0.3336163,-2.4264185,-0.18667467,2.1458583,0.6982446,0.03999643,0.04,-6.897762,-4.8077592849731445,5.053953,0.0,-0.0,0.0
505.69999999986874,0.21984503,-0.969751,0.3336163,-2.4264185,-0.18667467,2.1458583,0.6982446,0.03999643,0.04,-6.897762,-4.8077592849731445,5.053953,0.0,-0.0,0.0
505.7166666665354,0.21984503,-0.969751,0.3336163,-2.4264185,-0.18667467,2.1458583,0.6982446,0.03999643,0.04,-6.897762,-4.8077592849731445,5.053953,0.0,-0.0,0.0
505.73333333320204,0.21984503,-0.969751,0.3336163,-2.4264185,-0.18667467,2.1458583,0.6982446,0.03999643,0.04,-6.897762,-4.8077592849731445,5.053953,0.0,-0.0,0.0
505.7499999998687,0.21984503,-0.969751,0.3336163,-2.4264185,-0.18667467,2.1458583,0.6982446,0.03999643,0.04,-6.897762,-4.8077592849731445,5.053953,0.0,-0.0,0.0
505.76666666653534,0.21984503,-0.969751,0.3336163,-2.4264185,-0.18667467,2.1458583,0.6982446,0.03999643,0.04,-6.897762,-4.8077592849731445,5.053953,0.0,-0.0,0.0
505.783333333202,0.21984503,-0.969751,0.3336163,-2.4264185,-0.18667467,2.1458583,0.6982446,0.03999643,0.04,-6.897762,-4.8077592849731445,5.053953,0.0,-0.0,0.0
505.79999999986865,0.21984503,-0.969751,0.3336163,-2.4264185,-0.18667467,2.1458583,0.6982446,0.03999643,0.04,-6.897762,-4.8077592849731445,5.053953,0.0,-0.0,0.0
505.8166666665353,0.21984503,-0.969751,0.3336163,-2.4264185,-0.18667467,2.1458583,0.6982446,0.03999643,0.04,-6.897762,-4.8077592849731445,5.053953,0.0,-0.0,0.0
505.83333333320195,0.21984503,-0.969751,0.3336163,-2.4264185,-0.18667467,2.1458583,0.6982446,0.03999643,0.04,-6.897762,-4.8077592849731445,5.053953,0.0,-0.0,0.0
505.8499999998686,0.21984503,-0.969751,0.3336163,-2.4264185,-0.18667467,2.1458583,0.6982446,0.03999643,0.04,-6.897762,-4.8077592849731445,5.053953,0.0,-0.0,0.0
505.86666666653525,0.21984503,-0.969751,0.3336163,-2.4264185,-0.18667467,2.1458583,0.6982446,0.03999643,0.04,-6.897762,-4.8077592849731445,5.053953,0.0,-0.0,0.0
505.8833333332019,0.21984503,-0.969751,0.3336163,-2.4264185,-0.18667467,2.1458583,0.6982446,0.03999643,0.04,-6.897762,-4.8077592849731445,5.053953,0.0,-0.0,0.0
505.89999999986856,0.21984503,-0.969751,0.3336163,-2.4264185,-0.18667467,2.1458583,0.6982446,0.03999643,0.04,-6.897762,-4.8077592849731445,5.053953,0.0,-0.0,0.0
505.9166666665352,0.21984503,-0.969751,0.3336163,-2.4264185,-0.18667467,2.1458583,0.6982446,0.03999643,0.04,-6.897762,-4.8077592849731445,5.053953,0.0,-0.0,0.0
505.93333333320186,0.21984503,-0.969751,0.3336163,-2.4264185,-0.18667467,2.1458583,0.6982446,0.03999643,0.04,-6.897762,-4.8077592849731445,5.053953,0.0,-0.0,0.0
505.9499999998685,0.21984503,-0.969751,0.3336163,-2.4264185,-0.18667467,2.1458583,0.6982446,0.03999643,0.04,-6.897762,-4.8077592849731445,5.053953,0.0,-0.0,0.0
505.96666666653516,0.21984503,-0.969751,0.3336163,-2.4264185,-0.18667467,2.1458583,0.6982446,0.03999643,0.04,-6.897762,-4.8077592849731445,5.053953,0.0,-0.0,0.0
505.9833333332018,0.21984503,-0.969751,0.3336163,-2.4264185,-0.18667467,2.1458583,0.6982446,0.03999643,0.04,-6.897762,-4.8077592849731445,5.053953,0.0,-0.0,0.0
505.99999999986846,0.21984503,-0.969751,0.3336163,-2.4264185,-0.18667467,2.1458583,0.6982446,0.03999643,0.04,-6.897762,-4.8077592849731445,5.053953,0.0,-0.0,0.0
506.0166666665351,0.21984503,-0.969751,0.3336163,-2.4264185,-0.18667467,2.1458583,0.6982446,0.03999643,0.04,-6.897762,-4.8077592849731445,5.053953,0.0,-0.0,0.0
506.03333333320177,0.21984503,-0.969751,0.3336163,-2.4264185,-0.18667467,2.1458583,0.6982446,0.03999643,0.04,-6.897762,-4.8077592849731445,5.053953,0.0,-0.0,0.0
506.0499999998684,0.21984503,-0.969751,0.3336163,-2.4264185,-0.18667467,2.1458583,0.6982446,0.03999643,0.04,-6.897762,-4.8077592849731445,5.053953,0.0,-0.0,0.0
506.06666666653507,0.21984503,-0.969751,0.3336163,-2.4264185,-0.18667467,2.1458583,0.6982446,0.03999643,0.04,-6.897762,-4.8077592849731445,5.053953,0.0,-0.0,0.0
506.0833333332017,0.21984503,-0.969751,0.3336163,-2.4264185,-0.18667467,2.1458583,0.6982446,0.03999643,0.04,-6.897762,-4.8077592849731445,5.053953,0.0,-0.0,0.0
506.0999999998684,0.21984503,-0.969751,0.3336163,-2.4264185,-0.18667467,2.1458583,0.6982446,0.03999643,0.04,-6.897762,-4.8077592849731445,5.053953,0.0,-0.0,0.0
506.116666666535,0.21984503,-0.969751,0.3336163,-2.4264185,-0.18667467,2.1458583,0.6982446,0.03999643,0.04,-6.897762,-4.8077592849731445,5.053953,0.0,-0.0,0.0
506.1333333332017,0.21984503,-0.969751,0.3336163,-2.4264185,-0.18667467,2.1458583,0.6982446,0.03999643,0.04,-6.897762,-4.8077592849731445,5.053953,0.0,-0.0,0.0
506.1499999998683,0.21984503,-0.969751,0.3336163,-2.4264185,-0.18667467,2.1458583,0.6982446,0.03999643,0.04,-6.897762,-4.8077592849731445,5.053953,0.0,-0.0,0.0
506.166666666535,0.21984503,-0.969751,0.3336163,-2.4264185,-0.18667467,2.1458583,0.6982446,0.03999643,0.04,-6.897762,-4.8077592849731445,5.053953,0.0,-0.0,0.0
506.18333333320163,0.21984503,-0.969751,0.3336163,-2.4264185,-0.18667467,2.1458583,0.6982446,0.03999643,0.04,-6.897762,-4.8077592849731445,5.053953,0.0,-0.0,0.0
506.1999999998683,0.21984503,-0.969751,0.3336163,-2.4264185,-0.18667467,2.1458583,0.6982446,0.03999643,0.04,-6.897762,-4.8077592849731445,5.053953,0.0,-0.0,0.0
506.21666666653493,0.21984503,-0.969751,0.3336163,-2.4264185,-0.18667467,2.1458583,0.6982446,0.03999643,0.04,-6.897762,-4.8077592849731445,5.053953,0.0,-0.0,0.0
506.2333333332016,0.21984503,-0.969751,0.3336163,-2.4264185,-0.18667467,2.1458583,0.6982446,0.03999643,0.04,-6.897762,-4.8077592849731445,5.053953,0.0,-0.0,0.0
506.24999999986824,0.21984503,-0.969751,0.3336163,-2.4264185,-0.18667467,2.1458583,0.6982446,0.03999643,0.04,-6.897762,-4.8077592849731445,5.053953,0.0,-0.0,0.0
506.2666666665349,0.21984503,-0.969751,0.3336163,-2.4264185,-0.18667467,2.1458583,0.6982446,0.03999643,0.04,-6.897762,-4.8077592849731445,5.053953,0.0,-0.0,0.0
506.28333333320154,0.21984503,-0.969751,0.3336163,-2.4264185,-0.18667467,2.1458583,0.6982446,0.03999643,0.04,-6.897762,-4.8077592849731445,5.053953,0.0,-0.0,0.0
506.2999999998682,0.21984503,-0.969751,0.3336163,-2.4264185,-0.18667467,2.1458583,0.6982446,0.03999643,0.04,-6.897762,-4.8077592849731445,5.053953,0.0,-0.0,0.0
