rsonawane2002/My_IMU/logs_2/traj_2500/imu_2500.csv
time,j1,j2,j3,j4,j5,j6,j7,gripper1,gripper2,imu_ax,imu_ay,imu_az,imu_gx,imu_gy,imu_gz
1.0333333333333345,0.00016703313,-0.78463066,4.018289e-05,-2.3561552,9.3351664e-05,1.5709763,0.7860001,1.2118691e-05,1.21186895e-05,-9.809999465942383,0.000632327632047236,-0.005088716745376587,0.0,-0.0,0.0
1.0500000000000012,0.00016666148,-0.7846152,3.961004e-05,-2.3561676,0.00016116937,1.5709765,0.7859992,0.0031457986,0.0031474058,-10.101762771606445,-0.0037250714376568794,-0.1032472625374794,-3.181810598107404e-06,-0.012836391106247902,-0.0007082443917170167
1.0666666666666678,0.00016678816,-0.7846009,3.9775863e-05,-2.3561795,0.00015008212,1.5709765,0.7859992,0.006093801,0.006095272,-10.168565054201075,-0.30262600738621875,0.3330861246764382,0.00042798026049150473,-0.013572032219677564,0.0033623272908472257
1.0833333333333344,0.00016705807,-0.78458756,4.009112e-05,-2.356191,0.00014031125,1.5709769,0.7859992,0.008805984,0.008807337,-9.83806642592068,-0.34332382502406694,0.20655274218433664,-0.00035233409167364523,-0.01698509163662906,0.002830948193518375
1.100000000000001,0.00016761148,-0.7845748,4.0701492e-05,-2.3562024,0.00013167942,1.5709773,0.7859992,0.011301216,0.011302462,-9.936952937608279,-0.3587353550466378,-0.386612214423205,-0.002661940985656671,-0.009546948635436883,-0.004481610162605122
1.1166666666666676,0.0001686273,-0.78456247,4.1791838e-05,-2.3562126,0.00012402501,1.5709779,0.7859992,0.013596852,0.013597998,-9.816627391006502,0.35503716461171075,0.20849055571378322,-0.007546275871383671,-0.012402851794614148,-0.012115613052848067
1.1333333333333342,0.00017031966,-0.7845504,4.3582437e-05,-2.3562212,0.00011719316,1.5709788,0.7860009,0.015708858,0.015709914,-9.73283325653146,0.10719196634488858,-0.08562077298818957,-0.0016841846753701119,-0.008621678179386002,0.002312799345510237
1.1500000000000008,0.00017293407,-0.7845379,4.6325134e-05,-2.356229,0.00011103534,1.5709797,0.7860028,0.017651925,0.017652895,-9.816959660191253,0.11036099931087955,-0.10780085882851058,-0.0007265224173862225,-0.012795782014962457,0.002988896824802169
1.1666666666666674,0.00017674398,-0.78452486,5.03e-05,-2.3562367,0.000105408006,1.5709807,0.7860047,0.019439561,0.019440455,-9.806159359906388,0.08394134569513068,-0.053660702688440275,-4.0455660552163076e-05,-0.015353969810918256,-0.002983605672942908
1.183333333333334,0.00018204821,-0.7845107,5.5812372e-05,-2.356244,0.00010017269,1.5709853,0.7860066,0.021084206,0.02108503,-9.80565484397696,-0.17262738929033203,0.14571021273306212,-0.0015985939672835297,-0.008113000969915234,-0.003979649013659417
1.2000000000000006,0.00018916716,-0.7844952,6.318972e-05,-2.3562512,9.519593e-05,1.5709901,0.78601044,0.022597298,0.022598054,-9.8706951273925,-0.0048688528450394454,-0.16266830881876987,-0.00314802266302253,-0.012930573491474568,0.002648333588784455
1.2166666666666672,0.000198441,-0.7844778,7.277915e-05,-2.3562584,9.034851e-05,1.5709985,0.78601426,0.023989357,0.023990056,-9.833055078503172,-0.05395641840409225,-0.12024871347472722,0.006740382388143624,-0.015236122146750434,0.005840053389781723
1.2333333333333338,0.0002102269,-0.7844579,8.494502e-05,-2.3562658,8.55048e-05,1.5710071,0.78602,0.02527006,0.025270702,-9.89012648822359,-0.10685099759196764,0.14153350486365268,-0.00034759856611625735,-0.007748662169580366,-0.0010958445785082395
1.2500000000000004,0.00022489701,-0.7844352,0.00010006669,-2.3562737,8.054336e-05,1.5710195,0.7860276,0.02644832,0.026448913,-9.957342034570846,0.015544334403352816,0.3612261580656289,-0.010525057470208973,-0.011688981836096254,-0.0008518520987125536
1.266666666666667,0.00024283607,-0.7844093,0.000118536576,-2.356282,7.534588e-05,1.5710356,0.786036,0.027532328,0.027532874,-10.563588123280365,0.2598035435321618,-0.28482098402657763,-0.005456972120324234,-0.011737420091651187,-0.0009538238385557241
1.2833333333333337,0.00026444002,-0.7843795,0.00014075798,-2.3562908,6.979716e-05,1.5710554,0.78604597,0.028529625,0.028530128,-9.997943209572849,0.1466363041128194,-0.11144627555119448,0.003781896426914286,-0.020322381730835046,0.0011565615448748928
1.3000000000000003,0.0002901139,-0.7843453,0.00016714376,-2.3563013,6.378518e-05,1.5710781,0.78605795,0.029447151,0.029447617,-9.820382130372645,0.05727114415575689,-0.2544626924548239,-0.00326972075604111,-0.006115643803652677,0.0032017346627722354
1.3166666666666669,0.00032027057,-0.78430647,0.00019811437,-2.3563125,5.7200166e-05,1.5711048,0.78607225,0.030291284,0.030291716,-9.32500895728801,-0.16834321632279675,0.32686153974618365,-0.005952654244508277,-0.013626395873585873,-0.005549920670377674
1.3333333333333335,0.000355329,-0.78426224,0.00023409688,-2.356324,4.993628e-05,1.5711358,0.786089,0.031067893,0.031068292,-9.992544832594177,0.024785210564807467,0.10275152901012734,0.0012765219659518132,-0.0086325165800793,0.0008357856216393275
1.35,0.00039571343,-0.78421223,0.00027552305,-2.3563356,4.1889125e-05,1.571171,0.7861081,0.03178239,0.031782757,-9.991517555318325,0.014053532416552718,0.2170204455721373,0.005070399813859147,-0.012119752990329068,0.001178010745846965
1.3666666666666667,0.00044185165,-0.7841557,0.00032282877,-2.356348,3.295623e-05,1.5712105,0.78612983,0.032439716,0.032440063,-10.052653533382202,0.04183870812916343,-0.40065964004537113,0.0002559293376848909,-0.010940414967594566,-0.0019033265643785078
1.3833333333333333,0.000494174,-0.78409255,0.00037645246,-2.3563614,2.3039085e-05,1.5712564,0.78615445,0.03304447,0.033044785,-10.06880754593615,0.16841435032831564,0.26926942213471067,-0.008938421794641762,-0.01218398086998659,-0.0024119985162537267
1.4,0.00055311277,-0.7840219,0.00043683426,-2.3563762,1.2039105e-05,1.5713074,0.78618217,0.033600852,0.03360115,-9.674147476003006,-0.11145584192073693,-0.1732019689721903,-0.0019600607557597716,-0.012759956768702252,0.00010371846344377343
1.4166666666666665,0.0006191006,-0.7839434,0.0005044152,-2.3563936,-1.384083e-07,1.5713649,0.78621334,0.03411273,0.03411301,-9.921948713610156,-0.3646628676374836,-0.4042597050992392,0.0012900321765572772,-0.016873961881278966,4.968658178535014e-05
1.4333333333333331,0.00069257047,-0.7838564,0.000579636,-2.3564124,-1.3587276e-05,1.5714291,0.78624797,0.034583658,0.03458392,-9.773882315693424,-0.2091262997426384,-0.2745310605392748,-0.0021882346263505975,-0.01163444639482808,-0.007624680465547551
1.4499999999999997,0.0007739542,-0.78376037,0.00066293654,-2.3564317,-2.8398135e-05,1.5715004,0.7862863,0.035016913,0.035017155,-9.589349391999592,-0.017250601681716042,0.16718696544937942,-0.009192385264411088,-0.010922239772210324,-0.004072710202187238
1.4666666666666663,0.0008636823,-0.78365505,0.0007547556,-2.3564522,-4.4661552e-05,1.5715792,0.7863285,0.035415523,0.03541575,-10.062332997462773,0.4075019295299704,0.15269893805208362,-0.00348728611610384,-0.013883340742039722,-0.00707376998125942
1.483333333333333,0.00096218276,-0.7835395,0.00085552863,-2.356475,-6.246525e-05,1.5716655,0.78637475,0.03578224,0.035782456,-10.091088504923478,0.0181669816209752,0.017096855851452278,-0.0048671616708912705,-0.0105571653353396,-0.006843894096978742
1.4999999999999996,0.0010698806,-0.78341365,0.0009656896,-2.3565016,-8.189474e-05,1.5717598,0.78642535,0.03611962,0.036119822,-9.805480276777498,-0.07007448450024101,0.05215531530913862,-0.0018384043123765657,-0.010463115940223606,-0.005369386991124653
1.5166666666666662,0.0011871981,-0.7832766,0.0010856681,-2.3565285,-0.000103034996,1.5718625,0.7864805,0.036430024,0.036430214,-9.839723814918763,0.34251085122541075,0.05567945229061689,-0.005536148268506858,-0.005714501006919007,-0.006999850377711398
1.5333333333333328,0.0013145535,-0.7831287,0.0012158903,-2.356557,-0.00012596844,1.5719737,0.7865402,0.036715586,0.036715772,-9.625730963634915,0.36191782779988135,-0.06512874881225694,-0.008387615138951098,-0.0067660883413063165,-0.010724261603910223
1.5499999999999994,0.0014523605,-0.78296876,0.0013567781,-2.3565888,-0.00015077535,1.5720943,0.78660494,0.036978316,0.03697849,-9.76929142213508,-0.08581886546701128,0.1559207459681565,-0.004412629530294989,-0.007245772860361304,0.00015546785266500027
1.566666666666666,0.0016010285,-0.78279626,0.0015087483,-2.3566232,-0.00017753575,1.5722241,0.7866747,0.037220024,0.03722019,-9.750908022483832,-0.2257057716315164,0.5963589430028763,-0.009615792522970974,-0.01546918546479093,-0.005891902743186515
1.5833333333333326,0.0017609618,-0.78261095,0.001672213,-2.3566587,-0.0002063279,1.572364,0.7867497,0.037442412,0.037442576,-10.05319791228372,0.12673396104692777,-0.045380009345728084,-0.01727081245418637,-0.010200652243150662,-0.0067007928020362964
1.5999999999999992,0.0019325592,-0.78241235,0.0018475793,-2.3566968,-0.00023722721,1.5725142,0.78683025,0.037646998,0.037647158,-9.981075035180941,0.22799078803765987,-0.44780504596963566,-0.011082857931531303,-0.014108435927651517,-0.010315537257554139
1.6166666666666658,0.002116214,-0.7822001,0.0020352472,-2.3567388,-0.0002703083,1.5726749,0.7869164,0.03783522,0.03783538,-9.946672704705529,0.5635293589479387,-0.07617784369680633,-0.013922270715634684,-0.004308642167438729,-0.010218925519070405
1.6333333333333324,0.002312313,-0.78197354,0.0022356117,-2.356782,-0.000305644,1.5728464,0.7870084,0.03800839,0.03800854,-9.915284529164877,-0.10645307148795725,0.09581697782138926,-0.013733814608506338,-0.009298352215516788,-0.013654816557861469
1.649999999999999,0.002521238,-0.7817323,0.0024490615,-2.3568294,-0.0003433059,1.573029,0.7871063,0.038167704,0.03816785,-9.738450515955222,-0.07405967308372673,-0.21517092709421026,-0.016868229951539176,-0.004799849946975423,-0.011360009803076573
1.6666666666666656,0.002743364,-0.781476,0.0026759792,-2.3568795,-0.00038336412,1.5732234,0.78721046,0.03831427,0.038314417,-9.781272769268446,0.13979365318371406,0.2318797545474464,-0.015906605987442684,-0.009318339804985944,-0.0115551226846889
1.6833333333333322,0.0029790585,-0.78120416,0.00291674,-2.3569305,-0.000425887,1.5734293,0.7873209,0.03844912,0.038449265,-9.713233046974954,-0.01760289104354913,-0.03625098784778302,-0.015410384996316822,-0.007254701649748019,-0.011456496966222876
1.6999999999999988,0.0032286835,-0.7809162,0.0031717117,-2.3569875,-0.00047094154,1.5736474,0.7874379,0.038573187,0.038573332,-9.921524077693933,0.04975883285387408,-0.058032391573870176,-0.01691393855275911,-0.010265724879612201,-0.013764329255893005
1.7166666666666655,0.0034925928,-0.7806119,0.0034412576,-2.3570457,-0.0005185923,1.5738779,0.78756154,0.03868733,0.03868747,-9.46292411823416,0.13305040705028684,-0.29631878680349366,-0.024621106621909795,-0.0032186656922082294,-0.012173947187084276
1.733333333333332,0.0037711344,-0.78029066,0.003725731,-2.3571079,-0.00056890456,1.5741216,0.787692,0.038792342,0.038792487,-9.314296408021614,-0.0560070774601431,0.2111909176770206,-0.019721153425831327,-0.00346990321424027,-0.013582022827482209
1.7499999999999987,0.0040646493,-0.77995247,0.0040254784,-2.3571734,-0.00062193983,1.5743781,0.78782946,0.038888954,0.0388891,-9.662676836697406,-0.3458602449960215,0.22349793152972552,-0.019265984818207425,-0.011179127852952952,-0.016580454475669436
1.7666666666666653,0.00437347,-0.77959675,0.0043408424,-2.3572404,-0.000677759,1.574648,0.78797424,0.038977843,0.038977988,-9.706010014735407,0.14966713792429284,-0.16195877365331163,-0.029138385710511274,-0.0065573867402858865,-0.01721640824683781
1.7833333333333319,0.004697923,-0.7792232,0.0046721515,-2.3573136,-0.00073642144,1.5749314,0.7881263,0.039059613,0.03905976,-9.542459319093682,-0.16939244654921135,0.10064014696254338,-0.031649823052214435,-0.0019964939219658945,-0.021119925948391256
1.7999999999999985,0.0050383257,-0.7788312,0.005019732,-2.3573873,-0.0007979853,1.5752288,0.78828573,0.03913484,0.039134987,-9.661021457528264,0.19043058118812506,-0.10882445865178143,-0.027394625411524626,-0.005133464052224649,-0.019542538186145424
1.816666666666665,0.0053949873,-0.77842045,0.005383902,-2.3574674,-0.00086250715,1.5755403,0.7884528,0.039204054,0.039204203,-10.010361706646979,0.11021794331897769,-0.07227713108593137,-0.024193363469460393,-0.006899589661306952,-0.019983950479438968
1.8333333333333317,0.005768217,-0.7779907,0.005764971,-2.3575487,-0.0009300411,1.5758661,0.7886275,0.039267737,0.03926789,-9.587222735404387,0.048362327574978825,-0.15488313013798657,-0.027545951525815845,-0.0069717046152887735,-0.017436600285466106
1.8499999999999983,0.006158306,-0.77754176,0.006163241,-2.3576367,-0.0010006416,1.5762068,0.78881013,0.03932633,0.039326485,-9.540563823236404,-0.24628055537028548,-0.20442565919507594,-0.026047377195706684,-0.003583283698156215,-0.017734874808268748
1.866666666666665,0.0065655424,-0.7770731,0.006579002,-2.3577256,-0.0010743607,1.5765624,0.7890009,0.039380234,0.039380394,-9.239699931245315,-0.3041002112442562,0.17485681617953738,-0.02912540411737462,-0.0037333834014331656,-0.019101070068028612
1.8833333333333315,0.006990207,-0.77658445,0.0070125447,-2.3578215,-0.0011512483,1.5769331,0.78919977,0.03942984,0.039430004,-9.826366754579622,-0.08194978172394075,0.22243426864677118,-0.02954061272805122,-0.0036201121065333893,-0.01361066627105591
1.8999999999999981,0.0074325716,-0.7760754,0.007464144,-2.3579183,-0.0012313554,1.5773195,0.7894069,0.03947545,0.039475624,-10.034936873160165,-0.02072972520146348,0.18114336573260567,-0.027791382838795238,-0.001865921977072561,-0.028207446509809657
1.9166666666666647,0.007892903,-0.77554566,0.007934073,-2.358022,-0.0013147265,1.5777217,0.78962237,0.039517425,0.039517596,-10.028490221440991,0.18616663796925081,-0.34909626763889456,-0.03249894513676415,0.001308514598608538,-0.03174836876946464
1.9333333333333313,0.008371455,-0.77499497,0.008422591,-2.3581266,-0.0014014106,1.5781397,0.7898464,0.039556053,0.039556228,-9.63722842283942,-0.20456484394824828,-0.06980140467015006,-0.03462021722822267,-0.0006726868606890138,-0.024915304195222872
1.949999999999998,0.00886848,-0.77442306,0.008929955,-2.358238,-0.0014914519,1.5785735,0.79007906,0.039591584,0.039591767,-9.557237171334519,0.17444931967314486,0.4192641187180227,-0.03802354536321121,-0.0053161869791917785,-0.029089004307167193
1.9666666666666646,0.009384219,-0.77382964,0.009456412,-2.358351,-0.0015848931,1.579024,0.7903204,0.039624278,0.039624464,-9.664665248009182,0.21586544435237173,0.09900975345159144,-0.04245443926665069,0.0006841794469608021,-0.03353168929983832
1.9833333333333312,0.009918907,-0.7732144,0.010002201,-2.3584702,-0.0016817764,1.5794908,0.7905707,0.03965435,0.039654538,-9.808877830621297,0.46198781809461487,0.04903857340059889,-0.04166672503501298,-0.0011114312887494397,-0.02689815294332833
1.9999999999999978,0.010472769,-0.7725772,0.01056755,-2.358591,-0.0017821434,1.5799744,0.79083,0.039682027,0.03968222,-9.753848003107292,-0.5288073371076963,0.2432728584973127,-0.0419990708177595,-0.0013439943006161544,-0.027184310507125546
2.0166666666666644,0.011046025,-0.7719177,0.011152683,-2.3587182,-0.0018860326,1.5804749,0.7910983,0.0397075,0.039707698,-9.657869177027644,-0.2592745954517638,0.0894288471983633,-0.04000751500593317,-0.004406976092908557,-0.02673545748657933
2.033333333333331,0.01163888,-0.77123564,0.011757815,-2.3588479,-0.0019934822,1.5809925,0.7913758,0.039730933,0.039731137,-9.976648117779401,-0.14922475607117563,0.24055396985817984,-0.043486697023724846,-0.0014541857385077836,-0.02735226902526555
2.0499999999999976,0.012251541,-0.7705307,0.0123831555,-2.3589833,-0.002104528,1.5815275,0.7916625,0.039752487,0.039752696,-9.85438350732987,-0.08939863992762609,-0.17273959881528042,-0.043882349433600226,0.001757842150017747,-0.030099238821958446
2.066666666666664,0.012884204,-0.7698028,0.0130289085,-2.3591242,-0.0022192057,1.5820799,0.79195863,0.039772324,0.03977254,-9.698699271315235,-0.31338234764057665,-0.11001981344202091,-0.04646970131101328,0.004824084496049442,-0.030948612503133455
2.083333333333331,0.0135370605,-0.7690518,0.013695256,-2.3592677,-0.002337548,1.58265,0.79226416,0.03979057,0.039790794,-9.71278233218712,0.063382132880626,-0.03757649562700211,-0.046151077357915064,0.000734930926655727,-0.034015028860222514
2.0999999999999974,0.014210284,-0.7682774,0.014382385,-2.3594172,-0.002459587,1.5832378,0.7925793,0.039807368,0.039807595,-9.784972595114471,0.028008554275021566,0.22545263689211864,-0.04881056508373812,0.005086183351377206,-0.03556499814215025
2.116666666666664,0.01490405,-0.76747954,0.015090474,-2.359569,-0.002585356,1.5838436,0.79290396,0.03982281,0.039823044,-9.446247258329079,-0.23392659716948566,0.08671083803415561,-0.057187895704668805,0.004982231610888193,-0.038779237192729084
2.1333333333333306,0.0156185245,-0.76665765,0.015819691,-2.3597274,-0.0027148817,1.5844674,0.7932383,0.039837025,0.039837267,-9.814345358898091,-0.13320781222052477,0.05179239779957083,-0.0572450274661144,0.002024102260743103,-0.03657271955768181
2.1499999999999972,0.016353862,-0.765812,0.016570188,-2.3598893,-0.002848195,1.5851092,0.7935824,0.0398501,0.03985035,-10.123817018903736,-0.3588499628795002,-0.18179700188367576,-0.056623230133243656,0.0070310225115125915,-0.03623603772089978
2.166666666666664,0.01711022,-0.7649419,0.017342135,-2.3600557,-0.0029853198,1.5857693,0.7939364,0.03986213,0.039862387,-9.654208750244168,0.06718136949681044,0.23535904889559883,-0.056702724128821005,0.011257228452389684,-0.03486116603076776
2.1833333333333305,0.017887728,-0.76404786,0.01813567,-2.360229,-0.0031262836,1.586448,0.7943001,0.039873198,0.03987346,-9.829709157929791,0.13074089642660291,-0.3960545211957299,-0.06010875179169025,0.002498667041950024,-0.03508560010029007
2.199999999999997,0.018686537,-0.7631291,0.018950934,-2.3604045,-0.0032711104,1.5871452,0.7946739,0.03988339,0.03988366,-9.75822703264408,-0.04207470957315436,0.06637491760841024,-0.056737732103966446,0.003270046298037208,-0.04061648538073616
2.2166666666666637,0.019506758,-0.76218575,0.019788051,-2.3605862,-0.0034198223,1.5878613,0.79505765,0.03989277,0.039893042,-9.699930930542703,0.21160508288546737,0.015699988358119796,-0.05466357822984643,0.007312278906396919,-0.03842741863777183
2.2333333333333303,0.020348528,-0.7612178,0.02064715,-2.3607717,-0.0035724412,1.5885966,0.7954515,0.039901398,0.039901678,-10.170886135167153,0.07404427307759903,0.13633298130749427,-0.06565849048128883,0.008916741529790141,-0.04010186372552705
2.249999999999997,0.021211952,-0.7602247,0.021528345,-2.3609614,-0.0037289872,1.5893502,0.7958555,0.03990934,0.03990963,-9.659229064904377,-0.2728552575372216,0.1167767840260545,-0.06531845063352258,0.009566849038094115,-0.042176385102526616
2.2666666666666635,0.02209714,-0.7592068,0.02243174,-2.3611577,-0.0038894804,1.5901228,0.7962698,0.03991665,0.039916947,-9.561353109845799,-0.09927286776629991,0.21059457329455622,-0.06447143568218057,0.010520958164886154,-0.04695862061200762
2.28333333333333,0.023004185,-0.7581637,0.023357447,-2.3613572,-0.0040539354,1.5909145,0.79669416,0.039923374,0.039923675,-10.103100489465817,-0.09661045789597567,-0.32639339982970306,-0.06997142537984348,0.007787838415506814,-0.04603170170454092
2.2999999999999967,0.02393318,-0.7570952,0.024305549,-2.361562,-0.004222373,1.5917251,0.7971289,0.039929572,0.039929885,-9.924032524934049,-0.29541841002931496,-0.2935879030053433,-0.07115705054388413,0.013648070598605703,-0.049477339029024965
2.3166666666666633,0.024884222,-0.7560016,0.025276138,-2.3617723,-0.0043948046,1.5925552,0.797574,0.039935276,0.039935596,-9.640632322185933,-0.2904035377845897,-0.31511896692862496,-0.07730866428744676,0.019648731070098898,-0.048031134210974685
2.33333333333333,0.025857378,-0.7548825,0.026269304,-2.3619864,-0.0045712455,1.5934048,0.7980293,0.03994053,0.039940853,-9.593151747467367,0.21882865668350987,0.20982720540625482,-0.07266705481937301,0.01620557068917635,-0.04857956230899615
2.3499999999999965,0.026852727,-0.75373775,0.027285105,-2.362206,-0.0047517093,1.5942733,0.7984949,0.03994536,0.039945696,-10.027333702755547,-0.3465845581229573,-0.2868018437824307,-0.07055698580900956,0.009880224472491237,-0.04623317053636599
2.366666666666663,0.027870322,-0.75256777,0.028323613,-2.3624308,-0.0049362076,1.5951612,0.79897094,0.03994981,0.039950147,-9.53098373927608,0.2221651275183828,0.17791586341326077,-0.07352065916517093,0.014061313163596462,-0.045479314713340956
2.3833333333333298,0.028910227,-0.75137186,0.029384887,-2.36266,-0.0051247478,1.5960686,0.79945743,0.039953902,0.039954253,-9.614854441280896,-0.07228391834814002,-0.22402398822238073,-0.07606744313004449,0.008972450153694326,-0.052391711499541305
2.3999999999999964,0.029972488,-0.75015014,0.030468976,-2.3628943,-0.0053173397,1.5969957,0.79995424,0.039957676,0.03995803,-9.886345677302447,-0.14655833329116183,-0.39668665718626317,-0.07946049653786988,0.010067269744303596,-0.05072048371736646
2.416666666666663,0.031057158,-0.7489029,0.03157593,-2.3631337,-0.0055139926,1.5979424,0.80046165,0.039961148,0.039961513,-9.425490999729202,-0.25799828532340635,-0.22980885111257587,-0.07505553057381377,0.00975356833819242,-0.05162923132907578
2.4333333333333296,0.032164283,-0.74762994,0.032705795,-2.363378,-0.005714712,1.5989087,0.8009796,0.039964356,0.039964724,-9.786152834548712,-0.16087405515379322,-0.058065878865829285,-0.08560822698641224,0.0117918101495217,-0.059147299123564714
2.449999999999996,0.033293862,-0.746331,0.033858582,-2.363627,-0.005919505,1.5998944,0.80150807,0.039967302,0.03996768,-9.941625801396338,-0.12614434143717806,-0.11400797981377063,-0.08618460289496015,0.01926148738033996,-0.06563727486916496
2.466666666666663,0.03444594,-0.7450063,0.035034314,-2.363881,-0.006128372,1.6009,0.802047,0.03997002,0.039970405,-9.78693370071957,-0.06200523074397021,-0.24258722377357772,-0.09004681441025354,0.017902979643779158,-0.05837772266161892
2.4833333333333294,0.03562053,-0.7436557,0.036233034,-2.3641405,-0.006341318,1.6019251,0.8025965,0.039972518,0.039972916,-9.909830045673502,0.22837410482827283,-0.41713080300938005,-0.08810065150110245,0.015857310033797863,-0.05692371068219819
2.499999999999996,0.03681766,-0.7422792,0.03745474,-2.3644042,-0.0065583466,1.6029698,0.80315655,0.03997483,0.03997523,-9.731325219517473,-0.44302052420379406,0.06914632950980817,-0.08860763629764833,0.015669159466650196,-0.05600028882742014
2.5166666666666626,0.038037308,-0.74087673,0.038699433,-2.3646731,-0.0067794584,1.604034,0.8037271,0.039976962,0.039977375,-9.636803298505749,-0.16246131733596697,-0.30338037166379095,-0.08961922548035635,0.01299759468666658,-0.0628760110176376
2.533333333333329,0.039279494,-0.7394484,0.039967116,-2.3649476,-0.00700465,1.6051179,0.8043082,0.039978914,0.03997933,-9.658570724243305,-0.2052199044003123,-0.41682398100894347,-0.08974926723780967,0.02002540579773613,-0.05908974891550928
2.549999999999996,0.040544193,-0.73799443,0.04125778,-2.365226,-0.007233919,1.6062214,0.8048998,0.03998072,0.039981145,-10.02722469002684,-0.3792181357132065,-0.5095884166967678,-0.09609918552346927,0.015742277285799522,-0.060900028043536815
2.5666666666666624,0.041831415,-0.7365143,0.04257141,-2.3655102,-0.0074672676,1.6073445,0.80550194,0.03998238,0.039982814,-9.936445870398614,-0.3630606749426551,-0.07868001092749598,-0.09684817749329615,0.020986038835230304,-0.06334301464777382
2.583333333333329,0.04314112,-0.7350084,0.04390799,-2.3657994,-0.00770469,1.6084874,0.8061145,0.03998392,0.039984364,-9.691382135046977,-0.4427891364317078,0.22024145247122903,-0.10428758775249401,0.020569943252286605,-0.06776355037709912
2.5999999999999956,0.044473287,-0.7334769,0.0452675,-2.3660932,-0.00794618,1.6096498,0.8067376,0.039985333,0.039985787,-9.903880326802534,-0.5283338485371974,-0.20742958755280216,-0.10440182430248736,0.025090849038929712,-0.0678349965327607
2.6166666666666623,0.04582788,-0.7319193,0.046649903,-2.366392,-0.008191733,1.6108317,0.80737126,0.039986648,0.039987102,-10.148649546635982,-0.47897278218066197,-0.17316494378140376,-0.10510410604789323,0.02029089514731925,-0.06573572310203887
2.633333333333329,0.047204867,-0.73033625,0.048055153,-2.3666956,-0.008441341,1.6120332,0.80801535,0.039987855,0.03998832,-9.671190545864029,0.2629839489557744,0.4615271217508543,-0.10812257888584767,0.023087735925871232,-0.0702725337289433
2.6499999999999955,0.04860421,-0.7287274,0.04948322,-2.3670042,-0.008694994,1.6132544,0.8086698,0.039988972,0.03998945,-9.788121725718486,-0.739015619603333,-0.30757256993085114,-0.10751253577937846,0.021861740309452583,-0.07280657325876433
2.666666666666662,0.05002585,-0.7270926,0.050934035,-2.3673174,-0.0089526875,1.6144947,0.8093347,0.03999,0.039990492,-10.025207600914033,-0.24819712855459464,-0.22996619876147026,-0.10653783281399358,0.019895088845137212,-0.07035376271640775
2.6833333333333287,0.05146974,-0.7254326,0.052407544,-2.367636,-0.009214408,1.6157546,0.81001,0.039990954,0.039991446,-9.921309244911859,-0.4261074534116986,-0.46479413855943297,-0.10648210842353502,0.022470714403279867,-0.06677347568285116
2.6999999999999953,0.05293579,-0.7237471,0.05390369,-2.3679595,-0.009480147,1.617034,0.81069565,0.039991837,0.03999234,-10.086170908102229,-0.7755998663166257,-0.008131796569283728,-0.1149247433621247,0.01880631775769229,-0.07133629444616428
2.716666666666662,0.05442397,-0.72203624,0.055422418,-2.368287,-0.009749887,1.6183324,0.81139165,0.039992664,0.03999317,-9.69790573484561,-0.6170560567333531,-0.37070182261769363,-0.11605505605869502,0.023896802245701097,-0.0772950944526155
2.7333333333333285,0.055934187,-0.7203,0.056963626,-2.3686204,-0.010023617,1.6196499,0.81209826,0.039993417,0.039993934,-9.812022323241315,-0.4061758597011936,-0.3247310105589399,-0.11810373491844078,0.03038419698497943,-0.08260446375480648
2.749999999999995,0.057466358,-0.7185386,0.058527246,-2.3689585,-0.010301326,1.6209866,0.8128148,0.039994128,0.03999465,-9.637261117844524,-0.3097423004525661,-0.11769797860898254,-0.11283305068377833,0.019731685475398865,-0.07673978377183187
2.7666666666666617,0.059020426,-0.716752,0.0601132,-2.3693008,-0.010582997,1.6223426,0.81354153,0.03999478,0.03999532,-9.882566157912139,-0.7327579653189663,-0.40016340021243263,-0.11893382249418939,0.022687139143431435,-0.07859411683162333
2.7833333333333283,0.06059629,-0.7149404,0.06172139,-2.3696485,-0.010868611,1.6237175,0.8142787,0.03999539,0.03999593,-9.722651840172997,-0.5251362877333416,0.13988337035104914,-0.1268318011240472,0.020752005944214037,-0.0813616459505425
2.799999999999995,0.062193852,-0.71310395,0.06335172,-2.3700008,-0.011158151,1.6251112,0.8150257,0.03999596,0.039996505,-9.785527408631728,-0.6642523043851555,-0.3864979811556377,-0.11946423077024437,0.023512323603197164,-0.08315162308087194
2.8166666666666615,0.063812986,-0.7112426,0.06500411,-2.370358,-0.011451601,1.6265237,0.81578267,0.03999649,0.039997052,-9.740458267413963,-0.5552471570534402,-0.24828602638274905,-0.12613458037532652,0.020063944988194405,-0.07982327372206709
2.833333333333328,0.06545363,-0.70935655,0.06667843,-2.37072,-0.01174894,1.627955,0.8165497,0.039996985,0.03999755,-9.582777115959003,-0.6865401453797588,-0.3882394282135351,-0.1268809645463486,0.021623832132424303,-0.07894223388527631
2.8499999999999948,0.067115664,-0.7074461,0.068374544,-2.3710866,-0.01205015,1.6294045,0.81732696,0.03999744,0.03999801,-9.869631903936082,-0.4589153364465896,-0.5480400082104021,-0.13322468241003382,0.02564940426809492,-0.084680911292195
2.8666666666666614,0.068798974,-0.70551133,0.07009238,-2.371458,-0.012355207,1.6308725,0.8181141,0.03999787,0.03999846,-9.881548219304888,-0.7577784853955263,-0.2798746921268893,-0.13149778211203986,0.020258423030704624,-0.08350683859894023
2.883333333333328,0.07050342,-0.70355207,0.07183179,-2.3718333,-0.0126640955,1.6323595,0.81891125,0.039998267,0.039998863,-9.62200403286456,-0.7602710195521651,-0.332428087027737,-0.1328178003349728,0.025376877688740588,-0.08345368159204157
2.8999999999999946,0.07222889,-0.7015688,0.07359265,-2.3722136,-0.012976791,1.6338656,0.8197182,0.039998636,0.03999924,-9.432172101587545,-0.685405452575714,-0.5320056039963761,-0.1376251595833173,0.02339599158432423,-0.08544451178166847
2.916666666666661,0.073975265,-0.6995613,0.07537483,-2.372599,-0.013293272,1.6353889,0.8205348,0.03999899,0.0399996,-9.94247923631591,-0.7106508850302735,-0.293626483562482,-0.13823538185125825,0.024030610522328782,-0.09065394743222174
2.933333333333328,0.0757424,-0.69753015,0.07717822,-2.372988,-0.013613516,1.6369306,0.8213611,0.03999931,0.039999917,-9.637260744922996,-0.607288359561123,-0.35031073902415627,-0.14382302105768127,0.026467780971421547,-0.0877319977113955
2.9499999999999944,0.077530146,-0.69547516,0.079002604,-2.373382,-0.013937337,1.6384897,0.8221971,0.03999956,0.04,-9.715938937822985,-0.48020195412875055,-0.10226990570472982,-0.13849405241575752,0.024292130777046242,-0.08477363682475937
2.966666666666661,0.07933835,-0.6933966,0.08084791,-2.3737807,-0.014264409,1.6400671,0.8230425,0.039999597,0.04,-9.52776728159154,-0.7358839664036486,-0.35785841549278186,-0.1418242421979144,0.02658968837547693,-0.09050383507334937
2.9833333333333276,0.08116688,-0.69129497,0.082713954,-2.3741834,-0.01459512,1.6416622,0.8238976,0.039999604,0.04,-10.034417009689363,-0.3622222878548666,-0.23794935872095666,-0.14806352044209392,0.028688044596372163,-0.09190755270212382
2.9999999999999942,0.08301556,-0.68916994,0.08460057,-2.3745906,-0.014929483,1.643275,0.82476205,0.039999593,0.04,-9.458742739111045,-0.692272983757626,-0.6976450149077129,-0.1463566477879061,0.029595651040297752,-0.0880088143856481
3.016666666666661,0.08488428,-0.687022,0.08650763,-2.3750024,-0.015267485,1.6449049,0.8256358,0.039999586,0.04,-9.703720928979116,-0.6010301002535626,-0.47096533314933037,-0.1491152604836375,0.024199134969640698,-0.08918033321637228
3.0333333333333274,0.08677285,-0.68485135,0.088434935,-2.375419,-0.015609115,1.6465523,0.8265189,0.03999959,0.04,-9.546022065331313,-0.5524688207474102,-0.407598722143456,-0.1450024585940621,0.027494237348439986,-0.09033224617691206
3.049999999999994,0.08868112,-0.6826582,0.09038233,-2.3758395,-0.015954327,1.6482171,0.8274111,0.039999582,0.04,-9.63771286579204,-0.8001460429614435,-0.3959080989449521,-0.1562811464050033,0.02993147219316097,-0.09591259889095563
3.0666666666666607,0.09060889,-0.6804425,0.092349626,-2.3762643,-0.016303087,1.6498984,0.8283124,0.039999574,0.04,-9.847122641137714,-0.5973277297219356,-0.47824078844414586,-0.15556576708768674,0.028373495174358568,-0.09523478268152104
3.0833333333333273,0.09255602,-0.67820466,0.09433665,-2.376693,-0.016655378,1.6515968,0.8292227,0.03999958,0.04,-9.454730233065309,-0.6213408454240348,-0.2347280105372096,-0.15507557351282633,0.023559432842083356,-0.09361892837104388
3.099999999999994,0.09452228,-0.6759449,0.096343234,-2.3771267,-0.017011153,1.6533118,0.8301419,0.039999586,0.04,-9.786770808467507,-0.5294971061744818,-0.33018492728838295,-0.1563699222502075,0.026629800232905117,-0.09784509650531974
3.1166666666666605,0.09650753,-0.67366326,0.09836917,-2.3775644,-0.017370367,1.6550435,0.83107,0.039999582,0.04,-9.709720534101498,-0.5149411475598167,-0.5775431366964553,-0.16271512969791008,0.02860826193839771,-0.09949071515592438
3.133333333333327,0.09851155,-0.67135996,0.10041428,-2.378006,-0.017732982,1.6567913,0.8320069,0.03999957,0.04,-9.772273417947728,-0.5478729343561406,-0.3322908465768099,-0.16420151211915146,0.029382945699495566,-0.09568654167132576
3.1499999999999937,0.10053414,-0.66903543,0.102478355,-2.3784516,-0.018098978,1.658555,0.83295244,0.03999956,0.04,-9.546477383811064,-0.5288663854895629,-0.9112640272160895,-0.1544486813418649,0.026810332882351046,-0.09066567263527743
3.1666666666666603,0.10257511,-0.66668975,0.10456117,-2.3789015,-0.018468328,1.6603353,0.83390665,0.039999556,0.04,-9.883579879219647,-0.8051944346265046,-0.17725812531366641,-0.16333740417207307,0.021409364696186855,-0.09634106522639951
3.183333333333327,0.10463431,-0.66432357,0.10666257,-2.3793552,-0.018840957,1.6621314,0.8348694,0.039999552,0.04,-9.518561567269098,-0.7088369265477074,-0.40474439140208124,-0.16523602005143664,0.025208491848515875,-0.09818263314485592
3.1999999999999935,0.106711484,-0.6619364,0.10878231,-2.379813,-0.019216847,1.663943,0.83584034,0.039999537,0.04,-9.596873785211468,-0.8627313561381388,-0.36167680922345374,-0.16948355225182626,0.025433097252825294,-0.09527165705217383
3.21666666666666,0.108806446,-0.65952903,0.11092018,-2.3802743,-0.019595973,1.6657698,0.83681965,0.039999533,0.04,-9.593992038184453,-0.8535509830444604,-0.6333249918397517,-0.16621066129481676,0.026710253127403823,-0.10289470081538465
3.2333333333333267,0.11091899,-0.6571017,0.11307597,-2.38074,-0.019978264,1.667612,0.8378072,0.039999526,0.04,-9.791988997309382,-0.9045171904896542,-0.6514171810239998,-0.17751296658455706,0.029100021760898556,-0.10570380472284449
3.2499999999999933,0.11304886,-0.65465444,0.11524948,-2.381209,-0.020363698,1.6694694,0.8388029,0.03999952,0.04,-9.973073238385853,-1.113315561830407,-0.455451464388976,-0.18004014953994257,0.03212349867787539,-0.11235606901636941
3.26666666666666,0.11519587,-0.6521874,0.11744046,-2.381682,-0.020752229,1.6713415,0.8398065,0.039999507,0.04,-9.649288874155337,-0.9523636699107682,-0.3593271537251884,-0.17545050077278848,0.027718881795985223,-0.10644123994569507
3.2833333333333266,0.1173598,-0.64970094,0.11964871,-2.3821588,-0.02114383,1.6732286,0.840818,0.039999504,0.04,-9.712279482143286,-0.8358559833081561,-0.7374440785736668,-0.17775089338384606,0.025698886540202765,-0.10389565070790974
3.299999999999993,0.119540446,-0.6471954,0.12187393,-2.3826394,-0.021538477,1.6751301,0.8418373,0.039999507,0.04,-9.918513506060686,-0.8008050386254432,-0.517411413911926,-0.180512380046099,0.02787494308650669,-0.10356265311028334
3.3166666666666598,0.12173751,-0.64467084,0.12411597,-2.3831234,-0.021936128,1.6770457,0.8428643,0.039999515,0.04,-9.621761824797673,-0.4879786274553907,-0.8721022076466092,-0.18176274926352284,0.03075367051513708,-0.10627597377018942
3.3333333333333264,0.12395082,-0.64212793,0.12637456,-2.3836112,-0.02233664,1.6789757,0.8438988,0.03999951,0.04,-9.811455902079842,-1.1869208741089228,-0.7581508507476429,-0.1759166059048596,0.022301159983364273,-0.10160526940968569
3.349999999999993,0.12618005,-0.63956654,0.12864941,-2.3841026,-0.02274005,1.6809196,0.8449407,0.0399995,0.04,-9.518328180663692,-0.6935340933405552,-0.656957678259182,-0.18175726301495007,0.027896778895354912,-0.09910086267570258
3.3666666666666596,0.12842505,-0.6369873,0.13094036,-2.384597,-0.023146315,1.6828773,0.84599006,0.039999492,0.04,-9.922904818501303,-0.7408010683665727,-0.518973391536938,-0.18706688999635487,0.027354483033695743,-0.10376127665547863
3.383333333333326,0.13068557,-0.6343903,0.13324717,-2.385095,-0.02355537,1.6848482,0.8470466,0.039999485,0.04,-9.849862185160045,-1.0139335496633883,-0.8589023240219154,-0.19501500730276544,0.02680510806235038,-0.10590649806617582
3.399999999999993,0.13296136,-0.6317758,0.13556945,-2.385596,-0.023967171,1.6868327,0.84811026,0.039999478,0.04,-9.81685755234778,-1.1552078835785298,-0.8153046884358677,-0.18834895728321302,0.02700973821165588,-0.10890267035769348
3.4166666666666594,0.13525216,-0.6291441,0.13790709,-2.3861003,-0.024381699,1.6888298,0.84918094,0.039999463,0.04,-10.059362874974184,-1.353147159471991,-0.8999395536465624,-0.19267667201566552,0.025794909171951878,-0.10448123560917555
3.433333333333326,0.13755769,-0.6264957,0.14025973,-2.386608,-0.0247989,1.6908399,0.85025835,0.039999463,0.04,-9.875406271258683,-1.1594199116916515,-0.6224145288530463,-0.19333183927818912,0.02832803364204257,-0.10578106657946515
3.4499999999999926,0.13987775,-0.6238306,0.14262718,-2.3871186,-0.025218707,1.6928627,0.85134256,0.03999946,0.04,-9.634898234267954,-1.2945138435578822,-0.815347711827036,-0.19458328329298963,0.027881503641416134,-0.1097357693901933
3.4666666666666592,0.14221202,-0.62114906,0.14500915,-2.3876326,-0.025641078,1.6948979,0.8524333,0.039999448,0.04,-9.790268558185433,-1.0542249537621935,-0.8142664349883388,-0.19157523459470358,0.02380086704269571,-0.10633544848086639
3.483333333333326,0.14456026,-0.61845165,0.14740537,-2.3881495,-0.026065975,1.6969452,0.8535307,0.03999944,0.04,-9.71375571591505,-0.896183612220455,-0.9277645634958711,-0.19324200859331922,0.024983299061592443,-0.09934159816030075
3.4999999999999925,0.14692219,-0.6157388,0.14981557,-2.38867,-0.026493331,1.6990043,0.8546346,0.039999433,0.04,-9.488743182221953,-1.126610216197,-0.6683935213092606,-0.19717124009419845,0.022726519773174143,-0.11019126723601724
3.516666666666659,0.14929758,-0.61301035,0.15223949,-2.389193,-0.026923118,1.7010752,0.8557445,0.03999942,0.04,-10.21854214570412,-1.0911688242908923,-0.6558121542705558,-0.2087760720295335,0.025272845232627544,-0.11098250097731711
3.5333333333333257,0.15168618,-0.61026675,0.15467688,-2.3897185,-0.027355304,1.7031574,0.8568606,0.03999942,0.04,-9.977017855208672,-1.3420034041964863,-0.2868161790563567,-0.20540363670167777,0.027318318128355376,-0.10709284451881886
3.5499999999999923,0.15408765,-0.60750854,0.15712744,-2.3902478,-0.027789807,1.7052509,0.8579828,0.039999418,0.04,-9.778762597581137,-0.8708686080380355,-0.7331957721423888,-0.2059596038757543,0.027971153274677626,-0.112506797267322
3.566666666666659,0.15650181,-0.6047358,0.15959086,-2.390779,-0.028226616,1.7073554,0.85911083,0.039999418,0.04,-9.834225240024168,-0.8546120767018579,-0.4187910739184511,-0.2083426147930421,0.02703524929446113,-0.10680602118828084
3.5833333333333255,0.15892828,-0.60194904,0.1620668,-2.3913138,-0.02866561,1.7094706,0.86024445,0.039999414,0.04,-9.447077445511106,-1.0610465792309125,-0.9038224851669178,-0.21041902127345688,0.027650264001509488,-0.11314116792984029
3.599999999999992,0.16136684,-0.5991485,0.1645551,-2.3918502,-0.029106777,1.7115961,0.8613836,0.039999407,0.04,-9.299713503642373,-1.0131660259075412,-0.7883102157491075,-0.20782904676996403,0.023121551491001424,-0.11251746462770543
3.6166666666666587,0.16381721,-0.5963346,0.1670554,-2.3923886,-0.029550048,1.713732,0.86252844,0.0399994,0.04,-9.693024110371006,-1.2655429088109695,-0.536226943752362,-0.20816494581880798,0.02440902602355782,-0.10058884907743824
3.6333333333333253,0.16627905,-0.5935073,0.16956739,-2.392931,-0.02999541,1.7158778,0.8636786,0.03999939,0.04,-9.627614004338632,-0.8886974902941134,-0.8889386255970163,-0.20885828234911308,0.024181761082157745,-0.107602200444571
3.649999999999992,0.16875212,-0.5906674,0.17209086,-2.393475,-0.030442799,1.7180334,0.86483395,0.03999938,0.04,-9.344773619258575,-1.307979317656957,-0.7280652411778826,-0.21329979146146139,0.02244138553380721,-0.11205718047888237
3.6666666666666585,0.17123613,-0.587815,0.17462544,-2.3940213,-0.030892145,1.7201984,0.8659945,0.03999937,0.04,-9.88748684117853,-1.4707157807310445,-0.7691252622470292,-0.2100303109118601,0.020812270322298147,-0.10541436931915817
3.683333333333325,0.17373082,-0.58495045,0.17717087,-2.3945706,-0.031343415,1.7223728,0.8671599,0.03999937,0.04,-9.611268566476047,-1.27702207844971,-0.9496994330034023,-0.2138850816154411,0.02405493839118995,-0.10611261772613324
3.6999999999999917,0.17623588,-0.58207417,0.17972688,-2.3951216,-0.031796537,1.7245562,0.86833,0.039999366,0.04,-9.545015141651692,-1.5212229814640787,-1.2292568477286507,-0.2172052163340191,0.02229733834121172,-0.11434339680401537
3.7166666666666583,0.17875099,-0.57918644,0.18229307,-2.3956745,-0.03225142,1.726748,0.8695048,0.03999935,0.04,-9.456077452364791,-1.4616608468946288,-1.2165878261641887,-0.22183424227872106,0.029391152925510193,-0.11285141070070989
3.733333333333325,0.18127586,-0.5762875,0.18486927,-2.3962305,-0.032708097,1.7289487,0.8706842,0.03999934,0.04,-9.838079566600701,-1.3308604441222298,-0.6370540238475084,-0.21957633752497066,0.020814795668229663,-0.11969976089098448
3.7499999999999916,0.1838102,-0.57337785,0.18745512,-2.3967881,-0.033166476,1.7311571,0.8718679,0.03999934,0.04,-9.480014312534799,-1.2797959528582832,-0.5507263752345053,-0.2193713903536473,0.024763496932566898,-0.11379223557477787
3.766666666666658,0.18635371,-0.57045776,0.1900503,-2.3973477,-0.033626474,1.7333733,0.8730559,0.039999332,0.04,-9.581398702745009,-1.3612242132806474,-0.7249857375458955,-0.2231153873476375,0.02438978888723351,-0.11029925911558258
3.7833333333333248,0.18890607,-0.5675277,0.19265446,-2.3979092,-0.034088064,1.7355971,0.8742481,0.03999932,0.04,-9.505929627138931,-1.35975571775392,-1.1474595779664445,-0.22386479895347125,0.01755419270806407,-0.11194550118606296
3.7999999999999914,0.19146699,-0.5645878,0.19526735,-2.3984725,-0.034551196,1.7378286,0.8754442,0.039999314,0.04,-9.90323190468329,-1.570450264524496,-0.7699652378524716,-0.22154905674481906,0.01670723358958574,-0.11496521017509252
3.816666666666658,0.19403617,-0.56163853,0.19788866,-2.3990378,-0.035015788,1.7400676,0.8766441,0.039999306,0.04,-9.452135197367637,-1.1296338575063727,-0.7947285444543772,-0.22275731064816887,0.01983461188889573,-0.11039271001524732
3.8333333333333246,0.19661331,-0.5586803,0.20051803,-2.3996048,-0.03548181,1.7423129,0.8778477,0.0399993,0.04,-9.557332578722463,-1.175321862199484,-1.0160771331335363,-0.22226198576524456,0.02108299915286445,-0.11077673646202281
3.849999999999991,0.19919807,-0.5557135,0.20315513,-2.4001732,-0.035949185,1.7445647,0.87905467,0.03999929,0.04,-9.992550544948372,-1.5632071246311088,-1.1148483014270416,-0.23430924716082488,0.02257610738934023,-0.11363100088389697
3.866666666666658,0.20179012,-0.5527383,0.2057997,-2.4007432,-0.03641789,1.7468233,0.8802652,0.039999284,0.04,-9.7090582185412,-1.8344496668089776,-0.9605291488710793,-0.22814293664489713,0.016085643263823533,-0.11083545626987532
3.8833333333333244,0.20438929,-0.5497552,0.20845139,-2.4013147,-0.036887843,1.7490878,0.88147885,0.03999928,0.04,-9.536607482068426,-1.435274539802537,-0.8727980737619578,-0.2273058433428809,0.017314782234881216,-0.1077204490411667
3.899999999999991,0.20699513,-0.54676443,0.21110995,-2.4018874,-0.037358988,1.7513582,0.8826957,0.039999276,0.04,-9.526808187265049,-1.6834551243041056,-0.9424991630555373,-0.22946635447156588,0.022896667422108382,-0.10859880661791668
3.9166666666666576,0.20960736,-0.5437664,0.21377496,-2.4024618,-0.037831284,1.7536335,0.88391536,0.039999265,0.04,-9.446697783517362,-1.501622806535397,-0.9267338193229728,-0.22809295299811613,0.01836502090597337,-0.10838563268840284
3.9333333333333242,0.21222569,-0.54076165,0.21644612,-2.4030375,-0.038304623,1.7559143,0.8851379,0.039999258,0.04,-9.67302622355649,-1.4328197505540325,-0.9719615986782923,-0.23061028286810875,0.018845813632021133,-0.10672848171732828
3.949999999999991,0.21484974,-0.53775036,0.21912313,-2.4036148,-0.038779028,1.7581999,0.886363,0.039999258,0.04,-9.290668359139074,-1.352192871514905,-0.9256565831312545,-0.23193159667233595,0.01687091000550279,-0.10241527012038441
3.9666666666666575,0.21747921,-0.53473306,0.2218057,-2.4041927,-0.039254382,1.7604903,0.8875907,0.03999925,0.04,-9.528765868896453,-1.2969430124084307,-1.0195594706768867,-0.2359712405492851,0.014491324996224544,-0.11567886394188237
3.983333333333324,0.22011386,-0.5317101,0.2244935,-2.404771,-0.03973065,1.762785,0.88882065,0.03999924,0.04,-9.709271407686154,-1.5153358582817344,-0.9633687502543534,-0.23429438757233972,0.017903984766159703,-0.10940153748625554
3.9999999999999907,0.22275329,-0.5286816,0.22718611,-2.405351,-0.040207766,1.7650837,0.89005286,0.039999228,0.04,-9.631412257153452,-1.914112854915753,-0.8796752273836508,-0.23481688672824905,0.010974769676720833,-0.10530515865554071
4.016666666666658,0.22539726,-0.52564794,0.2298833,-2.4059324,-0.040685687,1.7673863,0.891287,0.03999922,0.04,-9.312239092177537,-1.8789745059186844,-1.3414869928755042,-0.23254494422519176,0.015569636037101382,-0.10695976182339849
4.033333333333324,0.22804537,-0.52260983,0.23258466,-2.4065146,-0.041164313,1.7696925,0.8925231,0.03999921,0.04,-9.547153327128667,-1.5646680218329754,-1.183391570121404,-0.23953017531271897,0.018007998515766767,-0.10993092430622278
4.049999999999991,0.23069736,-0.51956743,0.23528993,-2.4070976,-0.041643634,1.772002,0.893761,0.039999202,0.04,-9.77250977151884,-1.441134096622158,-0.8353193635062683,-0.24352368349086395,0.016043254019346354,-0.11020701601848952
4.0666666666666575,0.23335288,-0.51652104,0.2379988,-2.407681,-0.04212356,1.7743143,0.89500034,0.03999919,0.04,-9.443197005997408,-1.5688234162639325,-0.9890377085988273,-0.23842987664110457,0.014594882389914602,-0.11394725697273093
4.083333333333324,0.23601158,-0.5134711,0.2407109,-2.4082654,-0.042604055,1.7766292,0.89624125,0.03999918,0.04,-9.364765656802483,-1.3595804798745859,-0.851026283255637,-0.2400536614608126,0.015003721980406382,-0.10631396432866756
4.099999999999991,0.23867314,-0.5104182,0.24342586,-2.4088497,-0.04308506,1.7789466,0.89748335,0.039999172,0.04,-9.444193436945577,-1.7962520380778064,-1.422925732089176,-0.23776079798809516,0.012651652727818093,-0.10326370563623383
4.116666666666657,0.2413373,-0.50736237,0.24614343,-2.409435,-0.043566488,1.7812662,0.8987266,0.03999916,0.04,-9.508767148396242,-1.6997386736086875,-0.4924139421063578,-0.24340761219900278,0.013112011666264049,-0.10621764590771342
4.133333333333324,0.24400374,-0.5043041,0.2488632,-2.4100204,-0.044048306,1.7835876,0.8999709,0.03999915,0.04,-9.724822989283451,-1.5345404781802683,-1.256597984198876,-0.23991027912128246,0.015523392225678181,-0.10226627078740769
4.149999999999991,0.24667208,-0.50124377,0.2515849,-2.4106061,-0.044530466,1.7859105,0.90121603,0.039999135,0.04,-9.429178031709972,-1.6514867670441553,-0.8869772177809057,-0.24176444095443567,0.012294209933614408,-0.10089226514351095
4.166666666666657,0.24934195,-0.498182,0.25430825,-2.411193,-0.04501287,1.7882347,0.90246177,0.039999135,0.04,-9.902802794581863,-1.5639372023844593,-1.116737250639512,-0.24591399320331842,0.010445461052727527,-0.10531628750223508
4.183333333333324,0.2520131,-0.49511892,0.25703272,-2.4117794,-0.04549547,1.79056,0.90370804,0.039999127,0.04,-9.404577395968788,-1.7605363844734965,-0.7698873949799346,-0.24465045694359278,0.011504005750851793,-0.10478373608306726
4.19999999999999,0.25468516,-0.49205485,0.25975814,-2.412366,-0.045978215,1.7928859,0.9049548,0.03999912,0.04,-9.721249808953193,-1.3440228961073797,-0.9010926297413167,-0.2515584639864487,0.012427439636109488,-0.10340983241590715
4.216666666666657,0.25735787,-0.48899037,0.26248407,-2.4129527,-0.046461053,1.795212,0.90620166,0.03999911,0.04,-9.63976365197588,-1.560969972055816,-0.8829936660714619,-0.24407702542220913,0.011813392071043295,-0.10657016895456513
4.233333333333324,0.2600308,-0.48592573,0.26521036,-2.4135392,-0.046943896,1.7975383,0.9074485,0.039999094,0.04,-9.37624348774385,-1.9497193742800123,-0.8986191609323546,-0.24539667085908753,0.01196183641717449,-0.1052933559692228
4.24999999999999,0.26270378,-0.48286116,0.2679364,-2.414126,-0.047426745,1.7998644,0.9086953,0.039999086,0.04,-8.925638593608957,-1.9338699696666009,-1.123870266441805,-0.24670026606929163,0.015399227178036849,-0.1011126325392456
4.266666666666657,0.26537636,-0.47979733,0.27066207,-2.4147124,-0.0479095,1.8021902,0.90994203,0.03999907,0.04,-9.682318945056657,-1.7363146412718744,-1.6495318485911565,-0.23977298463892083,0.008119384269787259,-0.09994692173382541
4.2833333333333234,0.2680482,-0.4767344,0.273387,-2.4152987,-0.048392106,1.8045152,0.9111883,0.03999906,0.04,-9.566825403910796,-1.7655770382896152,-1.1380834589200834,-0.24670301639531197,0.004785402835062052,-0.10221676367421714
4.29999999999999,0.2707191,-0.47367302,0.27611086,-2.4158847,-0.04887451,1.8068395,0.9124338,0.039999053,0.04,-9.33927483931016,-1.946863643725157,-1.4541128216338297,-0.2453541443523448,0.00339553079316021,-0.09638893101486669
4.316666666666657,0.27338877,-0.4706134,0.27883327,-2.4164703,-0.049356632,1.8091619,0.9136788,0.039999053,0.04,-9.400559715468614,-1.8777732879886957,-1.4635356866617784,-0.24665376591206659,0.008489330559382278,-0.10396562972960298
4.333333333333323,0.27605662,-0.46755564,0.28155398,-2.4170558,-0.04983841,1.8114831,0.91492283,0.039999034,0.04,-9.47140323402504,-1.4521649925125872,-1.2855677696714445,-0.24761284362310804,0.004756866500357916,-0.09726900932437364
4.34999999999999,0.27872255,-0.4645005,0.28427255,-2.417641,-0.05031979,1.8138024,0.9161661,0.039999027,0.04,-9.629483534715598,-2.0695194844673814,-1.4464350111403,-0.24251570986397245,0.007116787639230474,-0.09549522017770791
4.3666666666666565,0.28138617,-0.46144807,0.28698865,-2.4182253,-0.05080072,1.8161196,0.9174081,0.039999016,0.04,-9.787566220831671,-1.963753634875678,-1.4051474916798705,-0.24596010566704155,0.006495901510091707,-0.0985524003097273
4.383333333333323,0.28404716,-0.4583991,0.289702,-2.4188092,-0.05128117,1.8184341,0.9186486,0.039999004,0.04,-9.616376952610455,-1.6293608682922422,-1.1501765745266743,-0.24423965040719886,0.009428107394408821,-0.1056255521719547
4.39999999999999,0.28670523,-0.4553537,0.29241237,-2.4193923,-0.051761076,1.8207462,0.9198878,0.03999899,0.04,-9.369652128445486,-2.0796270141518765,-1.5249113159158538,-0.24346028425781874,0.0031595163585581496,-0.0973315756906973
4.416666666666656,0.28935987,-0.4523122,0.29511917,-2.419975,-0.052240357,1.8230551,0.9211253,0.03999898,0.04,-9.400028375099453,-1.9826176997563287,-1.6981146382584595,-0.24163382545274634,0.0077484367932939705,-0.09734481367024875
4.433333333333323,0.29201102,-0.4492751,0.29782224,-2.4205565,-0.05271896,1.8253608,0.92236114,0.03999897,0.04,-9.564518784463008,-1.6972925775252978,-1.4400000991999775,-0.24939885230026168,0.008680704823686637,-0.09564659611466542
4.4499999999999895,0.2946583,-0.44624278,0.30052137,-2.4211373,-0.05319682,1.8276628,0.92359495,0.03999896,0.04,-9.670565358745073,-2.0263417014526866,-1.426165723506463,-0.24534497433164246,0.005106495884351662,-0.09372865779991232
4.466666666666656,0.29730132,-0.44321555,0.303216,-2.4217172,-0.05367387,1.8299611,0.92482686,0.03999894,0.04,-9.781994354074897,-2.014072437047735,-1.1020454704707052,-0.24551037328701153,0.003329321087794968,-0.09915953494881803
4.483333333333323,0.29993975,-0.44019374,0.30590588,-2.4222958,-0.054150086,1.8322554,0.9260563,0.039998934,0.04,-9.475635243181955,-1.9604412440152135,-1.4817085996912045,-0.24412394327543857,-0.0015520229230702525,-0.09214270814874585
4.499999999999989,0.30257344,-0.43717775,0.30859077,-2.422873,-0.05462535,1.8345448,0.92728364,0.03999892,0.04,-9.614314978115619,-1.876773890883367,-1.2307691508838556,-0.2497161390268708,0.005212929895229281,-0.09494437550067136
4.516666666666656,0.30520186,-0.43416804,0.31127024,-2.423449,-0.055099677,1.8368297,0.92850834,0.039998904,0.04,-9.492700409806623,-1.778015113639477,-1.7101941056303875,-0.25264412067428654,0.0019808102991119222,-0.09471992612535172
4.533333333333323,0.30782464,-0.43116483,0.31394404,-2.4240239,-0.055572968,1.8391094,0.92973036,0.039998885,0.04,-9.382734862827592,-2.4429199590989943,-1.1444559704762425,-0.24727711132866406,0.0005399813519849713,-0.09524153976910685
4.549999999999989,0.31044164,-0.42816848,0.31661183,-2.4245975,-0.05604518,1.841384,0.93094957,0.039998878,0.04,-9.18049640079929,-2.429170955093069,-1.64188748080148,-0.24618308018111415,1.0287809767328002e-06,-0.0910164222008985
4.566666666666656,0.31305248,-0.42517948,0.3192733,-2.4251695,-0.056516208,1.8436533,0.93216574,0.039998863,0.04,-9.39461297429787,-1.8518609007181643,-1.6571475303409247,-0.24659983725148177,0.004557477113804154,-0.09108585907325599
4.583333333333322,0.3156569,-0.42219812,0.32192814,-2.4257405,-0.056986045,1.8459165,0.9333789,0.039998848,0.04,-9.630325990911977,-2.1355760134311965,-1.3360650223416777,-0.2469463548495371,0.0032250071368876134,-0.09311646949238539
4.599999999999989,0.31825456,-0.41922474,0.32457578,-2.4263096,-0.05745464,1.848174,0.9345887,0.039998833,0.04,-9.20170646034741,-2.1230011863890446,-1.7208563416610925,-0.24716209569166303,1.093614076951521e-05,-0.08751042694691927
4.616666666666656,0.32084513,-0.41625986,0.3272162,-2.4268773,-0.057921913,1.8504251,0.9357951,0.039998826,0.04,-9.480567789131074,-1.5992782800228709,-1.4955374193960125,-0.23914657016910354,-0.004233957943487804,-0.08924493665416633
4.633333333333322,0.3234284,-0.4133037,0.32984897,-2.427443,-0.058387823,1.8526691,0.936998,0.03999881,0.04,-9.4076949995027,-2.149917630341475,-1.7418165788504327,-0.24249613340837767,-0.004974263190654331,-0.08599730627287262
4.649999999999989,0.32600388,-0.41035658,0.33247384,-2.4280071,-0.058852315,1.8549067,0.9381974,0.039998803,0.04,-9.592196342616184,-2.2034798659147063,-1.2778345850619361,-0.2492939913810352,0.001450895778015858,-0.08922156430693451
4.666666666666655,0.32857138,-0.40741888,0.33509052,-2.4285698,-0.059315316,1.8571366,0.9393928,0.039998792,0.04,-9.364629988659058,-2.09917050717585,-1.406140824893344,-0.24046808938525993,-0.003569429151105868,-0.08977224839341673
4.683333333333322,0.33113056,-0.40449107,0.3376985,-2.4291306,-0.05977677,1.8593589,0.9405841,0.039998777,0.04,-9.578765889189102,-2.262314659568951,-1.5225381533601807,-0.23825666846282728,0.0026358475461066224,-0.08586730321016758
4.699999999999989,0.33368117,-0.4015733,0.34029764,-2.4296887,-0.06023666,1.8615737,0.9417714,0.039998762,0.04,-9.396528102633289,-2.1136723461201687,-1.0453611472064275,-0.2456777302236183,0.001863014449832821,-0.08844656873058629
4.716666666666655,0.33622292,-0.3986661,0.34288767,-2.4302447,-0.060694877,1.8637809,0.9429544,0.039998747,0.04,-9.613667926336271,-1.8818832197641835,-1.4987255467058644,-0.24475852519168656,0.0005119822539161764,-0.08799755978508911
4.733333333333322,0.33875534,-0.39576975,0.34546813,-2.4307995,-0.061151423,1.8659799,0.94413304,0.039998733,0.04,-9.471655830723169,-1.9938750975282353,-1.23021188252311,-0.24162567005024277,-0.0011151011619342885,-0.08171764645511455
4.7499999999999885,0.3412783,-0.39288452,0.34803882,-2.4313517,-0.06160621,1.8681703,0.94530714,0.039998725,0.04,-9.538746864733833,-2.032621710382727,-1.7753914099355594,-0.24224500442329572,-0.00014643711325841596,-0.08153759316508045
4.766666666666655,0.3437914,-0.3900108,0.35059944,-2.4319017,-0.062059175,1.8703518,0.94647634,0.039998714,0.04,-9.847175975189234,-2.3156362198758984,-1.765328573102658,-0.2382047982717563,-0.00427020777908797,-0.08249389433472773
4.783333333333322,0.34629455,-0.387149,0.35314965,-2.432449,-0.06251029,1.8725245,0.94764084,0.039998703,0.04,-9.50708509275646,-2.1364934590338556,-1.620908849533299,-0.24508910771278294,0.0007823346472253895,-0.08107340253519417
4.799999999999988,0.34878728,-0.3842995,0.3556891,-2.4329946,-0.06295948,1.8746878,0.94880044,0.03999869,0.04,-9.698092183154,-2.1119313739628836,-1.4936852297452263,-0.23933276518647234,-0.0038701568942463684,-0.07773685675545199
4.816666666666655,0.35126927,-0.38146242,0.3582176,-2.4335375,-0.06340671,1.8768417,0.94995487,0.03999868,0.04,-9.810318228514603,-2.041511013626609,-1.4741173100226623,-0.23732747047533514,-0.006411220979648323,-0.07839911798736413
4.8333333333333215,0.35374036,-0.37863833,0.3607348,-2.4340777,-0.06385189,1.8789858,0.9511041,0.039998665,0.04,-9.58797305915339,-2.258681270752437,-1.7455655182823766,-0.23587703423645892,-0.006204549754914931,-0.07497496475753176
4.849999999999988,0.35620013,-0.3758275,0.36324033,-2.4346159,-0.06429502,1.8811197,0.9522479,0.03999865,0.04,-9.283955202684268,-1.9965688026510104,-1.471055717950034,-0.23158320622586215,0.0004179753511619365,-0.0783103556832502
4.866666666666655,0.35864836,-0.3730302,0.365734,-2.4351509,-0.06473599,1.8832433,0.95338625,0.03999864,0.04,-9.357415129791747,-2.2002849841406285,-1.8313017014442685,-0.23506804686745705,-0.0019357910061824444,-0.07797458007339056
4.883333333333321,0.36108485,-0.3702467,0.36821556,-2.435683,-0.06517478,1.8853564,0.954519,0.039998624,0.04,-9.791795168435103,-2.0365281727889455,-1.4789703848354467,-0.23176867006597066,-0.0014323766583418903,-0.07186698974257505
4.899999999999988,0.36350918,-0.3674774,0.37068462,-2.436213,-0.06561134,1.8874587,0.955646,0.03999861,0.04,-9.490600725903558,-2.298783193614682,-1.5706347104272183,-0.23550776272004223,0.0006748848058595653,-0.07553085118246904
4.9166666666666545,0.36592123,-0.36472246,0.37314096,-2.4367404,-0.06604564,1.8895501,0.9567671,0.039998595,0.04,-9.607183715610695,-2.1379460181171694,-1.6234647967391806,-0.23382379125308897,-7.936264882905791e-05,-0.08208629486838515
4.933333333333321,0.3683205,-0.36198252,0.37558424,-2.4372644,-0.066477604,1.8916303,0.95788217,0.03999858,0.04,-9.923876273245432,-2.2730821614531087,-1.617563901526677,-0.23323523613936367,-0.004217152050078496,-0.07321770143956309
4.949999999999988,0.37070686,-0.3592576,0.37801427,-2.437786,-0.06690719,1.8936989,0.95899093,0.03999857,0.04,-9.577793131167642,-2.1379685057237303,-1.4350436942264886,-0.23252324560368803,-0.00452173696227444,-0.07584787229964343
4.966666666666654,0.3730801,-0.35654816,0.3804307,-2.438305,-0.067334324,1.8957558,0.9600935,0.039998554,0.04,-9.565248732104465,-2.275903710594553,-1.654387079604063,-0.22944825574357935,-0.004569683148410841,-0.07041421838091358
4.983333333333321,0.37543976,-0.35385457,0.38283327,-2.4388201,-0.06775901,1.8978007,0.9611896,0.03999854,0.04,-9.501124880879246,-1.9456472268473277,-1.6354397560394476,-0.22890792435625168,-0.005984655354057477,-0.07015489290620237
4.999999999999988,0.37778574,-0.3511769,0.38522175,-2.4393327,-0.06818117,1.8998337,0.9622794,0.03999853,0.04,-9.708930983977341,-2.187076664050142,-1.784614168014032,-0.2217642338485176,-0.009081601976243933,-0.07092798522610518
5.016666666666654,0.38011774,-0.3485156,0.38759586,-2.4398417,-0.06860077,1.901854,0.96336234,0.03999852,0.04,-9.6144158320017,-2.00641472966175,-1.4587431660146402,-0.22439200348947058,-0.007981958402573973,-0.06781553695666234
5.033333333333321,0.38243553,-0.345871,0.3899554,-2.440348,-0.06901775,1.9038619,0.9644385,0.03999851,0.04,-9.424435641809264,-2.2285668296112715,-2.2648924963165236,-0.22045558239052113,-0.009729688309614232,-0.06556762677404779
5.049999999999987,0.38473877,-0.3432433,0.39230004,-2.440851,-0.069432095,1.905857,0.96550786,0.039998494,0.04,-9.248813564926465,-2.5328781272484857,-1.8795336624135044,-0.22476017633244535,-0.006654404382624623,-0.07098446040092375
5.066666666666654,0.38702735,-0.34063292,0.39462948,-2.4413502,-0.0698437,1.9078387,0.96657014,0.039998483,0.04,-9.411631505078205,-2.3422874444072654,-1.8203650156369717,-0.2185161953733026,-0.010268937618045275,-0.0653916693495819
5.083333333333321,0.38930082,-0.3380401,0.39694333,-2.4418464,-0.070252575,1.9098072,0.9676253,0.03999847,0.04,-9.607635413576983,-1.9929282198399751,-1.4627297953808212,-0.2154347056550676,-0.008502659191211123,-0.06685075072695366
5.099999999999987,0.39155903,-0.33546513,0.39924157,-2.4423387,-0.07065861,1.911762,0.96867317,0.039998453,0.04,-9.108023039407446,-2.2491818694926073,-1.9026925053372106,-0.21330046205104855,-0.00703332478490683,-0.060859657862462044
5.116666666666654,0.3938019,-0.33290818,0.40152377,-2.442828,-0.07106182,1.9137032,0.96971375,0.03999844,0.04,-9.149497892940122,-2.454310258388806,-1.7584399937708053,-0.2180257128462984,-0.010784103794018705,-0.06474115844627583
5.13333333333332,0.39602894,-0.33036968,0.40379,-2.4433131,-0.07146215,1.9156302,0.97074676,0.039998427,0.04,-9.210501853986589,-2.3564278415538387,-1.743729348618128,-0.21528246821711816,-0.010996963997097039,-0.06539798760336774
5.149999999999987,0.39824006,-0.32784978,0.4060398,-2.4437954,-0.07185956,1.9175434,0.9717722,0.039998412,0.04,-9.687629747776498,-2.0768633464885453,-1.8766448888973457,-0.21444852749917784,-0.006224457402779479,-0.06280491230685938
5.166666666666654,0.40043494,-0.3253488,0.4082729,-2.4442735,-0.07225394,1.9194422,0.97278994,0.0399984,0.04,-9.20211290919482,-2.07617279371605,-1.6753299253459866,-0.21188096288531258,-0.008180342085165774,-0.06041591285472263
5.18333333333332,0.4026133,-0.32286698,0.4104891,-2.4447484,-0.07264534,1.9213263,0.9738,0.039998386,0.04,-9.279009353360562,-2.080571179366418,-1.4064459408569694,-0.2119335578270749,-0.007465846586440651,-0.06015476052453336
5.199999999999987,0.4047751,-0.3204047,0.41268817,-2.4452193,-0.07303368,1.9231956,0.974802,0.03999838,0.04,-9.664117760530921,-2.144952213689494,-2.0423935643825297,-0.21022308043753224,-0.008441985544196479,-0.05839495875859247
5.2166666666666535,0.40692005,-0.3179621,0.41486987,-2.4456866,-0.073418915,1.9250501,0.97579616,0.03999837,0.04,-9.433722571665271,-1.9952196194910417,-2.1212155394867622,-0.20424512765965774,-0.010330604472915587,-0.05580198511981246
5.23333333333332,0.4090478,-0.3155395,0.41703388,-2.4461498,-0.07380099,1.9268897,0.9767821,0.03999836,0.04,-9.537279269775633,-2.113449914029189,-1.7256135261786365,-0.2062749607527529,-0.013427348660004427,-0.058828769336666746
5.249999999999987,0.41115823,-0.31313708,0.41918018,-2.4466095,-0.07417989,1.9287138,0.9777598,0.039998345,0.04,-9.581884215921564,-2.681409557427424,-2.100924500868249,-0.20472792932040296,-0.007933622124302854,-0.06305135779498879
5.266666666666653,0.41325104,-0.3107551,0.42130843,-2.4470649,-0.074555576,1.9305222,0.97872925,0.039998334,0.04,-9.405323289504997,-2.4764088214377495,-1.8666005380566189,-0.20508013551543336,-0.013005152640083277,-0.05412531022499775
5.28333333333332,0.41532615,-0.30839384,0.42341843,-2.4475164,-0.07492801,1.9323149,0.9796901,0.039998326,0.04,-9.546272699887417,-2.083408552282756,-1.8824867330725332,-0.201193805721741,-0.009725725061046384,-0.058813468823877786
5.2999999999999865,0.41738334,-0.3060535,0.42551002,-2.447964,-0.07529713,1.9340918,0.9806425,0.03999831,0.04,-9.289197799772689,-2.182096719750891,-1.8623937017733125,-0.1966055078218185,-0.011183914190481856,-0.053996414159834756
5.316666666666653,0.41942236,-0.3037343,0.427583,-2.4484074,-0.07566295,1.9358524,0.9815864,0.039998297,0.04,-9.462886877155823,-2.3286409635782728,-1.7132308141935728,-0.2047313796944779,-0.008136555728606517,-0.05672081806593431
5.33333333333332,0.42144293,-0.30143654,0.4296371,-2.4488468,-0.07602536,1.9375969,0.9825216,0.03999829,0.04,-9.368520352659992,-2.445313008172004,-2.3686297475887432,-0.19244053272942885,-0.011931540847502135,-0.05438865682232901
5.349999999999986,0.423445,-0.2991602,0.43167213,-2.449282,-0.076384395,1.9393251,0.9834481,0.039998274,0.04,-9.547108883713326,-2.40903301743241,-2.005230720898184,-0.19462261277176107,-0.010038847937683405,-0.05258434193670012
5.366666666666653,0.42542827,-0.29690582,0.43368798,-2.4497132,-0.07673998,1.9410366,0.9843656,0.03999826,0.04,-8.939688646675165,-1.9452818401576295,-1.7383854106023846,-0.19148904915109508,-0.0127174375828155,-0.0500051450602422
5.3833333333333195,0.42739263,-0.29467356,0.4356842,-2.4501402,-0.0770921,1.9427315,0.9852741,0.039998256,0.04,-9.485995702272888,-2.1778475742243715,-2.5203837273810024,-0.1886063589056334,-0.010605114638408722,-0.04695103079111407
5.399999999999986,0.4293378,-0.29246354,0.43766084,-2.450563,-0.07744072,1.9444094,0.98617345,0.039998244,0.04,-9.67373389417039,-2.065203755280755,-1.8082004075307212,-0.18776387591661323,-0.013208056207562874,-0.049386164648787347
5.416666666666653,0.43126366,-0.290276,0.4396177,-2.4509816,-0.07778579,1.9460701,0.9870638,0.039998233,0.04,-9.226036888955418,-2.2346520626558912,-1.8662025491542702,-0.18289873069671891,-0.015761857501592858,-0.04616882190204765
5.433333333333319,0.43317005,-0.28811103,0.44155452,-2.4513953,-0.0781273,1.9477139,0.9879449,0.039998222,0.04,-9.422552172723702,-2.4116283274239474,-1.7885810259916957,-0.18503745112447748,-0.008514694006146357,-0.04927330287421775
5.449999999999986,0.43505678,-0.285969,0.44347122,-2.4518049,-0.078465216,1.94934,0.9888168,0.03999821,0.04,-9.249043725710466,-2.5094221828885264,-1.9545949776202922,-0.18756791355154598,-0.003907215278498634,-0.04978199350782807
5.466666666666653,0.4369237,-0.28385,0.4453676,-2.4522107,-0.07879952,1.9509486,0.9896794,0.0399982,0.04,-9.82230365740688,-1.9256604880652082,-2.181714179390349,-0.18532078310094244,-0.010415621228933037,-0.04468496228644043
5.483333333333319,0.43877062,-0.28175414,0.44724336,-2.4526112,-0.07913018,1.9525398,0.99053246,0.039998192,0.04,-9.298990417195368,-2.2453210022548866,-2.2505157695697062,-0.18056521108076407,-0.00847119603388044,-0.0447808235303848
5.499999999999986,0.4405975,-0.27968165,0.44909856,-2.4530077,-0.07945716,1.9541138,0.99137586,0.03999819,0.04,-9.247639690121602,-2.1893734286677526,-1.8316639817630678,-0.17614226899252877,-0.013562281288743745,-0.04300391396396424
5.516666666666652,0.44240394,-0.2776328,0.4509329,-2.4533997,-0.07978042,1.9556693,0.99220973,0.039998177,0.04,-9.086358960896051,-2.2750196553282787,-1.9830774031054785,-0.17598322320713675,-0.007725593633647951,-0.043483389400526457
5.533333333333319,0.44418997,-0.27560762,0.45274627,-2.4537873,-0.08009993,1.9572068,0.99303406,0.039998166,0.04,-9.443637047166439,-2.3996439567206314,-1.7814916752562997,-0.1690897341273908,-0.009784957683733221,-0.038308627011341405
5.549999999999986,0.4459555,-0.27360633,0.45453852,-2.4541702,-0.08041566,1.9587259,0.9938485,0.039998155,0.04,-9.385498021015993,-2.447525050153721,-2.2868468961645636,-0.16853279359688017,-0.012233316435970651,-0.04044346474246924
5.566666666666652,0.4477003,-0.27162915,0.4563095,-2.454548,-0.0807276,1.9602259,0.9946533,0.039998148,0.04,-9.469667919577233,-2.3454088352107223,-2.0852418605389587,-0.16574237723291324,-0.011224260745804931,-0.03941018063684791
5.583333333333319,0.44942406,-0.2696761,0.45805904,-2.4549217,-0.081035756,1.9617091,0.9954482,0.03999814,0.04,-9.332675234619565,-2.56659740866538,-2.2768517015019847,-0.16786663679656294,-0.012881608316166294,-0.04319386603972057
5.599999999999985,0.45112687,-0.26774743,0.45978707,-2.4552898,-0.08134006,1.9631741,0.99623317,0.03999813,0.04,-9.272816937721586,-2.493675218194804,-2.5484696080116063,-0.1641893292274557,-0.014225330269281043,-0.03846168440307675
5.616666666666652,0.45280853,-0.26584336,0.4614934,-2.4556534,-0.08164048,1.96462,0.9970081,0.039998118,0.04,-9.603585650808766,-2.205992321935228,-2.194354477094737,-0.16581058947549826,-0.013012269964404702,-0.03750841846855463
5.633333333333319,0.45446903,-0.26396397,0.46317798,-2.456013,-0.08193702,1.966047,0.997773,0.039998103,0.04,-9.34415984666332,-2.3566231675547673,-2.114086772599078,-0.16156295020563108,-0.011383042573508523,-0.04009799343995893
5.649999999999985,0.45610812,-0.26210922,0.46484062,-2.4563675,-0.08222968,1.9674554,0.9985281,0.039998095,0.04,-9.630884580551086,-2.5324774961936556,-2.309465678014865,-0.16340700916045653,-0.012153003675169511,-0.03870491114381817
5.666666666666652,0.45772573,-0.26027924,0.46648133,-2.4567177,-0.082518436,1.9688448,0.9992729,0.03999808,0.04,-9.145864905365736,-2.4891406841913373,-2.1113936567869858,-0.1548429604299808,-0.009493862209901591,-0.03765584171022047
5.6833333333333185,0.45932165,-0.25847435,0.46809986,-2.4570627,-0.08280327,1.970215,1.0000075,0.039998077,0.04,-8.89634150296003,-2.1538523784634336,-2.0430843863591144,-0.1546836276852383,-0.0111913877608041,-0.038129118125877375
5.699999999999985,0.4608959,-0.2566946,0.4696962,-2.4574027,-0.083084136,1.971566,1.0007323,0.039998073,0.04,-9.113917158643586,-2.27125886442117,-2.0591498987528576,-0.1549884598422086,-0.011759153892041962,-0.03264617189380454
5.716666666666652,0.4624483,-0.25494,0.47127023,-2.4577382,-0.083361045,1.9728981,1.0014468,0.039998066,0.04,-9.512956476472326,-1.9528152224487192,-1.8298031268663395,-0.14526560267533103,-0.015365551388497656,-0.036777973348605386
5.733333333333318,0.4639789,-0.25321063,0.47282195,-2.4580684,-0.08363394,1.974211,1.0021502,0.039998062,0.04,-9.292604388029108,-2.0777749376958528,-2.158695198371315,-0.1460061627160626,-0.01139171119390436,-0.03221539637443613
5.749999999999985,0.46548742,-0.25150678,0.47435114,-2.4583943,-0.08390283,1.9755046,1.0028436,0.03999806,0.04,-9.076302046549666,-2.4500800232097197,-1.7381625414305597,-0.14281670876334537,-0.015812986381774027,-0.036664870567012925
5.7666666666666515,0.46697402,-0.2498284,0.47585788,-2.4587152,-0.08416773,1.976779,1.003527,0.03999805,0.04,-9.689974683580822,-2.4103458024005207,-2.134018768793271,-0.14668929064963698,-0.012777340408982402,-0.03468440597984942
5.783333333333318,0.4684384,-0.24817544,0.47734198,-2.4590316,-0.084428556,1.9780338,1.0041999,0.039998036,0.04,-9.353678135448325,-2.4257741768854224,-2.0284971994855296,-0.14479446736480026,-0.011100350325783112,-0.03581955225416163
5.799999999999985,0.4698805,-0.24654815,0.47880328,-2.459343,-0.084685355,1.9792693,1.0048621,0.03999803,0.04,-9.838462264350015,-2.615302227792268,-2.087876606510831,-0.14463801622361355,-0.012910086949874718,-0.03644332490010139
5.816666666666651,0.4713004,-0.24494651,0.48024184,-2.4596488,-0.08493813,1.9804853,1.0055138,0.039998017,0.04,-9.444283684073175,-2.209667987553977,-1.7354492405401496,-0.13334058113108782,-0.01619602008947463,-0.025541140150234298
5.833333333333318,0.47269782,-0.24337061,0.48165756,-2.4599504,-0.08518682,1.9816817,1.0061553,0.03999801,0.04,-9.138556245338815,-2.5463332269166736,-2.41610532612813,-0.13120029121373236,-0.013106338314578164,-0.027592023704171704
5.8499999999999845,0.47407287,-0.24182054,0.4830504,-2.460247,-0.085431464,1.9828587,1.0067861,0.039998002,0.04,-9.335991000551315,-2.539562538562342,-2.0168278636267507,-0.13099864505232306,-0.014501714944913386,-0.02818745948904021
5.866666666666651,0.47542548,-0.2402963,0.4844203,-2.4605384,-0.08567207,1.9840158,1.0074066,0.039997995,0.04,-9.53489969930406,-2.112837218304079,-2.4165118826166156,-0.12749771444337862,-0.011746555764107634,-0.025549215395886303
5.883333333333318,0.4767556,-0.2387979,0.4857673,-2.460825,-0.08590858,1.9851536,1.0080163,0.039997995,0.04,-9.12914415704706,-2.344976421539917,-1.8358196362987937,-0.12618710786599158,-0.010609673830860191,-0.02299220667638809
5.899999999999984,0.47806314,-0.23732543,0.4870913,-2.4611063,-0.086140975,1.9862715,1.0086156,0.03999799,0.04,-8.959562078021388,-2.5768127309425055,-1.7838190092989545,-0.12825263946711557,-0.016628133170466654,-0.030088885663732908
5.916666666666651,0.4793481,-0.23587885,0.48839232,-2.4613826,-0.0863693,1.9873697,1.0092045,0.039997987,0.04,-9.428219808769025,-2.4603590623310905,-1.8320717344327306,-0.1231818029821786,-0.012997318018789679,-0.02877039301959081
5.933333333333318,0.48061055,-0.23445825,0.48967013,-2.461654,-0.08659351,1.9884481,1.0097827,0.039997984,0.04,-9.510074223206741,-2.2612400269127306,-1.8448704235741304,-0.11692477753915342,-0.009783992725932472,-0.020934072568634693
5.949999999999984,0.48185036,-0.23306358,0.49092495,-2.4619205,-0.08681363,1.9895072,1.0103505,0.03999798,0.04,-9.319865453305518,-2.643237755506461,-2.181870447157612,-0.117604978384955,-0.007696440906199605,-0.023560811996503426
5.966666666666651,0.48306754,-0.23169488,0.49215677,-2.4621823,-0.08702968,1.9905462,1.0109079,0.039997976,0.04,-9.386799522524807,-2.1555254717267878,-1.8200380839633563,-0.11401520116901644,-0.010890517705470636,-0.024576825301313873
5.983333333333317,0.48426205,-0.23035216,0.49336547,-2.4624383,-0.087241635,1.9915656,1.0114546,0.039997973,0.04,-9.021357833808365,-2.457002658677509,-2.27696268094005,-0.11088480390866362,-0.01130794665738274,-0.027287480713117308
5.999999999999984,0.48543394,-0.22903538,0.49455106,-2.4626904,-0.08744949,1.9925653,1.0119907,0.03999797,0.04,-9.22057738615068,-2.468821129952185,-2.1653085547968374,-0.10934931610206682,-0.014080364967300084,-0.020426725022806576
6.016666666666651,0.4865832,-0.22774443,0.49571362,-2.4629369,-0.08765326,1.9935455,1.0125161,0.03999797,0.04,-9.32691359604913,-2.5314802178479883,-2.106187628809047,-0.1110584726496318,-0.0158488997853766,-0.02727691113238636
6.033333333333317,0.4877097,-0.22647943,0.49685326,-2.4631782,-0.08785297,1.994506,1.0130312,0.039997965,0.04,-9.31077183360294,-2.21568545667039,-2.154117153815335,-0.10615497649774369,-0.014742865250216144,-0.02442042218807609
6.049999999999984,0.4888137,-0.22524028,0.4979698,-2.4634156,-0.088048585,1.9954468,1.0135356,0.03999796,0.04,-9.166730861416063,-2.2752732269011404,-2.1550934117798217,-0.10192357545461814,-0.014155788434565044,-0.027942447755130006
6.06666666666665,0.48989516,-0.22402693,0.49906337,-2.463647,-0.088240124,1.996368,1.0140294,0.039997958,0.04,-9.267314234347774,-2.4788334258889857,-2.5055431313648895,-0.09932466289114128,-0.01297453862338562,-0.0274080346898133
6.083333333333317,0.49095407,-0.22283936,0.500134,-2.4638736,-0.08842759,1.9972697,1.0145128,0.03999795,0.04,-9.100971179276732,-2.038677342649256,-2.134292144429624,-0.09714133275291972,-0.01419133315686534,-0.017399890261635204
6.099999999999984,0.4919904,-0.22167745,0.50118166,-2.464096,-0.08861098,1.9981519,1.014986,0.039997943,0.04,-9.658376390948966,-2.6039444859337952,-2.4529243399349445,-0.10110685692661836,-0.01313582674338567,-0.017331963913540388
6.11666666666665,0.49300423,-0.22054113,0.50220674,-2.464313,-0.08879032,1.9990145,1.0154487,0.03999794,0.04,-9.07612950511264,-2.2514759391857817,-2.2641223850554515,-0.09628705849659205,-0.010343545640435804,-0.022040331892703966
6.133333333333317,0.4939956,-0.21943043,0.5032089,-2.4645255,-0.08896565,1.9998579,1.0159009,0.039997935,0.04,-9.1736193182443,-2.3858415596033544,-2.4526610605101737,-0.09240350631173122,-0.020402978208157483,-0.01769466535383014
6.1499999999999835,0.4949646,-0.2183452,0.50418824,-2.4647326,-0.08913694,2.0006816,1.0163426,0.039997935,0.04,-9.289745522052016,-2.4422340888551095,-2.2509167776266272,-0.08340619061051167,-0.01800822678656036,-0.015459967186389853
6.16666666666665,0.49591124,-0.21728534,0.5051449,-2.4649348,-0.08930425,2.0014863,1.0167742,0.03999793,0.04,-9.405725396694164,-2.2326880296748133,-2.300492742364186,-0.08757098745107415,-0.01261070108823142,-0.01346500106077148
6.183333333333317,0.49683568,-0.21625079,0.50607944,-2.465133,-0.08946757,2.0022721,1.0171955,0.039997928,0.04,-9.66013717008138,-2.585578778373848,-2.143959673307328,-0.08623579371499408,-0.011309419631806572,-0.016475296057787105
6.199999999999983,0.49773785,-0.21524142,0.5069911,-2.465325,-0.08962692,2.0030382,1.0176065,0.03999793,0.04,-9.466776567498455,-2.3360290792470018,-2.4562643248552964,-0.07916489754821333,-0.013829592128001712,-0.012828764905522424
6.21666666666665,0.49861807,-0.21425709,0.50788045,-2.4655135,-0.0897823,2.0037854,1.0180072,0.039997924,0.04,-9.357305310959008,-2.2401883031217693,-2.238598990370351,-0.07642308112639383,-0.010765640091094365,-0.012324609150126897
6.2333333333333165,0.49947616,-0.21329775,0.5087475,-2.4656966,-0.08993379,2.0045137,1.0183978,0.03999792,0.04,-9.194184787504774,-2.09904066718088,-2.1797057274988956,-0.07890657223238971,-0.014445399371698983,-0.019608824308980595
6.249999999999983,0.5003125,-0.21236323,0.5095924,-2.4658744,-0.09008133,2.0052235,1.0187784,0.039997924,0.04,-9.243241186118611,-2.3032692890763284,-1.8575284792231348,-0.07504079486269648,-0.009846818430497853,-0.01487487493819707
6.26666666666665,0.501127,-0.21145335,0.51041526,-2.4660492,-0.090224974,2.0059144,1.0191486,0.039997924,0.04,-9.444855214690081,-2.1816339887525595,-2.0999728941924745,-0.06967672934802263,-0.016114806622906326,-0.013595543437045261
6.283333333333316,0.50191987,-0.21056801,0.51121634,-2.466218,-0.09036474,2.0065868,1.0195091,0.039997924,0.04,-9.127549682402611,-2.426225909671864,-2.169296005579582,-0.06255073536691436,-0.01292206100086608,-0.01578595742115531
6.299999999999983,0.5026909,-0.209707,0.5119956,-2.4663832,-0.09050065,2.0072405,1.0198598,0.03999792,0.04,-9.068670081595627,-2.02679591953117,-2.2419155625500062,-0.06978762908695513,-0.015454587201100947,-0.015269299147039188
6.3166666666666496,0.5034408,-0.20887019,0.5127531,-2.4665427,-0.09063277,2.007876,1.0202003,0.039997917,0.04,-9.516792020359619,-2.058449614959301,-2.16644573543214,-0.06631283821955226,-0.015094761457394978,-0.013175522512450643
6.333333333333316,0.5041693,-0.20805737,0.5134891,-2.4666975,-0.09076109,2.0084932,1.020531,0.039997917,0.04,-9.165034307883873,-2.848336337442408,-2.292041082882385,-0.06608121234483273,-0.009311709256073422,-0.011531564816893335
6.349999999999983,0.50487673,-0.20726845,0.5142038,-2.4668486,-0.09088565,2.0090926,1.0208522,0.039997917,0.04,-9.36038535980647,-2.055129406742094,-2.13299219049029,-0.06091302436142931,-0.011410900440817802,-0.013008261381152717
6.366666666666649,0.5055631,-0.20650312,0.51489735,-2.4669938,-0.09100649,2.0096734,1.0211637,0.039997917,0.04,-9.32712974544621,-2.411759593265929,-2.3312230404737253,-0.05812030516067596,-0.012859101980107436,-0.011977269917250325
6.383333333333316,0.50622857,-0.20576125,0.51556987,-2.4671366,-0.09112361,2.0102367,1.0214658,0.03999792,0.04,-9.08848170567964,-2.369740561288179,-2.2551415876104937,-0.06154149036050705,-0.014225683676832135,-0.018298848530334293
6.399999999999983,0.5068734,-0.20504259,0.51622146,-2.4672732,-0.09123708,2.0107822,1.0217581,0.039997924,0.04,-9.306287737810221,-2.1799189635791008,-2.1011463014871823,-0.05804464561623719,-0.01759641149814339,-0.012011116125745227
6.416666666666649,0.5074978,-0.20434695,0.5168527,-2.467407,-0.09134691,2.0113106,1.0220413,0.03999792,0.04,-9.490033129800594,-2.289649079917349,-2.454860530019813,-0.04791717728422292,-0.016767657049965825,-0.008488463283668196
6.433333333333316,0.5081019,-0.20367415,0.5174632,-2.4675353,-0.09145314,2.011822,1.0223151,0.039997924,0.04,-9.332277220972593,-2.344667620668957,-1.922540871281329,-0.05306612557624835,-0.013394265382873407,-0.009866487016249998
6.449999999999982,0.5086859,-0.20302385,0.51805365,-2.4676585,-0.09155581,2.0123158,1.0225799,0.039997924,0.04,-9.392848044793347,-1.8913640579300324,-2.270255879140327,-0.05173703017528886,-0.014008942433280823,-0.012593481829918965
6.466666666666649,0.50925,-0.20239586,0.51862407,-2.4677787,-0.09165498,2.0127926,1.0228357,0.039997928,0.04,-9.329009678898192,-2.2122413795941216,-2.442105306611323,-0.04418795653451526,-0.009367302090788177,-0.011136060654713611
6.483333333333316,0.50979424,-0.20178989,0.5191747,-2.467893,-0.09175068,2.0132525,1.0230825,0.039997928,0.04,-9.266931822347225,-2.4620465289685436,-2.2873488863832816,-0.04285689701265978,-0.014188396047043122,-0.005306845951548407
6.499999999999982,0.51031905,-0.20120567,0.5197058,-2.4680052,-0.09184293,2.0136964,1.0233202,0.039997928,0.04,-9.498370222956293,-2.431785656374064,-1.927636173208175,-0.042621759279257265,-0.01573172186063736,-0.009030941237089219
6.516666666666649,0.5108246,-0.20064299,0.5202176,-2.4681115,-0.09193178,2.014124,1.0235494,0.03999793,0.04,-9.23414354719207,-2.289812204311252,-2.1889134709115963,-0.03875007642372312,-0.01698320418268567,-0.0067134002747820595
6.5333333333333155,0.5113112,-0.2001015,0.52071023,-2.468216,-0.09201726,2.014535,1.0237696,0.03999793,0.04,-9.56953198251012,-2.589235798296459,-2.500747004620796,-0.037494921405175345,-0.01376535026427538,-0.0029705067781380487
6.549999999999982,0.51177895,-0.19958091,0.52118415,-2.4683144,-0.09209948,2.0149302,1.0239816,0.03999793,0.04,-8.903882080899454,-2.1269981071978434,-2.3569238808876882,-0.03497602581279707,-0.017667662342447783,0.0003275126446123649
6.566666666666649,0.5122282,-0.199081,0.5216395,-2.4684107,-0.09217846,2.0153096,1.0241854,0.03999793,0.04,-9.057522951391926,-2.418100865603016,-2.505498040688356,-0.03491005587449931,-0.015353907923294198,-0.006959367592778012
6.583333333333315,0.51265925,-0.1986013,0.5220766,-2.468501,-0.09225423,2.0156736,1.0243808,0.039997928,0.04,-9.359738738842816,-2.266696570146878,-2.2202169034365182,-0.031855894847660944,-0.008140243143999372,-0.0034661870415993107
6.599999999999982,0.51307225,-0.19814159,0.52249575,-2.4685898,-0.09232686,2.016023,1.0245677,0.03999793,0.04,-9.126704900452879,-2.163224377156514,-2.2558994308094733,-0.03195198667872938,-0.018370858141444464,-0.0021058273122186617
6.6166666666666485,0.51346755,-0.19770151,0.5228972,-2.4686725,-0.092396386,2.0163572,1.0247468,0.03999793,0.04,-9.259557543677477,-2.244409505394395,-2.2306731119478407,-0.0240556976235562,-0.013261052347595887,-0.005122098334600912
6.633333333333315,0.5138456,-0.19728069,0.5232813,-2.4687536,-0.09246287,2.016677,1.0249182,0.039997935,0.04,-9.499839387169711,-2.569737196717748,-2.3504303792418786,-0.0223820687916693,-0.009944230445833258,-0.006832514371181475
6.649999999999982,0.5142065,-0.19687879,0.5236482,-2.468829,-0.09252638,2.0169823,1.0250819,0.039997935,0.04,-9.100468318899699,-2.3746242341827153,-2.3694865972247956,-0.025837232031782006,-0.011752723439310914,-0.0076141260811374255
6.666666666666648,0.5145507,-0.19649552,0.5239986,-2.4689028,-0.092586935,2.0172734,1.0252382,0.039997935,0.04,-9.228255572771038,-2.2430272909934983,-2.44196244650861,-0.02541006202316277,-0.01257824822243721,-0.005151759446758069
6.683333333333315,0.5148784,-0.19613042,0.52433246,-2.4689722,-0.09264463,2.0175505,1.0253869,0.039997935,0.04,-9.007985518483332,-2.172217449577774,-1.904070795907746,-0.01931765918549262,-0.010433026889776506,-0.003187043578669836
6.6999999999999815,0.51518995,-0.1957831,0.5246503,-2.4690385,-0.09269952,2.0178146,1.0255284,0.03999794,0.04,-9.401502003213647,-2.3387533418417656,-1.705000582945574,-0.02006333238606005,-0.009927156629944525,-0.0011175015095488477
6.716666666666648,0.5154857,-0.19545318,0.5249524,-2.4691033,-0.09275167,2.0180655,1.0256629,0.039997943,0.04,-9.29342252122004,-2.5094103397833245,-2.2958499108808814,-0.0200659819732317,-0.0117197490555821,-0.005176940140329394
6.733333333333315,0.5157659,-0.19514024,0.5252392,-2.4691622,-0.092801124,2.0183034,1.0257906,0.039997946,0.04,-9.523587620061033,-2.182193171341751,-2.253150684436901,-0.01096247237582977,-0.011913880193484484,-0.0031369242776211805
6.749999999999981,0.51603127,-0.19484383,0.5255111,-2.4692197,-0.092848,2.0185287,1.0259115,0.03999795,0.04,-9.312339557366045,-2.504087922890135,-1.9689818961542782,-0.014874747959659663,-0.01028881034255858,-0.0025974025076741535
6.766666666666648,0.5162819,-0.19456361,0.5257681,-2.469272,-0.09289229,2.018742,1.0260259,0.03999795,0.04,-9.24065960804655,-1.9494008336870166,-2.432808171873813,-0.012964281590753902,-0.011446807805384495,-0.0014955482649761007
6.783333333333315,0.51651806,-0.19429912,0.5260112,-2.4693227,-0.092934124,2.0189435,1.0261337,0.039997958,0.04,-9.569347619726328,-2.1049927241373054,-2.276960915711095,-0.0167567080904896,-0.010788707207130743,-0.004099710926371784
6.799999999999981,0.5167403,-0.19404985,0.5262402,-2.4693723,-0.092973515,2.0191326,1.0262353,0.03999796,0.04,-9.348664423552927,-2.186147816838279,-2.015056465215644,-0.010361923218285555,-0.013599051387741323,-0.0003973323533573601
6.816666666666648,0.5169491,-0.19381543,0.5264559,-2.469416,-0.0930106,2.019311,1.026331,0.039997965,0.04,-9.195369918222946,-2.2271809228360526,-2.5268429741497096,-0.0071739252783278055,-0.015505855242040845,0.0029537101352816895
6.833333333333314,0.5171448,-0.1935953,0.5266586,-2.4694583,-0.0930454,2.0194783,1.0264205,0.03999797,0.04,-8.736916328659653,-2.3356471603106645,-2.2636770864807083,-0.0027279520019323537,-0.012814764823451223,-0.00203957911097692
6.849999999999981,0.5173277,-0.19338903,0.52684873,-2.4694982,-0.093078025,2.0196352,1.0265045,0.039997973,0.04,-9.566134990720588,-2.709436388346279,-2.2416332596885282,-0.005880261053825344,-0.0119170276006853,-0.0018938561238053628
6.866666666666648,0.5174985,-0.19319613,0.52702683,-2.4695337,-0.09310855,2.0197825,1.0265834,0.039997973,0.04,-9.085243813097772,-2.0955055929044994,-1.627725208819761,-0.00455747835911848,-0.008622836034065932,0.002361530464839085
6.883333333333314,0.5176574,-0.19301605,0.52719337,-2.4695683,-0.093137056,2.019919,1.0266569,0.039997973,0.04,-9.479392279254387,-2.2058692385649343,-2.3677496451355173,0.0017631130621648607,-0.01645776025621399,0.0005389506445365901
6.899999999999981,0.51780504,-0.19284828,0.52734876,-2.4696014,-0.093163624,2.0200465,1.0267254,0.039997976,0.04,-8.95458318391886,-2.2136518280550748,-2.2257978324337153,-0.004796209812742336,-0.012124539480074723,0.004549435704664791
6.916666666666647,0.5179418,-0.19269228,0.52749324,-2.4696298,-0.09318831,2.0201652,1.0267891,0.03999798,0.04,-9.123590823733498,-2.41865918675617,-2.5229832001591648,0.002212771470716465,-0.011047388128470783,-0.0001628287720974064
6.933333333333314,0.5180681,-0.19254757,0.52762765,-2.469657,-0.093211226,2.0202756,1.0268482,0.039997984,0.04,-9.374943294774253,-2.3851626608895997,-2.3855089326515895,0.006718967767120049,-0.018626204807768144,-0.002068241111741603
6.949999999999981,0.51818436,-0.19241358,0.52775216,-2.4696836,-0.09323245,2.0203779,1.0269032,0.039997987,0.04,-9.21103447202419,-2.2937281440884654,-2.241865907420249,0.0031492164653253137,-0.011976168505974428,0.004086029920146747
6.966666666666647,0.5182911,-0.19228974,0.52786756,-2.4697073,-0.09325209,2.0204725,1.0269538,0.039997987,0.04,-9.405103069598809,-2.152762658646338,-2.2054791455954583,0.005164665672022139,-0.009663336243736416,-0.004687476086709047
6.983333333333314,0.5183891,-0.19217548,0.52797437,-2.4697278,-0.09327022,2.02056,1.0270005,0.03999799,0.04,-9.112487893909906,-2.2283848212907102,-2.4018041295586574,0.003993814311046657,-0.015496475670003165,-0.0036839623707693413
6.9999999999999805,0.51847875,-0.1920702,0.52807295,-2.4697473,-0.09328691,2.020641,1.0270436,0.039997995,0.04,-9.020169480225482,-2.48721621540823,-1.8628293041741428,-0.0004597944707482473,-0.011210172346472584,0.002368793210687879
7.016666666666647,0.51856035,-0.19197333,0.52816373,-2.4697664,-0.093302295,2.0207164,1.027083,0.039998,0.04,-9.622837126738636,-2.487433698700495,-2.218540053033312,0.008150873863261762,-0.014350786156751708,0.003995667787158985
7.033333333333314,0.51863474,-0.19188417,0.52824736,-2.4697852,-0.093316466,2.0207844,1.0271192,0.039998002,0.04,-9.28150321360232,-2.434744390467739,-2.0925247783922485,0.0041254960377399,-0.010075785178004672,0.002408542668570613
7.04999999999998,0.51870245,-0.19180222,0.5283244,-2.4698005,-0.093329474,2.0208447,1.0271529,0.039998006,0.04,-9.291280585873999,-2.4832485430340854,-2.4740483891493863,0.00670339864590363,-0.008392219534358817,-0.0025022555205176417
7.066666666666647,0.51876354,-0.19172686,0.5283955,-2.469814,-0.093341425,2.020904,1.0271841,0.03999801,0.04,-9.215662932707192,-2.388094865646763,-2.424188346734235,0.006468697935473137,-0.017908946188150626,0.003344763632205559
7.0833333333333135,0.51881903,-0.19165757,0.52846086,-2.4698262,-0.09335242,2.0209565,1.0272123,0.039998014,0.04,-9.63122058526323,-2.470071009240086,-2.1069646899566905,0.012706352380895842,-0.01454406680052958,0.0029622090465610787
7.09999999999998,0.51886934,-0.19159389,0.5285213,-2.4698381,-0.09336253,2.021005,1.0272386,0.039998017,0.04,-8.93052679045434,-2.3551856821447297,-2.529424698955929,0.007887362333655399,-0.013949038651138789,0.0052984200986227244
7.116666666666647,0.51891506,-0.19153532,0.5285769,-2.4698496,-0.093371846,2.0210497,1.0272627,0.039998017,0.04,-9.019215130153732,-2.1419077149841996,-2.2882644745091034,0.0034770104952258356,-0.016936183937487047,-0.0004232168156476166
7.133333333333313,0.5189563,-0.19148147,0.5286281,-2.469861,-0.093380444,2.0210915,1.0272849,0.03999802,0.04,-9.457855213996924,-2.317226809572522,-2.0996385893730896,0.008550523773409244,-0.01498552740292501,0.0016219399094950285
7.14999999999998,0.51899385,-0.19143192,0.5286754,-2.469872,-0.09338834,2.0211287,1.0273052,0.03999802,0.04,-9.275574198929437,-2.0647067404105868,-2.251039557847671,0.012152337067122966,-0.01189276702866568,0.0022643352314937375
7.1666666666666465,0.51902795,-0.19138639,0.52871895,-2.4698808,-0.0933956,2.0211656,1.0273243,0.03999803,0.04,-9.626236412982518,-2.348556789767054,-1.9541485586812932,0.013040264890010572,-0.016981799785644482,-0.0010105015411571347
7.183333333333313,0.5190585,-0.19134453,0.52875894,-2.4698884,-0.093402274,2.0211954,1.0273412,0.039998025,0.04,-9.706255193041748,-1.7431859841781223,-2.5694526082019404,0.005898168590174515,-0.013763369477973294,-0.002573689420967087
7.19999999999998,0.5190865,-0.19130605,0.5287957,-2.4698951,-0.09340845,2.021225,1.0273573,0.039998032,0.04,-9.038437462405211,-2.200117135472847,-2.4124372732566335,0.012807442005954182,-0.014136451598525656,0.005555033837266452
7.216666666666646,0.5191116,-0.1912707,0.52882975,-2.4699013,-0.09341407,2.0212543,1.027372,0.03999803,0.04,-9.261774905233265,-2.1223482008398054,-2.1897341411154825,0.011724814189934015,-0.016840254387448,0.005123849224387458
7.233333333333313,0.51913434,-0.19123815,0.528861,-2.4699068,-0.09341927,2.0212765,1.0273852,0.039998032,0.04,-8.927670636096352,-2.4935426951320414,-2.2546330479590124,0.008498739343675942,-0.011639753413078309,0.00013207009591122428
7.24999999999998,0.519155,-0.19120826,0.5288898,-2.4699116,-0.093424045,2.0212984,1.0273978,0.039998036,0.04,-9.059782400746618,-2.2859700188865575,-2.10651860494784,0.01073670295494091,-0.011132211696675944,0.0012381771220845174
7.266666666666646,0.5191738,-0.19118078,0.52891636,-2.469916,-0.09342842,2.0213203,1.0274093,0.039998036,0.04,-9.447155759702003,-2.38569855187091,-2.4111607454539423,0.014625376238224663,-0.009745724200440472,0.00024302065680347303
7.283333333333313,0.51919067,-0.19115551,0.528941,-2.4699204,-0.09343249,2.0213418,1.0274197,0.039998036,0.04,-9.29420488325483,-2.0137057518907,-2.1833495075458966,0.014990198291827277,-0.016503595015073726,0.00486427870941333
7.299999999999979,0.51920587,-0.19113226,0.52896357,-2.4699244,-0.093436204,2.0213592,1.0274292,0.039998036,0.04,-9.526858282561275,-2.386965120709266,-2.6088246762114418,0.005103291292189533,-0.009394854814137718,-0.0006381875456948058
7.316666666666646,0.51921976,-0.19111091,0.5289845,-2.4699285,-0.09343961,2.0213737,1.0274382,0.03999804,0.04,-9.15484932097948,-2.1754756828291533,-2.5109310355143735,0.011680199347621227,-0.013432755727858863,-0.0015949707275415494
7.333333333333313,0.5192323,-0.19109124,0.52900374,-2.4699326,-0.09344275,2.021388,1.0274464,0.03999804,0.04,-9.30026257352341,-2.2338935718045527,-2.070799736069972,0.014205774140818583,-0.013618487235959239,0.004611452059834365
7.349999999999979,0.5192437,-0.19107313,0.5290214,-2.4699364,-0.09344565,2.0214024,1.027454,0.03999804,0.04,-9.496175986272913,-2.273858635537163,-2.309293527535928,0.010830487265436717,-0.01188414831747417,0.003817987572743944
7.366666666666646,0.5192541,-0.19105646,0.52903765,-2.4699402,-0.09344832,2.0214164,1.0274608,0.03999804,0.04,-9.45161705013303,-2.3559642951190978,-2.258552451262727,0.009843136832481968,-0.009847130971157277,0.006107699314352168
7.383333333333312,0.51926345,-0.19104117,0.5290526,-2.469944,-0.09345078,2.02143,1.0274671,0.03999804,0.04,-9.127170511022003,-2.6031494712443415,-1.9494641918541633,0.012149612146053783,-0.012817836346512023,0.0027865926806396536
7.399999999999979,0.51927197,-0.19102713,0.5290664,-2.4699476,-0.093453035,2.0214431,1.0274729,0.03999804,0.04,-9.270997672347699,-1.948586675050969,-2.448353939085318,0.016772109902152464,-0.014932276276111572,0.0014623596273533627
7.416666666666646,0.5192796,-0.19101422,0.5290791,-2.4699512,-0.09345513,2.02145,1.0274782,0.03999804,0.04,-9.218064982902108,-2.175032302801593,-2.293946306175167,0.01741196758329612,-0.015475612400087305,0.006507680863323492
7.433333333333312,0.51928633,-0.19100238,0.5290908,-2.4699545,-0.09345704,2.021457,1.0274833,0.039998043,0.04,-9.349062294165236,-2.360868381424015,-2.54432346363214,0.014616834927480152,-0.013697009330320862,0.005000935117973395
7.449999999999979,0.51929265,-0.19099149,0.52910167,-2.4699578,-0.09345878,2.0214636,1.0274879,0.039998043,0.04,-8.963425267298295,-1.8518284233025903,-2.3137574681865214,0.0014899172789837284,0.0033612666284402173,-0.0030887649974268502
7.4666666666666455,0.51929265,-0.19099149,0.52910167,-2.4699578,-0.09345878,2.0214636,1.0274879,0.039998043,0.04,-9.200780237146246,-1.9527312505805592,-2.216739639577343,0.0016661329853560186,0.0001014146458644223,-0.003028394241077106
7.483333333333312,0.51929265,-0.19099149,0.52910167,-2.4699578,-0.09345878,2.0214636,1.0274879,0.039998043,0.04,-9.409700946676484,-2.2548698821530486,-2.1582319472538987,0.0013551266236674782,-0.0005284377948311046,0.0023809105122751303
7.499999999999979,0.51929265,-0.19099149,0.52910167,-2.4699578,-0.09345878,2.0214636,1.0274879,0.039998043,0.04,-9.222104262198542,-2.219294147991335,-2.2591935196414403,0.0017115441556636618,-0.002933862866126742,0.0030464833034401975
7.516666666666645,0.51929265,-0.19099149,0.52910167,-2.4699578,-0.09345878,2.0214636,1.0274879,0.039998043,0.04,-9.3998100399472,-2.4224520533777905,-2.0298255875470055,-0.004602061105176251,0.00167069142771189,-0.0056299890226741605
7.533333333333312,0.51929265,-0.19099149,0.52910167,-2.4699578,-0.09345878,2.0214636,1.0274879,0.039998043,0.04,-9.35958390120044,-2.2073382555069583,-2.198361178682851,0.0016906068326944556,0.002498912875208921,-0.00520606503791795
7.5499999999999785,0.51929265,-0.19099149,0.52910167,-2.4699578,-0.09345878,2.0214636,1.0274879,0.039998043,0.04,-9.742725256792431,-2.5667453509798124,-2.323111200385864,0.004208886885872606,-0.00034485014605296335,0.0036851657207114014
7.566666666666645,0.51929265,-0.19099149,0.52910167,-2.4699578,-0.09345878,2.0214636,1.0274879,0.039998043,0.04,-9.159253428952955,-2.098156474535642,-2.2940473821838485,-0.0038484946665845697,0.00048756520308171765,0.002493628159300157
7.583333333333312,0.51929265,-0.19099149,0.52910167,-2.4699578,-0.09345878,2.0214636,1.0274879,0.039998043,0.04,-8.96652144935164,-2.208839531699316,-2.185741454154738,-0.003620440446474888,0.00010794610643877098,0.0010615322497635475
7.599999999999978,0.51929265,-0.19099149,0.52910167,-2.4699578,-0.09345878,2.0214636,1.0274879,0.039998043,0.04,-9.097054730735216,-1.9981161177946252,-2.495092578926875,-0.0015473135642694125,-0.0022873759758376853,0.002105314600364056
7.616666666666645,0.51929265,-0.19099149,0.52910167,-2.4699578,-0.09345878,2.0214636,1.0274879,0.039998043,0.04,-9.06299805740016,-2.44032724973544,-2.3587477199651685,0.0031742341849324653,-0.0017336052501030694,0.0031445504505690732
7.6333333333333115,0.51929265,-0.19099149,0.52910167,-2.4699578,-0.09345878,2.0214636,1.0274879,0.039998043,0.04,-9.47214449234849,-2.3176971554574357,-2.0861512023551763,-0.0004090752431295799,0.00226051726133962,-0.0021740291923107832
7.649999999999978,0.51929265,-0.19099149,0.52910167,-2.4699578,-0.09345878,2.0214636,1.0274879,0.039998043,0.04,-9.388375657076658,-2.3054896764458963,-2.2265495608830097,0.0019342715726897465,0.0008870675326036335,-0.002045945565078731
7.666666666666645,0.51929265,-0.19099149,0.52910167,-2.4699578,-0.09345878,2.0214636,1.0274879,0.039998043,0.04,-9.271281508433722,-2.164391670475122,-2.3969080980542516,-0.002489377481750325,0.0035400431925584302,-0.002615531506277162
7.683333333333311,0.51929265,-0.19099149,0.52910167,-2.4699578,-0.09345878,2.0214636,1.0274879,0.039998043,0.04,-9.439701997617693,-2.3299808237992625,-2.085793994164354,-0.0016410617982112196,0.0028521457932876564,0.0046317911678585046
7.699999999999978,0.51929265,-0.19099149,0.52910167,-2.4699578,-0.09345878,2.0214636,1.0274879,0.039998043,0.04,-9.360294779549946,-2.020682358535209,-2.216473169418648,-0.001514677649778408,0.001382913211081276,-0.006446923850104041
7.716666666666645,0.51929265,-0.19099149,0.52910167,-2.4699578,-0.09345878,2.0214636,1.0274879,0.039998043,0.04,-9.232134933656136,-2.618747388713316,-2.174373850230433,-0.0033018569027755402,0.0006147631836951507,-0.0007972137367525179
7.733333333333311,0.51929265,-0.19099149,0.52910167,-2.4699578,-0.09345878,2.0214636,1.0274879,0.039998043,0.04,-9.221842760648848,-2.256668064115647,-2.5179439379773645,0.0031187444633026685,0.0010016728346116759,0.0012843359385261693
7.749999999999978,0.51929265,-0.19099149,0.52910167,-2.4699578,-0.09345878,2.0214636,1.0274879,0.039998043,0.04,-9.006943301400225,-1.9035603728455999,-2.293206185887151,-0.0014473736365507874,-0.0026028283579973633,0.0017187464495942515
7.766666666666644,0.51929265,-0.19099149,0.52910167,-2.4699578,-0.09345878,2.0214636,1.0274879,0.039998043,0.04,-9.427180529809922,-1.8132773686497725,-2.4220770728610432,0.004376773966049033,-0.0003714697384392213,0.0026487879655286654
7.783333333333311,0.51929265,-0.19099149,0.52910167,-2.4699578,-0.09345878,2.0214636,1.0274879,0.039998043,0.04,-9.047766206608593,-2.116989636011429,-2.1792881501595964,-0.0023860682937920682,0.0008172328164940469,-0.00029280092669548507
7.799999999999978,0.51929265,-0.19099149,0.52910167,-2.4699578,-0.09345878,2.0214636,1.0274879,0.039998043,0.04,-9.42708724213956,-2.3056814537818457,-2.1980216907062875,-0.0006251321549422017,-0.0015962190984720028,-0.0014004345558501453
7.816666666666644,0.51929265,-0.19099149,0.52910167,-2.4699578,-0.09345878,2.0214636,1.0274879,0.039998043,0.04,-9.310946118101961,-2.29486334932064,-2.4407240318028807,0.0014271460024310074,-0.0025425916832499586,0.009199758409907152
7.833333333333311,0.51929265,-0.19099149,0.52910167,-2.4699578,-0.09345878,2.0214636,1.0274879,0.039998043,0.04,-9.35393990912513,-2.368919561245771,-2.2119555360133774,0.003116060498553509,-0.0038476865763616094,-0.0007795976150692026
7.849999999999977,0.51929265,-0.19099149,0.52910167,-2.4699578,-0.09345878,2.0214636,1.0274879,0.039998043,0.04,-9.175540160829705,-2.3300567049799294,-2.3188764183289585,-0.0041161353168893584,0.0022316463207464137,-0.0009815606972095302
7.866666666666644,0.51929265,-0.19099149,0.52910167,-2.4699578,-0.09345878,2.0214636,1.0274879,0.039998043,0.04,-9.348501209517263,-2.2764943194881098,-2.2743632350830554,-0.0013096493907392196,-0.0009309429538069754,0.002828511638706152
7.883333333333311,0.51929265,-0.19099149,0.52910167,-2.4699578,-0.09345878,2.0214636,1.0274879,0.039998043,0.04,-9.33485287188994,-2.2788338227550495,-2.165168986788993,-5.3723656780146735e-05,-0.002648607231204953,0.004751642507465789
7.899999999999977,0.51929265,-0.19099149,0.52910167,-2.4699578,-0.09345878,2.0214636,1.0274879,0.039998043,0.04,-9.511270765303653,-2.1153698356780444,-2.4851140364997493,-0.0017255873827260874,-0.0012687077268101047,-0.00259703302949146
7.916666666666644,0.51929265,-0.19099149,0.52910167,-2.4699578,-0.09345878,2.0214636,1.0274879,0.039998043,0.04,-9.329842657301437,-1.8270790140844342,-2.0784953020296144,-0.0013050361601074198,0.00015868768031176652,-0.002531859582864182
7.9333333333333105,0.51929265,-0.19099149,0.52910167,-2.4699578,-0.09345878,2.0214636,1.0274879,0.039998043,0.04,-9.56768381854864,-2.66257778064773,-2.323674887238673,-0.0011344465352998352,0.0010301893851037709,-0.0017355818204937727
7.949999999999977,0.51929265,-0.19099149,0.52910167,-2.4699578,-0.09345878,2.0214636,1.0274879,0.039998043,0.04,-9.06343167352284,-2.459721259472412,-1.9277239102078862,0.0019545944755168594,-0.0046028039509086235,0.006175685895426399
7.966666666666644,0.51929265,-0.19099149,0.52910167,-2.4699578,-0.09345878,2.0214636,1.0274879,0.039998043,0.04,-8.994465333374064,-2.5563721730845548,-2.5305807149504966,0.0010338362552249408,-0.00023133663460592072,0.0012134960352416832
7.98333333333331,0.51929265,-0.19099149,0.52910167,-2.4699578,-0.09345878,2.0214636,1.0274879,0.039998043,0.04,-9.5715762956793,-2.2021589247461453,-2.57860395469587,-0.00018869802458010965,-0.0022490078432844686,-0.0019208114578229906
7.999999999999977,0.51929265,-0.19099149,0.52910167,-2.4699578,-0.09345878,2.0214636,1.0274879,0.039998043,0.04,-9.214324380801777,-1.9785374319991753,-2.350205161279511,-0.0004124824593875352,0.001759671584149317,-0.0014916728775318214
8.016666666666644,0.51929265,-0.19099149,0.52910167,-2.4699578,-0.09345878,2.0214636,1.0274879,0.039998043,0.04,-9.449177632203618,-1.9774193022481075,-2.6351500045754035,0.001860319670062968,-0.0012464952927140698,0.00167727716031992
