rsonawane2002/My_IMU/logs_2/traj_358/clean_358.csv
time,j1,j2,j3,j4,j5,j6,j7,gripper1,gripper2,imu_ax,imu_ay,imu_az,imu_gx,imu_gy,imu_gz,quat_x,quat_y,quat_z,quat_w
1183.3833333325858,0.00016700293,-0.785875,4.0107683e-05,-2.3551247,9.29385e-05,1.570997,0.786,0.04,0.04,0.0,-0.0,0.0,2.875329272945135e-08,-0.0011641195053377316,4.421952117202833e-08,0.9999995971961153,0.00020320632366974898,0.0008736418299892524,3.263050917662294e-05
1183.3999999992525,0.00016700858,-0.78576016,4.0122035e-05,-2.3552213,9.297428e-05,1.5709941,0.786,0.04,0.04,-0.29199846062508694,-4.736695832423883e-05,0.02012840539784566,-1.005592206461464e-06,-0.0022384546419268432,-2.0552550780757966e-07,0.9999996850596765,0.0002032031696622641,0.0007665025195775415,3.2602256155102796e-05
1183.4166666659191,0.00016703458,-0.7856543,4.0187104e-05,-2.35531,9.300909e-05,1.5709913,0.786,0.04,0.04,0.0233287210916977,-8.197165920310412e-05,-0.00167045525372167,-8.069121055712474e-06,-0.003226293728851397,-2.1624859911384447e-06,0.9999997558540084,0.00020317151400104706,0.0006677972610346875,3.255883170347908e-05
1183.4333333325858,0.00016711686,-0.78555703,4.0387476e-05,-2.355391,9.3046525e-05,1.5709884,0.786,0.04,0.04,0.02246073547851335,-0.00022440279018888488,-0.0015249487840485187,-2.666814955390877e-05,-0.004136715493697816,-7.387548313783224e-06,0.9999998122764705,0.00020306349416361301,0.00057719824045702,3.24720266220636e-05
1183.4499999992524,0.00016730886,-0.7854676,4.084464e-05,-2.3554652,9.3093e-05,1.5709856,0.786,0.04,0.04,0.020453056009639425,-0.0004318835187026588,-0.0014252885617738187,-6.2036721737879e-05,-0.0049685062235485895,-1.729554868300191e-05,0.9999998568992822,0.00020280944720961873,0.0004939902167501265,3.230184465692194e-05
1183.466666665919,0.00016767938,-0.7853856,4.1713247e-05,-2.3555322,9.315499e-05,1.5709827,0.7859981,0.04,0.04,0.02033005664774379,-0.000695682384718331,-0.0010371068961623209,-0.000119706232763478,-0.005729423078733173,-3.314692632269181e-05,0.9999998918292698,0.0002013665952487125,0.00041805402885417166,3.1996437376992334e-05
1183.4833333325857,0.00016831119,-0.7853105,4.3177748e-05,-2.355597,9.324168e-05,1.5709798,0.7859962,0.04,0.04,0.01129249112539199,-0.0010113948812054657,-0.002996108768882344,-0.00019565527011883868,-0.006420953636758668,-5.607402003570138e-05,0.9999999195051568,0.0001995821463781951,0.000346647852276722,3.149465704458885e-05
1183.4999999992524,0.00016929951,-0.7852418,4.544925e-05,-2.3556552,9.337086e-05,1.570977,0.7859943,0.04,0.039999995,0.018398063021463074,-0.0013800710773845552,-0.0006593400525556348,-0.0003026536403729165,-0.007066154302050339,-8.632882167103235e-05,0.9999999403607571,0.0001973336920928592,0.0002817684629409222,3.073156959819986e-05
1183.516666665919,0.00017075092,-0.78517914,4.876283e-05,-2.3557088,9.353294e-05,1.570974,0.7859905,0.04,0.04,0.014383233628323389,-0.0017682489777247064,-0.0015322690094743407,-0.00044532107605150953,-0.007647766479603681,-0.00012714201528301724,0.9999999561623586,0.00019353119151807734,0.00022213441820046747,2.961856188135999e-05
1183.5333333325857,0.00017278122,-0.7851223,5.3374424e-05,-2.3557594,9.376829e-05,1.570971,0.78598475,0.04,0.03999999,0.01166004842938495,-0.0022285770094429506,-0.0019097560347125508,-0.0006187793741370451,-0.008174523218366916,-0.00017541463810420398,0.9999999679940109,0.00018802626994771372,0.0001669410725020651,2.8085179983749926e-05
1183.5499999992523,0.00017551583,-0.785071,5.95591e-05,-2.3558066,9.406782e-05,1.5709678,0.7859771,0.04,0.03999999,0.011791610713851597,-0.0026854256048018006,-0.0018751375364445266,-0.0008273068965988601,-0.008654888987853153,-0.0002357926540155927,0.9999999766029096,0.00018065891989912567,0.00011609904574569646,2.6029720149500777e-05
1183.566666665919,0.00017908742,-0.7850252,6.7608584e-05,-2.3558497,9.442665e-05,1.570964,0.7859676,0.04,0.04,0.01269570322450786,-0.0031731500610377057,-0.0017159848883840922,-0.0010739343204782025,-0.009089163598430603,-0.00030881254665205657,0.999999982633649,0.00017125960388671718,6.96977702450107e-05,2.334674799632982e-05
1183.5833333325857,0.00018363527,-0.7849844,7.782852e-05,-2.355892,9.487733e-05,1.5709573,0.78595614,0.04,0.04,0.006315584856486645,-0.0037114639024397674,-0.004587278060408373,-0.0013623791396052739,-0.009475474113260624,-0.00039188475420231535,0.9999999867475456,0.00015965068439485503,2.4876239962174822e-05,1.99434231701126e-05
1183.5999999992523,0.00018930476,-0.78494865,9.053765e-05,-2.3559313,9.543342e-05,1.5709505,0.7859416,0.04,0.04,0.010359607715071384,-0.004259424564982028,-0.0016532546214031996,-0.0016959555258828334,-0.009840148017667602,-0.00048709436951712744,0.9999999892275381,0.0001450506814697468,-1.607073809164745e-05,1.5714801985650865e-05
1183.616666665919,0.00019624621,-0.78491765,0.00010606535,-2.3559673,9.611952e-05,1.5709435,0.785924,0.04,0.039999995,0.010868094333682521,-0.004833018211612185,-0.0013908815781116246,-0.002072377901550411,-0.010160867900900839,-0.0005941019371352492,0.9999999904329866,0.00012729774443157046,-5.308355375996359e-05,1.0556856727473818e-05
1183.6333333325856,0.00020461447,-0.7848914,0.00012475086,-2.3560026,9.6939104e-05,1.570933,0.78590274,0.04,0.039999995,0.005392078643384757,-0.005405966267299917,-0.004964282366781703,-0.0024947370226600153,-0.010436180009021476,-0.0007148178489344961,0.9999999904187737,0.00010586678918781458,-8.908282781568145e-05,4.3502938616117045e-06
1183.6499999992523,0.00021456809,-0.7848699,0.00014694109,-2.3560374,9.7888544e-05,1.5709224,0.7858774,0.039999995,0.04,0.005978055944666494,-0.005988450994953449,-0.0025492139025695693,-0.0029627340739314598,-0.010693358660167924,-0.0008502458255898987,0.9999999892560865,8.037712813716584e-05,-0.00012254864901927373,-3.0286863450687476e-06
1183.666666665919,0.00022626841,-0.7848529,0.00017298917,-2.3560717,9.899516e-05,1.5709108,0.7858477,0.03999999,0.04,0.005515789840271346,-0.0066035309368764105,-0.003069369620867235,-0.0034779006564262635,-0.010918634680585243,-0.0009982939098595117,0.9999999868017243,5.047429517217137e-05,-0.00015398768464751643,-1.1691433568069605e-05
1183.6833333325856,0.00023987934,-0.7848405,0.00020325411,-2.356106,0.00010027766,1.5708964,0.78581315,0.039999988,0.04,0.004167313094805003,-0.007221272777893292,-0.004738527853098695,-0.004040587693237089,-0.011114550649672511,-0.0011599793361072087,0.999999982608771,1.5681312246833998e-05,-0.00018456227057324085,-2.1755972288014346e-05
1183.6999999992522,0.0002555668,-0.7848328,0.0002380988,-2.3561397,0.00010175412,1.5708809,0.78577346,0.03999998,0.03999999,0.006014044525781692,-0.007846571843492038,-0.0031185701623082096,-0.0046516183969060945,-0.01129131357139012,-0.0013345932245816712,0.99999997646558,-2.4332202263088294e-05,-0.00021299097254064402,-3.334109889261321e-05
1183.7166666659189,0.00027349827,-0.7848295,0.0002778896,-2.3561728,0.00010343897,1.5708625,0.78572804,0.039999973,0.039999988,0.0048447392315909,-0.00847349453097987,-0.00445760590659372,-0.005311744965854993,-0.011438554138147365,-0.0015239741066583397,0.99999996756977,-7.007735522269841e-05,-0.00024037657167031847,-4.656959290701395e-05
1183.7333333325855,0.00029384217,-0.7848309,0.00032299504,-2.356206,0.00010534877,1.5708414,0.78567654,0.03999997,0.039999984,0.0043351228331101055,-0.009105557287994162,-0.004718633303490982,-0.00602029181385562,-0.01156417035103827,-0.0017264862036336607,0.9999999550839392,-0.00012194717353323093,-0.0002667787967594537,-6.15636263250648e-05
1183.7499999992522,0.00031676766,-0.784837,0.00037378503,-2.3562403,0.000107498396,1.5708185,0.78561866,0.039999966,0.03999998,0.002544772540491458,-0.009738468998243497,-0.004510868962559478,-0.006778158123957502,-0.01166788757837204,-0.0019430414439693732,0.9999999379346494,-0.00018030568214492205,-0.0002923468149067392,-7.844678483484712e-05
1183.7666666659188,0.00034244425,-0.78484774,0.00043063032,-2.3562746,0.00010990286,1.5707926,0.7855538,0.039999954,0.039999973,0.00415412853436159,-0.01037297656386676,-0.004954586713701303,-0.007585920464956345,-0.011751791632437635,-0.0021745167849824714,0.9999999147971568,-0.00024566642402207203,-0.0003171404369820477,-9.734285075635889e-05
1183.7833333325855,0.00037104127,-0.7848632,0.0004939014,-2.3563092,0.00011257871,1.5707632,0.7854817,0.039999943,0.03999996,0.00373822838983795,-0.011007331049562473,-0.005275320393716143,-0.008442186857104173,-0.011816667552155657,-0.0024191958632703734,0.9999998840402072,-0.00031839359186878986,-0.0003413685208871042,-0.00011837493703987999
1183.7999999992521,0.00040272783,-0.7848837,0.0005639683,-2.3563445,0.00011554109,1.5707318,0.7854017,0.039999936,0.039999954,0.003698792535455908,-0.01164013136106516,-0.004805892150039348,-0.009348261380231336,-0.011862737145754658,-0.0026779169715774936,0.9999998439364659,-0.0003990001081169949,-0.00036449493380870786,-0.00014166651281862083
1183.8166666659188,0.00043767245,-0.78490883,0.00064119947,-2.35638,0.00011880483,1.5706972,0.7853136,0.039999936,0.039999958,0.003744304838182444,-0.012269313454313802,-0.005069894062970093,-0.010302392310186339,-0.011884480795732007,-0.0029514898970490334,0.9999997921429944,-0.00048781909614111277,-0.0003869670558140195,-0.00016734095531734867
1183.8333333325854,0.0004760426,-0.7849392,0.0007259618,-2.3564167,0.00012238577,1.570659,0.7852169,0.03999994,0.039999966,0.0026298351426534694,-0.01289437892006049,-0.006194789542335322,-0.01130552531356947,-0.011887054484226247,-0.0032389895734333566,0.9999997258734367,-0.0005853015403105725,-0.00040920254264566235,-0.00019552093870688119
1183.849999999252,0.000518005,-0.7849747,0.0008186195,-2.3564572,0.00012629949,1.5706171,0.7851113,0.03999994,0.039999966,-0.0021007359310099005,-0.013511863909737064,-0.0074546884267556734,-0.012357192623425838,-0.011871714104746175,-0.003539447146752836,0.9999996414442788,-0.0006918370495681478,-0.00043272179570776634,-0.00022632865112989138
1183.8666666659187,0.00056372455,-0.7850151,0.00091953384,-2.3564997,0.00013056054,1.5705714,0.7849962,0.03999994,0.03999997,0.0010428074401991339,-0.014128577202480747,-0.00644665665969768,-0.013456670140985026,-0.011853627329735113,-0.0038544793639186028,0.9999995356470601,-0.0008079033265794849,-0.00045657172035263726,-0.00025988486539799783
1183.8833333325854,0.00061336503,-0.78506094,0.0010290634,-2.3565426,0.0001351842,1.5705218,0.7848713,0.039999947,0.03999998,0.003921103382786839,-0.014740576047310135,-0.006257031721745854,-0.014603690228775012,-0.011822630515139007,-0.004183131012392411,0.9999994048669186,-0.0009338869210936836,-0.00047991849731719954,-0.0002963094043368812
1183.899999999252,0.0006670887,-0.7851122,0.001147562,-2.356587,0.00014018558,1.5704683,0.78473616,0.039999954,0.039999988,0.0022974120745811177,-0.01534136830426895,-0.006692487625081789,-0.015797429935925637,-0.011772362371858334,-0.004524424533654265,0.9999992443867689,-0.0010701715107191397,-0.0005032396966835644,-0.0003357210696143794
1183.9166666659187,0.00072505564,-0.78516924,0.0012753817,-2.3566365,0.0001455922,1.5704107,0.78459024,0.039999966,0.039999995,-0.0038290569497112514,-0.015938063546835957,-0.008705753891380397,-0.017037597388911488,-0.011704748094864858,-0.004878211572136588,0.9999990480490356,-0.0012172570071639062,-0.0005283243322590715,-0.0003782324695923498
1183.9333333325853,0.000787424,-0.78523177,0.001412868,-2.356687,0.00015141875,1.570349,0.7844334,0.039999973,0.04,0.003089429022207213,-0.016532442638805087,-0.0067060099421478725,-0.018323061870754914,-0.011637476546985789,-0.005245360902480471,0.9999988112257242,-0.0013754038185537871,-0.0005532361482787424,-0.00042395900580444927
1183.949999999252,0.00085435,-0.7853,0.0015603632,-2.356739,0.00015767704,1.5702827,0.78426516,0.03999998,0.04,0.0024246753023371426,-0.017107383550044736,-0.00733133454384749,-0.019654029387588732,-0.011551458130734396,-0.005625630955873109,0.9999985272938368,-0.0015450772306121715,-0.0005782742482180554,-0.00047301733920750773
1183.9666666659186,0.0009259878,-0.78537416,0.0017182038,-2.3567967,0.00016438193,1.5702115,0.7840852,0.03999998,0.04,-0.004785598579615247,-0.017662779089287328,-0.009638535372435975,-0.021029316933544297,-0.011449396728965453,-0.006018798465843382,0.9999981879360157,-0.0017265889619453904,-0.0006056749426953821,-0.000525521745707005
1183.9833333325853,0.0010024888,-0.7854542,0.0018867219,-2.3568554,0.0001715294,1.5701358,0.783893,0.03999998,0.04,0.0034205162878109263,-0.01822162424175936,-0.007240516589890333,-0.02244912229288444,-0.011351313750812652,-0.0064262056636351225,0.9999977865814771,-0.0019204295552937708,-0.0006328765832373881,-0.0005815923832294261
1183.999999999252,0.0010840027,-0.7855406,0.0020662446,-2.3569188,0.00017914116,1.570055,0.7836883,0.03999998,0.04,-0.0027929180070662696,-0.018762682718873828,-0.0096480671573973,-0.02391111072619391,-0.011235052385346004,-0.006845320519317202,0.9999973135009671,-0.0021268746839974684,-0.0006618773067753618,-0.0006413371640296363
1184.0166666659186,0.0011706754,-0.7856332,0.0022570929,-2.3569846,0.00018723164,1.569969,0.7834707,0.03999998,0.04,0.0011833581218922973,-0.019307217926914106,-0.008557029111688763,-0.025415982886124542,-0.01111463261652526,-0.0072767413768618444,0.999996759807587,-0.002346347373630742,-0.0006915164301597079,-0.0007048640694576848
1184.0333333325852,0.0012626515,-0.7857322,0.0024595824,-2.3570526,0.00019581385,1.5698782,0.78323984,0.039999977,0.04,0.0017870140291531555,-0.019836189252615995,-0.00835496347326714,-0.02696224126000299,-0.010983753544523035,-0.0077203189826975166,0.999996115425323,-0.0025791777859639846,-0.0007214976333110437,-0.0007722806338840635
1184.049999999252,0.0013600729,-0.78583753,0.0026740236,-2.357126,0.00020488483,1.5697818,0.7829954,0.039999977,0.04,-0.00418183656463178,-0.02032389612482543,-0.010371354760607687,-0.02854916303256433,-0.01083499963202397,-0.008177352150397922,0.9999953675588742,-0.002825720217581669,-0.0007538791506126079,-0.0008437015291738369
1184.0666666659185,0.001463078,-0.7859497,0.0029007203,-2.3572009,0.00021446524,1.56968,0.78273696,0.039999973,0.04,0.003359164922023261,-0.020850939128077943,-0.008693493173939082,-0.030176331495317465,-0.01069058222312061,-0.008645256836281822,0.9999945055989267,-0.00308635830107741,-0.000786249072200896,-0.0009192261920731392
1184.0833333325852,0.0015718034,-0.7860683,0.003139971,-2.357282,0.0002245764,1.5695726,0.7824642,0.03999997,0.04,-0.005284128760951745,-0.021326066816330404,-0.010797897080072616,-0.03184219630346402,-0.010525553852255851,-0.009123876189074466,0.9999935142072089,-0.0033614084060557127,-0.000821321609155855,-0.0009989533816430105
1184.0999999992518,0.0016863813,-0.786194,0.0033920673,-2.3573647,0.00023523878,1.5694593,0.78217685,0.03999997,0.04,0.0030454297679671782,-0.021831969231942295,-0.009331872842466282,-0.03354628740543718,-0.010365985937900262,-0.009613033394263917,0.9999923810633387,-0.0036511867217233753,-0.0008566255514483966,-0.0010829789758979736
1184.1166666659185,0.0018069431,-0.7863269,0.003657295,-2.3574533,0.00024644678,1.56934,0.7818745,0.039999966,0.04,-0.004263188567366072,-0.02226132530580155,-0.011494082142871065,-0.03528786449607724,-0.010188064930028499,-0.010114885783038992,0.9999910886735323,-0.0039560611037008165,-0.0008943986984383405,-0.00117141155698714
1184.1333333325852,0.0019336158,-0.7864666,0.003935934,-2.3575442,0.0002582057,1.5692149,0.78155684,0.03999996,0.04,0.001985762301992544,-0.022735863216726254,-0.009369848210716292,-0.03706568368001195,-0.010013143170732066,-0.010628320539832349,0.9999896222651397,-0.004276311349902866,-0.0009327066346504519,-0.0012643502662096533
1184.1499999992518,0.0020665245,-0.7866136,0.004228256,-2.357641,0.00027053428,1.5690837,0.7812236,0.03999996,0.04,-0.004195168643872371,-0.02315380753859682,-0.011700656316637748,-0.038878910241454685,-0.009821129439463935,-0.011151600923589793,0.9999879622183564,-0.00461226621203793,-0.0009734895154287277,-0.0013618872683490554
1184.1666666659185,0.00220579,-0.7867681,0.004534527,-2.3577437,0.0002834535,1.568946,0.7808743,0.03999996,0.04,-0.004021619153093958,-0.02358335178506872,-0.012040692154924315,-0.04072688326750086,-0.00963178971463037,-0.011684494949195174,0.9999860891520069,-0.004964282409264701,-0.0010167506156124558,-0.0014641109320821302
1184.183333332585,0.0023515306,-0.7869299,0.0048550093,-2.3578484,0.000296982,1.5688021,0.78050905,0.039999966,0.04,0.0027222712408292438,-0.024038708620544372,-0.00997147347192584,-0.04260772650051556,-0.009444428738231684,-0.01222686411416781,0.9999839857484547,-0.005332479614179949,-0.0010604367256752505,-0.0015711084461139454
1184.1999999992518,0.0025038635,-0.78709936,0.0051899557,-2.35796,0.000311137,1.5686519,0.7801273,0.039999973,0.04,-0.005503248523885951,-0.02440504824192946,-0.012508355013562955,-0.04452252481628499,-0.009238675427058621,-0.012778553600914705,0.9999816274074019,-0.005717262956603306,-0.0011069656247545457,-0.0016829673302025843
1184.2166666659184,0.002662901,-0.7872765,0.005539613,-2.3580735,0.00032592588,1.5684949,0.7797288,0.03999997,0.04,0.0028942875816007074,-0.024830844576920197,-0.010683097017016863,-0.046468951035289925,-0.009037345701861712,-0.013340913335278499,0.9999789938500913,-0.0061188923450849805,-0.0011540463570012683,-0.0017997755510624743
1184.233333332585,0.0028287526,-0.7874616,0.005904223,-2.3581932,0.00034132943,1.5683311,0.7793132,0.039999973,0.04,-0.004146530044923935,-0.025145891121110264,-0.012779490630321355,-0.048446434563068366,-0.008818737060381622,-0.013914442742262313,0.9999760585114965,-0.0065376451542771795,-0.0012037095768683984,-0.0019216354762471126
1184.2499999992517,0.003001525,-0.78765464,0.0062840176,-2.3583157,0.00035737653,1.5681607,0.7788803,0.039999977,0.04,0.0016028028896108992,-0.025553257613508337,-0.011263377020864773,-0.05045397669256645,-0.008602339736892492,-0.014496561033228087,0.9999727977418822,-0.006973801754136544,-0.0012542013181209791,-0.002048620125919677
1184.2666666659184,0.0031813218,-0.78785557,0.0066792243,-2.358444,0.0003740574,1.567983,0.7784298,0.039999977,0.04,-0.003555221480411319,-0.025853685171974873,-0.012875101098464015,-0.05249017664859421,-0.008370468716521688,-0.015088609186353494,0.9999691824442964,-0.007427601465599271,-0.0013072546658249526,-0.002180821724079221
1184.283333332585,0.0033682438,-0.7880647,0.007090065,-2.3585787,0.00039139204,1.5677985,0.7779615,0.039999973,0.04,-0.004321771154547349,-0.026188043994493024,-0.013261136779885163,-0.05455436024687356,-0.008139117443118892,-0.015689535820383634,0.9999651839719128,-0.00789928247249613,-0.0013629340457067506,-0.0023183164635458466
1184.2999999992517,0.0035623882,-0.7882821,0.0075167543,-2.358716,0.00040939043,1.567607,0.7774751,0.039999973,0.04,0.002129270714945619,-0.026554840712810293,-0.011593224027772742,-0.05664598087033684,-0.007908782009450707,-0.016298343739151906,0.9999607748983776,-0.008389084128941389,-0.0014193372020574646,-0.0024611814278346716
1184.3166666659183,0.0037638494,-0.7885078,0.007959498,-2.3588598,0.00042805844,1.5674084,0.7769706,0.03999997,0.04,-0.00431229605144523,-0.02680793240927796,-0.013595074954197983,-0.05876365242083301,-0.00766206177832076,-0.016916529751471485,0.9999559218503271,-0.008897140891451803,-0.0014784362008347183,-0.002609495510665772
1184.333333332585,0.00397272,-0.7887418,0.008418496,-2.35901,0.0004474081,1.5672027,0.7764476,0.039999973,0.04,-0.004402376633838578,-0.02709933279122726,-0.013608817461530087,-0.06090726549887365,-0.007417634714310121,-0.017542140118972545,0.9999505908720739,-0.009423767616248526,-0.0015402666828326042,-0.0027633307892443257
1184.3499999992516,0.0041890885,-0.78898454,0.008893945,-2.3591633,0.00046744294,1.5669897,0.7759057,0.039999973,0.04,0.0016558845778558151,-0.027425010382873746,-0.01248636154631555,-0.06307538145343847,-0.0071727798464644565,-0.018176632026387408,0.9999447496798871,-0.009969221395442568,-0.0016030167337361568,-0.002922764059587694
1184.3666666659183,0.004413038,-0.7892356,0.00938603,-2.3593225,0.0004881777,1.566769,0.775345,0.039999973,0.04,-0.0037313393656868143,-0.027642773508368065,-0.013886320589806544,-0.06526611001298302,-0.006913786484727161,-0.0188182487876227,0.999938360456586,-0.010533592580968,-0.0016684803478936219,-0.00308786140580375
1184.383333332585,0.004644653,-0.7894952,0.0098949345,-2.3594882,0.0005096216,1.5665405,0.7747651,0.03999996,0.04,-0.004381441410883369,-0.027886884152660343,-0.014466499648002618,-0.06748014404353032,-0.006654749233824468,-0.01946826896417341,0.9999313838076388,-0.011117183304371718,-0.0017369027156468517,-0.0032586931236220184
1184.3999999992516,0.004884013,-0.7897639,0.010420832,-2.359658,0.00053177297,1.5663042,0.77416587,0.03999996,0.04,0.00019420228964950326,-0.028155162801987363,-0.01363443835653566,-0.06971524865756022,-0.006399016402797169,-0.020124906670396715,0.9999237838710409,-0.011720086066018723,-0.0018068001620059773,-0.003435331832515521
1184.4166666659182,0.005131193,-0.7900415,0.010963887,-2.359833,0.00055464485,1.5660602,0.77354705,0.039999954,0.04,-0.0020557883787297726,-0.028357209003744208,-0.01412657665764705,-0.07197148663509767,-0.006131356740206038,-0.02078970372306773,0.999915517588701,-0.012342560203153283,-0.0018788654452665213,-0.0036178388010447513
1184.4333333325849,0.005386268,-0.7903278,0.011524264,-2.360015,0.00057822844,1.5658084,0.77290845,0.03999997,0.04,-0.005114635844849502,-0.028526056635570438,-0.014833943351466594,-0.07424698136106125,-0.005860065192933417,-0.021460641718801847,0.9999065404372232,-0.012984773494406578,-0.0019540297617997616,-0.003806286359797482
1184.4499999992515,0.005649307,-0.7906231,0.012102117,-2.360202,0.00060253835,1.5655488,0.77225006,0.039999966,0.04,-0.001962701192770311,-0.028752777158607204,-0.01444018329630481,-0.07654104733682911,-0.005591420045697213,-0.022143888541155843,0.9998968109341531,-0.013646803468180941,-0.002031346750966927,-0.004000733581332442
1184.4666666659182,0.005920379,-0.79092777,0.012697592,-2.360394,0.00062754157,1.5652816,0.7715716,0.039999977,0.04,-0.0008156442945050912,-0.028917801632630594,-0.014159250646361699,-0.07885367707233074,-0.005318663367675102,-0.022836001037755058,0.9998862832994124,-0.014328871720676973,-0.002110288136214645,-0.004201260392056595
1184.4833333325848,0.006199549,-0.7912414,0.013310833,-2.360592,0.00065330445,1.5650065,0.77087283,0.039999977,0.04,-0.003350066187857159,-0.029099697249596046,-0.014949110901762985,-0.08118276749232509,-0.0050333123224606535,-0.023526802961293697,0.9998749078534521,-0.015031131772538417,-0.002191845673407858,-0.004407894648390192
1184.4999999992515,0.0064868755,-0.7915642,0.013941973,-2.360797,0.0006798399,1.5647234,0.7701539,0.039999977,0.04,-0.005212450230041021,-0.029222944173047313,-0.015652767389040534,-0.0835277841590154,-0.0047484208159874995,-0.024223070863342733,0.9998626357406195,-0.01575361099750968,-0.0022765340636694007,-0.004620690751108126
1184.5166666659181,0.006782419,-0.7918962,0.0145911435,-2.3610065,0.0007071258,1.5644319,0.76941454,0.039999977,0.04,-0.0009167777079488459,-0.029398443061294174,-0.014818494196111587,-0.0858885110335546,-0.004465575010780581,-0.02492692601995425,0.9998494181453441,-0.016496463779509304,-0.0023632296975384845,-0.004839717200893236
1184.5333333325848,0.0070862365,-0.79223764,0.015258464,-2.3612213,0.00073517766,1.5641322,0.76865405,0.03999998,0.04,-0.001871551542143024,-0.02951507516522206,-0.015258379137783606,-0.08826437039577577,-0.0041758996852450485,-0.025635956162473654,0.9998351967146939,-0.017260129129586257,-0.0024521221112309434,-0.005065022218230495
1184.5499999992514,0.0073983804,-0.7925885,0.015944058,-2.3614428,0.00076398975,1.5638245,0.76787287,0.03999999,0.04,-0.004263079696253946,-0.02959091073610129,-0.015796203529405695,-0.09065101850728009,-0.003880706624840375,-0.02635142592020868,0.9998199204667132,-0.01804441652341027,-0.00254381537978929,-0.005296666270257835
1184.566666665918,0.007718898,-0.79294866,0.016648024,-2.3616705,0.0007935855,1.5635086,0.7670708,0.03999998,0.04,-0.003637141299939195,-0.02969164550045006,-0.015805872469654147,-0.09305051206058976,-0.0035835131107883993,-0.027072440745481683,0.9998035326494461,-0.01884948540539915,-0.0026382301503083,-0.0055346854755626215
1184.5833333325847,0.008047839,-0.79331845,0.017370474,-2.3619041,0.0008239598,1.5631846,0.7662475,0.039999984,0.04,-0.002979267083236259,-0.029785142762076694,-0.01582531807418075,-0.09546143693947154,-0.003285418464029865,-0.027797927702522464,0.9997859749154521,-0.019675499668407224,-0.0027350788679035266,-0.005779136505024384
1184.5999999992514,0.008385243,-0.79369783,0.018111503,-2.3621428,0.0008551139,1.562852,0.76540315,0.039999984,0.04,-0.0015581345495840893,-0.02986659001213976,-0.015838388270306147,-0.09788255162263221,-0.002984202822259887,-0.028529367109985885,0.9997671900983364,-0.020522465228869597,-0.0028341330844711887,-0.006030067451224264
1184.616666665918,0.0087311575,-0.79408675,0.018871205,-2.362388,0.0008870652,1.5625112,0.76453763,0.039999984,0.04,-0.003981952318876658,-0.029903517365902077,-0.016261850454624138,-0.10031364305031344,-0.00267620891966093,-0.029265109821133756,0.9997471160899652,-0.021390443654757722,-0.0029359695970521153,-0.006287517202792241
1184.6333333325847,0.00908562,-0.79448533,0.019649656,-2.3626397,0.0009198173,1.5621619,0.76365054,0.039999984,0.04,-0.004377710934555523,-0.029917534630694714,-0.016699767531225262,-0.10275361569954225,-0.0023667382532556215,-0.03000558578762174,0.9997256862191714,-0.022279665106128214,-0.0030407792648199355,-0.0065515263739420555
1184.6499999992513,0.009448666,-0.79489356,0.020446938,-2.362897,0.00095336203,1.561804,0.76274204,0.039999984,0.04,-0.0024447522246617837,-0.029974543777060852,-0.01634588037724427,-0.10520074620832873,-0.0020568531614140427,-0.030750620727761434,0.9997028403390118,-0.02319006795314674,-0.0031480361998896533,-0.006822142956941881
1184.666666665918,0.009820329,-0.7953115,0.02126313,-2.3631604,0.0009876931,1.5614377,0.7618121,0.039999977,0.04,-0.003604561961711994,-0.029969289013592748,-0.016700353097021114,-0.10765504572271921,-0.001743389655130028,-0.03150163129340621,0.9996785118866265,-0.024121701332410636,-0.003258020219725578,-0.00709941555467145
1184.6833333325847,0.010200642,-0.7957391,0.022098294,-2.3634293,0.0010228214,1.5610628,0.76086044,0.039999973,0.04,-0.0025471934923304573,-0.02999482602516687,-0.016530140123305337,-0.11011571549989939,-0.001427365740682876,-0.032256030917944746,0.999652632187487,-0.02507470092996258,-0.0033704756505780445,-0.007383375094808476
1184.6999999992513,0.010589625,-0.79617655,0.022952491,-2.3637052,0.00105874,1.5606794,0.75988734,0.03999997,0.04,-0.004790264053422533,-0.029916207797201638,-0.017273017891406006,-0.11258123592128028,-0.001105787338868635,-0.033015339500271225,0.9996251342020883,-0.026048948590144713,-0.0034859799232912336,-0.007674066248043534
1184.716666665918,0.010987311,-0.79662377,0.023825776,-2.3639872,0.0010954349,1.5602876,0.75889236,0.03999997,0.04,-0.0036979108015700035,-0.029910124148985195,-0.017017090291293613,-0.1150521696662421,-0.0007852158016709715,-0.033777554809161454,0.999595943560373,-0.027044665459457894,-0.003604219114569677,-0.007971530117099375
1184.7333333325846,0.011393716,-0.7970809,0.024718203,-2.3642745,0.0011329341,1.5598872,0.75787556,0.039999973,0.04,-0.0020473284793487423,-0.029927482757704377,-0.016847565669753095,-0.11752627069051383,-0.00046241531754523044,-0.03454263880242536,0.9995649911686588,-0.028061826583369646,-0.003724728985379558,-0.008275790765201631
1184.7499999992513,0.011808863,-0.7975477,0.025629811,-2.3645685,0.0011712571,1.5594779,0.756837,0.039999973,0.04,-0.004793662623447936,-0.029822623569809165,-0.017662019479947055,-0.12000269249509257,-0.0001334261242003365,-0.03531139586987066,0.9995322016983442,-0.029100393625508824,-0.003848446110569016,-0.008586869128797556
1184.766666665918,0.012232769,-0.7980244,0.026560644,-2.364869,0.0012103753,1.5590602,0.7557765,0.039999984,0.04,-0.004545227467200874,-0.02974641287567248,-0.017595924662727747,-0.12248183167582491,0.00019575774148804237,-0.03608414283631445,0.9994974986896362,-0.03016045182236094,-0.0039751164033892,-0.008904813788685375
1184.7833333325846,0.012665448,-0.798511,0.02751073,-2.3651755,0.0012502671,1.558634,0.7546939,0.04,0.04,-0.0029903162364286473,-0.02969023814295077,-0.017274383042598096,-0.1249615674190559,0.0005248951544596057,-0.03687011822297706,0.9994608048476527,-0.031242083522337618,-0.004104277571265641,-0.00922966392040816
1184.7999999992512,0.013106915,-0.79900765,0.028480092,-2.3654878,0.0012909964,1.5581989,0.75358945,0.04,0.04,-0.0034736811171498516,-0.02962048237548226,-0.017909663777215812,-0.12744068541983958,0.0008584996912734226,-0.037648306418738654,0.9994220453552877,-0.0323451520329266,-0.004236240565470812,-0.00956141536027266
1184.8166666659179,0.013557177,-0.799514,0.029468752,-2.3658068,0.0013325523,1.5577555,0.7524632,0.04,0.04,-0.0048822627237044,-0.029493047815490336,-0.017720119569086812,-0.1299198672139133,0.0011959316212795737,-0.03842938001224017,0.9993811423562813,-0.03346957898792672,-0.004371227674317966,-0.009900098668411003
1184.8333333325845,0.014016237,-0.8000302,0.030476725,-2.3661315,0.0013749214,1.5573033,0.7513148,0.04,0.04,-0.003313115717973325,-0.029397089619957045,-0.017737803746809,-0.13239830098021987,0.0015330908906626382,-0.03921305279867565,0.9993380099718951,-0.034615551216040534,-0.004508897970730159,-0.010245744409826174
1184.8499999992512,0.014484104,-0.8005564,0.03150402,-2.3664632,0.0014180887,1.5568423,0.75014454,0.04,0.04,-0.00517076766364255,-0.02919493692530445,-0.01859736799179057,-0.1348739275427348,0.0018737198492476057,-0.04000159542048892,0.9992925690380655,-0.035782886987152436,-0.004649801327834407,-0.010598387225390348
1184.8666666659178,0.014960774,-0.8010925,0.03255064,-2.366801,0.0014620732,1.5563729,0.74895215,0.04,0.04,-0.004172866934393227,-0.029111063182453434,-0.017988912568744908,-0.13734733918573644,0.002214152529762311,-0.040790851202251295,0.999244733994876,-0.03697167914426081,-0.004793537044440838,-0.01095803483142789
1184.8833333325845,0.015446248,-0.8016385,0.033616595,-2.3671443,0.0015068677,1.5558947,0.74773777,0.04,0.04,-0.00303905323386644,-0.028998958523947238,-0.017995020930361427,-0.13981653368505087,0.002555900084346103,-0.041582457700488885,0.9991944233865946,-0.03818184075285652,-0.00493985193284499,-0.011324715128248551
1184.8999999992511,0.01594053,-0.8021944,0.034701865,-2.367494,0.0015524648,1.5554078,0.7465015,0.04,0.04,-0.004689251527079108,-0.028764095068744416,-0.018651112271017567,-0.1422809883455895,0.002903752509046599,-0.042376031547290215,0.999141551607774,-0.03941326611298495,-0.005089267687499959,-0.011698446885039637
1184.9166666659178,0.016443612,-0.8027603,0.035806432,-2.3678508,0.0015988821,1.5549121,0.7452432,0.04,0.04,-0.005524963160374874,-0.028564458455934694,-0.01888513223562427,-0.1447408038626869,0.0032518904108268347,-0.04317053943777862,0.9990860275628344,-0.04066599628391344,-0.005241980282760355,-0.012079234978553394
1184.9333333325844,0.01695548,-0.80333596,0.03693029,-2.3682132,0.0016461123,1.5544081,0.7439629,0.04,0.04,-0.0036614654204569774,-0.028463191817897082,-0.018103873247321545,-0.14719466477542228,0.003597672366446491,-0.04396671838399956,0.9990277671503482,-0.04193996704328988,-0.005397320539539433,-0.012467099020659969
1184.949999999251,0.017476128,-0.80392164,0.038073402,-2.3685818,0.0016941606,1.5538952,0.74266064,0.04,0.04,-0.00442627450112365,-0.028210962716929133,-0.018918557153257964,-0.1496412529095576,0.003948842032683839,-0.04476466745675694,0.9989666807964505,-0.04323508960175366,-0.005555662426711267,-0.012862048851225548
1184.9666666659177,0.018005544,-0.8045172,0.03923575,-2.3689568,0.0017430013,1.5533738,0.7413364,0.04,0.04,-0.0049530484975468525,-0.027980734201427104,-0.018892711343165836,-0.15208024517277402,0.004301936931944094,-0.045563899181511505,0.9989026760971228,-0.044551341779004446,-0.005717083004654462,-0.013264109228095485
1184.9833333325844,0.01854371,-0.8051227,0.040417314,-2.3693376,0.0017926594,1.5528436,0.7399904,0.04,0.04,-0.0038907108361074805,-0.02783235327665501,-0.01887225834527051,-0.15451094994235903,0.004655093363563817,-0.046363593539989256,0.998835667866313,-0.04588855516152939,-0.005881359797799147,-0.013673284542221336
1184.999999999251,0.019090608,-0.8057379,0.041618053,-2.3697248,0.0018430508,1.5523047,0.7386226,0.04,0.04,-0.005222001878313343,-0.027493333882772086,-0.01905509622970314,-0.15693331020732887,0.005010746821375953,-0.04718064239317129,0.9987655603093178,-0.0472466933570173,-0.006048808683072481,-0.014089621015415162
1185.0166666659177,0.019646218,-0.8063631,0.042837903,-2.3701184,0.0018942332,1.5517577,0.737233,0.04,0.04,-0.004992370392487011,-0.027278981090481103,-0.019003733179689952,-0.1593456911127054,0.005367196440685465,-0.04798347492633472,0.9986922623105022,-0.04862568440944638,-0.006219179351287121,-0.014513091505270888
1185.0333333325843,0.020210521,-0.80699795,0.044076834,-2.3705177,0.0019462276,1.5512018,0.7358218,0.04,0.04,-0.004362235895905009,-0.027093341797443382,-0.019086242118171448,-0.16174741922346908,0.005726124957611208,-0.0487862419767682,0.9986156843932308,-0.05002535217227953,-0.006392577663670138,-0.014943693475598535
1185.049999999251,0.020783499,-0.8076424,0.045334782,-2.3709235,0.0019990401,1.5506375,0.7343888,0.04,0.04,-0.005595356105048133,-0.02679002748420256,-0.019216389912313225,-0.16413875120772187,0.006085837404887263,-0.04958895375465299,0.9985357259475678,-0.05144570979765632,-0.006569231815547825,-0.01538142201269437
1185.0666666659176,0.021365108,-0.8082964,0.046611696,-2.3713348,0.002052665,1.5500648,0.7329343,0.04,0.04,-0.004087806977914887,-0.02658030717492127,-0.018790286505554477,-0.16651818322796413,0.006446052859422062,-0.05039298750489582,0.9984522985428801,-0.0528865955610251,-0.006748652747512762,-0.01582628290210292
1185.0833333325843,0.021955336,-0.8089602,0.047907505,-2.3717527,0.0021070803,1.5494833,0.73145795,0.04,0.04,-0.0059987824150065094,-0.026163226352517166,-0.019952268749179325,-0.16888468640341053,0.006809390321461349,-0.05119740442843966,0.9983652948146495,-0.05434803674310108,-0.006931546579450077,-0.01627828841879476
1185.099999999251,0.02255414,-0.80963373,0.049222168,-2.3721766,0.002162302,1.5488935,0.72996026,0.04,0.04,-0.004850464826589018,-0.02597963964035971,-0.019332414508044238,-0.17123713709742527,0.00717000321589897,-0.05200098476906314,0.9982746327751661,-0.055829727204016306,-0.007117392604498371,-0.01673743828803938
1185.1166666659176,0.023161491,-0.81031686,0.05055558,-2.3726063,0.0022183005,1.5482951,0.7284412,0.04,0.04,-0.004685873321963463,-0.02563284267220467,-0.01936300881733022,-0.1735761732852737,0.007533562910468351,-0.052808575460081046,0.998180213387931,-0.05733160173069075,-0.007306210471981303,-0.01720373018729454
1185.1333333325842,0.023777362,-0.8110095,0.051907677,-2.3730423,0.0022750655,1.5476885,0.72690105,0.04,0.04,-0.005993818602245682,-0.02527899809616485,-0.01966971017064445,-0.1759004417296341,0.00789940227576652,-0.05361593983598936,0.9980819457231704,-0.058853395101913994,-0.007498344464629572,-0.017677169929542304
1185.149999999251,0.024401706,-0.81171167,0.05327838,-2.373484,0.0023326061,1.5470735,0.7253397,0.04,0.04,-0.004526821236261469,-0.02503505869382444,-0.01933334012862442,-0.17821091866691186,0.00826381267925537,-0.054422854783263086,0.9979797288961219,-0.06039510824750563,-0.007693369069618278,-0.018157744478702463
1185.1666666659175,0.025034487,-0.8124232,0.054667585,-2.373932,0.0023909083,1.5464503,0.72375715,0.04,0.04,-0.006234915175351574,-0.02459833015206886,-0.019739944724417313,-0.1805051049195348,0.008630650346172632,-0.05522843821421963,0.9978734605361642,-0.061956632779471284,-0.007891751199597211,-0.018645446500785007
1185.1833333325842,0.025675664,-0.8131443,0.056075227,-2.3743856,0.0024499707,1.5458188,0.7221537,0.04,0.04,-0.004981282199523207,-0.024342192570774024,-0.019608101837409464,-0.18278269202622877,0.008996434831191256,-0.056034935317853474,0.9977630539541821,-0.06353770343765733,-0.00809309094160864,-0.019140279122911327
1185.1999999992508,0.02632519,-0.81387484,0.057501204,-2.3748453,0.0025098035,1.5451791,0.7205295,0.04,0.04,-0.005586121681822043,-0.02396812791598535,-0.019757605721681948,-0.1850435426998246,0.00936584936404623,-0.05683938510413874,0.9976484101639,-0.06513818280549627,-0.008297586867762313,-0.019642222135295907
1185.2166666659175,0.026983017,-0.8146146,0.058945403,-2.375311,0.002570401,1.5445312,0.7188844,0.04,0.04,-0.005851265802681027,-0.02358002219737254,-0.01976690408735937,-0.18728740459105908,0.009734191388124133,-0.0576426006604823,0.9975294266566938,-0.06675798728486905,-0.008505349491807064,-0.020151255982278578
1185.2333333325842,0.027649108,-0.815364,0.060407743,-2.375782,0.0026317753,1.543875,0.7172186,0.04,0.04,-0.004722230250631121,-0.023294319225829196,-0.019993946914698135,-0.1895123250572333,0.010102642446696536,-0.05844321053275493,0.9974060087110936,-0.06839696196049484,-0.008716011488537888,-0.020667378288313533
1185.2499999992508,0.028323414,-0.81612253,0.06188809,-2.376259,0.0026939053,1.543211,0.71553224,0.04,0.04,-0.005986412880210068,-0.022866089172061954,-0.01956260713800173,-0.19171824082352779,0.01047365441051177,-0.05924426549289154,0.9972780623744849,-0.07005487106144728,-0.008929799636203986,-0.0211905645421317
1185.2666666659175,0.029005874,-0.8168902,0.06338634,-2.3767424,0.0027567812,1.5425389,0.71382564,0.04,0.04,-0.006572013119510167,-0.022421314228424083,-0.020039439558749983,-0.1939044521714921,0.010846274476979528,-0.06004406731910802,0.9971454931576126,-0.0717314707915886,-0.00914703065040954,-0.021720805781955174
1185.283333332584,0.029696438,-0.8176668,0.064902395,-2.377231,0.0028204024,1.5418589,0.7120988,0.04,0.04,-0.005099624621185406,-0.022162817413108604,-0.01948823475335093,-0.19607138106568384,0.011215655135701594,-0.06084040819523945,0.9970082038768802,-0.07342666287329677,-0.009367189577583123,-0.02225808484363342
1185.2999999992508,0.030395059,-0.81845266,0.06643613,-2.3777254,0.0028847621,1.5411706,0.7103517,0.04,0.04,-0.006333708493078127,-0.021647883388400957,-0.020358331650482953,-0.19821755840065303,0.011588500550394842,-0.06163427810046313,0.9968660920757572,-0.0751402821744077,-0.0095908037879872,-0.02280238906471942
1185.3166666659174,0.031101668,-0.8192474,0.06798739,-2.3782256,0.0029498467,1.5404747,0.7085846,0.04,0.04,-0.00604236296557481,-0.02126718185362919,-0.019685859391604943,-0.20034259827947498,0.011959600665419831,-0.06242623126257228,0.9967190673617028,-0.07687211427208132,-0.009817535217330833,-0.023353689370498525
1185.333333332584,0.031816218,-0.8200511,0.06955607,-2.3787315,0.0030156744,1.539771,0.70679766,0.04,0.04,-0.006218535254531865,-0.020884340029161952,-0.019845795708794967,-0.2024453508445116,0.012330247725711098,-0.06321772063422915,0.9965670347860633,-0.07862195186902712,-0.010047492958289245,-0.023911958248344807
1185.3499999992507,0.032538645,-0.82086366,0.07114203,-2.3792424,0.0030821976,1.5390596,0.704991,0.04,0.04,-0.004993103499062457,-0.02050401861066614,-0.019575715160669027,-0.2045267493695379,0.012699028303908316,-0.06401867849022409,0.9964099026478621,-0.08038960999901994,-0.01028025060647153,-0.024477192587211535
1185.3666666659174,0.033268876,-0.8216851,0.072745144,-2.3797588,0.003149438,1.5383406,0.70316494,0.04,0.04,-0.006031877588408285,-0.02002511497625481,-0.019902008099537127,-0.20658450289790276,0.013074258661965786,-0.06480519899799736,0.9962475832180695,-0.08217476820226054,-0.01051618342197505,-0.025049357063525495
1185.383333332584,0.034006838,-0.82251513,0.074365266,-2.3802812,0.0032174047,1.5376139,0.7013194,0.04,0.04,-0.007058283247274311,-0.019530997073985423,-0.020012033646210625,-0.2086197109323542,0.013448488128547667,-0.06558760273111033,0.9960799708143306,-0.08397734002136038,-0.010755583059325306,-0.02562841271934084
1185.3999999992507,0.0347525,-0.8233538,0.076002255,-2.3808086,0.0032860972,1.5368798,0.6994548,0.04,0.04,-0.005461572386744606,-0.019263898756322062,-0.01952024517306583,-0.21063072356637108,0.01382082679945073,-0.06636733362062787,0.9959069876319334,-0.08579701388968218,-0.01099787016737001,-0.026214332821632557
1185.4166666659173,0.035505775,-0.8242011,0.077655956,-2.3813412,0.003355485,1.5361383,0.69757116,0.04,0.04,-0.0059965050383192775,-0.018732494572365477,-0.019674604379282812,-0.2126178223682892,0.014195145667485587,-0.06714704713415781,0.9957285379644968,-0.08763360307237472,-0.011243215178638697,-0.02680709622629838
1185.433333332584,0.036266595,-0.8250569,0.07932622,-2.3818796,0.0034255416,1.5353892,0.6956686,0.04,0.04,-0.007001665336714424,-0.018171673701222746,-0.020109183245375917,-0.2145805146474351,0.014569919701332028,-0.06792625758884445,0.9955445232477693,-0.08948692262117701,-0.01149202685768428,-0.02740668221192407
1185.4499999992506,0.03703489,-0.82592106,0.0810129,-2.3824232,0.003496309,1.5346324,0.69374734,0.04,0.04,-0.006463260445044305,-0.01781383079389187,-0.0198943701334775,-0.21651746955570345,0.014942660117464784,-0.06869884274164605,0.9953548610317164,-0.09135669059382687,-0.011744174495450937,-0.02801303392523859
1185.4666666659173,0.03781059,-0.8267936,0.08271581,-2.382972,0.003567752,1.5338681,0.6918077,0.04,0.04,-0.006469923519136778,-0.0172889037559798,-0.02000402258859335,-0.2184287785257337,0.015314358160519445,-0.06946915918540136,0.9951594673197872,-0.09324262907332592,-0.011999647154292555,-0.028626127846146505
1185.483333332584,0.038593616,-0.8276745,0.08443482,-2.3835258,0.0036398747,1.533097,0.68984973,0.04,0.04,-0.005921883194814903,-0.016964816541689687,-0.019238456967896056,-0.2203146495864302,0.0156834248907137,-0.07023579857997676,0.9949582569459423,-0.0951445543249831,-0.012257899810406023,-0.029245933215247075
1185.4999999992506,0.0393839,-0.8285634,0.08616976,-2.3840852,0.0037126767,1.5323186,0.68787354,0.04,0.04,-0.007373978874114506,-0.016348154106024526,-0.019854480276060293,-0.22217369944210225,0.016055667042583058,-0.07099845901876448,0.9947511311015507,-0.09706226637835602,-0.012519728013769549,-0.02987239575500869
1185.5166666659172,0.040181343,-0.8294604,0.08792042,-2.3846493,0.0037861108,1.531533,0.6858794,0.04,0.04,-0.00604742851935125,-0.015901170675780563,-0.01950154077783317,-0.22400571819564602,0.0164235612114828,-0.07176607148475891,0.9945380175495752,-0.09899545529533647,-0.012784613782118181,-0.030505493437607185
1185.5333333325839,0.040985875,-0.83036536,0.089686655,-2.3852184,0.0038601963,1.5307405,0.68386745,0.04,0.04,-0.006569552038970805,-0.015439602764263927,-0.01943316498720371,-0.22580994101397317,0.01679108696553616,-0.07252259381932329,0.9943188286289121,-0.10094391341350749,-0.013052637302057685,-0.031145176805651906
1185.5499999992505,0.041797433,-0.8312784,0.09146831,-2.385793,0.0039349357,1.5299411,0.6818381,0.04,0.04,-0.007374628792633509,-0.014914698294524187,-0.019739635076310158,-0.22758592606878192,0.017160025910606003,-0.07327364884049241,0.9940934906978974,-0.10290727922442684,-0.013324023084580439,-0.031791414619937536
1185.5666666659172,0.04261592,-0.83219904,0.09326515,-2.3863719,0.004010298,1.529135,0.67979133,0.04,0.04,-0.0058029256601921375,-0.014528390693716031,-0.018879942921645743,-0.22933414754769804,0.01752623488823412,-0.07402189994408417,0.9938619212331453,-0.104885393696855,-0.013598286321625252,-0.03244414155024448
1185.5833333325838,0.043441255,-0.8331275,0.095077075,-2.386956,0.00408631,1.5283222,0.67772746,0.04,0.04,-0.007284605247614984,-0.013975682379899212,-0.01945251399559922,-0.23105358223683672,0.01789360477351546,-0.07476376777304915,0.9936240408722982,-0.10687794928207944,-0.013875832805517876,-0.03310333248807587
1185.5999999992505,0.044273354,-0.83406353,0.09690383,-2.387545,0.0041629467,1.5275027,0.6756466,0.04,0.04,-0.0072247490911836465,-0.013412497175177562,-0.019357366603034443,-0.23274355125956214,0.0182596814317125,-0.07550174999232409,0.9933797699918647,-0.10888470588131519,-0.014156741411018107,-0.03376892163915043
1185.6166666659171,0.045112126,-0.8350071,0.09874524,-2.3881383,0.0042402046,1.5266764,0.6735492,0.04,0.04,-0.005722344567593574,-0.01307254833325111,-0.01888746978297995,-0.23440424578758481,0.01862199717730839,-0.07623516783144302,0.9931290504675687,-0.11090530785749368,-0.01444052125689226,-0.03444086456884115
1185.6333333325838,0.045957495,-0.83595806,0.1006011,-2.3887362,0.004318083,1.5258436,0.67143524,0.04,0.04,-0.0070025536851092696,-0.012445179140929685,-0.019116052377832204,-0.23603506911211702,0.018986702850768658,-0.07696497024239586,0.9928717985154933,-0.11293954400718689,-0.014727520425545797,-0.03511910098754761
1185.6499999992504,0.04680936,-0.83691657,0.10247124,-2.3893392,0.0043965513,1.5250047,0.66930497,0.04,0.04,-0.007260045648460611,-0.011928452637469111,-0.018936581551831644,-0.2376361398934515,0.019349113106203873,-0.07769082209793803,0.9926079420130188,-0.11498715823752056,-0.015017609605572406,-0.03580360728856183
1185.666666665917,0.047667645,-0.8378823,0.104355454,-2.3899465,0.0044756145,1.5241594,0.6671587,0.04,0.04,-0.006536162956471969,-0.011502941498195418,-0.01878417694509693,-0.23920617603170674,0.01971042642361716,-0.07841059516166564,0.9923374197475128,-0.11704781341880958,-0.015310773961611636,-0.03649431385052655
1185.6833333325837,0.048532248,-0.8388549,0.10625356,-2.3905587,0.0045552114,1.5233078,0.66499645,0.04,0.04,-0.008052084745968635,-0.010827582663663904,-0.018863859282225448,-0.24074548980031324,0.020069254657953034,-0.07913369134447408,0.992060141906893,-0.11912135341484625,-0.015607483018267245,-0.0371911881246814
1185.6999999992504,0.04940306,-0.8398345,0.108165324,-2.3911746,0.0046353936,1.5224504,0.6628188,0.04,0.04,-0.005490420296005993,-0.010625937272354391,-0.01788902214241439,-0.24225275399154272,0.020424205877748458,-0.07984244479639781,0.9917760837281422,-0.12120730266936794,-0.015906704350595827,-0.037894145737675695
1185.716666665917,0.050280012,-0.8408211,0.11009054,-2.3917954,0.0047161574,1.5215868,0.660626,0.04,0.04,-0.008100220242357459,-0.009774097967585327,-0.018961757446200878,-0.24372893360289927,0.020784111335059634,-0.08054545116492959,0.991485172802592,-0.12330532836235344,-0.016209466517899573,-0.03860312558941132
1185.7333333325837,0.051162995,-0.84181446,0.11202903,-2.3924198,0.0047974726,1.5207169,0.65841806,0.04,0.04,-0.00592045001963637,-0.009530356819070773,-0.018207826839256036,-0.24517430166897516,0.021138138002814257,-0.08124416024885402,0.9911873404007493,-0.1254152914572054,-0.01651510658347005,-0.03931808938046166
1185.7499999992503,0.052051924,-0.8428147,0.11398055,-2.3930485,0.0048793624,1.5198414,0.65619487,0.04,0.04,-0.006925810693347856,-0.008911688810098184,-0.01811283312596057,-0.24658722211264028,0.02149099305434444,-0.08193532776829304,0.9908825087240013,-0.12753705525147063,-0.01682367729621755,-0.04003894759912629
1185.766666665917,0.052946687,-0.8438211,0.11594489,-2.3936818,0.0049617896,1.51896,0.65395766,0.04,0.04,-0.008139194259770832,-0.008281029771806114,-0.018136252704037403,-0.247965834208103,0.021845110920283226,-0.08262094354608998,0.9905706768494144,-0.129669813709227,-0.017135799549673047,-0.04076564672001145
1185.7833333325837,0.053847197,-0.84483445,0.11792184,-2.3943188,0.005044727,1.5180731,0.6517054,0.04,0.04,-0.0061319775579216085,-0.007896781384647555,-0.01788503956534626,-0.24931470348393647,0.02219228378921293,-0.08330219915406491,0.9902517206782305,-0.1318139266914017,-0.017450563748639496,-0.04149814753518867
1185.7999999992503,0.054753345,-0.8458539,0.119911164,-2.3949602,0.0051281895,1.5171804,0.64943916,0.04,0.04,-0.007824013999480073,-0.00725532877929036,-0.01784781072933228,-0.2506268621010098,0.022541684452184754,-0.08397524524310378,0.9899256368622136,-0.13396864071482653,-0.017768710896878925,-0.042236355205270464
1185.816666665917,0.055665016,-0.84687966,0.12191262,-2.3956048,0.005212193,1.5162828,0.6471593,0.04,0.04,-0.005954805591623646,-0.006964339974813161,-0.016988261793304815,-0.2519068600656812,0.02288564010804263,-0.08464092132586515,0.9895923957883678,-0.13613364235358943,-0.01808936179061925,-0.042980188545322616
1185.8333333325836,0.05658214,-0.8479114,0.12392604,-2.3962543,0.0052966867,1.5153792,0.64486575,0.04,0.04,-0.008888910758053647,-0.006065815775044281,-0.018166609914782583,-0.25315426490200443,0.02323133948073665,-0.08530346959176031,0.9892519133125287,-0.13830872419804452,-0.018413846056223718,-0.04372961344018395
1185.8499999992503,0.057504594,-0.8489493,0.12595117,-2.3969066,0.0053816726,1.5144709,0.642559,0.04,0.04,-0.005263268906108287,-0.0060316879990640615,-0.01646132387300714,-0.25436778422887485,0.023568536727907374,-0.08595695400949047,0.9889041824983293,-0.14049354290243948,-0.018740507802574333,-0.04448455470534697
1185.866666665917,0.058432285,-0.8499933,0.12798773,-2.3975635,0.005467131,1.5135572,0.6402392,0.04,0.04,-0.00836353848816529,-0.0049732663598062166,-0.017717191010091504,-0.25554765392989964,0.02390961076219645,-0.08661228873590247,0.9885491455092519,-0.14268775015847582,-0.019070641259893984,-0.04524492799836097
1185.8833333325836,0.059365075,-0.85104275,0.13003558,-2.398223,0.0055530393,1.5126386,0.6379065,0.04,0.04,-0.005673099118075342,-0.0049973944992176556,-0.01617001622500336,-0.25669385284110313,0.024243518718090447,-0.08725273468969587,0.9881867642370656,-0.14489115725807836,-0.019403310773185384,-0.04601068426063841
1185.8999999992502,0.060302895,-0.8520978,0.13209443,-2.3988864,0.005639424,1.5117148,0.6355612,0.04,0.04,-0.008020515126250238,-0.004089103038174002,-0.01697663692064033,-0.2578047373691009,0.02457972339476029,-0.08788569537896951,0.9878170012398216,-0.14710337585471647,-0.019739300685929925,-0.046781715254390024
1185.9166666659169,0.061245613,-0.85315853,0.13416407,-2.3995533,0.005726269,1.5107862,0.63320374,0.04,0.04,-0.006741675803212388,-0.0037271587760873137,-0.016518010343524736,-0.2588814072697673,0.024910560432032353,-0.08851167704607824,0.9874398387521629,-0.14932405622811998,-0.020078116640965257,-0.04755796787958321
1185.9333333325835,0.06219313,-0.8542245,0.13624424,-2.4002237,0.0058135632,1.5098528,0.6308342,0.04,0.04,-0.0075452916586726815,-0.0031414931202650154,-0.016273402941791026,-0.25992337505022023,0.025239083870779604,-0.08912922680343985,0.987055237544056,-0.15155292063017992,-0.0204200394247371,-0.04833934500178649
1185.9499999992502,0.06314531,-0.855296,0.13833468,-2.4008975,0.0059012948,1.5089152,0.628453,0.04,0.04,-0.006708055484283548,-0.0026643938886183882,-0.01585227865714689,-0.26093009623617036,0.025563353867360743,-0.08973916531930978,0.9866631920066614,-0.15378959139011214,-0.02076451384211326,-0.049125778204409214
1185.9666666659168,0.064102106,-0.8563724,0.14043519,-2.4015741,0.0059894626,1.5079728,0.6260603,0.04,0.04,-0.006772248706021777,-0.0022837375482698263,-0.01574001779394152,-0.261902092104794,0.02588827441910186,-0.0903400482262666,0.9862636568131747,-0.15603384509950294,-0.0211119383203232,-0.049917176335681546
1185.9833333325835,0.06506335,-0.8574542,0.1425455,-2.4022543,0.0060780416,1.507026,0.6236565,0.04,0.04,-0.0074314996538538125,-0.0014878541610502394,-0.016046510444001072,-0.26283826122194265,0.026208100781730942,-0.09093518086401765,0.9858566331296408,-0.15828521802562487,-0.021462321781762612,-0.0507134835384569
1185.9999999992501,0.06602893,-0.85854065,0.1446654,-2.402937,0.006167017,1.506075,0.6212418,0.04,0.04,-0.006000128898930868,-0.0013435773478287505,-0.014823735483915357,-0.26373944214274464,0.026525466164681613,-0.0915212033794563,0.9854420985086704,-0.16054349696550826,-0.02181517012679487,-0.05151460396094175
1186.0166666659168,0.06699877,-0.8596321,0.14679463,-2.4036233,0.0062564034,1.5051197,0.61881644,0.04,0.04,-0.008245426429231983,-0.0004322228253805793,-0.01574822375645102,-0.2646047417179894,0.026842114069879575,-0.09209931853010941,0.9850200270678146,-0.16280832725153652,-0.02217126691026241,-0.05232045275484848
1186.0333333325834,0.06797274,-0.86072797,0.14893284,-2.4043121,0.0063461876,1.5041604,0.6163808,0.04,0.04,-0.006224892181916353,-0.0002123707380452533,-0.014495965343286343,-0.265434337181909,0.02715241399313361,-0.09266760116377847,0.984590434733564,-0.1650793360288589,-0.02252990133023897,-0.05313089678795426
1186.04999999925,0.068950705,-0.8618284,0.15107991,-2.405004,0.006436341,1.5031971,0.6139351,0.04,0.04,-0.007404593052107167,0.00044211088670031984,-0.014855815202396982,-0.2662284068277753,0.027459716583969333,-0.0932292957283986,0.9841532953967386,-0.16735623830515442,-0.022891474198889702,-0.053945908733561566
1186.0666666659167,0.06993255,-0.8629333,0.15323554,-2.4056988,0.0065268516,1.5022297,0.6114797,0.04,0.04,-0.007076601476807554,0.0009526460337583309,-0.014661967601226067,-0.26698649680422754,0.02776370710938733,-0.0937819042390261,0.9837086149035529,-0.16963866209065803,-0.023255901460545427,-0.05476539359744009
1186.0833333325834,0.07091819,-0.8640425,0.15539946,-2.406396,0.006617718,1.5012586,0.60901487,0.04,0.04,-0.0063139057774108664,0.0013037056376452583,-0.014080671311522686,-0.2677087631575126,0.02806182922006837,-0.09432431495534707,0.9832563987453911,-0.17192629714481894,-0.023622831616229596,-0.055589248085823446
1186.09999999925,0.07190746,-0.8651557,0.15757139,-2.4070961,0.006708865,1.5002843,0.6065409,0.04,0.04,-0.007764381669206344,0.00203658439602572,-0.013693323483510156,-0.26839575234131896,0.02835587643304388,-0.09486772414369657,0.9827966476612964,-0.17421877739912228,-0.023992597932048977,-0.05641739263510711
1186.1166666659167,0.0729003,-0.8662729,0.1597511,-2.4077983,0.0068003596,1.4993064,0.604058,0.04,0.04,-0.0057992472919821125,0.0021865148599198303,-0.013506471016411226,-0.2690457875311256,0.02864799998730337,-0.09539112149127171,0.9823293616710986,-0.176515877175282,-0.024364733283465986,-0.0572497168195457
1186.1333333325833,0.07389654,-0.86739415,0.16193834,-2.408503,0.0068921754,1.4983251,0.6015665,0.04,0.04,-0.0070010421849842075,0.0029458914061142316,-0.013571707519011156,-0.2696593205303619,0.0289384101497646,-0.09590710479101405,0.9818545510084008,-0.17881721047187563,-0.02473957167741279,-0.05808613859060457
1186.14999999925,0.0748961,-0.8685192,0.16413285,-2.40921,0.0069842865,1.4973409,0.5990668,0.04,0.04,-0.00622479270908638,0.0032053889037042538,-0.012773177998703922,-0.2702365035526325,0.029223854100238852,-0.09641340793817949,0.9813722462081005,-0.18112240666670903,-0.02511666531303958,-0.05892657549255323
1186.1666666659166,0.07589883,-0.8696476,0.16633435,-2.4099193,0.0070767296,1.4963534,0.5965589,0.04,0.04,-0.007151168588093171,0.003860686278017722,-0.012908923382037862,-0.2707769456525432,0.02950954800806163,-0.09690813625827321,0.9808824310570935,-0.18343124701625096,-0.025496590975995256,-0.05977087844588005
1186.1833333325833,0.07690463,-0.8707797,0.16854253,-2.4106307,0.00716947,1.4953629,0.59404343,0.04,0.04,-0.006415669805215352,0.004317569960604617,-0.012574776395957166,-0.2712806066990573,0.02978770319110432,-0.09739427437315722,0.9803851574825145,-0.18574327514003092,-0.025878928827312332,-0.060618972038388175
1186.19999999925,0.07791337,-0.8719151,0.17075722,-2.4113445,0.0072624865,1.4943689,0.59152055,0.04,0.04,-0.007225810316491277,0.004913457091043627,-0.012776997301577886,-0.27174772296143546,0.030063223493484656,-0.09787069011252182,0.9798804286074834,-0.1880581859438954,-0.02626418974797398,-0.061470778979839664
1186.2166666659166,0.07892495,-0.87305355,0.17297813,-2.4120605,0.007355776,1.4933721,0.58899075,0.04,0.04,-0.006945805007951833,0.005235126645336541,-0.011987860475892731,-0.27217933076522627,0.03032973694607405,-0.09833519176431202,0.9793682890699397,-0.19037559203236043,-0.026652101668009343,-0.06232618871089003
1186.2333333325832,0.079939194,-0.87419504,0.17520495,-2.4127777,0.007449298,1.492373,0.58645415,0.04,0.04,-0.005194940582509133,0.005473793754012801,-0.01105268104739654,-0.27257461383237774,0.030590282266206394,-0.09879192761967445,0.9788487704607938,-0.19269526076091192,-0.027041898605711417,-0.06318509925191985
1186.24999999925,0.08095602,-0.87533945,0.17743744,-2.4134967,0.0075430726,1.4913714,0.58391106,0.04,0.04,-0.006539345383593798,0.006134715163563786,-0.011350544963328879,-0.27293296946602,0.030851488757443424,-0.09923717249083791,0.9783218931500938,-0.19501685068455088,-0.027434116633174653,-0.06404740882232028
1186.2666666659165,0.08197531,-0.87648684,0.17967525,-2.414218,0.0076370863,1.4903672,0.5813618,0.04,0.04,-0.00687174572004956,0.006817777346079801,-0.011430313452343022,-0.27325435272992293,0.031109209803393642,-0.09967100022909374,0.9777876993912563,-0.19733998768490962,-0.027828902565494463,-0.06491299070042984
1186.2833333325832,0.08299696,-0.8776368,0.18191819,-2.4149413,0.0077313026,1.4893612,0.57880676,0.04,0.04,-0.007029246769651998,0.007081692818655672,-0.010489515058553778,-0.2735398902971876,0.031358522609786325,-0.10009580003385514,0.9772462380337498,-0.19966431681239155,-0.028226042250453012,-0.06578177087613463
1186.2999999992498,0.08402076,-0.8787892,0.18416604,-2.415666,0.007825737,1.4883528,0.5762461,0.04,0.04,-0.006123973732319321,0.007446002036648469,-0.010474836583518332,-0.27378900418444174,0.03160464474162823,-0.100508426297949,0.9766975295562871,-0.20198961509731697,-0.02862554621311578,-0.06665365147900082
1186.3166666659165,0.08504667,-0.8799439,0.18641837,-2.4163918,0.007920378,1.487342,0.5736803,0.04,0.04,-0.00540626296849922,0.00789470425412997,-0.010090730347500632,-0.2740009901498073,0.03184432531966677,-0.100908685610165,0.976141655007645,-0.20431543371433952,-0.029027219969483906,-0.0675284636719968
1186.3333333325832,0.0860745,-0.8811007,0.18867509,-2.4171188,0.0080151865,1.4863297,0.5711097,0.04,0.04,-0.005793955497579439,0.008155791673364332,-0.00933368304765203,-0.2741774223147331,0.0320801584925588,-0.1013007526802254,0.9755786585479829,-0.2066414711251353,-0.029430886642474292,-0.06840618618514022
1186.3499999992498,0.087104194,-0.8822598,0.19093576,-2.417847,0.008110183,1.4853156,0.5685345,0.04,0.04,-0.005634023237743868,0.00877545897508547,-0.009457590135042437,-0.2743174837198544,0.03231346047417375,-0.10167923324588601,0.9750085869920813,-0.20896745021214566,-0.0298365732083239,-0.06928664332123537
1186.3666666659165,0.088135555,-0.88342065,0.19320016,-2.4185767,0.008205349,1.4842995,0.565955,0.04,0.04,-0.006866445949027522,0.009428469663808059,-0.009327040642226336,-0.2744209615987082,0.03254165712337398,-0.10204794530609776,0.9744314935847417,-0.21129298444973968,-0.03024481060974962,-0.07016972611968866
1186.383333332583,0.08916851,-0.8845834,0.1954681,-2.419308,0.008300666,1.4832821,0.56337136,0.04,0.04,-0.006212672286021181,0.009598978310559891,-0.008842002925435466,-0.2744888834846189,0.03276164678027922,-0.10240368415233206,0.9738474184347254,-0.2136178788611369,-0.030655183983810997,-0.07105538075197357
1186.3999999992498,0.0902029,-0.88574773,0.19773917,-2.4200401,0.008396128,1.482263,0.5607843,0.04,0.04,-0.005776579219762823,0.010110096696125392,-0.008472132897230367,-0.27451979349108796,0.03297633177785106,-0.10274739560009477,0.9732564753912222,-0.21594159434662766,-0.03106773145889095,-0.07194342917938987
1186.4166666659164,0.091238596,-0.8869137,0.20001319,-2.4207728,0.008491719,1.4812427,0.55819386,0.04,0.04,-0.004734591917920916,0.010218884479606949,-0.007884377147560073,-0.2745158575587824,0.03318493983070449,-0.10307913136879902,0.9726587110710968,-0.21826395852239822,-0.03148192177834509,-0.07283381624484278
1186.433333332583,0.092275485,-0.8880812,0.2022898,-2.421506,0.00858743,1.4802213,0.55560035,0.04,0.04,-0.00481572878434644,0.010705507305841522,-0.00754037922880979,-0.2744754092858507,0.03339068620597058,-0.10339958292003348,0.9720541936678176,-0.22058466732367485,-0.031897777398315265,-0.07372639223209061
1186.4499999992497,0.09331347,-0.88924974,0.20456882,-2.42224,0.008683252,1.4791985,0.55300415,0.04,0.04,-0.00604299536430819,0.011259788381279279,-0.007636549473377663,-0.27439871038154723,0.03359324838540487,-0.10370843808562437,0.971442984776255,-0.222903358752389,-0.03231590989722565,-0.07462105569756299
1186.4666666659164,0.094352394,-0.8904195,0.20684986,-2.4229748,0.008779157,1.4781752,0.55040574,0.03999999,0.04,-0.00522313358164439,0.011560915251318526,-0.006720094423129375,-0.2742862975226829,0.033788401331430795,-0.10400501882755052,0.9708252037827738,-0.22521962638364004,-0.032735650185352454,-0.07551768533722115
1186.483333332583,0.09539215,-0.89159,0.20913267,-2.42371,0.00887514,1.477151,0.5478052,0.03999998,0.04,-0.005274060523308144,0.011917096283986517,-0.006537061736322514,-0.2741389432809357,0.03397935256709416,-0.10428877461223977,0.9702008899494778,-0.22753329683320492,-0.03315726389738329,-0.07641614897581026
1186.4999999992497,0.0964326,-0.89276135,0.211417,-2.424446,0.008971177,1.4761261,0.545203,0.03999997,0.04,-0.005551493894384585,0.012440956420556315,-0.006487745418293223,-0.2739556588462235,0.03416453536761252,-0.10456089979194377,0.9695701458214521,-0.22984394897318677,-0.03358082562643938,-0.07731636050944206
1186.5166666659163,0.09747356,-0.8939332,0.21370259,-2.4251826,0.009067252,1.4751006,0.5425992,0.039999973,0.04,-0.0053470459645987845,0.012714247613632157,-0.005780705639968353,-0.2737375559498365,0.03434165263365094,-0.10481966486799689,0.9689330367914034,-0.23215137750586784,-0.03400621352594027,-0.07821819211631573
1186.533333332583,0.09851497,-0.89510566,0.21598911,-2.425919,0.009163364,1.474075,0.53999436,0.039999958,0.04,-0.004283103415136935,0.012900303222251885,-0.005368217834156308,-0.27348392382371883,0.03451221057655511,-0.10506614212961836,0.9682896794482697,-0.23445522046738113,-0.03443296276212487,-0.07912153527947254
1186.5499999992496,0.09955668,-0.8962786,0.2182763,-2.426656,0.009259502,1.4730489,0.5373888,0.039999958,0.04,-0.005191655325642586,0.013496297107595812,-0.005363374220745953,-0.2731950817013805,0.034680788277996644,-0.10529914490342826,0.9676401657785401,-0.23675511680160313,-0.034861444909991775,-0.08002627005631523
1186.5666666659163,0.10059857,-0.8974518,0.22056392,-2.427393,0.009355684,1.4720224,0.5347827,0.039999947,0.04,-0.004616503750476397,0.013689874928868306,-0.005001131502424538,-0.2728715989934847,0.034842436169846724,-0.1055179290594502,0.9669845714492572,-0.23905085315422336,-0.03529159244104795,-0.08093226605198472
1186.583333332583,0.101640515,-0.8986248,0.22285166,-2.4281301,0.009451837,1.4709958,0.5321766,0.03999993,0.04,-0.005271869049106037,0.014135362393635775,-0.00438783892510175,-0.27251323585208653,0.03499510004834762,-0.10572647303890065,0.9663230144041888,-0.24134201866717078,-0.035723558664902955,-0.08183941113407522
1186.5999999992496,0.10268239,-0.89979774,0.22513926,-2.4288673,0.009547985,1.4699696,0.5295705,0.039999925,0.04,-0.004446388795953382,0.01428166988820534,-0.003821483334076614,-0.27212070268257127,0.035142680602753947,-0.1059181906861353,0.96565557057552,-0.24362848858027167,-0.03615680807278608,-0.08274759089270865
1186.6166666659162,0.103724025,-0.9009706,0.22742637,-2.4296043,0.009644111,1.4689436,0.52696514,0.039999913,0.04,-0.004181934417557542,0.0147538627853383,-0.003729775120053791,-0.27169287226865313,0.03528372588543332,-0.10609851126258714,0.9649824034476955,-0.24590971967490893,-0.036591427017346724,-0.08365666903810426
1186.6333333325829,0.104765326,-0.9021431,0.22971272,-2.430341,0.009740215,1.4679179,0.5243604,0.039999906,0.04,-0.004217326291189316,0.015007396305966036,-0.003300591054766766,-0.27123214124155853,0.03541924197929027,-0.1062639986585136,0.964303568631272,-0.248185624237353,-0.03702738390847871,-0.08456651989885453
1186.6499999992495,0.10580614,-0.90331507,0.23199806,-2.4310772,0.009836267,1.4668926,0.521757,0.039999887,0.04,-0.00402743424550156,0.015307947947540423,-0.0028719887644079733,-0.2707367087179146,0.03554821906294167,-0.10641719193970257,0.963619217906088,-0.2504557429371387,-0.03746467655895336,-0.08547702452822196
1186.6666666659162,0.10684639,-0.9044864,0.2342821,-2.431813,0.009932274,1.465868,0.519155,0.03999988,0.04,-0.003864933620745248,0.015510524406148196,-0.0024497616928020882,-0.27020825090036693,0.03567194304529743,-0.10655579284301793,0.962929437175162,-0.25271991245199416,-0.03790311643103491,-0.08638806999000204
1186.6833333325828,0.10788589,-0.90565705,0.23656458,-2.4325483,0.010028218,1.4648438,0.5165547,0.03999987,0.04,-0.003980844384332549,0.016022629141365652,-0.002437329541193911,-0.2696457499891777,0.03578970974092089,-0.10668040006706705,0.962234338993721,-0.2549778216322549,-0.03834292719556927,-0.08729952617891013
1186.6999999992495,0.10892457,-0.9068267,0.23884518,-2.4332833,0.010124091,1.4638205,0.51395667,0.039999858,0.04,-0.004398371958647118,0.016263039428643378,-0.0017613650783898649,-0.2690498596234568,0.03589998024925189,-0.10679094186472694,0.9615340690890906,-0.25722909102180475,-0.038784043223769354,-0.08821126177699132
1186.7166666659161,0.10996228,-0.9079953,0.24112363,-2.4340177,0.010219869,1.4627982,0.51136094,0.039999843,0.04,-0.0035130182283182876,0.016436111932172093,-0.0013066544358508736,-0.2684218721992654,0.03600216968631501,-0.1068881843620742,0.9608287268431067,-0.2594735603772932,-0.03922615964541728,-0.08912315937879471
1186.7333333325828,0.11099887,-0.9091627,0.24339975,-2.4347508,0.010315541,1.4617769,0.50876784,0.039999828,0.04,-0.0029080284234650478,0.016539259291326047,-0.0010603072790771328,-0.2677603245899961,0.0360985351163989,-0.10697125033357366,0.9601184229706078,-0.26171098556457434,-0.039669231010863476,-0.09003513768667781
1186.7499999992494,0.11203425,-0.91032857,0.24567313,-2.435483,0.010411099,1.4607565,0.506178,0.039999824,0.04,-0.0034377310262456717,0.016989854054527687,-0.0005692098313692107,-0.2670653503144872,0.03618858395456236,-0.10703858267161594,0.9594033348320022,-0.26394090115692903,-0.04011339037619194,-0.09094700502066251
1186.766666665916,0.113068245,-0.91149294,0.24794357,-2.4362144,0.010506538,1.4597378,0.50359154,0.03999981,0.04,-0.0035682269335257644,0.017261829322134936,-0.00014121179285897512,-0.266339288711433,0.03627100254327649,-0.10709341660913754,0.9586835618974326,-0.2661631497184449,-0.04055848287583653,-0.09185867050212917
1186.7833333325827,0.114100754,-0.91265565,0.25021067,-2.436945,0.010601838,1.4587206,0.50100875,0.039999798,0.04,-0.0032353555214914564,0.01755253620465136,0.00024594200266347954,-0.265580771971747,0.036347656944255326,-0.10713383612178187,0.9579592500328481,-0.26837742506693296,-0.041004449160693804,-0.09276997434501297
1186.7999999992494,0.11513169,-0.9138165,0.25247437,-2.4376743,0.010696992,1.4577049,0.4984299,0.03999979,0.04,-0.0029582855787024798,0.017538775076664237,0.0005465302147844575,-0.2647905905551982,0.036416809051866506,-0.10715750399382001,0.9572304950734235,-0.2705835729625586,-0.04145124276882421,-0.09368086153118106
1186.816666665916,0.11616088,-0.91497564,0.2547341,-2.4384022,0.010792013,1.456691,0.49585542,0.039999783,0.04,-0.002265351462615861,0.017967080694986093,0.001022280687201782,-0.2639679710388656,0.03647935950517148,-0.10716655029702016,0.95649750064006,-0.2727811697466087,-0.0418985306476703,-0.09459110862315005
1186.8333333325827,0.1171882,-0.91613275,0.25698993,-2.439129,0.010886859,1.4556788,0.4932856,0.039999764,0.04,-0.003287113216221549,0.01818369610489534,0.0010425983094863867,-0.26311443102471727,0.036537144061158315,-0.10716484279389986,0.9557603492431782,-0.27497003499652384,-0.0423467432053277,-0.09550072255470397
1186.8499999992493,0.118213534,-0.91728765,0.25924134,-2.4398544,0.010981507,1.4546688,0.49072072,0.039999746,0.04,-0.0020406177457799046,0.018255295812108496,0.0019741505510317836,-0.2622301490621842,0.036584970589409446,-0.10714690186701016,0.9550192122371479,-0.2771499096368522,-0.04279534279137899,-0.09640949373163596
1186.866666665916,0.11923676,-0.91844004,0.26148823,-2.4405777,0.011075969,1.453661,0.48816106,0.039999742,0.04,-0.0018321817267352714,0.018216442631535656,0.0024358007161273676,-0.26131467275208176,0.03662892751858532,-0.10711157537913835,0.9542742051469048,-0.27932062241702904,-0.04324427881341885,-0.0973173347030938
1186.8833333325827,0.12025774,-0.9195901,0.26373002,-2.4413002,0.011170248,1.4526547,0.4856069,0.039999735,0.04,-0.00320592597928826,0.019370861137874007,0.0018039983026407747,-0.26036758751670785,0.03666835628325631,-0.1070632593858252,0.9535255074714788,-0.28148172690265566,-0.04369425625934728,-0.09822400923959487
1186.8999999992493,0.12127636,-0.92073745,0.2659666,-2.4420211,0.011264293,1.4516512,0.48305875,0.039999716,0.04,-0.0024426302198898853,0.01898668785753621,0.00319984607780599,-0.25939200218623426,0.036694493326320826,-0.10700087976498729,0.9527732725330805,-0.28363302579363164,-0.0441446197592621,-0.09912946268422633
1186.916666665916,0.12229248,-0.921882,0.26819775,-2.44274,0.011358124,1.4506499,0.48051676,0.039999697,0.04,-0.0014183908293885494,0.018998548081938793,0.003200629631927576,-0.2583868360464989,0.03671447178744112,-0.10692259452114072,0.9520176252263909,-0.2857743527743,-0.044595319591630926,-0.10003358448667836
1186.9333333325826,0.12330602,-0.9230236,0.27042323,-2.443457,0.011451727,1.4496512,0.4779813,0.03999968,0.04,-0.001655795379607028,0.019141018374052576,0.0037991591806507685,-0.2573517804139511,0.036727442841842976,-0.10682772393523961,0.9512587184415527,-0.28790547038324354,-0.045046204572057935,-0.10093626784258533
1186.9499999992493,0.12431682,-0.92416215,0.27264276,-2.444172,0.011545077,1.4486554,0.4754527,0.039999675,0.04,-0.0016448322851747577,0.019441912617124135,0.004082889508583154,-0.256287159579463,0.036735885739007296,-0.10671836545926175,0.9504967160071458,-0.2900260948958293,-0.04549730290941044,-0.10183738295476809
1186.966666665916,0.12532476,-0.9252976,0.27485606,-2.4448848,0.011638181,1.4476624,0.47293118,0.03999965,0.04,-0.0011844521845327804,0.019519341467855167,0.004469919999938732,-0.25519333581528963,0.036736737105689574,-0.10659298818316792,0.9497317666373348,-0.29213603285845285,-0.04594843914532994,-0.10273680297614718
1186.9833333325826,0.1263297,-0.92642957,0.27706277,-2.445596,0.011731013,1.4466722,0.47041696,0.039999627,0.04,-0.0021705691939821747,0.020040806899240815,0.004759766294404333,-0.25407047081578393,0.03673286046361581,-0.10645200352711072,0.9489640133807205,-0.29423504523830557,-0.046400024891395636,-0.10363434349696023
1186.9999999992492,0.12733157,-0.9275581,0.27926272,-2.4463046,0.011823543,1.445685,0.46791053,0.03999961,0.04,-0.0004331485026654036,0.019712994028942,0.005254181913050271,-0.2529202195294985,0.03671624709943107,-0.1062971474765238,0.9481936360964898,-0.29632289817583357,-0.04685143089766942,-0.10452995697709272
1187.0166666659159,0.1283302,-0.92868316,0.28145564,-2.447011,0.011915791,1.4447012,0.4654121,0.039999604,0.04,-0.001095746081469784,0.02004947683960645,0.005631188663968167,-0.25174129847944365,0.0366956997907736,-0.10612753130425424,0.9474207908337805,-0.2983993644054787,-0.047302746840492675,-0.10542350098362573
1187.0333333325825,0.12932554,-0.92980444,0.2836412,-2.447715,0.012007744,1.4437206,0.46292213,0.039999593,0.04,-0.0008272696064182128,0.020172210763930165,0.005930286044530941,-0.2505345457344301,0.03666845153608434,-0.10594290758713569,0.9466456520445519,-0.3004641828919002,-0.04775398560371318,-0.1063148208069228
1187.0499999992492,0.13031742,-0.93092173,0.2858191,-2.4484165,0.012099378,1.4427434,0.4604407,0.03999958,0.04,-0.00048174262978761817,0.020231267922543594,0.0065123812586609375,-0.24930153961363324,0.03663239169322273,-0.10574333306996872,0.9458683607643769,-0.3025172225537787,-0.0482050052693823,-0.10720378552195323
1187.0666666659158,0.1313057,-0.93203527,0.28798923,-2.449116,0.012190687,1.4417698,0.45796826,0.03999956,0.04,-0.0012757452158673743,0.020698554633119537,0.006457131921355774,-0.24804093871150806,0.03658999732271061,-0.10552965703794391,0.9450891063608668,-0.3045581386812907,-0.04865594766078555,-0.10809033239951016
1187.0833333325825,0.13229029,-0.93314445,0.2901513,-2.4498124,0.012281646,1.4407996,0.45550498,0.039999545,0.04,0.0001438230574635213,0.020301997254834614,0.007110209018856839,-0.24675465445348593,0.03653958869545392,-0.10529922404522887,0.9443080098553357,-0.30658689187101185,-0.04910660326356972,-0.10897431702856447
1187.0999999992491,0.1332711,-0.93424934,0.29230502,-2.450506,0.012372268,1.4398332,0.45305127,0.039999533,0.04,5.64530160618304e-05,0.02047143557640796,0.007551701750030393,-0.24544124756581917,0.03648243292529025,-0.10505308621297635,0.9435252672625285,-0.3086032086506146,-0.049556780476509625,-0.10985561049178286
1187.1166666659158,0.13424797,-0.9353499,0.2944502,-2.4511976,0.012462535,1.4388707,0.45060727,0.039999526,0.04,-0.0013544598462811308,0.021064302859574724,0.007585272825949563,-0.24410190383560953,0.03641861458911551,-0.10479139682289756,0.9427410209958774,-0.3106068814358553,-0.0500068978770511,-0.1107341081196637
1187.1333333325824,0.13522084,-0.93644595,0.2965864,-2.451886,0.012552438,1.4379122,0.4481734,0.03999951,0.04,0.0009735637789942686,0.020596519974197536,0.00837549034646834,-0.2427375462756428,0.036344014332475756,-0.10451410682357497,0.9419554796610361,-0.31259772149879955,-0.05045619384212439,-0.11160963826333344
1187.149999999249,0.1361895,-0.9375375,0.29871354,-2.4525712,0.01264196,1.4369578,0.44574988,0.0399995,0.04,0.0006311014830728823,0.02079408266980054,0.008515138181064419,-0.24134763304771983,0.0362642434804483,-0.10422218654787344,0.941168790829644,-0.3145755472006007,-0.050904794657723774,-0.11248215037312943
1187.1666666659157,0.13715392,-0.9386241,0.30083132,-2.4532528,0.012731098,1.4360076,0.44333702,0.03999948,0.04,0.0011784261528591244,0.02062346398876702,0.009115106924850735,-0.23993260742719416,0.03617922269754016,-0.1039138582090861,0.9403811185437637,-0.3165402150053454,-0.05135256354635189,-0.11335148163110778
1187.1833333325824,0.13811395,-0.9397057,0.30293944,-2.4539318,0.012819839,1.4350618,0.44093516,0.039999455,0.04,-0.00012542268703619186,0.02124682682521639,0.009233420468712783,-0.2384919792393963,0.03608956780934015,-0.10359130194129879,0.9395926542294237,-0.31849142283115356,-0.05179981474649521,-0.11421749819236443
1187.199999999249,0.13906945,-0.94078255,0.30503768,-2.4546077,0.012908161,1.4341203,0.4385445,0.039999437,0.04,0.0008169185174322635,0.02119831936057137,0.009424480257302914,-0.23702855370419396,0.035989984034858966,-0.10325246588099159,0.9388035655663782,-0.32042902309935817,-0.05224628031141811,-0.11508011396008672
1187.2166666659157,0.14002042,-0.94185406,0.3071259,-2.4552803,0.012996071,1.4331833,0.43616533,0.03999942,0.04,0.0009295827511746069,0.02092193424707567,0.010006405951434871,-0.23554127963661187,0.0358843940577438,-0.10289520845534278,0.9380139821062432,-0.32235295383324497,-0.052691919368491345,-0.11593922615506148
1187.2333333325823,0.14096668,-0.94292015,0.30920368,-2.4559495,0.01308354,1.432251,0.43379802,0.03999941,0.04,0.0010238320585331806,0.02119683002876349,0.010407696990133442,-0.23403023328085348,0.03577029822116741,-0.10252683316357594,0.9372241230161014,-0.32426292442654353,-0.053136680829627164,-0.11679465839436252
1187.249999999249,0.14190803,-0.94398093,0.31127083,-2.4566154,0.013170574,1.4313235,0.4314427,0.0399994,0.04,0.0012922971616813328,0.02130191558556982,0.010742286136022905,-0.23249673992114145,0.03564832332795655,-0.10214333300610987,0.9364341642180365,-0.32615877217655326,-0.05358036488270787,-0.11764631705491892
1187.2666666659156,0.1428445,-0.9450363,0.31332722,-2.457278,0.013257169,1.4304007,0.42909977,0.039999384,0.04,0.0012300593609682053,0.02126280524680224,0.010721144747483091,-0.2309410551140497,0.03551938748944647,-0.101744184738647,0.9356442519976057,-0.3280403604765422,-0.054023100601461455,-0.11849413573534127
1187.2833333325823,0.14377588,-0.94608605,0.31537253,-2.4579365,0.013343302,1.429483,0.42676944,0.03999937,0.04,0.0024495190899642694,0.020995098416398683,0.011593255457931217,-0.229363338973103,0.035383217637903,-0.10133044676166421,0.9348545818794535,-0.32990755373052166,-0.05446434830629564,-0.11933797171942197
1187.299999999249,0.14470215,-0.94713,0.3174066,-2.458592,0.013428958,1.4285703,0.42445198,0.03999936,0.04,0.0008640460577025166,0.021521070503183193,0.011370462849968899,-0.22776345194152797,0.035242117101038,-0.10090209215020003,0.9340652964011907,-0.3317601602825646,-0.05490474426796583,-0.12017773156917202
1187.3166666659156,0.14562315,-0.94816786,0.31942904,-2.459243,0.013514132,1.4276627,0.42214763,0.039999347,0.04,0.0026602173903711446,0.02102866159938155,0.012369020278413245,-0.2261427053727556,0.0350911928523381,-0.1004565887301272,0.933276591189932,-0.33359808662130097,-0.055343653584883155,-0.12101322633243018
1187.3333333325822,0.14653873,-0.94919974,0.32143968,-2.4598908,0.013598818,1.4267604,0.41985667,0.039999336,0.04,0.0014391814156411442,0.021605298352878055,0.01219968412251582,-0.22450047392038097,0.034935127173097574,-0.09999726525769508,0.9324886464869968,-0.3354210844225037,-0.0557814243469787,-0.1218443802376736
1187.349999999249,0.14744893,-0.95022535,0.32343844,-2.460535,0.013683024,1.4258637,0.41757932,0.039999317,0.04,0.0017292594576279186,0.02120979457450045,0.012740596110016877,-0.22283797295293675,0.03477063979663679,-0.09952123987060744,0.9317015878376332,-0.3372291489660323,-0.05621786577009066,-0.12267112079350515
1187.3666666659155,0.14835349,-0.95124495,0.32542494,-2.461175,0.013766718,1.4249723,0.415316,0.0399993,0.04,0.0031151140207352768,0.021262013629980148,0.012842052418571281,-0.22115498878282325,0.03459817804006899,-0.09903040061722525,0.9309156634482142,-0.3390219800509775,-0.0566526392623265,-0.12349333202120004
1187.3833333325822,0.14925241,-0.95225835,0.327399,-2.4618106,0.013849906,1.4240866,0.4130668,0.039999273,0.04,0.003188685398125557,0.02106416193380367,0.013384781274228263,-0.21945254647642895,0.03442133976922874,-0.09852414939765604,0.9301310090529197,-0.3407995672288362,-0.057085555396337265,-0.12431090193513629
1187.3999999992488,0.15014559,-0.95326495,0.32936037,-2.4624422,0.013932561,1.4232063,0.4108321,0.03999926,0.04,0.002394642210123976,0.021303773300901385,0.013607039845375812,-0.21772944743120246,0.03424129534452593,-0.09800271424780216,0.9293477909396026,-0.34256171859088147,-0.057517095049729905,-0.12512368364455503
1187.4166666659155,0.15103285,-0.954265,0.33130884,-2.46307,0.014014664,1.4223319,0.40861198,0.039999247,0.04,0.0024347223673171214,0.02146747489977785,0.013891821866640619,-0.21598927407244575,0.03404894499335387,-0.0974695219306349,0.9285661813610353,-0.3443083197375184,-0.05794705487156036,-0.12593159501818507
1187.4333333325822,0.15191416,-0.9552584,0.33324438,-2.4636936,0.014096242,1.4214635,0.40640667,0.03999923,0.04,0.002849600545529185,0.021117038425788603,0.014137593499685686,-0.21422986530200455,0.033850614782027194,-0.09692049878821815,0.9277863152987106,-0.34603933965866146,-0.05837525011787382,-0.12673459956426464
1187.4499999992488,0.1527894,-0.95624495,0.33516666,-2.464313,0.014177245,1.420601,0.40421662,0.039999217,0.04,0.0031306994540791777,0.021163649471162005,0.014561695788573026,-0.2124523958142609,0.03364336097095602,-0.0963577542921577,0.9270084130487302,-0.34775453390268024,-0.058801650143216824,-0.1275325535988338
1187.4666666659155,0.1536585,-0.95722455,0.3370754,-2.4649277,0.014257677,1.4197447,0.40204194,0.039999194,0.04,0.004051594730913877,0.020871544857814506,0.015010836520779058,-0.2106572876719952,0.03342931782787798,-0.09577956801926556,0.9262326320665586,-0.3494538823451183,-0.05922586230647245,-0.12832533905286952
1187.483333332582,0.15452138,-0.95819706,0.33897027,-2.465538,0.014337548,1.4188944,0.39988297,0.039999176,0.04,0.003272252535735376,0.02132539387957877,0.014991773030792466,-0.2088441896594716,0.03321211560114401,-0.09518783420397779,0.9254591732000803,-0.3511371460467888,-0.059648270709118704,-0.12911276934274044
1187.4999999992488,0.15537788,-0.9591626,0.34085122,-2.466144,0.014416825,1.4180504,0.39773968,0.039999172,0.04,0.0035303851893875304,0.02117579512504464,0.01532959019813207,-0.20701478848771795,0.03298672398532393,-0.09458195238339265,0.9246881542517097,-0.352804346202291,-0.06006862836751863,-0.1298948442910085
1187.5166666659154,0.15622798,-0.9601209,0.34271806,-2.466745,0.014495519,1.4172128,0.39561245,0.03999917,0.04,0.004936511327313653,0.020526989117475303,0.015875637911078044,-0.20516856492106011,0.0327546219002525,-0.0939603235032356,0.9239197523741608,-0.35445542135651464,-0.060486466021738294,-0.1306714692350484
1187.533333332582,0.1570715,-0.9610718,0.34457055,-2.4673417,0.014573641,1.4163817,0.39350176,0.03999915,0.04,0.0030423504119969635,0.021293369177738386,0.015883892272172684,-0.20330508924237556,0.032519267743888775,-0.09332673818292711,0.9231541968565607,-0.3560900114142028,-0.06090243073477174,-0.13144248372481135
1187.5499999992487,0.15790841,-0.96201533,0.34640855,-2.4679334,0.014651142,1.4155568,0.39140752,0.039999127,0.04,0.004659203289181235,0.020788877026883812,0.01601319554416225,-0.2014274643094967,0.032276046506528266,-0.0926772146298473,0.9223915852786662,-0.357708233899769,-0.06131609124158309,-0.13220786573525437
1187.5666666659154,0.15873863,-0.96295124,0.34823185,-2.4685206,0.014728035,1.4147383,0.38933003,0.039999105,0.04,0.003854442393458335,0.020953776953447356,0.016337453300807603,-0.19953379379127378,0.03202828387874625,-0.092012461441309,0.9216320894762875,-0.35930994497104063,-0.06172766044464859,-0.1329674810941017
1187.583333332582,0.15956211,-0.9638796,0.35004026,-2.469103,0.01480432,1.4139268,0.38726953,0.039999098,0.04,0.004517526424541174,0.020604091985865214,0.016915956607266303,-0.19762620207166903,0.031770317675352946,-0.09133565046305486,0.9208758806218681,-0.3608951040445647,-0.06213665011591734,-0.13372125140729843
1187.5999999992487,0.16037871,-0.96480036,0.3518336,-2.469681,0.014879964,1.4131223,0.38522622,0.039999083,0.04,0.004237404220708285,0.0208139475657787,0.016936621408336627,-0.1957043202165039,0.031506134183427424,-0.09064817123248058,0.9201231283262215,-0.36246356168803623,-0.06254320149500661,-0.13446911583834423
1187.6166666659153,0.1611883,-0.96571314,0.35361162,-2.4702542,0.014954948,1.4123245,0.38320026,0.03999906,0.04,0.004387088035651132,0.020804761974491104,0.017291378718864436,-0.19376849831956988,0.03123661331790581,-0.08994771643881778,0.9193739924151206,-0.36401524136814967,-0.06294741675066785,-0.1352109050586794
1187.633333332582,0.16199088,-0.966618,0.3553742,-2.4708216,0.015029287,1.4115338,0.3811919,0.03999905,0.04,0.00602843859971447,0.020022849865580783,0.01772733814832117,-0.19181968625853899,0.03095836825006118,-0.0892316102377397,0.9186286250470572,-0.3655501667942034,-0.06334863300119108,-0.1359465906073544
1187.6499999992486,0.16278635,-0.96751493,0.35712123,-2.4713848,0.0151029825,1.4107503,0.37920135,0.039999038,0.04,0.003955699108071364,0.020725389898229585,0.01757354231475272,-0.1898563306084441,0.030679510506032723,-0.08850395188353943,0.9178871730176057,-0.3670681685689025,-0.06374746183215575,-0.13667610743351424
1187.6666666659153,0.1635746,-0.9684035,0.35885245,-2.4719424,0.01517602,1.4099728,0.37722886,0.03999902,0.04,0.005357896065016909,0.02046636978726979,0.01746986749652235,-0.18788074649324432,0.03039230428029338,-0.08776265337337816,0.9171498122134292,-0.3685691319531255,-0.0641439964992795,-0.13739928908583057
1187.683333332582,0.1643556,-0.9692841,0.3605676,-2.4724948,0.015248373,1.4092027,0.37527442,0.039999004,0.04,0.0056932627498396116,0.020200344020104843,0.01830912008694563,-0.1858945628313656,0.030094681779769608,-0.08700711396491738,0.9164166875769266,-0.3700531210152017,-0.06453750071666244,-0.13811608653118188
1187.6999999992486,0.16512926,-0.97015643,0.3622666,-2.4730418,0.015320062,1.4084402,0.37333843,0.039998993,0.04,0.005949639096192172,0.019852433717937323,0.018760373970705402,-0.18389516945205903,0.029794935361133687,-0.08624025026182688,0.9156879712469288,-0.3715200390450412,-0.06492783337742804,-0.13882642527475697
1187.7166666659152,0.16589537,-0.9710205,0.3639494,-2.4735837,0.015391088,1.407685,0.371421,0.039998975,0.04,0.005272304409054129,0.02022292317894747,0.018507583496751856,-0.18188371391576635,0.02949298250067936,-0.08545952020513531,0.9149638145396697,-0.37296974282164636,-0.06531535494181208,-0.13953025991302764
1187.7333333325819,0.16665414,-0.97187585,0.36561573,-2.4741206,0.015461394,1.4069372,0.36952242,0.039998952,0.04,0.005009774939290779,0.020005975967152256,0.018865752778884914,-0.17986209777025136,0.029184060811062014,-0.08466757094947046,0.9142443238287534,-0.37440226783898367,-0.06570019628814036,-0.14022746660918972
1187.7499999992485,0.1674053,-0.97272295,0.36726537,-2.4746523,0.015531013,1.4061968,0.36764276,0.039998945,0.04,0.005918468997290205,0.020029637171248282,0.018889600788052352,-0.17783027088243847,0.02886727074549257,-0.08386310696850588,0.9135297059334587,-0.3758174772420405,-0.0660819559262757,-0.14091797357865501
1187.7666666659152,0.1681488,-0.97356135,0.36889824,-2.4751782,0.015599928,1.405464,0.36578205,0.039998926,0.04,0.006401789468934993,0.019537854144646705,0.019471295199291472,-0.17578938431911906,0.02854421330469159,-0.0830473101815231,0.9128200520821778,-0.37721547650413323,-0.06646048505772449,-0.14160169747690884
1187.7833333325818,0.16888459,-0.97439104,0.37051427,-2.4756982,0.015668133,1.4047388,0.3639407,0.03999892,0.04,0.006814771555863075,0.019282399455444743,0.019498086945313187,-0.1737374862962025,0.028218306710860966,-0.08222116950173608,0.9121155281497256,-0.3785961580292812,-0.06683567227814614,-0.14227861871954978
1187.7999999992485,0.1696126,-0.97521204,0.37211323,-2.476213,0.015735628,1.4040213,0.3621187,0.039998915,0.04,0.005904454469951581,0.01964643710776759,0.019638184514958468,-0.17167603344847376,0.02788796861749454,-0.08138305769275483,0.9114162715977446,-0.3799594646927477,-0.06720771853714945,-0.14294861883312546
1187.8166666659151,0.17033279,-0.97602427,0.37369493,-2.4767227,0.01580241,1.4033116,0.36031646,0.039998904,0.04,0.005630638378950614,0.019697440649157905,0.01979745165333613,-0.16960589865534864,0.027552800138643085,-0.08053465432654403,0.9107224686948437,-0.38130523799059196,-0.06757665276267008,-0.14361161685845847
1187.8333333325818,0.1710451,-0.9768276,0.3752593,-2.4772267,0.015868472,1.4026098,0.35853383,0.039998885,0.04,0.0066955364762533165,0.01912757608332205,0.020077736965995463,-0.1675288432010566,0.0272112809953117,-0.07967491713499762,0.910034181928578,-0.382633659905129,-0.0679421675107109,-0.14426757051789726
1187.8499999992484,0.17174944,-0.97762203,0.37680626,-2.4777248,0.0159338,1.4019157,0.35677123,0.03999888,0.04,0.007052804937068835,0.01899693230852373,0.020085027440319703,-0.16544276568341412,0.026866322434374305,-0.07880435397257715,0.9093515962355375,-0.3839445706448703,-0.0683042365565625,-0.14491643234854854
1187.866666665915,0.17244576,-0.9784073,0.37833562,-2.478217,0.015998391,1.4012296,0.35502863,0.03999887,0.04,0.007108709880943032,0.018764380445557283,0.02059722292814259,-0.16335022855235365,0.026515174409589275,-0.07792408597636143,0.9086748115971123,-0.3852380528445478,-0.06866268612613043,-0.14555811534723387
1187.8833333325817,0.17313401,-0.9791835,0.37984726,-2.4787037,0.01606224,1.4005514,0.35330617,0.039998855,0.04,0.006078878648851926,0.01920995174061746,0.02035671247379023,-0.1612490272226604,0.02616338553750555,-0.077032852360591,0.9080039621704642,-0.38651399617732035,-0.0690179451238572,-0.14619253979822966
1187.8999999992484,0.17381413,-0.97995055,0.3813411,-2.4791849,0.01612534,1.3998811,0.35160396,0.03999884,0.04,0.00687242520271969,0.018803751365681354,0.02053082263587802,-0.15914138545831305,0.025805921424386646,-0.07612874247406051,0.9073391616203331,-0.38777243953211793,-0.06936975060570441,-0.14681968066415169
1187.916666665915,0.17448607,-0.9807085,0.382817,-2.4796605,0.016187692,1.3992188,0.34992233,0.039998826,0.04,0.006634720967624297,0.01884190119197937,0.02064807137379665,-0.1570283687720857,0.025440683493561086,-0.07521679441163139,0.9066805857588683,-0.389013241386469,-0.06971810627559394,-0.14743947602760019
1187.9333333325817,0.17514984,-0.9814571,0.38427478,-2.4801297,0.016249273,1.3985648,0.3482612,0.03999881,0.04,0.008113553420319164,0.018035420738660157,0.02124765939123252,-0.154910972604702,0.02506975274120718,-0.07429686369237902,0.9060283036202448,-0.39023661952816474,-0.0700624248384463,-0.14805185052544675
1187.9499999992483,0.17580532,-0.98219645,0.38571438,-2.4805932,0.016310079,1.3979188,0.34662083,0.039998803,0.04,0.007034149455109606,0.018538200782858283,0.020942556985492633,-0.1527864505194908,0.02469831414831041,-0.07336773118423838,0.9053824702362705,-0.3914423839831868,-0.07040319981781964,-0.1486567592336125
1187.966666665915,0.17645246,-0.98292637,0.3871357,-2.4810512,0.016370146,1.397281,0.3450013,0.03999879,0.04,0.006701671715170221,0.01844758538207536,0.02115591148665885,-0.15065750043248965,0.024322708763224565,-0.07242830804548268,0.9047431966470042,-0.39263054100125144,-0.07074045300846049,-0.1492541279234271
1187.9833333325817,0.17709118,-0.9836469,0.38853863,-2.4815032,0.016429428,1.3966516,0.34340268,0.039998785,0.04,0.007593923528403934,0.01810981152658986,0.02142611934015104,-0.14852550417045185,0.02394005859195404,-0.07148020795703632,0.9041105994200671,-0.39380113381036835,-0.07107383581864818,-0.14984392175853856
1187.9999999992483,0.1777215,-0.98435795,0.38992307,-2.4819489,0.016487926,1.3960304,0.34182507,0.03999877,0.04,0.008214382011795252,0.017665900704089132,0.02153984974844203,-0.14638963151636153,0.023554367805454647,-0.07052539304571188,0.9034847669571389,-0.39495423133227603,-0.07140322206893333,-0.15042609782650745
1188.016666665915,0.17834337,-0.9850595,0.39128894,-2.4823883,0.016545624,1.3954177,0.3402686,0.03999876,0.04,0.008029341713911009,0.01763747625969092,0.02169241908610564,-0.14424959685461308,0.02316552442514898,-0.06956282217770932,0.9028658223481427,-0.3960898032955745,-0.07172854732228896,-0.1510006293361691
1188.0333333325816,0.17895673,-0.98575157,0.39263615,-2.482822,0.016602563,1.3948131,0.33873346,0.039998744,0.04,0.007307018172131308,0.017946137578295218,0.02139935059702891,-0.14210582464307614,0.02277649618160369,-0.0685916551330976,0.9022538920127776,-0.3972077491736501,-0.07205018763282084,-0.15156743979586473
1188.0499999992483,0.1795616,-0.98643416,0.39396474,-2.4832504,0.016658695,1.3942169,0.33721963,0.03999873,0.04,0.006717177824566711,0.01792128049210584,0.02155717238546684,-0.139960638602176,0.02238130718245985,-0.06761212842174986,0.901649033091438,-0.39830814544709064,-0.07236817899676974,-0.15212655607902836
1188.066666665915,0.18015788,-0.98710704,0.3952745,-2.4836726,0.016714046,1.3936292,0.33572727,0.03999872,0.04,0.008064159262755055,0.01730181213909221,0.02196196835181352,-0.13781320444372128,0.02198218340538699,-0.06662024592898981,0.9010513840440949,-0.39939101385353215,-0.07268212657467771,-0.1526778629725052
1188.0833333325816,0.18074562,-0.98776954,0.39656532,-2.4840882,0.016768616,1.39305,0.33425647,0.039998714,0.04,0.008345006080956452,0.016792609613747178,0.022357586157328857,-0.13566438145469012,0.021581064745483422,-0.0656228022441606,0.9004609947137103,-0.4004564923908524,-0.07299207628462644,-0.15322125016090216
1188.0999999992482,0.18132474,-0.98842245,0.39783728,-2.4844973,0.01682238,1.3924792,0.33280715,0.039998703,0.04,0.00861951712525233,0.016825121921992814,0.0219928251042667,-0.1335145462681217,0.021172843519946583,-0.06462202710044873,0.8998779550954109,-0.4015045963615511,-0.07329776462222153,-0.1537568298815859
1188.1166666659149,0.18189517,-0.9890659,0.3990902,-2.4849005,0.016875345,1.3919171,0.33137953,0.039998695,0.04,0.008139426002395922,0.01703812800996074,0.022107028482720725,-0.13136263352586788,0.020764199179880434,-0.0636140741999838,0.8993024215410178,-0.40253520915861424,-0.07359920964510816,-0.15428453045496
1188.1333333325815,0.18245684,-0.98969954,0.40032405,-2.4852977,0.016927522,1.3913636,0.32997367,0.03999869,0.04,0.007938449228972466,0.016938738957372745,0.022199127534605623,-0.12921048655800366,0.020355096181872784,-0.06259998076507929,0.8987344721124165,-0.4035483535526688,-0.07389659085817848,-0.15480429206351257
1188.1499999992482,0.18300985,-0.99032354,0.40153873,-2.485689,0.0169789,1.3908182,0.3285896,0.039998684,0.04,0.008007700445933352,0.01693960774191705,0.021801762463358187,-0.12705967732885445,0.019941559028371372,-0.061580352859085655,0.8981741723498978,-0.40454407210686294,-0.07419004952246452,-0.1553160854471542
1188.1666666659148,0.1835541,-0.99093765,0.40273428,-2.4860737,0.017029451,1.3902819,0.3272273,0.03999867,0.04,0.008766217766287276,0.016145530363465,0.02270592503846869,-0.12491082136626791,0.019522354686493666,-0.06055565608000256,0.8976215797744359,-0.4055225410638544,-0.07447898516436963,-0.15581992485316534
1188.1833333325815,0.18408959,-0.991542,0.40391073,-2.4864526,0.017079193,1.3897542,0.32588693,0.039998658,0.04,0.008080584223946197,0.016424190255726057,0.022217213581665618,-0.12276142958702893,0.019104799580993634,-0.059526073623948086,0.8970767861895766,-0.40648368294796844,-0.07476377906469332,-0.15631581019462448
1188.1999999992481,0.18461637,-0.9921365,0.40506777,-2.4868252,0.017128116,1.3892348,0.32456848,0.039998654,0.04,0.008474791254364789,0.016362270974523696,0.022196406584340522,-0.12061402200721952,0.0186844257352426,-0.05849004806664436,0.8965398756319438,-0.40742755691873594,-0.07504442086032248,-0.15680361017153832
1188.2166666659148,0.18513435,-0.992721,0.4062056,-2.4871914,0.017176235,1.3887243,0.32327202,0.039998643,0.04,0.008839183438391629,0.015726807045046698,0.0226883275287193,-0.11846932099042587,0.01825969677390974,-0.05744992778145595,0.8960109047752212,-0.4083542702560844,-0.07532054834746892,-0.1572833859126475
1188.2333333325814,0.18564352,-0.99329567,0.40732408,-2.487552,0.017223526,1.3882226,0.3219975,0.039998632,0.04,0.007854894706271764,0.01622030029181376,0.022409401044609645,-0.11632656130568775,0.017835581467981462,-0.05640704643826738,0.8954899411793537,-0.4092638037023469,-0.07559257971810328,-0.15775508269861452
1188.249999999248,0.18614388,-0.9938605,0.40842322,-2.487906,0.017269999,1.3877293,0.32074505,0.039998624,0.04,0.00895347854497075,0.015680616107871526,0.022355035655019506,-0.1141874056470287,0.017407143245288054,-0.05535866739353108,0.8949770714191977,-0.41015619925540586,-0.07586022296483576,-0.1582187107076826
1188.2666666659147,0.1866354,-0.99441534,0.40950304,-2.4882536,0.017315652,1.3872448,0.31951463,0.03999861,0.04,0.008961280870756205,0.015347938126308858,0.022639424923154294,-0.11205165368422892,0.016978177227921755,-0.05430576709782067,0.8944723229096779,-0.41103160007875755,-0.07612334651078126,-0.1586742682392479
1188.2833333325814,0.18711813,-0.99496007,0.41056344,-2.4885948,0.017360512,1.386769,0.31830627,0.03999861,0.04,0.008867698406578306,0.015272361823293057,0.022653287315688164,-0.10991826668327899,0.016551882644868662,-0.053247150124816046,0.8939757615578019,-0.4118900499893684,-0.07638206538854936,-0.1591216658845777
1188.299999999248,0.18759204,-0.9954951,0.41160443,-2.4889297,0.017404549,1.3863018,0.31712002,0.039998602,0.04,0.008818361402895825,0.015390802559311911,0.022262754288671083,-0.10779011507078815,0.016120939117880533,-0.052188593541567456,0.8934874659221261,-0.41273152102330685,-0.07663639315131687,-0.15956096965925595
1188.3166666659147,0.18805714,-0.99602,0.4126261,-2.4892583,0.017447772,1.3858433,0.31595585,0.039998595,0.04,0.008985444372355822,0.014871484295020387,0.022684468267109015,-0.10566764193546696,0.01568915614257573,-0.05112877816197054,0.8930074506703057,-0.41355617989916765,-0.0768861966395308,-0.1599921619356271
1188.3333333325813,0.18851344,-0.99653494,0.41362843,-2.4895813,0.017490173,1.3853936,0.31481373,0.039998587,0.04,0.007644766021019933,0.015316407369403429,0.02245967429487239,-0.10355048949834796,0.01525529470018671,-0.05006730159380358,0.8925357535652152,-0.41436402865821637,-0.07713189893316794,-0.1604152440663596
1188.349999999248,0.18896091,-0.99704015,0.4146114,-2.4898977,0.017531762,1.3849523,0.3136937,0.039998576,0.04,0.00959333006933516,0.014648752143697763,0.022254555872525117,-0.10143949406434735,0.014818605167295815,-0.04900333306516679,0.8920724566059561,-0.4151551392319368,-0.07737298830483044,-0.1608302310360398
1188.3666666659146,0.18939956,-0.9975353,0.41557506,-2.490208,0.017572535,1.3845199,0.31259567,0.039998572,0.04,0.008747232074268751,0.014509135749452007,0.022698348456207107,-0.09933531464834353,0.014383272579319605,-0.047936886514879776,0.8916175551364555,-0.4159296662360931,-0.07760956852259221,-0.16123710178169043
1188.3833333325813,0.18982944,-0.9980205,0.41651937,-2.490512,0.017612502,1.3840964,0.31151968,0.039998565,0.04,0.008897273993957455,0.014398692623807108,0.022512617674852464,-0.09723731764190041,0.01394670860399918,-0.04687011917823607,0.8911711081705238,-0.4166876439121738,-0.07784158492542707,-0.1616358593547222
1188.399999999248,0.1902505,-0.99849606,0.41744438,-2.4908097,0.017651642,1.3836812,0.3104657,0.03999856,0.04,0.008967782738000807,0.014486610682440393,0.02212917166870554,-0.09514642515967439,0.013510656034527564,-0.04580350789950198,0.890733162870827,-0.41742908217162583,-0.07806918173515882,-0.1620265311073765
1188.4166666659146,0.19066282,-0.9989615,0.41835022,-2.491101,0.017689966,1.3832747,0.30943358,0.039998554,0.04,0.00910227448034373,0.013857786234727776,0.02247140517463997,-0.09306433401594605,0.013073348606232792,-0.04473638719885004,0.8903036735249413,-0.4181542387237722,-0.07829223315482545,-0.16240913697500986
1188.4333333325812,0.19106634,-0.999417,0.41923678,-2.4913867,0.01772747,1.382877,0.3084235,0.03999855,0.04,0.00822382951177758,0.01428267020783247,0.022434076643473855,-0.09098975556099964,0.012636353966247817,-0.043668968451648346,0.8898827521109062,-0.4188629948007631,-0.07851094327788197,-0.1627836320631545
1188.449999999248,0.19146119,-0.9998628,0.42010415,-2.4916658,0.017764172,1.3824878,0.3074352,0.039998546,0.04,0.009388516922292922,0.013673358035615202,0.022112795560735865,-0.08892489675115772,0.012198533805647893,-0.04260092959376101,0.8894703638485713,-0.4195555933103932,-0.07872502096812256,-0.16315007517810964
1188.4666666659145,0.1918473,-1.0002985,0.42095238,-2.4919388,0.017800061,1.3821073,0.30646873,0.039998543,0.04,0.00882577812653107,0.013596381816316505,0.02239768147499488,-0.08686943418484257,0.011760803491301562,-0.041534857473402596,0.8890665269555372,-0.4202321056443765,-0.07893463345724792,-0.1635084452677671
1188.4833333325812,0.19222476,-1.0007248,0.42178157,-2.4922059,0.017835146,1.3817352,0.30552387,0.03999854,0.04,0.008917505633720957,0.013638429267237573,0.021827050105538426,-0.08482372319168599,0.01132339611949787,-0.04047033926141082,0.8886712478611848,-0.4208926245742739,-0.07913969667846593,-0.16385884234140238
1188.4999999992478,0.1925935,-1.0011412,0.42259184,-2.4924662,0.017869428,1.3813715,0.30460075,0.03999854,0.04,0.009582263354790399,0.013004759259072074,0.022057174624878773,-0.08278767962717809,0.01088686349024457,-0.03940653914726521,0.8882845459125013,-0.42153724845326307,-0.07934013777456154,-0.16420126734403356
1188.5166666659145,0.19295366,-1.0015476,0.42338303,-2.4927206,0.017902924,1.3810165,0.30369925,0.039998535,0.04,0.0085720988343585,0.013224684597912262,0.0222005145835813,-0.08076223451584562,0.010453654928723789,-0.0383451326531794,0.8879064331663535,-0.4221660722518185,-0.07953616194037587,-0.16453562630953317
