rsonawane2002/My_IMU/logs_2/traj_358/imu_358.csv
time,j1,j2,j3,j4,j5,j6,j7,gripper1,gripper2,imu_ax,imu_ay,imu_az,imu_gx,imu_gy,imu_gz
1183.3833333325858,0.00016700293,-0.785875,4.0107683e-05,-2.3551247,9.29385e-05,1.570997,0.786,0.04,0.04,-9.439569,0.008586117997765541,0.11397791,-1.2150133e-07,-0.0011641272576525807,9.5329074e-07
1183.3999999992525,0.00016700858,-0.78576016,4.0122035e-05,-2.3552213,9.297428e-05,1.5709941,0.786,0.04,0.04,-9.834331,0.0006530176033265889,0.009126272,-1.151084e-06,-0.0022385013289749622,7.047787e-07
1183.4166666659191,0.00016703458,-0.7856543,4.0187104e-05,-2.35531,9.300909e-05,1.5709913,0.786,0.04,0.04,-9.832523,0.000732775719370693,0.007517058,-8.2810975e-06,-0.003226281376555562,-8.414547e-07
1183.4333333325858,0.00016711686,-0.78555703,4.0387476e-05,-2.355391,9.3046525e-05,1.5709884,0.786,0.04,0.04,-9.830591,0.0008922137203626335,0.0061613745,-2.6944035e-05,-0.004136725794523954,-5.676417e-06
1183.4499999992524,0.00016730886,-0.7854676,4.084464e-05,-2.3554652,9.3093e-05,1.5709856,0.786,0.04,0.04,-9.828958,0.001125370617955923,0.0048093153,-6.237458e-05,-0.004968476481735706,-1.5217413e-05
1183.466666665919,0.00016767938,-0.7853856,4.1713247e-05,-2.3555322,9.315499e-05,1.5709827,0.7859981,0.04,0.04,-9.827237,0.0014102535787969828,0.0036196923,-0.00012010216,-0.005729449447244406,-3.0724703e-05
1183.4833333325857,0.00016831119,-0.7853105,4.3177748e-05,-2.355597,9.324168e-05,1.5709798,0.7859962,0.04,0.04,-9.825669,0.0017542550340294838,0.002476133,-0.0001961033,-0.006420947145670652,-5.3356307e-05
1183.4999999992524,0.00016929951,-0.7852418,4.544925e-05,-2.3556552,9.337086e-05,1.570977,0.7859943,0.04,0.039999995,-9.824868,0.002158685587346554,0.0013323347,-0.00030314483,-0.007066178601235151,-8.334618e-05
1183.516666665919,0.00017075092,-0.78517914,4.876283e-05,-2.3557088,9.353294e-05,1.570974,0.7859905,0.04,0.04,-9.823345,0.002568245632573962,0.00032256264,-0.0004458451,-0.007647702004760504,-0.00012394012
1183.5333333325857,0.00017278122,-0.7851223,5.3374424e-05,-2.3557594,9.376829e-05,1.570971,0.78598475,0.04,0.03999999,-9.822256,0.0030601241160184145,-0.0007022652,-0.0006193156,-0.008174527436494827,-0.00017206861
1183.5499999992523,0.00017551583,-0.785071,5.95591e-05,-2.3558066,9.406782e-05,1.5709678,0.7859771,0.04,0.03999999,-9.8212385,0.003521944861859083,-0.0016018038,-0.00082784117,-0.008654915727674961,-0.0002323868
1183.566666665919,0.00017908742,-0.7850252,6.7608584e-05,-2.3558497,9.442665e-05,1.570964,0.7859676,0.04,0.04,-9.820364,0.004047557711601257,-0.0025225834,-0.0010744389,-0.00908927246928215,-0.00030544307
1183.5833333325857,0.00018363527,-0.7849844,7.782852e-05,-2.355892,9.487733e-05,1.5709573,0.78595614,0.04,0.04,-9.819254,0.0045576211996376514,-0.0033266728,-0.001362827,-0.009475539438426495,-0.00038865441
1183.5999999992523,0.00018930476,-0.78494865,9.053765e-05,-2.3559313,9.543342e-05,1.5709505,0.7859416,0.04,0.04,-9.818783,0.005124927498400211,-0.004111833,-0.0016963116,-0.009840203449130058,-0.00048412374
1183.616666665919,0.00019624621,-0.78491765,0.00010606535,-2.3559673,9.611952e-05,1.5709435,0.785924,0.04,0.039999995,-9.817861,0.005628905259072781,-0.0048862747,-0.0020726025,-0.010161031037569046,-0.00059153116
1183.6333333325856,0.00020461447,-0.7848914,0.00012475086,-2.3560026,9.6939104e-05,1.570933,0.78590274,0.04,0.039999995,-9.816992,0.006204942241311073,-0.005691552,-0.0024947908,-0.010436265729367733,-0.0007127988
1183.6499999992523,0.00021456809,-0.7848699,0.00014694109,-2.3560374,9.7888544e-05,1.5709224,0.7858774,0.039999995,0.04,-9.816461,0.006682082079350948,-0.006317664,-0.0029625688,-0.010693555697798729,-0.0008489545
1183.666666665919,0.00022626841,-0.7848529,0.00017298917,-2.3560717,9.899516e-05,1.5709108,0.7858477,0.03999999,0.04,-9.815997,0.0072622597217559814,-0.0070785135,-0.003477469,-0.010918744839727879,-0.000997914
1183.6833333325856,0.00023987934,-0.7848405,0.00020325411,-2.356106,0.00010027766,1.5708964,0.78581315,0.039999988,0.04,-9.81543,0.007715133484452963,-0.0077431398,-0.0040398333,-0.011114798486232758,-0.0011607108
1183.6999999992522,0.0002555668,-0.7848328,0.0002380988,-2.3561397,0.00010175412,1.5708809,0.78577346,0.03999998,0.03999999,-9.815053,0.008268946781754494,-0.008429912,-0.0046504764,-0.011291565373539925,-0.001336656
1183.7166666659189,0.00027349827,-0.7848295,0.0002778896,-2.3561728,0.00010343897,1.5708625,0.78572804,0.039999973,0.039999988,-9.814483,0.008660919032990932,-0.009064329,-0.005310157,-0.011438852176070213,-0.0015275951
1183.7333333325855,0.00029384217,-0.7848309,0.00032299504,-2.356206,0.00010534877,1.5708414,0.78567654,0.03999997,0.039999984,-9.814016,0.009098250418901443,-0.009697082,-0.0060181827,-0.011564485728740692,-0.0017319128
1183.7499999992522,0.00031676766,-0.784837,0.00037378503,-2.3562403,0.000107498396,1.5708185,0.78561866,0.039999966,0.03999998,-9.813596,0.009580852463841438,-0.010351222,-0.006775463,-0.011668290942907333,-0.0019505247
1183.7666666659188,0.00034244425,-0.78484774,0.00043063032,-2.3562746,0.00010990286,1.5707926,0.7855538,0.039999954,0.039999973,-9.813273,0.00986083410680294,-0.010957439,-0.0075825565,-0.011752219870686531,-0.0021843347
1183.7833333325855,0.00037104127,-0.7848632,0.0004939014,-2.3563092,0.00011257871,1.5707632,0.7854817,0.039999943,0.03999996,-9.81289,0.010283094830811024,-0.011605684,-0.008438078,-0.011817106045782566,-0.0024316264
1183.7999999992521,0.00040272783,-0.7848837,0.0005639683,-2.3563445,0.00011554109,1.5707318,0.7854017,0.039999936,0.039999954,-9.812472,0.0104761878028512,-0.012179589,-0.009343329,-0.011863220483064651,-0.0026932536
1183.8166666659188,0.00043767245,-0.78490883,0.00064119947,-2.35638,0.00011880483,1.5706972,0.7853136,0.039999936,0.039999958,-9.812099,0.010802327655255795,-0.012835175,-0.010296548,-0.011885036714375019,-0.0029700198
1183.8333333325854,0.0004760426,-0.7849392,0.0007259618,-2.3564167,0.00012238577,1.570659,0.7852169,0.03999994,0.039999966,-9.811689,0.010889451019465923,-0.013418052,-0.011298685,-0.011887657456099987,-0.0032610204
1183.849999999252,0.000518005,-0.7849747,0.0008186195,-2.3564572,0.00012629949,1.5706171,0.7851113,0.03999994,0.039999966,-9.811354,0.011134471744298935,-0.0140363835,-0.01234927,-0.011872406117618084,-0.0035653147
1183.8666666659187,0.00056372455,-0.7850151,0.00091953384,-2.3564997,0.00013056054,1.5705714,0.7849962,0.03999994,0.03999997,-9.81138,0.011097138747572899,-0.014592762,-0.0134475585,-0.011854393407702446,-0.0038845493
1183.8833333325854,0.00061336503,-0.78506094,0.0010290634,-2.3565426,0.0001351842,1.5705218,0.7848713,0.039999947,0.03999998,-9.811186,0.011227159760892391,-0.015292851,-0.014593283,-0.011823495849967003,-0.0042177476
1183.899999999252,0.0006670887,-0.7851122,0.001147562,-2.356587,0.00014018558,1.5704683,0.78473616,0.039999954,0.039999988,-9.810771,0.011064739897847176,-0.015876697,-0.015785635,-0.011773280799388885,-0.004563921
1183.9166666659187,0.00072505564,-0.78516924,0.0012753817,-2.3566365,0.0001455922,1.5704107,0.78459024,0.039999966,0.039999995,-9.810439,0.011086136102676392,-0.016556997,-0.017024323,-0.011705734767019749,-0.0049229623
1183.9333333325853,0.000787424,-0.78523177,0.001412868,-2.356687,0.00015141875,1.570349,0.7844334,0.039999973,0.04,-9.810605,0.010767996311187744,-0.01713419,-0.018308174,-0.011638591066002846,-0.0052957777
1183.949999999252,0.00085435,-0.7853,0.0015603632,-2.356739,0.00015767704,1.5702827,0.78426516,0.03999998,0.04,-9.810229,0.010653345845639706,-0.017878015,-0.019637441,-0.011552708223462105,-0.005682061
1183.9666666659186,0.0009259878,-0.78537416,0.0017182038,-2.3567967,0.00016438193,1.5702115,0.7840852,0.03999998,0.04,-9.809905,0.010184702463448048,-0.018493084,-0.021010922,-0.011450693942606449,-0.006081632
1183.9833333325853,0.0010024888,-0.7854542,0.0018867219,-2.3568554,0.0001715294,1.5701358,0.783893,0.03999998,0.04,-9.810112,0.009766926057636738,-0.019173717,-0.022428762,-0.011352760717272758,-0.006495913
1183.999999999252,0.0010840027,-0.7855406,0.0020662446,-2.3569188,0.00017914116,1.570055,0.7836883,0.03999998,0.04,-9.809734,0.009441284462809563,-0.019957311,-0.023888702,-0.011236549355089664,-0.006922289
1184.0166666659186,0.0011706754,-0.7856332,0.0022570929,-2.3569846,0.00018723164,1.569969,0.7834707,0.03999998,0.04,-9.809744,0.008715986274182796,-0.020622611,-0.025391383,-0.011116196401417255,-0.007361423
1184.0333333325852,0.0012626515,-0.7857322,0.0024595824,-2.3570526,0.00019581385,1.5698782,0.78323984,0.039999977,0.04,-9.809546,0.00822446495294571,-0.02142305,-0.02693533,-0.010985463857650757,-0.007813111
1184.049999999252,0.0013600729,-0.78583753,0.0026740236,-2.357126,0.00020488483,1.5697818,0.7829954,0.039999977,0.04,-9.809214,0.007314360700547695,-0.02214275,-0.028519839,-0.010836848057806492,-0.008278658
1184.0666666659185,0.001463078,-0.7859497,0.0029007203,-2.3572009,0.00021446524,1.56968,0.78273696,0.039999973,0.04,-9.809386,0.006655547767877579,-0.022998739,-0.030144429,-0.010692518204450607,-0.008755593
1184.0833333325852,0.0015718034,-0.7860683,0.003139971,-2.357282,0.0002245764,1.5695726,0.7824642,0.03999997,0.04,-9.808954,0.005570909008383751,-0.023741513,-0.031807616,-0.01052764616906643,-0.009243616
1184.0999999992518,0.0016863813,-0.786194,0.0033920673,-2.3573647,0.00023523878,1.5694593,0.78217685,0.03999997,0.04,-9.80918,0.00473424419760704,-0.024654381,-0.033508863,-0.010368230752646923,-0.009742721
1184.1166666659185,0.0018069431,-0.7863269,0.003657295,-2.3574533,0.00024644678,1.56934,0.7818745,0.039999966,0.04,-9.808782,0.003442540764808655,-0.025444858,-0.03524752,-0.010190372355282307,-0.010254915
1184.1333333325852,0.0019336158,-0.7864666,0.003935934,-2.3575442,0.0002582057,1.5692149,0.78155684,0.03999996,0.04,-9.808937,0.002414485439658165,-0.026372816,-0.03702221,-0.010015455074608326,-0.010779233
1184.1499999992518,0.0020665245,-0.7866136,0.004228256,-2.357641,0.00027053428,1.5690837,0.7812236,0.03999996,0.04,-9.808575,0.0009262971580028534,-0.027258307,-0.038832247,-0.00982360914349556,-0.011313799
1184.1666666659185,0.00220579,-0.7867681,0.004534527,-2.3577437,0.0002834535,1.568946,0.7808743,0.03999996,0.04,-9.808736,-0.00028922222554683685,-0.028260149,-0.04067681,-0.009634425863623619,-0.011858603
1184.183333332585,0.0023515306,-0.7869299,0.0048550093,-2.3578484,0.000296982,1.5688021,0.78050905,0.039999966,0.04,-9.808872,-0.0019871480762958527,-0.029157272,-0.04255409,-0.00944715365767479,-0.012413447
1184.1999999992518,0.0025038635,-0.78709936,0.0051899557,-2.35796,0.000311137,1.5686519,0.7801273,0.039999973,0.04,-9.808445,-0.0034041311591863632,-0.030266032,-0.04446524,-0.009241552092134953,-0.012977997
1184.2166666659184,0.002662901,-0.7872765,0.005539613,-2.3580735,0.00032592588,1.5684949,0.7797288,0.03999997,0.04,-9.808671,-0.005333609879016876,-0.031236587,-0.04640778,-0.009040404111146927,-0.013553847
1184.233333332585,0.0028287526,-0.7874616,0.005904223,-2.3581932,0.00034132943,1.5683311,0.7793132,0.039999973,0.04,-9.808249,-0.007175475358963013,-0.032320663,-0.048381314,-0.008821754716336727,-0.014141193
1184.2499999992517,0.003001525,-0.78765464,0.0062840176,-2.3583157,0.00035737653,1.5681607,0.7788803,0.039999977,0.04,-9.808361,-0.008906789124011993,-0.03347958,-0.050384704,-0.008605485782027245,-0.014737736
1184.2666666659184,0.0031813218,-0.78785557,0.0066792243,-2.358444,0.0003740574,1.567983,0.7784298,0.039999977,0.04,-9.808041,-0.011176468804478645,-0.034546956,-0.052416667,-0.008373650722205639,-0.015344554
1184.283333332585,0.0033682438,-0.7880647,0.007090065,-2.3585787,0.00039139204,1.5677985,0.7779615,0.039999973,0.04,-9.808078,-0.013132408261299133,-0.035799358,-0.054476414,-0.008142365142703056,-0.015960926
1184.2999999992517,0.0035623882,-0.7882821,0.0075167543,-2.358716,0.00040939043,1.567607,0.7774751,0.039999973,0.04,-9.808198,-0.01562390848994255,-0.03693899,-0.056563426,-0.007912068627774715,-0.01658575
1184.3166666659183,0.0037638494,-0.7885078,0.007959498,-2.3588598,0.00042805844,1.5674084,0.7769706,0.03999997,0.04,-9.807801,-0.017810015007853508,-0.038273476,-0.0586764,-0.007665344979614019,-0.017220277
1184.333333332585,0.00397272,-0.7887418,0.008418496,-2.35901,0.0004474081,1.5672027,0.7764476,0.039999973,0.04,-9.807945,-0.02054949849843979,-0.03948137,-0.060815066,-0.0074210017919540405,-0.017862927
1184.3499999992516,0.0041890885,-0.78898454,0.008893945,-2.3591633,0.00046744294,1.5669897,0.7759057,0.039999973,0.04,-9.8079815,-0.022960089147090912,-0.040902622,-0.06297812,-0.007176047656685114,-0.018515024
1184.3666666659183,0.004413038,-0.7892356,0.00938603,-2.3593225,0.0004881777,1.566769,0.775345,0.039999973,0.04,-9.807673,-0.025939807295799255,-0.042191405,-0.06516367,-0.006916949525475502,-0.019174568
1184.383333332585,0.004644653,-0.7894952,0.0098949345,-2.3594882,0.0005096216,1.5665405,0.7747651,0.03999996,0.04,-9.807692,-0.028593100607395172,-0.043699168,-0.067372285,-0.006657855119556189,-0.019843206
1184.3999999992516,0.004884013,-0.7897639,0.010420832,-2.359658,0.00053177297,1.5663042,0.77416587,0.03999996,0.04,-9.807784,-0.031824979931116104,-0.045083944,-0.0696018,-0.0064020296558737755,-0.020519178
1184.4166666659182,0.005131193,-0.7900415,0.010963887,-2.359833,0.00055464485,1.5660602,0.77354705,0.039999954,0.04,-9.807487,-0.034718021750450134,-0.04664204,-0.071852334,-0.006134107708930969,-0.021203557
1184.4333333325849,0.005386268,-0.7903278,0.011524264,-2.360015,0.00057822844,1.5658084,0.77290845,0.03999997,0.04,-9.807432,-0.03819969668984413,-0.048112288,-0.07412196,-0.005862697027623653,-0.021894729
1184.4499999992515,0.005649307,-0.7906231,0.012102117,-2.360202,0.00060253835,1.5655488,0.77225006,0.039999966,0.04,-9.807511,-0.041370414197444916,-0.049804512,-0.076409906,-0.0055935862474143505,-0.02259892
1184.4666666659182,0.005920379,-0.79092777,0.012697592,-2.360394,0.00062754157,1.5652816,0.7715716,0.039999977,0.04,-9.807441,-0.04512548819184303,-0.051378354,-0.078716174,-0.005320370197296143,-0.02331245
1184.4833333325848,0.006199549,-0.7912414,0.013310833,-2.360592,0.00065330445,1.5650065,0.77087283,0.039999977,0.04,-9.807165,-0.04870757833123207,-0.053065363,-0.081038944,-0.005034578498452902,-0.024024926
1184.4999999992515,0.0064868755,-0.7915642,0.013941973,-2.360797,0.0006798399,1.5647234,0.7701539,0.039999977,0.04,-9.807167,-0.05222264304757118,-0.054891378,-0.083377406,-0.004749155603349209,-0.02474355
1184.5166666659181,0.006782419,-0.7918962,0.0145911435,-2.3610065,0.0007071258,1.5644319,0.76941454,0.039999977,0.04,-9.807263,-0.05636109411716461,-0.056609206,-0.08573132,-0.004465785343199968,-0.025470514
1184.5333333325848,0.0070862365,-0.79223764,0.015258464,-2.3612213,0.00073517766,1.5641322,0.76865405,0.03999998,0.04,-9.807036,-0.06012894585728645,-0.05854331,-0.088100284,-0.004175577312707901,-0.026202975
1184.5499999992514,0.0073983804,-0.7925885,0.015944058,-2.3614428,0.00076398975,1.5638245,0.76787287,0.03999999,0.04,-9.806898,-0.06453298032283783,-0.06034896,-0.090479866,-0.003879582043737173,-0.02694232
1184.566666665918,0.007718898,-0.79294866,0.016648024,-2.3616705,0.0007935855,1.5635086,0.7670708,0.03999998,0.04,-9.8068495,-0.06856659054756165,-0.062381327,-0.09287205,-0.003581464057788253,-0.027687818
1184.5833333325847,0.008047839,-0.79331845,0.017370474,-2.3619041,0.0008239598,1.5631846,0.7662475,0.039999984,0.04,-9.806842,-0.07322505116462708,-0.06432155,-0.09527554,-0.0032825276721268892,-0.028438393
1184.5999999992514,0.008385243,-0.79369783,0.018111503,-2.3621428,0.0008551139,1.562852,0.76540315,0.039999984,0.04,-9.806742,-0.07752548158168793,-0.0664643,-0.09768905,-0.0029801977798342705,-0.029195372
1184.616666665918,0.0087311575,-0.79408675,0.018871205,-2.362388,0.0008870652,1.5625112,0.76453763,0.039999984,0.04,-9.806528,-0.08245374262332916,-0.06849275,-0.1001124,-0.002670950721949339,-0.029956939
1184.6333333325847,0.00908562,-0.79448533,0.019649656,-2.3626397,0.0009198173,1.5621619,0.76365054,0.039999984,0.04,-9.806454,-0.08701712638139725,-0.07075965,-0.10254446,-0.002360004000365734,-0.030723896
1184.6499999992513,0.009448666,-0.79489356,0.020446938,-2.362897,0.00095336203,1.561804,0.76274204,0.039999984,0.04,-9.806443,-0.09222041070461273,-0.0729218,-0.104983434,-0.0020487536676228046,-0.031495962
1184.666666665918,0.009820329,-0.7953115,0.02126313,-2.3631604,0.0009876931,1.5614377,0.7618121,0.039999977,0.04,-9.806265,-0.09705742448568344,-0.07530056,-0.10742943,-0.0017334641888737679,-0.032274447
1184.6833333325847,0.010200642,-0.7957391,0.022098294,-2.3634293,0.0010228214,1.5610628,0.76086044,0.039999973,0.04,-9.806174,-0.10253167897462845,-0.07758183,-0.109881625,-0.0014155879616737366,-0.033056784
1184.6999999992513,0.010589625,-0.79617655,0.022952491,-2.3637052,0.00105874,1.5606794,0.75988734,0.03999997,0.04,-9.805947,-0.10762891173362732,-0.08009041,-0.112338565,-0.0010918115731328726,-0.033844296
1184.716666665918,0.010987311,-0.79662377,0.023825776,-2.3639872,0.0010954349,1.5602876,0.75889236,0.03999997,0.04,-9.805933,-0.11337709426879883,-0.08250428,-0.11480067,-0.0007689557387493551,-0.034635413
1184.7333333325846,0.011393716,-0.7970809,0.024718203,-2.3642745,0.0011329341,1.5598872,0.75787556,0.039999973,0.04,-9.80583,-0.11899645626544952,-0.08506979,-0.11726578,-0.00044377660378813744,-0.035429787
1184.7499999992513,0.011808863,-0.7975477,0.025629811,-2.3645685,0.0011712571,1.5594779,0.756837,0.039999973,0.04,-9.805565,-0.12449710816144943,-0.08776298,-0.11973316,-0.00011198486754437909,-0.036228016
1184.766666665918,0.012232769,-0.7980244,0.026560644,-2.364869,0.0012103753,1.5590602,0.7557765,0.039999984,0.04,-9.805475,-0.13066616654396057,-0.090383485,-0.12220302,0.00022014362912159413,-0.03703086
1184.7833333325846,0.012665448,-0.798511,0.02751073,-2.3651755,0.0012502671,1.558634,0.7546939,0.04,0.04,-9.805377,-0.13650435209274292,-0.0932188,-0.12467312,0.0005532121285796165,-0.037847392
1184.7999999992512,0.013106915,-0.79900765,0.028480092,-2.3654878,0.0012909964,1.5581989,0.75358945,0.04,0.04,-9.805198,-0.1428745687007904,-0.09598708,-0.12714267,0.0008903996204026043,-0.038656335
1184.8166666659179,0.013557177,-0.799514,0.029468752,-2.3658068,0.0013325523,1.5577555,0.7524632,0.04,0.04,-9.80495,-0.14891991019248962,-0.09894615,-0.1296121,0.0012316673528403044,-0.039468497
1184.8333333325845,0.014016237,-0.8000302,0.030476725,-2.3661315,0.0013749214,1.5573033,0.7513148,0.04,0.04,-9.804879,-0.1556299924850464,-0.10187001,-0.13208061,0.001573013374581933,-0.040283713
1184.8499999992512,0.014484104,-0.8005564,0.03150402,-2.3664632,0.0014180887,1.5568423,0.75014454,0.04,0.04,-9.80463,-0.16197051107883453,-0.10499114,-0.13454624,0.001918333233334124,-0.04110402
1184.8666666659178,0.014960774,-0.8010925,0.03255064,-2.366801,0.0014620732,1.5563729,0.74895215,0.04,0.04,-9.804515,-0.16894304752349854,-0.108028896,-0.13700931,0.0022635692730545998,-0.04192556
1184.8833333325845,0.015446248,-0.8016385,0.033616595,-2.3671443,0.0015068677,1.5558947,0.74773777,0.04,0.04,-9.804336,-0.17553453147411346,-0.11132843,-0.13946803,0.0026106254663318396,-0.042749796
1184.8999999992511,0.01594053,-0.8021944,0.034701865,-2.367494,0.0015524648,1.5554078,0.7465015,0.04,0.04,-9.804019,-0.18279433250427246,-0.11453843,-0.14192195,0.002964308485388756,-0.043575875
1184.9166666659178,0.016443612,-0.8027603,0.035806432,-2.3678508,0.0015988821,1.5549121,0.7452432,0.04,0.04,-9.803808,-0.1896563023328781,-0.11795974,-0.14437108,0.003318477887660265,-0.044403337
1184.9333333325844,0.01695548,-0.80333596,0.03693029,-2.3682132,0.0016461123,1.5544081,0.7439629,0.04,0.04,-9.803722,-0.19718067348003387,-0.121336654,-0.146814,0.003670851234346628,-0.04523306
1184.949999999251,0.017476128,-0.80392164,0.038073402,-2.3685818,0.0016941606,1.5538952,0.74266064,0.04,0.04,-9.803392,-0.20432157814502716,-0.12494419,-0.14924966,0.004028894007205963,-0.046064388
1184.9666666659177,0.018005544,-0.8045172,0.03923575,-2.3689568,0.0017430013,1.5533738,0.7413364,0.04,0.04,-9.803142,-0.21211780607700348,-0.12847789,-0.15167756,0.004389520734548569,-0.046897218
1184.9833333325844,0.01854371,-0.8051227,0.040417314,-2.3693376,0.0017926594,1.5528436,0.7399904,0.04,0.04,-9.802928,-0.21978405117988586,-0.13216473,-0.15409698,0.004750515334308147,-0.0477308
1184.999999999251,0.019090608,-0.8057379,0.041618053,-2.3697248,0.0018430508,1.5523047,0.7386226,0.04,0.04,-9.80256,-0.22742938995361328,-0.13600954,-0.15650776,0.005116156302392483,-0.04858171
1185.0166666659177,0.019646218,-0.8063631,0.042837903,-2.3701184,0.0018942332,1.5517577,0.737233,0.04,0.04,-9.802345,-0.235535129904747,-0.13981234,-0.15890862,0.005481852684170008,-0.049418584
1185.0333333325843,0.020210521,-0.80699795,0.044076834,-2.3705177,0.0019462276,1.5512018,0.7358218,0.04,0.04,-9.802049,-0.24334746599197388,-0.1438283,-0.16129884,0.005850445944815874,-0.05025547
1185.049999999251,0.020783499,-0.8076424,0.045334782,-2.3709235,0.0019990401,1.5506375,0.7343888,0.04,0.04,-9.801744,-0.25180181860923767,-0.14781842,-0.1636783,0.00622036587446928,-0.051092498
1185.0666666659176,0.021365108,-0.8082964,0.046611696,-2.3713348,0.002052665,1.5500648,0.7329343,0.04,0.04,-9.801425,-0.25988873839378357,-0.15203398,-0.1660458,0.0065914117731153965,-0.051930875
1185.0833333325843,0.021955336,-0.8089602,0.047907505,-2.3717527,0.0021070803,1.5494833,0.73145795,0.04,0.04,-9.801062,-0.26861491799354553,-0.15622972,-0.16840033,0.006966394372284412,-0.05276956
1185.099999999251,0.02255414,-0.80963373,0.049222168,-2.3721766,0.002162302,1.5488935,0.72996026,0.04,0.04,-9.800775,-0.27695155143737793,-0.16059396,-0.17074062,0.0073393466882407665,-0.05360778
1185.1166666659176,0.023161491,-0.81031686,0.05055558,-2.3726063,0.0022183005,1.5482951,0.7284412,0.04,0.04,-9.800395,-0.2859525680541992,-0.16496658,-0.17306733,0.007716263644397259,-0.054449655
1185.1333333325842,0.023777362,-0.8110095,0.051907677,-2.3730423,0.0022750655,1.5476885,0.72690105,0.04,0.04,-9.7999525,-0.2945641875267029,-0.16954066,-0.17537923,0.008096354082226753,-0.05529124
1185.149999999251,0.024401706,-0.81171167,0.05327838,-2.373484,0.0023326061,1.5470735,0.7253397,0.04,0.04,-9.79965,-0.3037996292114258,-0.1741238,-0.17767711,0.008475619368255138,-0.056132518
1185.1666666659175,0.025034487,-0.8124232,0.054667585,-2.373932,0.0023909083,1.5464503,0.72375715,0.04,0.04,-9.799172,-0.3126559853553772,-0.17889333,-0.17995879,0.008858171291649342,-0.056972165
1185.1833333325842,0.025675664,-0.8131443,0.056075227,-2.3743856,0.0024499707,1.5458188,0.7221537,0.04,0.04,-9.798826,-0.32215237617492676,-0.1836714,-0.18222359,0.009240700863301754,-0.057812847
1185.1999999992508,0.02632519,-0.81387484,0.057501204,-2.3748453,0.0025098035,1.5451791,0.7205295,0.04,0.04,-9.798303,-0.3312675356864929,-0.18864666,-0.18447171,0.009627441875636578,-0.058650885
1185.2166666659175,0.026983017,-0.8146146,0.058945403,-2.375311,0.002570401,1.5445312,0.7188844,0.04,0.04,-9.797909,-0.3410012423992157,-0.19362102,-0.18670261,0.010013983584940434,-0.05948777
1185.2333333325842,0.027649108,-0.815364,0.060407743,-2.375782,0.0026317753,1.543875,0.7172186,0.04,0.04,-9.79745,-0.35059916973114014,-0.19876924,-0.18891466,0.010401536710560322,-0.060321823
1185.2499999992508,0.028323414,-0.81612253,0.06188809,-2.376259,0.0026939053,1.543211,0.71553224,0.04,0.04,-9.796853,-0.36010855436325073,-0.20400865,-0.19110754,0.010792883113026619,-0.061155666
1185.2666666659175,0.029005874,-0.8168902,0.06338634,-2.3767424,0.0027567812,1.5425389,0.71382564,0.04,0.04,-9.796375,-0.37020638585090637,-0.20933817,-0.19328083,0.011186701245605946,-0.061987877
1185.283333332584,0.029696438,-0.8176668,0.064902395,-2.377231,0.0028204024,1.5418589,0.7120988,0.04,0.04,-9.795912,-0.37993669509887695,-0.21484073,-0.19543451,0.011578238569200039,-0.06281693
1185.2999999992508,0.030395059,-0.81845266,0.06643613,-2.3777254,0.0028847621,1.5411706,0.7103517,0.04,0.04,-9.795306,-0.390257328748703,-0.22038713,-0.19756761,0.011974072083830833,-0.063642636
1185.3166666659174,0.031101668,-0.8192474,0.06798739,-2.3782256,0.0029498467,1.5404747,0.7085846,0.04,0.04,-9.794734,-0.4002469778060913,-0.22608314,-0.19967939,0.012369166128337383,-0.06446631
1185.333333332584,0.031816218,-0.8200511,0.06955607,-2.3787315,0.0030156744,1.539771,0.70679766,0.04,0.04,-9.79419,-0.41081079840660095,-0.23185088,-0.20176886,0.012765300460159779,-0.065289274
1185.3499999992507,0.032538645,-0.82086366,0.07114203,-2.3792424,0.0030821976,1.5390596,0.704991,0.04,0.04,-9.793585,-0.4210937023162842,-0.2378058,-0.2038365,0.013162538409233093,-0.06612121
1185.3666666659174,0.033268876,-0.8216851,0.072745144,-2.3797588,0.003149438,1.5383406,0.70316494,0.04,0.04,-9.792857,-0.43180137872695923,-0.2437869,-0.20588115,0.013565539382398129,-0.06693731
1185.383333332584,0.034006838,-0.82251513,0.074365266,-2.3802812,0.0032174047,1.5376139,0.7013194,0.04,0.04,-9.792195,-0.4422432780265808,-0.24995176,-0.20790303,0.013968309387564659,-0.06774899
1185.3999999992507,0.0347525,-0.8233538,0.076002255,-2.3808086,0.0032860972,1.5368798,0.6994548,0.04,0.04,-9.791586,-0.45323994755744934,-0.25619587,-0.20990075,0.014370735734701157,-0.068557695
1185.4166666659173,0.035505775,-0.8242011,0.077655956,-2.3813412,0.003355485,1.5361383,0.69757116,0.04,0.04,-9.790816,-0.46392911672592163,-0.2625951,-0.21187451,0.014776634983718395,-0.069365256
1185.433333332584,0.036266595,-0.8250569,0.07932622,-2.3818796,0.0034255416,1.5353892,0.6956686,0.04,0.04,-9.790093,-0.47515901923179626,-0.26907006,-0.21382399,0.015184681862592697,-0.07017154
1185.4499999992506,0.03703489,-0.82592106,0.0810129,-2.3824232,0.003496309,1.5346324,0.69374734,0.04,0.04,-9.789361,-0.48603665828704834,-0.27570495,-0.2157476,0.015591568313539028,-0.07097095
1185.4666666659173,0.03781059,-0.8267936,0.08271581,-2.382972,0.003567752,1.5338681,0.6918077,0.04,0.04,-9.78859,-0.49745315313339233,-0.28241712,-0.21764554,0.015998920425772667,-0.071767434
1185.483333332584,0.038593616,-0.8276745,0.08443482,-2.3835258,0.0036398747,1.533097,0.68984973,0.04,0.04,-9.7878065,-0.5087652802467346,-0.28927398,-0.2195179,0.016404984518885612,-0.07255991
1185.4999999992506,0.0393839,-0.8285634,0.08616976,-2.3840852,0.0037126767,1.5323186,0.68787354,0.04,0.04,-9.78693,-0.5199652910232544,-0.2962903,-0.22136368,0.01681562326848507,-0.07334687
1185.5166666659172,0.040181343,-0.8294604,0.08792042,-2.3846493,0.0037861108,1.531533,0.6858794,0.04,0.04,-9.786131,-0.5317363739013672,-0.3034027,-0.22318214,0.017224987968802452,-0.07413855
1185.5333333325839,0.040985875,-0.83036536,0.089686655,-2.3852184,0.0038601963,1.5307405,0.68386745,0.04,0.04,-9.785225,-0.5430976748466492,-0.31066588,-0.22497284,0.01763422042131424,-0.07491842
1185.5499999992505,0.041797433,-0.8312784,0.09146831,-2.385793,0.0039349357,1.5299411,0.6818381,0.04,0.04,-9.784306,-0.5549878478050232,-0.31802326,-0.22673558,0.018046041950583458,-0.07569137
1185.5666666659172,0.04261592,-0.83219904,0.09326515,-2.3863719,0.004010298,1.529135,0.67979133,0.04,0.04,-9.783393,-0.5666099190711975,-0.32552785,-0.22847047,0.018456999212503433,-0.07646094
1185.5833333325838,0.043441255,-0.8331275,0.095077075,-2.386956,0.00408631,1.5283222,0.67772746,0.04,0.04,-9.782394,-0.5786681771278381,-0.33316532,-0.23017676,0.01887025125324726,-0.0772228
1185.5999999992505,0.044273354,-0.83406353,0.09690383,-2.387545,0.0041629467,1.5275027,0.6756466,0.04,0.04,-9.781415,-0.5904724597930908,-0.34093517,-0.2318537,0.019283873960375786,-0.07797985
1185.6166666659171,0.045112126,-0.8350071,0.09874524,-2.3881383,0.0042402046,1.5266764,0.6735492,0.04,0.04,-9.780452,-0.6027307510375977,-0.34882337,-0.23350108,0.019695522263646126,-0.07873174
1185.6333333325838,0.045957495,-0.83595806,0.1006011,-2.3887362,0.004318083,1.5258436,0.67143524,0.04,0.04,-9.779267,-0.6147000789642334,-0.3568672,-0.23511903,0.020111359655857086,-0.07947823
1185.6499999992504,0.04680936,-0.83691657,0.10247124,-2.3893392,0.0043965513,1.5250047,0.66930497,0.04,0.04,-9.778233,-0.6271215081214905,-0.3650162,-0.23670724,0.020526714622974396,-0.08021967
1185.666666665917,0.047667645,-0.8378823,0.104355454,-2.3899465,0.0044756145,1.5241594,0.6671587,0.04,0.04,-9.777116,-0.6392685174942017,-0.3733131,-0.23826446,0.020942462608218193,-0.080953926
1185.6833333325837,0.048532248,-0.8388549,0.10625356,-2.3905587,0.0045552114,1.5233078,0.66499645,0.04,0.04,-9.775974,-0.6518961191177368,-0.3817411,-0.23979093,0.021359611302614212,-0.08169041
1185.6999999992504,0.04940306,-0.8398345,0.108165324,-2.3911746,0.0046353936,1.5224504,0.6628188,0.04,0.04,-9.774842,-0.6641455888748169,-0.39032322,-0.24128528,0.021772658452391624,-0.08241193
1185.716666665917,0.050280012,-0.8408211,0.11009054,-2.3917954,0.0047161574,1.5215868,0.660626,0.04,0.04,-9.773525,-0.676862359046936,-0.3990389,-0.24274932,0.02219204790890217,-0.083124995
1185.7333333325837,0.051162995,-0.84181446,0.11202903,-2.3924198,0.0047974726,1.5207169,0.65841806,0.04,0.04,-9.772359,-0.6895030736923218,-0.40787703,-0.24418218,0.022607894614338875,-0.0838334
1185.7499999992503,0.052051924,-0.8428147,0.11398055,-2.3930485,0.0048793624,1.5198414,0.65619487,0.04,0.04,-9.771007,-0.7020351886749268,-0.41683134,-0.2455829,0.023023921996355057,-0.08453276
1185.766666665917,0.052946687,-0.8438211,0.11594489,-2.3936818,0.0049617896,1.51896,0.65395766,0.04,0.04,-9.769673,-0.7149622440338135,-0.42595333,-0.24694961,0.023443039506673813,-0.085224435
1185.7833333325837,0.053847197,-0.84483445,0.11792184,-2.3943188,0.005044727,1.5180731,0.6517054,0.04,0.04,-9.768373,-0.7276531457901001,-0.4352305,-0.24828638,0.023857638239860535,-0.085911706
1185.7999999992503,0.054753345,-0.8458539,0.119911164,-2.3949602,0.0051281895,1.5171804,0.64943916,0.04,0.04,-9.766942,-0.7406945824623108,-0.44460657,-0.24958704,0.024276049807667732,-0.08658804
1185.816666665917,0.055665016,-0.84687966,0.12191262,-2.3956048,0.005212193,1.5162828,0.6471593,0.04,0.04,-9.765557,-0.7534964084625244,-0.45414388,-0.2508552,0.024690456688404083,-0.08725653
1185.8333333325836,0.05658214,-0.8479114,0.12392604,-2.3962543,0.0052966867,1.5153792,0.64486575,0.04,0.04,-9.764052,-0.7666804194450378,-0.46384493,-0.25209138,0.025109345093369484,-0.0879193
1185.8499999992503,0.057504594,-0.8489493,0.12595117,-2.3969066,0.0053816726,1.5144709,0.642559,0.04,0.04,-9.762644,-0.7796134352684021,-0.4736392,-0.25329325,0.02552124671638012,-0.08857329
1185.866666665917,0.058432285,-0.8499933,0.12798773,-2.3975635,0.005467131,1.5135572,0.6402392,0.04,0.04,-9.760995,-0.7929250001907349,-0.48363388,-0.25446212,0.025940990075469017,-0.089225374
1185.8833333325836,0.059365075,-0.85104275,0.13003558,-2.398223,0.0055530393,1.5126386,0.6379065,0.04,0.04,-9.75952,-0.8059409260749817,-0.49367747,-0.25559705,0.026353752240538597,-0.0898626
1185.8999999992502,0.060302895,-0.8520978,0.13209443,-2.3988864,0.005639424,1.5117148,0.6355612,0.04,0.04,-9.75782,-0.8192984461784363,-0.50396425,-0.2566976,0.0267703365534544,-0.09048938
1185.9166666659169,0.061245613,-0.85315853,0.13416407,-2.3995533,0.005726269,1.5107862,0.63320374,0.04,0.04,-9.75619,-0.8324604034423828,-0.5143247,-0.25776368,0.0271836556494236,-0.091108344
1185.9333333325835,0.06219313,-0.8542245,0.13624424,-2.4002237,0.0058135632,1.5098528,0.6308342,0.04,0.04,-9.754513,-0.8459191918373108,-0.5248555,-0.25879535,0.027596553787589073,-0.0917172
1185.9499999992502,0.06314531,-0.855296,0.13833468,-2.4008975,0.0059012948,1.5089152,0.628453,0.04,0.04,-9.752799,-0.8591668605804443,-0.5355113,-0.259792,0.028007006272673607,-0.09231712
1185.9666666659168,0.064102106,-0.8563724,0.14043519,-2.4015741,0.0059894626,1.5079728,0.6260603,0.04,0.04,-9.75102,-0.872687578201294,-0.5463403,-0.2607543,0.028419531881809235,-0.092905246
1185.9833333325835,0.06506335,-0.8574542,0.1425455,-2.4022543,0.0060780416,1.507026,0.6236565,0.04,0.04,-9.749208,-0.886154294013977,-0.55729467,-0.2616809,0.028829708695411682,-0.09348637
1185.9999999992501,0.06602893,-0.85854065,0.1446654,-2.402937,0.006167017,1.506075,0.6212418,0.04,0.04,-9.747334,-0.8995369076728821,-0.5683326,-0.26257282,0.029238883405923843,-0.09405654
1186.0166666659168,0.06699877,-0.8596321,0.14679463,-2.4036233,0.0062564034,1.5051197,0.61881644,0.04,0.04,-9.745406,-0.9131534695625305,-0.57960814,-0.2634295,0.029649488627910614,-0.09461621
1186.0333333325834,0.06797274,-0.86072797,0.14893284,-2.4043121,0.0063461876,1.5041604,0.6163808,0.04,0.04,-9.743526,-0.9266113042831421,-0.5909301,-0.26425013,0.03005525842308998,-0.09516541
1186.04999999925,0.068950705,-0.8618284,0.15107991,-2.405004,0.006436341,1.5031971,0.6139351,0.04,0.04,-9.741556,-0.9402822852134705,-0.60249263,-0.2650356,0.03046054020524025,-0.0957059
1186.0666666659167,0.06993255,-0.8629333,0.15323554,-2.4056988,0.0065268516,1.5022297,0.6114797,0.04,0.04,-9.739505,-0.9537959694862366,-0.61410725,-0.26578543,0.030864384025335312,-0.09623551
1186.0833333325834,0.07091819,-0.8640425,0.15539946,-2.406396,0.006617718,1.5012586,0.60901487,0.04,0.04,-9.737513,-0.9675041437149048,-0.6259188,-0.26649955,0.03126392513513565,-0.09675396
1186.09999999925,0.07190746,-0.8651557,0.15757139,-2.4070961,0.006708865,1.5002843,0.6065409,0.04,0.04,-9.735347,-0.9811368584632874,-0.63781893,-0.26717803,0.03166468068957329,-0.097271286
1186.1166666659167,0.0729003,-0.8662729,0.1597511,-2.4077983,0.0068003596,1.4993064,0.604058,0.04,0.04,-9.733279,-0.9947985410690308,-0.6499506,-0.26782078,0.032061487436294556,-0.09776667
1186.1333333325833,0.07389654,-0.86739415,0.16193834,-2.408503,0.0068921754,1.4983251,0.6015665,0.04,0.04,-9.730987,-1.0084056854248047,-0.6621075,-0.26842722,0.03245919570326805,-0.09825183
1186.14999999925,0.0748961,-0.8685192,0.16413285,-2.40921,0.0069842865,1.4973409,0.5990668,0.04,0.04,-9.728793,-1.022172451019287,-0.6744807,-0.26899755,0.032853610813617706,-0.09872572
1186.1666666659166,0.07589883,-0.8696476,0.16633435,-2.4099193,0.0070767296,1.4963534,0.5965589,0.04,0.04,-9.726457,-1.0357862710952759,-0.68691975,-0.26953226,0.03324909508228302,-0.09918493
1186.1833333325833,0.07690463,-0.8707797,0.16854253,-2.4106307,0.00716947,1.4953629,0.59404343,0.04,0.04,-9.724204,-1.0495703220367432,-0.6995918,-0.27002975,0.033639632165431976,-0.09963467
1186.19999999925,0.07791337,-0.8719151,0.17075722,-2.4113445,0.0072624865,1.4943689,0.59152055,0.04,0.04,-9.721778,-1.0632182359695435,-0.71227825,-0.2704914,0.03402918949723244,-0.10007238
1186.2166666659166,0.07892495,-0.87305355,0.17297813,-2.4120605,0.007355776,1.4933721,0.58899075,0.04,0.04,-9.719479,-1.076980710029602,-0.72520316,-0.2709169,0.03441105782985687,-0.100498326
1186.2333333325832,0.079939194,-0.87419504,0.17520495,-2.4127777,0.007449298,1.492373,0.58645415,0.04,0.04,-9.717025,-1.0907139778137207,-0.738248,-0.27130643,0.03478984907269478,-0.1009151
1186.24999999925,0.08095602,-0.87533945,0.17743744,-2.4134967,0.0075430726,1.4913714,0.58391106,0.04,0.04,-9.714416,-1.1043436527252197,-0.7513553,-0.2716599,0.03516993299126625,-0.10131647
1186.2666666659165,0.08197531,-0.87648684,0.17967525,-2.414218,0.0076370863,1.4903672,0.5813618,0.04,0.04,-9.711872,-1.1180907487869263,-0.76468575,-0.2719772,0.03554784134030342,-0.1017043
1186.2833333325832,0.08299696,-0.8776368,0.18191819,-2.4149413,0.0077313026,1.4893612,0.57880676,0.04,0.04,-9.709346,-1.131743311882019,-0.7780405,-0.2722581,0.035919949412345886,-0.10208273
1186.2999999992498,0.08402076,-0.8787892,0.18416604,-2.415666,0.007825737,1.4883528,0.5762461,0.04,0.04,-9.706747,-1.14545738697052,-0.7916631,-0.2725031,0.03628956526517868,-0.10244672
1186.3166666659165,0.08504667,-0.8799439,0.18641837,-2.4163918,0.007920378,1.487342,0.5736803,0.04,0.04,-9.704058,-1.1590771675109863,-0.8052825,-0.27271134,0.036654070019721985,-0.102797195
1186.3333333325832,0.0860745,-0.8811007,0.18867509,-2.4171188,0.0080151865,1.4863297,0.5711097,0.04,0.04,-9.701285,-1.172764778137207,-0.8191325,-0.27288422,0.037016935646533966,-0.103137024
1186.3499999992498,0.087104194,-0.8822598,0.19093576,-2.417847,0.008110183,1.4853156,0.5685345,0.04,0.04,-9.698467,-1.1863553524017334,-0.83302456,-0.27302167,0.03737761825323105,-0.1034607
1186.3666666659165,0.088135555,-0.88342065,0.19320016,-2.4185767,0.008205349,1.4842995,0.565955,0.04,0.04,-9.695665,-1.1999934911727905,-0.84710693,-0.27312282,0.03773525729775429,-0.10377264
1186.383333332583,0.08916851,-0.8845834,0.1954681,-2.419308,0.008300666,1.4832821,0.56337136,0.04,0.04,-9.692842,-1.2135472297668457,-0.86123073,-0.2731882,0.0380856990814209,-0.10407151
1186.3999999992498,0.0902029,-0.88574773,0.19773917,-2.4200401,0.008396128,1.482263,0.5607843,0.04,0.04,-9.689968,-1.227125883102417,-0.8755803,-0.27321693,0.03843197599053383,-0.104356736
1186.4166666659164,0.091238596,-0.8869137,0.20001319,-2.4207728,0.008491719,1.4812427,0.55819386,0.04,0.04,-9.686985,-1.2406240701675415,-0.8899422,-0.2732111,0.03877333551645279,-0.10462866
1186.433333332583,0.092275485,-0.8880812,0.2022898,-2.421506,0.00858743,1.4802213,0.55560035,0.04,0.04,-9.683944,-1.2541316747665405,-0.90452176,-0.27316925,0.03911286219954491,-0.104886256
1186.4499999992497,0.09331347,-0.88924974,0.20456882,-2.42224,0.008683252,1.4791985,0.55300415,0.04,0.04,-9.680842,-1.267577886581421,-0.91909975,-0.27309212,0.03945031762123108,-0.105129674
1186.4666666659164,0.094352394,-0.8904195,0.20684986,-2.4229748,0.008779157,1.4781752,0.55040574,0.03999999,0.04,-9.677756,-1.2810148000717163,-0.9339186,-0.27297923,0.03978164121508598,-0.10535998
1186.483333332583,0.09539215,-0.89159,0.20913267,-2.42371,0.00887514,1.477151,0.5478052,0.03999998,0.04,-9.674641,-1.2943906784057617,-0.9488001,-0.2728319,0.04010931774973869,-0.10557547
1186.4999999992497,0.0964326,-0.89276135,0.211417,-2.424446,0.008971177,1.4761261,0.545203,0.03999997,0.04,-9.671426,-1.3077330589294434,-0.96372694,-0.27264908,0.04043237119913101,-0.105777726
1186.5166666659163,0.09747356,-0.8939332,0.21370259,-2.4251826,0.009067252,1.4751006,0.5425992,0.039999973,0.04,-9.668251,-1.321014404296875,-0.9788748,-0.27243137,0.0407482348382473,-0.10596622
1186.533333332583,0.09851497,-0.89510566,0.21598911,-2.425919,0.009163364,1.474075,0.53999436,0.039999958,0.04,-9.664978,-1.3342801332473755,-0.99402094,-0.27217826,0.0410584919154644,-0.10614132
1186.5499999992496,0.09955668,-0.8962786,0.2182763,-2.426656,0.009259502,1.4730489,0.5373888,0.039999958,0.04,-9.6616,-1.347449779510498,-1.0093812,-0.27189097,0.041366834193468094,-0.10629964
1186.5666666659163,0.10059857,-0.8974518,0.22056392,-2.427393,0.009355684,1.4720224,0.5347827,0.039999947,0.04,-9.658252,-1.360621452331543,-1.024712,-0.27156922,0.041668228805065155,-0.106443144
1186.583333332583,0.101640515,-0.8986248,0.22285166,-2.4281301,0.009451837,1.4709958,0.5321766,0.03999993,0.04,-9.654873,-1.3737150430679321,-1.0402747,-0.27121252,0.041962966322898865,-0.1065762
1186.5999999992496,0.10268239,-0.89979774,0.22513926,-2.4288673,0.009547985,1.4699696,0.5295705,0.039999925,0.04,-9.651394,-1.3867567777633667,-1.0558354,-0.2708219,0.04225127398967743,-0.10669108
1186.6166666659162,0.103724025,-0.9009706,0.22742637,-2.4296043,0.009644111,1.4689436,0.52696514,0.039999913,0.04,-9.647939,-1.3997164964675903,-1.071616,-0.2703963,0.04253438860177994,-0.10679323
1186.6333333325829,0.104765326,-0.9021431,0.22971272,-2.430341,0.009740215,1.4679179,0.5243604,0.039999906,0.04,-9.644377,-1.4126601219177246,-1.0873238,-0.2699385,0.04281126335263252,-0.10687932
1186.6499999992495,0.10580614,-0.90331507,0.23199806,-2.4310772,0.009836267,1.4668926,0.521757,0.039999887,0.04,-9.640784,-1.4254920482635498,-1.1032702,-0.26944596,0.043082792311906815,-0.10695197
1186.6666666659162,0.10684639,-0.9044864,0.2342821,-2.431813,0.009932274,1.465868,0.519155,0.03999988,0.04,-9.637122,-1.4383081197738647,-1.1191832,-0.26892102,0.04334821552038193,-0.10700849
1186.6833333325828,0.10788589,-0.90565705,0.23656458,-2.4325483,0.010028218,1.4648438,0.5165547,0.03999987,0.04,-9.633465,-1.4509950876235962,-1.1353084,-0.26836234,0.043607696890830994,-0.10704991
1186.6999999992495,0.10892457,-0.9068267,0.23884518,-2.4332833,0.010124091,1.4638205,0.51395667,0.039999858,0.04,-9.629717,-1.4637031555175781,-1.1513641,-0.2677704,0.04385993629693985,-0.10707686
1186.7166666659161,0.10996228,-0.9079953,0.24112363,-2.4340177,0.010219869,1.4627982,0.51136094,0.039999843,0.04,-9.626033,-1.4762449264526367,-1.1676705,-0.2671463,0.04410422220826149,-0.10709056
1186.7333333325828,0.11099887,-0.9091627,0.24339975,-2.4347508,0.010315541,1.4617769,0.50876784,0.039999828,0.04,-9.622215,-1.488749384880066,-1.183976,-0.26648903,0.04434223100543022,-0.10708878
1186.7499999992494,0.11203425,-0.91032857,0.24567313,-2.435483,0.010411099,1.4607565,0.506178,0.039999824,0.04,-9.6183405,-1.5012593269348145,-1.2002726,-0.26579875,0.044573236256837845,-0.10707047
1186.766666665916,0.113068245,-0.91149294,0.24794357,-2.4362144,0.010506538,1.4597378,0.50359154,0.03999981,0.04,-9.614464,-1.513551950454712,-1.2168015,-0.26507735,0.04479684308171272,-0.10703942
1186.7833333325827,0.114100754,-0.91265565,0.25021067,-2.436945,0.010601838,1.4587206,0.50100875,0.039999798,0.04,-9.610529,-1.52590811252594,-1.2332637,-0.26432404,0.04501417279243469,-0.10699298
1186.7999999992494,0.11513169,-0.9138165,0.25247437,-2.4376743,0.010696992,1.4577049,0.4984299,0.03999979,0.04,-9.606619,-1.5380117893218994,-1.2499273,-0.26353908,0.04522222653031349,-0.10692998
1186.816666665916,0.11616088,-0.91497564,0.2547341,-2.4384022,0.010792013,1.456691,0.49585542,0.039999783,0.04,-9.60259,-1.5502254962921143,-1.2665204,-0.26272202,0.04542318359017372,-0.10685165
1186.8333333325827,0.1171882,-0.91613275,0.25698993,-2.439129,0.010886859,1.4556788,0.4932856,0.039999764,0.04,-9.5984955,-1.5621873140335083,-1.2832842,-0.26187468,0.04562007263302803,-0.10676057
1186.8499999992493,0.118213534,-0.91728765,0.25924134,-2.4398544,0.010981507,1.4546688,0.49072072,0.039999746,0.04,-9.594481,-1.5742459297180176,-1.2999893,-0.26099616,0.04580571874976158,-0.106654875
1186.866666665916,0.11923676,-0.91844004,0.26148823,-2.4405777,0.011075969,1.453661,0.48816106,0.039999742,0.04,-9.590344,-1.5859872102737427,-1.3168827,-0.2600873,0.045984841883182526,-0.10653018
1186.8833333325827,0.12025774,-0.9195901,0.26373002,-2.4413002,0.011170248,1.4526547,0.4856069,0.039999735,0.04,-9.586112,-1.5978707075119019,-1.3337113,-0.2591475,0.04615907743573189,-0.10639076
1186.8999999992493,0.12127636,-0.92073745,0.2659666,-2.4420211,0.011264293,1.4516512,0.48305875,0.039999716,0.04,-9.582036,-1.609460473060608,-1.3506874,-0.258178,0.04632028192281723,-0.10624071
1186.916666665916,0.12229248,-0.921882,0.26819775,-2.44274,0.011358124,1.4506499,0.48051676,0.039999697,0.04,-9.577817,-1.6211308240890503,-1.3676201,-0.25717923,0.04647315666079521,-0.10607458
1186.9333333325826,0.12330602,-0.9230236,0.27042323,-2.443457,0.011451727,1.4496512,0.4779813,0.03999968,0.04,-9.573553,-1.6325159072875977,-1.3847065,-0.2561509,0.04661698639392853,-0.10589216
1186.9499999992493,0.12431682,-0.92416215,0.27264276,-2.444172,0.011545077,1.4486554,0.4754527,0.039999675,0.04,-9.569198,-1.6440305709838867,-1.401698,-0.2550935,0.046754829585552216,-0.10569367
1186.966666665916,0.12532476,-0.9252976,0.27485606,-2.4448848,0.011638181,1.4476624,0.47293118,0.03999965,0.04,-9.564898,-1.655227780342102,-1.4188727,-0.2540071,0.04688296467065811,-0.10548008
1186.9833333325826,0.1263297,-0.92642957,0.27706277,-2.445596,0.011731013,1.4466722,0.47041696,0.039999627,0.04,-9.560508,-1.6664326190948486,-1.436002,-0.25289232,0.04700406640768051,-0.10524993
1186.9999999992492,0.12733157,-0.9275581,0.27926272,-2.4463046,0.011823543,1.445685,0.46791053,0.03999961,0.04,-9.556207,-1.6776546239852905,-1.453119,-0.2517488,0.047112468630075455,-0.10500931
1187.0166666659159,0.1283302,-0.92868316,0.28145564,-2.447011,0.011915791,1.4447012,0.4654121,0.039999604,0.04,-9.551706,-1.688557744026184,-1.4703717,-0.25057748,0.04721490666270256,-0.10475237
1187.0333333325825,0.12932554,-0.92980444,0.2836412,-2.447715,0.012007744,1.4437206,0.46292213,0.039999593,0.04,-9.547259,-1.6995820999145508,-1.487528,-0.24937879,0.04730869457125664,-0.10448085
1187.0499999992492,0.13031742,-0.93092173,0.2858191,-2.4484165,0.012099378,1.4427434,0.4604407,0.03999958,0.04,-9.542802,-1.7102724313735962,-1.5048203,-0.24815327,0.04739205166697502,-0.104195945
1187.0666666659158,0.1313057,-0.93203527,0.28798923,-2.449116,0.012190687,1.4417698,0.45796826,0.03999956,0.04,-9.538251,-1.721096158027649,-1.5220315,-0.2469003,0.04746754840016365,-0.10389701
1187.0833333325825,0.13229029,-0.93314445,0.2901513,-2.4498124,0.012281646,1.4407996,0.45550498,0.039999545,0.04,-9.533781,-1.7315601110458374,-1.5393528,-0.24562164,0.04753215238451958,-0.10358311
1187.0999999992491,0.1332711,-0.93424934,0.29230502,-2.450506,0.012372268,1.4398332,0.45305127,0.039999533,0.04,-9.529156,-1.7421760559082031,-1.5565895,-0.24431577,0.047587644308805466,-0.10325403
1187.1166666659158,0.13424797,-0.9353499,0.2944502,-2.4511976,0.012462535,1.4388707,0.45060727,0.039999526,0.04,-9.524563,-1.752425193786621,-1.5739447,-0.24298447,0.04763377830386162,-0.10291034
1187.1333333325824,0.13522084,-0.93644595,0.2965864,-2.451886,0.012552438,1.4379122,0.4481734,0.03999951,0.04,-9.520046,-1.7628506422042847,-1.5911925,-0.24162692,0.04766715690493584,-0.10255427
1187.149999999249,0.1361895,-0.9375375,0.29871354,-2.4525712,0.01264196,1.4369578,0.44574988,0.0399995,0.04,-9.515367,-1.7728691101074219,-1.6085517,-0.2402444,0.04769294336438179,-0.10218345
1187.1666666659157,0.13715392,-0.9386241,0.30083132,-2.4532528,0.012731098,1.4360076,0.44333702,0.03999948,0.04,-9.510659,-1.7830603122711182,-1.6257683,-0.23883732,0.04770978167653084,-0.1017965
1187.1833333325824,0.13811395,-0.9397057,0.30293944,-2.4539318,0.012819839,1.4350618,0.44093516,0.039999455,0.04,-9.505893,-1.7928625345230103,-1.6431295,-0.23740529,0.047719478607177734,-0.10139474
1187.199999999249,0.13906945,-0.94078255,0.30503768,-2.4546077,0.012908161,1.4341203,0.4385445,0.039999437,0.04,-9.501266,-1.8028427362442017,-1.660358,-0.23594947,0.047716327011585236,-0.100980274
1187.2166666659157,0.14002042,-0.94185406,0.3071259,-2.4552803,0.012996071,1.4331833,0.43616533,0.03999942,0.04,-9.49656,-1.8123903274536133,-1.6776698,-0.2344701,0.04770205169916153,-0.10054888
1187.2333333325823,0.14096668,-0.94292015,0.30920368,-2.4559495,0.01308354,1.432251,0.43379802,0.03999941,0.04,-9.491788,-1.8220463991165161,-1.6949418,-0.2329665,0.047679245471954346,-0.100107946
1187.249999999249,0.14190803,-0.94398093,0.31127083,-2.4566154,0.013170574,1.4313235,0.4314427,0.0399994,0.04,-9.487032,-1.8316973447799683,-1.7121215,-0.23144017,0.0476456955075264,-0.09965407
1187.2666666659156,0.1428445,-0.9450363,0.31332722,-2.457278,0.013257169,1.4304007,0.42909977,0.039999384,0.04,-9.482274,-1.8409029245376587,-1.7293935,-0.22989155,0.04760175943374634,-0.09918649
1187.2833333325823,0.14377588,-0.94608605,0.31537253,-2.4579365,0.013343302,1.429483,0.42676944,0.03999937,0.04,-9.47748,-1.8503555059432983,-1.7465224,-0.22832055,0.04754754528403282,-0.09870608
1187.299999999249,0.14470215,-0.94713,0.3174066,-2.458592,0.013428958,1.4285703,0.42445198,0.03999936,0.04,-9.472603,-1.859343409538269,-1.7637236,-0.22672792,0.047485239803791046,-0.09821156
1187.3166666659156,0.14562315,-0.94816786,0.31942904,-2.459243,0.013514132,1.4276627,0.42214763,0.039999347,0.04,-9.46787,-1.8685606718063354,-1.7807988,-0.22511348,0.047408927232027054,-0.097704336
1187.3333333325822,0.14653873,-0.94919974,0.32143968,-2.4598908,0.013598818,1.4267604,0.41985667,0.039999336,0.04,-9.462967,-1.8772954940795898,-1.7979634,-0.22347774,0.047324489802122116,-0.0971839
1187.349999999249,0.14744893,-0.95022535,0.32343844,-2.460535,0.013683024,1.4258637,0.41757932,0.039999317,0.04,-9.458185,-1.8862658739089966,-1.814955,-0.22182131,0.04722728580236435,-0.0966504
1187.3666666659155,0.14835349,-0.95124495,0.32542494,-2.461175,0.013766718,1.4249723,0.415316,0.0399993,0.04,-9.453361,-1.8947910070419312,-1.8320417,-0.22014378,0.04711886867880821,-0.096104935
1187.3833333325822,0.14925241,-0.95225835,0.327399,-2.4618106,0.013849906,1.4240866,0.4130668,0.039999273,0.04,-9.448438,-1.903544306755066,-1.8489363,-0.21844722,0.047001469880342484,-0.09554502
1187.3999999992488,0.15014559,-0.95326495,0.32936037,-2.4624422,0.013932561,1.4232063,0.4108321,0.03999926,0.04,-9.443497,-1.9118252992630005,-1.8658822,-0.21673092,0.04687589406967163,-0.09497007
1187.4166666659155,0.15103285,-0.954265,0.33130884,-2.46307,0.014014664,1.4223319,0.40861198,0.039999247,0.04,-9.43869,-1.9203773736953735,-1.8827184,-0.21499552,0.0467374213039875,-0.094388865
1187.4333333325822,0.15191416,-0.9552584,0.33324438,-2.4636936,0.014096242,1.4214635,0.40640667,0.03999923,0.04,-9.433804,-1.928409457206726,-1.8995726,-0.21324086,0.04658828675746918,-0.093794234
1187.4499999992488,0.1527894,-0.95624495,0.33516666,-2.464313,0.014177245,1.420601,0.40421662,0.039999217,0.04,-9.428959,-1.9367367029190063,-1.9162797,-0.2114672,0.04642742499709129,-0.09318971
1187.4666666659155,0.1536585,-0.95722455,0.3370754,-2.4649277,0.014257677,1.4197447,0.40204194,0.039999194,0.04,-9.424082,-1.9445388317108154,-1.9330297,-0.20967565,0.046255141496658325,-0.09257282
1187.483333332582,0.15452138,-0.95819706,0.33897027,-2.465538,0.014337548,1.4188944,0.39988297,0.039999176,0.04,-9.419106,-1.9524117708206177,-1.9496378,-0.20786662,0.046075500547885895,-0.09194269
1187.4999999992488,0.15537788,-0.9591626,0.34085122,-2.466144,0.014416825,1.4180504,0.39773968,0.039999172,0.04,-9.414246,-1.9603636264801025,-1.9661484,-0.2060405,0.045883871614933014,-0.09130252
1187.5166666659154,0.15622798,-0.9601209,0.34271806,-2.466745,0.014495519,1.4172128,0.39561245,0.03999917,0.04,-9.40938,-1.9678056240081787,-1.9826616,-0.20419723,0.04568052291870117,-0.090649836
1187.533333332582,0.1570715,-0.9610718,0.34457055,-2.4673417,0.014573641,1.4163817,0.39350176,0.03999915,0.04,-9.404397,-1.9755481481552124,-1.999011,-0.20233724,0.04547051712870598,-0.08998548
1187.5499999992487,0.15790841,-0.96201533,0.34640855,-2.4679334,0.014651142,1.4155568,0.39140752,0.039999127,0.04,-9.399583,-1.9827477931976318,-2.0153964,-0.20046219,0.04524717852473259,-0.089310035
1187.5666666659154,0.15873863,-0.96295124,0.34823185,-2.4685206,0.014728035,1.4147383,0.38933003,0.039999105,0.04,-9.394642,-1.9902493953704834,-2.0315704,-0.1985713,0.045013677328825,-0.088621646
1187.583333332582,0.15956211,-0.9638796,0.35004026,-2.469103,0.01480432,1.4139268,0.38726953,0.039999098,0.04,-9.38982,-1.9972450733184814,-2.0477853,-0.19666494,0.044767823070287704,-0.087926544
1187.5999999992487,0.16037871,-0.96480036,0.3518336,-2.469681,0.014879964,1.4131223,0.38522622,0.039999083,0.04,-9.384954,-2.0045523643493652,-2.0638258,-0.1947436,0.044513218104839325,-0.08722348
1187.6166666659153,0.1611883,-0.96571314,0.35361162,-2.4702542,0.014954948,1.4123245,0.38320026,0.03999906,0.04,-9.380087,-2.011303424835205,-2.079838,-0.1928082,0.04424905404448509,-0.08651005
1187.633333332582,0.16199088,-0.966618,0.3553742,-2.4708216,0.015029287,1.4115338,0.3811919,0.03999905,0.04,-9.375319,-2.01832914352417,-2.0957012,-0.19085857,0.04397100582718849,-0.085786775
1187.6499999992486,0.16278635,-0.96751493,0.35712123,-2.4713848,0.0151029825,1.4107503,0.37920135,0.039999038,0.04,-9.3703375,-2.02484393119812,-2.1115263,-0.18889558,0.043687477707862854,-0.08505113
1187.6666666659153,0.1635746,-0.9684035,0.35885245,-2.4719424,0.01517602,1.4099728,0.37722886,0.03999902,0.04,-9.365605,-2.0316879749298096,-2.1271849,-0.18691908,0.04339144378900528,-0.084307216
1187.683333332582,0.1643556,-0.9692841,0.3605676,-2.4724948,0.015248373,1.4092027,0.37527442,0.039999004,0.04,-9.360787,-2.0379772186279297,-2.1427996,-0.18493,0.043080683797597885,-0.083556406
1187.6999999992486,0.16512926,-0.97015643,0.3622666,-2.4730418,0.015320062,1.4084402,0.37333843,0.039998993,0.04,-9.355929,-2.044581174850464,-2.1582391,-0.18292834,0.04276316612958908,-0.08279468
1187.7166666659152,0.16589537,-0.9710205,0.3639494,-2.4735837,0.015391088,1.407685,0.371421,0.039998975,0.04,-9.351119,-2.0506134033203125,-2.1736465,-0.18091536,0.04243721440434456,-0.08202056
1187.7333333325819,0.16665414,-0.97187585,0.36561573,-2.4741206,0.015461394,1.4069372,0.36952242,0.039998952,0.04,-9.346361,-2.0568039417266846,-2.1889105,-0.17889112,0.04210076481103897,-0.081239656
1187.7499999992485,0.1674053,-0.97272295,0.36726537,-2.4746523,0.015531013,1.4061968,0.36764276,0.039998945,0.04,-9.341679,-2.063082695007324,-2.2040455,-0.1768554,0.041752420365810394,-0.08045161
1187.7666666659152,0.1681488,-0.97356135,0.36889824,-2.4751782,0.015599928,1.405464,0.36578205,0.039998926,0.04,-9.336963,-2.0688109397888184,-2.2190971,-0.17480965,0.04139367491006851,-0.07965658
1187.7833333325818,0.16888459,-0.97439104,0.37051427,-2.4756982,0.015668133,1.4047388,0.3639407,0.03999892,0.04,-9.332193,-2.074862003326416,-2.2339833,-0.1727532,0.04102800413966179,-0.078852534
1187.7999999992485,0.1696126,-0.97521204,0.37211323,-2.476213,0.015735628,1.4040213,0.3621187,0.039998915,0.04,-9.327451,-2.0803744792938232,-2.2488003,-0.17068699,0.04065293073654175,-0.07803962
1187.8166666659151,0.17033279,-0.97602427,0.37369493,-2.4767227,0.01580241,1.4033116,0.36031646,0.039998904,0.04,-9.32281,-2.08622670173645,-2.2634387,-0.1686116,0.04026917368173599,-0.077219695
1187.8333333325818,0.1710451,-0.9768276,0.3752593,-2.4772267,0.015868472,1.4026098,0.35853383,0.039998885,0.04,-9.31822,-2.0915069580078125,-2.2780032,-0.16652821,0.03987449035048485,-0.07639339
1187.8499999992484,0.17174944,-0.97762203,0.37680626,-2.4777248,0.0159338,1.4019157,0.35677123,0.03999888,0.04,-9.313589,-2.097142457962036,-2.2923868,-0.16443568,0.0394715890288353,-0.075558916
1187.866666665915,0.17244576,-0.9784073,0.37833562,-2.478217,0.015998391,1.4012296,0.35502863,0.03999887,0.04,-9.308974,-2.1022326946258545,-2.3066854,-0.16233568,0.03905917704105377,-0.07471917
1187.8833333325817,0.17313401,-0.9791835,0.37984726,-2.4787037,0.01606224,1.4005514,0.35330617,0.039998855,0.04,-9.304368,-2.1076464653015137,-2.3207958,-0.16022782,0.03864012658596039,-0.0738692
1187.8999999992484,0.17381413,-0.97995055,0.3813411,-2.4791849,0.01612534,1.3998811,0.35160396,0.03999884,0.04,-9.299878,-2.112494707107544,-2.3348346,-0.15811251,0.03820941597223282,-0.07301181
1187.916666665915,0.17448607,-0.9807085,0.382817,-2.4796605,0.016187692,1.3992188,0.34992233,0.039998826,0.04,-9.295425,-2.117744207382202,-2.3486707,-0.15599023,0.03776900842785835,-0.072152026
1187.9333333325817,0.17514984,-0.9814571,0.38427478,-2.4801297,0.016249273,1.3985648,0.3482612,0.03999881,0.04,-9.2909355,-2.1224205493927,-2.3624296,-0.15386233,0.037320107221603394,-0.07128862
1187.9499999992483,0.17580532,-0.98219645,0.38571438,-2.4805932,0.016310079,1.3979188,0.34662083,0.039998803,0.04,-9.286452,-2.127432107925415,-2.3759787,-0.15172826,0.03686559945344925,-0.070416614
1187.966666665915,0.17645246,-0.98292637,0.3871357,-2.4810512,0.016370146,1.397281,0.3450013,0.03999879,0.04,-9.282035,-2.1318767070770264,-2.3894324,-0.14958891,0.036401789635419846,-0.069538586
1187.9833333325817,0.17709118,-0.9836469,0.38853863,-2.4815032,0.016429428,1.3966516,0.34340268,0.039998785,0.04,-9.277729,-2.1364662647247314,-2.402731,-0.14744493,0.03592773526906967,-0.06865778
1187.9999999992483,0.1777215,-0.98435795,0.38992307,-2.4819489,0.016487926,1.3960304,0.34182507,0.03999877,0.04,-9.273391,-2.1411986351013184,-2.4158535,-0.14529668,0.03544747084379196,-0.067772746
1188.016666665915,0.17834337,-0.9850595,0.39128894,-2.4823883,0.016545624,1.3954177,0.3402686,0.03999876,0.04,-9.269029,-2.1453511714935303,-2.4288638,-0.14314397,0.034960344433784485,-0.06688277
1188.0333333325816,0.17895673,-0.98575157,0.39263615,-2.482822,0.016602563,1.3948131,0.33873346,0.039998744,0.04,-9.264738,-2.149873971939087,-2.4416578,-0.14098817,0.03446751460433006,-0.065985285
1188.0499999992483,0.1795616,-0.98643416,0.39396474,-2.4832504,0.016658695,1.3942169,0.33721963,0.03999873,0.04,-9.260544,-2.153846263885498,-2.4543545,-0.13882938,0.03396489843726158,-0.06508536
1188.066666665915,0.18015788,-0.98710704,0.3952745,-2.4836726,0.016714046,1.3936292,0.33572727,0.03999872,0.04,-9.256475,-2.1581671237945557,-2.4668603,-0.13666767,0.033450897783041,-0.064178556
1188.0833333325816,0.18074562,-0.98776954,0.39656532,-2.4840882,0.016768616,1.39305,0.33425647,0.039998714,0.04,-9.252276,-2.1619389057159424,-2.4792414,-0.13450432,0.0329318605363369,-0.063268244
1188.0999999992482,0.18132474,-0.98842245,0.39783728,-2.4844973,0.01682238,1.3924792,0.33280715,0.039998703,0.04,-9.248173,-2.1661016941070557,-2.4914815,-0.132338,0.03240600600838661,-0.062359724
1188.1166666659149,0.18189517,-0.9890659,0.3990902,-2.4849005,0.016875345,1.3919171,0.33137953,0.039998695,0.04,-9.244048,-2.1696951389312744,-2.5035262,-0.13017,0.031874723732471466,-0.061445396
1188.1333333325815,0.18245684,-0.98969954,0.40032405,-2.4852977,0.016927522,1.3913636,0.32997367,0.03999869,0.04,-9.240037,-2.173658609390259,-2.5153778,-0.12800202,0.03133872151374817,-0.06052656
1188.1499999992482,0.18300985,-0.99032354,0.40153873,-2.485689,0.0169789,1.3908182,0.3285896,0.039998684,0.04,-9.236078,-2.177060127258301,-2.5271106,-0.1258341,0.030795257538557053,-0.05960686
1188.1666666659148,0.1835541,-0.99093765,0.40273428,-2.4860737,0.017029451,1.3902819,0.3272273,0.03999867,0.04,-9.232209,-2.1808745861053467,-2.5386274,-0.12366656,0.03024393320083618,-0.058687605
1188.1833333325815,0.18408959,-0.991542,0.40391073,-2.4864526,0.017079193,1.3897542,0.32588693,0.039998658,0.04,-9.228244,-2.184088945388794,-2.5500257,-0.12149937,0.029690049588680267,-0.057763185
1188.1999999992481,0.18461637,-0.9921365,0.40506777,-2.4868252,0.017128116,1.3892348,0.32456848,0.039998654,0.04,-9.22447,-2.1877124309539795,-2.5612326,-0.11933346,0.029129015281796455,-0.05683634
1188.2166666659148,0.18513435,-0.992721,0.4062056,-2.4871914,0.017176235,1.3887243,0.32327202,0.039998643,0.04,-9.220678,-2.190761089324951,-2.5722723,-0.117169,0.028561435639858246,-0.055909976
1188.2333333325814,0.18564352,-0.99329567,0.40732408,-2.487552,0.017223526,1.3882226,0.3219975,0.039998632,0.04,-9.2168865,-2.193974733352661,-2.5831444,-0.11500682,0.02799166366457939,-0.054981258
1188.249999999248,0.18614388,-0.9938605,0.40842322,-2.487906,0.017269999,1.3877293,0.32074505,0.039998624,0.04,-9.213304,-2.1973257064819336,-2.5938497,-0.11284679,0.02741406299173832,-0.05405239
1188.2666666659147,0.1866354,-0.99441534,0.40950304,-2.4882536,0.017315652,1.3872448,0.31951463,0.03999861,0.04,-9.209603,-2.2001240253448486,-2.6043668,-0.11069016,0.02683205157518387,-0.05312118
1188.2833333325814,0.18711813,-0.99496007,0.41056344,-2.4885948,0.017360512,1.386769,0.31830627,0.03999861,0.04,-9.206017,-2.2032883167266846,-2.6147172,-0.10853699,0.026246504858136177,-0.052184507
1188.299999999248,0.18759204,-0.9954951,0.41160443,-2.4889297,0.017404549,1.3863018,0.31712002,0.039998602,0.04,-9.202445,-2.2059407234191895,-2.624906,-0.10638746,0.02565702423453331,-0.05125186
1188.3166666659147,0.18805714,-0.99602,0.4126261,-2.4892583,0.017447772,1.3858433,0.31595585,0.039998595,0.04,-9.198975,-2.2089881896972656,-2.6348817,-0.10424319,0.025064565241336823,-0.05032008
1188.3333333325813,0.18851344,-0.99653494,0.41362843,-2.4895813,0.017490173,1.3853936,0.31481373,0.039998587,0.04,-9.195527,-2.21147084236145,-2.6447246,-0.102103494,0.02446823939681053,-0.049389653
1188.349999999248,0.18896091,-0.99704015,0.4146114,-2.4898977,0.017531762,1.3849523,0.3136937,0.039998576,0.04,-9.192234,-2.214346170425415,-2.6543958,-0.099968866,0.023866914212703705,-0.04846071
1188.3666666659146,0.18939956,-0.9975353,0.41557506,-2.490208,0.017572535,1.3845199,0.31259567,0.039998572,0.04,-9.188847,-2.216665267944336,-2.6638324,-0.09784125,0.023262830451130867,-0.04753057
1188.3833333325813,0.18982944,-0.9980205,0.41651937,-2.490512,0.017612502,1.3840964,0.31151968,0.039998565,0.04,-9.185597,-2.219383955001831,-2.673144,-0.09571932,0.022656196728348732,-0.0466023
1188.399999999248,0.1902505,-0.99849606,0.41744438,-2.4908097,0.017651642,1.3836812,0.3104657,0.03999856,0.04,-9.182352,-2.2215616703033447,-2.6822622,-0.09360456,0.022048326209187508,-0.045675136
1188.4166666659146,0.19066282,-0.9989615,0.41835022,-2.491101,0.017689966,1.3832747,0.30943358,0.039998554,0.04,-9.1792145,-2.2241299152374268,-2.6911833,-0.09149779,0.021437212824821472,-0.044750605
1188.4333333325812,0.19106634,-0.999417,0.41923678,-2.4913867,0.01772747,1.382877,0.3084235,0.03999855,0.04,-9.176067,-2.2261693477630615,-2.6999493,-0.08939832,0.020824221894145012,-0.0438272
1188.449999999248,0.19146119,-0.9998628,0.42010415,-2.4916658,0.017764172,1.3824878,0.3074352,0.039998546,0.04,-9.173102,-2.2285609245300293,-2.7085426,-0.087307945,0.02020794339478016,-0.042906217
1188.4666666659145,0.1918473,-1.0002985,0.42095238,-2.4919388,0.017800061,1.3821073,0.30646873,0.039998543,0.04,-9.170067,-2.230464458465576,-2.7169354,-0.08522658,0.019591042771935463,-0.04198858
1188.4833333325812,0.19222476,-1.0007248,0.42178157,-2.4922059,0.017835146,1.3817352,0.30552387,0.03999854,0.04,-9.1671095,-2.232503890991211,-2.72516,-0.08315475,0.01897316426038742,-0.041073963
1188.4999999992478,0.1925935,-1.0011412,0.42259184,-2.4924662,0.017869428,1.3813715,0.30460075,0.03999854,0.04,-9.164272,-2.2347185611724854,-2.7331917,-0.08109243,0.01835406757891178,-0.04016141
1188.5166666659145,0.19295366,-1.0015476,0.42338303,-2.4927206,0.017902924,1.3810165,0.30369925,0.039998535,0.04,-9.161344,-2.2363955974578857,-2.7410445,-0.079041466,0.017736360430717468,-0.039250515
1188.5333333325812,0.19330518,-1.0019447,0.42415538,-2.4929693,0.01793563,1.3806702,0.30281922,0.039998535,0.04,-9.158662,-2.238450050354004,-2.7487464,-0.077001296,0.01711634360253811,-0.038345244
1188.5499999992478,0.19364817,-1.002332,0.42490894,-2.4932125,0.017967554,1.380332,0.30196065,0.039998516,0.04,-9.155957,-2.2399792671203613,-2.7562342,-0.074973695,0.01649678871035576,-0.03744119
1188.5666666659145,0.19398263,-1.0027096,0.4256438,-2.493449,0.017998667,1.3800021,0.30112335,0.039998513,0.04,-9.153398,-2.241912841796875,-2.7635732,-0.07295821,0.01587429642677307,-0.03654405
1188.583333332581,0.19430862,-1.0030777,0.42636007,-2.4936793,0.018028999,1.3796806,0.30030727,0.039998505,0.04,-9.150712,-2.243342638015747,-2.77072,-0.07095551,0.015253981575369835,-0.035652086
1188.5999999992478,0.19462621,-1.0034364,0.42705777,-2.4939034,0.01805855,1.3793676,0.29951236,0.039998494,0.04,-9.148163,-2.2451508045196533,-2.7776842,-0.068966195,0.01463655848056078,-0.034764614
1188.6166666659144,0.19493538,-1.0037856,0.427737,-2.494122,0.018087309,1.3790628,0.2987384,0.03999849,0.04,-9.145651,-2.2464399337768555,-2.7844753,-0.06699133,0.014021499082446098,-0.033881955
1188.633333332581,0.19523627,-1.0041255,0.428398,-2.4943347,0.018115295,1.3787661,0.29798532,0.03999849,0.04,-9.143314,-2.248098134994507,-2.791093,-0.065031186,0.013405936770141125,-0.03300635
1188.6499999992477,0.19552884,-1.0044559,0.42904088,-2.4945416,0.018142521,1.3784776,0.29725295,0.039998487,0.04,-9.1409,-2.2492825984954834,-2.7975216,-0.06308637,0.012792738154530525,-0.032135095
1188.6666666659144,0.19581318,-1.0047771,0.4296657,-2.4947429,0.018168982,1.3781973,0.2965411,0.039998487,0.04,-9.138657,-2.250821828842163,-2.8038154,-0.061157048,0.012180912308394909,-0.031270888
1188.683333332581,0.19608937,-1.005089,0.4302725,-2.4949384,0.01819468,1.377925,0.29584962,0.039998483,0.04,-9.136429,-2.2518723011016846,-2.8099124,-0.0592437,0.011569928377866745,-0.030414186
1188.6999999992477,0.1963574,-1.005392,0.43086153,-2.4951272,0.018219633,1.3776608,0.29517856,0.039998483,0.04,-9.134242,-2.2532787322998047,-2.8158255,-0.057347458,0.010963199660182,-0.029563341
1188.7166666659143,0.19661742,-1.0056854,0.43143287,-2.4953113,0.018243834,1.3774043,0.29452747,0.03999848,0.04,-9.131985,-2.254244327545166,-2.8215485,-0.05546983,0.010362974368035793,-0.028718758
1188.733333332581,0.19686952,-1.0059704,0.4319868,-2.4954903,0.018267281,1.3771558,0.2938964,0.039998475,0.04,-9.130036,-2.255312442779541,-2.8271663,-0.053609032,0.009761900641024113,-0.02788467
1188.7499999992476,0.19711375,-1.0062462,0.43252343,-2.495663,0.018289994,1.3769151,0.29328507,0.039998475,0.04,-9.128106,-2.2565696239471436,-2.8325672,-0.051767793,0.00916255172342062,-0.02705753
1188.7666666659143,0.19735011,-1.0065132,0.43304282,-2.495829,0.018311983,1.376682,0.29269323,0.039998475,0.04,-9.126028,-2.257340431213379,-2.8378053,-0.049945746,0.008571106940507889,-0.026236499
1188.783333332581,0.19757873,-1.0067717,0.4335453,-2.4959912,0.018333247,1.3764567,0.2921208,0.03999847,0.04,-9.124059,-2.2584762573242188,-2.8428636,-0.04814325,0.007986488752067089,-0.025423752
1188.7999999992476,0.19779974,-1.0070213,0.43403092,-2.4961479,0.018353807,1.376239,0.2915676,0.03999847,0.04,-9.122342,-2.2591400146484375,-2.8477726,-0.04636228,0.00740237720310688,-0.024619894
1188.8166666659142,0.19801311,-1.0072625,0.4344999,-2.496298,0.018373668,1.3760287,0.29103327,0.03999847,0.04,-9.120595,-2.260150194168091,-2.8525517,-0.044601936,0.006822464521974325,-0.023826608
1188.8333333325809,0.19821905,-1.0074952,0.4349524,-2.496444,0.018392835,1.3758259,0.29051775,0.039998475,0.04,-9.118693,-2.2607274055480957,-2.8570955,-0.042863857,0.006252848543226719,-0.023039147
1188.8499999992475,0.19841756,-1.0077195,0.435389,-2.4965844,0.018411322,1.3756303,0.29002073,0.03999847,0.04,-9.117177,-2.2616238594055176,-2.8615377,-0.041148417,0.005685046315193176,-0.022264473
1188.8666666659142,0.19860877,-1.0079356,0.43580925,-2.496719,0.018429117,1.3754418,0.28954193,0.039998475,0.04,-9.115513,-2.2621190547943115,-2.8658063,-0.03945571,0.00512262899428606,-0.02149802
1188.8833333325808,0.19879279,-1.0081434,0.43621367,-2.4968498,0.018446261,1.3752602,0.28908116,0.039998475,0.04,-9.113845,-2.262902021408081,-2.8698854,-0.03778718,0.004571259953081608,-0.020740764
1188.8999999992475,0.19896965,-1.0083435,0.43660247,-2.496975,0.018462732,1.3750857,0.28863823,0.039998475,0.04,-9.112512,-2.263267755508423,-2.873861,-0.036143214,0.004019185435026884,-0.019998865
1188.9166666659141,0.19913949,-1.0085354,0.43697593,-2.4970937,0.018478554,1.3749181,0.2882128,0.039998475,0.04,-9.111009,-2.2639596462249756,-2.8776493,-0.0345254,0.003476544050499797,-0.019266844
1188.9333333325808,0.19930251,-1.0087197,0.43733424,-2.4972105,0.018493736,1.3747573,0.28780463,0.03999848,0.04,-9.109385,-2.264256000518799,-2.8812735,-0.032932956,0.0029473525937646627,-0.018542178
1188.9499999992474,0.19945872,-1.0088962,0.43767756,-2.4973204,0.018508296,1.3746034,0.28741342,0.039998483,0.04,-9.108419,-2.2648215293884277,-2.884821,-0.03136728,0.0024140134919434786,-0.017835515
1188.966666665914,0.19960824,-1.0090656,0.43800634,-2.4974248,0.018522233,1.3744564,0.2870389,0.039998483,0.04,-9.10681,-2.2650327682495117,-2.8881347,-0.02982909,0.0018988603260368109,-0.017136611
1188.9833333325807,0.19975123,-1.0092275,0.4383206,-2.4975266,0.018535564,1.374315,0.28668088,0.039998483,0.04,-9.105446,-2.265383720397949,-2.891308,-0.028319553,0.0013970970176160336,-0.016446508
1188.9999999992474,0.19988777,-1.0093821,0.4386208,-2.4976215,0.01854828,1.3741803,0.28633878,0.03999848,0.04,-9.104549,-2.265808582305908,-2.8943896,-0.026839184,0.0008918990497477353,-0.015777392
1189.016666665914,0.20001802,-1.0095295,0.4389072,-2.4977155,0.018560413,1.3740522,0.28601256,0.03999848,0.04,-9.103084,-2.265897035598755,-2.897282,-0.025387561,0.0004059984639752656,-0.01511456
1189.0333333325807,0.20014209,-1.0096698,0.43918002,-2.4978023,0.018571971,1.3739296,0.28570178,0.03999848,0.04,-9.102399,-2.266204833984375,-2.9001493,-0.02396632,-8.279472967842594e-05,-0.014471297
1189.0499999992473,0.20026015,-1.0098032,0.43943965,-2.4978878,0.018582974,1.3738133,0.28540605,0.03999848,0.04,-9.100999,-2.2662289142608643,-2.9027586,-0.022575663,-0.0005533789517357945,-0.013837859
1189.066666665914,0.20037226,-1.0099303,0.4396862,-2.497967,0.018593429,1.3737025,0.28512514,0.03999848,0.04,-9.100385,-2.2664453983306885,-2.905357,-0.021216186,-0.001026095706038177,-0.0132243745
1189.0833333325807,0.20047864,-1.0100508,0.4399201,-2.4980416,0.018603336,1.3735976,0.28485864,0.03999848,0.04,-9.099086,-2.266390800476074,-2.9076774,-0.01989018,-0.0014783624792471528,-0.012620721
1189.0999999992473,0.20057936,-1.0101645,0.44014168,-2.498113,0.01861272,1.3734981,0.2846063,0.03999848,0.04,-9.098131,-2.266566514968872,-2.9099584,-0.018596962,-0.0019180364906787872,-0.012031456
1189.116666665914,0.20067458,-1.0102724,0.4403512,-2.4981797,0.018621579,1.3734041,0.28436765,0.039998475,0.04,-9.097318,-2.266390800476074,-2.9121418,-0.017337361,-0.0023510667961090803,-0.011460055
1189.1333333325806,0.20076449,-1.0103744,0.44054896,-2.498243,0.018629944,1.373315,0.28414237,0.03999848,0.04,-9.096401,-2.2664711475372314,-2.9141462,-0.016113088,-0.0027687118854373693,-0.010900435
1189.1499999992473,0.20084919,-1.0104705,0.44073528,-2.4983034,0.018637832,1.3732324,0.28393003,0.039998483,0.04,-9.095659,-2.2662458419799805,-2.916034,-0.014924776,-0.003178470302373171,-0.010359075
1189.166666665914,0.2009289,-1.0105606,0.44091064,-2.4983597,0.01864526,1.3731538,0.28373033,0.039998483,0.04,-9.094937,-2.266216278076172,-2.917877,-0.0137729915,-0.003572187153622508,-0.009832971
1189.1833333325806,0.2010037,-1.0106455,0.44107538,-2.4984143,0.018652227,1.3730792,0.28354275,0.039998483,0.04,-9.094173,-2.265932321548462,-2.9195569,-0.0126576545,-0.0039564319886267185,-0.0093252035
1189.1999999992472,0.20107381,-1.0107251,0.44122976,-2.498463,0.018658765,1.3730094,0.28336698,0.039998487,0.04,-9.0937195,-2.2658374309539795,-2.9211504,-0.011580748,-0.004337923601269722,-0.008838976
1189.2166666659139,0.20113939,-1.0107995,0.44137418,-2.4985101,0.018664885,1.372946,0.28320256,0.039998487,0.04,-9.092713,-2.265496253967285,-2.9226012,-0.01054273,-0.004693965893238783,-0.008364189
1189.2333333325805,0.20120063,-1.0108689,0.44150904,-2.498552,0.018670607,1.3728865,0.28304902,0.03999849,0.04,-9.092283,-2.2651803493499756,-2.9240549,-0.009544293,-0.005037798546254635,-0.00790749
1189.2499999992472,0.20125768,-1.0109339,0.4416347,-2.4985924,0.018675925,1.3728309,0.28290588,0.039998487,0.04,-9.091443,-2.2650201320648193,-2.9253018,-0.008585805,-0.0053595369681715965,-0.0074659544
1189.2666666659138,0.20131071,-1.0109941,0.44175157,-2.4986315,0.018680867,1.372779,0.2827728,0.039998487,0.04,-9.091036,-2.264561891555786,-2.92647,-0.0076689846,-0.0056731621734797955,-0.0070453566
1189.2833333325805,0.2013599,-1.01105,0.44186005,-2.4986649,0.018685455,1.372731,0.28264937,0.039998487,0.04,-9.090745,-2.264256715774536,-2.9276278,-0.0067941085,-0.00598025182262063,-0.0066485526
1189.2999999992471,0.20140548,-1.0111017,0.44196048,-2.498697,0.018689701,1.3726867,0.28253496,0.03999849,0.04,-9.089872,-2.263784885406494,-2.9285965,-0.005962684,-0.006260741967707872,-0.006263849
1189.3166666659138,0.2014476,-1.0111496,0.44205338,-2.4987283,0.018693637,1.3726443,0.28242922,0.03999849,0.04,-9.089569,-2.263427972793579,-2.9295595,-0.005174558,-0.006530362647026777,-0.0059024408
1189.3333333325804,0.20148645,-1.011194,0.4421391,-2.4987547,0.01869726,1.3726051,0.28233162,0.03999849,0.04,-9.089365,-2.2628631591796875,-2.930427,-0.004431843,-0.006798066198825836,-0.0055686743
1189.349999999247,0.20152226,-1.0112349,0.44221812,-2.4987793,0.018700603,1.3725691,0.28224158,0.03999849,0.04,-9.088606,-2.262467622756958,-2.9311864,-0.0037348117,-0.007038530427962542,-0.0052494504
1189.3666666659137,0.20155524,-1.0112724,0.44229102,-2.4988034,0.018703673,1.3725365,0.28215876,0.03999849,0.04,-9.0882635,-2.261861801147461,-2.9319253,-0.0030841425,-0.007263769395649433,-0.004951543
1189.3833333325804,0.20158552,-1.0113071,0.44235817,-2.4988248,0.018706502,1.3725061,0.2820825,0.039998494,0.04,-9.088037,-2.2613518238067627,-2.9326506,-0.0024807083,-0.007476126309484243,-0.004676194
1189.399999999247,0.20161338,-1.0113387,0.44241962,-2.498844,0.01870911,1.3724781,0.28201234,0.039998494,0.04,-9.0876,-2.2607364654541016,-2.9332392,-0.0019248907,-0.007670714519917965,-0.0044221138
1189.4166666659137,0.20163906,-1.0113682,0.44247624,-2.4988608,0.018711507,1.3724532,0.28194776,0.039998494,0.04,-9.087222,-2.2602319717407227,-2.933799,-0.0014136378,-0.007847917266190052,-0.004189096
1189.4333333325803,0.20166254,-1.011395,0.44252843,-2.4988778,0.018713715,1.3724295,0.28188834,0.039998494,0.04,-9.086801,-2.2597005367279053,-2.9343004,-0.00094338896,-0.008003678172826767,-0.003969973
1189.449999999247,0.20168418,-1.0114197,0.44257644,-2.498894,0.018715743,1.3724085,0.28183368,0.039998498,0.04,-9.086748,-2.259281635284424,-2.9348009,-0.0005107997,-0.008157236501574516,-0.0037731864
1189.4666666659136,0.20170413,-1.0114423,0.44262058,-2.4989088,0.018717622,1.3723885,0.28178337,0.039998498,0.04,-9.086537,-2.2588045597076416,-2.935269,-0.00011280301,-0.00829736515879631,-0.0035921794
1189.4833333325803,0.20172246,-1.0114632,0.4426612,-2.4989216,0.018719338,1.3723701,0.2817371,0.039998498,0.04,-9.086298,-2.2584235668182373,-2.935664,0.00025363034,-0.00842877384275198,-0.003427277
1189.499999999247,0.20173936,-1.0114825,0.4426986,-2.4989333,0.018720927,1.3723533,0.2816945,0.039998498,0.04,-9.08599,-2.2581164836883545,-2.93603,0.00059068325,-0.008546474389731884,-0.0032736494
1189.5166666659136,0.20175487,-1.0115005,0.44273302,-2.4989429,0.018722389,1.3723375,0.28165537,0.039998498,0.04,-9.085756,-2.257763147354126,-2.9363596,0.00090082764,-0.00865353737026453,-0.0031313554
1189.5333333325802,0.20176908,-1.0115169,0.44276473,-2.4989522,0.01872373,1.3723234,0.2816193,0.039998498,0.04,-9.08543,-2.257523775100708,-2.936631,0.0011854831,-0.008747932501137257,-0.00299791
1189.549999999247,0.2017822,-1.011532,0.44279385,-2.4989614,0.018724965,1.3723104,0.28158617,0.0399985,0.04,-9.085336,-2.257204055786133,-2.9369395,0.0014476099,-0.008835460059344769,-0.002874682
1189.5666666659135,0.20179424,-1.0115459,0.4428206,-2.4989703,0.018726105,1.3722981,0.28155562,0.0399985,0.04,-9.085293,-2.256969451904297,-2.9372206,0.0016887805,-0.008919254876673222,-0.0027642907
1189.5833333325802,0.20180532,-1.0115587,0.44284526,-2.498979,0.01872715,1.3722868,0.28152755,0.0399985,0.04,-9.08518,-2.2567086219787598,-2.9374504,0.0019105122,-0.008998459205031395,-0.0026638084
1189.5999999992468,0.2018155,-1.0115703,0.442868,-2.4989874,0.018728115,1.3722768,0.28150168,0.0399985,0.04,-9.08514,-2.2565104961395264,-2.9377,0.0021145463,-0.009074434638023376,-0.0025729998
1189.6166666659135,0.2018249,-1.0115812,0.4428889,-2.4989948,0.018728996,1.3722676,0.28147787,0.0399985,0.04,-9.085028,-2.2562766075134277,-2.9379327,0.0023025107,-0.009143910370767117,-0.0024890965
1189.6333333325802,0.20183352,-1.0115912,0.44290802,-2.4990013,0.018729808,1.3722589,0.28145596,0.0399985,0.04,-9.084864,-2.2561228275299072,-2.9381175,0.0024754303,-0.009206220507621765,-0.002410921
1189.6499999992468,0.20184143,-1.0116004,0.44292575,-2.499007,0.01873056,1.3722507,0.28143585,0.0399985,0.04,-9.08471,-2.255934715270996,-2.9382806,0.002634179,-0.009262760169804096,-0.002338988
1189.6666666659135,0.2018487,-1.011609,0.442942,-2.499012,0.018731253,1.3722432,0.2814173,0.0399985,0.04,-9.084601,-2.255810022354126,-2.938449,0.0027803597,-0.009315441362559795,-0.002272513
1189.68333333258,0.20185539,-1.0116165,0.442957,-2.4990168,0.018731887,1.3722364,0.28140026,0.0399985,0.04,-9.084474,-2.2556509971618652,-2.9385793,0.002914578,-0.009361937642097473,-0.002210656
1189.6999999992468,0.20186155,-1.0116236,0.44297075,-2.4990208,0.018732464,1.3722303,0.28138456,0.0399985,0.04,-9.084433,-2.255526542663574,-2.9387536,0.0030388315,-0.00940627045929432,-0.0021545764
1189.7166666659134,0.20186721,-1.0116303,0.44298336,-2.4990242,0.018733,1.372225,0.28137016,0.0399985,0.04,-9.0843,-2.2553980350494385,-2.9388542,0.0031526948,-0.009444200433790684,-0.0021014751
1189.73333333258,0.20187241,-1.0116361,0.442995,-2.4990265,0.018733501,1.37222,0.28135687,0.039998505,0.04,-9.084173,-2.255284547805786,-2.9389563,0.003256963,-0.009475646540522575,-0.0020500657
1189.7499999992467,0.20187719,-1.0116415,0.4430057,-2.499029,0.01873396,1.3722153,0.28134465,0.039998505,0.04,-9.084062,-2.2552130222320557,-2.9390612,0.0033538118,-0.00950375385582447,-0.0020030967
1189.7666666659134,0.20188162,-1.0116467,0.44301555,-2.499031,0.018734382,1.3722106,0.2813334,0.039998505,0.04,-9.084047,-2.255113124847412,-2.9391487,0.0034427927,-0.009530949406325817,-0.001960751
1189.78333333258,0.20188569,-1.0116516,0.44302458,-2.499033,0.018734772,1.3722062,0.28132305,0.039998505,0.04,-9.083987,-2.2550487518310547,-2.939207,0.0035243367,-0.00955567043274641,-0.0019212582
1189.7999999992467,0.20188941,-1.0116559,0.44303304,-2.4990346,0.01873513,1.3722023,0.28131348,0.039998505,0.04,-8.894397,-2.2221014499664307,-2.8342588,0.0,-0.0,0.0
1189.8166666659133,0.20188941,-1.0116559,0.44303304,-2.4990346,0.01873513,1.3722023,0.28131348,0.039998505,0.04,-9.0839,-2.2538204193115234,-2.9392428,0.0,-0.0,0.0
1189.83333333258,0.20188941,-1.0116559,0.44303304,-2.4990346,0.01873513,1.3722023,0.28131348,0.039998505,0.04,-9.0839,-2.2538204193115234,-2.9392428,0.0,-0.0,0.0
1189.8499999992466,0.20188941,-1.0116559,0.44303304,-2.4990346,0.01873513,1.3722023,0.28131348,0.039998505,0.04,-9.0839,-2.2538204193115234,-2.9392428,0.0,-0.0,0.0
1189.8666666659133,0.20188941,-1.0116559,0.44303304,-2.4990346,0.01873513,1.3722023,0.28131348,0.039998505,0.04,-9.0839,-2.2538204193115234,-2.9392428,0.0,-0.0,0.0
1189.88333333258,0.20188941,-1.0116559,0.44303304,-2.4990346,0.01873513,1.3722023,0.28131348,0.039998505,0.04,-9.0839,-2.2538204193115234,-2.9392428,0.0,-0.0,0.0
1189.8999999992466,0.20188941,-1.0116559,0.44303304,-2.4990346,0.01873513,1.3722023,0.28131348,0.039998505,0.04,-9.0839,-2.2538204193115234,-2.9392428,0.0,-0.0,0.0
1189.9166666659132,0.20188941,-1.0116559,0.44303304,-2.4990346,0.01873513,1.3722023,0.28131348,0.039998505,0.04,-9.0839,-2.2538204193115234,-2.9392428,0.0,-0.0,0.0
1189.9333333325799,0.20188941,-1.0116559,0.44303304,-2.4990346,0.01873513,1.3722023,0.28131348,0.039998505,0.04,-9.0839,-2.2538204193115234,-2.9392428,0.0,-0.0,0.0
1189.9499999992465,0.20188941,-1.0116559,0.44303304,-2.4990346,0.01873513,1.3722023,0.28131348,0.039998505,0.04,-9.0839,-2.2538204193115234,-2.9392428,0.0,-0.0,0.0
1189.9666666659132,0.20188941,-1.0116559,0.44303304,-2.4990346,0.01873513,1.3722023,0.28131348,0.039998505,0.04,-9.0839,-2.2538204193115234,-2.9392428,0.0,-0.0,0.0
1189.9833333325798,0.20188941,-1.0116559,0.44303304,-2.4990346,0.01873513,1.3722023,0.28131348,0.039998505,0.04,-9.0839,-2.2538204193115234,-2.9392428,0.0,-0.0,0.0
1189.9999999992465,0.20188941,-1.0116559,0.44303304,-2.4990346,0.01873513,1.3722023,0.28131348,0.039998505,0.04,-9.0839,-2.2538204193115234,-2.9392428,0.0,-0.0,0.0
1190.0166666659131,0.20188941,-1.0116559,0.44303304,-2.4990346,0.01873513,1.3722023,0.28131348,0.039998505,0.04,-9.0839,-2.2538204193115234,-2.9392428,0.0,-0.0,0.0
1190.0333333325798,0.20188941,-1.0116559,0.44303304,-2.4990346,0.01873513,1.3722023,0.28131348,0.039998505,0.04,-9.0839,-2.2538204193115234,-2.9392428,0.0,-0.0,0.0
1190.0499999992464,0.20188941,-1.0116559,0.44303304,-2.4990346,0.01873513,1.3722023,0.28131348,0.039998505,0.04,-9.0839,-2.2538204193115234,-2.9392428,0.0,-0.0,0.0
1190.066666665913,0.20188941,-1.0116559,0.44303304,-2.4990346,0.01873513,1.3722023,0.28131348,0.039998505,0.04,-9.0839,-2.2538204193115234,-2.9392428,0.0,-0.0,0.0
1190.0833333325797,0.20188941,-1.0116559,0.44303304,-2.4990346,0.01873513,1.3722023,0.28131348,0.039998505,0.04,-9.0839,-2.2538204193115234,-2.9392428,0.0,-0.0,0.0
1190.0999999992464,0.20188941,-1.0116559,0.44303304,-2.4990346,0.01873513,1.3722023,0.28131348,0.039998505,0.04,-9.0839,-2.2538204193115234,-2.9392428,0.0,-0.0,0.0
1190.116666665913,0.20188941,-1.0116559,0.44303304,-2.4990346,0.01873513,1.3722023,0.28131348,0.039998505,0.04,-9.0839,-2.2538204193115234,-2.9392428,0.0,-0.0,0.0
1190.1333333325797,0.20188941,-1.0116559,0.44303304,-2.4990346,0.01873513,1.3722023,0.28131348,0.039998505,0.04,-9.0839,-2.2538204193115234,-2.9392428,0.0,-0.0,0.0
1190.1499999992463,0.20188941,-1.0116559,0.44303304,-2.4990346,0.01873513,1.3722023,0.28131348,0.039998505,0.04,-9.0839,-2.2538204193115234,-2.9392428,0.0,-0.0,0.0
1190.166666665913,0.20188941,-1.0116559,0.44303304,-2.4990346,0.01873513,1.3722023,0.28131348,0.039998505,0.04,-9.0839,-2.2538204193115234,-2.9392428,0.0,-0.0,0.0
1190.1833333325797,0.20188941,-1.0116559,0.44303304,-2.4990346,0.01873513,1.3722023,0.28131348,0.039998505,0.04,-9.0839,-2.2538204193115234,-2.9392428,0.0,-0.0,0.0
1190.1999999992463,0.20188941,-1.0116559,0.44303304,-2.4990346,0.01873513,1.3722023,0.28131348,0.039998505,0.04,-9.0839,-2.2538204193115234,-2.9392428,0.0,-0.0,0.0
1190.216666665913,0.20188941,-1.0116559,0.44303304,-2.4990346,0.01873513,1.3722023,0.28131348,0.039998505,0.04,-9.0839,-2.2538204193115234,-2.9392428,0.0,-0.0,0.0
1190.2333333325796,0.20188941,-1.0116559,0.44303304,-2.4990346,0.01873513,1.3722023,0.28131348,0.039998505,0.04,-9.0839,-2.2538204193115234,-2.9392428,0.0,-0.0,0.0
1190.2499999992463,0.20188941,-1.0116559,0.44303304,-2.4990346,0.01873513,1.3722023,0.28131348,0.039998505,0.04,-9.0839,-2.2538204193115234,-2.9392428,0.0,-0.0,0.0
1190.266666665913,0.20188941,-1.0116559,0.44303304,-2.4990346,0.01873513,1.3722023,0.28131348,0.039998505,0.04,-9.0839,-2.2538204193115234,-2.9392428,0.0,-0.0,0.0
1190.2833333325796,0.20188941,-1.0116559,0.44303304,-2.4990346,0.01873513,1.3722023,0.28131348,0.039998505,0.04,-9.0839,-2.2538204193115234,-2.9392428,0.0,-0.0,0.0
1190.2999999992462,0.20188941,-1.0116559,0.44303304,-2.4990346,0.01873513,1.3722023,0.28131348,0.039998505,0.04,-9.0839,-2.2538204193115234,-2.9392428,0.0,-0.0,0.0
1190.3166666659129,0.20188941,-1.0116559,0.44303304,-2.4990346,0.01873513,1.3722023,0.28131348,0.039998505,0.04,-9.0839,-2.2538204193115234,-2.9392428,0.0,-0.0,0.0
1190.3333333325795,0.20188941,-1.0116559,0.44303304,-2.4990346,0.01873513,1.3722023,0.28131348,0.039998505,0.04,-9.0839,-2.2538204193115234,-2.9392428,0.0,-0.0,0.0
1190.3499999992462,0.20188941,-1.0116559,0.44303304,-2.4990346,0.01873513,1.3722023,0.28131348,0.039998505,0.04,-9.0839,-2.2538204193115234,-2.9392428,0.0,-0.0,0.0
1190.3666666659128,0.20188941,-1.0116559,0.44303304,-2.4990346,0.01873513,1.3722023,0.28131348,0.039998505,0.04,-9.0839,-2.2538204193115234,-2.9392428,0.0,-0.0,0.0
1190.3833333325795,0.20188941,-1.0116559,0.44303304,-2.4990346,0.01873513,1.3722023,0.28131348,0.039998505,0.04,-9.0839,-2.2538204193115234,-2.9392428,0.0,-0.0,0.0
1190.3999999992461,0.20188941,-1.0116559,0.44303304,-2.4990346,0.01873513,1.3722023,0.28131348,0.039998505,0.04,-9.0839,-2.2538204193115234,-2.9392428,0.0,-0.0,0.0
1190.4166666659128,0.20188941,-1.0116559,0.44303304,-2.4990346,0.01873513,1.3722023,0.28131348,0.039998505,0.04,-9.0839,-2.2538204193115234,-2.9392428,0.0,-0.0,0.0
1190.4333333325794,0.20188941,-1.0116559,0.44303304,-2.4990346,0.01873513,1.3722023,0.28131348,0.039998505,0.04,-9.0839,-2.2538204193115234,-2.9392428,0.0,-0.0,0.0
1190.449999999246,0.20188941,-1.0116559,0.44303304,-2.4990346,0.01873513,1.3722023,0.28131348,0.039998505,0.04,-9.0839,-2.2538204193115234,-2.9392428,0.0,-0.0,0.0
1190.4666666659127,0.20188941,-1.0116559,0.44303304,-2.4990346,0.01873513,1.3722023,0.28131348,0.039998505,0.04,-9.0839,-2.2538204193115234,-2.9392428,0.0,-0.0,0.0
1190.4833333325794,0.20188941,-1.0116559,0.44303304,-2.4990346,0.01873513,1.3722023,0.28131348,0.039998505,0.04,-9.0839,-2.2538204193115234,-2.9392428,0.0,-0.0,0.0
1190.499999999246,0.20188941,-1.0116559,0.44303304,-2.4990346,0.01873513,1.3722023,0.28131348,0.039998505,0.04,-9.0839,-2.2538204193115234,-2.9392428,0.0,-0.0,0.0
1190.5166666659127,0.20188941,-1.0116559,0.44303304,-2.4990346,0.01873513,1.3722023,0.28131348,0.039998505,0.04,-9.0839,-2.2538204193115234,-2.9392428,0.0,-0.0,0.0
1190.5333333325793,0.20188941,-1.0116559,0.44303304,-2.4990346,0.01873513,1.3722023,0.28131348,0.039998505,0.04,-9.0839,-2.2538204193115234,-2.9392428,0.0,-0.0,0.0
1190.549999999246,0.20188941,-1.0116559,0.44303304,-2.4990346,0.01873513,1.3722023,0.28131348,0.039998505,0.04,-9.0839,-2.2538204193115234,-2.9392428,0.0,-0.0,0.0
1190.5666666659126,0.20188941,-1.0116559,0.44303304,-2.4990346,0.01873513,1.3722023,0.28131348,0.039998505,0.04,-9.0839,-2.2538204193115234,-2.9392428,0.0,-0.0,0.0
1190.5833333325793,0.20188941,-1.0116559,0.44303304,-2.4990346,0.01873513,1.3722023,0.28131348,0.039998505,0.04,-9.0839,-2.2538204193115234,-2.9392428,0.0,-0.0,0.0
1190.599999999246,0.20188941,-1.0116559,0.44303304,-2.4990346,0.01873513,1.3722023,0.28131348,0.039998505,0.04,-9.0839,-2.2538204193115234,-2.9392428,0.0,-0.0,0.0
1190.6166666659126,0.20188941,-1.0116559,0.44303304,-2.4990346,0.01873513,1.3722023,0.28131348,0.039998505,0.04,-9.0839,-2.2538204193115234,-2.9392428,0.0,-0.0,0.0
1190.6333333325792,0.20188941,-1.0116559,0.44303304,-2.4990346,0.01873513,1.3722023,0.28131348,0.039998505,0.04,-9.0839,-2.2538204193115234,-2.9392428,0.0,-0.0,0.0
1190.649999999246,0.20188941,-1.0116559,0.44303304,-2.4990346,0.01873513,1.3722023,0.28131348,0.039998505,0.04,-9.0839,-2.2538204193115234,-2.9392428,0.0,-0.0,0.0
1190.6666666659125,0.20188941,-1.0116559,0.44303304,-2.4990346,0.01873513,1.3722023,0.28131348,0.039998505,0.04,-9.0839,-2.2538204193115234,-2.9392428,0.0,-0.0,0.0
1190.6833333325792,0.20188941,-1.0116559,0.44303304,-2.4990346,0.01873513,1.3722023,0.28131348,0.039998505,0.04,-9.0839,-2.2538204193115234,-2.9392428,0.0,-0.0,0.0
1190.6999999992458,0.20188941,-1.0116559,0.44303304,-2.4990346,0.01873513,1.3722023,0.28131348,0.039998505,0.04,-9.0839,-2.2538204193115234,-2.9392428,0.0,-0.0,0.0
1190.7166666659125,0.20188941,-1.0116559,0.44303304,-2.4990346,0.01873513,1.3722023,0.28131348,0.039998505,0.04,-9.0839,-2.2538204193115234,-2.9392428,0.0,-0.0,0.0
1190.7333333325792,0.20188941,-1.0116559,0.44303304,-2.4990346,0.01873513,1.3722023,0.28131348,0.039998505,0.04,-9.0839,-2.2538204193115234,-2.9392428,0.0,-0.0,0.0
1190.7499999992458,0.20188941,-1.0116559,0.44303304,-2.4990346,0.01873513,1.3722023,0.28131348,0.039998505,0.04,-9.0839,-2.2538204193115234,-2.9392428,0.0,-0.0,0.0
1190.7666666659125,0.20188941,-1.0116559,0.44303304,-2.4990346,0.01873513,1.3722023,0.28131348,0.039998505,0.04,-9.0839,-2.2538204193115234,-2.9392428,0.0,-0.0,0.0
1190.783333332579,0.20188941,-1.0116559,0.44303304,-2.4990346,0.01873513,1.3722023,0.28131348,0.039998505,0.04,-9.0839,-2.2538204193115234,-2.9392428,0.0,-0.0,0.0
1190.7999999992458,0.20188941,-1.0116559,0.44303304,-2.4990346,0.01873513,1.3722023,0.28131348,0.039998505,0.04,-9.0839,-2.2538204193115234,-2.9392428,0.0,-0.0,0.0
1190.8166666659124,0.20188941,-1.0116559,0.44303304,-2.4990346,0.01873513,1.3722023,0.28131348,0.039998505,0.04,-9.0839,-2.2538204193115234,-2.9392428,0.0,-0.0,0.0
1190.833333332579,0.20188941,-1.0116559,0.44303304,-2.4990346,0.01873513,1.3722023,0.28131348,0.039998505,0.04,-9.0839,-2.2538204193115234,-2.9392428,0.0,-0.0,0.0
1190.8499999992457,0.20188941,-1.0116559,0.44303304,-2.4990346,0.01873513,1.3722023,0.28131348,0.039998505,0.04,-9.0839,-2.2538204193115234,-2.9392428,0.0,-0.0,0.0
1190.8666666659124,0.20188941,-1.0116559,0.44303304,-2.4990346,0.01873513,1.3722023,0.28131348,0.039998505,0.04,-9.0839,-2.2538204193115234,-2.9392428,0.0,-0.0,0.0
1190.883333332579,0.20188941,-1.0116559,0.44303304,-2.4990346,0.01873513,1.3722023,0.28131348,0.039998505,0.04,-9.0839,-2.2538204193115234,-2.9392428,0.0,-0.0,0.0
1190.8999999992457,0.20188941,-1.0116559,0.44303304,-2.4990346,0.01873513,1.3722023,0.28131348,0.039998505,0.04,-9.0839,-2.2538204193115234,-2.9392428,0.0,-0.0,0.0
1190.9166666659123,0.20188941,-1.0116559,0.44303304,-2.4990346,0.01873513,1.3722023,0.28131348,0.039998505,0.04,-9.0839,-2.2538204193115234,-2.9392428,0.0,-0.0,0.0
1190.933333332579,0.20188941,-1.0116559,0.44303304,-2.4990346,0.01873513,1.3722023,0.28131348,0.039998505,0.04,-9.0839,-2.2538204193115234,-2.9392428,0.0,-0.0,0.0
1190.9499999992456,0.20188941,-1.0116559,0.44303304,-2.4990346,0.01873513,1.3722023,0.28131348,0.039998505,0.04,-9.0839,-2.2538204193115234,-2.9392428,0.0,-0.0,0.0
1190.9666666659123,0.20188941,-1.0116559,0.44303304,-2.4990346,0.01873513,1.3722023,0.28131348,0.039998505,0.04,-9.0839,-2.2538204193115234,-2.9392428,0.0,-0.0,0.0
1190.983333332579,0.20188941,-1.0116559,0.44303304,-2.4990346,0.01873513,1.3722023,0.28131348,0.039998505,0.04,-9.0839,-2.2538204193115234,-2.9392428,0.0,-0.0,0.0
1190.9999999992456,0.20188941,-1.0116559,0.44303304,-2.4990346,0.01873513,1.3722023,0.28131348,0.039998505,0.04,-9.0839,-2.2538204193115234,-2.9392428,0.0,-0.0,0.0
1191.0166666659122,0.20188941,-1.0116559,0.44303304,-2.4990346,0.01873513,1.3722023,0.28131348,0.039998505,0.04,-9.0839,-2.2538204193115234,-2.9392428,0.0,-0.0,0.0
1191.0333333325789,0.20188941,-1.0116559,0.44303304,-2.4990346,0.01873513,1.3722023,0.28131348,0.039998505,0.04,-9.0839,-2.2538204193115234,-2.9392428,0.0,-0.0,0.0
1191.0499999992455,0.20188941,-1.0116559,0.44303304,-2.4990346,0.01873513,1.3722023,0.28131348,0.039998505,0.04,-9.0839,-2.2538204193115234,-2.9392428,0.0,-0.0,0.0
1191.0666666659122,0.20188941,-1.0116559,0.44303304,-2.4990346,0.01873513,1.3722023,0.28131348,0.039998505,0.04,-9.0839,-2.2538204193115234,-2.9392428,0.0,-0.0,0.0
1191.0833333325788,0.20188941,-1.0116559,0.44303304,-2.4990346,0.01873513,1.3722023,0.28131348,0.039998505,0.04,-9.0839,-2.2538204193115234,-2.9392428,0.0,-0.0,0.0
1191.0999999992455,0.20188941,-1.0116559,0.44303304,-2.4990346,0.01873513,1.3722023,0.28131348,0.039998505,0.04,-9.0839,-2.2538204193115234,-2.9392428,0.0,-0.0,0.0
1191.1166666659121,0.20188941,-1.0116559,0.44303304,-2.4990346,0.01873513,1.3722023,0.28131348,0.039998505,0.04,-9.0839,-2.2538204193115234,-2.9392428,0.0,-0.0,0.0
1191.1333333325788,0.20188941,-1.0116559,0.44303304,-2.4990346,0.01873513,1.3722023,0.28131348,0.039998505,0.04,-9.0839,-2.2538204193115234,-2.9392428,0.0,-0.0,0.0
1191.1499999992454,0.20188941,-1.0116559,0.44303304,-2.4990346,0.01873513,1.3722023,0.28131348,0.039998505,0.04,-9.0839,-2.2538204193115234,-2.9392428,0.0,-0.0,0.0
1191.166666665912,0.20188941,-1.0116559,0.44303304,-2.4990346,0.01873513,1.3722023,0.28131348,0.039998505,0.04,-9.0839,-2.2538204193115234,-2.9392428,0.0,-0.0,0.0
1191.1833333325787,0.20188941,-1.0116559,0.44303304,-2.4990346,0.01873513,1.3722023,0.28131348,0.039998505,0.04,-9.0839,-2.2538204193115234,-2.9392428,0.0,-0.0,0.0
1191.1999999992454,0.20188941,-1.0116559,0.44303304,-2.4990346,0.01873513,1.3722023,0.28131348,0.039998505,0.04,-9.0839,-2.2538204193115234,-2.9392428,0.0,-0.0,0.0
1191.216666665912,0.20188941,-1.0116559,0.44303304,-2.4990346,0.01873513,1.3722023,0.28131348,0.039998505,0.04,-9.0839,-2.2538204193115234,-2.9392428,0.0,-0.0,0.0
1191.2333333325787,0.20188941,-1.0116559,0.44303304,-2.4990346,0.01873513,1.3722023,0.28131348,0.039998505,0.04,-9.0839,-2.2538204193115234,-2.9392428,0.0,-0.0,0.0
1191.2499999992453,0.20188941,-1.0116559,0.44303304,-2.4990346,0.01873513,1.3722023,0.28131348,0.039998505,0.04,-9.0839,-2.2538204193115234,-2.9392428,0.0,-0.0,0.0
1191.266666665912,0.20188941,-1.0116559,0.44303304,-2.4990346,0.01873513,1.3722023,0.28131348,0.039998505,0.04,-9.0839,-2.2538204193115234,-2.9392428,0.0,-0.0,0.0
1191.2833333325786,0.20188941,-1.0116559,0.44303304,-2.4990346,0.01873513,1.3722023,0.28131348,0.039998505,0.04,-9.0839,-2.2538204193115234,-2.9392428,0.0,-0.0,0.0
1191.2999999992453,0.20188941,-1.0116559,0.44303304,-2.4990346,0.01873513,1.3722023,0.28131348,0.039998505,0.04,-9.0839,-2.2538204193115234,-2.9392428,0.0,-0.0,0.0
1191.316666665912,0.20188941,-1.0116559,0.44303304,-2.4990346,0.01873513,1.3722023,0.28131348,0.039998505,0.04,-9.0839,-2.2538204193115234,-2.9392428,0.0,-0.0,0.0
1191.3333333325786,0.20188941,-1.0116559,0.44303304,-2.4990346,0.01873513,1.3722023,0.28131348,0.039998505,0.04,-9.0839,-2.2538204193115234,-2.9392428,0.0,-0.0,0.0
1191.3499999992453,0.20188941,-1.0116559,0.44303304,-2.4990346,0.01873513,1.3722023,0.28131348,0.039998505,0.04,-9.0839,-2.2538204193115234,-2.9392428,0.0,-0.0,0.0
1191.366666665912,0.20188941,-1.0116559,0.44303304,-2.4990346,0.01873513,1.3722023,0.28131348,0.039998505,0.04,-9.0839,-2.2538204193115234,-2.9392428,0.0,-0.0,0.0
1191.3833333325786,0.20188941,-1.0116559,0.44303304,-2.4990346,0.01873513,1.3722023,0.28131348,0.039998505,0.04,-9.0839,-2.2538204193115234,-2.9392428,0.0,-0.0,0.0
1191.3999999992452,0.20188941,-1.0116559,0.44303304,-2.4990346,0.01873513,1.3722023,0.28131348,0.039998505,0.04,-9.0839,-2.2538204193115234,-2.9392428,0.0,-0.0,0.0
