rsonawane2002/My_IMU/logs_2/traj_499/imu_499.csv
time,j1,j2,j3,j4,j5,j6,j7,gripper1,gripper2,imu_ax,imu_ay,imu_az,imu_gx,imu_gy,imu_gz
2741.433333340629,0.00016700293,-0.785875,4.0107683e-05,-2.3551247,9.29385e-05,1.570997,0.786,0.04,0.04,-9.48367,-0.0033851880580186844,0.102547675,-2.0950507e-07,-0.0011641273740679026,7.095491e-07
2741.450000007296,0.00016700069,-0.78576016,4.01043e-05,-2.3552213,9.296679e-05,1.5709941,0.786,0.04,0.04,-9.834511,0.0006111288676038384,0.00905175,6.840251e-07,-0.0022393004037439823,9.936156e-07
2741.4666666739627,0.00016696258,-0.78565437,4.0029114e-05,-2.35531,9.295206e-05,1.5709913,0.786,0.04,0.039999995,-9.832626,0.00047521450323984027,0.0074972673,5.978536e-06,-0.0032343885395675898,2.20249e-06
2741.4833333406295,0.00016682662,-0.7855571,3.9764847e-05,-2.355391,9.2789705e-05,1.5709884,0.786,0.04,0.04,-9.830701,0.00020799253252334893,0.006174663,2.0019137e-05,-0.004163334611803293,1.8394212e-06
2741.5000000072964,0.00016650136,-0.7854679,3.914265e-05,-2.3554652,9.236937e-05,1.5709856,0.786,0.04,0.04,-9.829495,-0.0001861326745711267,0.004721545,4.658031e-05,-0.005033683031797409,1.6967357e-06
2741.5166666739633,0.00016586887,-0.78538644,3.7947528e-05,-2.355532,9.154779e-05,1.5709853,0.786,0.04,0.04,-9.828193,-0.0006640927167609334,0.0034512104,8.9320805e-05,-0.005854821298271418,2.765146e-06
2741.53333334063,0.0001647877,-0.7853125,3.592319e-05,-2.3555954,9.0140755e-05,1.5709858,0.786,0.04,0.04,-9.826897,-0.0012466621119529009,0.0022121337,0.00015101183,-0.006621307227760553,3.24416e-06
2741.550000007297,0.00016309532,-0.7852458,3.2776097e-05,-2.3556535,8.794303e-05,1.5709864,0.786,0.04,0.04,-9.826002,-0.0018754478078335524,0.0011939756,0.00023437252,-0.007365305908024311,3.7685934e-06
2741.566666673964,0.00016061019,-0.78518623,2.8179922e-05,-2.355705,8.471385e-05,1.5709872,0.786,0.039999995,0.04,-9.82548,-0.0026573296636343002,8.1797596e-05,0.00034210773,-0.008087890222668648,3.5376013e-06
2741.583333340631,0.00015713388,-0.7851333,2.1778502e-05,-2.3557546,8.020723e-05,1.5709882,0.786,0.039999984,0.03999998,-9.824566,-0.0034430420491844416,-0.00087144505,0.0004760971,-0.008785770274698734,5.9899426e-06
2741.6000000072977,0.00015245337,-0.78508747,1.318974e-05,-2.3557985,7.415833e-05,1.5709924,0.786,0.03999998,0.039999977,-9.824438,-0.004316618200391531,-0.0017801616,0.0006385241,-0.00949069857597351,6.8187314e-06
2741.6166666739646,0.00014634234,-0.7850485,2.008308e-06,-2.3558404,6.6282206e-05,1.570997,0.786,0.039999977,0.039999973,-9.823502,-0.005147221963852644,-0.0025735023,0.0008308015,-0.010170582681894302,7.735665e-06
2741.6333333406315,0.00013856284,-0.7850165,-1.2191165e-05,-2.355877,5.628076e-05,1.5710018,0.786,0.039999966,0.039999958,-9.823675,-0.006189949344843626,-0.0033828344,0.0010546751,-0.010863645933568478,9.633057e-06
2741.6500000072983,0.0001288672,-0.78499144,-2.9851428e-05,-2.3559117,4.3841534e-05,1.5710102,0.786,0.039999966,0.039999958,-9.823237,-0.007192287594079971,-0.004023261,0.0013111505,-0.011558209545910358,1.0780724e-05
2741.666666673965,0.00011699918,-0.7849738,-5.1430827e-05,-2.3559432,2.8643211e-05,1.5710188,0.786,0.03999997,0.03999996,-9.823064,-0.008097096346318722,-0.004587166,0.0016018813,-0.012260097078979015,1.2053454e-05
2741.683333340632,0.00010269479,-0.7849637,-7.740051e-05,-2.3559709,1.0355232e-05,1.5710311,0.786,0.039999977,0.039999966,-9.823151,-0.009281158447265625,-0.005100984,0.0019272693,-0.01297918614000082,1.43157695e-05
2741.700000007299,8.568408e-05,-0.7849612,-0.00010824278,-2.3559976,-1.13627975e-05,1.5710448,0.786,0.039999973,0.03999996,-9.822973,-0.010376563295722008,-0.0055358172,0.002288395,-0.013700919225811958,1.5839792e-05
2741.716666673966,6.569173e-05,-0.78496665,-0.00014444899,-2.3560212,-3.6854173e-05,1.571061,0.786,0.039999973,0.039999958,-9.823297,-0.011468825861811638,-0.0058090785,0.002685607,-0.014454022981226444,1.8365012e-05
2741.7333333406327,4.2438387e-05,-0.7849802,-0.00018651782,-2.3560414,-6.647042e-05,1.571081,0.786,0.039999977,0.03999996,-9.823127,-0.012409163638949394,-0.0059147533,0.0031200387,-0.015225169248878956,2.015467e-05
2741.7500000072996,1.5641217e-05,-0.7850023,-0.00023495404,-2.356061,-0.00010056549,1.5711048,0.786,0.03999998,0.03999996,-9.82333,-0.013729642145335674,-0.006109898,0.0035915605,-0.01601046696305275,2.2921558e-05
2741.7666666739665,-1.498501e-05,-0.7850331,-0.00029026685,-2.35608,-0.00013949814,1.5711311,0.786,0.03999998,0.039999958,-9.823695,-0.01488152239471674,-0.006063675,0.0041010566,-0.01682448573410511,2.4863291e-05
2741.7833333406334,-4.9727587e-05,-0.7850731,-0.00035296887,-2.3560953,-0.00018362625,1.5711608,0.786,0.039999984,0.03999996,-9.824164,-0.016033321619033813,-0.005894817,0.004648382,-0.01767593063414097,2.7027681e-05
2741.8000000073002,-8.887461e-05,-0.7851226,-0.00042357427,-2.356108,-0.00023331377,1.5711943,0.786,0.039999984,0.039999973,-9.823974,-0.016954565420746803,-0.005493349,0.0052334764,-0.018547140061855316,2.5754967e-05
2741.816666673967,-0.00013271515,-0.7851821,-0.0005025986,-2.3561199,-0.00028891844,1.5712321,0.786,0.039999984,0.03999997,-9.824406,-0.01833953522145748,-0.005165225,0.0058569154,-0.01944510079920292,2.8967428e-05
2741.833333340634,-0.00018153765,-0.78525186,-0.00059055677,-2.3561313,-0.00035080413,1.5712742,0.786,0.039999988,0.03999997,-9.824837,-0.019498368725180626,-0.004570457,0.006518434,-0.02037693001329899,3.2264885e-05
2741.850000007301,-0.0002356303,-0.7853322,-0.0006879632,-2.3561409,-0.00041933096,1.5713208,0.786,0.03999999,0.03999999,-9.825329,-0.020674722269177437,-0.0038453809,0.0072181216,-0.021345358341932297,3.150339e-05
2741.8666666739678,-0.00029528028,-0.78542364,-0.0007953304,-2.3561485,-0.00049486256,1.5713717,0.786,0.03999999,0.03999998,-9.825452,-0.02147679589688778,-0.0028534136,0.007955516,-0.022345898672938347,3.5648503e-05
2741.8833333406346,-0.00036077338,-0.7855265,-0.00091316825,-2.3561544,-0.0005777512,1.5714281,0.786,0.039999988,0.03999995,-9.826033,-0.022917667403817177,-0.0019052075,0.008730869,-0.02338012121617794,4.4281358e-05
2741.9000000073015,-0.00043239322,-0.7856412,-0.0010419831,-2.3561587,-0.0006683528,1.5714897,0.7860012,0.039999977,0.03999993,-9.826402,-0.024058077484369278,-0.00070069544,0.00954352,-0.024445010349154472,5.128822e-05
2741.9166666739684,-0.00051042135,-0.7857683,-0.0011822779,-2.3561628,-0.0007670233,1.571557,0.7860025,0.039999973,0.03999992,-9.826518,-0.02482631988823414,0.00082257856,0.01038775,-0.025542352348566055,5.489321e-05
2741.9333333406353,-0.0005951367,-0.7859081,-0.0013345502,-2.3561666,-0.0008741123,1.5716299,0.78600395,0.03999998,0.039999925,-9.827322,-0.026321666315197945,0.002290071,0.011268542,-0.026678383350372314,5.8295664e-05
2741.950000007302,-0.0006868155,-0.786061,-0.0014992933,-2.3561683,-0.0009899662,1.571709,0.78600544,0.039999984,0.03999993,-9.827896,-0.027435649186372757,0.004065738,0.012185447,-0.027854980900883675,5.996817e-05
2741.966666673969,-0.0007857308,-0.7862276,-0.0016769946,-2.3561685,-0.0011149253,1.5717943,0.786007,0.039999984,0.039999925,-9.828241,-0.02851729840040207,0.006019313,0.013137742,-0.029061894863843918,6.2499224e-05
2741.983333340636,-0.0008921525,-0.7864079,-0.0018681359,-2.3561676,-0.0012493276,1.571886,0.7860087,0.03999999,0.03999993,-9.828332,-0.029147587716579437,0.008358367,0.014125854,-0.0303005650639534,6.5702035e-05
2742.000000007303,-0.0010063463,-0.78660256,-0.0020731927,-2.3561654,-0.0013935086,1.5719846,0.7860103,0.03999999,0.039999932,-9.829067,-0.030655458569526672,0.0105885975,0.015147888,-0.03157568350434303,6.6281485e-05
2742.0166666739697,-0.0011285751,-0.78681195,-0.0022926335,-2.3561623,-0.0015477948,1.57209,0.78601223,0.03999999,0.039999925,-9.829517,-0.03167829290032387,0.013180679,0.01620561,-0.03288380056619644,7.005364e-05
2742.0333333406365,-0.001259097,-0.7870365,-0.0025269203,-2.356159,-0.0017125111,1.5722024,0.78601414,0.03999999,0.03999992,-9.8299885,-0.0327097550034523,0.01601583,0.017295728,-0.03422803431749344,7.286329e-05
2742.0500000073034,-0.001398167,-0.78727645,-0.0027765061,-2.3561554,-0.0018879749,1.5723224,0.78601605,0.039999988,0.039999906,-9.830237,-0.03319869935512543,0.019240998,0.018419867,-0.035611044615507126,7.812467e-05
2742.0666666739703,-0.0015460347,-0.7875327,-0.003041839,-2.3561494,-0.0020744991,1.5724498,0.78601795,0.039999984,0.039999884,-9.8310795,-0.03467841446399689,0.022347026,0.019576916,-0.037031013518571854,8.486306e-05
2742.083333340637,-0.0017029453,-0.78780514,-0.0033233569,-2.3561423,-0.0022723966,1.5725852,0.78601986,0.039999984,0.039999884,-9.831334,-0.03567549213767052,0.025895458,0.020766586,-0.038477588444948196,8.6090025e-05
2742.100000007304,-0.0018691404,-0.78809434,-0.003621491,-2.3561342,-0.0024819672,1.5727285,0.78602177,0.039999995,0.03999989,-9.831765,-0.03662319853901863,0.029667921,0.021988425,-0.039956655353307724,8.765464e-05
2742.116666673971,-0.0020448568,-0.7884006,-0.003936663,-2.356125,-0.0027035095,1.5728799,0.7860237,0.039999995,0.039999895,-9.831857,-0.03700202703475952,0.03389811,0.02324142,-0.041468724608421326,8.7477085e-05
2742.133333340638,-0.0022303257,-0.7887247,-0.00426929,-2.3561149,-0.00293731,1.5730397,0.7860256,0.04,0.03999989,-9.832627,-0.03844813257455826,0.038011447,0.024525162,-0.043014489114284515,8.9385925e-05
2742.1500000073047,-0.0024257747,-0.7890664,-0.0046197767,-2.3561044,-0.003183657,1.5732082,0.7860275,0.04,0.039999887,-9.832961,-0.039330463856458664,0.0426067,0.025839118,-0.04458925500512123,9.170875e-05
2742.1666666739716,-0.0026314266,-0.7894264,-0.0049885204,-2.3560936,-0.0034428255,1.5733855,0.7860294,0.03999999,0.03999986,-9.833142,-0.03959142789244652,0.047606952,0.02718231,-0.046198807656764984,9.391523e-05
2742.1833333406385,-0.0028474974,-0.7898051,-0.0053759087,-2.3560822,-0.00371509,1.5735718,0.7860313,0.039999995,0.039999858,-9.8339615,-0.04104315862059593,0.05253253,0.028554397,-0.0478421114385128,9.265834e-05
2742.2000000073053,-0.0030742001,-0.7902028,-0.005782322,-2.3560686,-0.004000716,1.5737671,0.7860332,0.039999984,0.03999984,-9.834373,-0.04184297099709511,0.05793319,0.029955005,-0.04951636120676994,9.3071714e-05
2742.216666673972,-0.0033117437,-0.79061985,-0.00620813,-2.356054,-0.0042999648,1.5739716,0.7860351,0.039999973,0.03999982,-9.834548,-0.0426408089697361,0.063616924,0.03138291,-0.05121418461203575,9.186222e-05
2742.233333340639,-0.0035603282,-0.79105663,-0.0066536935,-2.3560386,-0.0046130903,1.5741858,0.786037,0.039999966,0.03999981,-9.834565,-0.04276765137910843,0.06980573,0.032837775,-0.052941858768463135,8.9052344e-05
2742.250000007306,-0.0038201509,-0.7915133,-0.0071193688,-2.3560221,-0.0049403384,1.5744098,0.78603894,0.03999996,0.039999798,-9.835213,-0.044150710105895996,0.07588714,0.03431894,-0.05469488725066185,8.6373446e-05
2742.266666673973,-0.004091405,-0.79199034,-0.0076054954,-2.3560045,-0.0052819513,1.5746434,0.78604084,0.03999995,0.03999978,-9.835543,-0.04486513510346413,0.082458906,0.035825394,-0.056475672870874405,8.274163e-05
2742.2833333406397,-0.0043742782,-0.7924881,-0.00811241,-2.3559864,-0.005638166,1.574887,0.78604275,0.039999947,0.039999772,-9.83584,-0.04555993527173996,0.089357644,0.037357077,-0.05828394740819931,7.73593e-05
2742.3000000073066,-0.0046689496,-0.7930068,-0.008640437,-2.3559682,-0.0060092052,1.575141,0.78604466,0.039999936,0.039999753,-9.835742,-0.045519862323999405,0.09678709,0.03891298,-0.06011750549077988,7.274829e-05
2742.3166666739735,-0.0049755964,-0.79354656,-0.009189891,-2.3559494,-0.006395295,1.5754054,0.78604656,0.03999993,0.039999742,-9.836515,-0.046860579401254654,0.10407477,0.04049217,-0.061980247497558594,6.5472304e-05
2742.3333333406404,-0.005294393,-0.79410785,-0.009761084,-2.3559282,-0.0067966497,1.5756797,0.7860485,0.03999992,0.03999973,-9.836814,-0.0474701002240181,0.111896485,0.042094566,-0.06386878341436386,5.7060464e-05
2742.3500000073072,-0.0056255017,-0.7946909,-0.010354307,-2.3559062,-0.0072134766,1.5759648,0.7860504,0.03999991,0.039999712,-9.836825,-0.04804777354001999,0.12006843,0.04371917,-0.0657758042216301,4.8271562e-05
2742.366666673974,-0.0059690857,-0.7952963,-0.010969852,-2.3558831,-0.00764598,1.5762607,0.7860523,0.039999902,0.039999697,-9.836665,-0.04786870628595352,0.12877642,0.045364987,-0.06770655512809753,3.831099e-05
2742.383333340641,-0.0063253003,-0.7959237,-0.011607993,-2.3558593,-0.008094355,1.5765675,0.7860557,0.039999895,0.039999682,-9.837183,-0.049119994044303894,0.13739483,0.047031924,-0.06965665519237518,2.7006832e-05
2742.400000007308,-0.0066942964,-0.796574,-0.012269011,-2.3558345,-0.00855879,1.5768855,0.7860595,0.039999884,0.039999664,-9.837385,-0.04961472004652023,0.14653109,0.04871221,-0.07163000851869583,1.4540061e-05
2742.4166666739748,-0.00707622,-0.7972471,-0.012953154,-2.355809,-0.009039465,1.5772144,0.7860633,0.039999876,0.039999645,-9.837078,-0.04930902272462845,0.1562973,0.050410014,-0.07362257689237595,1.4744635e-06
2742.4333333406416,-0.0074712127,-0.7979434,-0.013660681,-2.3557835,-0.009536565,1.5775545,0.7860671,0.03999987,0.03999963,-9.837586,-0.05050481855869293,0.1659129,0.0521264,-0.07563521713018417,-1.3880491e-05
2742.4500000073085,-0.007879408,-0.798663,-0.01439183,-2.3557568,-0.010050252,1.577906,0.78607094,0.039999858,0.039999615,-9.837804,-0.050909556448459625,0.17610627,0.053861197,-0.07767210900783539,-3.1581934e-05
2742.4666666739754,-0.008300934,-0.7994062,-0.015146836,-2.3557284,-0.0105806915,1.5782689,0.78607476,0.03999984,0.03999959,-9.837824,-0.051267679780721664,0.18663982,0.055613495,-0.0797259733080864,-5.0057643e-05
2742.4833333406423,-0.008735921,-0.8001731,-0.01592592,-2.3556988,-0.011128045,1.5786434,0.7860786,0.039999824,0.039999567,-9.837263,-0.05081583186984062,0.19778314,0.057382584,-0.08179282397031784,-7.025009e-05
2742.500000007309,-0.009184486,-0.8009642,-0.0167293,-2.3556683,-0.011692453,1.5790298,0.7860824,0.0399998,0.039999537,-9.837666,-0.0518985353410244,0.20879132,0.05916799,-0.08387624472379684,-9.2182236e-05
2742.516666673976,-0.009646745,-0.8017792,-0.017557185,-2.3556364,-0.01227407,1.5794278,0.7860862,0.039999787,0.039999515,-9.837574,-0.05216357111930847,0.22041641,0.060968634,-0.08597275614738464,-0.00011598076
2742.533333340643,-0.010122805,-0.8026187,-0.018409764,-2.3556037,-0.012873031,1.5798379,0.78609,0.03999976,0.03999948,-9.8374605,-0.05239742994308472,0.23238641,0.06278403,-0.08808405697345734,-0.00014250753
2742.55000000731,-0.01061277,-0.8034828,-0.01928723,-2.3555708,-0.013489466,1.5802598,0.78609383,0.03999975,0.039999463,-9.836889,-0.05176746845245361,0.24498701,0.06461388,-0.09020902961492538,-0.00016918872
2742.5666666739767,-0.011116746,-0.8043716,-0.02018977,-2.3555372,-0.014123505,1.5806936,0.78609765,0.03999974,0.039999444,-9.837291,-0.05274539068341255,0.25744683,0.066457234,-0.0923522412776947,-0.00019880534
2742.5833333406435,-0.011634823,-0.8052852,-0.021117538,-2.3555021,-0.014775261,1.5811397,0.78610146,0.039999712,0.03999941,-9.8371,-0.052860718220472336,0.2705261,0.06831335,-0.09450860321521759,-0.00023052156
2742.6000000073104,-0.012167092,-0.8062239,-0.022070704,-2.355466,-0.015444852,1.5815979,0.7861053,0.039999697,0.039999384,-9.836788,-0.05293905735015869,0.2839507,0.07018143,-0.09667402505874634,-0.00026442672
2742.6166666739773,-0.012713639,-0.80718786,-0.023049422,-2.3554282,-0.016132386,1.5820684,0.7861091,0.039999675,0.039999355,-9.836016,-0.052141714841127396,0.29804394,0.072061606,-0.09884919226169586,-0.000300406
2742.633333340644,-0.013274544,-0.8081771,-0.024053825,-2.3553896,-0.01683796,1.5825515,0.78611344,0.039999645,0.039999317,-9.836077,-0.05297547206282616,0.31196576,0.073952235,-0.10103205591440201,-0.0003389176
2742.650000007311,-0.013849883,-0.809192,-0.025084062,-2.35535,-0.017561667,1.5830463,0.7861182,0.039999634,0.039999295,-9.8357115,-0.052934903651475906,0.32653978,0.07585079,-0.10322444885969162,-0.000378778
2742.666666673978,-0.014439726,-0.81023234,-0.026140252,-2.35531,-0.018303601,1.5835539,0.78612363,0.039999615,0.03999927,-9.834816,-0.05199509859085083,0.34178188,0.07775721,-0.1054268404841423,-0.0004218646
2742.683333340645,-0.015044139,-0.8112985,-0.027222514,-2.3552692,-0.019063843,1.5840744,0.7861293,0.039999586,0.03999923,-9.834861,-0.05271926894783974,0.35681927,0.07966957,-0.10763823986053467,-0.000467311
2742.7000000073117,-0.015663179,-0.81239045,-0.028330958,-2.3552268,-0.019842476,1.5846074,0.786135,0.03999956,0.039999194,-9.834366,-0.052544452250003815,0.37251875,0.08158925,-0.10985582321882248,-0.0005144625
2742.7166666739786,-0.016296908,-0.8135082,-0.029465685,-2.3551831,-0.020639561,1.5851527,0.78614074,0.039999533,0.03999916,-9.833718,-0.05232797563076019,0.38860667,0.08351641,-0.11207793653011322,-0.000565121
2742.7333333406455,-0.016945377,-0.81465197,-0.030626792,-2.3551385,-0.021455169,1.585711,0.78614646,0.039999507,0.039999124,-9.832591,-0.05118776857852936,0.40534016,0.08545059,-0.11430466920137405,-0.0006176307
2742.7500000073123,-0.017608631,-0.815822,-0.03181436,-2.3550925,-0.02228935,1.5862818,0.7861522,0.039999478,0.039999086,-9.832358,-0.051747698336839676,0.42190784,0.08739121,-0.11653555184602737,-0.00067366095
2742.766666673979,-0.018286716,-0.81701815,-0.03302847,-2.3550458,-0.023142172,1.5868654,0.7861579,0.03999946,0.03999906,-9.831566,-0.051381662487983704,0.43915424,0.08933798,-0.11876877397298813,-0.0007326629
2742.783333340646,-0.018979665,-0.8182404,-0.034269188,-2.3549984,-0.024013676,1.587462,0.7861636,0.039999433,0.039999023,-9.830782,-0.050961755216121674,0.4567672,0.091289714,-0.12100522965192795,-0.00079364417
2742.800000007313,-0.019687513,-0.81948906,-0.035536565,-2.3549502,-0.024903907,1.5880712,0.78616935,0.0399994,0.039998982,-9.829498,-0.04961935803294182,0.47504064,0.093246385,-0.1232462003827095,-0.00085838663
2742.81666667398,-0.02041029,-0.82076406,-0.036830656,-2.3549006,-0.025812896,1.5886933,0.7861751,0.039999377,0.039998952,-9.82905,-0.04998040199279785,0.49314696,0.09520709,-0.12548930943012238,-0.0009259379
2742.8333333406467,-0.021148017,-0.8220654,-0.038151514,-2.35485,-0.02674068,1.5893282,0.7861808,0.039999355,0.03999892,-9.828014,-0.04940144717693329,0.5119088,0.097171284,-0.12773172557353973,-0.0009958129
2742.8500000073136,-0.021900719,-0.82339305,-0.03949917,-2.354798,-0.027687283,1.5899761,0.7861865,0.03999933,0.039998885,-9.826941,-0.04878103733062744,0.53105503,0.09913865,-0.1299745887517929,-0.0010696953
2742.8666666739805,-0.022668405,-0.8247474,-0.040873643,-2.3547447,-0.028652726,1.5906367,0.78619236,0.0399993,0.039998844,-9.825275,-0.04719968140125275,0.5508471,0.1011079,-0.13221441209316254,-0.0011457696
2742.8833333406474,-0.02345109,-0.8261278,-0.04227497,-2.3546906,-0.029637022,1.5913104,0.7861986,0.039999265,0.039998803,-9.8244705,-0.047351375222206116,0.5705062,0.10307865,-0.13445061445236206,-0.0012259419
2742.9000000073142,-0.02424879,-0.8275351,-0.043703165,-2.354636,-0.030640185,1.5919969,0.7862052,0.03999923,0.03999876,-9.823243,-0.046547915786504745,0.5907671,0.10504826,-0.1366872787475586,-0.0013083443
2742.916666673981,-0.025061494,-0.8289689,-0.045158215,-2.3545802,-0.031662207,1.5926963,0.78621227,0.039999202,0.03999872,-9.821469,-0.04478921368718147,0.6117613,0.10701725,-0.13892295956611633,-0.0013949383
2742.933333340648,-0.025889209,-0.8304291,-0.046640124,-2.3545232,-0.03270309,1.5934086,0.7862197,0.03999917,0.039998677,-9.820452,-0.04475235193967819,0.6325252,0.10898382,-0.14115309715270996,-0.0014838743
2742.950000007315,-0.026731925,-0.8319156,-0.04814889,-2.3544652,-0.03376283,1.5941339,0.7862273,0.03999914,0.03999864,-9.818899,-0.0437663197517395,0.653961,0.110948116,-0.1433788537979126,-0.0015770887
2742.9666666739818,-0.027589627,-0.8334287,-0.04968449,-2.3544064,-0.034841422,1.5948726,0.78623486,0.039999105,0.039998595,-9.817331,-0.042700059711933136,0.6757626,0.112910695,-0.14560090005397797,-0.0016728445
2742.9833333406486,-0.028462306,-0.8349682,-0.051246908,-2.3543465,-0.035938844,1.5956233,0.7862424,0.03999907,0.039998554,-9.815107,-0.0406976044178009,0.6982325,0.11487159,-0.1478126049041748,-0.001772891
2743.0000000073155,-0.029349947,-0.8365342,-0.052836105,-2.3542855,-0.037055057,1.596387,0.78625,0.039999038,0.039998513,-9.813872,-0.040393490344285965,0.7205321,0.11683026,-0.15002518892288208,-0.0018755255
2743.0166666739824,-0.030252526,-0.8381265,-0.054452043,-2.3542237,-0.038190044,1.5971637,0.78625757,0.039999004,0.03999847,-9.811919,-0.039141640067100525,0.74345607,0.11878625,-0.15222680568695068,-0.0019834372
2743.0333333406493,-0.03117002,-0.8397451,-0.056094676,-2.3541608,-0.0393438,1.5979532,0.7862652,0.039998967,0.039998423,-9.810018,-0.037797845900058746,0.76676255,0.1207386,-0.15442343056201935,-0.0020933496
2743.050000007316,-0.032102402,-0.8413899,-0.05776395,-2.3540967,-0.040516276,1.5987557,0.7862728,0.039998922,0.03999837,-9.807459,-0.03550546616315842,0.7907279,0.122687146,-0.15661020576953888,-0.0022066412
2743.066666673983,-0.03304962,-0.843061,-0.059459798,-2.354031,-0.04170742,1.5995709,0.78628045,0.039998878,0.039998323,-9.805722,-0.03491772711277008,0.8144643,0.124630705,-0.15878644585609436,-0.002325284
2743.08333334065,-0.03401166,-0.8447583,-0.06118217,-2.3539648,-0.042917166,1.6003988,0.78628814,0.039998822,0.039998256,-9.80339,-0.03335398808121681,0.83888245,0.12656954,-0.16095149517059326,-0.002445907
2743.100000007317,-0.03498845,-0.8464816,-0.062930964,-2.3538976,-0.044145487,1.6012392,0.78629595,0.03999878,0.039998207,-9.801082,-0.03172359615564346,0.86367375,0.12850279,-0.16310866177082062,-0.002571004
2743.1166666739837,-0.035979968,-0.8482309,-0.06470612,-2.3538294,-0.045392323,1.6020925,0.7863039,0.039998736,0.039998155,-9.798126,-0.02913503907620907,0.8891057,0.13042925,-0.1652543693780899,-0.0026998504
2743.1333333406506,-0.03698617,-0.85000616,-0.06650754,-2.3537605,-0.04665761,1.6029584,0.786312,0.039998688,0.039998095,-9.796025,-0.02822006866335869,0.91429913,0.13234901,-0.16738902032375336,-0.0028315308
2743.1500000073174,-0.038006987,-0.8518072,-0.06833516,-2.3536901,-0.047941286,1.603837,0.7863204,0.03999864,0.03999804,-9.793362,-0.026347529143095016,0.9401573,0.13426046,-0.16951310634613037,-0.0029684762
2743.1666666739843,-0.039042365,-0.8536339,-0.07018884,-2.3536189,-0.04924327,1.6047281,0.7863292,0.0399986,0.039997987,-9.790055,-0.023501265794038773,0.96665,0.13616328,-0.17162251472473145,-0.0031074777
2743.183333340651,-0.040092252,-0.8554864,-0.07206849,-2.3535461,-0.050563492,1.6056315,0.7863383,0.039998546,0.03999793,-9.787575,-0.022325921803712845,0.9929103,0.13805582,-0.17371892929077148,-0.0032510473
2743.200000007318,-0.04115657,-0.85736424,-0.073974036,-2.353473,-0.051901873,1.6065475,0.7863477,0.039998487,0.039997865,-9.784432,-0.020188700407743454,1.0198269,0.13993824,-0.17579852044582367,-0.0033983
2743.216666673985,-0.042235266,-0.8592676,-0.07590528,-2.3533986,-0.05325835,1.6074758,0.78635716,0.039998427,0.039997797,-9.781371,-0.017965182662010193,1.0470803,0.14181104,-0.1778668612241745,-0.0035494617
2743.233333340652,-0.043328255,-0.8611961,-0.07786215,-2.3533235,-0.054632805,1.6084163,0.78636664,0.039998364,0.039997723,-9.777619,-0.014778155833482742,1.0749606,0.14367329,-0.1799195408821106,-0.0037031702
2743.2500000073187,-0.044435482,-0.8631497,-0.07984451,-2.3532476,-0.056025147,1.6093693,0.7863761,0.0399983,0.03999765,-9.774687,-0.01323721557855606,1.1025966,0.14552568,-0.18195918202400208,-0.0038616483
2743.2666666739856,-0.045556854,-0.8651284,-0.08185217,-2.3531704,-0.057435296,1.6103343,0.7863856,0.03999825,0.03999759,-9.771149,-0.010726619511842728,1.1308503,0.14736754,-0.18398240208625793,-0.0040229517
2743.2833333406525,-0.0466923,-0.86713207,-0.08388505,-2.353092,-0.058863148,1.6113114,0.78639513,0.039998185,0.039997518,-9.767403,-0.008127178996801376,1.1594545,0.14919814,-0.1859867423772812,-0.004188904
2743.3000000073193,-0.04784174,-0.8691601,-0.08594297,-2.3530126,-0.060308587,1.6123005,0.78640467,0.039998133,0.039997455,-9.763157,-0.004579175263643265,1.1886623,0.15101728,-0.18797287344932556,-0.004357782
2743.316666673986,-0.049005073,-0.8712129,-0.08802578,-2.3529322,-0.061771505,1.613302,0.78641427,0.03999808,0.039997395,-9.7596655,-0.0026257336139678955,1.2176024,0.1528241,-0.18994395434856415,-0.00453093
2743.333333340653,-0.050182212,-0.87329006,-0.09013328,-2.352851,-0.06325179,1.6143153,0.7864239,0.039998014,0.03999732,-9.755566,0.00027925148606300354,1.2471801,0.15461826,-0.19189472496509552,-0.0047079558
2743.35000000732,-0.051373057,-0.87539166,-0.092265375,-2.352769,-0.06474935,1.6153404,0.7864336,0.03999795,0.03999725,-9.751311,0.0032821260392665863,1.2770617,0.15639947,-0.19382600486278534,-0.004888701
2743.366666673987,-0.05257752,-0.8775172,-0.09442183,-2.3526862,-0.06626405,1.6163769,0.78644323,0.039997887,0.039997175,-9.746576,0.007216751575469971,1.307553,0.15816748,-0.19573883712291718,-0.005072169
2743.3833333406537,-0.053795505,-0.8796665,-0.096602485,-2.3526025,-0.06779571,1.6174251,0.78645295,0.03999783,0.03999711,-9.742487,0.009612046182155609,1.3377718,0.15992141,-0.19763481616973877,-0.005259747
2743.4000000073206,-0.05502689,-0.88183963,-0.09880718,-2.3525174,-0.069344245,1.6184849,0.78646296,0.039997775,0.039997045,-9.737846,0.012935761362314224,1.3685602,0.16166125,-0.19951145350933075,-0.005450305
2743.4166666739875,-0.056271568,-0.88403624,-0.10103569,-2.3524315,-0.07090955,1.619556,0.78647333,0.03999773,0.03999699,-9.732594,0.01717912033200264,1.3999432,0.16338447,-0.20136533677577972,-0.00564533
2743.4333333406544,-0.057529446,-0.8862561,-0.103287846,-2.3523445,-0.072491445,1.6206385,0.786484,0.039997667,0.039996922,-9.728027,0.019916914403438568,1.4310614,0.16509141,-0.20319947600364685,-0.0058437143
2743.4500000073213,-0.058800414,-0.8884991,-0.10556343,-2.3522568,-0.074089795,1.6217322,0.78649485,0.03999761,0.039996855,-9.722868,0.023580722510814667,1.4627389,0.16678114,-0.20501036942005157,-0.0060454616
2743.466666673988,-0.06008434,-0.8907651,-0.10786225,-2.3521683,-0.075704455,1.6228372,0.786506,0.03999755,0.039996788,-9.717632,0.027357589453458786,1.4946977,0.16845419,-0.20680144429206848,-0.0062506436
2743.483333340655,-0.061381117,-0.89305353,-0.110184066,-2.352079,-0.07733532,1.6239532,0.7865174,0.03999751,0.03999674,-9.711835,0.03203597292304039,1.5272262,0.1701094,-0.20857025682926178,-0.006458376
2743.500000007322,-0.06269063,-0.8953647,-0.112528674,-2.3519893,-0.07898216,1.6250803,0.7865289,0.03999747,0.03999669,-9.706643,0.03525581210851669,1.5594524,0.17174721,-0.21031799912452698,-0.006669976
2743.5166666739888,-0.06401276,-0.8976981,-0.11489587,-2.3518982,-0.08064488,1.6262183,0.7865404,0.03999743,0.039996643,-9.700899,0.03938532993197441,1.5922493,0.17336683,-0.21204283833503723,-0.006885042
2743.5333333406556,-0.06534734,-0.90005356,-0.11728542,-2.3518054,-0.0823233,1.627367,0.7865519,0.039997373,0.039996583,-9.69494,0.04362969100475311,1.6252941,0.17496893,-0.21374323964118958,-0.0071041663
2743.5500000073225,-0.06669428,-0.90243083,-0.11969708,-2.3517122,-0.084017284,1.6285263,0.7865634,0.03999732,0.039996523,-9.68839,0.048775624483823776,1.6588563,0.17655297,-0.2154156118631363,-0.007325696
2743.5666666739894,-0.068053424,-0.9048298,-0.12213065,-2.351618,-0.085726656,1.629696,0.7865749,0.039997272,0.039996468,-9.682543,0.052513398230075836,1.6921751,0.17811866,-0.21706721186637878,-0.007550118
2743.5833333406563,-0.06942468,-0.90725005,-0.12458583,-2.3515234,-0.08745122,1.6308762,0.7865864,0.039997213,0.0399964,-9.676067,0.05714359134435654,1.7259833,0.17966561,-0.218692809343338,-0.0077777556
2743.600000007323,-0.070807874,-0.9096915,-0.12706241,-2.351428,-0.08919082,1.6320665,0.7865979,0.039997157,0.039996337,-9.669503,0.06188725307583809,1.7600298,0.18119329,-0.22029533982276917,-0.008008019
2743.61666667399,-0.07220286,-0.9121539,-0.12956014,-2.3513317,-0.0909453,1.6332669,0.7866094,0.039997105,0.039996274,-9.662409,0.06749626994132996,1.7945867,0.18270175,-0.22187335789203644,-0.008240442
2743.633333340657,-0.07360951,-0.91463685,-0.13207877,-2.3512352,-0.092714444,1.6344776,0.786621,0.039997052,0.039996214,-9.655761,0.07177599519491196,1.8288532,0.18419002,-0.22342561185359955,-0.008476475
2743.650000007324,-0.07502766,-0.9171402,-0.13461801,-2.351138,-0.094498076,1.6356983,0.7866326,0.039997004,0.039996162,-9.648696,0.07690828293561935,1.8635945,0.18565802,-0.22495412826538086,-0.008716312
2743.6666666739907,-0.07645716,-0.9196637,-0.1371776,-2.3510392,-0.09629604,1.6369286,0.7866442,0.039996944,0.03999609,-9.641118,0.08288253098726273,1.8987998,0.18710552,-0.2264576405286789,-0.008956854
2743.6833333406576,-0.07789786,-0.9222071,-0.13975729,-2.3509388,-0.09810811,1.6381688,0.78665584,0.03999689,0.039996028,-9.633786,0.08758930116891861,1.9337193,0.18853188,-0.22793090343475342,-0.009200889
2743.7000000073244,-0.07934967,-0.9247702,-0.1423568,-2.350838,-0.09993413,1.6394182,0.78666747,0.039996844,0.039995976,-9.625977,0.0931277722120285,1.9691061,0.18993692,-0.22937175631523132,-0.009447764
2743.7166666739913,-0.080812365,-0.9273525,-0.1449759,-2.3507364,-0.10177387,1.6406773,0.7866795,0.039996795,0.03999592,-9.618161,0.09881354868412018,2.0047128,0.19131985,-0.23078840970993042,-0.009696822
2743.733333340658,-0.08228583,-0.92995375,-0.14761429,-2.350634,-0.10362718,1.6419456,0.78669184,0.03999675,0.03999587,-9.609841,0.10529164969921112,2.040733,0.19267908,-0.23217786848545074,-0.009949308
2743.750000007325,-0.083769865,-0.9325738,-0.15027162,-2.3505316,-0.10549386,1.6432232,0.78670436,0.03999671,0.03999582,-9.6018715,0.1105794757604599,2.0764663,0.19401485,-0.2335396558046341,-0.010202836
2743.766666673992,-0.08526435,-0.9352123,-0.15294771,-2.3504283,-0.107373685,1.6445096,0.78671706,0.03999667,0.039995775,-9.593513,0.11665910482406616,2.112627,0.19532737,-0.23487575352191925,-0.010458427
2743.783333340659,-0.08676912,-0.93786895,-0.1556422,-2.3503249,-0.109266415,1.645805,0.7867299,0.03999662,0.03999572,-9.58488,0.12290982902050018,2.148968,0.196616,-0.2361840009689331,-0.010715972
2743.8000000073257,-0.088284,-0.94054365,-0.15835477,-2.3502212,-0.111171894,1.6471089,0.7867429,0.03999658,0.03999567,-9.575867,0.12990012764930725,2.1856797,0.19788073,-0.23746530711650848,-0.010975406
2743.8166666739926,-0.089808814,-0.943236,-0.16108517,-2.3501155,-0.11308988,1.6484215,0.78675604,0.039996542,0.03999563,-9.567188,0.13578318059444427,2.222136,0.1991214,-0.2387210875749588,-0.011237348
2743.8333333406595,-0.09134339,-0.9459457,-0.1638331,-2.350009,-0.11502019,1.6497425,0.7867693,0.039996497,0.039995577,-9.557821,0.14245933294296265,2.2589345,0.20033759,-0.23994167149066925,-0.011500453
2743.8500000073263,-0.09288756,-0.9486723,-0.1665982,-2.3499017,-0.11696259,1.6510718,0.7867826,0.03999645,0.03999552,-9.548411,0.1492684930562973,2.2959254,0.2015289,-0.2411331683397293,-0.01176524
2743.866666673993,-0.09444115,-0.95141554,-0.1693802,-2.3497934,-0.11891686,1.6524091,0.78679603,0.039996408,0.039995477,-9.538552,0.1568051278591156,2.333249,0.2026953,-0.24229341745376587,-0.012032467
2743.88333334066,-0.09600403,-0.9541753,-0.17217878,-2.3496847,-0.12088278,1.6537545,0.78680944,0.039996363,0.039995424,-9.528998,0.1633194237947464,2.3702872,0.20383704,-0.2434246838092804,-0.012300106
2743.900000007327,-0.09757598,-0.95695114,-0.17499365,-2.3495753,-0.122860156,1.6551077,0.78682286,0.039996322,0.039995376,-9.518988,0.1705651879310608,2.407682,0.20495327,-0.24452504515647888,-0.012569105
2743.916666673994,-0.0991568,-0.95974267,-0.17782441,-2.3494656,-0.12484875,1.6564685,0.78683627,0.03999629,0.039995335,-9.508626,0.17850561439990997,2.4454083,0.20604447,-0.24559621512889862,-0.01284015
2743.9333333406607,-0.10074633,-0.9625497,-0.18067078,-2.349356,-0.12684837,1.6578368,0.7868497,0.039996244,0.039995287,-9.498488,0.18547672033309937,2.4828238,0.20711063,-0.24663837254047394,-0.013111957
2743.9500000073276,-0.102344394,-0.965372,-0.18353248,-2.3492458,-0.1288587,1.6592126,0.7868631,0.039996196,0.03999523,-9.488034,0.19315199553966522,2.5205865,0.20815158,-0.24765534698963165,-0.013383612
2743.9666666739945,-0.10395081,-0.968209,-0.18640915,-2.349135,-0.13087952,1.6605957,0.7868765,0.039996155,0.039995186,-9.477233,0.2009899914264679,2.5584264,0.20916662,-0.24863958358764648,-0.013656473
2743.9833333406614,-0.105565384,-0.9710604,-0.18930042,-2.3490236,-0.13291065,1.6619858,0.78689,0.03999612,0.039995145,-9.466085,0.20948535203933716,2.5965416,0.21015495,-0.24959343671798706,-0.0139310965
2744.0000000073283,-0.10718793,-0.97392595,-0.19220603,-2.3489115,-0.13495186,1.6633824,0.7869035,0.039996084,0.039995104,-9.455136,0.2170952558517456,2.6343782,0.2111176,-0.2505173087120056,-0.014205028
2744.016666673995,-0.108818255,-0.9768055,-0.19512554,-2.3487985,-0.13700292,1.664786,0.78691703,0.039996047,0.039995063,-9.443739,0.2253788560628891,2.672489,0.21205269,-0.2514103949069977,-0.014480446
2744.033333340662,-0.11045616,-0.9796989,-0.19805871,-2.3486848,-0.1390635,1.6661962,0.78693056,0.039996006,0.039995015,-9.432119,0.233819842338562,2.7106895,0.21296118,-0.25227028131484985,-0.014755041
2744.050000007329,-0.11210148,-0.98260504,-0.20100513,-2.3485706,-0.14113343,1.6676127,0.7869441,0.039995972,0.039994977,-9.420153,0.2428639829158783,2.7491574,0.21384251,-0.2530960440635681,-0.015031741
2744.0666666739958,-0.11375402,-0.98552394,-0.20396453,-2.348456,-0.14321247,1.6690352,0.7869576,0.03999593,0.03999493,-9.408391,0.2511216700077057,2.7872887,0.2146969,-0.25389328598976135,-0.015307029
2744.0833333406626,-0.11541358,-0.9884553,-0.20693642,-2.3483403,-0.14530033,1.6704642,0.78697115,0.0399959,0.039994895,-9.396218,0.2600080966949463,2.8256662,0.21552345,-0.2546585500240326,-0.015583141
2744.1000000073295,-0.11707997,-0.991399,-0.20992059,-2.348224,-0.14739682,1.6718987,0.7869847,0.039995868,0.03999486,-9.383832,0.26902252435684204,2.8640888,0.21632273,-0.2553902566432953,-0.015859095
2744.1166666739964,-0.11875292,-0.9943546,-0.21291664,-2.348107,-0.14950168,1.6733391,0.78699845,0.039995838,0.039994825,-9.371102,0.2786414623260498,2.902756,0.21709366,-0.25608935952186584,-0.016134983
2744.1333333406633,-0.120432325,-0.99732125,-0.21592417,-2.34799,-0.15161467,1.6747849,0.78701234,0.03999581,0.03999479,-9.358472,0.28754621744155884,2.9411137,0.2178359,-0.256756067276001,-0.016410388
2744.15000000733,-0.12211794,-1.0002993,-0.21894284,-2.3478725,-0.15373546,1.6762365,0.78702635,0.039995782,0.039994754,-9.345569,0.29702168703079224,2.97965,0.21855006,-0.2573927044868469,-0.016682722
2744.166666673997,-0.123809576,-1.0032879,-0.2219724,-2.3477547,-0.1558639,1.6776925,0.7870404,0.039995763,0.039994735,-9.3322935,0.3070216774940491,3.018379,0.21923503,-0.2579951286315918,-0.016957913
2744.183333340664,-0.12550704,-1.006287,-0.22501233,-2.3476362,-0.15799965,1.6791551,0.7870546,0.03999575,0.039994717,-9.319168,0.3164103627204895,3.0568166,0.2198915,-0.2585718333721161,-0.017230922
2744.200000007331,-0.1272101,-1.009296,-0.22806235,-2.3475177,-0.16014251,1.6806221,0.78706884,0.039995726,0.03999469,-9.305542,0.3263348639011383,3.0953717,0.22051913,-0.25910699367523193,-0.017503325
2744.2166666739977,-0.12891859,-1.012314,-0.23112208,-2.3473992,-0.16229223,1.682093,0.7870831,0.039995704,0.039994664,-9.291898,0.3364016115665436,3.1339903,0.22111766,-0.2596146762371063,-0.017774621
2744.2333333406646,-0.1306323,-1.0153421,-0.23419115,-2.3472805,-0.16444848,1.6835679,0.78709745,0.03999568,0.03999464,-9.278036,0.34693583846092224,3.1727023,0.22168815,-0.26009780168533325,-0.018043784
2744.2500000073314,-0.13235101,-1.0183793,-0.23726915,-2.3471618,-0.16661103,1.6850467,0.7871119,0.03999566,0.039994612,-9.26399,0.35696953535079956,3.2112024,0.22222912,-0.26054906845092773,-0.018312046
2744.2666666739983,-0.13407451,-1.021425,-0.24035579,-2.3470423,-0.1687797,1.6865302,0.7871264,0.03999564,0.03999459,-9.249788,0.3674805760383606,3.249768,0.22274123,-0.2609712481498718,-0.018579058
2744.283333340665,-0.13580255,-1.0244784,-0.24345067,-2.3469229,-0.1709541,1.6880183,0.787141,0.039995626,0.039994575,-9.2352495,0.3781391680240631,3.2882571,0.22322342,-0.26135629415512085,-0.018845335
2744.300000007332,-0.13753499,-1.0275398,-0.24655338,-2.346803,-0.17313407,1.6895099,0.7871557,0.039995607,0.039994553,-9.220634,0.38921698927879333,3.3268485,0.22367652,-0.2617109715938568,-0.019108979
2744.316666673999,-0.1392716,-1.0306088,-0.24966355,-2.3466828,-0.17531927,1.691005,0.7871704,0.039995592,0.039994534,-9.2058325,0.399869829416275,3.36518,0.22410002,-0.26203295588493347,-0.019370507
2744.333333340666,-0.14101216,-1.0336846,-0.2527808,-2.3465617,-0.17750955,1.6925033,0.78718513,0.03999558,0.03999452,-9.190842,0.41095834970474243,3.4036136,0.22449417,-0.26232388615608215,-0.019630147
2744.3500000073327,-0.14275645,-1.0367675,-0.25590485,-2.3464406,-0.17970453,1.694005,0.7871999,0.039995566,0.039994504,-9.175575,0.4221954941749573,3.4419549,0.22485842,-0.26258039474487305,-0.019888422
2744.3666666739996,-0.14450426,-1.0398563,-0.25903517,-2.3463187,-0.18190397,1.6955104,0.78721476,0.039995544,0.03999448,-9.160182,0.4338054955005646,3.4803748,0.225193,-0.2628042697906494,-0.020143686
2744.3833333406665,-0.1462554,-1.0429513,-0.26217142,-2.346197,-0.18410766,1.6970196,0.7872296,0.039995518,0.03999445,-9.144656,0.44506680965423584,3.5184748,0.22549783,-0.26299282908439636,-0.02039673
2744.4000000073333,-0.14800964,-1.0460519,-0.2653133,-2.3460743,-0.18631522,1.6985302,0.78724444,0.0399955,0.03999443,-9.128931,0.45669907331466675,3.5566514,0.2257734,-0.2631452977657318,-0.020647943
2744.416666674,-0.1497668,-1.0491574,-0.26846036,-2.3459516,-0.1885265,1.7000433,0.78725934,0.039995484,0.03999441,-9.11302,0.4686935842037201,3.59486,0.22601897,-0.2632705569267273,-0.020895993
2744.433333340667,-0.15152659,-1.052268,-0.2716122,-2.3458283,-0.19074109,1.7015593,0.7872743,0.039995465,0.039994393,-9.096973,0.4804055690765381,3.6327832,0.22623447,-0.2633635401725769,-0.021141805
2744.450000007334,-0.15328886,-1.055383,-0.27476847,-2.345705,-0.19295888,1.7030768,0.78728926,0.039995447,0.03999437,-9.080689,0.49245592951774597,3.6707082,0.22642004,-0.2634199857711792,-0.021384371
2744.466666674001,-0.15505339,-1.0585021,-0.27792877,-2.3455813,-0.19517948,1.7045974,0.7873043,0.03999543,0.03999435,-9.064367,0.5046277642250061,3.7085435,0.22657631,-0.2634488046169281,-0.02162419
2744.4833333406677,-0.15681992,-1.061625,-0.2810927,-2.3454573,-0.19740269,1.7061186,0.7873193,0.039995413,0.039994333,-9.047764,0.5170892477035522,3.7463481,0.22670206,-0.2634389102458954,-0.021860627
2744.5000000073346,-0.15858832,-1.0647509,-0.2842599,-2.3453333,-0.19962822,1.7076416,0.7873343,0.039995402,0.03999432,-9.031035,0.5293907523155212,3.7839253,0.2267981,-0.2634015381336212,-0.022094341
2744.5166666740015,-0.16035827,-1.06788,-0.28742993,-2.3452094,-0.20185576,1.7091662,0.78734934,0.039995387,0.039994307,-9.014251,0.5419390797615051,3.821423,0.22686483,-0.26333433389663696,-0.02232428
2744.5333333406684,-0.16212955,-1.0710114,-0.29060254,-2.3450851,-0.20408502,1.7106917,0.78736424,0.03999538,0.039994296,-8.997203,0.554634690284729,3.8588343,0.22690208,-0.2632327973842621,-0.022550603
2744.5500000073353,-0.16390198,-1.0741452,-0.2937772,-2.344961,-0.20631576,1.7122183,0.78737915,0.039995372,0.03999429,-8.9801235,0.5675248503684998,3.8961499,0.22691019,-0.2631021738052368,-0.022774272
2744.566666674002,-0.16567539,-1.0772808,-0.29695353,-2.344837,-0.20854774,1.7137458,0.78739405,0.03999536,0.039994277,-8.962757,0.5803849101066589,3.9332418,0.22688854,-0.26294010877609253,-0.022994224
2744.583333340669,-0.16744952,-1.0804175,-0.3001312,-2.3447127,-0.21078068,1.7152742,0.787409,0.039995346,0.039994262,-8.945344,0.5934156775474548,3.970254,0.22683807,-0.26274624466896057,-0.023210289
2744.600000007336,-0.16922413,-1.0835552,-0.3033098,-2.3445885,-0.21301429,1.7168027,0.787424,0.039995335,0.039994247,-8.927734,0.6066045761108398,4.007099,0.22675738,-0.2625209391117096,-0.023421608
2744.6166666740028,-0.17099908,-1.0866933,-0.30648893,-2.3444643,-0.2152483,1.7183313,0.78743905,0.039995328,0.039994244,-8.910099,0.61989825963974,4.0438313,0.22664718,-0.2622661292552948,-0.023630468
2744.6333333406697,-0.17277408,-1.089832,-0.3096682,-2.3443396,-0.21748239,1.7198602,0.78745407,0.03999532,0.039994232,-8.892207,0.6332889199256897,4.080355,0.2265073,-0.2619830071926117,-0.023833074
2744.6500000073365,-0.17454891,-1.0929707,-0.31284726,-2.3442154,-0.21971634,1.7213888,0.7874691,0.03999532,0.039994236,-8.874121,0.6467889547348022,4.116764,0.22633775,-0.26166418194770813,-0.02403394
2744.6666666740034,-0.17632337,-1.0961086,-0.31602564,-2.3440912,-0.22194985,1.7229173,0.78748405,0.03999532,0.039994232,-8.856151,0.6604040861129761,4.153055,0.22613952,-0.2613169848918915,-0.02422882
2744.6833333406703,-0.17809722,-1.0992459,-0.319203,-2.343967,-0.22418268,1.7244456,0.787499,0.039995324,0.03999424,-8.837829,0.6741161346435547,4.189062,0.22591265,-0.26093992590904236,-0.024420777
2744.700000007337,-0.17987029,-1.1023815,-0.32237893,-2.3438427,-0.2264145,1.7259729,0.7875139,0.03999533,0.039994247,-8.819398,0.6879621148109436,4.2249794,0.2256563,-0.26052844524383545,-0.024607744
2744.716666674004,-0.18164235,-1.1055156,-0.32555303,-2.3437188,-0.22864507,1.7274992,0.7875287,0.039995346,0.039994262,-8.800987,0.7018759846687317,4.2606893,0.22537145,-0.26009100675582886,-0.024789887
2744.733333340671,-0.18341318,-1.1086478,-0.32872492,-2.343595,-0.23087409,1.7290246,0.7875435,0.039995354,0.03999427,-8.782486,0.7158388495445251,4.2962303,0.22505847,-0.2596227526664734,-0.024967227
2744.750000007338,-0.18518259,-1.1117772,-0.33189425,-2.3434713,-0.23310134,1.7305491,0.78755826,0.039995365,0.03999428,-8.763672,0.7300181984901428,4.33158,0.22471668,-0.2591240406036377,-0.025140205
2744.7666666740047,-0.18695028,-1.1149039,-0.3350606,-2.3433483,-0.23532647,1.7320716,0.787573,0.039995372,0.03999429,-8.74489,0.7442376613616943,4.366698,0.22434583,-0.25859570503234863,-0.025307726
2744.7833333406716,-0.18871605,-1.1180274,-0.33822352,-2.3432255,-0.2375493,1.7335925,0.7875877,0.039995376,0.039994296,-8.726051,0.7585131525993347,4.401689,0.22394776,-0.2580423057079315,-0.025471786
2744.8000000073384,-0.19047974,-1.1211473,-0.3413827,-2.3431027,-0.23976953,1.7351118,0.78760237,0.039995383,0.039994303,-8.707176,0.7727840542793274,4.436408,0.2235216,-0.25745949149131775,-0.025629511
2744.8166666740053,-0.19224116,-1.1242629,-0.34453776,-2.34298,-0.24198681,1.7366289,0.7876171,0.0399954,0.03999432,-8.68793,0.7873803973197937,4.4709525,0.22306716,-0.25684618949890137,-0.025783366
2744.833333340672,-0.19399999,-1.1273742,-0.34768832,-2.3428566,-0.24420094,1.7381439,0.7876318,0.039995406,0.03999433,-8.668716,0.8019439578056335,4.505271,0.22258401,-0.2562047839164734,-0.025930705
2744.850000007339,-0.19575608,-1.1304806,-0.35083392,-2.3427334,-0.24641164,1.7396569,0.7876464,0.03999542,0.039994348,-8.649369,0.8166084885597229,4.5393677,0.2220721,-0.25553134083747864,-0.026073953
2744.866666674006,-0.19750923,-1.1335821,-0.3539743,-2.3426101,-0.24861863,1.741167,0.78766096,0.039995432,0.03999436,-8.630162,0.831142246723175,4.573222,0.22153296,-0.2548280656337738,-0.0262109
2744.883333340673,-0.19925918,-1.1366781,-0.35710898,-2.3424869,-0.25082162,1.7426746,0.7876755,0.03999545,0.039994378,-8.610467,0.8461435437202454,4.606946,0.22096568,-0.254095196723938,-0.026342833
2744.9000000073397,-0.20100574,-1.1397681,-0.3602376,-2.3423638,-0.2530204,1.7441798,0.78769,0.03999546,0.039994393,-8.590934,0.8609885573387146,4.6403847,0.22037062,-0.2533319890499115,-0.026470494
2744.9166666740066,-0.2027487,-1.142852,-0.36335972,-2.342241,-0.25521463,1.7456813,0.7877044,0.039995477,0.039994407,-8.5715275,0.8757118582725525,4.6735625,0.21974874,-0.2525392472743988,-0.026591571
2744.9333333406735,-0.20448786,-1.1459292,-0.3664751,-2.3421183,-0.25740412,1.747179,0.7877188,0.03999549,0.039994426,-8.551657,0.8909141421318054,4.7066,0.21909985,-0.2517201602458954,-0.026708063
2744.9500000073403,-0.20622295,-1.1489995,-0.36958322,-2.3419957,-0.25958854,1.748673,0.7877331,0.039995514,0.03999445,-8.531929,0.9059922695159912,4.7393804,0.21842371,-0.25087499618530273,-0.026818149
2744.9666666740072,-0.20795381,-1.152062,-0.37268367,-2.3418736,-0.26176766,1.7501632,0.7877473,0.039995536,0.039994475,-8.512119,0.9210987687110901,4.771883,0.21772113,-0.25000306963920593,-0.026923286
2744.983333340674,-0.2096802,-1.155117,-0.37577623,-2.3417518,-0.26394126,1.7516496,0.78776157,0.039995562,0.039994504,-8.492557,0.9359825253486633,4.804069,0.21699266,-0.249106302857399,-0.027022514
2745.000000007341,-0.21140192,-1.1581641,-0.37886047,-2.3416297,-0.266109,1.7531321,0.7877758,0.039995585,0.03999453,-8.472468,0.9514725804328918,4.836154,0.21623811,-0.24818271398544312,-0.027115999
2745.016666674008,-0.21311878,-1.1612023,-0.38193595,-2.3415082,-0.26827058,1.7546107,0.78779,0.0399956,0.03999455,-8.45239,0.9667775630950928,4.867918,0.21545595,-0.24722662568092346,-0.027204229
2745.0333333406747,-0.21483059,-1.1642319,-0.3850025,-2.3413875,-0.27042574,1.7560854,0.78780425,0.039995622,0.039994575,-8.43247,0.9820783734321594,4.899408,0.21464837,-0.24624523520469666,-0.027286453
2745.0500000073416,-0.21653712,-1.1672521,-0.38805962,-2.341267,-0.27257428,1.7575562,0.78781843,0.039995648,0.0399946,-8.412776,0.997107982635498,4.9305873,0.21381514,-0.24523834884166718,-0.027362827
2745.0666666740085,-0.2182382,-1.1702628,-0.39110684,-2.3411472,-0.27471602,1.759023,0.7878326,0.03999567,0.039994627,-8.39244,1.0128490924835205,4.96165,0.21295585,-0.24420160055160522,-0.027434183
2745.0833333406754,-0.21993355,-1.1732635,-0.394144,-2.3410285,-0.27685064,1.7604834,0.7878468,0.0399957,0.03999466,-8.372372,1.028272271156311,4.992394,0.21207143,-0.24313649535179138,-0.027499437
2745.1000000073423,-0.221623,-1.1762537,-0.39717045,-2.3409097,-0.27897787,1.7619389,0.7878609,0.03999572,0.039994683,-8.352399,1.0437252521514893,5.0229125,0.21116291,-0.24205562472343445,-0.027558707
2745.116666674009,-0.22330631,-1.1792331,-0.40018603,-2.3407915,-0.28109747,1.7633902,0.7878749,0.039995745,0.039994713,-8.332504,1.0588356256484985,5.0529733,0.21023014,-0.24094858765602112,-0.02761149
2745.133333340676,-0.22498336,-1.1822017,-0.4031903,-2.3406737,-0.2832092,1.7648352,0.78788877,0.039995767,0.03999474,-8.3120985,1.0747324228286743,5.0829897,0.20927325,-0.23981185257434845,-0.027658649
2745.150000007343,-0.22665395,-1.1851593,-0.4061832,-2.3405561,-0.2853127,1.766275,0.78790265,0.039995786,0.03999476,-8.291944,1.0902833938598633,5.1126842,0.20829213,-0.23865284025669098,-0.027699687
2745.16666667401,-0.22831784,-1.1881047,-0.40916407,-2.3404388,-0.28740776,1.7677088,0.7879165,0.03999582,0.0399948,-8.272011,1.1054701805114746,5.1419525,0.20728545,-0.23746590316295624,-0.027736168
2745.1833333406767,-0.2299748,-1.1910379,-0.41213247,-2.3403218,-0.28949428,1.7691369,0.7879303,0.039995853,0.039994836,-8.251621,1.1214489936828613,5.17117,0.20625569,-0.23625746369361877,-0.027766045
2745.2000000073435,-0.2316247,-1.1939594,-0.41508827,-2.340205,-0.29157186,1.7705586,0.78794414,0.039995883,0.039994873,-8.231403,1.1370357275009155,5.1999826,0.20520203,-0.23502157628536224,-0.02779026
2745.2166666740104,-0.23326737,-1.1968672,-0.41803098,-2.3400884,-0.29364026,1.7719741,0.787958,0.039995916,0.03999491,-8.211199,1.1526719331741333,5.2285886,0.20412453,-0.23376117646694183,-0.027808513
2745.2333333406773,-0.23490255,-1.1997623,-0.4209603,-2.339972,-0.2956993,1.7733835,0.78797185,0.039995942,0.03999494,-8.191346,1.1678047180175781,5.256677,0.2030233,-0.23247785866260529,-0.027819956
2745.250000007344,-0.23652999,-1.2026442,-0.42387593,-2.3398566,-0.2977487,1.7747861,0.78798556,0.039995972,0.039994977,-8.17088,1.1838865280151367,5.284815,0.20189898,-0.23116812109947205,-0.02782644
2745.266666674011,-0.23814963,-1.2055118,-0.42677754,-2.3397422,-0.2997882,1.7761817,0.7879993,0.039996002,0.03999501,-8.150826,1.199480652809143,5.3125625,0.20075369,-0.2298378199338913,-0.027826795
2745.283333340678,-0.23976123,-1.2083654,-0.42966476,-2.339629,-0.30181763,1.7775705,0.78801286,0.039996035,0.03999505,-8.130816,1.2150673866271973,5.339971,0.19958594,-0.22848910093307495,-0.027820587
2745.300000007345,-0.2413646,-1.2112046,-0.43253726,-2.3395162,-0.30383676,1.7789524,0.7880264,0.03999607,0.03999509,-8.111127,1.2301362752914429,5.366961,0.19839743,-0.2271198183298111,-0.0278098
2745.3166666740117,-0.24295959,-1.2140291,-0.43539473,-2.3394036,-0.30584532,1.7803271,0.7880399,0.039996102,0.039995126,-8.090792,1.246224284172058,5.39396,0.19718745,-0.22572678327560425,-0.02779199
2745.3333333406786,-0.24454592,-1.2168382,-0.43823683,-2.3392916,-0.30784306,1.7816943,0.7880534,0.039996125,0.039995156,-8.070766,1.2618070840835571,5.4205017,0.1959552,-0.22431103885173798,-0.027769294
2745.3500000073454,-0.24612354,-1.2196319,-0.44106317,-2.3391798,-0.30982977,1.783054,0.78806686,0.03999616,0.039995193,-8.050822,1.2773611545562744,5.4467654,0.1947022,-0.22287358343601227,-0.027739862
2745.3666666740123,-0.24769215,-1.2224098,-0.4438734,-2.3390684,-0.31180525,1.7844058,0.7880804,0.0399962,0.039995242,-8.031202,1.2923310995101929,5.4725385,0.19342771,-0.22141414880752563,-0.027704157
2745.383333340679,-0.24925163,-1.2251718,-0.44666734,-2.3389573,-0.31376916,1.7857498,0.78809386,0.039996233,0.03999528,-8.010994,1.308388352394104,5.4983997,0.1921324,-0.2199338674545288,-0.027663209
2745.400000007346,-0.2508018,-1.2279174,-0.44944468,-2.338847,-0.3157214,1.7870859,0.78810734,0.039996274,0.039995328,-7.9911656,1.3238691091537476,5.523807,0.19081691,-0.2184312790632248,-0.027617527
2745.416666674013,-0.25234243,-1.2306465,-0.452205,-2.3387377,-0.31766176,1.7884138,0.7881207,0.039996315,0.039995372,-7.971704,1.338760256767273,5.5486975,0.18948044,-0.21690674126148224,-0.027564982
2745.43333334068,-0.25387356,-1.2333581,-0.45494804,-2.3386302,-0.3195899,1.7897332,0.78813386,0.039996356,0.03999542,-7.9517984,1.354703426361084,5.5737247,0.1881264,-0.21536636352539062,-0.027507544
2745.4500000073467,-0.25539482,-1.2360528,-0.45767352,-2.3385231,-0.32150584,1.7910442,0.78814673,0.03999639,0.039995458,-7.932326,1.3700369596481323,5.5982437,0.18675452,-0.2138124704360962,-0.02744336
2745.4666666740136,-0.25690597,-1.2387297,-0.46038094,-2.3384163,-0.32340926,1.7923468,0.7881592,0.03999643,0.039995506,-7.9127216,1.3853754997253418,5.6224394,0.18536419,-0.21223635971546173,-0.027374301
2745.4833333406805,-0.258407,-1.2413888,-0.46307033,-2.3383098,-0.3252998,1.7936405,0.7881716,0.03999647,0.039995555,-7.893537,1.4000117778778076,5.646118,0.18395817,-0.21063871681690216,-0.027299618
2745.5000000073474,-0.25989765,-1.2440298,-0.4657412,-2.338204,-0.3271772,1.7949252,0.788184,0.03999651,0.0399956,-7.8737593,1.4158880710601807,5.6699657,0.18253247,-0.20902200043201447,-0.027219027
2745.5166666740142,-0.26137787,-1.2466521,-0.46839327,-2.3380988,-0.3290414,1.796201,0.7881963,0.039996546,0.039995644,-7.854433,1.431050181388855,5.6932855,0.18108886,-0.20738737285137177,-0.02713548
2745.533333340681,-0.2628474,-1.2492555,-0.47102627,-2.337994,-0.33089226,1.7974677,0.7882085,0.039996583,0.039995685,-7.835199,1.4461780786514282,5.7163134,0.17962724,-0.20573441684246063,-0.027044445
2745.550000007348,-0.26430613,-1.2518402,-0.47363982,-2.3378901,-0.33272958,1.798725,0.7882206,0.039996617,0.039995726,-7.816366,1.4605671167373657,5.738797,0.17814896,-0.20406191051006317,-0.02694752
2745.566666674015,-0.26575387,-1.2544053,-0.47623384,-2.3377879,-0.33455306,1.7999729,0.78823256,0.039996665,0.03999578,-7.79697,1.4762133359909058,5.761495,0.17665403,-0.20237350463867188,-0.026846234
2745.5833333406817,-0.26719055,-1.2569506,-0.47880802,-2.3376858,-0.3363626,1.8012112,0.78824455,0.039996713,0.039995838,-7.7781415,1.4911019802093506,5.7836404,0.17514436,-0.2006722092628479,-0.026739873
2745.6000000073486,-0.2686159,-1.2594761,-0.48136202,-2.3375845,-0.33815798,1.8024398,0.78825635,0.039996758,0.03999589,-7.7592463,1.5059771537780762,5.805485,0.17361704,-0.19895292818546295,-0.026627889
2745.6166666740155,-0.2700298,-1.2619814,-0.4838955,-2.3374834,-0.33993888,1.8036586,0.7882682,0.0399968,0.039995935,-7.7408495,1.5200645923614502,5.826769,0.17207447,-0.19721707701683044,-0.02651083
2745.6333333406824,-0.2714322,-1.2644665,-0.48640826,-2.3373833,-0.34170532,1.8048674,0.78828,0.039996844,0.039995987,-7.7217846,1.535487174987793,5.8482757,0.17051528,-0.1954636573791504,-0.026388813
2745.6500000073493,-0.27282286,-1.2669306,-0.48890004,-2.3372843,-0.34345707,1.8060659,0.78829175,0.0399969,0.03999605,-7.7032104,1.5501347780227661,5.8692584,0.16894095,-0.19369332492351532,-0.026260743
2745.666666674016,-0.27420172,-1.2693741,-0.4913706,-2.337186,-0.3451938,1.8072543,0.78830326,0.039996937,0.039996095,-7.6852956,1.563888430595398,5.889669,0.16735348,-0.191913440823555,-0.026128849
2745.683333340683,-0.27556857,-1.2717963,-0.49381974,-2.3370893,-0.34691557,1.8084326,0.78831476,0.039996985,0.03999615,-7.666572,1.5791090726852417,5.910336,0.16575153,-0.19011683762073517,-0.025991047
2745.70000000735,-0.2769232,-1.2741972,-0.49624717,-2.3369935,-0.34862202,1.8096002,0.78832626,0.039997026,0.0399962,-7.648479,1.593462347984314,5.930429,0.16413595,-0.188307985663414,-0.025849253
2745.716666674017,-0.27826563,-1.2765764,-0.4986526,-2.336898,-0.35031304,1.8107573,0.7883378,0.039997064,0.039996244,-7.630435,1.6077316999435425,5.9502354,0.16250722,-0.1864856332540512,-0.025703192
2745.7333333406837,-0.2795957,-1.2789336,-0.5010359,-2.3368034,-0.35198846,1.811904,0.78834933,0.03999711,0.039996296,-7.6128902,1.6211565732955933,5.9694467,0.16086404,-0.1846499890089035,-0.025551803
2745.7500000073505,-0.2809132,-1.2812687,-0.50339663,-2.336709,-0.3536481,1.8130397,0.7883607,0.03999716,0.039996356,-7.5946536,1.636054515838623,5.988933,0.15920678,-0.18279795348644257,-0.025395809
2745.7666666740174,-0.28221813,-1.2835816,-0.50573486,-2.3366158,-0.35529187,1.8141646,0.7883721,0.03999722,0.039996423,-7.5769486,1.650022029876709,6.0078597,0.15753776,-0.18093229830265045,-0.02523523
2745.7833333406843,-0.2835103,-1.2858721,-0.50805014,-2.3365235,-0.3569195,1.8152788,0.7883831,0.03999727,0.03999648,-7.55943,1.6639434099197388,6.0265183,0.15585528,-0.1790536344051361,-0.025070207
2745.800000007351,-0.2847895,-1.2881398,-0.51034206,-2.3364325,-0.35853094,1.8163816,0.7883935,0.039997317,0.039996535,-7.542471,1.6769042015075684,6.0446177,0.15416344,-0.177162766456604,-0.024901478
2745.816666674018,-0.28605568,-1.2903845,-0.512611,-2.3363426,-0.36012602,1.817473,0.78840387,0.03999737,0.039996594,-7.524842,1.6913378238677979,6.062978,0.15246414,-0.17526210844516754,-0.024727652
2745.833333340685,-0.28730875,-1.2926058,-0.5148566,-2.3362532,-0.3617046,1.8185533,0.7884141,0.039997417,0.039996654,-7.5078187,1.70490300655365,6.0807934,0.1507532,-0.17335203289985657,-0.024551844
2745.850000007352,-0.28854865,-1.294804,-0.5170784,-2.3361645,-0.36326647,1.8196222,0.7884244,0.039997462,0.039996706,-7.490843,1.7184025049209595,6.098274,0.14903001,-0.17142997682094574,-0.024370264
2745.8666666740187,-0.2897751,-1.2969785,-0.5192763,-2.3360763,-0.36481163,1.8206795,0.78843457,0.03999751,0.03999676,-7.474443,1.730914831161499,6.11523,0.1472965,-0.16949699819087982,-0.024184989
2745.8833333406856,-0.29098818,-1.2991291,-0.52145004,-2.335989,-0.36633965,1.8217251,0.7884447,0.039997563,0.03999682,-7.457327,1.744960904121399,6.1324573,0.14555264,-0.1675504893064499,-0.023995625
2745.9000000073524,-0.2921877,-1.3012558,-0.52359957,-2.3359036,-0.36785078,1.8227592,0.7884547,0.03999762,0.039996885,-7.440881,1.7580394744873047,6.149142,0.14379935,-0.165597066283226,-0.023802338
2745.9166666740193,-0.2933735,-1.3033584,-0.5257246,-2.3358197,-0.36934477,1.8237815,0.78846467,0.03999766,0.03999694,-7.425102,1.7701231241226196,6.165269,0.1420386,-0.16363799571990967,-0.02360743
2745.933333340686,-0.29454565,-1.3054367,-0.5278252,-2.3357365,-0.37082148,1.824792,0.78847456,0.039997708,0.039996993,-7.4086013,1.7837936878204346,6.181695,0.14027019,-0.16167183220386505,-0.023405686
2745.950000007353,-0.2957039,-1.3074905,-0.5299007,-2.335654,-0.37228075,1.8257904,0.7884844,0.03999775,0.039997045,-7.392589,1.7965344190597534,6.1975436,0.13849212,-0.15969549119472504,-0.023202404
2745.96666667402,-0.29684806,-1.3095195,-0.5319515,-2.3355722,-0.3737224,1.8267772,0.78849417,0.0399978,0.039997105,-7.3767614,1.809089183807373,6.2130976,0.13670692,-0.15771183371543884,-0.022994168
2745.983333340687,-0.29797834,-1.3115239,-0.53397703,-2.3354912,-0.3751464,1.8277516,0.7885038,0.039997846,0.039997157,-7.361538,1.8206923007965088,6.228082,0.13491374,-0.15571896731853485,-0.022783652
2746.0000000073537,-0.29909444,-1.3135036,-0.5359774,-2.3354108,-0.37655273,1.8287141,0.78851336,0.03999789,0.039997213,-7.3455596,1.8338887691497803,6.2434344,0.13311298,-0.1537167876958847,-0.02256984
2746.0166666740206,-0.30019644,-1.3154578,-0.5379525,-2.3353326,-0.3779412,1.8296642,0.7885229,0.03999793,0.039997265,-7.3302646,1.8460752964019775,6.258212,0.13130549,-0.15170647203922272,-0.022353662
2746.0333333406875,-0.30128413,-1.317387,-0.53990203,-2.3352551,-0.3793117,1.8306022,0.78853226,0.039997973,0.03999731,-7.315317,1.8580704927444458,6.272736,0.129493,-0.14969712495803833,-0.02213156
2746.0500000073544,-0.30235752,-1.3192909,-0.54182565,-2.3351781,-0.3806641,1.8315277,0.78854156,0.039998017,0.039997365,-7.300765,1.869088888168335,6.2866564,0.12767465,-0.1476799100637436,-0.021909425
2746.0666666740212,-0.30341658,-1.3211691,-0.5437236,-2.3351026,-0.3819985,1.8324406,0.7885503,0.03999807,0.039997425,-7.285497,1.8817287683486938,6.300945,0.12585042,-0.14565423130989075,-0.021682598
2746.083333340688,-0.30446112,-1.3230218,-0.5455956,-2.3350275,-0.3833146,1.8333412,0.78855866,0.039998114,0.03999748,-7.270987,1.8933255672454834,6.3146706,0.1240234,-0.1436263620853424,-0.02145339
2746.100000007355,-0.30549115,-1.3248488,-0.5474415,-2.3349533,-0.38461232,1.834229,0.78856695,0.039998163,0.039997537,-7.2565794,1.9047878980636597,6.3281336,0.1221928,-0.14159268140792847,-0.021220982
2746.116666674022,-0.3065065,-1.3266498,-0.54926133,-2.3348804,-0.38589174,1.8351046,0.7885753,0.039998204,0.039997585,-7.24278,1.9151958227157593,6.341006,0.12035818,-0.1395554095506668,-0.02098586
2746.1333333406888,-0.30750728,-1.3284249,-0.55105495,-2.334809,-0.38715273,1.8359674,0.78858346,0.03999824,0.039997634,-7.228377,1.9272263050079346,6.3542747,0.1185191,-0.1375138759613037,-0.02074918
2746.1500000073556,-0.30849335,-1.3301743,-0.5528223,-2.3347383,-0.3883952,1.8368176,0.7885916,0.03999829,0.03999769,-7.2146535,1.9382063150405884,6.3670053,0.11667803,-0.13547274470329285,-0.020509249
2746.1666666740225,-0.30946466,-1.3318975,-0.5545632,-2.3346682,-0.3896191,1.8376551,0.7885997,0.039998326,0.039997738,-7.201341,1.948179841041565,6.379119,0.114832625,-0.13342426717281342,-0.020269554
2746.1833333406894,-0.3104212,-1.3335948,-0.5562776,-2.334599,-0.3908244,1.8384798,0.7886077,0.039998367,0.03999779,-7.187486,1.9597786664962769,6.3916407,0.112984434,-0.13137440383434296,-0.02002497
2746.2000000073563,-0.31136298,-1.3352658,-0.55796534,-2.3345313,-0.39201102,1.8392919,0.7886156,0.039998405,0.039997835,-7.174229,1.9703043699264526,6.4036093,0.111134425,-0.12932088971138,-0.01977964
2746.216666674023,-0.31228977,-1.3369104,-0.55962646,-2.334465,-0.39317885,1.840091,0.78862345,0.03999844,0.039997876,-7.161216,1.9806596040725708,6.415328,0.109283514,-0.12726667523384094,-0.019529985
2746.23333334069,-0.31320164,-1.3385285,-0.5612608,-2.3344002,-0.39432788,1.8408773,0.7886313,0.039998483,0.03999793,-7.148887,1.9899214506149292,6.4264755,0.10743187,-0.1252153068780899,-0.0192815
2746.250000007357,-0.3140986,-1.3401202,-0.56286865,-2.3343363,-0.39545813,1.8416506,0.7886391,0.039998528,0.039997987,-7.1358685,2.000847578048706,6.4380393,0.10557994,-0.12316503375768661,-0.019030808
2746.266666674024,-0.31498063,-1.341685,-0.5644496,-2.334273,-0.39656955,1.8424112,0.7886469,0.03999857,0.039998036,-7.123446,2.010756492614746,6.4490347,0.103727,-0.12111537903547287,-0.018777862
2746.2833333406907,-0.31584772,-1.3432235,-0.56600326,-2.3342104,-0.39766222,1.843159,0.7886544,0.03999861,0.039998088,-7.111186,2.0204858779907227,6.45975,0.101873435,-0.11906536668539047,-0.01852314
2746.3000000073575,-0.31669977,-1.3447351,-0.56753045,-2.334149,-0.398736,1.8438935,0.7886619,0.039998643,0.03999813,-7.0994744,2.029082775115967,6.469903,0.10002252,-0.11701248586177826,-0.01826515
2746.3166666740244,-0.31753677,-1.3462203,-0.5690308,-2.3340886,-0.3997908,1.8446152,0.7886694,0.03999868,0.039998177,-7.087289,2.0394227504730225,6.480531,0.09817089,-0.11496417969465256,-0.01800566
2746.3333333406913,-0.3183588,-1.3476789,-0.5705043,-2.33403,-0.40082663,1.8453242,0.78867596,0.039998718,0.039998222,-7.0757055,2.048621654510498,6.490597,0.09632063,-0.11291936784982681,-0.017746674
2746.350000007358,-0.31916577,-1.3491111,-0.57195085,-2.333972,-0.40184364,1.8460202,0.7886823,0.039998755,0.03999827,-7.0643606,2.0576374530792236,6.5004435,0.09447698,-0.11087801307439804,-0.017486067
2746.366666674025,-0.31995776,-1.3505167,-0.57337046,-2.3339152,-0.4028418,1.8467033,0.78868854,0.03999879,0.03999831,-7.0535164,2.0656015872955322,6.509699,0.092636384,-0.10883757472038269,-0.01722553
2746.383333340692,-0.3207347,-1.3518957,-0.5747631,-2.3338594,-0.40382093,1.8473732,0.7886948,0.039998822,0.039998356,-7.0420823,2.0752227306365967,6.5194097,0.09079857,-0.10680042207241058,-0.01696192
2746.400000007359,-0.3214965,-1.3532482,-0.5761291,-2.3338044,-0.40478122,1.8480304,0.788701,0.03999885,0.039998394,-7.0313106,2.0837371349334717,6.5285773,0.08896387,-0.10476838797330856,-0.01669835
2746.4166666740257,-0.3222433,-1.3545742,-0.5774679,-2.3337507,-0.4057226,1.8486747,0.78870714,0.039998885,0.03999844,-7.021082,2.0912258625030518,6.537164,0.08713172,-0.10273830592632294,-0.016435826
2746.4333333406926,-0.32297528,-1.3558737,-0.57878006,-2.3336983,-0.4066451,1.8493059,0.7887131,0.039998915,0.039998475,-7.010339,2.1002492904663086,6.546228,0.085305765,-0.10071490705013275,-0.01617206
2746.4500000073594,-0.3236923,-1.3571465,-0.58006525,-2.3336463,-0.40754876,1.8499243,0.78871906,0.039998956,0.039998528,-7.0001926,2.1082887649536133,6.5547633,0.083483785,-0.09869852662086487,-0.015906785
2746.4666666740263,-0.3243943,-1.3583927,-0.5813238,-2.3335953,-0.4084336,1.8505299,0.78872496,0.039998993,0.039998572,-6.990154,2.11613392829895,6.5630107,0.08166636,-0.09668497741222382,-0.015640305
2746.483333340693,-0.32508138,-1.3596126,-0.58255565,-2.3335457,-0.4092996,1.8511225,0.78873086,0.039999034,0.03999862,-6.980839,2.122886896133423,6.5707636,0.079854555,-0.09467927366495132,-0.015375204
2746.50000000736,-0.32575357,-1.3608063,-0.58376074,-2.3334975,-0.41014692,1.8517025,0.78873676,0.039999083,0.03999868,-6.9709325,2.131251096725464,6.578979,0.078049205,-0.09268252551555634,-0.015109822
2746.516666674027,-0.32641098,-1.361974,-0.58493924,-2.3334506,-0.4109755,1.8522695,0.78874254,0.03999912,0.03999873,-6.9615865,2.1385574340820312,6.5866575,0.07625039,-0.0906917005777359,-0.01484356
2746.533333340694,-0.32705358,-1.3631152,-0.58609134,-2.3334053,-0.41178548,1.8528237,0.78874826,0.039999157,0.039998773,-6.952511,2.1456613540649414,6.5941424,0.074459866,-0.08871103078126907,-0.014578147
2746.5500000073607,-0.32768127,-1.3642299,-0.587217,-2.33336,-0.41257688,1.8533654,0.788754,0.03999919,0.039998814,-6.944086,2.15170955657959,6.601067,0.072677344,-0.0867433100938797,-0.014312706
2746.5666666740276,-0.32829437,-1.3653188,-0.5883163,-2.3333158,-0.41334975,1.8538941,0.78875965,0.039999224,0.039998855,-6.9349146,2.1593945026397705,6.6084137,0.07090204,-0.08478149026632309,-0.014046964
2746.5833333406945,-0.32889286,-1.3663815,-0.58938956,-2.3332725,-0.41410425,1.8544105,0.7887649,0.03999926,0.039998904,-6.9264226,2.166015863418579,6.615285,0.06913489,-0.0828307643532753,-0.0137825
2746.6000000073614,-0.32947677,-1.3674184,-0.59043664,-2.3332303,-0.4148403,1.854914,0.78876936,0.03999929,0.03999894,-6.9181023,2.172466278076172,6.6219287,0.06737765,-0.08088801801204681,-0.013517212
2746.6166666740282,-0.33004615,-1.36843,-0.59145755,-2.3331892,-0.41555807,1.8554054,0.7887738,0.03999932,0.039998975,-6.9104776,2.1778078079223633,6.628085,0.06563389,-0.07896018773317337,-0.013251856
2746.633333340695,-0.33060116,-1.3694158,-0.59245265,-2.3331497,-0.41625768,1.8558843,0.78877807,0.039999355,0.039999016,-6.90215,2.1847453117370605,6.634704,0.063900895,-0.0770387127995491,-0.012989044
2746.650000007362,-0.3311418,-1.3703762,-0.59342206,-2.333111,-0.4169392,1.8563505,0.7887824,0.039999396,0.039999064,-6.8945756,2.19061279296875,6.6408057,0.06217933,-0.07513408362865448,-0.012726224
2746.666666674029,-0.3316682,-1.3713114,-0.59436595,-2.333073,-0.41760275,1.8568046,0.78878665,0.039999425,0.0399991,-6.8875027,2.1954710483551025,6.6464024,0.06046844,-0.07324249297380447,-0.012463905
2746.6833333406958,-0.33218035,-1.3722215,-0.59528434,-2.3330355,-0.4182484,1.8572465,0.7887908,0.039999463,0.039999146,-6.8797936,2.2019193172454834,6.6524205,0.058767755,-0.0713609978556633,-0.012203388
2746.7000000073626,-0.33267847,-1.3731064,-0.5961774,-2.3329992,-0.41887626,1.8576761,0.78879493,0.039999492,0.039999183,-6.8727202,2.2072761058807373,6.657963,0.057079952,-0.069492407143116,-0.011944124
2746.7166666740295,-0.3331625,-1.3739663,-0.5970454,-2.3329644,-0.41948655,1.8580936,0.78879905,0.039999522,0.039999217,-6.8659005,2.2124595642089844,6.6633267,0.055404816,-0.06763961166143417,-0.011685825
2746.7333333406964,-0.33363265,-1.3748018,-0.5978886,-2.3329303,-0.42007932,1.8584992,0.7888031,0.03999957,0.039999273,-6.859723,2.2166035175323486,6.668202,0.05374447,-0.06580572575330734,-0.01142778
2746.7500000073633,-0.334089,-1.3756129,-0.5987076,-2.332898,-0.42065474,1.8588928,0.78880715,0.039999597,0.039999302,-6.8528466,2.2223196029663086,6.6735115,0.052096643,-0.0639844462275505,-0.01117248
2746.76666667403,-0.33453172,-1.3763996,-0.5995017,-2.332866,-0.4212129,1.8592749,0.788811,0.039999634,0.039999347,-6.8467607,2.2270169258117676,6.6784062,0.0504624,-0.06218455359339714,-0.010920809
2746.783333340697,-0.33496085,-1.3771621,-0.6002714,-2.3328342,-0.42175403,1.8596451,0.78881466,0.03999967,0.03999939,-6.840599,2.231515645980835,6.6830235,0.048844192,-0.06039709225296974,-0.010668298
2746.800000007364,-0.33537644,-1.377901,-0.60101694,-2.3328035,-0.4222782,1.8600036,0.7888181,0.039999697,0.039999418,-6.8350587,2.2350378036499023,6.687178,0.04724194,-0.058625686913728714,-0.010417671
2746.816666674031,-0.33577877,-1.378616,-0.6017386,-2.3327737,-0.42278552,1.8603507,0.78882164,0.039999712,0.039999444,-6.8290606,2.2400054931640625,6.691839,0.04565671,-0.05687341466546059,-0.010169764
2746.8333333406977,-0.33616805,-1.379308,-0.60243654,-2.3327456,-0.42327625,1.8606863,0.788825,0.039999742,0.03999948,-6.823605,2.243973970413208,6.6959853,0.044087682,-0.055139120668172836,-0.009924508
2746.8500000073645,-0.33654404,-1.3799771,-0.60311127,-2.3327184,-0.42375064,1.8610108,0.7888283,0.03999977,0.03999951,-6.8184133,2.2477786540985107,6.70005,0.04253751,-0.053427260369062424,-0.009681495
2746.8666666740314,-0.33690718,-1.3806231,-0.6037628,-2.3326924,-0.4242087,1.8613242,0.78883165,0.039999805,0.039999556,-6.8136573,2.250661849975586,6.703597,0.041005272,-0.05173312500119209,-0.009444007
2746.8833333406983,-0.3372577,-1.381246,-0.6043914,-2.3326674,-0.42465076,1.8616265,0.78883463,0.039999843,0.03999961,-6.808541,2.254857301712036,6.7075853,0.039492182,-0.05006382614374161,-0.009212175
2746.900000007365,-0.33759552,-1.3818467,-0.60499746,-2.3326426,-0.4250769,1.8619182,0.7888375,0.03999988,0.039999682,-6.8038664,2.2581326961517334,6.7111006,0.03799995,-0.0484168566763401,-0.008988014
2746.916666674032,-0.337921,-1.3824257,-0.60558116,-2.3326185,-0.4254874,1.862199,0.78884035,0.039999906,0.03999975,-6.799604,2.260582447052002,6.714176,0.036526248,-0.046788208186626434,-0.008767979
2746.933333340699,-0.3382342,-1.3829829,-0.6061431,-2.3325953,-0.4258824,1.8624693,0.7888432,0.039999932,0.039999835,-6.7949057,2.264321804046631,6.7177224,0.03507236,-0.04518074542284012,-0.008557405
2746.950000007366,-0.3385353,-1.3835188,-0.60668343,-2.332573,-0.4262622,1.8627294,0.7888459,0.03999995,0.039999906,-6.790808,2.267198324203491,6.7208247,0.033638448,-0.04359690472483635,-0.008344851
2746.9666666740327,-0.33882445,-1.3840332,-0.6072021,-2.332552,-0.42662695,1.8629789,0.7888483,0.039999958,0.04,-6.7867775,2.269904613494873,6.723767,0.03222532,-0.04203420504927635,-0.0081381
2746.9833333406996,-0.33910188,-1.3845268,-0.60769993,-2.3325322,-0.42697677,1.8632183,0.7888505,0.039999954,0.04,-6.7834077,2.2717227935791016,6.7263074,0.030838324,-0.04050235077738762,-0.007915667
2747.0000000073665,-0.33936778,-1.3850001,-0.60817707,-2.3325138,-0.4273121,1.8634478,0.7888524,0.039999954,0.04,-6.7795553,2.274791717529297,6.729268,0.029474782,-0.03899743780493736,-0.0076969555
2747.0166666740333,-0.33962232,-1.3854531,-0.6086339,-2.3324962,-0.4276332,1.8636676,0.78885406,0.03999995,0.04,-6.7761946,2.276973247528076,6.7318063,0.028136631,-0.037520479410886765,-0.0074826777
2747.0333333407,-0.3398657,-1.3858861,-0.6090707,-2.3324785,-0.42794022,1.8638777,0.78885573,0.039999943,0.04,-6.77295,2.279026985168457,6.734186,0.026823724,-0.036069970577955246,-0.0072716647
2747.050000007367,-0.34009814,-1.3863,-0.6094878,-2.3324609,-0.42823344,1.8640783,0.7888574,0.039999936,0.04,-6.7700496,2.280320644378662,6.7361712,0.02553337,-0.03464539349079132,-0.007065779
2747.066666674034,-0.34031984,-1.3866949,-0.6098857,-2.3324437,-0.42851305,1.8642696,0.78885907,0.039999925,0.04,-6.7666802,2.282799243927002,6.738542,0.024267025,-0.033243633806705475,-0.0068614767
2747.083333340701,-0.340531,-1.387071,-0.6102648,-2.3324275,-0.42877948,1.864452,0.7888607,0.03999992,0.04,-6.763896,2.284425735473633,6.74057,0.02302576,-0.031870391219854355,-0.006663063
2747.1000000073677,-0.34073177,-1.3874288,-0.6106253,-2.3324122,-0.42903292,1.8646256,0.7888623,0.03999991,0.04,-6.761304,2.285897970199585,6.7424464,0.021811858,-0.030527213588356972,-0.006467325
2747.1166666740346,-0.34092256,-1.3877686,-0.6109679,-2.332398,-0.42927366,1.8647904,0.78886384,0.039999906,0.04,-6.759143,2.28659725189209,6.7439804,0.020625861,-0.0292161013931036,-0.006276685
2747.1333333407015,-0.3411035,-1.3880911,-0.61129266,-2.332385,-0.42950207,1.8649466,0.7888653,0.0399999,0.04,-6.7566047,2.2883949279785156,6.7458735,0.019468453,-0.02793695405125618,-0.0060894634
2747.1500000073684,-0.3412749,-1.3883964,-0.6116004,-2.3323734,-0.4297184,1.8650948,0.7888668,0.03999989,0.04,-6.754509,2.289409637451172,6.7474265,0.018341117,-0.026692645624279976,-0.0059079477
2747.1666666740352,-0.34143692,-1.3886855,-0.6118913,-2.332363,-0.42992294,1.8652347,0.7888682,0.039999887,0.04,-6.752851,2.289743185043335,6.7486343,0.017243812,-0.025484060868620872,-0.005729938
2747.183333340702,-0.34158987,-1.3889583,-0.612166,-2.3323524,-0.43011606,1.8653667,0.78886956,0.039999876,0.04,-6.750784,2.2910776138305664,6.7501836,0.016177945,-0.024309951812028885,-0.0055567455
2747.200000007369,-0.34173393,-1.3892157,-0.61242485,-2.3323424,-0.43029797,1.865491,0.78887093,0.03999987,0.04,-6.7490106,2.291767120361328,6.7513676,0.015141843,-0.023168524727225304,-0.005390069
2747.216666674036,-0.3418694,-1.3894576,-0.6126684,-2.3323324,-0.43046921,1.8656081,0.78887224,0.039999865,0.04,-6.7473845,2.2923154830932617,6.752462,0.014137004,-0.02206098660826683,-0.005229308
2747.2333333407028,-0.3419967,-1.3896847,-0.61289716,-2.3323226,-0.43062994,1.865718,0.78887355,0.039999858,0.04,-6.74608,2.292288303375244,6.753228,0.013162787,-0.020987505093216896,-0.005071122
2747.2500000073696,-0.34211597,-1.3898973,-0.61311156,-2.3323128,-0.4307806,1.8658212,0.78887486,0.039999854,0.04,-6.7444997,2.293105125427246,6.7543097,0.01222075,-0.019948728382587433,-0.004917305
2747.2666666740365,-0.34222752,-1.3900967,-0.6133121,-2.3323038,-0.43092155,1.8659178,0.78887606,0.039999854,0.04,-6.743245,2.2933084964752197,6.755084,0.011311333,-0.01894552819430828,-0.004769306
2747.2833333407034,-0.34233165,-1.3902826,-0.6134994,-2.3322954,-0.4310531,1.8660079,0.78887725,0.039999843,0.04,-6.7421184,2.2933948040008545,6.7558203,0.010436602,-0.017979098483920097,-0.004627179
2747.3000000073703,-0.3424287,-1.3904561,-0.61367387,-2.332288,-0.43117577,1.8660915,0.7888784,0.039999843,0.04,-6.74139,2.2928919792175293,6.7562966,0.009597433,-0.017053740099072456,-0.004493534
2747.316666674037,-0.34251884,-1.3906175,-0.61383617,-2.332281,-0.43128976,1.8661698,0.7888795,0.039999835,0.04,-6.740375,2.2931745052337646,6.757021,0.008794868,-0.01617044024169445,-0.004360811
2747.333333340704,-0.3426025,-1.390767,-0.6139868,-2.3322754,-0.43139568,1.866242,0.7888806,0.039999835,0.04,-6.7396264,2.292898416519165,6.757472,0.008029069,-0.015325374901294708,-0.00423962
2747.350000007371,-0.34267998,-1.3909057,-0.61412627,-2.3322701,-0.43149376,1.8663093,0.78888136,0.03999983,0.04,-6.739118,2.292506456375122,6.75786,0.0073024817,-0.01452849991619587,-0.004120088
2747.366666674038,-0.34275162,-1.3910341,-0.61425525,-2.3322656,-0.43158445,1.8663716,0.78888196,0.03999983,0.04,-6.7386622,2.2916955947875977,6.7580376,0.0066151763,-0.013770400546491146,-0.0040098904
2747.3833333407047,-0.3428177,-1.3911524,-0.6143745,-2.3322623,-0.43166807,1.8664287,0.78888243,0.039999828,0.04,-6.738118,2.291501998901367,6.7584033,0.0059677996,-0.01305609755218029,-0.0039017
2747.4000000073715,-0.3428786,-1.3912616,-0.61448425,-2.332259,-0.43174514,1.8664814,0.78888285,0.039999824,0.04,-6.737893,2.2908082008361816,6.7585883,0.0053612264,-0.012392064556479454,-0.0038056492
2747.4166666740384,-0.3429346,-1.391362,-0.61458534,-2.3322558,-0.43181622,1.8665301,0.7888832,0.03999982,0.04,-6.737676,2.289785623550415,6.7585597,0.004795661,-0.01177024096250534,-0.0037153296
2747.4333333407053,-0.34298614,-1.3914539,-0.6146785,-2.3322527,-0.43188158,1.8665749,0.7888835,0.039999813,0.04,-6.7373757,2.289276361465454,6.7586837,0.0042714826,-0.011193793267011642,-0.0036304004
2747.450000007372,-0.34303358,-1.3915384,-0.61476415,-2.3322496,-0.43194172,1.8666162,0.78888375,0.039999813,0.04,-6.7372584,2.2884292602539062,6.7586336,0.0037879115,-0.010663317516446114,-0.0035507244
2747.466666674039,-0.3430772,-1.391617,-0.61484236,-2.3322465,-0.4319971,1.8666545,0.7888839,0.03999981,0.04,-6.737105,2.287602663040161,6.758602,0.0033429298,-0.010173921473324299,-0.0034791112
2747.483333340706,-0.3431173,-1.3916895,-0.61491454,-2.3322434,-0.43204802,1.8666892,0.78888404,0.039999805,0.04,-6.7369523,2.286613941192627,6.758513,0.0029353017,-0.009717493318021297,-0.0034111391
2747.500000007373,-0.34315413,-1.3917556,-0.61498094,-2.3322403,-0.43209484,1.8667209,0.7888841,0.039999805,0.04,-6.736738,2.2861766815185547,6.7586045,0.0025591298,-0.009297840297222137,-0.003349823
2747.5166666740397,-0.34318802,-1.3918167,-0.6150419,-2.3322372,-0.43213797,1.866751,0.78888416,0.0399998,0.04,-6.736706,2.2855241298675537,6.758553,0.002213335,-0.008915197104215622,-0.0032921704
2747.5333333407066,-0.34321922,-1.3918735,-0.6150986,-2.3322344,-0.43217763,1.866778,0.7888842,0.039999798,0.04,-6.736529,2.284942865371704,6.7585244,0.0018950447,-0.008556022308766842,-0.0032403308
2747.5500000073735,-0.34324792,-1.3919258,-0.6151506,-2.3322315,-0.43221417,1.8668029,0.7888842,0.039999798,0.04,-6.7365255,2.2843377590179443,6.758516,0.0015996338,-0.008227034471929073,-0.0031937552
2747.5666666740403,-0.34327433,-1.391974,-0.6151983,-2.332229,-0.4322478,1.866826,0.7888842,0.039999798,0.04,-6.7363462,2.2839772701263428,6.7585583,0.0013283717,-0.007922696880996227,-0.0031515588
2747.583333340707,-0.34329852,-1.3920184,-0.61524224,-2.3322263,-0.43227875,1.8668472,0.7888842,0.039999798,0.04,-6.73628,2.2835168838500977,6.7585506,0.0010791353,-0.00764140160754323,-0.0031116346
2747.600000007374,-0.3433207,-1.3920593,-0.6152827,-2.3322237,-0.43230718,1.8668665,0.7888842,0.039999798,0.04,-6.736191,2.2831039428710938,6.7585497,0.00084965094,-0.0073821209371089935,-0.0030751606
2747.616666674041,-0.34334123,-1.3920966,-0.61531985,-2.332221,-0.4323334,1.8668853,0.7888842,0.0399998,0.04,-6.7361794,2.2826106548309326,6.7585015,0.0006381576,-0.0071435002610087395,-0.0030432004
2747.633333340708,-0.34336013,-1.3921305,-0.61535424,-2.3322184,-0.43235743,1.8669009,0.7888842,0.039999798,0.04,-6.7360425,2.2823734283447266,6.7585,0.00044344112,-0.006919237319380045,-0.0030090674
2747.6500000073747,-0.34337732,-1.392161,-0.6153857,-2.332216,-0.43237948,1.8669164,0.78888416,0.039999794,0.04,-6.73608,2.2820498943328857,6.7585225,0.00026307843,-0.006721903569996357,-0.0029806786
2747.6666666740416,-0.34339327,-1.3921905,-0.6154147,-2.332214,-0.4323999,1.866931,0.7888842,0.039999798,0.04,-6.7361197,2.281606435775757,6.758419,9.8999866e-05,-0.006538277491927147,-0.0029537773
2747.6833333407085,-0.3434081,-1.3922167,-0.6154414,-2.3322122,-0.43241867,1.8669428,0.78888416,0.039999794,0.04,-6.735939,2.281447649002075,6.7585254,-5.2928994e-05,-0.006363159976899624,-0.0029300242
2747.7000000073754,-0.34342143,-1.3922417,-0.615466,-2.3322105,-0.43243593,1.8669544,0.7888842,0.03999979,0.04,-6.7360063,2.2811801433563232,6.758531,-0.00019279862,-0.006212238222360611,-0.0029069856
2747.7166666740422,-0.3434337,-1.3922639,-0.61548847,-2.3322089,-0.43245187,1.8669661,0.78888416,0.03999979,0.04,-6.7359056,2.2809641361236572,6.7585335,-0.00032143865,-0.006066391244530678,-0.0028878453
2747.733333340709,-0.34344497,-1.3922851,-0.61550933,-2.3322074,-0.43246645,1.8669766,0.7888842,0.039999787,0.04,-6.7359276,2.280646562576294,6.7584457,-0.00043838366,-0.005930829327553511,-0.0028678596
2747.750000007376,-0.34345528,-1.3923037,-0.6155285,-2.3322062,-0.43247992,1.8669846,0.7888842,0.03999979,0.04,-6.7358303,2.280538320541382,6.7585263,-0.00054749264,-0.005804659798741341,-0.0028529568
2747.766666674043,-0.3434651,-1.3923213,-0.61554605,-2.3322053,-0.43249226,1.8669925,0.78888416,0.039999787,0.04,-6.7359633,2.280324935913086,6.7585287,-0.0006466372,-0.00570065900683403,-0.0028354682
2747.7833333407098,-0.3434741,-1.3923367,-0.61556226,-2.3322046,-0.43250367,1.8670003,0.7888842,0.039999787,0.04,-6.7358713,2.2801501750946045,6.758545,-0.00073818373,-0.005600322969257832,-0.0028214534
2747.8000000073766,-0.34348226,-1.3923513,-0.61557716,-2.3322039,-0.4325142,1.8670082,0.78888416,0.039999787,0.04,-6.735958,2.2799317836761475,6.7584686,-0.00082234637,-0.005509596783667803,-0.0028060472
2747.8166666740435,-0.3434896,-1.3923651,-0.6155908,-2.3322034,-0.43252382,1.8670158,0.7888842,0.039999783,0.04,-6.7358665,2.279834747314453,6.758478,-0.0008991369,-0.005421508569270372,-0.0027928988
2747.8333333407104,-0.34349662,-1.392378,-0.61560345,-2.332203,-0.43253267,1.867022,0.7888842,0.039999787,0.04,-6.7358236,2.279691219329834,6.758494,-0.0009694647,-0.005337630398571491,-0.002782261
2747.8500000073773,-0.3435029,-1.3923889,-0.61561507,-2.3322024,-0.43254083,1.8670262,0.7888842,0.03999979,0.04,-6.5786643,2.2556347846984863,6.68933,0.0,-0.0,0.0
2747.866666674044,-0.3435029,-1.3923889,-0.61561507,-2.3322024,-0.43254083,1.8670262,0.7888842,0.03999979,0.04,-6.7367954,2.277273178100586,6.757642,0.0,-0.0,0.0
2747.883333340711,-0.3435029,-1.3923889,-0.61561507,-2.3322024,-0.43254083,1.8670262,0.7888842,0.03999979,0.04,-6.7367954,2.277273178100586,6.757642,0.0,-0.0,0.0
2747.900000007378,-0.3435029,-1.3923889,-0.61561507,-2.3322024,-0.43254083,1.8670262,0.7888842,0.03999979,0.04,-6.7367954,2.277273178100586,6.757642,0.0,-0.0,0.0
2747.916666674045,-0.3435029,-1.3923889,-0.61561507,-2.3322024,-0.43254083,1.8670262,0.7888842,0.03999979,0.04,-6.7367954,2.277273178100586,6.757642,0.0,-0.0,0.0
2747.9333333407117,-0.3435029,-1.3923889,-0.61561507,-2.3322024,-0.43254083,1.8670262,0.7888842,0.03999979,0.04,-6.7367954,2.277273178100586,6.757642,0.0,-0.0,0.0
2747.9500000073785,-0.3435029,-1.3923889,-0.61561507,-2.3322024,-0.43254083,1.8670262,0.7888842,0.03999979,0.04,-6.7367954,2.277273178100586,6.757642,0.0,-0.0,0.0
2747.9666666740454,-0.3435029,-1.3923889,-0.61561507,-2.3322024,-0.43254083,1.8670262,0.7888842,0.03999979,0.04,-6.7367954,2.277273178100586,6.757642,0.0,-0.0,0.0
2747.9833333407123,-0.3435029,-1.3923889,-0.61561507,-2.3322024,-0.43254083,1.8670262,0.7888842,0.03999979,0.04,-6.7367954,2.277273178100586,6.757642,0.0,-0.0,0.0
2748.000000007379,-0.3435029,-1.3923889,-0.61561507,-2.3322024,-0.43254083,1.8670262,0.7888842,0.03999979,0.04,-6.7367954,2.277273178100586,6.757642,0.0,-0.0,0.0
2748.016666674046,-0.3435029,-1.3923889,-0.61561507,-2.3322024,-0.43254083,1.8670262,0.7888842,0.03999979,0.04,-6.7367954,2.277273178100586,6.757642,0.0,-0.0,0.0
2748.033333340713,-0.3435029,-1.3923889,-0.61561507,-2.3322024,-0.43254083,1.8670262,0.7888842,0.03999979,0.04,-6.7367954,2.277273178100586,6.757642,0.0,-0.0,0.0
2748.05000000738,-0.3435029,-1.3923889,-0.61561507,-2.3322024,-0.43254083,1.8670262,0.7888842,0.03999979,0.04,-6.7367954,2.277273178100586,6.757642,0.0,-0.0,0.0
2748.0666666740467,-0.3435029,-1.3923889,-0.61561507,-2.3322024,-0.43254083,1.8670262,0.7888842,0.03999979,0.04,-6.7367954,2.277273178100586,6.757642,0.0,-0.0,0.0
2748.0833333407136,-0.3435029,-1.3923889,-0.61561507,-2.3322024,-0.43254083,1.8670262,0.7888842,0.03999979,0.04,-6.7367954,2.277273178100586,6.757642,0.0,-0.0,0.0
2748.1000000073805,-0.3435029,-1.3923889,-0.61561507,-2.3322024,-0.43254083,1.8670262,0.7888842,0.03999979,0.04,-6.7367954,2.277273178100586,6.757642,0.0,-0.0,0.0
2748.1166666740473,-0.3435029,-1.3923889,-0.61561507,-2.3322024,-0.43254083,1.8670262,0.7888842,0.03999979,0.04,-6.7367954,2.277273178100586,6.757642,0.0,-0.0,0.0
2748.133333340714,-0.3435029,-1.3923889,-0.61561507,-2.3322024,-0.43254083,1.8670262,0.7888842,0.03999979,0.04,-6.7367954,2.277273178100586,6.757642,0.0,-0.0,0.0
2748.150000007381,-0.3435029,-1.3923889,-0.61561507,-2.3322024,-0.43254083,1.8670262,0.7888842,0.03999979,0.04,-6.7367954,2.277273178100586,6.757642,0.0,-0.0,0.0
2748.166666674048,-0.3435029,-1.3923889,-0.61561507,-2.3322024,-0.43254083,1.8670262,0.7888842,0.03999979,0.04,-6.7367954,2.277273178100586,6.757642,0.0,-0.0,0.0
2748.183333340715,-0.3435029,-1.3923889,-0.61561507,-2.3322024,-0.43254083,1.8670262,0.7888842,0.03999979,0.04,-6.7367954,2.277273178100586,6.757642,0.0,-0.0,0.0
2748.2000000073817,-0.3435029,-1.3923889,-0.61561507,-2.3322024,-0.43254083,1.8670262,0.7888842,0.03999979,0.04,-6.7367954,2.277273178100586,6.757642,0.0,-0.0,0.0
2748.2166666740486,-0.3435029,-1.3923889,-0.61561507,-2.3322024,-0.43254083,1.8670262,0.7888842,0.03999979,0.04,-6.7367954,2.277273178100586,6.757642,0.0,-0.0,0.0
2748.2333333407155,-0.3435029,-1.3923889,-0.61561507,-2.3322024,-0.43254083,1.8670262,0.7888842,0.03999979,0.04,-6.7367954,2.277273178100586,6.757642,0.0,-0.0,0.0
2748.2500000073824,-0.3435029,-1.3923889,-0.61561507,-2.3322024,-0.43254083,1.8670262,0.7888842,0.03999979,0.04,-6.7367954,2.277273178100586,6.757642,0.0,-0.0,0.0
2748.2666666740492,-0.3435029,-1.3923889,-0.61561507,-2.3322024,-0.43254083,1.8670262,0.7888842,0.03999979,0.04,-6.7367954,2.277273178100586,6.757642,0.0,-0.0,0.0
2748.283333340716,-0.3435029,-1.3923889,-0.61561507,-2.3322024,-0.43254083,1.8670262,0.7888842,0.03999979,0.04,-6.7367954,2.277273178100586,6.757642,0.0,-0.0,0.0
2748.300000007383,-0.3435029,-1.3923889,-0.61561507,-2.3322024,-0.43254083,1.8670262,0.7888842,0.03999979,0.04,-6.7367954,2.277273178100586,6.757642,0.0,-0.0,0.0
2748.31666667405,-0.3435029,-1.3923889,-0.61561507,-2.3322024,-0.43254083,1.8670262,0.7888842,0.03999979,0.04,-6.7367954,2.277273178100586,6.757642,0.0,-0.0,0.0
2748.3333333407168,-0.3435029,-1.3923889,-0.61561507,-2.3322024,-0.43254083,1.8670262,0.7888842,0.03999979,0.04,-6.7367954,2.277273178100586,6.757642,0.0,-0.0,0.0
2748.3500000073836,-0.3435029,-1.3923889,-0.61561507,-2.3322024,-0.43254083,1.8670262,0.7888842,0.03999979,0.04,-6.7367954,2.277273178100586,6.757642,0.0,-0.0,0.0
2748.3666666740505,-0.3435029,-1.3923889,-0.61561507,-2.3322024,-0.43254083,1.8670262,0.7888842,0.03999979,0.04,-6.7367954,2.277273178100586,6.757642,0.0,-0.0,0.0
2748.3833333407174,-0.3435029,-1.3923889,-0.61561507,-2.3322024,-0.43254083,1.8670262,0.7888842,0.03999979,0.04,-6.7367954,2.277273178100586,6.757642,0.0,-0.0,0.0
2748.4000000073843,-0.3435029,-1.3923889,-0.61561507,-2.3322024,-0.43254083,1.8670262,0.7888842,0.03999979,0.04,-6.7367954,2.277273178100586,6.757642,0.0,-0.0,0.0
2748.416666674051,-0.3435029,-1.3923889,-0.61561507,-2.3322024,-0.43254083,1.8670262,0.7888842,0.03999979,0.04,-6.7367954,2.277273178100586,6.757642,0.0,-0.0,0.0
2748.433333340718,-0.3435029,-1.3923889,-0.61561507,-2.3322024,-0.43254083,1.8670262,0.7888842,0.03999979,0.04,-6.7367954,2.277273178100586,6.757642,0.0,-0.0,0.0
2748.450000007385,-0.3435029,-1.3923889,-0.61561507,-2.3322024,-0.43254083,1.8670262,0.7888842,0.03999979,0.04,-6.7367954,2.277273178100586,6.757642,0.0,-0.0,0.0
2748.466666674052,-0.3435029,-1.3923889,-0.61561507,-2.3322024,-0.43254083,1.8670262,0.7888842,0.03999979,0.04,-6.7367954,2.277273178100586,6.757642,0.0,-0.0,0.0
2748.4833333407187,-0.3435029,-1.3923889,-0.61561507,-2.3322024,-0.43254083,1.8670262,0.7888842,0.03999979,0.04,-6.7367954,2.277273178100586,6.757642,0.0,-0.0,0.0
2748.5000000073856,-0.3435029,-1.3923889,-0.61561507,-2.3322024,-0.43254083,1.8670262,0.7888842,0.03999979,0.04,-6.7367954,2.277273178100586,6.757642,0.0,-0.0,0.0
2748.5166666740524,-0.3435029,-1.3923889,-0.61561507,-2.3322024,-0.43254083,1.8670262,0.7888842,0.03999979,0.04,-6.7367954,2.277273178100586,6.757642,0.0,-0.0,0.0
2748.5333333407193,-0.3435029,-1.3923889,-0.61561507,-2.3322024,-0.43254083,1.8670262,0.7888842,0.03999979,0.04,-6.7367954,2.277273178100586,6.757642,0.0,-0.0,0.0
2748.550000007386,-0.3435029,-1.3923889,-0.61561507,-2.3322024,-0.43254083,1.8670262,0.7888842,0.03999979,0.04,-6.7367954,2.277273178100586,6.757642,0.0,-0.0,0.0
2748.566666674053,-0.3435029,-1.3923889,-0.61561507,-2.3322024,-0.43254083,1.8670262,0.7888842,0.03999979,0.04,-6.7367954,2.277273178100586,6.757642,0.0,-0.0,0.0
2748.58333334072,-0.3435029,-1.3923889,-0.61561507,-2.3322024,-0.43254083,1.8670262,0.7888842,0.03999979,0.04,-6.7367954,2.277273178100586,6.757642,0.0,-0.0,0.0
2748.600000007387,-0.3435029,-1.3923889,-0.61561507,-2.3322024,-0.43254083,1.8670262,0.7888842,0.03999979,0.04,-6.7367954,2.277273178100586,6.757642,0.0,-0.0,0.0
2748.6166666740537,-0.3435029,-1.3923889,-0.61561507,-2.3322024,-0.43254083,1.8670262,0.7888842,0.03999979,0.04,-6.7367954,2.277273178100586,6.757642,0.0,-0.0,0.0
2748.6333333407206,-0.3435029,-1.3923889,-0.61561507,-2.3322024,-0.43254083,1.8670262,0.7888842,0.03999979,0.04,-6.7367954,2.277273178100586,6.757642,0.0,-0.0,0.0
2748.6500000073875,-0.3435029,-1.3923889,-0.61561507,-2.3322024,-0.43254083,1.8670262,0.7888842,0.03999979,0.04,-6.7367954,2.277273178100586,6.757642,0.0,-0.0,0.0
2748.6666666740543,-0.3435029,-1.3923889,-0.61561507,-2.3322024,-0.43254083,1.8670262,0.7888842,0.03999979,0.04,-6.7367954,2.277273178100586,6.757642,0.0,-0.0,0.0
2748.683333340721,-0.3435029,-1.3923889,-0.61561507,-2.3322024,-0.43254083,1.8670262,0.7888842,0.03999979,0.04,-6.7367954,2.277273178100586,6.757642,0.0,-0.0,0.0
2748.700000007388,-0.3435029,-1.3923889,-0.61561507,-2.3322024,-0.43254083,1.8670262,0.7888842,0.03999979,0.04,-6.7367954,2.277273178100586,6.757642,0.0,-0.0,0.0
2748.716666674055,-0.3435029,-1.3923889,-0.61561507,-2.3322024,-0.43254083,1.8670262,0.7888842,0.03999979,0.04,-6.7367954,2.277273178100586,6.757642,0.0,-0.0,0.0
2748.733333340722,-0.3435029,-1.3923889,-0.61561507,-2.3322024,-0.43254083,1.8670262,0.7888842,0.03999979,0.04,-6.7367954,2.277273178100586,6.757642,0.0,-0.0,0.0
2748.7500000073887,-0.3435029,-1.3923889,-0.61561507,-2.3322024,-0.43254083,1.8670262,0.7888842,0.03999979,0.04,-6.7367954,2.277273178100586,6.757642,0.0,-0.0,0.0
2748.7666666740556,-0.3435029,-1.3923889,-0.61561507,-2.3322024,-0.43254083,1.8670262,0.7888842,0.03999979,0.04,-6.7367954,2.277273178100586,6.757642,0.0,-0.0,0.0
2748.7833333407225,-0.3435029,-1.3923889,-0.61561507,-2.3322024,-0.43254083,1.8670262,0.7888842,0.03999979,0.04,-6.7367954,2.277273178100586,6.757642,0.0,-0.0,0.0
2748.8000000073894,-0.3435029,-1.3923889,-0.61561507,-2.3322024,-0.43254083,1.8670262,0.7888842,0.03999979,0.04,-6.7367954,2.277273178100586,6.757642,0.0,-0.0,0.0
2748.8166666740563,-0.3435029,-1.3923889,-0.61561507,-2.3322024,-0.43254083,1.8670262,0.7888842,0.03999979,0.04,-6.7367954,2.277273178100586,6.757642,0.0,-0.0,0.0
2748.833333340723,-0.3435029,-1.3923889,-0.61561507,-2.3322024,-0.43254083,1.8670262,0.7888842,0.03999979,0.04,-6.7367954,2.277273178100586,6.757642,0.0,-0.0,0.0
2748.85000000739,-0.3435029,-1.3923889,-0.61561507,-2.3322024,-0.43254083,1.8670262,0.7888842,0.03999979,0.04,-6.7367954,2.277273178100586,6.757642,0.0,-0.0,0.0
2748.866666674057,-0.3435029,-1.3923889,-0.61561507,-2.3322024,-0.43254083,1.8670262,0.7888842,0.03999979,0.04,-6.7367954,2.277273178100586,6.757642,0.0,-0.0,0.0
2748.8833333407238,-0.3435029,-1.3923889,-0.61561507,-2.3322024,-0.43254083,1.8670262,0.7888842,0.03999979,0.04,-6.7367954,2.277273178100586,6.757642,0.0,-0.0,0.0
2748.9000000073906,-0.3435029,-1.3923889,-0.61561507,-2.3322024,-0.43254083,1.8670262,0.7888842,0.03999979,0.04,-6.7367954,2.277273178100586,6.757642,0.0,-0.0,0.0
2748.9166666740575,-0.3435029,-1.3923889,-0.61561507,-2.3322024,-0.43254083,1.8670262,0.7888842,0.03999979,0.04,-6.7367954,2.277273178100586,6.757642,0.0,-0.0,0.0
2748.9333333407244,-0.3435029,-1.3923889,-0.61561507,-2.3322024,-0.43254083,1.8670262,0.7888842,0.03999979,0.04,-6.7367954,2.277273178100586,6.757642,0.0,-0.0,0.0
2748.9500000073913,-0.3435029,-1.3923889,-0.61561507,-2.3322024,-0.43254083,1.8670262,0.7888842,0.03999979,0.04,-6.7367954,2.277273178100586,6.757642,0.0,-0.0,0.0
2748.966666674058,-0.3435029,-1.3923889,-0.61561507,-2.3322024,-0.43254083,1.8670262,0.7888842,0.03999979,0.04,-6.7367954,2.277273178100586,6.757642,0.0,-0.0,0.0
2748.983333340725,-0.3435029,-1.3923889,-0.61561507,-2.3322024,-0.43254083,1.8670262,0.7888842,0.03999979,0.04,-6.7367954,2.277273178100586,6.757642,0.0,-0.0,0.0
2749.000000007392,-0.3435029,-1.3923889,-0.61561507,-2.3322024,-0.43254083,1.8670262,0.7888842,0.03999979,0.04,-6.7367954,2.277273178100586,6.757642,0.0,-0.0,0.0
2749.016666674059,-0.3435029,-1.3923889,-0.61561507,-2.3322024,-0.43254083,1.8670262,0.7888842,0.03999979,0.04,-6.7367954,2.277273178100586,6.757642,0.0,-0.0,0.0
2749.0333333407257,-0.3435029,-1.3923889,-0.61561507,-2.3322024,-0.43254083,1.8670262,0.7888842,0.03999979,0.04,-6.7367954,2.277273178100586,6.757642,0.0,-0.0,0.0
2749.0500000073926,-0.3435029,-1.3923889,-0.61561507,-2.3322024,-0.43254083,1.8670262,0.7888842,0.03999979,0.04,-6.7367954,2.277273178100586,6.757642,0.0,-0.0,0.0
2749.0666666740594,-0.3435029,-1.3923889,-0.61561507,-2.3322024,-0.43254083,1.8670262,0.7888842,0.03999979,0.04,-6.7367954,2.277273178100586,6.757642,0.0,-0.0,0.0
2749.0833333407263,-0.3435029,-1.3923889,-0.61561507,-2.3322024,-0.43254083,1.8670262,0.7888842,0.03999979,0.04,-6.7367954,2.277273178100586,6.757642,0.0,-0.0,0.0
2749.100000007393,-0.3435029,-1.3923889,-0.61561507,-2.3322024,-0.43254083,1.8670262,0.7888842,0.03999979,0.04,-6.7367954,2.277273178100586,6.757642,0.0,-0.0,0.0
2749.11666667406,-0.3435029,-1.3923889,-0.61561507,-2.3322024,-0.43254083,1.8670262,0.7888842,0.03999979,0.04,-6.7367954,2.277273178100586,6.757642,0.0,-0.0,0.0
2749.133333340727,-0.3435029,-1.3923889,-0.61561507,-2.3322024,-0.43254083,1.8670262,0.7888842,0.03999979,0.04,-6.7367954,2.277273178100586,6.757642,0.0,-0.0,0.0
2749.150000007394,-0.3435029,-1.3923889,-0.61561507,-2.3322024,-0.43254083,1.8670262,0.7888842,0.03999979,0.04,-6.7367954,2.277273178100586,6.757642,0.0,-0.0,0.0
2749.1666666740607,-0.3435029,-1.3923889,-0.61561507,-2.3322024,-0.43254083,1.8670262,0.7888842,0.03999979,0.04,-6.7367954,2.277273178100586,6.757642,0.0,-0.0,0.0
2749.1833333407276,-0.3435029,-1.3923889,-0.61561507,-2.3322024,-0.43254083,1.8670262,0.7888842,0.03999979,0.04,-6.7367954,2.277273178100586,6.757642,0.0,-0.0,0.0
2749.2000000073945,-0.3435029,-1.3923889,-0.61561507,-2.3322024,-0.43254083,1.8670262,0.7888842,0.03999979,0.04,-6.7367954,2.277273178100586,6.757642,0.0,-0.0,0.0
2749.2166666740613,-0.3435029,-1.3923889,-0.61561507,-2.3322024,-0.43254083,1.8670262,0.7888842,0.03999979,0.04,-6.7367954,2.277273178100586,6.757642,0.0,-0.0,0.0
2749.233333340728,-0.3435029,-1.3923889,-0.61561507,-2.3322024,-0.43254083,1.8670262,0.7888842,0.03999979,0.04,-6.7367954,2.277273178100586,6.757642,0.0,-0.0,0.0
2749.250000007395,-0.3435029,-1.3923889,-0.61561507,-2.3322024,-0.43254083,1.8670262,0.7888842,0.03999979,0.04,-6.7367954,2.277273178100586,6.757642,0.0,-0.0,0.0
2749.266666674062,-0.3435029,-1.3923889,-0.61561507,-2.3322024,-0.43254083,1.8670262,0.7888842,0.03999979,0.04,-6.7367954,2.277273178100586,6.757642,0.0,-0.0,0.0
2749.283333340729,-0.3435029,-1.3923889,-0.61561507,-2.3322024,-0.43254083,1.8670262,0.7888842,0.03999979,0.04,-6.7367954,2.277273178100586,6.757642,0.0,-0.0,0.0
2749.3000000073957,-0.3435029,-1.3923889,-0.61561507,-2.3322024,-0.43254083,1.8670262,0.7888842,0.03999979,0.04,-6.7367954,2.277273178100586,6.757642,0.0,-0.0,0.0
2749.3166666740626,-0.3435029,-1.3923889,-0.61561507,-2.3322024,-0.43254083,1.8670262,0.7888842,0.03999979,0.04,-6.7367954,2.277273178100586,6.757642,0.0,-0.0,0.0
2749.3333333407295,-0.3435029,-1.3923889,-0.61561507,-2.3322024,-0.43254083,1.8670262,0.7888842,0.03999979,0.04,-6.7367954,2.277273178100586,6.757642,0.0,-0.0,0.0
2749.3500000073964,-0.3435029,-1.3923889,-0.61561507,-2.3322024,-0.43254083,1.8670262,0.7888842,0.03999979,0.04,-6.7367954,2.277273178100586,6.757642,0.0,-0.0,0.0
2749.3666666740633,-0.3435029,-1.3923889,-0.61561507,-2.3322024,-0.43254083,1.8670262,0.7888842,0.03999979,0.04,-6.7367954,2.277273178100586,6.757642,0.0,-0.0,0.0
2749.38333334073,-0.3435029,-1.3923889,-0.61561507,-2.3322024,-0.43254083,1.8670262,0.7888842,0.03999979,0.04,-6.7367954,2.277273178100586,6.757642,0.0,-0.0,0.0
2749.400000007397,-0.3435029,-1.3923889,-0.61561507,-2.3322024,-0.43254083,1.8670262,0.7888842,0.03999979,0.04,-6.7367954,2.277273178100586,6.757642,0.0,-0.0,0.0
2749.416666674064,-0.3435029,-1.3923889,-0.61561507,-2.3322024,-0.43254083,1.8670262,0.7888842,0.03999979,0.04,-6.7367954,2.277273178100586,6.757642,0.0,-0.0,0.0
2749.4333333407308,-0.3435029,-1.3923889,-0.61561507,-2.3322024,-0.43254083,1.8670262,0.7888842,0.03999979,0.04,-6.7367954,2.277273178100586,6.757642,0.0,-0.0,0.0
2749.4500000073976,-0.3435029,-1.3923889,-0.61561507,-2.3322024,-0.43254083,1.8670262,0.7888842,0.03999979,0.04,-6.7367954,2.277273178100586,6.757642,0.0,-0.0,0.0
