rsonawane2002/My_IMU/logs_2/traj_499/imu_400hz_499.csv
time,j1,j2,j3,j4,j5,j6,j7,gripper1,gripper2,imu_ax,imu_ay,imu_az,imu_gx,imu_gy,imu_gz
0.0,0.00016700293,-0.785875,4.0107683e-05,-2.3551247,9.29385e-05,1.570997,0.786,0.04,0.04,-9.48367,-0.0033851880580186,0.102547675,-2.0950507e-07,-0.0011641273740679,7.095491e-07
0.0025,0.000167002594,-0.7858577740000002,4.010717555000001e-05,-2.35513919,9.294274349999995e-05,1.570996565,0.786,0.04,0.04,-9.53629614999933,-0.0027857405191828726,0.08852328625017858,-7.547554450170658e-08,-0.0013254033285172463,7.521590749994574e-07
0.005,0.000167002258,-0.7858405480000005,4.010666810000002e-05,-2.35515368,9.294698699999989e-05,1.57099613,0.786,0.04,0.04,-9.588922299998659,-0.0021862929803471453,0.07449889750035714,5.855398099658685e-08,-0.001486679282966593,7.947690499989149e-07
0.0075,0.000167001922,-0.7858233220000007,4.010616065000002e-05,-2.35516817,9.295123049999984e-05,1.5709956950000001,0.786,0.04,0.04,-9.64154844999799,-0.001586845441511418,0.06047450875053571,1.9258350649488025e-07,-0.0016479552374159393,8.373790249983723e-07
0.01,0.00016700158600000003,-0.785806096000001,4.0105653200000026e-05,-2.3551826599999997,9.29554739999998e-05,1.5709952600000001,0.786,0.04,0.04,-9.69417459999732,-0.0009873979026756908,0.04645012000071428,3.266130319931737e-07,-0.001809231191865286,8.799889999978297e-07
0.0125,0.00016700125,-0.7857888700000011,4.010514575000004e-05,-2.355197149999999,9.295971749999974e-05,1.570994825,0.786,0.04,0.04,-9.746800749996648,-0.00038795036383996355,0.03242573125089285,4.6064255749146714e-07,-0.001970507146314632,9.225989749972872e-07
0.015,0.00016700091400000003,-0.7857716440000013,4.010463830000004e-05,-2.355211639999999,9.296396099999968e-05,1.57099439,0.786,0.04,0.04,-9.799426899995979,0.0002114971749957637,0.01840134250107142,5.946720829897605e-07,-0.0021317831007639787,9.652089499967446e-07
0.0175,0.00016699878450000051,-0.7857548705000015,4.010054070000101e-05,-2.355225734999999,9.29660535000002e-05,1.57099396,0.786,0.04,0.03999999975,-9.834416750000024,0.000604333149387417,0.008974025865020782,9.487506449292153e-07,-0.002289054810521776,1.054059319983838e-06
0.02,0.0001669930680000006,-0.7857390020000017,4.008926280000115e-05,-2.355239039999999,9.296384400000023e-05,1.5709935400000001,0.786,0.04,0.039999999,-9.834134000000027,0.0005839459947330767,0.008740853460023752,1.7429272799191026e-06,-0.0024383180308934155,1.235390479981529e-06
0.0225,0.00016698735150000066,-0.7857231335000019,4.007798490000129e-05,-2.3552523449999985,9.296163450000026e-05,1.57099312,0.786,0.04,0.03999999825,-9.833851250000032,0.0005635588400787363,0.00850768105502672,2.5371039149089903e-06,-0.002587581251265055,1.41672163997922e-06
0.025,0.00016698163500000073,-0.7857072650000021,4.0066707000001436e-05,-2.3552656499999984,9.295942500000028e-05,1.5709927000000001,0.786,0.04,0.0399999975,-9.833568500000036,0.0005431716854243958,0.00827450865002969,3.331280549898879e-06,-0.0027368444716366945,1.5980527999769112e-06
0.0275,0.0001669759185000008,-0.7856913965000023,4.005542910000158e-05,-2.355278954999998,9.295721550000032e-05,1.57099228,0.786,0.04,0.03999999675,-9.833285750000039,0.0005227845307700554,0.008041336245032659,4.125457184888766e-06,-0.002886107692008334,1.7793839599746023e-06
0.03,0.00016697020200000088,-0.7856755280000025,4.004415120000172e-05,-2.355292259999998,9.295500600000035e-05,1.5709918600000001,0.786,0.04,0.039999996,-9.833003000000042,0.0005023973761157151,0.007808163840035628,4.919633819878653e-06,-0.003035370912379973,1.960715119972293e-06
0.0325,0.00016696448550000096,-0.7856596595000027,4.0032873300001865e-05,-2.3553055649999974,9.295279650000037e-05,1.57099144,0.786,0.04,0.03999999525,-9.832720250000046,0.00048201022146137463,0.007574991435038596,5.713810454868542e-06,-0.003184634132751613,2.1420462799699847e-06
0.035,0.00016694898400000327,-0.7856446430000024,4.0002687300006344e-05,-2.355318099999998,9.29358245000039e-05,1.57099101,0.786,0.04,0.0399999955,-9.832433500000045,0.0004484923061745661,0.007365006870031756,7.3825960996628784e-06,-0.0033272831467687654,2.166183120008717e-06
0.0375,0.00016692859000000298,-0.7856300525000022,3.9963047250005764e-05,-2.355330249999998,9.291147125000354e-05,1.5709905750000002,0.786,0.04,0.03999999625,-9.832144750000042,0.0004084090105665079,0.0071666162250288695,9.488686249693523e-06,-0.0034666250576061482,2.111722800007925e-06
0.04,0.00016690819600000267,-0.785615462000002,3.992340720000519e-05,-2.3553423999999983,9.28871180000032e-05,1.5709901400000001,0.786,0.04,0.039999997,-9.831856000000037,0.00036832571495844956,0.006968225580025983,1.1594776399724172e-05,-0.003605966968443531,2.0572624800071325e-06
0.0425,0.00016688780200000238,-0.7856008715000017,3.988376715000461e-05,-2.3553545499999986,9.286276475000283e-05,1.5709897050000001,0.786,0.04,0.03999999775,-9.831567250000033,0.00032824241935039124,0.006769834935023096,1.3700866549754822e-05,-0.003745308879280914,2.00280216000634e-06
0.045,0.0001668674080000021,-0.7855862810000015,3.984412710000404e-05,-2.355366699999999,9.283841150000248e-05,1.57098927,0.786,0.04,0.0399999985,-9.831278500000028,0.000288159123742333,0.006571444290020209,1.5806956699785467e-05,-0.0038846507901182962,1.9483418400055474e-06
0.0475,0.00016684701400000178,-0.7855716905000013,3.980448705000346e-05,-2.355378849999999,9.281405825000212e-05,1.570988835,0.786,0.04,0.03999999925,-9.830989750000025,0.00024807582813427464,0.006373053645017322,1.7913046849816117e-05,-0.0040239927009556795,1.893881520004755e-06
0.05,0.0001668266200000015,-0.7855571000000011,3.9764847000002884e-05,-2.355390999999999,9.278970500000177e-05,1.5709884,0.786,0.04,0.04,-9.83070100000002,0.00020799253252621637,0.006174663000014435,2.0019136999846766e-05,-0.004163334611793062,1.8394212000039624e-06
0.0525,0.00016677783100000552,-0.7855437200000015,3.967151745001052e-05,-2.3554021299999985,9.272665475000711e-05,1.5709879800000002,0.786,0.04,0.04,-9.83052010000002,0.0001488737514658073,0.005956695300024582,2.4003312949550674e-05,-0.004293886874787607,1.8180183750024137e-06
0.055,0.00016672904200000746,-0.7855303400000021,3.957818790001426e-05,-2.3554132599999984,9.266360450000964e-05,1.57098756,0.786,0.04,0.04,-9.830339200000028,8.975497040401305e-05,0.005738727600033304,2.798748889939124e-05,-0.004424439137781512,1.7966155500032701e-06
0.0575,0.00016668025300000942,-0.7855169600000026,3.948485835001799e-05,-2.355424389999998,9.260055425001215e-05,1.5709871400000002,0.786,0.04,0.04,-9.830158300000035,3.063618934221881e-05,0.005520759900042027,3.19716648492318e-05,-0.0045549914007754185,1.7752127250041266e-06
0.06,0.00016663146400001136,-0.7855035800000031,3.9391528800021725e-05,-2.3554355199999972,9.253750400001468e-05,1.57098672,0.786,0.04,0.04,-9.829977400000041,-2.8482591719575278e-05,0.00530279220005075,3.595584079907236e-05,-0.004685543663769324,1.753809900004983e-06
0.0625,0.00016658267500001332,-0.7854902000000037,3.9298199250025464e-05,-2.3554466499999966,9.24744537500172e-05,1.5709863000000002,0.786,0.04,0.04,-9.829796500000048,-8.760137278136952e-05,0.005084824500059472,3.9940016748912926e-05,-0.00481609592676323,1.7324070750058397e-06
0.065,0.00016653388600001526,-0.7854768200000042,3.92048697000292e-05,-2.3554577799999965,9.241140350001973e-05,1.57098588,0.786,0.04,0.04,-9.829615600000055,-0.0001467201538431638,0.004866856800068194,4.392419269875349e-05,-0.004946648189757135,1.7110042500066962e-06
0.0675,0.00016646973550003347,-0.7854638270000043,3.908289390006326e-05,-2.3554685399999964,9.232829100004348e-05,1.570985585,0.786,0.04,0.04,-9.829429900000068,-0.00021003067665529047,0.004658028270067242,4.871733474773765e-05,-0.005074739945077636,1.7501562149434464e-06
0.07,0.00016637486200003727,-0.7854516080000048,3.890362560007043e-05,-2.355478559999996,9.220505400004841e-05,1.57098554,0.786,0.04,0.04,-9.829234600000076,-0.0002817246829808915,0.004467478080074866,5.51284089974811e-05,-0.005197910685043806,1.9104177599370333e-06
0.0725,0.00016627998850004107,-0.7854393890000053,3.8724357300077604e-05,-2.3554885799999954,9.208181700005335e-05,1.570985495,0.786,0.04,0.04,-9.829039300000085,-0.00035341868930649213,0.004276927890082493,6.153948324722451e-05,-0.005321081425009977,2.0706793049306192e-06
0.075,0.00016618511500004487,-0.7854271700000058,3.854508900008478e-05,-2.3554985999999953,9.195858000005828e-05,1.57098545,0.786,0.04,0.04,-9.828844000000093,-0.00042511269563209317,0.004086377700090118,6.795055749696795e-05,-0.005444252164976148,2.230940849924206e-06
0.0775,0.00016609024150004867,-0.7854149510000062,3.8365820700091954e-05,-2.355508619999995,9.183534300006321e-05,1.570985405,0.786,0.04,0.04,-9.8286487000001,-0.0004968067019576941,0.0038958275100977437,7.436163174671141e-05,-0.00556742290494232,2.391202394917793e-06
0.08,0.00016599536800005247,-0.7854027320000068,3.818655240009913e-05,-2.355518639999995,9.171210600006814e-05,1.57098536,0.786,0.04,0.04,-9.82845340000011,-0.0005685007082832952,0.0037052773201053687,8.077270599645485e-05,-0.00569059364490849,2.55146393991138e-06
0.0825,0.00016590049450005627,-0.7853905130000073,3.8007284100106305e-05,-2.3555286599999943,9.158886900007308e-05,1.5709853150000002,0.786,0.04,0.04,-9.828258100000117,-0.0006401947146088962,0.0035147271301129938,8.718378024619831e-05,-0.0058137643848746616,2.711725484904967e-06
0.085,0.00016576075300009675,-0.7853790460000066,3.774509420018116e-05,-2.3555383399999945,9.140708650012592e-05,1.57098535,0.786,0.04,0.04,-9.828063400000117,-0.0007223496562279636,0.0033273027301108896,9.548990749447902e-05,-0.005931469891151714,2.8130473999571312e-06
0.08750000000000001,0.00016559857750009439,-0.7853679550000064,3.7441443500176745e-05,-2.3555478499999944,9.119603125012285e-05,1.570985425,0.786,0.04,0.04,-9.827869000000113,-0.0008097350655080353,0.0031414412251081847,0.0001047435612446137,-0.0060464427805767525,2.884899499958177e-06
0.09,0.00016543640200009205,-0.7853568640000063,3.713779280017233e-05,-2.355557359999995,9.098497600011978e-05,1.5709855,0.786,0.04,0.04,-9.827674600000112,-0.0008971204747881065,0.002955579720105481,0.00011399721499474831,-0.00616141567000179,2.956751599959222e-06
0.0925,0.00016527422650008968,-0.7853457730000061,3.683414210016791e-05,-2.3555668699999948,9.077392075011671e-05,1.5709855750000001,0.786,0.04,0.04,-9.827480200000108,-0.0009845058840681781,0.0027697182151027763,0.00012325086874488298,-0.006276388559426828,3.0286036999602678e-06
0.095,0.00016511205100008732,-0.785334682000006,3.653049140016349e-05,-2.3555763799999947,9.056286550011364e-05,1.5709856500000001,0.786,0.04,0.04,-9.827285800000105,-0.00107189129334825,0.0025838567101000715,0.00013250452249501766,-0.006391361448851866,3.1004557999613134e-06
0.0975,0.00016494987550008495,-0.7853235910000058,3.6226840700159074e-05,-2.355585889999995,9.035181025011057e-05,1.570985725,0.786,0.04,0.04,-9.827091400000102,-0.0011592767026283217,0.002397995205097367,0.0001417581762451523,-0.006506334338276904,3.172307899962359e-06
0.1,0.0001647877000000826,-0.7853125000000056,3.5923190000154656e-05,-2.355595399999995,9.01407550001075e-05,1.5709858,0.786,0.04,0.04,-9.8268970000001,-0.0012466621119083933,0.002212133700094662,0.00015101182999528699,-0.006621307227701942,3.2441599999634047e-06
0.10250000000000001,0.00016453384300013253,-0.7853024950000052,3.545112605024644e-05,-2.3556041149999953,8.98110962501721e-05,1.57098589,0.786,0.04,0.04,-9.826762750000071,-0.0013409799662857517,0.002059409985079729,0.00016351593349347228,-0.0067329070297418095,3.322825009958933e-06
0.105,0.00016427998600013576,-0.7852924900000053,3.497906210025245e-05,-2.355612829999995,8.94814375001763e-05,1.5709859800000001,0.786,0.04,0.04,-9.826628500000073,-0.0014352978206666404,0.0019066862700816744,0.00017602003699331302,-0.006844506831779958,3.401490019957931e-06
0.1075,0.000164026129000139,-0.7852824850000054,3.450699815025846e-05,-2.355621544999995,8.91517787501805e-05,1.57098607,0.786,0.04,0.04,-9.826494250000074,-0.0015296156750475294,0.0017539625550836188,0.0001885241404931538,-0.006956106633818107,3.4801550299569295e-06
0.11,0.00016377227200014223,-0.7852724800000056,3.4034934200264475e-05,-2.355630259999995,8.882212000018469e-05,1.57098616,0.786,0.04,0.04,-9.826360000000076,-0.0016239335294284186,0.0016012388400855632,0.0002010282439929946,-0.0070677064358562565,3.558820039955928e-06
0.1125,0.00016351841500014547,-0.7852624750000057,3.356287025027048e-05,-2.355638974999995,8.849246125018889e-05,1.57098625,0.786,0.04,0.04,-9.826225750000077,-0.0017182513838093078,0.0014485151250875077,0.0002135323474928354,-0.0071793062378944054,3.6374850499549265e-06
0.115,0.00016326455800014868,-0.7852524700000059,3.3090806300276495e-05,-2.3556476899999947,8.816280250019309e-05,1.57098634,0.786,0.04,0.04,-9.826091500000079,-0.001812569238190197,0.0012957914100894523,0.0002260364509926762,-0.0072909060399325544,3.716150059953925e-06
0.11750000000000001,0.00016297106350022307,-0.7852428215000054,3.254628825041258e-05,-2.3556560749999953,8.778157100028988e-05,1.57098644,0.786,0.03999999975,0.04,-9.825975900000048,-0.001914541900553353,0.0011383666998998367,0.00023975928049032897,-0.007401435123691651,3.7570437950207353e-06
0.12,0.00016259829400022783,-0.7852338860000054,3.185686200042136e-05,-2.355663799999995,8.729719400029604e-05,1.57098656,0.786,0.039999999,0.04,-9.825897600000049,-0.002031824178921979,0.0009715399993019616,0.0002559195619901231,-0.007509822770886915,3.722394980021177e-06
0.1225,0.00016222552450023258,-0.7852249505000055,3.116743575043014e-05,-2.355671524999995,8.68128170003022e-05,1.5709866799999999,0.786,0.03999999825,0.04,-9.825819300000049,-0.002149106457290606,0.0008047132987040856,0.0002720798434899174,-0.00761821041808218,3.687746165021618e-06
0.125,0.00016185275500023733,-0.7852160150000057,3.047800950043892e-05,-2.355679249999995,8.632844000030838e-05,1.5709868,0.786,0.0399999975,0.04,-9.82574100000005,-0.0022663887356592326,0.0006378865981062097,0.0002882401249897116,-0.007726598065277445,3.653097350022059e-06
0.1275,0.00016147998550024206,-0.7852070795000058,2.9788583250447698e-05,-2.355686974999995,8.584406300031455e-05,1.57098692,0.786,0.03999999675,0.04,-9.825662700000052,-0.002383671014027859,0.00047105989750833373,0.0003044004064895058,-0.00783498571247271,3.6184485350225e-06
0.13,0.0001611072160002468,-0.7851981440000059,2.9099157000456476e-05,-2.3556946999999946,8.535968600032071e-05,1.57098704,0.786,0.039999996,0.04,-9.825584400000052,-0.002500953292396486,0.0003042331969104578,0.0003205606879893001,-0.007943373359667974,3.583799720022941e-06
0.1325,0.00016073444650025156,-0.7851892085000061,2.8409730750465254e-05,-2.3557024249999947,8.487530900032689e-05,1.57098716,0.786,0.03999999525,0.04,-9.825506100000053,-0.0026182355707651127,0.00013740649631258182,0.00033672096948909435,-0.00805176100686324,3.5491509050233823e-06
0.135,0.00016026255900035853,-0.7851809370000055,2.753978000066022e-05,-2.3557099599999947,8.42631880004648e-05,1.5709872999999999,0.786,0.0399999939,0.039999998,-9.825388600000094,-0.0027359009021082742,-1.3526668501686223e-05,0.0003555066669861808,-0.008157678227799633,3.7828354297470747e-06
0.1375,0.00015974111250036517,-0.7851729975000056,2.6579567000672444e-05,-2.3557173999999947,8.358719500047341e-05,1.5709874499999998,0.786,0.039999992250000005,0.039999995,-9.825251500000096,-0.0028537577599392887,-0.00015651306539986572,0.00037560507248592497,-0.008262360235602815,4.150686624742391e-06
0.14,0.00015921966600037182,-0.7851650580000057,2.561935400068467e-05,-2.355724839999995,8.291120200048201e-05,1.5709875999999998,0.786,0.03999999060000001,0.039999992000000005,-9.825114400000098,-0.0029716146177703033,-0.0002994994622980452,0.0003957034779856691,-0.008367042243405997,4.518537819737708e-06
0.14250000000000002,0.00015869821950037846,-0.7851571185000058,2.4659141000696896e-05,-2.3557322799999945,8.223520900049062e-05,1.5709877499999998,0.786,0.03999998895,0.039999989,-9.8249773000001,-0.0030894714756013178,-0.00044248585919622475,0.0004158018834854132,-0.00847172425120918,4.8863890147330245e-06
0.145,0.0001581767730003851,-0.7851491790000059,2.369892800070913e-05,-2.3557397199999945,8.155921600049923e-05,1.5709878999999998,0.786,0.039999987300000005,0.039999986,-9.824840200000102,-0.003207328333432331,-0.0005854722560944026,0.00043590028898515706,-0.00857640625901236,5.254240209728337e-06
0.1475,0.00015765532650039175,-0.785141239500006,2.2738715000721358e-05,-2.3557471599999946,8.088322300050783e-05,1.5709880499999997,0.786,0.03999998565000001,0.039999983,-9.824703100000104,-0.0033251851912633455,-0.0007284586529925822,0.00045599869448490117,-0.008681088266815542,5.622091404723654e-06
0.15,0.00015713388000039837,-0.7851333000000061,2.1778502000733582e-05,-2.3557545999999943,8.020723000051645e-05,1.5709881999999997,0.786,0.039999984,0.03999998,-9.824566000000106,-0.00344304204909436,-0.0008714450498907616,0.0004760970999846453,-0.008785770274618725,5.98994259971897e-06
0.1525,0.00015643180350054532,-0.7851264255000053,2.0490187701000646e-05,-2.355761184999995,7.929989500070473e-05,1.5709888299999994,0.786,0.0399999834,0.039999979549999995,-9.824546800000016,-0.0035740784717636876,-0.0010077525323941286,0.0005004611499810762,-0.008891509519807791,6.114260919903441e-06
0.155,0.00015572972700055425,-0.7851195510000054,1.920187340101705e-05,-2.355767769999995,7.83925600007163e-05,1.5709894599999994,0.786,0.0399999828,0.0399999791,-9.824527600000016,-0.003705114894443084,-0.001144060014892393,0.000524825199980766,-0.008997248764997665,6.2385792399018585e-06
0.1575,0.00015502765050056318,-0.7851126765000055,1.791355910103345e-05,-2.355774354999995,7.748522500072784e-05,1.5709900899999993,0.786,0.0399999822,0.03999997865,-9.824508400000017,-0.003836151317122481,-0.0012803674973906577,0.0005491892499804559,-0.00910298801018754,6.3628975599002756e-06
0.16,0.00015432557400057214,-0.7851058020000056,1.6625244801049855e-05,-2.355780939999995,7.657789000073939e-05,1.5709907199999995,0.786,0.0399999816,0.0399999782,-9.824489200000016,-0.003967187739801877,-0.0014166749798889223,0.0005735532999801456,-0.009208727255377412,6.487215879898693e-06
0.1625,0.00015362349750058107,-0.7850989275000056,1.5336930501066258e-05,-2.3557875249999944,7.567055500075095e-05,1.5709913499999995,0.786,0.039999981,0.03999997775,-9.824470000000016,-0.004098224162481274,-0.0015529824623871868,0.0005979173499798354,-0.009314466500567286,6.61153419989711e-06
0.165,0.00015292142100059,-0.7850920530000058,1.404861620108266e-05,-2.3557941099999944,7.47632200007625e-05,1.5709919799999994,0.786,0.039999980399999996,0.039999977299999996,-9.824450800000017,-0.004229260585160671,-0.0016892899448854512,0.0006222813999795252,-0.00942020574575716,6.735852519895527e-06
0.1675,0.000152147818500782,-0.785085521500005,1.2630668401430835e-05,-2.355800594999995,7.376452380100786e-05,1.5709926299999994,0.786,0.03999997985,0.039999976799999996,-9.82439120000012,-0.0043581483884582665,-0.0018198286348984798,0.0006481379699753952,-0.009524692781182538,6.864578079882664e-06
0.17,0.00015123116400079367,-0.7850796760000051,1.095345360145219e-05,-2.3558068799999945,7.258310520102291e-05,1.5709933199999995,0.786,0.039999979399999996,0.0399999762,-9.824250800000122,-0.004482738952975845,-0.0019388297398969649,0.0006769795799750279,-0.009626675397069361,7.002118119880913e-06
0.17250000000000001,0.00015031450950080534,-0.7850738305000051,9.276238801473544e-06,-2.3558131649999945,7.140168660103795e-05,1.5709940099999993,0.786,0.03999997895,0.0399999756,-9.824110400000123,-0.004607329517493423,-0.0020578308448954497,0.0007058211899746608,-0.009728658012956182,7.139658159879162e-06
0.17500000000000002,0.000149397855000817,-0.7850679850000052,7.599024001494899e-06,-2.3558194499999945,7.022026800105299e-05,1.5709946999999993,0.786,0.0399999785,0.039999975,-9.823970000000125,-0.004731920082011003,-0.0021768319498939345,0.0007346627999742936,-0.009830640628843004,7.277198199877411e-06
0.1775,0.0001484812005008287,-0.7850621395000054,5.921809201516272e-06,-2.3558257349999945,6.903884940106805e-05,1.5709953899999993,0.786,0.039999978049999996,0.0399999744,-9.823829600000128,-0.0048565106465285795,-0.002295833054892418,0.000763504409973926,-0.009932623244729825,7.414738239875658e-06
0.18,0.00014756454600084036,-0.7850562940000054,4.244594401537627e-06,-2.355832019999994,6.785743080108309e-05,1.5709960799999994,0.786,0.0399999776,0.0399999738,-9.823689200000128,-0.004981101211046159,-0.002414834159890903,0.0007923460199735588,-0.010034605860616646,7.552278279873908e-06
0.1825,0.00014664789150085206,-0.7850504485000055,2.567379601558982e-06,-2.355838304999994,6.667601220109813e-05,1.5709967699999994,0.786,0.03999997715,0.039999973200000004,-9.82354880000013,-0.005105691775563737,-0.002533835264889388,0.0008211876299731916,-0.010136588476503467,7.689818319872156e-06
0.185,0.00014556439000109952,-0.7850453000000046,5.883607020068912e-07,-2.3558440599999946,6.528206140141357e-05,1.5709974799999993,0.786,0.0399999759,0.0399999715,-9.823519299999974,-0.005251494701804325,-0.0026544355098856126,0.0008531888599683586,-0.010239889006963756,7.92540419973183e-06
0.1875,0.0001443974650011144,-0.7850405000000046,-1.5415602479659908e-06,-2.3558495499999945,6.378184450143267e-05,1.5709981999999993,0.786,0.03999997425,0.03999996925,-9.823545249999976,-0.005407903808950984,-0.002775835324884067,0.0008867698999679312,-0.010343848494713547,8.210012999728207e-06
0.19,0.00014323054000112926,-0.7850357000000047,-3.671481197938873e-06,-2.3558550399999945,6.228162760145176e-05,1.5709989199999992,0.786,0.0399999726,0.039999967000000004,-9.823571199999975,-0.005564312916097642,-0.0028972351398825215,0.0009203509399675036,-0.010447807982463338,8.494621799724584e-06
0.1925,0.0001420636150011441,-0.7850309000000047,-5.801402147911754e-06,-2.3558605299999944,6.0781410701470865e-05,1.5709996399999993,0.786,0.03999997095,0.039999964750000006,-9.823597149999975,-0.005720722023244302,-0.0030186349548809756,0.000953931979967076,-0.010551767470213129,8.779230599720961e-06
0.195,0.00014089669000115897,-0.7850261000000048,-7.931323097884638e-06,-2.3558660199999943,5.928119380148997e-05,1.571000359999999,0.786,0.0399999693,0.03999996250000001,-9.823623099999974,-0.00587713113039096,-0.00314003476987943,0.0009875130199666485,-0.010655726957962922,9.063839399717336e-06
0.1975,0.00013972976500117382,-0.7850213000000048,-1.0061244047857519e-05,-2.3558715099999943,5.778097690150907e-05,1.5710010799999992,0.786,0.03999996765,0.03999996025,-9.823649049999974,-0.0060335402375376185,-0.0032614345848778845,0.001021094059966221,-0.010759686445712712,9.348448199713713e-06
0.2,0.00013856284000118868,-0.7850165000000049,-1.21911649978304e-05,-2.3558769999999942,5.6280760001528165e-05,1.5710017999999992,0.786,0.039999966,0.039999958,-9.823674999999973,-0.006189949344684277,-0.0033828343998763386,0.0010546750999657934,-0.010863645933462503,9.63305699971009e-06
0.2025,0.00013710849400149996,-0.7850127410000038,-1.4840204447267882e-05,-2.3558822049999946,5.4414876101924404e-05,1.5710030599999987,0.786,0.039999966,0.039999958,-9.823609300000067,-0.006340300082073979,-0.0034788983899009234,0.0010931464099603221,-0.010967830475312232,9.80520704982245e-06
0.20500000000000002,0.00013565414800151848,-0.7850089820000039,-1.7489243897234157e-05,-2.3558874099999945,5.254899220194816e-05,1.5710043199999986,0.786,0.039999966,0.039999958,-9.823543600000068,-0.006490650819457509,-0.0035749623798997003,0.0011316177199598323,-0.011072015017162191,9.977357099820259e-06
0.20750000000000002,0.000134199802001537,-0.785005223000004,-2.0138283347200428e-05,-2.3558926149999944,5.068310830197192e-05,1.5710055799999987,0.786,0.039999966,0.039999958,-9.82347790000007,-0.006641001556841041,-0.0036710263698984773,0.0011700890299593425,-0.01117619955901215,1.0149507149818067e-05
0.21,0.00013274545600155553,-0.785001464000004,-2.2787322797166672e-05,-2.3558978199999943,4.8817224401995694e-05,1.5710068399999986,0.786,0.039999966,0.039999958,-9.823412200000071,-0.00679135229422457,-0.003767090359897253,0.0012085603399588523,-0.011280384100862108,1.0321657199815874e-05
0.2125,0.00013129111000157405,-0.7849977050000041,-2.5436362247132944e-05,-2.3559030249999946,4.695134050201945e-05,1.5710080999999985,0.786,0.039999966,0.039999958,-9.823346500000072,-0.0069417030316081,-0.00386315434989603,0.0012470316499583625,-0.011384568642712065,1.0493807249813682e-05
0.215,0.00012983676400159255,-0.784993946000004,-2.8085401697099215e-05,-2.3559082299999945,4.508545660204321e-05,1.5710093599999986,0.786,0.039999966,0.039999958,-9.823280800000072,-0.007092053768991631,-0.003959218339894807,0.0012855029599578727,-0.011488753184562025,1.066595729981149e-05
0.2175,0.00012827379900197204,-0.784990558000003,-3.093039794641426e-05,-2.355913274999995,4.308161785252543e-05,1.5710106299999984,0.786,0.0399999662,0.0399999581,-9.82322835000003,-0.0072375280315414925,-0.004051456249906299,0.001325687039951691,-0.011593303922447106,1.0844360499788517e-05
0.22,0.0001264935960019947,-0.784987912000003,-3.416730779637305e-05,-2.3559179999999946,4.0801869402554456e-05,1.5710119199999986,0.786,0.0399999668,0.0399999584,-9.82320240000003,-0.007373249344375585,-0.004136041999905222,0.0013692966599511355,-0.01169858705240607,1.1035269999786087e-05
0.2225,0.0001247133930020174,-0.784985266000003,-3.740421764633184e-05,-2.3559227249999948,3.852212095258348e-05,1.5710132099999985,0.786,0.039999967399999996,0.039999958700000005,-9.82317645000003,-0.007508970657209677,-0.004220627749904145,0.0014129062799505803,-0.011803870182365034,1.1226179499783656e-05
0.225,0.00012293319000204004,-0.7849826200000031,-4.064112749629063e-05,-2.3559274499999945,3.6242372502612506e-05,1.5710144999999984,0.786,0.039999968,0.039999959,-9.82315050000003,-0.007644691970043769,-0.004305213499903068,0.0014565158999500251,-0.011909153312323999,1.1417088999781226e-05
0.2275,0.0001211529870020627,-0.7849799740000031,-4.3878037346249414e-05,-2.3559321749999946,3.396262405264153e-05,1.5710157899999986,0.786,0.0399999686,0.0399999593,-9.823124550000031,-0.00778041328287786,-0.004389799249901991,0.00150012551994947,-0.012014436442282964,1.1607998499778795e-05
0.23,0.00011937278400208537,-0.7849773280000032,-4.71149471962082e-05,-2.3559368999999943,3.1682875602670555e-05,1.5710170799999985,0.786,0.0399999692,0.0399999596,-9.823098600000032,-0.007916134595711952,-0.004474384999900914,0.0015437351399489145,-0.012119719572241928,1.1798907999776365e-05
0.2325,0.00011759258100210803,-0.7849746820000032,-5.035185704616699e-05,-2.3559416249999945,2.940312715269958e-05,1.5710183699999984,0.786,0.0399999698,0.0399999599,-9.82307265000003,-0.008051855908546044,-0.004558970749899837,0.0015873447599483593,-0.012225002702200893,1.1989817499773933e-05
0.23500000000000001,0.0001155687410025681,-0.7849727900000019,-5.402779529533758e-05,-2.355945969999995,2.6814413103283302e-05,1.571020029999998,0.786,0.0399999707,0.0399999606,-9.823072699999985,-0.00821550255620081,-0.004638547799907753,0.001634420099941582,-0.01233200598495208,1.2279685549593839e-05
0.23750000000000002,0.00011342308250259543,-0.7849712750000019,-5.792324774528798e-05,-2.355950124999995,2.4071216253318228e-05,1.5710218749999978,0.786,0.03999997175,0.0399999615,-9.823085749999985,-0.008393111871340585,-0.004715620499906772,0.0016832282999409605,-0.012439869344103975,1.2619032874589517e-05
0.24,0.00011127742400262278,-0.7849697600000018,-6.181870019523835e-05,-2.355954279999995,2.1328019403353188e-05,1.5710237199999977,0.786,0.0399999728,0.0399999624,-9.823098799999984,-0.008570721186480357,-0.00479269319990579,0.0017320364999403386,-0.012547732703255871,1.2958380199585194e-05
0.2425,0.00010913176550265009,-0.784968245000002,-6.571415264518874e-05,-2.355958434999995,1.858482255338811e-05,1.5710255649999978,0.786,0.03999997385,0.0399999633,-9.823111849999984,-0.008748330501620131,-0.004869765899904808,0.0017808446999397173,-0.012655596062407768,1.3297727524580872e-05
0.245,0.00010698610700267741,-0.7849667300000019,-6.960960509513915e-05,-2.355962589999995,1.584162570342304e-05,1.5710274099999977,0.786,0.0399999749,0.039999964199999995,-9.823124899999984,-0.008925939816759904,-0.0049468385999038265,0.0018296528999390957,-0.012763459421559665,1.3637074849576552e-05
0.2475,0.00010484044850270473,-0.7849652150000019,-7.350505754508955e-05,-2.3559667449999946,1.3098428853457966e-05,1.5710292549999976,0.786,0.039999975949999995,0.0399999651,-9.823137949999984,-0.009103549131899678,-0.0050239112999028454,0.0018784610999384743,-0.01287132278071156,1.397642217457223e-05
0.25,0.00010269479000273206,-0.7849637000000019,-7.740050999503996e-05,-2.3559708999999946,1.0355232003492892e-05,1.5710310999999975,0.786,0.039999977,0.039999966,-9.823150999999983,-0.009281158447039452,-0.005100983999901864,0.0019272692999378529,-0.012979186139863458,1.431576949956791e-05
0.2525,0.00010014318350328144,-0.7849633250000005,-8.202685049405042e-05,-2.3559749049999947,7.097527579189488e-06,1.5710331549999972,0.786,0.0399999764,0.0399999651,-9.823124300000034,-0.009445469174322754,-0.005166208979916119,0.0019814381549303375,-0.01308744610273324,1.454437287470601e-05
0.255,9.759157700331391e-05,-0.7849629500000005,-8.665319099399151e-05,-2.355978909999995,3.839823154230965e-06,1.5710352099999971,0.786,0.039999975800000004,0.0399999642,-9.823097600000034,-0.009609779901589122,-0.0052314339599152885,0.002035607009929648,-0.013195706065603526,1.4772976249703099e-05
0.2575,9.50399705033464e-05,-0.7849625750000006,-9.127953149393261e-05,-2.3559829149999945,5.821187292724418e-07,1.5710372649999973,0.786,0.0399999752,0.039999963300000003,-9.823070900000035,-0.00977409062885549,-0.005296658939914458,0.002089775864928958,-0.013303966028473812,1.5001579624700188e-05
0.26,9.248836400337888e-05,-0.7849622000000005,-9.59058719938737e-05,-2.3559869199999945,-2.6755856956860803e-06,1.5710393199999972,0.786,0.0399999746,0.0399999624,-9.823044200000036,-0.009938401356121857,-0.005361883919913628,0.0021439447199282685,-0.013412225991344099,1.5230182999697278e-05
0.2625,8.993675750341137e-05,-0.7849618250000006,-0.0001005322124938148,-2.3559909249999946,-5.933290120644602e-06,1.5710413749999972,0.786,0.039999974,0.0399999615,-9.823017500000034,-0.010102712083388225,-0.005427108899912798,0.002198113574927579,-0.013520485954214385,1.5458786374694365e-05
0.265,8.738515100344386e-05,-0.7849614500000005,-0.0001051585529937559,-2.3559949299999943,-9.190994545603128e-06,1.5710434299999971,0.786,0.0399999734,0.0399999606,-9.822990800000035,-0.010267022810654593,-0.005492333879911967,0.002252282429926889,-0.013628745917084673,1.5687389749691455e-05
0.2675,8.468446250408568e-05,-0.7849614724999989,-0.00011005309049260081,-2.355998779999995,-1.263736626979052e-05,1.5710456099999965,0.786,0.039999973,0.0399999599,-9.822989199999933,-0.010431176423803264,-0.005549480264944156,0.0023082555999188246,-0.013738574413428718,1.5966052999483938e-05
0.27,8.168561000412386e-05,-0.7849622899999988,-0.00011548402199253166,-2.356002319999995,-1.6461072594741837e-05,1.5710480399999966,0.786,0.039999973,0.0399999596,-9.823037799999932,-0.010595015808714617,-0.005590469459943634,0.002367837399918066,-0.013851539976739454,1.6344835999479117e-05
0.2725,7.868675750416204e-05,-0.7849631074999989,-0.00012091495349246252,-2.356005859999995,-2.0284778919693154e-05,1.5710504699999965,0.786,0.039999973,0.0399999593,-9.823086399999932,-0.01075885519362597,-0.0056314586549431125,0.0024274191999173076,-0.01396450554005019,1.6723618999474293e-05
0.275,7.568790500420022e-05,-0.7849639249999989,-0.00012634588499239337,-2.3560093999999947,-2.4108485244644467e-05,1.5710528999999966,0.786,0.039999973,0.039999959,-9.823134999999931,-0.010922694578537324,-0.00567244784994259,0.002487000999916549,-0.014077471103360929,1.7102401999469472e-05
0.2775,7.26890525042384e-05,-0.7849647424999988,-0.00013177681649232422,-2.356012939999995,-2.7932191569595788e-05,1.5710553299999965,0.786,0.039999973,0.039999958700000005,-9.82318359999993,-0.01108653396344868,-0.005713437044942068,0.00254658279991579,-0.014190436666671665,1.748118499946465e-05
0.28,6.969020000427659e-05,-0.7849655599999988,-0.00013720774799225508,-2.3560164799999948,-3.17558978945471e-05,1.5710577599999966,0.786,0.039999973,0.0399999584,-9.82323219999993,-0.011250373348360033,-0.005754426239941547,0.002606164599915032,-0.014303402229982401,1.7859967999459828e-05
0.28250000000000003,6.669134750431478e-05,-0.7849663774999989,-0.00014263867949218593,-2.3560200199999946,-3.557960421949842e-05,1.5710601899999965,0.786,0.039999973,0.0399999581,-9.82328079999993,-0.011414212733271386,-0.005795415434941025,0.0026657463999142732,-0.014416367793293139,1.8238750999455004e-05
0.28500000000000003,6.336639570506298e-05,-0.7849680049999971,-0.00014865587299084032,-2.3560232199999955,-3.9815797693551625e-05,1.5710629999999957,0.786,0.0399999734,0.039999958200000005,-9.823280000000038,-0.01156285963932063,-0.005819645979976991,0.0027290501699054107,-0.014531137607823747,1.8543977799610335e-05
0.28750000000000003,5.987839425510739e-05,-0.784970037499997,-0.00015496619749075997,-2.3560262499999953,-4.425823474349506e-05,1.5710659999999956,0.786,0.039999974,0.0399999585,-9.823254500000038,-0.011703910305889489,-0.00583549719997679,0.002794214924904581,-0.014646809547970149,1.8812426499606918e-05
0.29,5.639039280515188e-05,-0.784972069999997,-0.0001612765219906795,-2.3560292799999956,-4.87006717934384e-05,1.5710689999999956,0.786,0.0399999746,0.0399999588,-9.823229000000037,-0.011844960972458345,-0.0058513484199765875,0.00285937967990375,-0.014762481488116548,1.9080875199603494e-05
0.2925,5.2902391355196286e-05,-0.784974102499997,-0.00016758684649059914,-2.3560323099999954,-5.3143108843381833e-05,1.5710719999999956,0.786,0.039999975199999996,0.0399999591,-9.823203500000037,-0.011986011639027204,-0.005867199639976385,0.0029245444349029204,-0.014878153428262951,1.9349323899600077e-05
0.295,4.9414389905240695e-05,-0.784976134999997,-0.0001738971709905188,-2.3560353399999956,-5.758554589332527e-05,1.5710749999999956,0.786,0.0399999758,0.0399999594,-9.823178000000038,-0.012127062305596063,-0.005883050859976184,0.0029897091899020907,-0.014993825368409354,1.9617772599596657e-05
0.2975,4.5926388455285103e-05,-0.7849781674999969,-0.00018020749549043846,-2.3560383699999954,-6.202798294326871e-05,1.5710779999999953,0.786,0.0399999764,0.039999959700000004,-9.823152500000038,-0.012268112972164923,-0.005898902079975982,0.003054873944901261,-0.015109497308555757,1.988622129959324e-05
0.3,4.243838700532951e-05,-0.7849801999999969,-0.00018651781999035812,-2.3560413999999956,-6.647041999321214e-05,1.5710809999999953,0.786,0.039999977,0.03999996,-9.823127000000039,-0.012409163638733782,-0.0059147532999757795,0.0031200386999004313,-0.015225169248702158,2.0154669999589823e-05
0.3025,3.841881150630258e-05,-0.7849835149999949,-0.000193783252988608,-2.3560443399999955,-7.158468049198097e-05,1.5710845699999945,0.786,0.039999977449999995,0.03999996,-9.823157449999952,-0.012607235414596674,-0.005944025004954103,0.0031907669698891003,-0.015342963905820272,2.056970319934924e-05
0.305,3.439923600646344e-05,-0.7849868299999947,-0.00020104868598831726,-2.3560472799999954,-7.669894099177632e-05,1.5710881399999943,0.786,0.0399999779,0.03999996,-9.823187899999951,-0.012805307190546693,-0.005973296709952931,0.00326149523988627,-0.015460758562941629,2.098473639933263e-05
0.3075,3.0379660506624284e-05,-0.7849901449999945,-0.00020831411898802654,-2.3560502199999953,-8.181320149157166e-05,1.5710917099999941,0.786,0.03999997835,0.03999996,-9.82321834999995,-0.013003378966496712,-0.00600256841495176,0.0033322235098834393,-0.015578553220062984,2.1399769599316024e-05
0.31,2.6360085006785135e-05,-0.7849934599999945,-0.0002155795519877358,-2.356053159999995,-8.692746199136701e-05,1.571095279999994,0.786,0.039999978799999995,0.03999996,-9.823248799999948,-0.01320145074244673,-0.006031840119950589,0.003402951779880609,-0.015696347877184342,2.1814802799299414e-05
0.3125,2.2340509506945985e-05,-0.7849967749999943,-0.00022284498498744505,-2.356056099999995,-9.204172249116235e-05,1.5710988499999938,0.786,0.03999997925,0.03999996,-9.823279249999947,-0.01339952251839675,-0.006061111824949417,0.003473680049877779,-0.015814142534305697,2.2229835999282804e-05
0.315,1.8320934007106836e-05,-0.7850000899999942,-0.0002301104179871543,-2.3560590399999946,-9.71559829909577e-05,1.5711024199999937,0.786,0.039999979699999993,0.03999996,-9.823309699999946,-0.013597594294346767,-0.0060903835299482454,0.0035444083198749483,-0.015931937191427055,2.2644869199266197e-05
0.3175,1.4109905658222607e-05,-0.7850038399999918,-0.0002377196804851495,-2.356061949999995,-0.00010251212248954727,1.571106114999993,0.786,0.03999998,0.0399999599,-9.823348249999903,-0.013787236157495395,-0.00610758685001241,0.003617035304863209,-0.016051167901386772,2.3018644649478678e-05
0.32,9.51597160815575e-06,-0.7850084599999918,-0.0002460166019852702,-2.356064799999995,-0.00010835201998963226,1.571110059999993,0.786,0.03999998,0.0399999596,-9.823402999999903,-0.013960018194905074,-0.006100653400012309,0.0036934597198643214,-0.01617327071704641,2.3309904599482916e-05
0.3225,4.922037558088897e-06,-0.7850130799999919,-0.00025431352348539093,-2.356067649999995,-0.00011419191748971723,1.571114004999993,0.786,0.03999998,0.0399999593,-9.823457749999903,-0.014132800232314753,-0.006093719950012208,0.0037698841348654333,-0.016295373532706044,2.3601164549487154e-05
0.325,3.281035080220431e-07,-0.7850176999999919,-0.0002626104449855117,-2.356070499999995,-0.00012003181498980222,1.571117949999993,0.786,0.03999998,0.039999959,-9.823512499999906,-0.014305582269724433,-0.0060867865000121075,0.0038463085498665456,-0.01641747634836568,2.3892424499491396e-05
0.3275,-4.265830542044814e-06,-0.7850223199999921,-0.00027090736648563245,-2.356073349999995,-0.0001258717124898872,1.5711218949999932,0.786,0.03999998,0.039999958700000005,-9.823567249999906,-0.014478364307134112,-0.006079853050012006,0.003922732964867658,-0.01653957916402532,2.4183684449495635e-05
0.33,-8.859764592111667e-06,-0.7850269399999921,-0.00027920428798575316,-2.356076199999995,-0.0001317116099899722,1.5711258399999932,0.786,0.03999998,0.0399999584,-9.823621999999906,-0.014651146344543793,-0.006072919600011906,0.00399915737986877,-0.016661681979684956,2.4474944399499873e-05
0.3325,-1.3453698642178524e-05,-0.7850315599999922,-0.0002875012094858739,-2.356079049999995,-0.0001375515074900572,1.5711297849999932,0.786,0.03999998,0.0399999581,-9.823676749999908,-0.014823928381953472,-0.006065986150011805,0.004075581794869882,-0.016783784795344592,2.476620434950411e-05
0.335,-1.845926769110831e-05,-0.7850370999999898,-0.0002965370519839526,-2.356081529999996,-0.00014391095098870626,1.5711340699999923,0.786,0.039999980399999996,0.039999958200000005,-9.823741899999881,-0.014996702316853629,-0.006046789200043216,0.004155789139859922,-0.01690963022389077,2.507972999944607e-05
0.3375,-2.367065424104196e-05,-0.7850430999999897,-0.0003059423549838329,-2.356083824999996,-0.000150530167488622,1.5711385249999923,0.786,0.039999981,0.0399999585,-9.823812249999879,-0.015169472200498994,-0.006021460500043539,0.004237887949858877,-0.017037346958894514,2.5404388499441933e-05
0.34,-2.8882040790975607e-05,-0.7850490999999896,-0.00031534765798371314,-2.356086119999996,-0.00015714938398853773,1.571142979999992,0.786,0.0399999816,0.0399999588,-9.823882599999878,-0.015342242084144359,-0.005996131800043861,0.0043199867598578325,-0.017165063693898256,2.57290469994378e-05
0.3425,-3.4093427340909255e-05,-0.7850550999999896,-0.00032475296098359336,-2.356088414999996,-0.00016376860048845343,1.571147434999992,0.786,0.0399999822,0.0399999591,-9.823952949999878,-0.015515011967789726,-0.005970803100044183,0.004402085569856787,-0.017292780428902,2.6053705499433666e-05
0.34500000000000003,-3.9304813890842907e-05,-0.7850610999999894,-0.0003341582639834736,-2.3560907099999957,-0.00017038781698836916,1.5711518899999921,0.786,0.0399999828,0.0399999594,-9.824023299999876,-0.01568778185143509,-0.005945474400044506,0.004484184379855742,-0.017420497163905743,2.6378363999429533e-05
0.34750000000000003,-4.451620044077655e-05,-0.7850670999999894,-0.0003435635669833539,-2.356093004999996,-0.0001770070334882849,1.5711563449999921,0.786,0.0399999834,0.039999959700000004,-9.824093649999876,-0.015860551735080455,-0.0059201457000448285,0.004566283189854696,-0.01754821389890949,2.67030224994254e-05
0.35000000000000003,-4.9727586990710196e-05,-0.7850730999999893,-0.00035296886998323416,-2.356095299999996,-0.0001836262499882006,1.571160799999992,0.786,0.039999984,0.03999996,-9.824163999999874,-0.01603332161872582,-0.005894817000045151,0.004648381999853651,-0.01767593063391323,2.7027680999421267e-05
0.3525,-5.559964043961782e-05,-0.7850805249999868,-0.00036355967998127474,-2.3560972049999966,-0.00019107937798682238,1.5711658249999911,0.786,0.039999984,0.039999961949999996,-9.82413550000005,-0.016171508189046425,-0.005834596800106473,0.004736146159844828,-0.017806612048067005,2.6836773900337537e-05
0.355,-6.147169388970329e-05,-0.785087949999987,-0.00037415048998142887,-2.3560991099999966,-0.00019853250598693084,1.571170849999991,0.786,0.039999984,0.0399999639,-9.82410700000005,-0.01630969475930539,-0.005774376600105597,0.004823910319846104,-0.017937293462226066,2.664586680033476e-05
0.3575,-6.734374733978874e-05,-0.785095374999987,-0.000384741299981583,-2.3561010149999966,-0.0002059856339870393,1.5711758749999911,0.786,0.039999984,0.03999996585,-9.824078500000049,-0.01644788132956435,-0.005714156400104721,0.004911674479847382,-0.018067974876385128,2.645495970033198e-05
0.36,-7.32158007898742e-05,-0.7851027999999872,-0.0003953321099817371,-2.3561029199999965,-0.0002134387619871478,1.5711808999999912,0.786,0.039999984,0.0399999678,-9.82405000000005,-0.01658606789982331,-0.005653936200103844,0.0049994386398486594,-0.01819865629054419,2.62640526003292e-05
0.3625,-7.908785423995965e-05,-0.7851102249999873,-0.00040592291998189125,-2.3561048249999965,-0.00022089188998725625,1.5711859249999913,0.786,0.039999984,0.039999969749999996,-9.824021500000049,-0.01672425447008227,-0.005593716000102967,0.005087202799849936,-0.01832933770470325,2.6073145500326423e-05
0.365,-8.49599076900451e-05,-0.7851176499999875,-0.0004165137299820454,-2.3561067299999965,-0.00022834501798736471,1.5711909499999914,0.786,0.039999984,0.0399999717,-9.823993000000048,-0.016862441040341233,-0.005533495800102092,0.005174966959851214,-0.018460019118862313,2.5882238400323646e-05
0.3675,-9.106663698882765e-05,-0.7851255749999848,-0.0004275254864798614,-2.3561085949999967,-0.00023609400348582966,1.5711961899999902,0.786,0.039999984,0.03999997285,-9.82399559999989,-0.017023813910429383,-0.005476942800083619,0.0052646483498411225,-0.018592038098493843,2.5915590049181334e-05
0.37,-9.764271798856449e-05,-0.7851344999999845,-0.00043937913597938703,-2.356110379999997,-0.0002444347039854959,1.5712018599999902,0.786,0.039999984,0.0399999724,-9.824060399999887,-0.01723155938052766,-0.005427724200085589,0.0053581641998373805,-0.01872673220909059,2.639745919916205e-05
0.3725,-0.00010421879898830133,-0.7851434249999841,-0.0004512327854789127,-2.3561121649999968,-0.0002527754044851621,1.57120752999999,0.786,0.039999984,0.039999971950000004,-9.824125199999884,-0.017439304850625937,-0.005378505600087558,0.005451680049833638,-0.018861426319687343,2.6879328349142768e-05
0.375,-0.00011079487998803818,-0.7851523499999837,-0.0004630864349784384,-2.3561139499999966,-0.0002611161049848284,1.5712131999999897,0.786,0.039999984,0.0399999715,-9.824189999999883,-0.017647050320724215,-0.005329287000089528,0.005545195899829896,-0.01899612043028409,2.7361197499123485e-05
0.3775,-0.00011737096098777503,-0.7851612749999834,-0.00047494008447796404,-2.3561157349999964,-0.0002694568054844946,1.5712188699999894,0.786,0.039999984,0.039999971050000006,-9.82425479999988,-0.01785479579082249,-0.005280068400091498,0.005638711749826154,-0.019130814540880843,2.7843066649104202e-05
0.38,-0.00012394704198751187,-0.785170199999983,-0.0004867937339774897,-2.3561175199999966,-0.0002777975059841608,1.5712245399999893,0.786,0.039999984,0.039999970600000004,-9.824319599999876,-0.01806254126092077,-0.005230849800093467,0.005732227599822412,-0.019265508651477595,2.832493579908492e-05
0.3825,-0.0001305231229872487,-0.7851791249999827,-0.0004986473834770153,-2.3561193049999964,-0.00028613820648382707,1.571230209999989,0.786,0.039999984,0.03999997015,-9.824384399999873,-0.018270286731019044,-0.005181631200095437,0.005825743449818669,-0.019400202762074343,2.8806804949065636e-05
0.385,-0.00013759739998563982,-0.7851890759999794,-0.0005113944169741289,-2.3561210399999966,-0.0002951070089817976,1.5712363099999875,0.786,0.0399999844,0.03999997,-9.824449099999873,-0.018455418571488875,-0.005105748200174939,0.005923067259805428,-0.019538283720338424,2.929717369903012e-05
0.3875,-0.0001449207749855466,-0.7851995399999794,-0.0005245881424739609,-2.3561227499999964,-0.00030438986248167935,1.5712426249999876,0.786,0.039999985,0.03999997,-9.824513749999872,-0.01862924359704514,-0.0050165330001760745,0.006022295049804164,-0.019678058102451042,2.979179224902382e-05
0.39,-0.00015224414998545334,-0.7852100039999792,-0.0005377818679737929,-2.3561244599999966,-0.0003136727159815612,1.5712489399999874,0.786,0.0399999856,0.03999997,-9.824578399999872,-0.018803068622601407,-0.004927317800177211,0.006121522839802901,-0.019817832484563664,3.0286410799017525e-05
0.3925,-0.00015956752498536011,-0.7852204679999791,-0.0005509755934736249,-2.3561261699999965,-0.000322955569481443,1.5712552549999874,0.786,0.0399999862,0.03999997,-9.824643049999871,-0.018976893648157675,-0.004838102600178347,0.006220750629801638,-0.019957606866676282,3.078102934901123e-05
0.395,-0.00016689089998526686,-0.785230931999979,-0.0005641693189734569,-2.3561278799999963,-0.0003322384229813248,1.5712615699999872,0.786,0.0399999868,0.03999997,-9.82470769999987,-0.019150718673713943,-0.004748887400179483,0.006319978419800374,-0.020097381248788904,3.127564789900493e-05
0.3975,-0.00017421427498517364,-0.7852413959999789,-0.0005773630444732889,-2.3561295899999966,-0.0003415212764812066,1.5712678849999873,0.786,0.0399999874,0.03999997,-9.82477234999987,-0.019324543699270207,-0.004659672200180619,0.006419206209799111,-0.020237155630901525,3.1770266448998637e-05
0.4,-0.0001815376499850804,-0.7852518599999787,-0.000590556769973121,-2.3561312999999964,-0.0003508041299810884,1.571274199999987,0.786,0.039999988,0.03999997,-9.824836999999869,-0.019498368724826475,-0.004570457000181755,0.0065184339997978475,-0.020376930013014143,3.226488499899234e-05
0.4025,-0.0001896515474833666,-0.7852639109999753,-0.0006051677344700476,-2.356132739999997,-0.0003610831544789281,1.5712811899999857,0.786,0.0399999883,0.039999972999999994,-9.824910799999849,-0.019674821756418395,-0.00446169558522296,0.0066233871397848474,-0.020522194262296106,3.215066075023416e-05
0.405,-0.0001977654449832633,-0.7852759619999752,-0.0006197786989698616,-2.356134179999997,-0.0003713621789787972,1.5712881799999856,0.786,0.0399999886,0.03999997599999999,-9.824984599999848,-0.019851274788015665,-0.004352934170224344,0.006728340279783511,-0.02066745851158925,3.203643650023562e-05
0.40750000000000003,-0.00020587934248315998,-0.785288012999975,-0.0006343896634696756,-2.356135619999997,-0.0003816412034786663,1.5712951699999855,0.786,0.0399999889,0.039999979,-9.825058399999847,-0.02002772781961294,-0.004244172755225729,0.006833293419782175,-0.020812722760882398,3.192221225023707e-05
0.41000000000000003,-0.00021399323998305667,-0.7853000639999749,-0.0006490006279694896,-2.356137059999997,-0.0003919202279785355,1.5713021599999855,0.786,0.0399999892,0.039999981999999996,-9.825132199999846,-0.020204180851210212,-0.004135411340227114,0.006938246559780838,-0.020957987010175542,3.180798800023852e-05
0.41250000000000003,-0.00022210713748295336,-0.7853121149999747,-0.0006636115924693036,-2.356138499999997,-0.0004021992524784046,1.5713091499999854,0.786,0.0399999895,0.039999984999999995,-9.825205999999845,-0.020380633882807486,-0.004026649925228499,0.007043199699779502,-0.021103251259468686,3.1693763750239975e-05
0.41500000000000004,-0.00023022103498285005,-0.7853241659999746,-0.0006782225569691176,-2.356139939999997,-0.00041247827697827374,1.5713161399999853,0.786,0.039999989799999996,0.03999998799999999,-9.825279799999844,-0.02055708691440476,-0.003917888510229884,0.007148152839778166,-0.02124851550876183,3.157953950024143e-05
0.4175,-0.00023861279898089262,-0.7853367719999708,-0.0006933315599656077,-2.356141279999998,-0.0004231075399758053,1.5713233449999837,0.786,0.03999999,0.0399999895,-9.82533514999996,-0.02071482595030599,-0.003795782535317752,0.007254991319763794,-0.021395385358162006,3.1710645648672214e-05
0.42,-0.0002475602959805346,-0.7853504879999702,-0.0007094366399649632,-2.3561424199999976,-0.00043443727997535196,1.5713309799999835,0.786,0.03999999,0.039999988,-9.82535359999996,-0.02083513699445772,-0.0036469874403237063,0.007365600479759368,-0.021545466407806916,3.2332412598647334e-05
0.4225,-0.00025650779298017653,-0.7853642039999696,-0.0007255417199643186,-2.356143559999998,-0.0004457670199748986,1.571338614999983,0.786,0.03999999,0.0399999865,-9.82537204999996,-0.02095544803860945,-0.003498192345329661,0.007476209639754942,-0.021695547457451825,3.2954179548622453e-05
0.425,-0.0002654552899798185,-0.7853779199999691,-0.0007416467999636742,-2.3561446999999975,-0.0004570967599744452,1.5713462499999828,0.786,0.03999999,0.039999985,-9.825390499999958,-0.021075759082761183,-0.003349397250335615,0.007586818799750515,-0.021845628507096735,3.357594649859757e-05
0.4275,-0.0002744027869794604,-0.7853916359999685,-0.0007577518799630297,-2.3561458399999977,-0.0004684264999739918,1.5713538849999826,0.786,0.03999999,0.0399999835,-9.825408949999957,-0.02119607012691291,-0.0032006021553415693,0.007697427959746089,-0.02199570955674164,3.419771344857269e-05
0.43,-0.00028335028397910236,-0.785405351999968,-0.0007738569599623853,-2.3561469799999974,-0.00047975623997353846,1.5713615199999822,0.786,0.03999999,0.039999982,-9.825427399999958,-0.021316381171064644,-0.003051807060347524,0.007808037119741662,-0.02214579060638655,3.4819480398547805e-05
0.4325,-0.0002922977809787443,-0.7854190679999674,-0.0007899620399617408,-2.3561481199999976,-0.000491085979973085,1.571369154999982,0.786,0.03999999,0.039999980500000004,-9.825445849999957,-0.021436692215216373,-0.002903011965353478,0.007918646279737237,-0.02229587165603146,3.5441247348522925e-05
0.435,-0.00030182958997680513,-0.7854339259999635,-0.0008071141849582669,-2.356149089999998,-0.0005031514239706444,1.57137733999998,0.786,0.0399999898,0.039999977000000006,-9.825510099999795,-0.021620883047070345,-0.0027585929903358145,0.008033051299725402,-0.022449320926895982,3.651178849694261e-05
0.4375,-0.00031165355497721615,-0.7854493549999642,-0.0008247898624590064,-2.356149974999998,-0.0005155847199711646,1.5713857999999805,0.786,0.0399999895,0.03999997250000001,-9.825597249999799,-0.021837013773118797,-0.0026163620753298636,0.008149354249730269,-0.02260445430838841,3.7806716746996786e-05
0.44,-0.00032147751997762717,-0.7854647839999649,-0.0008424655399597459,-2.356150859999998,-0.0005280180159716848,1.5713942599999808,0.786,0.0399999892,0.03999996800000001,-9.825684399999801,-0.02205314449916725,-0.002474131160323913,0.008265657199735134,-0.02275958768988084,3.9101644997050965e-05
0.4425,-0.0003313014849780382,-0.7854802129999655,-0.0008601412174604854,-2.3561517449999982,-0.000540451311972205,1.5714027199999812,0.786,0.0399999889,0.039999963500000006,-9.825771549999805,-0.022269275225215702,-0.0023319002453179626,0.00838196014974,-0.02291472107137327,4.039657324710514e-05
0.445,-0.0003411254499784492,-0.7854956419999661,-0.0008778168949612249,-2.356152629999998,-0.0005528846079727251,1.5714111799999815,0.786,0.0399999886,0.03999995900000001,-9.82585869999981,-0.022485405951264154,-0.0021896693303120117,0.008498263099744866,-0.023069854452865704,4.1691501497159315e-05
0.4475,-0.00035094941497886017,-0.7855110709999669,-0.0008954925724619643,-2.356153514999998,-0.0005653179039732453,1.5714196399999818,0.786,0.0399999883,0.03999995450000001,-9.825945849999814,-0.022701536677312607,-0.002047438415306061,0.008614566049749733,-0.023224987834358134,4.2986429747213494e-05
0.45,-0.0003607733799792712,-0.7855264999999675,-0.0009131682499627039,-2.356154399999998,-0.0005777511999737655,1.5714280999999823,0.786,0.039999988,0.039999950000000006,-9.826032999999816,-0.02291766740336106,-0.0019052075003001107,0.008730868999754598,-0.023380121215850563,4.428135799726767e-05
0.4525,-0.00037151635597719527,-0.7855437049999635,-0.0009324904774589836,-2.3561550449999986,-0.0005913414399711513,1.5714373399999806,0.7860001799999996,0.03999998635,0.03999994700000001,-9.826088349999884,-0.023088728915536795,-0.0017245306913835326,0.008852766649741241,-0.023539854585785298,4.533238729776892e-05
0.455,-0.0003822593319770585,-0.7855609099999633,-0.0009518127049587377,-2.3561556899999987,-0.0006049316799709782,1.5714465799999804,0.7860003599999996,0.039999984700000005,0.03999994400000001,-9.826143699999882,-0.02325979042761743,-0.001543853882385833,0.00897466429973969,-0.02369958795572974,4.638341659775554e-05
0.4575,-0.00039300230797692173,-0.7855781149999631,-0.0009711349324584916,-2.3561563349999983,-0.0006185219199708052,1.5714558199999802,0.7860005399999996,0.03999998305,0.039999941000000004,-9.82619904999988,-0.02343085193969807,-0.0013631770733881334,0.009096561949738137,-0.02385932132567418,4.743444589774216e-05
0.46,-0.00040374528397678496,-0.7855953199999629,-0.0009904571599582456,-2.3561569799999984,-0.0006321121599706322,1.5714650599999802,0.7860007199999995,0.0399999814,0.039999938000000006,-9.82625439999988,-0.023601913451778707,-0.0011825002643904338,0.009218459599736585,-0.024019054695618623,4.8485475197728776e-05
0.4625,-0.00041448825997664814,-0.7856125249999626,-0.0010097793874579996,-2.3561576249999985,-0.0006457023999704592,1.57147429999998,0.7860008999999996,0.039999979750000005,0.03999993500000001,-9.82630974999988,-0.023772974963859342,-0.0010018234553927341,0.009340357249735034,-0.024178788065563065,4.9536504497715394e-05
0.465,-0.00042523123597651137,-0.7856297299999624,-0.0010291016149577537,-2.3561582699999986,-0.0006592926399702861,1.5714835399999798,0.7860010799999996,0.0399999781,0.03999993200000001,-9.82636509999988,-0.02394403647593998,-0.0008211466463950345,0.00946225489973348,-0.024338521435507507,5.058753379770201e-05
0.4675,-0.00043629462647415423,-0.785647554999958,-0.0010489978399535293,-2.3561589049999987,-0.0006732863249673168,1.5714930649999779,0.7860012649999996,0.0399999768,0.0399999295,-9.826407799999961,-0.024096489604307977,-0.0006245317405045637,0.00958573149972036,-0.0244998774487615,5.14684694988059e-05
0.47000000000000003,-0.00044799884597368587,-0.7856666199999571,-0.0010700420599526871,-2.3561595199999985,-0.0006880868999667245,1.5715031599999774,0.7860014599999995,0.0399999762,0.039999928000000004,-9.82642519999996,-0.0242117259648831,-0.00039604064051370724,0.009712365999715292,-0.024664478748666653,5.2009217998784256e-05
0.47250000000000003,-0.0004597030654732175,-0.7856856849999564,-0.001091086279951845,-2.3561601349999983,-0.0007028874749661322,1.571513254999977,0.7860016549999995,0.0399999756,0.039999926500000005,-9.826442599999961,-0.024326962325458223,-0.00016754954052285078,0.009839000499710225,-0.024829080048571806,5.254996649876262e-05
0.47500000000000003,-0.00047140728497274914,-0.7857047499999557,-0.001112130499951003,-2.3561607499999986,-0.0007176880499655399,1.5715233499999766,0.7860018499999996,0.039999975,0.039999925000000006,-9.82645999999996,-0.024442198686033346,6.094155946800568e-05,0.009965634999705158,-0.02499368134847696,5.309071499874098e-05
0.47750000000000004,-0.0004831115044722807,-0.7857238149999548,-0.0011331747199501607,-2.3561613649999984,-0.0007324886249649477,1.5715334449999763,0.7860020449999996,0.0399999744,0.039999923500000006,-9.826477399999959,-0.02455743504660847,0.00028943265945886203,0.01009226949970009,-0.025158282648382112,5.363146349871934e-05
0.48,-0.0004948157239718121,-0.7857428799999541,-0.001154218939949318,-2.356161979999998,-0.0007472891999643551,1.5715435399999758,0.7860022399999995,0.039999973800000005,0.03999992200000001,-9.826494799999958,-0.024672671407183593,0.0005179237594497135,0.01021890399969502,-0.025322883948287262,5.4172211998697686e-05
0.4825,-0.0005065199434713438,-0.7857619449999533,-0.0011752631599484759,-2.3561625949999985,-0.0007620897749637628,1.5715536349999755,0.7860024349999996,0.039999973200000004,0.03999992050000001,-9.826512199999957,-0.024787907767758716,0.00074641485944057,0.010345538499689952,-0.025487485248192415,5.471296049867605e-05
0.485,-0.0005188928849683794,-0.7857822799999478,-0.0011975051299431632,-2.3561631799999985,-0.0007777321999600283,1.5715642899999729,0.7860026449999995,0.0399999737,0.0399999205,-9.8265983999997,-0.02497585453037233,0.0009693278034522475,0.010475829199671237,-0.0256559554483226,5.523345539873001e-05
0.4875,-0.0005316001874678708,-0.785803249999947,-0.0012203459749422492,-2.3561637499999986,-0.0007937955499593855,1.5715752249999724,0.7860028624999995,0.03999997475,0.03999992125,-9.826718999999695,-0.025200156494407926,0.0011894516694434388,0.01060794799966595,-0.025826360098586725,5.574382349870958e-05
0.49,-0.0005443074899673623,-0.7858242199999461,-0.0012431868199413352,-2.3561643199999986,-0.0008098588999587426,1.571586159999972,0.7860030799999995,0.0399999758,0.039999922,-9.82683959999969,-0.02542445845844352,0.00140957553543463,0.010740066799660664,-0.02599676474885085,5.625419159868916e-05
0.4925,-0.0005570147924668538,-0.7858451899999452,-0.0012660276649404212,-2.3561648899999983,-0.0008259222499580999,1.5715970949999716,0.7860032974999994,0.039999976849999994,0.03999992275,-9.826960199999686,-0.025648760422479114,0.0016296994014258215,0.010872185599655377,-0.026167169399114978,5.676455969866874e-05
0.495,-0.0005697220949663454,-0.7858661599999445,-0.0012888685099395072,-2.3561654599999984,-0.000841985599957457,1.571608029999971,0.7860035149999994,0.0399999779,0.0399999235,-9.827080799999681,-0.025873062386514708,0.0018498232674170126,0.011004304399650089,-0.0263375740493791,5.7274927798648314e-05
0.4975,-0.0005824293974658369,-0.7858871299999436,-0.0013117093549385932,-2.3561660299999985,-0.0008580489499568142,1.5716189649999706,0.7860037324999994,0.039999978949999994,0.03999992425,-9.827201399999677,-0.026097364350550302,0.0020699471334082037,0.011136423199644802,-0.026507978699643227,5.778529589862789e-05
0.5,-0.0005951366999653283,-0.7859080999999428,-0.0013345501999376791,-2.356166599999998,-0.0008741122999561715,1.5716298999999703,0.7860039499999995,0.03999998,0.039999925,-9.827321999999672,-0.026321666314585896,0.0022900709993993952,0.011268541999639515,-0.026678383349907353,5.829566399860747e-05
0.5025000000000001,-0.0006088885199626788,-0.7859310349999378,-0.0013592616649329354,-2.3561668549999992,-0.0008914903849528375,1.5716417649999679,0.7860041734999994,0.0399999806,0.03999992575,-9.827408099999767,-0.026488763745420633,0.00255642104927715,0.01140607774962674,-0.026854872982470017,5.8546539899319145e-05
0.505,-0.0006226403399628786,-0.785953969999938,-0.0013839731299332943,-2.3561671099999995,-0.00090886846995309,1.571653629999968,0.7860043969999995,0.0399999812,0.0399999265,-9.827494199999768,-0.02665586117609928,0.0028227710992810204,0.011543613499628739,-0.02703136261504928,5.879741579932279e-05
0.5075000000000001,-0.0006363921599630791,-0.7859769049999384,-0.0014086845949336545,-2.3561673649999992,-0.0009262465549533433,1.5716654949999682,0.7860046204999994,0.0399999818,0.03999992725,-9.82758029999977,-0.026822958606777938,0.0030891211492849024,0.011681149249630743,-0.027207852247628544,5.9048291699326445e-05
0.51,-0.0006501439799632789,-0.7859998399999387,-0.0014333960599340137,-2.3561676199999995,-0.0009436246399535958,1.5716773599999683,0.7860048439999995,0.0399999824,0.039999928,-9.82766639999977,-0.026990056037456585,0.0033554711992887726,0.011818684999632742,-0.027384341880207802,5.9299167599330094e-05
0.5125,-0.0006638957999634787,-0.7860227749999391,-0.0014581075249343726,-2.3561678749999992,-0.0009610027249538482,1.5716892249999685,0.7860050674999994,0.039999983,0.03999992875,-9.827752499999772,-0.027157153468135232,0.003621821249292643,0.01195622074963474,-0.027560831512787064,5.955004349933374e-05
0.515,-0.0006776476199636791,-0.7860457099999394,-0.0014828189899347328,-2.3561681299999995,-0.0009783808099541014,1.5717010899999686,0.7860052909999995,0.0399999836,0.0399999295,-9.827838599999774,-0.02732425089881389,0.0038881712992965252,0.012093756499636746,-0.02773732114536633,5.9800919399337394e-05
0.5175,-0.0006917612649608928,-0.7860693299999342,-0.001508178364929744,-2.35616831,-0.0009962141549505962,1.5717132649999663,0.7860055179999994,0.039999984,0.03999992975,-9.827913249999865,-0.027489731646646524,0.004163416749227635,0.0122330617496235,-0.02791532659855445,6.009472269899932e-05
0.52,-0.0007065985599607042,-0.7860943199999338,-0.0015348335599294051,-2.35616834,-0.001014958019950358,1.571726059999966,0.7860057519999994,0.039999984,0.039999929000000004,-9.827964999999864,-0.027651979028748858,0.004456452999223911,0.012375905999621685,-0.02809636369299619,6.0474380798994494e-05
0.5225,-0.000721435854960515,-0.7861193099999335,-0.0015614887549290652,-2.3561683700000002,-0.001033701884950119,1.571738854999966,0.7860059859999994,0.039999984,0.039999928250000004,-9.828016749999863,-0.027814226410851184,0.004749489249220173,0.012518750249619863,-0.02827740078743793,6.085403889898965e-05
0.525,-0.0007362731499603265,-0.7861442999999332,-0.0015881439499287266,-2.3561684,-0.0010524457499498806,1.5717516499999657,0.7860062199999994,0.039999984,0.039999927500000004,-9.828068499999862,-0.027976473792953517,0.0050425254992164485,0.012661594499618048,-0.028458437881879673,6.123369699898483e-05
0.5275,-0.0007511104449601372,-0.7861692899999329,-0.0016147991449283867,-2.35616843,-0.0010711896149496415,1.5717644449999657,0.7860064539999994,0.039999984,0.039999926750000005,-9.828120249999861,-0.028138721175055843,0.005335561749212712,0.012804438749616226,-0.02863947497632141,6.161335509897999e-05
0.53,-0.0007659477399599486,-0.7861942799999325,-0.0016414543399280478,-2.3561684599999997,-0.0010899334799494033,1.5717772399999654,0.7860066879999994,0.039999984,0.039999926,-9.82817199999986,-0.028300968557158173,0.005628597999208987,0.012947282999614411,-0.028820512070763155,6.199301319897516e-05
0.5325,-0.0007807850349597594,-0.7862192699999323,-0.001668109534927708,-2.35616849,-0.0011086773449491643,1.5717900349999654,0.7860069219999993,0.039999984,0.03999992525,-9.828223749999859,-0.0284632159392605,0.00592163424920525,0.01309012724961259,-0.02900154916520489,6.237267129897032e-05
0.535,-0.0007963729699565028,-0.7862456299999263,-0.0016961087299218758,-2.3561684100000004,-0.0011283655299450664,1.5718034699999626,0.7860071699999993,0.039999984599999996,0.0399999255,-9.828250099999963,-0.028580327331762124,0.00625321839904397,0.013236553199596135,-0.029185761883348576,6.281950509869092e-05
0.5375,-0.0008123362249562991,-0.786272674999926,-0.0017247799249215101,-2.3561682750000004,-0.0011485258749448092,1.5718172249999625,0.7860074249999993,0.0399999855,0.03999992625,-9.828263749999962,-0.028674870729187528,0.006604076499039495,0.013384769999594244,-0.02937156241336263,6.32999267486848e-05
0.54,-0.0008282994799560962,-0.7862997199999257,-0.0017534511199211458,-2.3561681400000003,-0.001168686219944553,1.5718309799999621,0.7860076799999993,0.0399999864,0.039999927,-9.828277399999962,-0.028769414126612936,0.006954934599035036,0.01353298679959236,-0.029557362943376693,6.37803483986787e-05
0.5425,-0.0008442627349558926,-0.7863267649999253,-0.0017821223149207801,-2.3561680050000002,-0.001188846564944296,1.571844734999962,0.7860079349999993,0.0399999873,0.03999992775,-9.828291049999962,-0.02886395752403834,0.007305792699030561,0.01368120359959047,-0.02974316347339075,6.426077004867257e-05
0.545,-0.0008602259899556897,-0.786353809999925,-0.0018107935099204156,-2.35616787,-0.0012090069099440397,1.5718584899999617,0.7860081899999993,0.039999988199999996,0.0399999285,-9.828304699999961,-0.02895850092146375,0.0076566507990261014,0.013829420399588586,-0.029928964003404813,6.474119169866646e-05
0.5475,-0.0008761892449554861,-0.7863808549999246,-0.00183946470492005,-2.3561677350000005,-0.0012291672549437824,1.5718722449999616,0.7860084449999993,0.039999989099999994,0.03999992925,-9.828318349999961,-0.029053044318889155,0.008007508899021626,0.013977637199586695,-0.030114764533418867,6.522161334866033e-05
0.55,-0.0008921524999552832,-0.7864078999999243,-0.0018681358999196856,-2.3561676000000005,-0.0012493275999435262,1.5718859999999613,0.7860086999999993,0.03999999,0.03999993,-9.82833199999996,-0.029147587716314562,0.008358366999017167,0.014125853999584811,-0.03030056506343293,6.570203499865423e-05
0.5525,-0.0009092815699517991,-0.7864370989999179,-0.0018988944199134462,-2.356167270000001,-0.0012709547499391415,1.5719007899999582,0.7860089399999993,0.03999999,0.0399999303,-9.82844224999969,-0.029373768343885012,0.008692901574058626,0.014279159099568603,-0.030491832829473615,6.578895249975541e-05
0.555,-0.0009264106399515814,-0.7864662979999175,-0.0019296529399130552,-2.356166940000001,-0.0012925818999388668,1.571915579999958,0.7860091799999993,0.03999999,0.039999930600000004,-9.828552499999688,-0.029599948971824216,0.009027436149054375,0.014432464199566654,-0.030683100595529623,6.587586999975431e-05
0.5575,-0.000943539709951363,-0.786495496999917,-0.001960411459912663,-2.356166610000001,-0.001314209049938591,1.5719303699999578,0.7860094199999993,0.03999999,0.0399999309,-9.828662749999687,-0.029826129599763412,0.009361970724050107,0.0145857692995647,-0.030874368361585625,6.59627874997532e-05
0.56,-0.0009606687799511453,-0.7865246959999167,-0.001991169979912272,-2.356166280000001,-0.001335836199938316,1.5719451599999577,0.7860096599999994,0.03999999,0.0399999312,-9.828772999999686,-0.030052310227702616,0.009696505299045855,0.01473907439956275,-0.031065636127641634,6.604970499975209e-05
0.5625,-0.0009777978499509268,-0.7865538949999163,-0.0020219284999118798,-2.356165950000001,-0.0013574633499380403,1.5719599499999575,0.7860098999999994,0.03999999,0.0399999315,-9.828883249999684,-0.030278490855641813,0.01003103987404159,0.014892379499560795,-0.03125690389369763,6.613662249975098e-05
0.5650000000000001,-0.000994926919950709,-0.7865830939999159,-0.0020526870199114888,-2.356165620000001,-0.0013790904999377654,1.5719747399999573,0.7860101399999994,0.03999999,0.0399999318,-9.828993499999683,-0.03050467148358102,0.010365574449037337,0.015045684599558847,-0.031448171659753645,6.622353999974988e-05
0.5675,-0.0010124577399470071,-0.7866130294999092,-0.00208416473990486,-2.3561652450000015,-0.0014012229099331084,1.5719898699999542,0.7860103964999993,0.03999999,0.03999993165000001,-9.829089499999805,-0.030706600285623005,0.010718201573876188,0.015200774099541419,-0.031641089356868525,6.647009274836456e-05
0.5700000000000001,-0.001030792059946774,-0.7866444379999088,-0.002117080859904442,-2.356164780000001,-0.0014243658399328142,1.572005679999954,0.7860106859999992,0.03999999,0.039999930600000004,-9.829156999999803,-0.030860025435240634,0.011107013798871246,0.0153594323995394,-0.031837306916144045,6.703591599835736e-05
0.5725,-0.0010491263799465402,-0.7866758464999084,-0.002149996979904022,-2.3561643150000013,-0.0014475087699325191,1.5720214899999538,0.7860109754999992,0.03999999,0.03999992955,-9.829224499999803,-0.031013450584858257,0.011495826023866288,0.015518090699537378,-0.03203352447541955,6.760173924835015e-05
0.5750000000000001,-0.0010674606999463072,-0.786707254999908,-0.0021829130999036035,-2.3561638500000015,-0.001470651699932225,1.5720372999999537,0.7860112649999992,0.03999999,0.039999928500000004,-9.829291999999802,-0.031166875734475886,0.011884638248861346,0.01567674899953536,-0.032229742034695065,6.816756249834296e-05
0.5775,-0.0010857950199460733,-0.7867386634999076,-0.0022158292199031837,-2.356163385000001,-0.0014937946299319296,1.5720531099999535,0.7860115544999992,0.03999999,0.03999992745,-9.829359499999802,-0.03132030088409351,0.012273450473856386,0.01583540729953334,-0.03242595959397057,6.873338574833575e-05
0.58,-0.0011041293399458394,-0.7867700719999072,-0.002248745339902764,-2.3561629200000014,-0.0015169375599316346,1.5720689199999534,0.7860118439999991,0.03999999,0.039999926400000003,-9.8294269999998,-0.03147372603371113,0.012662262698851429,0.015994065599531315,-0.032622177153246085,6.929920899832853e-05
0.5825,-0.0011224636599456064,-0.7868014804999068,-0.0022816614599023453,-2.356162455000001,-0.0015400804899313404,1.5720847299999532,0.7860121334999991,0.03999999,0.03999992535,-9.829494499999798,-0.03162715118332876,0.013051074923846486,0.016152723899529296,-0.0328183947125216,6.986503224832135e-05
0.585,-0.001141627289941666,-0.7868344049998997,-0.0023160621798952907,-2.3561619700000014,-0.0015642664299263837,1.5721012399999497,0.7860124209999991,0.03999999,0.0399999245,-9.829564149999788,-0.03178143911017566,0.013464194098732892,0.016314621799512794,-0.03301822394072532,7.03346049987443e-05
0.5875,-0.0011612055749414172,-0.7868680874998992,-0.002351205199894844,-2.3561614750000013,-0.0015889738749260696,1.5721180999999496,0.7860127074999992,0.03999999,0.03999992375,-9.829634874999789,-0.03193615842564297,0.013889466748727488,0.016478139499510717,-0.03321985900341731,7.075605249873894e-05
0.59,-0.0011807838599411677,-0.7869017699998988,-0.0023863482198943956,-2.356160980000001,-0.0016136813199257546,1.5721349599999495,0.7860129939999991,0.03999999,0.039999923,-9.829705599999787,-0.03209087774111027,0.014314739398722064,0.016641657199508633,-0.03342149406610929,7.117749999873356e-05
0.5925,-0.0012003621449409188,-0.7869354524998984,-0.002421491239893949,-2.3561604850000015,-0.0016383887649254404,1.5721518199999491,0.7860132804999992,0.03999999,0.03999992225,-9.829776324999786,-0.03224559705657758,0.01474001204871666,0.01680517489950655,-0.03362312912880128,7.15989474987282e-05
0.595,-0.001219940429940669,-0.786969134999898,-0.002456634259893501,-2.3561599900000014,-0.0016630962099251252,1.572168679999949,0.7860135669999991,0.03999999,0.0399999215,-9.829847049999787,-0.03240031637204488,0.015165284698711236,0.016968692599504467,-0.03382476419149325,7.202039499872284e-05
0.5975,-0.0012395187149404202,-0.7870028174998975,-0.002491777279893054,-2.3561594950000013,-0.0016878036549248113,1.5721855399999487,0.7860138534999992,0.03999999,0.03999992075,-9.829917774999785,-0.03255503568751219,0.01559055734870583,0.01713221029950239,-0.03402639925418524,7.244184249871747e-05
0.6,-0.0012590969999401705,-0.7870364999998971,-0.0025269202998926057,-2.3561590000000012,-0.001712511099924496,1.5722023999999486,0.7860141399999991,0.03999999,0.03999992,-9.829988499999784,-0.03270975500297949,0.016015829998700406,0.017295727999500306,-0.034228034316877216,7.28632899987121e-05
0.6025,-0.0012799574999359871,-0.7870724924998895,-0.0025643581698851173,-2.3561584600000014,-0.0017388306699192351,1.572220399999945,0.7860144264999991,0.0399999897,0.03999991790000001,-9.830025774999886,-0.03278309665597821,0.01649960519851548,0.017464348849482565,-0.03443548586155886,7.365249699757823e-05
0.605,-0.001300817999935721,-0.7871084849998892,-0.00260179603988464,-2.3561579200000016,-0.0017651502399188995,1.5722383999999445,0.7860147129999991,0.0399999894,0.03999991580000001,-9.830063049999886,-0.03285643830872824,0.016983380398509308,0.017632969699480416,-0.03464293740625827,7.444170399756815e-05
0.6075,-0.0013216784999354558,-0.7871444774998887,-0.002639233909884164,-2.3561573800000017,-0.001791469809918565,1.5722563999999444,0.7860149994999991,0.0399999891,0.03999991370000001,-9.830100324999885,-0.03292977996147827,0.01746715559850316,0.01780159054947827,-0.03485038895095769,7.523091099755813e-05
0.61,-0.0013425389999351899,-0.7871804699998882,-0.0026766717798836865,-2.3561568400000015,-0.0018177893799182292,1.5722743999999442,0.7860152859999991,0.039999988800000004,0.03999991160000001,-9.830137599999885,-0.0330031216142283,0.017950930798496988,0.017970211399476122,-0.0350578404956571,7.602011799754806e-05
0.6125,-0.0013633994999349248,-0.7872164624998877,-0.0027141096498832108,-2.3561563000000016,-0.001844108949917895,1.5722923999999439,0.7860155724999991,0.0399999885,0.03999990950000001,-9.830174874999884,-0.03307646326697833,0.018434705998490838,0.01813883224947398,-0.03526529204035652,7.680932499753804e-05
0.615,-0.0013842599999346586,-0.7872524549998873,-0.0027515475198827332,-2.356155760000002,-0.001870428519917559,1.5723103999999437,0.786015858999999,0.0399999882,0.03999990740000001,-9.830212149999884,-0.03314980491972836,0.018918481198484667,0.018307453099471828,-0.03547274358505593,7.759853199752796e-05
0.6175,-0.0014055603849302432,-0.7872892624998792,-0.0027897727448748283,-2.3561551000000027,-0.001897301109912007,1.57232876999994,0.7860161449999991,0.039999987800000004,0.039999904900000015,-9.830279124999603,-0.033272685109870914,0.019396299398534725,0.018477719449454158,-0.03568204305999046,7.846158949682116e-05
0.62,-0.0014277405399299604,-0.7873276999998786,-0.0028295726798743207,-2.356154200000003,-0.00192527973991165,1.5723478799999397,0.7860164299999991,0.0399999872,0.03999990160000001,-9.830405499999602,-0.03349464237619879,0.01986220359852878,0.018651276799451947,-0.03589503839544745,7.947234799680826e-05
0.6225,-0.0014499206949296784,-0.7873661374998782,-0.0028693726148738153,-2.356153300000003,-0.0019532583699112946,1.5723669899999395,0.786016714999999,0.0399999866,0.03999989830000001,-9.830531874999599,-0.03371659964252668,0.02032810779852286,0.01882483414944974,-0.036108033730904446,8.048310649679541e-05
0.625,-0.0014721008499293954,-0.7874045749998776,-0.0029091725498733077,-2.3561524000000027,-0.0019812369999109374,1.5723860999999393,0.7860169999999991,0.039999986,0.039999895000000014,-9.830658249999598,-0.033938556908854556,0.02079401199851692,0.018998391499447525,-0.036321029066361435,8.149386499678252e-05
0.6275000000000001,-0.0014942810049291136,-0.7874430124998771,-0.002948972484872802,-2.356151500000003,-0.002009215629910582,1.5724052099999388,0.786017284999999,0.0399999854,0.03999989170000001,-9.830784624999596,-0.03416051417518245,0.021259916198510996,0.01917194884944532,-0.03653402440181843,8.250462349676967e-05
0.63,-0.0015164611599288306,-0.7874814499998767,-0.0029887724198722943,-2.356150600000003,-0.0020371942599102253,1.5724243199999386,0.786017569999999,0.039999984800000006,0.03999988840000001,-9.830910999999594,-0.034382471441510326,0.021725820398505055,0.019345506199443106,-0.03674701973727542,8.351538199675678e-05
0.6325000000000001,-0.0015386413149285486,-0.7875198874998761,-0.0030285723548717884,-2.356149700000003,-0.0020651728899098694,1.5724434299999384,0.7860178549999991,0.039999984200000005,0.03999988510000001,-9.831037374999593,-0.03460442870783821,0.02219172459849913,0.019519063549440902,-0.036960015072732416,8.452614049674393e-05
0.635,-0.001561725759923879,-0.7875599439998678,-0.003069990789863429,-2.3561486900000035,-0.0020942888499039954,1.5724633399999344,0.786018140999999,0.039999984,0.039999884,-9.831104949999876,-0.03477812223088046,0.02270186919827857,0.019695882999422862,-0.03717567101050766,8.498575649940476e-05
0.6375000000000001,-0.0015852623499235797,-0.7876008099998673,-0.0031122184748628924,-2.3561476250000037,-0.002123973474903618,1.5724836499999342,0.7860184274999991,0.039999984,0.039999884,-9.831143124999876,-0.034927683881929614,0.023234133998271806,0.019874333499420593,-0.03739265724946135,8.516980124940242e-05
0.64,-0.0016087989399232797,-0.7876416759998668,-0.003154446159862354,-2.3561465600000036,-0.0021536580999032395,1.5725039599999338,0.786018713999999,0.039999984,0.039999884,-9.831181299999875,-0.035077245532978765,0.023766398798265018,0.02005278399941832,-0.03760964348841502,8.535384599940009e-05
0.6425,-0.0016323355299229794,-0.7876825419998663,-0.003196673844861815,-2.3561454950000034,-0.002183342724902861,1.5725242699999336,0.7860190004999991,0.039999984,0.039999884,-9.831219474999875,-0.03522680718402791,0.02429866359825823,0.020231234499416044,-0.0378266297273687,8.553789074939774e-05
0.645,-0.0016558721199226804,-0.7877234079998657,-0.0032389015298612783,-2.3561444300000036,-0.0022130273499024835,1.5725445799999334,0.786019286999999,0.039999984,0.039999884,-9.831257649999875,-0.03537636883507707,0.02483092839825146,0.020409684999413775,-0.03804361596632239,8.57219354993954e-05
0.6475,-0.00167940870992238,-0.7877642739998653,-0.0032811292148607397,-2.3561433650000034,-0.002242711974902105,1.572564889999933,0.7860195734999991,0.039999984,0.039999884,-9.831295824999874,-0.03552593048612622,0.025363193198244673,0.0205881354994115,-0.038260602205276065,8.590598024939305e-05
0.65,-0.001702945299922081,-0.7878051399998647,-0.003323356899860203,-2.3561423000000037,-0.0022723965999017276,1.5725851999999327,0.786019859999999,0.039999984,0.039999884,-9.831333999999874,-0.03567549213717537,0.02589545799823791,0.02076658599940923,-0.03847758844422976,8.609002499939071e-05
0.6525,-0.0017278745649171525,-0.7878485199998558,-0.003368077014851381,-2.356141085000004,-0.00230383218989553,1.5726066949999287,0.7860201464999991,0.03999998565,0.0399998849,-9.831398649999786,-0.03581764809740029,0.026461327448119444,0.02094986184939092,-0.03869944848046473,8.632471724922005e-05
0.655,-0.0017528038299168356,-0.7878918999998553,-0.003412797129850813,-2.3561398700000042,-0.0023352677798951305,1.5726281899999284,0.786020432999999,0.0399999873,0.039999885799999996,-9.831463299999784,-0.0359598040576007,0.02702719689811225,0.02113313769938859,-0.03892130851671585,8.655940949921707e-05
0.6575,-0.0017777330949165177,-0.7879352799998547,-0.0034575172448502427,-2.356138655000004,-0.0023667033698947294,1.572649684999928,0.7860207194999991,0.039999988949999996,0.0399998867,-9.831527949999783,-0.0361019600178011,0.027593066348105034,0.02131641354938625,-0.03914316855296696,8.679410174921407e-05
0.66,-0.0018026623599162008,-0.7879786599998542,-0.0035022373598496744,-2.3561374400000044,-0.00239813895989433,1.5726711799999278,0.786021005999999,0.0399999906,0.0399998876,-9.831592599999784,-0.036244115978001507,0.02815893579809784,0.02149968939938392,-0.03936502858921808,8.702879399921109e-05
0.6625,-0.0018275916249158829,-0.7880220399998537,-0.003546957474849104,-2.356136225000004,-0.002429574549893929,1.5726926749999275,0.786021292499999,0.03999999225,0.0399998885,-9.831657249999783,-0.03638627193820191,0.028724805248090624,0.021682965249381583,-0.03958688862546919,8.72634862492081e-05
0.665,-0.001852520889915566,-0.7880654199998531,-0.0035916775898485356,-2.356135010000004,-0.0024610101398935295,1.5727141699999272,0.786021578999999,0.039999993899999996,0.0399998894,-9.831721899999781,-0.03652842789840232,0.02929067469808343,0.021866241099379253,-0.039808748661720315,8.749817849920512e-05
0.6675,-0.0018779262199103927,-0.7881096529998438,-0.0036372495998392767,-2.3561337400000046,-0.0024930443148870234,1.5727360699999227,0.786021866499999,0.039999995,0.03999989025,-9.831769599999953,-0.036642139963612465,0.029879430447842796,0.02205107474936103,-0.04003225881529229,8.764576225009055e-05
0.67,-0.0019042836799100576,-0.7881555919998432,-0.0036845253998386758,-2.3561323600000046,-0.002526275659886601,1.5727587799999225,0.786022155999999,0.039999995,0.039999891,-9.831783399999953,-0.03669896423797288,0.03051395879783473,0.022239023999358638,-0.04025906920355645,8.761912900009089e-05
0.6725,-0.0019306411399097215,-0.7882015309998427,-0.0037318011998380726,-2.356130980000005,-0.0025595070048861773,1.5727814899999222,0.786022445499999,0.039999995,0.03999989175,-9.831797199999952,-0.036755788512333284,0.03114848714782664,0.022426973249356243,-0.0404858795918206,8.759249575009123e-05
0.675,-0.0019569985999093866,-0.7882474699998421,-0.003779076999837472,-2.356129600000005,-0.0025927383498857547,1.5728041999999218,0.786022734999999,0.039999995,0.0399998925,-9.831810999999952,-0.0368126127866937,0.031783015497818576,0.022614922499353853,-0.04071268998008475,8.756586250009156e-05
0.6775,-0.0019833560599090503,-0.7882934089998415,-0.003826352799836869,-2.356128220000005,-0.002625969694885331,1.5728269099999217,0.786023024499999,0.039999995,0.03999989325,-9.831824799999952,-0.036869437061054104,0.03241754384781048,0.022802871749351455,-0.040939500368348904,8.753922925009191e-05
0.68,-0.0020097135199087152,-0.788339347999841,-0.003873628599836268,-2.356126840000005,-0.0026592010398849087,1.5728496199999213,0.786023313999999,0.039999995,0.039999894,-9.831838599999951,-0.03692626133541452,0.033052072197802415,0.022990820999349067,-0.04116631075661306,8.751259600009224e-05
0.6825,-0.0020360709799083793,-0.7883852869998403,-0.003920904399835665,-2.356125460000005,-0.0026924323848844848,1.572872329999921,0.786023603499999,0.039999995,0.03999989475,-9.831852399999951,-0.03698308560977493,0.03368660054779432,0.02317877024934667,-0.041393121144877205,8.748596275009259e-05
0.685,-0.0020634036899029404,-0.7884330099998303,-0.00396992569982593,-2.3561239900000053,-0.0027268895498776475,1.5728958799999164,0.786023889999999,0.0399999955,0.0399998945,-9.831933999999597,-0.037146637587982596,0.03430944369784741,0.023369794199328192,-0.04162330105819869,8.766796899900107e-05
0.6875,-0.0020912240249025857,-0.7884816249998298,-0.004019819749825293,-2.356122475000005,-0.0027619596248772,1.5729198499999162,0.786024174999999,0.03999999625,0.03999989375,-9.832049499999595,-0.03736355341894963,0.03492644424783954,0.023562355499325734,-0.04185516573407521,8.795429499899742e-05
0.6900000000000001,-0.0021190443599022318,-0.7885302399998292,-0.00406971379982466,-2.3561209600000055,-0.0027970296998767546,1.5729438199999157,0.786024459999999,0.039999997,0.039999893,-9.832164999999595,-0.03758046924991668,0.0355434447978317,0.02375491679932329,-0.042087030409951744,8.824062099899377e-05
0.6925,-0.002146864694901877,-0.7885788549998285,-0.004119607849824023,-2.3561194450000054,-0.002832099774876307,1.5729677899999155,0.786024744999999,0.03999999775,0.03999989225,-9.832280499999593,-0.03779738508088372,0.036160445347823825,0.02394747809932083,-0.04231889508582827,8.852694699899013e-05
0.6950000000000001,-0.0021746850299015235,-0.7886274699998279,-0.0041695018998233885,-2.3561179300000052,-0.0028671698498758612,1.5729917599999153,0.786025029999999,0.0399999985,0.0399998915,-9.83239599999959,-0.03801430091185077,0.03677744589781599,0.024140039399318386,-0.042550759761704804,8.881327299898649e-05
0.6975,-0.0022025053649011687,-0.7886760849998272,-0.0042193959498227525,-2.3561164150000056,-0.002902239924875414,1.5730157299999148,0.786025314999999,0.03999999925,0.03999989075,-9.83251149999959,-0.038231216742817806,0.037394446447808115,0.024332600699315927,-0.042782624437581324,8.909959899898283e-05
0.7000000000000001,-0.002230325699900815,-0.7887246999998266,-0.004269289999822118,-2.3561149000000055,-0.0029373099998749683,1.5730396999999146,0.786025599999999,0.04,0.03999989,-9.832626999999588,-0.038448132573784856,0.03801144699780027,0.024525161999313483,-0.04301448911345786,8.93859249989792e-05
0.7025,-0.002259643049895104,-0.7887759549998166,-0.004321863004811897,-2.3561133250000057,-0.0029742620498677875,1.5730649749999097,0.7860258849999989,0.04,0.03999988955,-9.83267709999982,-0.038580482266369724,0.03870073494753376,0.02472225539929481,-0.04325070399706484,8.973434874875336e-05
0.705,-0.00228896039989473,-0.7888272099998159,-0.004374436009811226,-2.356111750000006,-0.003011214099867316,1.5730902499999093,0.786026169999999,0.04,0.039999889100000005,-9.83272719999982,-0.03871283195865309,0.03939002289752497,0.024919348799292296,-0.043486918880687335,9.008277249874891e-05
0.7075,-0.0023182777498943576,-0.7888784649998153,-0.004427009014810558,-2.3561101750000057,-0.0030481661498668465,1.573115524999909,0.786026454999999,0.04,0.03999988865,-9.832777299999819,-0.03884518165093647,0.04007931084751621,0.025116442199289792,-0.043723133764309835,9.043119624874448e-05
0.71,-0.0023475950998939838,-0.7889297199998146,-0.004479582019809887,-2.3561086000000055,-0.003085118199866375,1.5731407999999087,0.786026739999999,0.04,0.0399998882,-9.832827399999818,-0.038977531343219844,0.04076859879750742,0.025313535599287278,-0.04395934864793233,9.077961999874004e-05
0.7125,-0.002376912449893611,-0.7889809749998139,-0.004532155024809219,-2.356107025000006,-0.0031220702498659055,1.5731660749999083,0.786027024999999,0.04,0.03999988775,-9.832877499999817,-0.039109881035503224,0.04145788674749866,0.025510628999284773,-0.044195563531554835,9.112804374873562e-05
0.715,-0.0024062297998932373,-0.7890322299998133,-0.004584728029808549,-2.3561054500000056,-0.003159022299865434,1.573191349999908,0.7860273099999989,0.04,0.0399998873,-9.832927599999817,-0.03924223072778659,0.04214717469748987,0.02570772239928226,-0.04443177841517733,9.147646749873116e-05
0.7175,-0.0024360572948869913,-0.7890843999998021,-0.0046382138847973695,-2.356103860000006,-0.003196615424857583,1.5732170649999027,0.786027594999999,0.03999999950000001,0.03999988565000001,-9.8329700499999,-0.039343512058114594,0.04285671259725228,0.025906277599261895,-0.044669732636818914,9.18190739987875e-05
0.72,-0.002466905079885756,-0.7891383999998,-0.004693525439795155,-2.356102240000006,-0.003235490699856026,1.5732436599999016,0.7860278799999989,0.03999999800000001,0.039999881600000016,-9.832997199999898,-0.039382656663511206,0.043606750397222255,0.02610775639925383,-0.044911165534555805,9.215004599877425e-05
0.7225,-0.0024977528648845223,-0.7891923999997978,-0.004748836994792943,-2.356100620000006,-0.0032743659748544715,1.5732702549999005,0.786028164999999,0.0399999965,0.039999877550000014,-9.833024349999897,-0.039421801268907826,0.04435678819719226,0.026309235199245773,-0.045152598432292704,9.248101799876101e-05
0.725,-0.002528600649883287,-0.7892463999997956,-0.004804148549790728,-2.356099000000006,-0.003313241249852915,1.5732968499998994,0.7860284499999989,0.039999995,0.03999987350000001,-9.833051499999897,-0.039460945874304446,0.045106825997162224,0.026510713999237705,-0.04539403133002959,9.281198999874776e-05
0.7275,-0.0025594484348820533,-0.7893003999997935,-0.004859460104788516,-2.3560973800000062,-0.0033521165248513603,1.5733234449998983,0.7860287349999989,0.039999993500000004,0.03999986945000002,-9.833078649999896,-0.039500090479701065,0.045856863797132226,0.026712192799229647,-0.04563546422776649,9.314296199873452e-05
0.73,-0.002590296219880818,-0.7893543999997913,-0.004914771659786301,-2.3560957600000063,-0.0033909917998498035,1.5733500399998974,0.7860290199999989,0.039999992000000005,0.039999865400000015,-9.833105799999895,-0.03953923508509768,0.0466069015971022,0.02691367159922158,-0.04587689712550338,9.347393399872128e-05
0.7325,-0.0026211440048795843,-0.7894083999997892,-0.004970083214784089,-2.3560941400000064,-0.0034298670748482488,1.5733766349998963,0.7860293049999989,0.039999990500000006,0.03999986135000001,-9.833132949999895,-0.0395783796904943,0.0473569393970722,0.02711515039921352,-0.04611833002324028,9.380490599870803e-05
0.735,-0.0026530336798733655,-0.789464269999778,-0.005027259229772959,-2.3560924600000064,-0.003470051949840431,1.5734041299998909,0.7860295899999988,0.0399999905,0.0399998598,-9.83322394999952,-0.03973660096441061,0.04809950979711322,0.027319518699195848,-0.046363138033976584,9.378954100073663e-05
0.7375,-0.002685444299873838,-0.7895210749997789,-0.0050853674747738066,-2.3560907500000066,-0.0035108916248410265,1.5734320749998914,0.7860298749999989,0.03999999125,0.0399998595,-9.833346874999522,-0.03995436057363619,0.04883834649712399,0.02752533174919885,-0.046609633601242366,9.36010075007339e-05
0.74,-0.0027178549198743087,-0.7895778799997797,-0.005143475719774651,-2.3560890400000067,-0.00355173129984162,1.5734600199998918,0.7860301599999989,0.039999992,0.0399998592,-9.833469799999524,-0.040172120182861766,0.04957718319713473,0.02773114479920184,-0.04685612916850813,9.341247400073115e-05
0.7425,-0.002750265539874781,-0.7896346849997805,-0.005201583964775498,-2.3560873300000065,-0.0035925709748422154,1.573487964999892,0.7860304449999989,0.03999999275,0.0399998589,-9.833592724999525,-0.04038987979208735,0.05031601989714549,0.027936957849204837,-0.04710262473577391,9.32239405007284e-05
0.745,-0.0027826761598752523,-0.7896914899997813,-0.005259692209776343,-2.3560856200000067,-0.0036334106498428086,1.5735159099998925,0.7860307299999989,0.0399999935,0.0399998586,-9.833715649999526,-0.04060763940131292,0.05105485659715623,0.028142770899207827,-0.04734912030303967,9.303540700072566e-05
0.7475,-0.0028150867798757244,-0.7897482949997822,-0.005317800454777189,-2.3560839100000064,-0.003674250324843404,1.573543854999893,0.786031014999999,0.03999999425,0.0399998583,-9.833838574999527,-0.040825399010538506,0.051793693297167,0.028348583949210828,-0.047595615870305454,9.284687350072292e-05
0.75,-0.0028474973998761956,-0.7898050999997831,-0.005375908699778034,-2.3560822000000066,-0.0037150899998439975,1.5735717999998933,0.7860312999999989,0.039999995,0.039999858,-9.83396149999953,-0.041043158619764084,0.05253252999717774,0.02855439699921382,-0.04784211143757122,9.265834000072018e-05
0.7525000000000001,-0.0028815028048696715,-0.7898647549997714,-0.005436870694766358,-2.356080160000008,-0.0037579338998357968,1.5736010949998878,0.7860315849999989,0.03999999335000001,0.03999985530000001,-9.834023224999763,-0.04116313047661097,0.05334262899689523,0.028764488199194804,-0.04809324890278886,9.272034609976235e-05
0.755,-0.0029155082098692377,-0.7899244099997706,-0.005497832689765581,-2.356078120000008,-0.0038007777998352505,1.5736303899998874,0.7860318699999989,0.03999999170000001,0.03999985260000001,-9.834084949999761,-0.041283102333084326,0.05415272799688489,0.028974579399192128,-0.048344386368024225,9.278235219976156e-05
0.7575000000000001,-0.0029495136148688056,-0.7899840649997698,-0.005558794684764805,-2.356076080000008,-0.003843621699834706,1.573659684999887,0.7860321549999989,0.03999999005000001,0.03999984990000001,-9.834146674999761,-0.04140307418955768,0.054962826996874596,0.029184670599189458,-0.048595523833259595,9.284435829976077e-05
0.76,-0.0029835190198683717,-0.7900437199997691,-0.005619756679764028,-2.3560740400000078,-0.0038864655998341593,1.5736889799998866,0.7860324399999988,0.03999998840000001,0.039999847200000015,-9.83420839999976,-0.041523046046031034,0.055772925996864266,0.029394761799186778,-0.04884666129849496,9.290636439975998e-05
0.7625000000000001,-0.0030175244248679396,-0.7901033749997683,-0.0056807186747632535,-2.3560720000000077,-0.003929309499833614,1.5737182749998861,0.7860327249999989,0.03999998675000001,0.03999984450000001,-9.83427012499976,-0.04164301790250439,0.05658302499685397,0.029604852999184108,-0.04909779876373033,9.296837049975919e-05
0.765,-0.0030515298298675058,-0.7901630299997675,-0.005741680669762476,-2.3560699600000077,-0.0039721533998330685,1.5737475699998857,0.7860330099999989,0.03999998510000001,0.03999984180000001,-9.834331849999758,-0.041762989758977735,0.05739312399684364,0.029814944199181428,-0.04934893622896569,9.30303765997584e-05
0.7675000000000001,-0.003086077279860717,-0.7902236524997555,-0.005803612399750329,-2.3560678700000084,-0.004015678439824536,1.57377732499988,0.7860332949999989,0.039999983450000005,0.039999839000000016,-9.834381749999897,-0.04188286289525934,0.058217376696667364,0.03002640024916275,-0.04960125237603768,9.301123930070918e-05
0.77,-0.0031217088198602625,-0.7902862099997546,-0.0058674835997495145,-2.3560656800000084,-0.004060565759823964,1.5738079999998797,0.7860335799999989,0.03999998180000001,0.03999983600000001,-9.834407999999897,-0.042002538591153965,0.05906993679665649,0.03024058599916002,-0.0498559258868243,9.282981520071149e-05
0.7725,-0.003157340359859808,-0.7903487674997539,-0.005931354799748699,-2.3560634900000084,-0.004105453079823391,1.5738386749998792,0.7860338649999988,0.03999998015000001,0.03999983300000001,-9.834434249999896,-0.042122214287048584,0.05992249689664562,0.03045477174915729,-0.05011059939761092,9.264839110071381e-05
0.775,-0.003192971899859355,-0.7904113249997531,-0.005995225999747888,-2.3560613000000084,-0.0041503403998228204,1.5738693499998788,0.7860341499999989,0.039999978500000005,0.039999830000000014,-9.834460499999896,-0.04224188998294322,0.06077505699663478,0.030668957499154565,-0.050365272908397554,9.246696700071612e-05
0.7775,-0.003228603439858901,-0.7904738824997523,-0.006059097199747073,-2.356059110000009,-0.004195227719822248,1.5739000249998785,0.7860344349999988,0.03999997685000001,0.03999982700000001,-9.834486749999895,-0.04236156567883784,0.061627617096623906,0.030883143249151833,-0.05061994641918418,9.228554290071843e-05
0.78,-0.003264234979858448,-0.7905364399997515,-0.006122968399746262,-2.3560569200000088,-0.004240115039821678,1.5739306999998781,0.7860347199999989,0.03999997520000001,0.03999982400000001,-9.834512999999895,-0.04248124137473247,0.06248017719661307,0.03109732899914911,-0.05087461992997081,9.210411880072074e-05
0.7825,-0.0032998665198579937,-0.7905989974997507,-0.006186839599745446,-2.3560547300000088,-0.004285002359821106,1.5739613749998778,0.7860350049999989,0.039999973550000005,0.03999982100000001,-9.834539249999896,-0.04260091707062709,0.0633327372966022,0.03131151474914638,-0.05112929344075743,9.192269470072305e-05
0.785,-0.003336602149850919,-0.790663527999738,-0.006252686349732787,-2.3560524600000092,-0.004331277349812213,1.5739930199998715,0.7860352899999988,0.039999972300000006,0.039999819000000006,-9.83454969999999,-0.04265349321059726,0.06423580459628846,0.03152839649912749,-0.05138695202664233,9.158123240168514e-05
0.7875,-0.0033738898248504437,-0.7907290449997373,-0.006319520874731935,-2.356050150000009,-0.004378246174811614,1.574025149999871,0.7860355749999989,0.03999997125,0.03999981750000001,-9.83455224999999,-0.04267251957200286,0.06516412549627662,0.03174662624912471,-0.05164610315010313,9.115975100169051e-05
0.79,-0.0034111774998499696,-0.7907945619997364,-0.006386355399731086,-2.3560478400000093,-0.004425214999811016,1.5740572799998707,0.7860358599999988,0.039999970200000005,0.039999816,-9.834554799999989,-0.042691545933408466,0.06609244639626483,0.03196485599912193,-0.05190525427356395,9.073826960169586e-05
0.7925,-0.003448465174849494,-0.7908600789997355,-0.006453189924730233,-2.356045530000009,-0.004472183824810417,1.5740894099998703,0.7860361449999989,0.03999996915,0.0399998145,-9.83455734999999,-0.04271057229481407,0.06702076729625298,0.03218308574911915,-0.05216440539702475,9.031678820170123e-05
0.795,-0.00348575284984902,-0.7909255959997348,-0.006520024449729383,-2.3560432200000094,-0.004519152649809821,1.5741215399998698,0.7860364299999988,0.039999968100000005,0.039999813,-9.83455989999999,-0.04272959865621967,0.06794908819624118,0.03240131549911637,-0.05242355652048556,8.989530680170659e-05
0.7975,-0.0035230405248485447,-0.7909911129997339,-0.0065868589747285315,-2.3560409100000097,-0.004566121474809222,1.5741536699998695,0.7860367149999988,0.03999996705,0.0399998115,-9.83456244999999,-0.042748625017625275,0.06887740909622933,0.03261954524911359,-0.05268270764394637,8.947382540171197e-05
0.8,-0.0035603281998480706,-0.7910566299997331,-0.0066536934997276816,-2.3560386000000095,-0.004613090299808624,1.574185799999869,0.7860369999999989,0.039999966000000005,0.039999810000000004,-9.834564999999989,-0.04276765137903088,0.06980572999621754,0.032837774999110815,-0.05294185876740718,8.905234400171733e-05
0.8025,-0.003599301604840705,-0.79112513049972,-0.006723544794714499,-2.3560361250000104,-0.004662177514799367,1.5742193999998626,0.7860372909999988,0.0399999651,0.03999980820000001,-9.834662199999602,-0.042975110187278585,0.07071794149627154,0.03305994974909191,-0.05320481303971814,8.86505093016424e-05
0.805,-0.0036382750098402097,-0.7911936309997192,-0.006793396089713611,-2.3560336500000103,-0.004711264729798743,1.5742529999998622,0.7860375819999987,0.0399999642,0.039999806400000004,-9.834759399999601,-0.04318256899629407,0.07163015299625995,0.033282124499089086,-0.053467767312044605,8.82486746016475e-05
0.8075,-0.0036772484148397126,-0.7912621314997182,-0.00686324738471272,-2.3560311750000102,-0.004760351944798117,1.5742865999998619,0.7860378729999988,0.039999963300000003,0.03999980460000001,-9.8348565999996,-0.04339002780530955,0.07254236449624832,0.03350429924908625,-0.053730721584371054,8.784683990165263e-05
0.81,-0.0037162218198392174,-0.7913306319997174,-0.006933098679711832,-2.35602870000001,-0.004809439159797493,1.5743201999998613,0.7860381639999988,0.039999962400000005,0.039999802800000005,-9.834953799999598,-0.04359748661432504,0.07345457599623673,0.03372647399908343,-0.053993675856697516,8.744500520165775e-05
0.8125,-0.00375519522483872,-0.7913991324997165,-0.007002949974710942,-2.3560262250000106,-0.004858526374796867,1.574353799999861,0.7860384549999988,0.03999996150000001,0.03999980100000001,-9.835050999999597,-0.04380494542334052,0.07436678749622509,0.033948648749080594,-0.054256630129023965,8.704317050166288e-05
0.8150000000000001,-0.0037941686298382247,-0.7914676329997157,-0.007072801269710054,-2.3560237500000105,-0.004907613589796243,1.5743873999998605,0.7860387459999988,0.0399999606,0.03999979920000001,-9.835148199999596,-0.04401240423235601,0.0752789989962135,0.034170823499077775,-0.054519584401350435,8.664133580166798e-05
0.8175,-0.0038337136048305883,-0.7915371519997021,-0.00714367512969639,-2.3560212200000112,-0.004957419044786646,1.5744214799998542,0.7860390349999988,0.03999995950000001,0.03999979710000001,-9.835229499999793,-0.04418643135532811,0.07621572829589561,0.034394262699059146,-0.054783926530560245,8.619185520226826e-05
0.8200000000000001,-0.003874401719830071,-0.7916087079997012,-0.007216594119695463,-2.3560185800000113,-0.005008660979785994,1.5744565199998537,0.7860393199999988,0.03999995800000001,0.03999979440000001,-9.835278999999792,-0.04429359510496198,0.07720149319588308,0.034620230799056274,-0.05505104437358874,8.564708280227517e-05
0.8225,-0.003915089834829552,-0.7916802639997003,-0.007289513109694533,-2.3560159400000114,-0.005059902914785341,1.5744915599998532,0.7860396049999988,0.03999995650000001,0.039999791700000016,-9.835328499999791,-0.044400758854595844,0.0781872580958705,0.03484619889905339,-0.05531816221661722,8.510231040228212e-05
0.8250000000000001,-0.0039557779498290355,-0.7917518199996993,-0.007362432099693606,-2.356013300000011,-0.005111144849784689,1.5745265999998528,0.7860398899999987,0.039999955000000004,0.039999789000000015,-9.83537799999979,-0.04450792260422971,0.07917302299585798,0.03507216699905052,-0.05558528005964571,8.455753800228905e-05
0.8275,-0.003996466064828516,-0.7918233759996984,-0.007435351089692676,-2.356010660000011,-0.005162386784784036,1.5745616399998523,0.7860401749999988,0.039999953500000004,0.03999978630000001,-9.83542749999979,-0.044615086353863576,0.08015878789584541,0.03529813509904764,-0.0558523979026742,8.401276560229599e-05
0.8300000000000001,-0.004037154179827999,-0.7918949319996975,-0.007508270079691749,-2.356008020000011,-0.0052136287197833845,1.5745966799998519,0.7860404599999987,0.039999952000000005,0.03999978360000001,-9.83547699999979,-0.044722250103497445,0.08114455279583288,0.03552410319904477,-0.05611951574570269,8.346799320230292e-05
0.8325,-0.00407784229482748,-0.7919664879996966,-0.0075811890696908186,-2.356005380000011,-0.005264870654782731,1.5746317199998514,0.7860407449999988,0.039999950500000006,0.03999978090000001,-9.835526499999789,-0.04482941385313131,0.0821303176958203,0.03575007129904188,-0.05638663358873117,8.292322080230987e-05
