rsonawane2002/My_IMU/logs_test/traj_258/clean_258.csv
time,j1,j2,j3,j4,j5,j6,j7,gripper1,gripper2,imu_ax,imu_ay,imu_az,imu_gx,imu_gy,imu_gz,quat_x,quat_y,quat_z,quat_w
78.38333333333017,0.00016700293,-0.785875,4.0107683e-05,-2.3551247,9.29385e-05,1.570997,0.786,0.04,0.04,0.0,-0.0,0.0,2.875329272945135e-08,-0.0011641195053377316,4.421952117202833e-08,0.9999995971961153,0.00020320632366974898,0.0008736418299892524,3.263050917662294e-05
78.39999999999684,0.00016699944,-0.78576016,4.0123345e-05,-2.3552213,9.298249e-05,1.5709941,0.786,0.04,0.04,-0.29199846033831633,-4.4932305855107e-05,0.020128406589292602,3.092452905795211e-07,-0.0022378867457689723,2.1509390698197732e-07,0.999999685058725,0.00020320727340207125,0.0007665025182469668,3.260589344008721e-05
78.4166666666635,0.0001669527,-0.78565425,4.0198756e-05,-2.35531,9.308195e-05,1.5709913,0.786,0.04,0.04,0.0232628479147845,-6.442632302376856e-05,-0.0016365876088331177,2.6693318391825114e-06,-0.0032197279369038188,1.1534826795832398e-06,0.9999997558653883,0.0002032083180883505,0.0006677674469223123,3.25911059784962e-05
78.43333333333017,0.00016679356,-0.78555685,4.0433104e-05,-2.355391,9.3332696e-05,1.5709884,0.786,0.04,0.04,0.022394862488850364,-0.00017670960606041447,-0.0014911109571080772,8.926057020326e-06,-0.004113780620340254,3.567983933248493e-06,0.9999998122944241,0.00020320895336860959,0.0005771087871657435,3.2598860542525126e-05
78.44999999999683,0.0001664241,-0.78546715,4.096867e-05,-2.3554654,9.387411e-05,1.5709856,0.786,0.04,0.04,0.019850191265113892,-0.0003405379298714777,-0.0014303259862513684,2.0908840856165556e-05,-0.004915742895740512,8.085818133460604e-06,0.9999998569838174,0.00020320785173292565,0.0004936324623421321,3.264821317968427e-05
78.4666666666635,0.00016572056,-0.7853845,4.198658e-05,-2.3555338,9.487923e-05,1.5709827,0.786,0.04,0.04,0.017908713145442512,-0.0005467859433883266,-0.0013672772879891326,4.073311293246464e-05,-0.005629657361760074,1.52884600707139e-05,0.9999998920177707,0.00020320287038210304,0.000416653009635734,3.27614100092499e-05
78.48333333333017,0.00016453565,-0.7853081,4.3702577e-05,-2.3555994,9.655865e-05,1.5709798,0.7860019,0.04,0.04,0.011849520251816514,-0.0007955654223615793,-0.0023389471229817715,6.99734249855182e-05,-0.00625614660796742,2.567912861082503e-05,0.9999999193604427,0.00020414514689101143,0.0003442630359887461,3.296708923708284e-05
78.49999999999683,0.0001627015,-0.78523755,4.6363617e-05,-2.3556585,9.915007e-05,1.5709769,0.7860038,0.04,0.04,0.017296336566396953,-0.0010795067385877444,-0.000517429273227954,0.00010198688645645269,-0.006805635122109621,3.971630755535045e-05,0.9999999397966945,0.00020507753720273798,0.0002779228701221457,3.3296983812751244e-05
78.5166666666635,0.00016003134,-0.7851724,5.0244456e-05,-2.3557167,0.00010292765,1.5709739,0.78600574,0.04,0.039999995,0.007618781020068965,-0.0014012996800691617,-0.002673655860907509,0.00014741495658733293,-0.007262636917481087,5.8575336854416134e-05,0.9999999551484496,0.00020599648658015083,0.0002147714681634778,3.378998152362509e-05
78.53333333333016,0.00015632226,-0.7851119,5.564491e-05,-2.3557727,0.00010816148,1.5709707,0.78600955,0.04,0.04,0.008712530057608525,-0.0017326908854903788,-0.00187491433498721,0.00020785816922303443,-0.007648198699003542,8.029301215661981e-05,0.9999999658079491,0.0002078511423184299,0.0001548981844895498,3.4475433990689324e-05
78.54999999999683,0.00015135622,-0.78505594,6.288624e-05,-2.355824,0.00011517111,1.5709667,0.7860153,0.04,0.04,0.012886093197495008,-0.002109646025517714,-0.000984033884576796,0.0002761446621286438,-0.007953631920126023,0.00010756388507202747,0.9999999722576122,0.0002106368962847081,9.931626500135709e-05,3.5399891437939285e-05
78.5666666666635,0.00014490237,-0.7850037,7.230924e-05,-2.355875,0.00012428599,1.57096,0.7860213,0.04,0.04,0.0036892430910206997,-0.0025016040483257906,-0.004081417234180762,0.00035443672393708207,-0.008167570895991887,0.00013985630705079473,0.9999999755455196,0.00021354424577250874,4.436001474198271e-05,3.660607189015269e-05
78.58333333333016,0.00013671855,-0.7849547,8.4271705e-05,-2.3559258,0.00013586083,1.5709532,0.786029,0.04,0.039999995,0.0039276782636266105,-0.0029210963111808296,-0.0018218560106531,0.0004514819632930083,-0.00831721483695503,0.0001781825562637642,0.9999999756330924,0.00021725340701796216,-8.927558525507048e-06,3.8145388327402056e-05
78.59999999999683,0.00012655304,-0.7849089,9.914644e-05,-2.3559768,0.000150227,1.5709456,0.78603905,0.04,0.04,0.0028248805388875198,-0.0033297347001764676,-0.002533629012391181,0.0005628715220921373,-0.008389418249868759,0.00021964154900080274,0.9999999726591022,0.00022211621926210916,-6.117237211907689e-05,4.005147594860665e-05
78.61666666666349,0.00011414474,-0.78486556,0.00011731829,-2.356028,0.00016779162,1.5709351,0.78605175,0.039999995,0.03999999,0.0014585367847486097,-0.003798501184393093,-0.0036718260392198943,0.0006869418771186309,-0.00838509799256785,0.00026995348540392254,0.9999999665876248,0.0002282465523031339,-0.00011371562082424429,4.2391253072804616e-05
78.63333333333016,9.9226374e-05,-0.7848245,0.00013918399,-2.3560834,0.00018889802,1.5709242,0.786067,0.03999999,0.04,-0.004531377817174054,-0.004226429574278814,-0.0034719526743609563,0.0008242350742297649,-0.008312200952518415,0.00032207902232854956,0.9999999572129675,0.00023560851686646223,-0.00016739185876357975,4.5195746530942e-05
78.64999999999682,8.152355e-05,-0.78478533,0.00016514875,-2.356141,0.00021395797,1.5709097,0.78608483,0.039999988,0.039999995,-0.0030339064618578604,-0.004707820653539121,-0.004742538929569662,0.0009763866187341301,-0.008172978376624496,0.00038265032884430466,0.9999999441341983,0.00024419623167492335,-0.00022303567817284103,4.852717737413974e-05
78.66666666666349,6.0757044e-05,-0.7847478,0.00019562573,-2.3561997,0.0002433688,1.5708944,0.7861058,0.039999984,0.03999999,-0.00014014728317857106,-0.005183068718880152,-0.002066065904959835,0.0011455872715324586,-0.007973023236004217,0.0004492973892080989,0.9999999274175437,0.0002543015827511246,-0.0002788293051401662,5.2438831408856165e-05
78.68333333333015,3.664361e-05,-0.7847113,0.00023103452,-2.3562646,0.00027753477,1.570876,0.78613013,0.039999984,0.03999999,-0.010285499554862909,-0.005663683171228703,-0.005630749637952626,0.0013299298802376663,-0.007688741249090721,0.0005220903033480476,0.9999999056452372,0.0002660081952331285,-0.00033867703901451597,5.698262884443952e-05
78.69999999999682,8.8965835e-06,-0.78467584,0.0002717995,-2.3563309,0.0003168642,1.5708541,0.7861581,0.03999998,0.03999999,-0.0024379701089927153,-0.0061523862805654035,-0.003900413143265169,0.001530505527952029,-0.007353651930340817,0.0006002461204358163,0.9999998788069839,0.0002794584503251529,-0.0004005227624581885,6.221341408699886e-05
78.71666666666349,-2.2773369e-05,-0.784641,0.00031834876,-2.3564043,0.00036177086,1.5708306,0.7861899,0.039999977,0.039999988,-0.011912897259458433,-0.0066424831820222985,-0.0047621140458975475,0.0017473455893742113,-0.00694453051979319,0.0006855205029873707,0.9999998454703838,0.0002947663604021678,-0.0004663933257773753,6.818553526307463e-05
78.73333333333015,-5.8656984e-05,-0.7846065,0.0003711135,-2.356482,0.00041266915,1.5708039,0.78622615,0.039999977,0.039999988,-0.0079747211706227,-0.00713780242359424,-0.004520653027118016,0.0019810050275324794,-0.006474761365192433,0.000777088651621924,0.999999804879239,0.0003121935300792186,-0.0005358718592577916,7.495354567006492e-05
78.74999999999682,-9.904652e-05,-0.7845723,0.00043052592,-2.3565645,0.0004699757,1.5707735,0.78626704,0.03999997,0.03999998,-0.008934796298620817,-0.007632602757138098,-0.005093534724198712,0.002230136108299213,-0.00593795277056077,0.0008749637242450896,0.9999997558216079,0.0003318535278996075,-0.000609435622728407,8.257228470272458e-05
78.76666666666348,-0.00014423436,-0.7845379,0.00049701944,-2.356654,0.0005341077,1.5707397,0.7863127,0.03999996,0.039999977,-0.012992871105410586,-0.008127545380696884,-0.005527405279681652,0.002495318528121035,-0.005334316905417892,0.000978280433075704,0.999999696441571,0.0003538005245584398,-0.0006882175988014661,9.1096055425768e-05
78.78333333333015,-0.00019451305,-0.78450304,0.00057102746,-2.3567507,0.0006054831,1.5707022,0.7863635,0.039999958,0.039999973,-0.014281622218237366,-0.008622849881396435,-0.005934649443872786,0.002777133587013976,-0.004671127302812066,0.0010887391468791382,0.9999996247770769,0.0003782079376607882,-0.0007728442277832089,0.00010057962430847474
78.79999999999681,-0.00025017443,-0.78446764,0.0006529822,-2.3568556,0.000684518,1.5706604,0.78641963,0.039999954,0.03999997,-0.015711493590941927,-0.009115198457192794,-0.006584985481095096,0.003075615953763519,-0.003950099225891109,0.0012054494502896328,0.9999995385434645,0.00040518994479977013,-0.000863942042341175,0.00011107706486128607
78.81666666666348,-0.00031150927,-0.78443146,0.0007433147,-2.3569689,0.00077162706,1.5706146,0.7864815,0.039999947,0.039999966,-0.016265503712120655,-0.009605612388152046,-0.006298258272519064,0.003391085089460035,-0.0031720957196820776,0.0013275076665689137,0.9999994355915536,0.00043492044915354714,-0.0009615714463748432,0.0001226422881265408
78.83333333333015,-0.00037880693,-0.7843943,0.00084245356,-2.3570902,0.0008672239,1.5705645,0.78654945,0.039999947,0.039999966,-0.016169518352260326,-0.01009383061520979,-0.006364135167657992,0.003722761373657098,-0.002335805490851031,0.001456594066834369,0.9999993134776314,0.0004675735199578903,-0.001065882373088226,0.0001353293618725997
78.84999999999681,-0.00045235505,-0.78435594,0.00095082476,-2.3572245,0.00097171834,1.5705099,0.78662366,0.039999943,0.03999996,-0.02466943309391567,-0.010570875807241446,-0.008536474777254277,0.004070462508415458,-0.0014383381133228584,0.0015917609312420542,0.9999991666040706,0.0005032362202478367,-0.0011795282679529302,0.0001491895966606811
78.86666666666348,-0.00053243845,-0.7843161,0.0010688511,-2.3573673,0.0010855166,1.5704504,0.78670454,0.039999936,0.039999958,-0.017689622628314083,-0.011053635998594163,-0.006775619617371831,0.0044347202864001645,-0.0005016240835163553,0.0017320943665573739,0.9999989937408562,0.0005421115317274959,-0.001300632788592046,0.00016427632643187026
78.88333333333014,-0.00061934,-0.7842747,0.001196951,-2.3575191,0.0012090236,1.5703855,0.78679234,0.039999936,0.039999958,-0.018882457108904127,-0.011526495230565394,-0.007345638228484219,0.0048150920340676,0.0004948125171032399,0.0018792245878920142,0.9999987907741376,0.0005843154645210755,-0.0014298231304825072,0.00018064195521558818
78.89999999999681,-0.0007133393,-0.78423166,0.0013355394,-2.3576844,0.0013426373,1.5703156,0.7868873,0.03999994,0.039999966,-0.02597827130732533,-0.011985844990443284,-0.008855855572464932,0.005211106439701061,0.0015500111499020751,0.0020313327299448453,0.9999985511018928,0.0006299663919410932,-0.0015689485475419034,0.00019833536058941093
78.91666666666347,-0.00081471336,-0.7841867,0.0014850259,-2.3578596,0.0014867535,1.5702403,0.78698975,0.039999947,0.039999973,-0.020824986531220446,-0.012450391646196554,-0.007637333355736686,0.0056233505016371,0.002647705068220368,0.0021900551691286588,0.9999982720003396,0.0006792392562806238,-0.0017167888544323802,0.00021740836431630663
78.93333333333014,-0.0009237351,-0.78413963,0.0016458161,-2.358049,0.0016417609,1.5701591,0.7870999,0.039999954,0.03999998,-0.028077381752789066,-0.012895437545052844,-0.009623715211137807,0.006051124301687963,0.0038039764296059425,0.002354390509174001,0.9999979445521555,0.0007322237323995428,-0.0018756705092713274,0.00023790756717640256
78.9499999999968,-0.0010406742,-0.7840903,0.0018183091,-2.3582492,0.0018080448,1.5700723,0.787218,0.039999958,0.039999988,-0.022869041011897018,-0.013344938869992284,-0.007992361120923164,0.006494996816967212,0.0049996313695711446,0.0025234052221697993,0.9999975659983651,0.0007890361754073591,-0.0020439862852618122,0.0002598832911806974
78.96666666666347,-0.0011657965,-0.7840385,0.0020028998,-2.358463,0.0019859846,1.5699792,0.7873444,0.039999966,0.04,-0.02773794267354468,-0.013776584215804012,-0.00963650348717593,0.006954558023674382,0.006253399685159572,0.002697810978805292,0.9999971267212526,0.000849886109444301,-0.0022234968521414743,0.0002833806425982719
78.98333333333014,-0.0012993638,-0.7839843,0.002199975,-2.3586907,0.0021759712,1.56988,0.78747934,0.03999997,0.039999995,-0.0279967491883637,-0.014214706387009326,-0.009623838499517312,0.007429612312585184,0.0075500273711449645,0.0028799632837411635,0.9999966198138713,0.0009148637660272133,-0.0024141749580824314,0.00030845484787307264
78.9999999999968,-0.0014416343,-0.7839275,0.0024099185,-2.3589323,0.0023783592,1.5697744,0.78762305,0.039999973,0.04,-0.02836657276632515,-0.014624015704889168,-0.009782539350977615,0.007919692990986245,0.00889399101735515,0.003065515804966914,0.9999960370469957,0.0009840890546642606,-0.002616321412299661,0.00033514370596077
79.01666666666347,-0.001592861,-0.7838678,0.002633104,-2.359188,0.0025935082,1.5696617,0.7877759,0.039999973,0.04,-0.029684929904782997,-0.015028256054955471,-0.010305634282548048,0.00842517990953683,0.010284883578856834,0.0032560374697612384,0.9999953682983258,0.0010577432168226836,-0.0028306247356912027,0.0003634897368087271
79.03333333333013,-0.0017532927,-0.7838053,0.0028699015,-2.359459,0.002821778,1.5695424,0.78793806,0.039999973,0.04,-0.03058232118386961,-0.015429187489058357,-0.010495035926916252,0.008945639628559831,0.011717723129726486,0.003451393103892921,0.9999946041925762,0.0011359484614178142,-0.0030571776626198565,0.00039353724730970213
79.0499999999968,-0.0019231737,-0.78373975,0.0031206738,-2.3597453,0.0030635048,1.5694164,0.7881098,0.039999973,0.04,-0.031778529367976205,-0.015807845968004042,-0.010546068012673437,0.00948033347445047,0.01319600318875909,0.0036506654570380975,0.9999937336675578,0.001218797830030716,-0.0032964010102306267,0.00042532087492263903
79.06666666666347,-0.0021027443,-0.783671,0.0033857764,-2.360047,0.0033190588,1.5692832,0.78829145,0.03999997,0.03999999,-0.03198521510829888,-0.016205868388759898,-0.010904955072144062,0.010029966288316658,0.014716508968453498,0.0038568138815399614,0.9999927450410396,0.0013065045705500091,-0.003548566960022037,0.00045889391332541756
79.08333333333013,-0.0022922384,-0.7835991,0.0036655571,-2.3603656,0.0035887305,1.5691426,0.78848296,0.03999997,0.04,-0.03417487943855324,-0.01653579777827017,-0.011723980597344585,0.010593529048162135,0.016281472657928384,0.004063434532717262,0.9999916240452946,0.0013990154190620999,-0.003814484259103423,0.0004942721399965133
79.0999999999968,-0.0024918872,-0.78352386,0.0039603566,-2.3607008,0.003872886,1.5689942,0.7886848,0.03999997,0.04,-0.034304736861567875,-0.016918368217269403,-0.011911764129268754,0.011172251711362175,0.017883103794051593,0.004277421096532225,0.999990357158941,0.0014965757952958769,-0.004094306524154912,0.0005315111557086014
79.11666666666346,-0.002701917,-0.7834451,0.0042705107,-2.3610535,0.004171829,1.5688379,0.7888971,0.039999966,0.04,-0.035806164462215406,-0.017247682577197724,-0.012242828030961661,0.01176515246505135,0.019524198272988062,0.004493839770472508,0.9999889284767611,0.0015992833637573057,-0.0043885750140379735,0.0005706364583362541
79.13333333333013,-0.002922547,-0.7833627,0.004596346,-2.3614235,0.0044858614,1.5686738,0.78912014,0.03999996,0.04,-0.03595456078684389,-0.01757232054718904,-0.012103970144372589,0.012372118184521427,0.02120095082074927,0.004713426292015465,0.9999873230386822,0.0017072653194216952,-0.004697324708433843,0.0006116760930765883
79.1499999999968,-0.0031539924,-0.78327656,0.004938182,-2.361811,0.004815316,1.568502,0.78935415,0.039999954,0.039999995,-0.03597942983966096,-0.017914896743108453,-0.01224532394623612,0.012992963338802916,0.02291555993242965,0.004938319592480924,0.9999855248956798,0.001820649867972871,-0.005020620778584228,0.0006546756202382452
79.16666666666346,-0.0033964629,-0.7831868,0.0052963286,-2.3622167,0.005160475,1.568322,0.78959924,0.03999995,0.039999995,-0.03759012529167549,-0.018205541234676218,-0.012952769760565808,0.013627324685232974,0.024668970888432337,0.005165944086310239,0.9999835146262639,0.0019395092773039312,-0.00535903529755996,0.0006996571642255515
79.18333333333013,-0.0036501654,-0.7830933,0.005671092,-2.362641,0.0055216285,1.5681337,0.7898559,0.039999943,0.039999995,-0.03814777611179654,-0.018499917581120667,-0.013146368266792052,0.014275574527489844,0.026458355909622356,0.0053961721282654584,0.9999812727248045,0.002064094320313473,-0.00571281302332922,0.0007466469565201539
79.19999999999679,-0.0039152983,-0.78299576,0.006062768,-2.3630843,0.005899056,1.5679367,0.790124,0.03999994,0.04,-0.038982248505181616,-0.018781604530531976,-0.013635464979322443,0.014936249852239956,0.028283969854591688,0.00562868047249708,0.999978777241463,0.0021943579118679914,-0.006082496888860655,0.0007956705475346582
79.21666666666346,-0.0041920547,-0.7828942,0.0064716437,-2.363547,0.00629305,1.5677313,0.79040396,0.03999994,0.04,-0.04009491910224039,-0.01906059919727929,-0.013646280432255686,0.015611131414590813,0.03014071489262456,0.005865930551453631,0.9999760064530737,0.0023305246737166728,-0.006468242999424554,0.0008467617185078331
79.23333333333012,-0.0044806297,-0.7827885,0.006898002,-2.3640294,0.006703911,1.567517,0.7906958,0.03999994,0.04,-0.04028909332693953,-0.019339843570164404,-0.01404339819333078,0.016298217165470492,0.032030048078519335,0.00610852951634595,0.9999729370693039,0.002472611945593143,-0.00687032691691635,0.0008999595608278764
79.24999999999679,-0.0047812033,-0.7826783,0.0073421164,-2.3645315,0.007131889,1.5672938,0.7909997,0.039999943,0.04,-0.04120524074846532,-0.019582297446291835,-0.014181091962317538,0.016998983527339986,0.033951298033127804,0.006352561056120653,0.9999695428372326,0.0026207537866583374,-0.007289203445171026,0.000955280388528903
79.26666666666345,-0.005093956,-0.782564,0.007804253,-2.3650541,0.0075772405,1.5670615,0.7913161,0.039999943,0.039999995,-0.041898842218124344,-0.019812254499138385,-0.014736685450933429,0.01771279599388157,0.03590208771723583,0.006598962076861982,0.9999657982796598,0.0027751495366733115,-0.007724970238995277,0.001012744182129533
79.28333333333012,-0.0054190615,-0.78244567,0.008284667,-2.3655968,0.008040209,1.56682,0.79164493,0.039999943,0.03999999,-0.041048860239323304,-0.020034011637412585,-0.014931154262187718,0.018438705852708535,0.037882520000529725,0.006847530816268713,0.9999616788746637,0.0029358177912231155,-0.008177516576707103,0.0010723705975212773
79.29999999999679,-0.005756689,-0.78232276,0.008783615,-2.36616,0.008521023,1.5665694,0.7919864,0.039999943,0.039999995,-0.04241497266310734,-0.020239245691047215,-0.01473922247752224,0.019177354211561137,0.03989652998805013,0.007096486884674,0.9999571543925163,0.00310286728008451,-0.008647268633788304,0.0011341688756709648
79.31666666666345,-0.006106999,-0.7821952,0.009301333,-2.3667448,0.009019907,1.5663092,0.7923407,0.039999943,0.04,-0.04465114724141461,-0.020410552061557972,-0.015811592365411187,0.01992847723439786,0.04193912590350095,0.007346492020947271,0.9999521880553127,0.003276415201443426,-0.0091351595727261,0.00119815124294373
79.33333333333012,-0.006470152,-0.78206336,0.009838058,-2.36735,0.00953711,1.5660394,0.7927079,0.03999994,0.039999995,-0.042181113690720196,-0.020630346652435703,-0.01545288556275004,0.020691894511026664,0.04400465401175406,0.00760048736852896,0.9999467571478036,0.003456539678594313,-0.00964036477528062,0.0012643456970063583
79.34999999999678,-0.006846301,-0.78192645,0.010394017,-2.3679774,0.010072846,1.5657601,0.7930886,0.039999936,0.03999999,-0.04542047657964954,-0.020780898887882808,-0.015813697187128106,0.021467839669627994,0.04610309587204199,0.007855008540850573,0.9999408190175882,0.003643538897029366,-0.010163997265323904,0.0013327589170625456
79.36666666666345,-0.0072355955,-0.7817853,0.01096943,-2.3686268,0.01062729,1.5654709,0.7934825,0.039999936,0.04,-0.044984547758408766,-0.02090987925826692,-0.016758317801457423,0.02225420859784879,0.048222958727815686,0.008108421118103556,0.9999343420335597,0.0038372920113070507,-0.010705948048758972,0.0014033845906355805
79.38333333333011,-0.0076381755,-0.7816393,0.01156451,-2.3692985,0.011200687,1.5651721,0.7938898,0.039999936,0.04,-0.04560011550598375,-0.021089065329480544,-0.016339900597572843,0.023053174714213306,0.05036843959237697,0.008366075801672063,0.9999272887778823,0.004037974124955593,-0.011266436886850183,0.001476252740730993
79.39999999999678,-0.008054179,-0.7814885,0.012179456,-2.3699925,0.0117932465,1.5648632,0.7943107,0.039999943,0.04,-0.04594520616523212,-0.021223903450118264,-0.016907231621132723,0.02386380699234015,0.05253709460645747,0.008625151100830144,0.9999196201575525,0.0042456469888164285,-0.011845713511391168,0.0015513790730504332
79.41666666666345,-0.008483738,-0.7813329,0.012814465,-2.3707087,0.012405143,1.564544,0.7947454,0.039999943,0.039999995,-0.045614397763160675,-0.02133958974072786,-0.017186270877034282,0.02468620181970942,0.054730148689427896,0.008883869812655678,0.9999112969666192,0.00446048755346091,-0.012443849390080537,0.0016287607791585323
79.43333333333011,-0.008926982,-0.7811724,0.013469729,-2.3714478,0.013036549,1.5642146,0.7951939,0.039999947,0.04,-0.04690737630379527,-0.02142694341097512,-0.01738450172836803,0.025519510531815,0.05694504713753541,0.009142189844840366,0.9999022755905245,0.004682532753507474,-0.01306118433050924,0.0017083968472222147
79.44999999999678,-0.009384026,-0.78100705,0.014145426,-2.3722095,0.013687636,1.5638751,0.7956563,0.039999943,0.039999995,-0.04633561687679144,-0.021531190490943486,-0.017468028278644354,0.02636439766284353,0.059181501587727656,0.009400682836899335,0.9998925171001871,0.00491184062785546,-0.01369755200726099,0.0017902898387659972
79.46666666666344,-0.009854994,-0.78083676,0.0148417335,-2.3729944,0.014358556,1.5635254,0.79613286,0.03999994,0.04,-0.04722855822825167,-0.021586778451125263,-0.01777447023845191,0.027220777899572425,0.06144058716964691,0.009657590182978952,0.9998819743104241,0.005148571355728559,-0.014353263358084095,0.0018744313955846097
79.48333333333011,-0.01033999,-0.7806612,0.015558813,-2.373803,0.015049492,1.5631651,0.7966237,0.03999994,0.039999995,-0.04848908010233188,-0.02166703086302242,-0.018444271544670876,0.028088121785940445,0.06372171594484492,0.009916558367710725,0.9998705921014676,0.005392850773701253,-0.01502901712235761,0.0019608303162775846
79.49999999999677,-0.01083913,-0.78048074,0.016296824,-2.3746352,0.015760591,1.562794,0.7971288,0.03999994,0.039999995,-0.04851648384180951,-0.02170809480041662,-0.018871740156778394,0.02896623534679738,0.06601854389281354,0.010174250052099106,0.9998583238874115,0.005644691772080783,-0.01572479691082068,0.0020494804141598876
79.51666666666344,-0.011352507,-0.7802952,0.017055914,-2.375491,0.016491985,1.5624126,0.7976484,0.039999936,0.039999995,-0.047655731362716836,-0.021748691212979468,-0.018372184021520077,0.02985524664396358,0.06833232071982938,0.010430520025148049,0.9998451272457718,0.005904249057525304,-0.016440199605845016,0.0021403744703019805
79.5333333333301,-0.011880221,-0.7801045,0.01783623,-2.3763704,0.017243816,1.5620208,0.79818237,0.039999932,0.039999995,-0.048542477042401444,-0.02177697288305719,-0.01891596153773545,0.030754835675374462,0.07066671089273197,0.010685883364869558,0.9998309464350384,0.006171535412848218,-0.017175626702110546,0.0022335059554060717
79.54999999999677,-0.012422365,-0.77990854,0.018637912,-2.3772743,0.018016225,1.561618,0.79873097,0.03999993,0.03999999,-0.04962369345280493,-0.02179059787366794,-0.019586479828026526,0.031665549729281484,0.07301936761202482,0.010940986712965152,0.9998157191274465,0.00644668635915025,-0.01793165904059558,0.002328867687381191
79.56666666666344,-0.012979023,-0.7797074,0.019461077,-2.378202,0.01880932,1.5612046,0.79929435,0.039999925,0.039999988,-0.0485315798422592,-0.02178200665638036,-0.019316032810046124,0.03258655439452283,0.07538515057556154,0.01119471234156004,0.9997993991747284,0.006729834641477328,-0.01870783480976522,0.002426448491320835
79.5833333333301,-0.013550276,-0.77950096,0.02030585,-2.379154,0.01962323,1.5607803,0.79987246,0.03999993,0.03999999,-0.0494076707624691,-0.021776238943526163,-0.019880089541568502,0.03351788782724459,0.07776883922256082,0.011446998182944167,0.9997819242188246,0.007020997168038666,-0.019504556401961155,0.0025262390293900915
79.59999999999677,-0.014136206,-0.7792893,0.021172352,-2.3801305,0.020458084,1.5603449,0.80046546,0.03999993,0.039999984,-0.04981389697094052,-0.021766743376833847,-0.02036426574130168,0.03445943265990547,0.08016746338373448,0.01169898208874861,0.9997632312552653,0.007320312710917595,-0.02032207783656034,0.002628232152958367
79.61666666666343,-0.014736879,-0.7790723,0.022060677,-2.3811316,0.021313954,1.5598985,0.8010734,0.039999925,0.039999984,-0.04987754547740586,-0.02169981796356947,-0.02049328880513457,0.035411235181295665,0.08257903406677293,0.011946664196964628,0.9997432592957446,0.007627830709507638,-0.021160474148137955,0.0027324028280198754
79.6333333333301,-0.01535236,-0.77885,0.02297094,-2.3821573,0.022190938,1.5594412,0.8016963,0.03999993,0.03999999,-0.04961231465110405,-0.02167206642784067,-0.020569116587387803,0.03637296994880985,0.08500105186416534,0.012192259971076341,0.9997219503128675,0.007943655324899235,-0.02201958262254999,0.0028387292657447646
79.64999999999677,-0.015982717,-0.7786223,0.023903226,-2.383208,0.023089154,1.558973,0.80233425,0.039999932,0.039999988,-0.05056822394242655,-0.021605608057518114,-0.021009723849063633,0.03734479025939693,0.08743896303758408,0.012437838532049543,0.9996992325158746,0.008267848123314882,-0.022899806687479648,0.0029472102499071783
79.66666666666343,-0.016628003,-0.7783891,0.024857618,-2.384284,0.024008665,1.5584935,0.80298734,0.03999993,0.039999984,-0.05108873852806006,-0.02151504693574148,-0.021460256454086668,0.038326454549791736,0.08988703767930632,0.012679114720409765,0.9996750328331591,0.008600521802494659,-0.023801460580041928,0.0030578144162132885
79.6833333333301,-0.017288275,-0.7781508,0.025834188,-2.385384,0.02494954,1.5580028,0.80365556,0.03999992,0.039999977,-0.048499135541013594,-0.02145136296207821,-0.021304076619221846,0.039317767626476686,0.09234427327285794,0.012917707903476391,0.9996493038709477,0.008941722612708777,-0.024723726583542795,0.003170522176082379
79.69999999999676,-0.017963573,-0.7779071,0.026833024,-2.3865092,0.025911838,1.5575007,0.804339,0.039999913,0.03999997,-0.05046948797242656,-0.021347744871201904,-0.022006308487076964,0.04031885361033923,0.0948154259025176,0.013153359633084782,0.999621958034469,0.009291535367027846,-0.025667395921188444,0.0032852964071397026
79.71666666666343,-0.018653944,-0.77765787,0.027854178,-2.3876603,0.02689563,1.5569879,0.8050377,0.039999917,0.039999973,-0.051842459377193784,-0.021193974246352942,-0.022148637672714244,0.041329768156431135,0.0972952604038288,0.013385887149800893,0.9995929194570059,0.009650065160307747,-0.026632634178816856,0.003402118533919125
79.7333333333301,-0.019359434,-0.7774033,0.028897712,-2.3888364,0.027900977,1.5564637,0.805752,0.039999913,0.03999997,-0.050197937796880865,-0.021107805722661577,-0.022398353424990525,0.04234954353909259,0.09978216913326604,0.013615044317222554,0.9995621193164915,0.010017540213237069,-0.02761922060583326,0.003520961335564961
79.74999999999676,-0.020080071,-0.7771432,0.02996368,-2.3900378,0.028927922,1.5559283,0.80648154,0.039999917,0.039999973,-0.050665243125913584,-0.020970768184207234,-0.02257496124895564,0.043377348990490006,0.1022779042058173,0.01384069364821603,0.999529480267924,0.010393840512760912,-0.028627320389970883,0.003641796537284258
79.76666666666343,-0.020815885,-0.7768776,0.031052114,-2.391264,0.02997652,1.5553818,0.80722636,0.03999991,0.039999966,-0.04971097060890717,-0.02084386401642671,-0.022591758077084023,0.04441472571670617,0.1047809181990397,0.014062498635186646,0.9994949332225477,0.010779024846772543,-0.029656682462327142,0.0037646077001740517
79.78333333333009,-0.02156689,-0.77660644,0.032163065,-2.392516,0.031046776,1.5548239,0.80798674,0.039999913,0.039999973,-0.05129902555045529,-0.020653697886365008,-0.023397163130933762,0.04546151136607853,0.10729306830225913,0.014279643561761264,0.9994583812160701,0.011173307149567718,-0.030707890050130277,0.0038893332285934723
79.79999999999676,-0.022333123,-0.77632976,0.033296563,-2.393793,0.03213875,1.5542547,0.80876225,0.039999913,0.03999997,-0.05040126124475908,-0.02051427064461292,-0.023394894090777996,0.04651628142432071,0.10980916931612042,0.014494188933844403,0.999419752363856,0.011576543853437092,-0.03178072122487596,0.004015965114989618
79.81666666666342,-0.02311459,-0.77604777,0.034452625,-2.395096,0.03325245,1.5536742,0.8095532,0.039999913,0.03999997,-0.05079855642571296,-0.020311590262191842,-0.023926714570232654,0.0475813033930933,0.11233031303883073,0.014703538326578378,0.9993789602693095,0.011988953330352575,-0.03287525285259775,0.004144456412394725
79.83333333333009,-0.023911307,-0.7757602,0.035631273,-2.3964243,0.03438792,1.5530821,0.8103596,0.039999906,0.03999996,-0.05034311308587114,-0.020159282902904724,-0.02415041816627994,0.04865475107076759,0.11485600390809708,0.014908397048560819,0.9993359150193281,0.012410594546626826,-0.03399165095445799,0.004274781967763605
79.84999999999675,-0.024723275,-0.77546716,0.036832523,-2.3977773,0.035545133,1.5524786,0.8111814,0.039999865,0.03999991,-0.049181080981730574,-0.0199692291517492,-0.02405891623784573,0.04973688122116077,0.11738480831440379,0.015110992916838574,0.9992905452634142,0.012841523188710945,-0.03512948551471237,0.004406889698378054
79.86666666666342,-0.025550507,-0.7751684,0.03805636,-2.399156,0.036724083,1.5518638,0.8120189,0.03999986,0.039999902,-0.05090207592308715,-0.01967463220645463,-0.024512161796730325,0.05082748900527342,0.11992016905685893,0.015306391880802739,0.999242743492812,0.013281923626218408,-0.036289279459897884,0.004540735405999698
79.88333333333009,-0.026392994,-0.77486426,0.039302796,-2.4005604,0.037924774,1.5512376,0.81287163,0.03999986,0.039999902,-0.05012589505590803,-0.019500511744037496,-0.02498241504147458,0.05192550250621147,0.1224558107451499,0.015497577340290843,0.999192426133199,0.013731702073816751,-0.03747089988627193,0.004676278212470637
79.89999999999675,-0.02725074,-0.77455467,0.04057183,-2.4019904,0.039147235,1.5506,0.81373984,0.03999986,0.039999902,-0.0503614021163612,-0.019282209290504698,-0.025297554530379074,0.053032005195148,0.12499272968986229,0.015682688253022978,0.9991394972348892,0.014190996376668092,-0.038674423101085605,0.004813489882447484
79.91666666666342,-0.02812372,-0.7742396,0.04186344,-2.4034455,0.04039145,1.5499512,0.81462353,0.039999858,0.0399999,-0.049109152811710466,-0.019081205999305767,-0.025157679978637937,0.05414636129286393,0.12752954004327105,0.015862214060538553,0.9990838748035797,0.0146598906739072,-0.039899537967738846,0.004952331052641765
79.93333333333008,-0.029011931,-0.7739191,0.04317761,-2.404926,0.04165737,1.5492911,0.81552273,0.039999865,0.039999902,-0.04966835418311888,-0.018778414044696295,-0.02563857646007417,0.05526842120294549,0.1300694725089538,0.01603707357463302,0.9990254569882995,0.01513847151507486,-0.04114640891605774,0.005092740207333816
79.94999999999675,-0.029915348,-0.773593,0.04451429,-2.4064322,0.042945005,1.5486197,0.81643724,0.03999986,0.0399999,-0.049747469150096535,-0.018537203534468166,-0.02593641667716362,0.05639780283159351,0.13261001839420827,0.016205305374031094,0.9989641406363355,0.015626723358927192,-0.042415200090170434,0.005234695892025996
79.96666666666341,-0.030833956,-0.77326167,0.04587348,-2.4079635,0.044254303,1.5479372,0.81736714,0.039999865,0.0399999,-0.04879800494383968,-0.018288304688009877,-0.026169611701853945,0.05753484182421054,0.1351479632797875,0.016367628757569246,0.9988998406341603,0.016124741314593027,-0.04370556969087248,0.005378129468762804
79.98333333333008,-0.031767722,-0.7729248,0.04725513,-2.4095197,0.045585223,1.5472434,0.81831247,0.03999986,0.039999895,-0.04818050953083741,-0.018024410955450043,-0.026057554857250587,0.05867910206006379,0.13768601915551454,0.01652461005173223,0.9988324594882226,0.01663262237750292,-0.04501744360234283,0.005522998919545258
79.99999999999675,-0.032716624,-0.7725824,0.048659183,-2.4111018,0.046937753,1.5465382,0.81927305,0.039999858,0.039999887,-0.049954527642048774,-0.017685672372766414,-0.027148703453327983,0.05983038067961657,0.14022497754873917,0.016675227759259267,0.9987618665040797,0.017150380855391858,-0.046351460737981395,0.005669262849530156
80.01666666666341,-0.033680618,-0.77223456,0.0500856,-2.4127083,0.04831179,1.5458218,0.82024896,0.03999986,0.03999989,-0.04704823538379532,-0.01746135480405267,-0.026506120644165243,0.0609886721656252,0.1427578690010307,0.016818815884513415,0.9986879946550145,0.017678082326507055,-0.04770680216952917,0.005816851722418927
80.03333333333008,-0.034659673,-0.77188116,0.051534317,-2.4143403,0.04970733,1.5450943,0.8212401,0.03999986,0.039999887,-0.04884840441783389,-0.017113432563703457,-0.02727840152980665,0.06215404458599638,0.14529027560844313,0.016956511756522262,0.9986107132501745,0.018215805828014537,-0.049083987287173565,0.005965734825361966
80.04999999999674,-0.03565374,-0.7715225,0.05300528,-2.4159975,0.051124282,1.5443553,0.8222465,0.039999865,0.03999989,-0.04805712005999663,-0.016811190103868667,-0.027863718912368718,0.06332551986668014,0.14781745383905306,0.017086678397905383,0.9985299180542035,0.018763585832566494,-0.05048293960926603,0.0061158323862582
80.06666666666341,-0.036662772,-0.7711584,0.05449842,-2.41768,0.052562576,1.5436049,0.82326806,0.039999865,0.039999887,-0.04813154959593113,-0.01648196262789975,-0.02807260449479987,0.06450365887260014,0.15033812519746426,0.01721069850626386,0.9984454915678388,0.019321502387410042,-0.05190379066808807,0.006267090842898481
80.08333333333007,-0.037686735,-0.770789,0.05601367,-2.4193869,0.05402217,1.542844,0.82430464,0.039999865,0.039999884,-0.045883193606144346,-0.016235146377162335,-0.02710583529770272,0.06568784235192723,0.15285138150495625,0.017327056768630555,0.9983573822543224,0.01988953148898498,-0.053345422056092426,0.006419484488872405
80.09999999999674,-0.03872555,-0.770414,0.057550937,-2.4211187,0.055502985,1.542072,0.82535636,0.03999986,0.039999876,-0.04750913761877307,-0.01585602356995175,-0.02830385510885769,0.06687849629801326,0.15536464832377472,0.017437090072032778,0.9982654242649921,0.0204678187265272,-0.05480882713746893,0.006572943132920617
80.1166666666634,-0.03977919,-0.7700337,0.059110146,-2.4228756,0.05700492,1.5412891,0.8264231,0.039999865,0.03999988,-0.04682191891582921,-0.015489535831994528,-0.028622254621812893,0.06807478146164858,0.15786873008941926,0.01753960859330147,0.9981695201498235,0.02105639478556918,-0.05629368888609883,0.006727397275350376
80.13333333333007,-0.040847573,-0.7696483,0.06069121,-2.4246566,0.05852787,1.5404952,0.8275049,0.039999872,0.039999884,-0.044946215248242716,-0.015213201218852723,-0.028429759826309464,0.06927655416251352,0.16036395804409811,0.017635035603823568,0.9980695841927519,0.021655306037252582,-0.05779948246666435,0.0068827796947144955
80.14999999999674,-0.041930623,-0.7692576,0.062294032,-2.4264622,0.060071807,1.5396901,0.8286015,0.03999987,0.039999876,-0.04573954638682487,-0.014888724154347999,-0.02905056720161614,0.07048326354447478,0.16285691455921097,0.017722954096585725,0.9979654780636743,0.02226455021738823,-0.059326604003700725,0.007039066283780959
80.1666666666634,-0.043028295,-0.7688615,0.0639185,-2.428292,0.061636593,1.5388743,0.82971275,0.039999872,0.039999876,-0.045215995576719514,-0.01447287048814555,-0.02899676219256797,0.0716956475792644,0.1653390595448822,0.017803195079597642,0.9978570941302466,0.022884127355895286,-0.06087488268163378,0.007196184238654713
80.18333333333007,-0.044140518,-0.76846015,0.06556454,-2.4301465,0.063222125,1.5380476,0.83083874,0.039999876,0.039999876,-0.04514530148034268,-0.014125273759382773,-0.029570112739607524,0.07291349129856453,0.1678120546197607,0.01787471627566771,0.997744310455371,0.023514143263416384,-0.062444326823614546,0.007354051133181002
80.19999999999673,-0.04526721,-0.7680536,0.06723202,-2.4320242,0.064828314,1.5372101,0.83197945,0.039999876,0.039999872,-0.04302781081773066,-0.013834041603616454,-0.02905446155885283,0.0741361135337439,0.170275667486051,0.017939367425017255,0.9976270439793745,0.024154653427788556,-0.06403432006910328,0.0075126354927004795
80.2166666666634,-0.0464083,-0.76764184,0.06892078,-2.4339263,0.06645503,1.5363619,0.83313483,0.03999988,0.039999872,-0.04429149256277576,-0.013329017150996714,-0.029985971016621704,0.07536344273198503,0.17273229324649836,0.01799590364018383,0.9975051429395049,0.024805748269271247,-0.06564531341187485,0.007671863469597314
80.23333333333007,-0.047563687,-0.7672251,0.07063079,-2.4358525,0.06810217,1.5355033,0.83430463,0.039999872,0.03999986,-0.043446177235639816,-0.013078570365174236,-0.030063225293996965,0.0765946098448365,0.1751774837613659,0.018044970979166533,0.9973785070970708,0.02546734951900622,-0.06727698566498819,0.007831659410879837
80.24999999999673,-0.04873331,-0.7668031,0.07236184,-2.4378026,0.06976957,1.534634,0.835489,0.039999872,0.039999858,-0.04309759318521511,-0.012568571133990403,-0.030241195734381776,0.07783007614280196,0.17761103267710027,0.018085474988823125,0.9972470038051717,0.02613962330687121,-0.06892940014013572,0.007991951658004889
80.2666666666634,-0.04991705,-0.76637614,0.07411382,-2.4397762,0.07145716,1.5337542,0.8366876,0.039999872,0.039999854,-0.042140470364016025,-0.012296075710789556,-0.030453547331488195,0.07906873043748694,0.18003194939806935,0.018117763501031253,0.9971105309471601,0.026822507996518894,-0.07060223394733235,0.00815271124812975
80.28333333333006,-0.051114835,-0.76594406,0.07588662,-2.441773,0.07316477,1.5328639,0.8379006,0.03999988,0.039999858,-0.041343480157185475,-0.011901608228286065,-0.030507195678053378,0.08031113387769068,0.1824419623552392,0.0181417136056833,0.9969689669648231,0.02751606861477014,-0.07229540074247423,0.00831383837742614
80.29999999999673,-0.052326556,-0.7655069,0.07768008,-2.4437928,0.074892305,1.5319632,0.83912754,0.03999988,0.039999854,-0.04095973525213292,-0.011537396265647037,-0.030580930855017563,0.08155641285880803,0.18484002391978854,0.01815712865225455,0.9968222010967807,0.028220237564155627,-0.07400869368366186,0.008475308350140782
80.3166666666634,-0.053552136,-0.7650648,0.07949407,-2.4458354,0.076639585,1.5310521,0.8403686,0.039999887,0.039999854,-0.039931402424442375,-0.011134024886673421,-0.030816037022751708,0.08280545241932706,0.1872247966727591,0.01816417284540295,0.9966701129603632,0.028935142114545166,-0.07574196556491498,0.008637021173476495
80.33333333333006,-0.05479146,-0.7646177,0.08132841,-2.4479015,0.07840649,1.5301309,0.8416234,0.03999989,0.039999854,-0.041069381554570406,-0.010645037020499959,-0.0315004033521582,0.0840570618041558,0.18959679327993342,0.018163234659898456,0.996512555303487,0.02966068801634841,-0.07749548076409002,0.008798930051653029
80.34999999999673,-0.056044422,-0.7641655,0.083182976,-2.4499905,0.08019285,1.5291996,0.84289217,0.039999887,0.039999846,-0.0397592744100006,-0.010310801029290995,-0.03124069511544203,0.08531218973551788,0.19195083907958974,0.01815275759323061,0.9963494194858774,0.03039703808226535,-0.0792688832990827,0.008960943393242743
80.36666666666339,-0.057310913,-0.76370865,0.0850576,-2.4521022,0.08199851,1.5282582,0.8441746,0.039999865,0.039999787,-0.03876498046981869,-0.009912540944030657,-0.031645108290989654,0.08656976979884524,0.19429087147230192,0.018139832882854715,0.9961805940967166,0.031144147929812353,-0.08106193228088017,0.009123000039940397
80.38333333333006,-0.05859083,-0.7632469,0.086952105,-2.4542358,0.08382332,1.5273067,0.84547067,0.03999986,0.039999783,-0.03753156445089889,-0.009539024431498566,-0.03143794477464823,0.0878284002163118,0.196614257126922,0.018111507568198487,0.9960059688270841,0.031902019479101686,-0.08287435715366497,0.009285049291367508
80.39999999999672,-0.059884045,-0.76278037,0.088866346,-2.456392,0.08566714,1.5263454,0.8467801,0.039999865,0.039999783,-0.038208558423380445,-0.009102321879515818,-0.03199992008793284,0.08908888816278217,0.19892266259951524,0.01807497357924999,0.9958254013939355,0.032670652151744965,-0.08470627094128624,0.009447014862300636
80.41666666666339,-0.061190445,-0.76230913,0.09080015,-2.4585695,0.08752978,1.5253743,0.848103,0.039999865,0.03999978,-0.035588415459986145,-0.0088080118555392,-0.03140155808218914,0.09035103759392038,0.20121416095659805,0.018029676676232925,0.9956388207615197,0.03345007094904817,-0.08655692748775277,0.009608831874581494
80.43333333333005,-0.06250991,-0.7618332,0.09275331,-2.4607692,0.08941106,1.5243934,0.8494392,0.03999987,0.03999978,-0.03681789687146608,-0.008248042747456552,-0.032355462470867735,0.09161480435218862,0.20349155389941725,0.01797552737649777,0.9954460500980599,0.034240365315624466,-0.08842679262859925,0.009770418242952638
80.44999999999672,-0.0638423,-0.7613526,0.09472567,-2.4629903,0.091310814,1.5234029,0.8507886,0.03999987,0.039999776,-0.03530832454592403,-0.007938516032222898,-0.03213158387960213,0.09287836154147809,0.2057501231866689,0.017912556859898454,0.9952469953572696,0.035041480197301834,-0.0903154136588902,0.009931714531366879
80.46666666666339,-0.06518753,-0.7608675,0.096717015,-2.4652333,0.09322882,1.5224029,0.852151,0.039999876,0.03999978,-0.03562408471253775,-0.007355580337520262,-0.03271813941314594,0.0941427716893423,0.20799099348285027,0.017840808267425845,0.9950415099984233,0.03585344613942162,-0.09222289690122981,0.010092624392606674
80.48333333333005,-0.06654546,-0.7603777,0.09872715,-2.4674976,0.09516497,1.5213938,0.85352623,0.039999872,0.03999977,-0.034223507839259426,-0.007067698601395667,-0.03213847873548836,0.09540696404280793,0.21021000639850407,0.017760882597031666,0.9948295071253362,0.03667624883264707,-0.09414869941254708,0.010253142116065738
80.49999999999672,-0.06791595,-0.7598835,0.100755915,-2.4697828,0.097119,1.520375,0.8549143,0.039999876,0.03999977,-0.03340971768619472,-0.00663624175309685,-0.03284660506985837,0.09667083052982928,0.2124121459398858,0.017671235794450804,0.9946108457228947,0.03750990572623199,-0.09609286780038259,0.010413131166732559
80.51666666666338,-0.06929886,-0.75938475,0.1028031,-2.4720883,0.099090815,1.519347,0.8563147,0.039999884,0.03999977,-0.032088812738773065,-0.006362364091222483,-0.032324526561033906,0.09793413141478663,0.21459289256213385,0.017573595546248363,0.9943854394381696,0.03835421581471357,-0.09805494429977064,0.010572599536801647
80.53333333333005,-0.070694074,-0.75888157,0.10486849,-2.4744148,0.10108016,1.5183096,0.8577275,0.03999988,0.03999976,-0.03271774716810949,-0.005759453323549157,-0.03318571568105,0.09919798392503401,0.21675507792662038,0.01746570936065274,0.9941531210015422,0.03920932657588483,-0.10003517878409385,0.01073143597068324
80.54999999999671,-0.07210142,-0.758374,0.106951885,-2.4767609,0.10308684,1.5172635,0.8591529,0.03999988,0.039999753,-0.030058697469481643,-0.0055400256267115755,-0.03202734369591731,0.10046086150470435,0.218892990545264,0.017349848613061783,0.9939138514746629,0.04007531963194044,-0.1020325520650685,0.010889578609319318
80.56666666666338,-0.07352077,-0.75786203,0.10905309,-2.479128,0.10511062,1.5162082,0.8605902,0.039999887,0.039999757,-0.032016084403418965,-0.004915931698137865,-0.03382695560720794,0.10172109970982078,0.22101463584343162,0.017224297582535228,0.9936674039387582,0.04095199257674266,-0.10404801793363061,0.011046927975062156
80.58333333333005,-0.074952,-0.7573459,0.111171864,-2.4815142,0.10715138,1.5151442,0.86204,0.03999989,0.039999757,-0.02877935270635401,-0.004690119172647,-0.03243797280063632,0.10298046250720422,0.22310817864486485,0.017089615729007662,0.9934137605072176,0.04183963108781373,-0.10608029095014777,0.011203462735958084
80.59999999999671,-0.076394916,-0.7568255,0.11330804,-2.4839196,0.109208845,1.5140712,0.8635013,0.039999895,0.039999753,-0.028281146837794147,-0.004337306513434169,-0.03290804686670867,0.10423641166367476,0.22518463162059674,0.016947209895672152,0.9931527864389469,0.04273780021078557,-0.10812952489624088,0.01135909624097343
80.61666666666338,-0.0778494,-0.75630105,0.11546134,-2.4863448,0.11128283,1.5129899,0.8649741,0.0399999,0.03999975,-0.028709373898805346,-0.0037487314425904694,-0.03320841448508638,0.10549136705358898,0.22723706316357556,0.016795429791737357,0.9928843556416455,0.043646576884384905,-0.11019557730679153,0.01151379131186065
80.63333333333004,-0.07931533,-0.7557724,0.11763158,-2.4887888,0.1133731,1.5119002,0.8664585,0.039999906,0.039999753,-0.027012492857325654,-0.003429673002322553,-0.03277607174088093,0.10674474777328909,0.22926665268368482,0.01663395491668676,0.9926083739552795,0.04456606369391644,-0.11227801438554078,0.01166745072096784
80.64999999999671,-0.08079247,-0.75523967,0.11981847,-2.4912522,0.11547944,1.5108019,0.8679545,0.03999991,0.03999975,-0.02737921763027451,-0.0029671664762948025,-0.03361961987722317,0.10799458079803832,0.23127343141103837,0.016463606060772573,0.9923246660419539,0.045496323831430374,-0.11437713639298405,0.011819998015687951
80.66666666666337,-0.08228072,-0.75470287,0.122021854,-2.4937332,0.11760164,1.5096952,0.869462,0.039999913,0.039999746,-0.02438114430207694,-0.0027871390166550603,-0.03260296080649372,0.1092400054817161,0.23325320624544293,0.016285500989727544,0.9920332040713264,0.046437277559669976,-0.11649200535746351,0.011971380898662702
80.68333333333004,-0.08377994,-0.7541622,0.12424144,-2.4962332,0.11973945,1.5085806,0.8709804,0.039999917,0.039999746,-0.025983632382309274,-0.002067705539238185,-0.033495111009007594,0.11048076346106875,0.23521134013078304,0.016097952877182464,0.9917338245161482,0.04738875950841297,-0.11862291113333544,0.01212154021072326
80.6999999999967,-0.08528993,-0.75361764,0.12647706,-2.498751,0.121892646,1.5074581,0.8725098,0.039999913,0.039999735,-0.023436387236897005,-0.0019389822224824549,-0.03271977283734184,0.11171805288179372,0.2371416867766838,0.01590226305227624,0.9914264755817276,0.048350802698533715,-0.1207691223044141,0.012270390858606987
80.71666666666337,-0.08681052,-0.7530694,0.12872837,-2.5012865,0.12406097,1.5063277,0.87404996,0.039999917,0.03999974,-0.023265905586100644,-0.001394304415175407,-0.03320313992449808,0.11295051459410874,0.2390483429925752,0.01569683244147116,0.99111102285333,0.049323376152219406,-0.12293063521077213,0.0124178850956571
80.73333333333004,-0.088341564,-0.75251734,0.13099524,-2.5038397,0.12624425,1.5051898,0.8756007,0.039999925,0.03999974,-0.022643787070197874,-0.0011123352305741907,-0.03306635179587403,0.1141778485095761,0.24092990957547156,0.015484168721564287,0.9907873599830247,0.05030638105304905,-0.12510724370043144,0.012563952280013255
80.7499999999967,-0.089882895,-0.75196165,0.13327727,-2.5064094,0.12844223,1.5040439,0.8771618,0.0399999,0.039999675,-0.02029647189016881,-0.0007298820684342733,-0.032644188319097545,0.11540168859601327,0.24278454392627963,0.01526888646948718,0.9904554278792287,0.051299764102335346,-0.12729835431201456,0.012708602483028799
80.76666666666337,-0.091434345,-0.75140226,0.13557431,-2.508996,0.13065459,1.5028905,0.87873316,0.039999902,0.039999668,-0.02071589783734229,-0.000282703039877763,-0.033051281897944484,0.1166189049636164,0.2446152035103233,0.015039948830356073,0.9901150801716798,0.05230349814078575,-0.1295040797879489,0.012851669819194958
80.78333333333003,-0.09299574,-0.7508395,0.13788612,-2.5115995,0.13288112,1.5017297,0.8803147,0.0399999,0.039999664,-0.020024537820906296,0.00010407555022795556,-0.03308511729642749,0.1178297364466074,0.24641651813103654,0.014800635271232931,0.9897662271373624,0.053317603466339646,-0.1317240609037481,0.012993096547900084
80.7999999999967,-0.094566874,-0.750273,0.14021239,-2.5142198,0.13512161,1.5005617,0.88190615,0.039999902,0.03999966,-0.01957082134491639,0.00047494583810814284,-0.033065411952670765,0.11903391288386625,0.24819181408436522,0.014554843205357604,0.9894087401753144,0.054341964661718166,-0.13395828986156705,0.013132871687719351
80.81666666666337,-0.09614762,-0.74970317,0.14255288,-2.5168555,0.13737577,1.4993865,0.8835074,0.039999906,0.03999966,-0.0170496190531777,0.000748352323259871,-0.03236354502169636,0.1202306648665284,0.24993534276664342,0.014299921052226217,0.9890426058086285,0.05537651105303359,-0.13620590579139122,0.013270913548721017
80.83333333333003,-0.097737774,-0.7491299,0.14490733,-2.5195072,0.13964342,1.4982042,0.88511807,0.039999906,0.039999653,-0.017514339648583288,0.0011654356913776143,-0.03292544526862784,0.1214204924351361,0.2516541420393899,0.014037921531870196,0.9886676615704988,0.05642115591797538,-0.13846716292000208,0.013407196667718379
80.8499999999967,-0.09933715,-0.7485533,0.14727548,-2.522174,0.14192423,1.4970149,0.8867382,0.039999917,0.039999656,-0.015586062024008918,0.0014310473614359553,-0.03233149367591892,0.12260281535732713,0.253341279955365,0.01376701046191689,0.9882838664938639,0.057475840198925106,-0.14074143404273493,0.013541630808753254
80.86666666666336,-0.1009456,-0.74797326,0.14965706,-2.5248554,0.14421801,1.4958189,0.8883675,0.03999992,0.039999653,-0.014878459734646299,0.0017954985996743167,-0.03204136367349619,0.12377741126896265,0.255000115736088,0.01348906083802387,0.9878911379760358,0.05854048866556799,-0.14302841294628485,0.013674201449315965
80.88333333333003,-0.10256292,-0.74739033,0.15205175,-2.5275517,0.14652441,1.4946159,0.8900058,0.03999992,0.03999965,-0.014081383175490458,0.0022596850781292366,-0.03254070347760152,0.12494327897126806,0.2566305985118818,0.01320251720039975,0.9874893727367108,0.059615075184045005,-0.14532793633404864,0.013804798576766353
80.8999999999967,-0.10418891,-0.7468043,0.15445939,-2.5302627,0.14884318,1.4934068,0.89165294,0.03999993,0.039999653,-0.013831389104046465,0.0025521845370579666,-0.032131899043097434,0.12610018525783898,0.25823101176462837,0.012908543780964968,0.9870784967869384,0.060699450106134645,-0.14763969591277565,0.013933345916690616
80.91666666666336,-0.10582338,-0.7462151,0.15687956,-2.5329878,0.15117411,1.4921916,0.89330864,0.039999925,0.03999965,-0.012414115231984546,0.0028945327374713115,-0.03162523293422925,0.12724812397988675,0.25980118731679946,0.012606769761055986,0.986658449288343,0.06179355451861536,-0.14996326446398245,0.014059885461225921
80.93333333333003,-0.10746618,-0.745623,0.15931205,-2.5357275,0.15351687,1.4909697,0.8949728,0.039999925,0.03999964,-0.012593179849118563,0.0033607799656720783,-0.03272856657228207,0.1283871712410978,0.26134248771340085,0.012298686363219694,0.9862290508142791,0.06289736980756984,-0.1522990048413456,0.014184263308032075
80.94999999999669,-0.10911709,-0.74502796,0.1617566,-2.5384808,0.15587123,1.489742,0.8966451,0.039999925,0.039999645,-0.010725161083446899,0.0035336378533007418,-0.031369188855090435,0.12951479130218477,0.26284659517318565,0.011981458397613734,0.9857903375498757,0.06401070934932213,-0.1546459312985367,0.0143064815628081
80.96666666666336,-0.11077593,-0.74443007,0.16421287,-2.541247,0.15823689,1.4885086,0.89832556,0.03999993,0.03999964,-0.009244171856992445,0.0038551923871005256,-0.03104717824811143,0.13063349026565138,0.2643215664320162,0.011659364894888877,0.9853422469594441,0.06513354557604363,-0.15700367367857712,0.014426505087446752
80.98333333333002,-0.112442486,-0.7438293,0.16668063,-2.544026,0.16061358,1.4872693,0.90001386,0.039999925,0.039999634,-0.00889177004486097,0.004134781992842784,-0.031215515093174773,0.1317408315568985,0.2657663886524681,0.011329456251942566,0.9848846756254681,0.0662657386221585,-0.1593721828477026,0.01454424069296498
80.99999999999669,-0.114116594,-0.74322593,0.16915956,-2.5468173,0.16300105,1.4860245,0.9017098,0.03999993,0.039999634,-0.007570237429521676,0.004479419686725938,-0.030716075235504015,0.13283717696673275,0.2671781389358213,0.010993251405699747,0.9844176025594739,0.06740719844454711,-0.16175087936893856,0.014659685954700897
81.01666666666335,-0.11579804,-0.74262,0.17164935,-2.5496216,0.16539897,1.4847742,0.90341324,0.03999993,0.03999963,-0.007850263196496066,0.004934512912904698,-0.0312724087075944,0.133922080591896,0.2685591802492361,0.010650079437668339,0.9839408869276746,0.06855790129432422,-0.16413991346564452,0.0147727454993841
81.03333333333002,-0.1174866,-0.7420114,0.1741498,-2.5524368,0.16780716,1.4835185,0.9051238,0.039999936,0.039999634,-0.004756399416727675,0.0047872504464335774,-0.029806059809089902,0.13499442478348195,0.26990570048309487,0.010300851109865033,0.9834545936303445,0.06971749289440352,-0.1665383332909334,0.014883447066150328
81.04999999999669,-0.119182125,-0.7414004,0.17666051,-2.5552645,0.17022516,1.4822577,0.90684134,0.039999932,0.03999963,-0.006287514487057777,0.005653492739929322,-0.030773226425684364,0.1360558940537783,0.2712212876370954,0.009944130219898178,0.9829585485550416,0.07088609621246558,-0.16894645293211377,0.014991638602237671
81.06666666666335,-0.12088435,-0.7407871,0.17918122,-2.5581026,0.1726528,1.4809916,0.9085659,0.039999936,0.039999627,-0.003058880187944979,0.0054697981546614205,-0.029592322770422008,0.13710463725270244,0.27250175528316495,0.009583093160327738,0.9824527979555866,0.07206352445925371,-0.1713634103689748,0.01509734474879691
81.08333333333002,-0.12259312,-0.7401713,0.18171161,-2.5609522,0.17508984,1.4797211,0.910297,0.03999994,0.03999963,-0.004144396838512421,0.006019942217391772,-0.029715780099981437,0.13813983982626665,0.27375137126832116,0.00921502213884487,0.981937238665381,0.0732496806878464,-0.17378920159555306,0.015200559532963002
81.09999999999668,-0.12430824,-0.73955333,0.18425141,-2.5638115,0.17753586,1.4784458,0.9120346,0.039999943,0.03999963,-0.001186106840544987,0.006124195778750563,-0.028714813918839788,0.13916149051658858,0.27496541230640154,0.008840626975292101,0.9814119175011236,0.07444441410052491,-0.17622301515690889,0.01530118704562636
81.11666666666335,-0.12602949,-0.738933,0.18680032,-2.5666828,0.17999065,1.4771656,0.91377836,0.039999947,0.03999963,-0.004035038882421738,0.006778681471517056,-0.03075021905687425,0.14017026672009616,0.27614957672974694,0.008461776772020327,0.9808765302516087,0.07564771034779284,-0.17866595280152098,0.015399143814711354
81.13333333333001,-0.12775666,-0.7383106,0.18935803,-2.569563,0.1824539,1.4758809,0.9155281,0.039999943,0.03999963,0.0009568841215390478,0.0065116487617977725,-0.027891255757372946,0.14116325711892636,0.27728921168148224,0.008076157233534914,0.9803313244604522,0.0768592358801237,-0.1811161869865467,0.015494481372202083
81.14999999999668,-0.12948954,-0.7376862,0.19192418,-2.572452,0.18492532,1.4745921,0.9172837,0.03999995,0.039999634,0.0011844681631512088,0.006932752197719161,-0.027807597604168066,0.14214323861555817,0.2783984654683925,0.0076866835803064,0.9797762566298148,0.07807897166110897,-0.18357342268128699,0.015587161829160581
81.16666666666335,-0.13122796,-0.7370599,0.19449857,-2.575351,0.1874046,1.4732993,0.919045,0.03999993,0.03999959,0.0004325273966987453,0.007334387610472004,-0.028504602433221393,0.14310964524541894,0.2794770051888888,0.007295419282988713,0.9792111740115303,0.07930685274762456,-0.18603797731378133,0.015677078657196433
81.18333333333001,-0.13297166,-0.73643184,0.19708076,-2.5782595,0.18989152,1.4720026,0.92081165,0.039999913,0.039999545,0.0013550382605975742,0.0076090022160274495,-0.028195576967804392,0.14406111876130415,0.280516020266536,0.006900989318979131,0.9786360626441709,0.08054276076747958,-0.18850943886863417,0.01576426457845497
81.19999999999668,-0.13472043,-0.73580194,0.1996705,-2.581176,0.19238563,1.4707022,0.92258346,0.039999913,0.039999552,0.0036080348197131684,0.0076832681164817895,-0.02697479535640479,0.1449930600646866,0.2815195571217358,0.006494847966361475,0.9780509845442921,0.08178640514596255,-0.1909871092152328,0.01584864911751496
81.21666666666334,-0.13647409,-0.73517036,0.20226756,-2.5841002,0.19488671,1.469398,0.92436033,0.039999906,0.039999537,0.004746672517241812,0.007770614735419512,-0.02651879444287575,0.14591109405154143,0.2824894121953472,0.0060875695340313896,0.9774559399576698,0.08303769439292177,-0.19347055548289116,0.01593018871569467
81.23333333333001,-0.13823242,-0.7345372,0.20487146,-2.587032,0.19739449,1.4680905,0.92614186,0.039999902,0.03999953,0.005158555257556152,0.008188048653975932,-0.026245500605714955,0.14681230420520613,0.28342438557891836,0.005675923536656649,0.9768509053190683,0.08429646721856096,-0.19595950587053937,0.01600894908358607
81.24999999999667,-0.13999522,-0.7339022,0.20748197,-2.5899715,0.1999086,1.4667796,0.9279279,0.0399999,0.039999533,0.005308852345131676,0.008443893678267145,-0.026364348923701986,0.1476964839544696,0.2843258502005249,0.0052579926203540905,0.9762357864650356,0.08556260890367838,-0.19845404426119673,0.016084822005988198
81.26666666666334,-0.14176226,-0.7332657,0.21009885,-2.5929182,0.20242873,1.4654652,0.9297182,0.039999887,0.03999953,0.006482914074368296,0.00856089674854954,-0.025994721138922205,0.14856329693065026,0.2851880062847253,0.0048361929574959744,0.9756105993180698,0.08683588863753082,-0.20095376139849752,0.01615774497145979
81.28333333333,-0.1435333,-0.7326278,0.21272169,-2.5958714,0.20495464,1.4641478,0.9315126,0.039999884,0.039999526,0.0076368550971039895,0.008745225011427826,-0.025195818892265187,0.14941440510980836,0.28601213149260907,0.0044122944856510166,0.9749753927919123,0.08811621669439904,-0.20345804341118548,0.01622776561989791
81.29999999999667,-0.1453082,-0.73198855,0.21535017,-2.5988317,0.20748597,1.4628279,0.93331105,0.039999887,0.03999953,0.007608685019633299,0.009170070804623287,-0.02502861538022927,0.150247532438546,0.28680026982724094,0.003985075323236553,0.9743301251451489,0.0894035897410812,-0.20596670677157575,0.016294817511051628
81.31666666666334,-0.14708664,-0.731348,0.21798398,-2.601799,0.21002251,1.4615053,0.93511295,0.03999988,0.039999526,0.0076376252492460495,0.009323206979189314,-0.025473053391922296,0.15106059708952102,0.28755047937476186,0.003553864630601672,0.9736747182790869,0.09069765874019056,-0.20847988813869645,0.016358909647809092
81.33333333333,-0.14886849,-0.7307063,0.22062282,-2.6047702,0.21256378,1.4601798,0.9369183,0.03999988,0.039999533,0.012688069095978527,0.009020363553852162,-0.022463915664028278,0.15185545357722743,0.28825723288342153,0.0031193469130759988,0.9730094852430464,0.09199814688627066,-0.21099588946472955,0.01642002513827844
81.34999999999667,-0.1506535,-0.7300634,0.22326636,-2.607746,0.2151096,1.4588523,0.9387271,0.039999876,0.039999533,0.011916187272520418,0.009342730297950963,-0.022413732978421308,0.1526333253856631,0.288934841016554,0.0026830918291589623,0.9723343790180282,0.0933050561979677,-0.21351461688137333,0.01647817482368346
81.36666666666333,-0.15244146,-0.72941947,0.2259143,-2.6107278,0.21765967,1.4575226,0.9405388,0.039999872,0.03999953,0.010048004359353158,0.00992776519954941,-0.02407022637267442,0.15339189501809192,0.2895786915289727,0.002245360990384554,0.971649187913551,0.09461827753518166,-0.2160367748865565,0.01653327190327062
81.38333333333,-0.15423217,-0.7287746,0.2285662,-2.6137142,0.22021358,1.4561908,0.9423533,0.03999987,0.039999526,0.012685081435459544,0.00996256219236158,-0.022459124296625443,0.15413069044434016,0.2901808377011822,0.0018052069516460573,0.9709540655690372,0.09593755740614178,-0.21856146448635122,0.01658535123181478
81.39999999999667,-0.15602536,-0.72812885,0.23122188,-2.6167042,0.22277111,1.4548572,0.9441702,0.039999858,0.039999526,0.014259510403857867,0.009768055087064353,-0.021253148405375732,0.1548486689567852,0.29074387792381706,0.0013615336819099155,0.9702491458996753,0.09726253905306088,-0.2210879674651408,0.016634422744283055
81.41666666666333,-0.15782084,-0.72748244,0.23388094,-2.6197007,0.22533186,1.4535217,0.94598955,0.03999986,0.039999537,0.010855055793634882,0.01079117933341367,-0.024042587877881605,0.15554845907674997,0.2912729772008124,0.0009153290332777342,0.969534058629902,0.09859350998960721,-0.22361752346627903,0.016680292064800907
81.43333333333,-0.15961842,-0.72683525,0.23654309,-2.6226976,0.22789556,1.4521848,0.94781095,0.039999854,0.039999533,0.019056375936643555,0.009647408222940301,-0.01787528871501909,0.15622551915295202,0.2917503285039292,0.0004700416103292221,0.9688095262451507,0.09992971021351842,-0.22614705112696726,0.016723221575577516
81.44999999999666,-0.1614178,-0.7261874,0.23920795,-2.6256986,0.23046193,1.4508468,0.94963425,0.039999854,0.039999537,0.014551032773502115,0.010616967487989126,-0.02096987682418394,0.1568848225079496,0.29220392482755575,2.2936516697893983e-05,0.968075157788386,0.10127131220134732,-0.2286779609017237,0.01676306642111069
81.46666666666333,-0.16321884,-0.72553915,0.24187529,-2.6287022,0.2330306,1.4495068,0.9514593,0.039999846,0.039999537,0.016929863625003705,0.010512384817215614,-0.02029671338659167,0.15752210653016357,0.2926178507817125,-0.000425561726972043,0.9673310218408148,0.10261805259837231,-0.23120985495570842,0.016799774899774696
81.48333333333,-0.16502133,-0.7248904,0.24454467,-2.6317067,0.2356013,1.4481661,0.95328563,0.03999984,0.039999533,0.01929229802830612,0.010427334003523803,-0.017409555137615218,0.15813861691042894,0.2929890813532912,-0.0008739269599519622,0.966577468890722,0.10396959632084254,-0.2337412080147504,0.01683351863073573
81.49999999999666,-0.16682494,-0.72424114,0.24721582,-2.6347158,0.23817366,1.4468248,0.9551133,0.03999983,0.039999533,0.014687879547414795,0.011380657168183483,-0.020954885457635797,0.15873454868245596,0.29333223357164706,-0.0013246021197451385,0.9658140243378714,0.10532612652684638,-0.23627374340066448,0.016864033994668955
81.51666666666333,-0.1686295,-0.72359145,0.2498884,-2.637726,0.2407474,1.4454826,0.95694214,0.039999824,0.039999533,0.01946041712634905,0.010801937779397752,-0.01768683862378717,0.15930700247635898,0.2936238599598301,-0.00177441290993946,0.9650410815089507,0.10668726590169328,-0.2388058143623875,0.01689145704706403
81.53333333332999,-0.17043479,-0.7229416,0.25256217,-2.6407366,0.24332222,1.4441395,0.9587714,0.039999813,0.03999953,0.021094220826478605,0.010698064763009496,-0.01675304436906666,0.15985734813418104,0.29387724972899104,-0.0022238852791539587,0.9642588058015605,0.10805246979197196,-0.2413368469046158,0.016915836726017545
81.54999999999666,-0.17224059,-0.7222914,0.25523657,-2.643747,0.24589777,1.4427959,0.96060133,0.0399998,0.03999953,0.021515291276186232,0.010990337669436467,-0.015979740916793883,0.16038771651565917,0.2940973760962492,-0.0026745996074994116,0.9634672424283235,0.10942183506152368,-0.24386649209107644,0.01693720208664467
81.56666666666332,-0.17404674,-0.72164136,0.25791147,-2.6467578,0.24847376,1.4414523,0.9624315,0.039999798,0.03999953,0.021621077156841473,0.011153369920785527,-0.015736121523535207,0.16089609350275538,0.29428072693189966,-0.0031238012748152633,0.9626664874074559,0.11079511750923239,-0.24639437291529198,0.0169554992373054
81.58333333332999,-0.17585295,-0.7209914,0.26058656,-2.6497688,0.25104985,1.4401087,0.96426183,0.039999787,0.03999953,0.021744363613684925,0.011295290299534466,-0.015632607036353274,0.16138175655668213,0.29442743709863844,-0.0035732252953127736,0.9618565399111785,0.11217218205110262,-0.24892045860692086,0.01697066560009009
81.59999999999665,-0.17765906,-0.7203415,0.26326132,-2.65278,0.2536257,1.438765,0.96609205,0.039999783,0.03999953,0.022001603547239235,0.01162746376394408,-0.015471742993666826,0.1618451048857732,0.2945365920897403,-0.004020725276286996,0.9610374142884421,0.11355289512193567,-0.25144465367040447,0.016982770321187956
81.61666666666332,-0.17946474,-0.7196917,0.26593554,-2.6557906,0.25620106,1.4374217,0.967922,0.03999977,0.03999953,0.023313244291656154,0.0113455801669049,-0.014226771930125892,0.16228347374485017,0.29460417834667607,-0.004468561127948439,0.9602092799872187,0.11493693827277612,-0.2539663693924232,0.0169918234612495
81.63333333332999,-0.18126988,-0.7190421,0.26860893,-2.6588,0.25877553,1.4360789,0.96975124,0.03999976,0.039999526,0.024166224337252018,0.01155488520603043,-0.013304165006966517,0.16269997329155275,0.29463395908014495,-0.004913233062276964,0.9593722933487105,0.11632407834664371,-0.25648505989731457,0.016997811656528562
81.64999999999665,-0.18307418,-0.71839285,0.27128112,-2.661809,0.26134884,1.434737,0.9715797,0.03999975,0.039999526,0.023113512583083917,0.011868724206942627,-0.013961628775194246,0.16309328970822304,0.2946252324269706,-0.00535749541907013,0.9585263865964219,0.11771422304094471,-0.2590009727067245,0.017000706727786606
81.66666666666332,-0.18487746,-0.7177441,0.27395186,-2.6648173,0.26392072,1.433396,0.97340715,0.039999746,0.03999953,0.024020251483647392,0.011881058275234335,-0.01323804864867828,0.16346200731994887,0.2945741890073388,-0.0057996103383086695,0.9576716872577717,0.11910721846179455,-0.2615136565247178,0.01700051135168798
81.68333333332998,-0.18667953,-0.7170958,0.27662066,-2.6678245,0.26649073,1.4320556,0.9752334,0.039999735,0.03999953,0.024740796036670787,0.012097397180799163,-0.012871122090540865,0.16380592862947982,0.29448063494626997,-0.006239385078815912,0.9568082300651081,0.1205028338805659,-0.264023051329284,0.01699724310594311
81.69999999999665,-0.18848006,-0.7164478,0.27928743,-2.6708267,0.26905867,1.430716,0.977058,0.039999723,0.03999953,0.029533466091491434,0.010938991224215822,-0.008633171511274185,0.16412470836654455,0.2943422944963198,-0.006676587308035081,0.9559366210817146,0.12190034508737889,-0.26652727106718743,0.0169910600001969
81.71666666666331,-0.19027893,-0.71580046,0.2819517,-2.6738265,0.2716242,1.429378,0.97888094,0.03999971,0.039999522,0.026554616930352104,0.011972171940921594,-0.010553939214663632,0.16442344426499356,0.2941747811136972,-0.007111162432624524,0.9550566629143414,0.12330000850991694,-0.2690269398375657,0.01698187757614725
81.73333333332998,-0.19207586,-0.71515405,0.28461292,-2.676825,0.27418697,1.4280415,0.9807019,0.039999697,0.039999526,0.025346981136187274,0.012524391088930553,-0.011709714272223337,0.16469668359911116,0.2939684483838778,-0.007544095481433685,0.9541682356144002,0.12470175141029143,-0.2715225234304703,0.016969696805122714
81.74999999999665,-0.19387066,-0.7145084,0.28727117,-2.6798177,0.27674675,1.4267061,0.9825209,0.039999694,0.039999533,0.03126689068135846,0.01111069554964872,-0.006797199293917533,0.16494301034311357,0.293715458969524,-0.007973788290760925,0.9532720266188133,0.12610489292041646,-0.274011934575253,0.01695461464965262
81.76666666666331,-0.19566314,-0.71386355,0.2899259,-2.6828084,0.2793031,1.4253728,0.98433745,0.03999968,0.039999537,0.026195952724816784,0.012591682625123779,-0.010077204894143321,0.16516624998704119,0.2934312947697961,-0.008400777071260135,0.9523676284601672,0.127509677644882,-0.2764965406546124,0.01693651009173406
81.78333333332998,-0.19745304,-0.7132198,0.29257673,-2.685793,0.28185576,1.424041,0.98615146,0.039999675,0.039999537,0.0319571379363115,0.0115085091161371,-0.005924663436651656,0.16536527829533768,0.29310190702188016,-0.008821696981584429,0.9514556766698874,0.12891548791508128,-0.2789744698449174,0.016915598807334304
81.79999999999664,-0.19924015,-0.7125769,0.2952235,-2.688775,0.28440452,1.4227118,0.98796266,0.039999656,0.039999533,0.02688126343259878,0.012534614959630597,-0.008862638176743154,0.16553913051087485,0.2927404688951049,-0.009241192471158663,0.9505357886873594,0.13032251225919017,-0.281447023179553,0.016891724788218685
81.81666666666331,-0.20102423,-0.71193516,0.29786584,-2.69175,0.28694898,1.4213847,0.9897707,0.03999965,0.039999537,0.03310295301373056,0.011416826582422157,-0.004069935896100496,0.16568632662043425,0.2923313188358009,-0.009655479695670516,0.9496087123643726,0.13172999381232436,-0.283912082000373,0.01686510676209384
81.83333333332997,-0.2028051,-0.7112948,0.30050322,-2.6947198,0.2894888,1.4200599,0.9915756,0.039999634,0.039999537,0.030929697055337435,0.012205266838105633,-0.005565139666097174,0.16581058740250412,0.2918938386850629,-0.010067719515599538,0.9486742925571874,0.13313811325413488,-0.28637019586210255,0.016835687160029884
81.84999999999664,-0.20458253,-0.71065545,0.30313566,-2.6976857,0.29202375,1.418738,0.9933769,0.039999615,0.039999533,0.02886693990584721,0.012469225925593186,-0.0066051682014900415,0.16590922922803097,0.2914169340282388,-0.010475127596747846,0.9477324252708424,0.13454666272385413,-0.28882190450749073,0.016803366233772966
81.8666666666633,-0.20635627,-0.7100176,0.3057626,-2.7006443,0.2945534,1.4174186,0.9951745,0.03999961,0.039999537,0.03362454880408983,0.011800958163166175,-0.002795706599723058,0.16598225968807476,0.29089371946329157,-0.010876552757436736,0.9467837338156446,0.1359551645175261,-0.2912654765565096,0.016768326971657057
81.88333333332997,-0.20812613,-0.7093812,0.3083837,-2.7035954,0.29707754,1.4161017,0.9969683,0.039999593,0.039999537,0.03356605246112032,0.011803952849015475,-0.0025767407364818418,0.1660297270554352,0.29033793890299187,-0.011274768032752208,0.9458282833127177,0.13736347080017822,-0.2937009058855603,0.016730608400395388
81.89999999999664,-0.20989195,-0.7087464,0.31099892,-2.7065403,0.2995958,1.4147881,0.9987579,0.03999959,0.039999545,0.03200328787298368,0.012247970212442283,-0.0030236230488367433,0.16605273810959967,0.28974752165348455,-0.011667724191839604,0.9448661247177796,0.13877141962043307,-0.2961282492620897,0.016690100248490373
81.9166666666633,-0.21165341,-0.7081131,0.31360772,-2.7094777,0.30210793,1.4134779,1.0005434,0.039999574,0.039999545,0.033747461773092624,0.011938016211027191,-0.0012471975441408212,0.16605036527335054,0.28911688724067686,-0.012055251934772387,0.9438975459592015,0.1401788287053818,-0.2985468115456438,0.016646922565869485
81.93333333332997,-0.21341038,-0.70748144,0.31620967,-2.712408,0.30461353,1.412171,1.002324,0.039999556,0.039999545,0.032965777768967364,0.012397538853015089,-0.001775055890773647,0.16602184164027972,0.28845043089790945,-0.012436872595129794,0.9429225680441358,0.14158540491298777,-0.30095681709311545,0.01660114555861329
81.94999999999663,-0.21516258,-0.7068515,0.31880465,-2.71533,0.30711246,1.4108678,1.0040998,0.039999552,0.03999955,0.0348085650511365,0.0117801616551505,0.0005075406366183977,0.16596911962839744,0.28774438470163227,-0.01281250482473123,0.9419415924427036,0.14299084998283176,-0.30335730939021616,0.016552827166972088
81.9666666666633,-0.21690986,-0.70622325,0.32139233,-2.7182438,0.3096043,1.4095681,1.0058708,0.03999953,0.03999955,0.03398052671563789,0.012182884281247697,-0.0002376043005347661,0.1658806711596516,0.28700635035988636,-0.013196210574151018,0.9409545660843438,0.1443951067225053,-0.30574866426471087,0.016501879285874748
81.98333333332997,-0.21865201,-0.705597,0.32397237,-2.7211494,0.3120888,1.4082721,1.0076364,0.039999515,0.039999552,0.03458451441629151,0.01211483234636046,0.0008122830225443245,0.16577553148614937,0.28622518283784393,-0.013562031855930051,0.9399617702857557,0.14579783372629748,-0.3081303480341391,0.016448425527916224
81.99999999999663,-0.22038881,-0.7049727,0.32654446,-2.7240462,0.31456563,1.4069803,1.0093966,0.03999951,0.039999552,0.035032906098875216,0.012090499881817207,0.0017415450420776857,0.16564630753695164,0.2854063913509667,-0.013919554878782547,0.9389634166232745,0.1471988332605855,-0.3105019998032011,0.01639249365050973
82.0166666666633,-0.22212,-0.7043506,0.32910833,-2.726934,0.31703448,1.4056925,1.0111512,0.03999949,0.039999556,0.03536728314572635,0.012059889811538715,0.0022210577156456246,0.16548932821682752,0.2845498511691935,-0.014274830600020036,0.9379596789814253,0.14859794854081043,-0.31286337219168425,0.016334033040611373
82.03333333332996,-0.22384545,-0.7037305,0.33166364,-2.7298121,0.31949508,1.4044087,1.0128999,0.039999466,0.039999552,0.03572592169378552,0.012036490091027474,0.0029832132827034563,0.16530681650172796,0.2836551869081473,-0.014621408924432616,0.9369507304206455,0.14999485040910532,-0.3152143040627787,0.016273172068989566
82.04999999999663,-0.22556494,-0.7031125,0.33420998,-2.7326794,0.32194713,1.4031291,1.0146427,0.03999946,0.039999556,0.03728290018572,0.011738878962286314,0.0049206321945050036,0.1650996755058624,0.2827237809138803,-0.014961079063346094,0.9359369167462882,0.15138936221230076,-0.31755406562904803,0.016210005640549262
82.0666666666633,-0.22727817,-0.70249677,0.33674717,-2.7355368,0.3243903,1.4018548,1.016379,0.03999944,0.039999556,0.035732881569860986,0.012135198967649918,0.0046262139549169135,0.16486619552508386,0.281756055201873,-0.015294792378464636,0.9349184141609483,0.15278116213835866,-0.31988252554476376,0.016144510198014387
82.08333333332996,-0.22898503,-0.7018833,0.3392749,-2.738384,0.32682437,1.400585,1.018109,0.039999425,0.03999956,0.03624402133277638,0.012003792307546668,0.004935308891362844,0.16460816545113846,0.28075326627419994,-0.015621769448381131,0.9338952797848884,0.15417022866067007,-0.32219976221596697,0.01607669798796386
82.09999999999663,-0.2306853,-0.7012723,0.34179285,-2.7412193,0.32924902,1.3993201,1.0198323,0.039999418,0.039999563,0.03811250467802285,0.01164137567769008,0.007166505258826561,0.1643243508071483,0.2797113421139248,-0.015940201589030395,0.9328679828078247,0.15555612681723144,-0.324504858508188,0.01600671316236886
82.11666666666329,-0.23237872,-0.70066386,0.3443007,-2.7440445,0.33166394,1.3980604,1.0215487,0.039999392,0.039999563,0.035774684509570776,0.01228630183306989,0.0055978309273951865,0.16401442922852028,0.2786384329885812,-0.016254561227587394,0.9318364077098931,0.15693891872015694,-0.3267983761148546,0.01593444150147332
82.13333333332996,-0.23406516,-0.7000579,0.34679824,-2.746857,0.3340688,1.3968056,1.0232581,0.039999384,0.039999574,0.03886860500736944,0.0114669435091308,0.008772265512191346,0.16367830780057044,0.27752515426230717,-0.016558912546308147,0.9308011324837119,0.15831798770083597,-0.32907920893549675,0.01586003731978207
82.14999999999662,-0.2357444,-0.69945467,0.34928504,-2.7496579,0.3364634,1.3955561,1.02496,0.039999373,0.03999957,0.03717344566767089,0.012004222733741354,0.007712467107356957,0.16332044756865094,0.27637904409100833,-0.016854512888648282,0.9297621160999037,0.1596933557464273,-0.3313477311565162,0.015783556421267508
82.16666666666329,-0.2374163,-0.6988541,0.3517609,-2.7524464,0.33884755,1.3943124,1.0266546,0.03999935,0.039999574,0.037924144481982225,0.011700705552003532,0.009487904800220548,0.16293461928607864,0.27519477233038053,-0.01714573584263926,0.928719736806784,0.16106484762087533,-0.33360323056251645,0.015705091042546
82.18333333332995,-0.23908055,-0.6982564,0.3542254,-2.7552226,0.34122074,1.3930739,1.0283414,0.03999933,0.039999574,0.03799838352289697,0.011888324703418496,0.009248378401705004,0.16252247825014196,0.2739777654484743,-0.017428597432379803,0.9276740888355384,0.16243214236855755,-0.33584588206015803,0.015624581016749203
82.19999999999662,-0.24073704,-0.69766134,0.3566785,-2.7579856,0.34358272,1.3918415,1.0300206,0.039999314,0.039999574,0.03825948719278216,0.011708142305216773,0.01088744696927657,0.16208754298760658,0.2727231222221928,-0.017702575575724466,0.9266255210383638,0.1637951295036896,-0.3380750586280379,0.015542009036775151
82.21666666666329,-0.24238558,-0.6970693,0.3591197,-2.7607353,0.3459336,1.3906151,1.0316916,0.039999295,0.03999958,0.038584661315210766,0.011470190933909885,0.011411412320982972,0.1616263499256484,0.27143600303368187,-0.017967981078006817,0.9255742616162999,0.1651534867571893,-0.3402905682367301,0.015457723458120748
82.23333333332995,-0.24402596,-0.6964802,0.3615488,-2.763471,0.34827256,1.3893948,1.0333542,0.03999927,0.03999958,0.03910063060530433,0.011670454989598511,0.012490997709668772,0.16113909988097855,0.2701149439288988,-0.01822692131659337,0.9245206200323424,0.16650692633500583,-0.3424920184668749,0.015371529005528718
82.24999999999662,-0.2456579,-0.6958942,0.3639655,-2.766192,0.35059962,1.3881806,1.0350082,0.039999254,0.03999958,0.03941687053494736,0.011332988890583318,0.013371292729347228,0.16062946870545203,0.26876110635530054,-0.0184763840100515,0.9234648650748313,0.1678551717631804,-0.3446791203819646,0.015283594387186935
82.26666666666328,-0.2472813,-0.6953112,0.3663695,-2.7688992,0.35291445,1.3869727,1.0366536,0.039999235,0.039999582,0.038426610478992096,0.011669977315148516,0.012786486296767485,0.16009621224571496,0.26737680809288555,-0.018718422596584197,0.9224069894391055,0.1691982539464899,-0.3468521908393716,0.015193893683752875
82.28333333332995,-0.24889599,-0.6947313,0.36876047,-2.771592,0.35521677,1.3857712,1.0382901,0.03999921,0.039999593,0.03894971037459172,0.011557958489133435,0.014033231710874894,0.15953548270835938,0.2659561430198302,-0.018954016293219397,0.9213473381548767,0.17053585399452117,-0.349010771695157,0.015102523565076065
82.29999999999661,-0.25050172,-0.6941546,0.37113836,-2.7742698,0.3575064,1.3845766,1.039918,0.0399992,0.03999961,0.038874579940118004,0.011386371839194886,0.014859465440308917,0.1589512432807602,0.26450325440053485,-0.01918094874210513,0.9202861828031044,0.17186791709604698,-0.3511544933404355,0.015009417762836394
82.31666666666328,-0.25209835,-0.69358134,0.37350264,-2.7769327,0.35978305,1.3833885,1.0415361,0.03999915,0.039999623,0.03914241801723506,0.011450294331094568,0.015178050257635967,0.15833872578619576,0.2630172698219187,-0.019401480307803948,0.9192237454291023,0.17319394985976386,-0.3532833262121718,0.014914858086163198
82.33333333332995,-0.25368577,-0.69301134,0.3758532,-2.7795799,0.3620465,1.3822075,1.043145,0.03999908,0.03999956,0.03942340015579138,0.011265725892412037,0.01655946271905684,0.1577093690692953,0.26149632090705294,-0.019607942961024263,0.9181603326478971,0.17451395048925938,-0.35539680365685417,0.014818791685782711
82.34999999999661,-0.2552636,-0.69244486,0.37818968,-2.7822115,0.3642964,1.3810337,1.0447445,0.03999901,0.039999515,0.03903259136446291,0.011384213812787314,0.016580479320715824,0.15705396368618707,0.2599463048349432,-0.019807815584228623,0.9170961188486103,0.17582779603019033,-0.3574948701287326,0.014721167332180898
82.36666666666328,-0.2568319,-0.6918819,0.38051197,-2.784827,0.36653247,1.3798667,1.0463338,0.039998967,0.03999951,0.039537981184256665,0.011284452439025427,0.01748293019694369,0.15637269024693656,0.2583626966281971,-0.019999279116860634,0.9160314138708522,0.17713493648795658,-0.35957732904268735,0.014622158380412576
82.38333333332994,-0.25839034,-0.69132245,0.3828196,-2.787426,0.3687545,1.3787072,1.0479138,0.03999895,0.039999515,0.039451055645689515,0.011197756620651145,0.018335481982711954,0.15567152929119732,0.25674699718307104,-0.020180892689885536,0.9149664150723817,0.17843567180715403,-0.3616438723865291,0.014521703811863162
82.39999999999661,-0.25993878,-0.6907666,0.38511246,-2.7900088,0.37096232,1.3775551,1.0494832,0.039998926,0.039999522,0.03888166278742666,0.01124787781204839,0.01834758575719464,0.15494403516510238,0.2551015800477925,-0.020352897350274464,0.9139013673322975,0.1797293535033908,-0.3636945335065814,0.014420006062429542
82.41666666666328,-0.26147702,-0.6902144,0.3873902,-2.7925746,0.3731556,1.3764105,1.0510422,0.039998904,0.03999953,0.039470075811531835,0.011135705317755207,0.019342782712539197,0.15419459071940128,0.25342330366885,-0.020517243360161926,0.9128365394173141,0.18101591961277763,-0.3657290124319678,0.014317074313573328
82.43333333332994,-0.263005,-0.68966603,0.38965267,-2.7951229,0.37533405,1.3752738,1.0525911,0.039998893,0.039999533,0.03977832240877888,0.01102353313811033,0.020857608369551084,0.15342413612028583,0.25171373117806917,-0.020671379819889264,0.9117723269845033,0.18229534136432826,-0.36774668790821236,0.014212874257760058
82.4499999999966,-0.26452246,-0.6891214,0.3918996,-2.7976534,0.37749758,1.374145,1.0541289,0.03999887,0.039999537,0.03949658094022368,0.010929440741336283,0.02097210978200259,0.15262930863809138,0.24997761834397644,-0.020815924954504114,0.9107089352135486,0.18356709005843228,-0.3697476609455911,0.014107657316091399
82.46666666666327,-0.2660292,-0.68858075,0.39413065,-2.8001666,0.37964585,1.3730241,1.0556555,0.039998848,0.039999545,0.03904734125097509,0.011079311292355731,0.020896032560180355,0.15181284961593192,0.24821194287005865,-0.020953056193649407,0.9096465200549454,0.18483103424868114,-0.3717319709575357,0.014001396305957895
82.48333333332994,-0.2675252,-0.6880439,0.39634565,-2.8026614,0.3817787,1.3719112,1.057171,0.03999883,0.03999955,0.03961694953191763,0.010833017297706693,0.02233724970230888,0.15097652806446393,0.24641635393232997,-0.021081532804175275,0.9085854034312962,0.18608708198355217,-0.3736992297577429,0.013894181116754147
82.4999999999966,-0.26901022,-0.6875111,0.39854437,-2.8051379,0.38389575,1.3708062,1.0586774,0.039998803,0.03999955,0.03940463417622109,0.010901069430235832,0.022541721522284508,0.1501172970774537,0.24459249958989748,-0.021202248717246276,0.9075256031200876,0.18733604067849155,-0.37564936557196055,0.01378556091753936
82.51666666666327,-0.27048406,-0.6869822,0.4007266,-2.8075964,0.38599703,1.3697097,1.0601724,0.03999878,0.039999556,0.0384233093787989,0.010928418557148989,0.02249814850319165,0.14923003261734327,0.24273783712265484,-0.021307072517337204,0.9064674575658689,0.18857682036198026,-0.3775824366771725,0.01367606336502817
82.53333333332994,-0.27194658,-0.6864575,0.402892,-2.810035,0.38808206,1.3686216,1.0616553,0.03999876,0.039999556,0.04041560472090033,0.010474118249426123,0.02522512635192431,0.14832215301370572,0.24085277214902678,-0.021402579440109426,0.9054116595579206,0.1898087453826301,-0.3794974753459575,0.013565880689747671
82.5499999999966,-0.2733976,-0.685937,0.40504047,-2.8124552,0.39015076,1.3675419,1.063126,0.039998747,0.03999957,0.03834959406694427,0.010873754039686379,0.02345920339386076,0.1473955024871959,0.23894552469031932,-0.02149166053973489,0.904358047759262,0.19103192906237904,-0.38139518663836725,0.013454929983012138
82.56666666666327,-0.27483708,-0.6854206,0.40717173,-2.8148556,0.3922029,1.3664712,1.0645847,0.039998725,0.039999582,0.03929843485728224,0.010572174263984158,0.02577015233566904,0.14644856659497368,0.23700797161819648,-0.02157335449778671,0.9033071144923135,0.19224631520789126,-0.3832747922007084,0.013343345160129442
82.58333333332993,-0.2762648,-0.68490845,0.4092855,-2.8172364,0.3942383,1.365409,1.0660315,0.039998703,0.039999582,0.03892336983863931,0.01061553570722018,0.02541066342512943,0.1454831264454721,0.23504703376773148,-0.021645388173233943,0.9022589563178622,0.19345175681054022,-0.38513650963851614,0.013231117661735863
82.5999999999966,-0.27768055,-0.6844006,0.41138166,-2.8195984,0.39625672,1.3643557,1.0674665,0.03999869,0.039999597,0.03777665886945947,0.01079828400306626,0.024847517842263578,0.14449665613465174,0.23305831105511493,-0.02170952741585299,0.9012135968555268,0.19464840266465022,-0.3869805778283702,0.013118100717902665
82.61666666666326,-0.27908418,-0.68389714,0.41346,-2.8219395,0.3982579,1.3633114,1.0688899,0.03999867,0.039999593,0.03951356295521791,0.010207226446518058,0.02782069647885299,0.1434898267658521,0.2310394121475254,-0.021761135513650144,0.900171704977275,0.19583590736283696,-0.3888059716044919,0.013004437333749109
82.63333333332993,-0.28047565,-0.68339807,0.41552016,-2.8242605,0.4002416,1.3622763,1.0703,0.03999864,0.0399996,0.03823511365419474,0.010675421380740291,0.026968819690842416,0.14246008795521295,0.22899824486436898,-0.021804702087488095,0.8991334119309868,0.19701369599313762,-0.3906130419780824,0.012890406397585423
82.6499999999966,-0.2818548,-0.68290347,0.4175621,-2.8265607,0.40220776,1.3612503,1.071698,0.039998617,0.0399996,0.03862370236880075,0.010299670873681332,0.02791851357457631,0.14141491732062209,0.22693196229109475,-0.02183968410118836,0.8980989147506865,0.198182061313964,-0.3924015635923614,0.0127758673778992
82.66666666666326,-0.28322148,-0.6824134,0.41958553,-2.82884,0.40415612,1.3602333,1.073083,0.039998602,0.03999961,0.038542112033512765,0.01026493018895236,0.028384984298424065,0.14034862135480947,0.22484059652458774,-0.021865561507433517,0.8970685093301057,0.1993405728692519,-0.3941714411551524,0.012660985510252139
82.68333333332993,-0.28457564,-0.6819278,0.4215903,-2.8310986,0.40608642,1.3592259,1.0744554,0.039998587,0.03999962,0.03775988432790367,0.010499353827853053,0.02859187874120206,0.1392660466013853,0.2227271703118902,-0.021882504988150607,0.8960423651223902,0.200489299190127,-0.39592262620507485,0.012545711418705736
82.69999999999659,-0.28591704,-0.68144697,0.42357615,-2.8333354,0.40799856,1.358228,1.0758151,0.03999857,0.039999634,0.038473630202306985,0.010106689330985352,0.029989127475915645,0.1381619829559257,0.22058758115984645,-0.02189105210024394,0.8950208969172583,0.20162809075276206,-0.3976546221406048,0.01243014847196655
82.71666666666326,-0.28724548,-0.6809706,0.42554298,-2.835551,0.4098923,1.3572395,1.0771616,0.03999855,0.03999963,0.037530148719167045,0.01022632523137168,0.029333946168108582,0.13704222717342054,0.21842799065970647,-0.02188791161545988,0.8940041576263429,0.20275658593820103,-0.39936786433792915,0.012314298179731927
82.73333333332992,-0.288561,-0.6804991,0.4274906,-2.8377447,0.41176754,1.3562607,1.0784948,0.039998528,0.03999964,0.03794012945912417,0.010049131858796967,0.03068926991613985,0.13590267417378454,0.21624398726558522,-0.02187834496313374,0.8929925553509769,0.20387474200363703,-0.40106182400530915,0.012198318991454345
82.74999999999659,-0.28986332,-0.68003213,0.42941877,-2.8399172,0.41362405,1.3552917,1.0798148,0.0399985,0.03999964,0.03671896497399185,0.010311018109332437,0.030024357727831408,0.13474740522497788,0.21403935554891718,-0.021859775663222107,0.8919861055230418,0.20498253713786826,-0.40273684842373364,0.012082133258567261
82.76666666666326,-0.29115248,-0.6795702,0.43132722,-2.8420672,0.41546172,1.3543326,1.0811213,0.03999848,0.039999645,0.037735212001321905,0.009977266607746893,0.03173159066445219,0.1335744984390001,0.2118108259857443,-0.021831128790196837,0.8909852904972573,0.20607974478764202,-0.40439234177904243,0.011965985803118372
82.78333333332992,-0.2924284,-0.6791128,0.43321598,-2.8441954,0.4172803,1.3533831,1.0824145,0.039998457,0.039999653,0.03669865981184017,0.010138629488753992,0.031024488033803976,0.13238285646468043,0.20956344914211678,-0.02179501043669354,0.8899900422580012,0.20716635655533444,-0.40602882855136735,0.011849716384527028
82.79999999999659,-0.2936908,-0.67866033,0.43508473,-2.8463008,0.41907963,1.3524439,1.083694,0.03999845,0.039999664,0.03697252412266927,0.009924019734286471,0.03265208993046276,0.13117643766706838,0.20728998152768818,-0.021748695344747188,0.8890009440300994,0.20824207578691592,-0.40764553727887054,0.011733512780467685
82.81666666666325,-0.29493952,-0.6782129,0.4369335,-2.848384,0.42085966,1.3515148,1.0849596,0.039998423,0.039999668,0.03648406913081548,0.00984835350975044,0.032192924959917324,0.1299529672334734,0.2050015107548117,-0.02169453914212486,0.8880180644535076,0.20930675493214423,-0.40924276048230024,0.011617337769381297
82.83333333332992,-0.29617465,-0.67777026,0.4387619,-2.8504434,0.4226202,1.350596,1.0862114,0.0399984,0.03999968,0.03711587181638443,0.00964743568627191,0.03404811361211735,0.12871402321432682,0.2026911258696329,-0.021631632634663202,0.887041809544913,0.210360311404699,-0.41082001518860994,0.011501418409689733
82.84999999999658,-0.29739594,-0.6773326,0.44056985,-2.8524795,0.42436105,1.3496871,1.0874494,0.03999839,0.03999969,0.03662889769895372,0.00966060783039735,0.03366560311574007,0.12746035846319548,0.20036601887740685,-0.021560620265647118,0.8860722791647055,0.21140263092347902,-0.41237750972903164,0.011385657828064274
82.86666666666325,-0.2986034,-0.6768999,0.44235724,-2.8544927,0.42608207,1.3487887,1.0886735,0.03999836,0.03999969,0.03567094281073935,0.009880235072490251,0.03356368595373027,0.12619115920727014,0.1980224199306485,-0.021481115277862617,0.8851096301131055,0.21243373180558964,-0.4139152538282755,0.011270089638812108
82.88333333332992,-0.29979682,-0.6764724,0.4441239,-2.8564823,0.42778313,1.3479006,1.0898831,0.03999834,0.039999697,0.03611886864076652,0.009616525365568895,0.034442090455666374,0.12490767579153642,0.19566141561277586,-0.021392177762168743,0.8841542220466537,0.2134532311542306,-0.41543302552164274,0.011154866777752702
82.89999999999658,-0.30097616,-0.67604977,0.4458697,-2.858449,0.42946413,1.3470231,1.0910784,0.03999832,0.039999697,0.03482083687469384,0.009812024050459556,0.033819276350577354,0.12361135565227324,0.19328395577121604,-0.021295839048188894,0.8832060301739201,0.21446122660414638,-0.4169311813423413,0.011039953457747099
82.91666666666325,-0.3021413,-0.67563236,0.44759452,-2.8603916,0.43112472,1.3461562,1.0922593,0.0399983,0.03999971,0.03569760308412828,0.00963656640239896,0.03550703542027911,0.1222993595614448,0.19088641041503,-0.02119283420279064,0.8822655820178977,0.21545746643177033,-0.4184090811320741,0.01092537283739893
82.93333333332991,-0.30329219,-0.67522013,0.44929823,-2.862311,0.43276522,1.3453001,1.0934256,0.039998293,0.039999712,0.034629082793879995,0.00950621310704114,0.03484495570922341,0.12097767370207055,0.18847526319486868,-0.021078462865296764,0.8813328711560585,0.21644198505369963,-0.41986706535572765,0.010811325330472913
82.94999999999658,-0.3044288,-0.67481303,0.45098072,-2.8642063,0.43438518,1.3444544,1.0945776,0.03999826,0.039999716,0.03473721857361056,0.009600016917260534,0.03533412357583643,0.11963886448947465,0.1860486179799507,-0.0209601995658844,0.8804080883630209,0.2174147088054982,-0.4213051172421898,0.010697687859370374
82.96666666666324,-0.30555093,-0.6744111,0.45264176,-2.866078,0.4359845,1.3436195,1.0957149,0.03999824,0.03999972,0.034341902910006716,0.009601789544405603,0.035623094416492584,0.11828886587503576,0.18360505713251474,-0.020831948060818145,0.8794914576157911,0.21837554190305286,-0.4227231554950232,0.0105845400339155
82.98333333332991,-0.30665857,-0.6740144,0.45428136,-2.8679247,0.43756312,1.3427955,1.0968374,0.039998222,0.03999972,0.03470524210333892,0.009219418802486334,0.037073661812292436,0.11692720082493642,0.1811469561353819,-0.020695685773632955,0.8785834349862909,0.21932415377027215,-0.42412073743602097,0.010472030241072896
82.99999999999658,-0.30775163,-0.67362297,0.45589933,-2.8697476,0.43912098,1.341982,1.0979451,0.039998196,0.03999973,0.033739807794241905,0.009480599069600082,0.035688996468408174,0.11555195657541287,0.17867854942227585,-0.020554555743787575,0.8776838516404689,0.2202606885793929,-0.42549847650372474,0.010360122059714077
83.01666666666324,-0.30883005,-0.6732368,0.45749563,-2.8715458,0.44065785,1.3411797,1.099038,0.039998192,0.03999975,0.03391227316742462,0.00930949650428392,0.03744494824828859,0.11416686687976889,0.1761925815199581,-0.02040421920565845,0.876793211546761,0.2211850000481436,-0.42685573811014643,0.010248842942568274
83.0333333333299,-0.30989364,-0.6728559,0.45907006,-2.8733191,0.44217375,1.3403883,1.1001161,0.039998174,0.039999757,0.03373823862324876,0.00913115601450798,0.03730121912668416,0.11277103180201425,0.1736966845249729,-0.020246299093022918,0.8759116030864942,0.22209699821117385,-0.4281927165783002,0.010138265794954419
83.04999999999657,-0.31094247,-0.67248034,0.46062255,-2.875068,0.44366863,1.3396078,1.1011792,0.03999815,0.03999976,0.03312042613028421,0.009222052648677481,0.03721612740341662,0.11136474078393915,0.17119018792608404,-0.020081641559849785,0.8750391421796041,0.22299664815386713,-0.4295095154379718,0.010028495099534917
83.06666666666324,-0.31197652,-0.6721101,0.46215308,-2.8767922,0.4451423,1.3388385,1.1022274,0.03999813,0.039999764,0.032699521902812556,0.009312692710733428,0.03735376327911322,0.10994810855160272,0.16867278357092677,-0.01991024171765256,0.8741759818228385,0.22388396375582015,-0.43080613749168445,0.009919449407846097
83.0833333333299,-0.3129956,-0.67174536,0.46366167,-2.8784916,0.44659472,1.3380802,1.1032603,0.039998114,0.039999764,0.03261225156925285,0.009112011997036706,0.037738571381595865,0.1085226303202301,0.16614182616331646,-0.019730151430474314,0.8733224338751602,0.22475861189155102,-0.43208243775824545,0.009811210518676498
83.09999999999657,-0.3139998,-0.6713859,0.465148,-2.8801663,0.44802576,1.3373332,1.104278,0.03999809,0.039999772,0.03213213234487533,0.009229430556662033,0.03800354529220895,0.10708734623087443,0.16360308805646176,-0.01954554505061688,0.8724785696478835,0.22562076179755833,-0.4333384959677112,0.009703878787097331
83.11666666666324,-0.31498897,-0.6710318,0.46661216,-2.8818154,0.44943544,1.336597,1.1052805,0.039998066,0.03999977,0.03263248681073527,0.008780357019805285,0.03854826027752667,0.10564341729202067,0.16105424896227538,-0.019353401085392966,0.8716446077602382,0.22647018920907652,-0.43457429750523435,0.009597453304782429
83.1333333333299,-0.315963,-0.6706831,0.4680539,-2.8834398,0.45082355,1.3358722,1.1062678,0.03999806,0.039999776,0.0314563413565061,0.009196419024054547,0.038228324650135814,0.10419244618833966,0.1584968739071127,-0.019154667528987635,0.8708206856382644,0.22730695828595507,-0.4357898384008893,0.009491940044950518
83.14999999999657,-0.31692198,-0.67033994,0.46947333,-2.8850396,0.4521902,1.3351588,1.1072397,0.039998043,0.039999783,0.030922688592927017,0.00914850725405314,0.038050578760229214,0.10273295035480279,0.15593116598012313,-0.018950192861470823,0.8700068966727854,0.228131073856485,-0.4369852278277003,0.009387414087457328
83.16666666666323,-0.31786588,-0.67000216,0.47087035,-2.886613,0.45353532,1.3344566,1.1081965,0.039998025,0.039999798,0.03229980361874052,0.008439428328377296,0.040273010989277935,0.10126416485147224,0.1533586402838486,-0.0187404257501054,0.869203686198781,0.22894232015361635,-0.43815998605921896,0.009283994706749388
83.1833333333299,-0.31879464,-0.6696699,0.47224492,-2.8881621,0.4548587,1.333765,1.1091378,0.039998006,0.039999798,0.030117939665630367,0.009291084099433133,0.037037376259130284,0.09979059111818474,0.15078153439903658,-0.01852332995097585,0.8684106189379577,0.2297408013002959,-0.4393152187917003,0.009181485266112647
83.19999999999656,-0.3197082,-0.6693431,0.473597,-2.8896844,0.45616052,1.333085,1.1100636,0.039997995,0.039999805,0.03191457058566716,0.008189846933526201,0.04127585851729787,0.09831036187326443,0.14819194416082238,-0.018301033194769112,0.8676286234825584,0.23052615492035386,-0.4404495571008725,0.009080267674652974
83.21666666666323,-0.32060653,-0.6690217,0.4749265,-2.891183,0.45744044,1.3324163,1.1109741,0.039997976,0.039999813,0.02895141157071013,0.009425806974638906,0.03730609962284137,0.09682451999129624,0.14560587274003822,-0.018075019495550702,0.8668570532016017,0.23129886935838043,-0.4415643136423705,0.008979936843467644
83.2333333333299,-0.32148957,-0.6687058,0.47623345,-2.8926556,0.45869863,1.3317591,1.1118692,0.03999795,0.03999981,0.03026337349740782,0.008576499396073523,0.039845085210565845,0.09533232691092283,0.1430079884530377,-0.01784121514186205,0.8660965111620282,0.23205860811967274,-0.4426587487187411,0.008880761976389708
83.24999999999656,-0.3223574,-0.66839534,0.47751778,-2.8941026,0.4599352,1.3311132,1.1127489,0.03999794,0.039999817,0.02998342118687436,0.008464142070080394,0.03985840903890647,0.09383619708625741,0.14040830864685525,-0.01760162351153138,0.8653470732216374,0.2328053412129385,-0.44373300190488035,0.00878288050453754
83.26666666666323,-0.3232099,-0.66809046,0.47877946,-2.8955235,0.46115,1.3304791,1.113613,0.039997928,0.039999828,0.02972755768109181,0.008480955693374037,0.04057167511865578,0.09233493941371435,0.13780680289419847,-0.01735836386879139,0.86460905776997,0.23353903936129405,-0.4447867384247378,0.008686290221519974
83.28333333332989,-0.32404712,-0.6677909,0.48001847,-2.8969195,0.46234295,1.3298564,1.1144615,0.03999791,0.039999828,0.028713615796438496,0.008709937844514348,0.03896678252503505,0.0908307576942545,0.1352086565886289,-0.017110036643993954,0.8638821971001562,0.23425970279377983,-0.44582074544106853,0.008590932123278668
83.29999999999656,-0.32486898,-0.667497,0.48123497,-2.8982904,0.46351418,1.3292451,1.1152946,0.039997887,0.039999828,0.02843194785326908,0.008571452818617598,0.03915874511425943,0.08932226920873222,0.13260409013387628,-0.01685757020522199,0.8631666913559712,0.23496736749156605,-0.44683487332714783,0.008496771526911346
83.31666666666322,-0.32567555,-0.6672085,0.48242864,-2.8996353,0.46466362,1.3286452,1.1161121,0.039997876,0.03999984,0.028927605212425433,0.008308720079802656,0.04047803297286823,0.08781158133277259,0.12999905915400706,-0.01659984255159304,0.862462809204196,0.23566196013098045,-0.44782889065950443,0.008404045306196862
83.33333333332989,-0.32646692,-0.66692543,0.48359975,-2.9009545,0.46579117,1.3280565,1.1169146,0.039997865,0.039999843,0.028496268236288813,0.008374087957363496,0.0398967737301803,0.08629892791986762,0.12739600672651963,-0.016337947240023937,0.86177047186381,0.2363436533124849,-0.4488031126732932,0.008312485626905055
83.34999999999656,-0.327243,-0.666648,0.4847482,-2.9022484,0.46689692,1.3274791,1.1177015,0.039997842,0.03999984,0.02775174236133715,0.008433191755169434,0.039644626486745604,0.08478299679213264,0.12479280009238687,-0.016070583331403855,0.8610898458890592,0.23701227966208133,-0.44975754622191416,0.00822229971373128
83.36666666666322,-0.3280038,-0.66637594,0.48587415,-2.903517,0.46798095,1.3269132,1.1184727,0.03999783,0.03999985,0.027381877986409897,0.008303646999996417,0.039610276640927866,0.08326594014928544,0.12219024372848997,-0.015800049872844394,0.8604210089405027,0.23766774874142726,-0.4506923279191062,0.008133519339502333
83.38333333332989,-0.32874924,-0.6661094,0.48697743,-2.9047596,0.4690432,1.3263586,1.1192281,0.039997816,0.039999858,0.027830081960145137,0.008033242542820895,0.04043767444499857,0.08174829831360511,0.11959078497603162,-0.015526231111624308,0.8597642022894393,0.2383099291999065,-0.45160729881927875,0.008046226413313375
83.39999999999655,-0.3294795,-0.6658484,0.48805818,-2.9059775,0.4700837,1.3258152,1.1199683,0.039997812,0.03999987,0.026522778555415627,0.008405890525542414,0.03905365473900746,0.08023335992053506,0.11699481336052003,-0.015249659661111192,0.8591191895219055,0.23893924683598186,-0.4525029158061619,0.007960257759623345
83.41666666666322,-0.33019456,-0.66559285,0.48911643,-2.9071698,0.47110263,1.3252832,1.1206928,0.0399978,0.039999865,0.026817448651939024,0.00803547977112351,0.04002271002976898,0.0787175404701626,0.11440149322026436,-0.014968875720358179,0.8584862635870746,0.23955545347975066,-0.4533789709854281,0.007875824313007977
83.43333333332988,-0.33089453,-0.6653426,0.4901522,-2.908337,0.4720999,1.3247623,1.121402,0.03999778,0.039999865,0.02615501103028217,0.008161390254463052,0.039310267554004685,0.07720167962757933,0.1118131751454067,-0.014686605871446507,0.8578652981151316,0.24015870712196943,-0.45423583879062074,0.00779284553430795
83.44999999999655,-0.3315791,-0.6650979,0.49116558,-2.909479,0.47307545,1.3242528,1.122096,0.03999776,0.039999872,0.026267524407497245,0.00793267811558529,0.03996614079901928,0.07568645465200362,0.10922832848822799,-0.01440204374980392,0.8572565933467766,0.24074885679218996,-0.45507324499552865,0.007711213002661801
83.46666666666322,-0.33224875,-0.6648586,0.49215662,-2.9105952,0.47402957,1.3237547,1.1227747,0.039997745,0.039999876,0.025988531220544342,0.007856896214880615,0.04017034312147061,0.07417525116192177,0.10665187913392718,-0.014113376909444891,0.8566601377806917,0.24132617249375582,-0.4558912726488578,0.007631142095731947
83.48333333332988,-0.33290333,-0.6646247,0.49312535,-2.9116862,0.47496223,1.3232676,1.1234381,0.039997734,0.039999876,0.02564883861290168,0.007812981414684339,0.03966760138692793,0.07266546179731596,0.10408298381976445,-0.013821419396106333,0.8560759556462535,0.24189048157264464,-0.4566901694781774,0.007552628079109661
