rsonawane2002/My_IMU/logs_test/traj_258/imu_400hz_258.csv
time,j1,j2,j3,j4,j5,j6,j7,gripper1,gripper2,imu_ax,imu_ay,imu_az,imu_gx,imu_gy,imu_gz
0.0,0.00016700293,-0.785875,4.0107683e-05,-2.3551247,9.29385e-05,1.570997,0.786,0.04,0.04,-9.436526,0.0503898076713085,0.12054417,-1.4049989e-07,-0.0011641276068985,3.0440825e-07
0.0025,0.0001670024065,-0.785857774,4.01100323e-05,-2.35513919,9.294509850000001e-05,1.570996565,0.786,0.04,0.04,-9.496206500000003,0.042927695534307996,0.10382817509999906,-9.47596999999974e-08,-0.0013251987635157642,4.27206762500007e-07
0.005,0.000167001883,-0.785840548,4.0112381600000003e-05,-2.3551536800000004,9.2951697e-05,1.57099613,0.786,0.04,0.04,-9.555887000000007,0.03546558339730749,0.08711218019999811,-4.9019509999994806e-08,-0.0014862699201330285,5.50005275000014e-07
0.0075,0.0001670013595,-0.785823322,4.0114730900000004e-05,-2.3551681700000002,9.295829550000001e-05,1.570995695,0.786,0.04,0.04,-9.61556750000001,0.028003471260306986,0.07039618529999717,-3.2793199999922264e-09,-0.0016473410767502926,6.728037875000209e-07
0.01,0.00016700083600000001,-0.7858060960000001,4.01170802e-05,-2.35518266,9.2964894e-05,1.5709952600000001,0.786,0.04,0.04,-9.675248000000014,0.02054135912330648,0.053680190399996205,4.246087000001038e-08,-0.0018084122333675567,7.956023000000279e-07
0.0125,0.0001670003125,-0.78578887,4.01194295e-05,-2.3551971500000004,9.297149250000001e-05,1.570994825,0.786,0.04,0.04,-9.734928500000017,0.013079246986305977,0.036964195499995245,8.820106000001299e-08,-0.001969483389984821,9.184008125000348e-07
0.015,0.000166999789,-0.785771644,4.01217788e-05,-2.3552116400000003,9.2978091e-05,1.57099439,0.786,0.04,0.04,-9.79460900000002,0.005617134849305476,0.020248200599994312,1.3394125000001554e-07,-0.002130554546602085,1.0411993250000418e-06
0.0175,0.000166997103,-0.7857548645,4.0127115550000006e-05,-2.3552257350000003,9.298746300000002e-05,1.57099396,0.786,0.04,0.04,-9.83429145,0.0006450872926506782,0.009027505319999908,2.793210745001374e-07,-0.002287023398093899,1.1897595500000797e-06
0.02,0.000166990092,-0.785738978,4.0138427200000006e-05,-2.3552390400000003,9.3002382e-05,1.5709935400000001,0.786,0.04,0.04,-9.8339778,0.0006531688966788037,0.008797409279999896,6.239801680001568e-07,-0.002434287639334827,1.389843200000091e-06
0.0225,0.000166983081,-0.7857230915,4.0149738850000006e-05,-2.3552523450000002,9.301730100000001e-05,1.57099312,0.786,0.04,0.04,-9.83366415,0.0006612505007069291,0.008567313239999881,9.686392615001763e-07,-0.002581551880575755,1.5899268500001023e-06
0.025,0.00016697606999999999,-0.785707205,4.0161050500000005e-05,-2.35526565,9.303222000000002e-05,1.5709927,0.786,0.04,0.04,-9.8333505,0.0006693321047350545,0.008337217199999868,1.3132983550001961e-06,-0.0027288161218166837,1.790010500000114e-06
0.0275,0.000166969059,-0.7856913185,4.0172362150000005e-05,-2.3552789549999997,9.3047139e-05,1.57099228,0.786,0.04,0.04,-9.83303685,0.0006774137087631801,0.008107121159999855,1.6579574485002154e-06,-0.0028760803630576122,1.9900941500001253e-06
0.03,0.000166962048,-0.785675432,4.0183673800000005e-05,-2.3552922599999997,9.306205800000001e-05,1.57099186,0.786,0.04,0.04,-9.8327232,0.0006854953127913055,0.007877025119999843,2.002616542000235e-06,-0.0030233446042985403,2.1901778000001365e-06
0.0325,0.00016695503699999998,-0.7856595455,4.0194985450000005e-05,-2.3553055649999997,9.307697700000001e-05,1.57099144,0.786,0.04,0.04,-9.83240955,0.0006935769168194309,0.00764692907999983,2.347275635500255e-06,-0.003170608845539469,2.3902614500001477e-06
0.035,0.00016693678599999997,-0.78564451,4.022219080000003e-05,-2.3553181,9.310702460000003e-05,1.57099101,0.786,0.04,0.04,-9.8321028,0.000706332037225362,0.007435044129999838,3.0823302000007416e-06,-0.0033091031713411967,2.733982000000331e-06
0.0375,0.00016691291499999997,-0.7856299,4.025734300000003e-05,-2.3553302499999997,9.314463650000003e-05,1.570990575,0.786,0.04,0.04,-9.831799499999999,0.0007214239158201878,0.007232264724999827,4.012582500000793e-06,-0.003443212539423339,3.149521000000354e-06
0.04,0.00016688904399999997,-0.78561529,4.029249520000003e-05,-2.3553424,9.318224840000004e-05,1.57099014,0.786,0.04,0.04,-9.8314962,0.0007365157944150137,0.007029485319999815,4.9428348000008466e-06,-0.003577321907505482,3.5650600000003783e-06
0.0425,0.00016686517299999997,-0.7856006799999999,4.032764740000003e-05,-2.35535455,9.321986030000004e-05,1.5709897050000001,0.786,0.04,0.04,-9.8311929,0.0007516076730098395,0.006826705914999804,5.8730871000009e-06,-0.003711431275587625,3.980599000000403e-06
0.045,0.00016684130199999997,-0.7855860699999999,4.036279960000004e-05,-2.3553667,9.325747220000004e-05,1.57098927,0.786,0.04,0.04,-9.830889599999999,0.0007666995516046654,0.006623926509999793,6.8033394000009516e-06,-0.0038455406436697674,4.396138000000425e-06
0.0475,0.00016681743099999997,-0.78557146,4.039795180000004e-05,-2.35537885,9.329508410000004e-05,1.570988835,0.786,0.04,0.04,-9.8305863,0.0007817914301994913,0.006421147104999781,7.733591700001004e-06,-0.00397965001175191,4.811677000000449e-06
0.05,0.00016679355999999994,-0.78555685,4.043310400000009e-05,-2.355391,9.33326960000001e-05,1.5709884,0.786,0.04,0.04,-9.830283,0.0007968833087943259,0.006218367699999788,8.663844000002037e-06,-0.004113759379834037,5.227216000000825e-06
0.0525,0.00016673814099999994,-0.7855433949999999,4.0513438900000094e-05,-2.35540216,9.34139081000001e-05,1.57098798,0.786,0.04,0.04,-9.829972949999998,0.0008196159818908022,0.006032641284999778,1.0453693050002136e-05,-0.004234058968722924,5.952175300000865e-06
0.055,0.00016668272199999993,-0.78552994,4.05937738000001e-05,-2.35541332,9.34951202000001e-05,1.57098756,0.786,0.04,0.04,-9.829662899999999,0.0008423486549872784,0.0058469148699997675,1.2243542100002238e-05,-0.004354358557611811,6.677134600000907e-06
0.0575,0.00016662730299999993,-0.7855164849999999,4.06741087000001e-05,-2.35542448,9.357633230000011e-05,1.57098714,0.786,0.04,0.04,-9.82935285,0.0008650813280837548,0.005661188454999757,1.403339115000234e-05,-0.004474658146500697,7.402093900000949e-06
0.06,0.00016657188399999993,-0.78550303,4.0754443600000106e-05,-2.35543564,9.365754440000011e-05,1.57098672,0.786,0.04,0.04,-9.8290428,0.000887814001180231,0.005475462039999747,1.582324020000244e-05,-0.0045949577353895845,8.12705320000099e-06
0.0625,0.00016651646499999992,-0.7854895749999999,4.083477850000011e-05,-2.3554468,9.373875650000011e-05,1.5709863,0.786,0.04,0.04,-9.828732749999999,0.0009105466742767073,0.005289735624999736,1.7613089250002543e-05,-0.004715257324278471,8.85201250000103e-06
0.065,0.00016646104599999992,-0.78547612,4.0915113400000114e-05,-2.35545796,9.381996860000012e-05,1.57098588,0.786,0.04,0.04,-9.828422699999999,0.0009332793473731837,0.005104009209999726,1.9402938300002645e-05,-0.004835556913167358,9.576971800001074e-06
0.0675,0.00016638892299999984,-0.7854630175,4.1019565500000236e-05,-2.35546882,9.392436600000022e-05,1.570985455,0.786,0.04,0.04,-9.828116699999999,0.0009575118427165069,0.004923355379999738,2.1585277150004556e-05,-0.004951450275257335,1.0434212800001724e-05
0.07,0.00016628339199999985,-0.78545062,4.1172252000000245e-05,-2.35547908,9.407513400000023e-05,1.57098502,0.786,0.04,0.04,-9.8278188,0.0009847439825535033,0.004752846719999728,2.4552595600004732e-05,-0.005058531183749551,1.155601720000179e-05
0.0725,0.00016617786099999983,-0.7854382225,4.132493850000025e-05,-2.35548934,9.422590200000024e-05,1.570984585,0.786,0.04,0.04,-9.8275209,0.0010119761223904998,0.00458233805999972,2.7519914050004887e-05,-0.005165612092241766,1.2677821600001848e-05
0.075,0.0001660723299999998,-0.785425825,4.147762500000026e-05,-2.3554996,9.437667000000026e-05,1.57098415,0.786,0.04,0.04,-9.827223,0.0010392082622274965,0.0044118293999997095,3.0487232500005056e-05,-0.0052726930007339825,1.3799626000001913e-05
0.0775,0.00016596679899999982,-0.7854134275,4.1630311500000266e-05,-2.3555098599999997,9.452743800000027e-05,1.5709837150000001,0.786,0.04,0.04,-9.8269251,0.001066440402064493,0.004241320739999699,3.345455095000523e-05,-0.005379773909226199,1.4921430400001978e-05
0.08,0.0001658612679999998,-0.78540103,4.1782998000000275e-05,-2.35552012,9.467820600000028e-05,1.57098328,0.786,0.04,0.04,-9.826627199999999,0.0010936725419014896,0.00407081207999969,3.642186940000541e-05,-0.005486854817718415,1.604323480000204e-05
0.0825,0.00016575573699999978,-0.7853886325,4.1935684500000285e-05,-2.35553038,9.482897400000028e-05,1.570982845,0.786,0.04,0.04,-9.8263293,0.001120904681738486,0.00390030341999968,3.9389187850005576e-05,-0.005593935726210631,1.7165039200002106e-05
0.085,0.00016560206899999966,-0.7853768600000001,4.21581797000005e-05,-2.35554036,9.504717200000049e-05,1.57098241,0.78600019,0.04,0.04,-9.8260348,0.001152699836529826,0.00373667741999969,4.329824600000848e-05,-0.005692286137491602,1.860208420000309e-05
0.08750000000000001,0.00016542433249999963,-0.7853654,4.241557925000051e-05,-2.3555502,9.52990850000005e-05,1.570981975,0.786000475,0.04,0.04,-9.825742,0.0011867764987983178,0.0035764927499996805,4.767817400000873e-05,-0.005786271300166988,2.019674950000318e-05
0.09,0.00016524659599999962,-0.78535394,4.2672978800000524e-05,-2.35556004,9.555099800000052e-05,1.57098154,0.7860007600000001,0.04,0.04,-9.8254492,0.0012208531610668097,0.0034163080799996725,5.205810200000896e-05,-0.0058802564628423724,2.1791414800003263e-05
0.0925,0.00016506885949999961,-0.78534248,4.2930378350000544e-05,-2.35556988,9.580291100000052e-05,1.570981105,0.786001045,0.04,0.04,-9.8251564,0.0012549298233353015,0.003256123409999663,5.643803000000921e-05,-0.005974241625517757,2.3386080100003354e-05
0.095,0.0001648911229999996,-0.78533102,4.318777790000056e-05,-2.35557972,9.605482400000054e-05,1.57098067,0.78600133,0.04,0.04,-9.824863599999999,0.0012890064856037936,0.003095938739999654,6.0817958000009464e-05,-0.006068226788193143,2.4980745400003448e-05
0.0975,0.0001647133864999996,-0.7853195599999999,4.344517745000057e-05,-2.35558956,9.630673700000056e-05,1.570980235,0.786001615,0.04,0.04,-9.824570799999998,0.0013230831478722855,0.0029357540699996446,6.519788600000972e-05,-0.006162211950868529,2.657541070000354e-05
0.1,0.00016453564999999938,-0.7853081,4.370257700000091e-05,-2.3555994,9.655865000000088e-05,1.5709798,0.7860019,0.04,0.04,-9.824278,0.001357159810140787,0.0027755693999996526,6.957781400001091e-05,-0.006256197113543888,2.8170076000004873e-05
0.10250000000000001,0.00016426052749999936,-0.7852975174999999,4.410173300000093e-05,-2.355608265,9.69473630000009e-05,1.570979365,0.7860021850000001,0.04,0.04,-9.824033949999999,0.0013954569527414344,0.002622965759999644,7.43742164000112e-05,-0.006338608544320018,3.0310131100004997e-05
0.105,0.00016398540499999934,-0.7852869349999999,4.450088900000095e-05,-2.35561713,9.733607600000092e-05,1.5709789299999999,0.78600247,0.04,0.04,-9.8237899,0.0014337540953420812,0.002470362119999636,7.917061880001144e-05,-0.006421019975096147,3.2450186200005104e-05
0.1075,0.00016371028249999932,-0.7852763524999999,4.490004500000097e-05,-2.355625995,9.772478900000096e-05,1.5709784949999999,0.786002755,0.04,0.04,-9.823545849999999,0.0014720512379427285,0.002317758479999627,8.396702120001172e-05,-0.006503431405872276,3.459024130000523e-05
0.11,0.0001634351599999993,-0.78526577,4.5299201000001e-05,-2.35563486,9.811350200000098e-05,1.57097806,0.78600304,0.04,0.04,-9.8233018,0.0015103483805433758,0.0021651548399996183,8.8763423600012e-05,-0.0065858428366484065,3.673029640000535e-05
0.1125,0.00016316003749999928,-0.7852551874999999,4.569835700000102e-05,-2.355643725,9.8502215000001e-05,1.570977625,0.786003325,0.04,0.04,-9.82305775,0.0015486455231440229,0.0020125511999996093,9.355982600001227e-05,-0.006668254267424536,3.887035150000548e-05
0.115,0.00016288491499999927,-0.7852446049999999,4.609751300000104e-05,-2.35565259,9.889092800000102e-05,1.57097719,0.7860036100000001,0.04,0.04,-9.8228137,0.0015869426657446702,0.0018599475599996008,9.835622840001254e-05,-0.006750665698200666,4.10104066000056e-05
0.11750000000000001,0.00016256799199999893,-0.7852342924999999,4.6557658950001554e-05,-2.35566141,9.933894900000152e-05,1.57097675,0.7860038970000001,0.04,0.03999999975,-9.8225461,0.0016271727101412829,0.0017109296684996206,0.0001038233105000182,-0.006828459934331649,4.3389827500007645e-05
0.12,0.0001621674679999989,-0.78522452,4.713978480000159e-05,-2.35567014,9.990558600000155e-05,1.5709763,0.786004188,0.04,0.039999999,-9.8222314,0.0016712685581297803,0.0015690832739996133,0.00011063175200001856,-0.006897019781172447,4.624798000000779e-05
0.1225,0.0001617669439999989,-0.7852147475,4.772191065000162e-05,-2.35567887,0.00010047222300000159,1.57097585,0.786004479,0.04,0.03999999825,-9.8219167,0.0017153644061182777,0.001427236879499605,0.00011744019350001896,-0.006965579628013246,4.910613250000796e-05
0.125,0.00016136641999999886,-0.785204975,4.8304036500001654e-05,-2.3556876,0.00010103886000000161,1.5709754,0.78600477,0.04,0.0399999975,-9.821601999999999,0.0017594602541067754,0.0012853904849995969,0.00012424863500001934,-0.007034139474854045,5.1964285000008124e-05
0.1275,0.00016096589599999883,-0.7851952025,4.888616235000169e-05,-2.35569633,0.00010160549700000165,1.57097495,0.786005061,0.04,0.03999999675,-9.8212873,0.0018035561020952728,0.0011435440904995885,0.00013105707650001974,-0.007102699321694843,5.482243750000829e-05
0.13,0.00016056537199999883,-0.78518543,4.946828820000172e-05,-2.35570506,0.00010217213400000168,1.5709745,0.786005352,0.04,0.039999996,-9.8209726,0.0018476519500837704,0.0010016976959995806,0.00013786551800002014,-0.007171259168535642,5.7680590000008454e-05
0.1325,0.0001601648479999988,-0.7851756575,5.005041405000176e-05,-2.35571379,0.00010273877100000171,1.57097405,0.786005643,0.04,0.03999999525,-9.820657899999999,0.001891747798072268,0.0008598513014995723,0.00014467395950002054,-0.007239819015376441,6.053874250000862e-05
0.135,0.0001596604319999983,-0.78516635,5.078450140000249e-05,-2.3557223,0.00010345103300000241,1.57097358,0.786006121,0.04,0.0399999955,-9.8204069,0.0019369776826352908,0.0007251726019995971,0.00015298371400002784,-0.007301216758787767,6.368027840001009e-05
0.1375,0.00015910406999999826,-0.785157275,5.1594569500002537e-05,-2.3557307,0.00010423610750000247,1.5709731,0.7860066925,0.04,0.03999999625,-9.820187749999999,0.0019827745854855685,0.0005940777499995896,0.00016204412500002836,-0.007359033450484406,6.696350600001029e-05
0.14,0.00015854770799999824,-0.7851482,5.240463760000258e-05,-2.3557391,0.00010502118200000251,1.57097262,0.786007264,0.04,0.039999997,-9.8199686,0.002028571488335846,0.00046298289799958205,0.0001711045360000289,-0.007416850142181045,7.024673360001047e-05
0.14250000000000002,0.0001579913459999982,-0.7851391249999999,5.3214705700002635e-05,-2.3557475,0.00010580625650000255,1.57097214,0.7860078355,0.04,0.03999999775,-9.81974945,0.002074368391186124,0.00033188804599957445,0.0001801649470000294,-0.007474666833877683,7.352996120001066e-05
0.145,0.00015743498399999815,-0.7851300499999999,5.402477380000267e-05,-2.3557559,0.00010659133100000259,1.5709716599999999,0.786008407,0.04,0.0399999985,-9.819530299999998,0.002120165294036401,0.00020079319399956836,0.00018922535800002985,-0.007532483525574321,7.681318880001082e-05
0.1475,0.00015687862199999814,-0.785120975,5.483484190000271e-05,-2.3557643,0.00010737640550000263,1.57097118,0.7860089785,0.04,0.03999999925,-9.819311149999999,0.0021659621968866784,6.969834199956081e-05,0.00019828576900003035,-0.007590300217270959,8.0096416400011e-05
0.15,0.00015632225999999744,-0.7851119,5.56449100000037e-05,-2.3557727,0.00010816148000000358,1.5709707,0.78600955,0.04,0.04,-9.819092,0.0022117590997369776,-6.139651000045672e-05,0.0002073461800000349,-0.0076481169089675565,8.337964400001403e-05
0.1525,0.0001555773539999974,-0.7851035059999999,5.6731109500003767e-05,-2.355780395,0.00010921292450000365,1.5709701,0.7860104124999999,0.04,0.04,-9.818836699999999,0.0022637664689684105,-0.00019539457300046445,0.00021758260300003547,-0.007693954464048214,8.749543340001427e-05
0.155,0.00015483244799999735,-0.7850951119999999,5.7817309000003826e-05,-2.3557880900000003,0.0001102643690000037,1.5709695,0.786011275,0.04,0.04,-9.8185814,0.0023157738381998434,-0.00032939263600047214,0.0002278190260000361,-0.007739792019128872,9.161122280001451e-05
0.1575,0.00015408754199999734,-0.785086718,5.890350850000389e-05,-2.355795785,0.00011131581350000377,1.5709689,0.7860121375,0.04,0.04,-9.818326099999998,0.0023677812074312764,-0.0004633906990004799,0.00023805544900003668,-0.007785629574209529,9.572701220001475e-05
0.16,0.0001533426359999973,-0.785078324,5.998970800000395e-05,-2.35580348,0.00011236725800000384,1.5709683,0.786013,0.04,0.04,-9.8180708,0.0024197885766627093,-0.0005973887620004877,0.00024829187200003727,-0.007831467129290188,9.984280160001499e-05
0.1625,0.00015259772999999725,-0.7850699299999999,6.107590750000401e-05,-2.3558111750000004,0.00011341870250000389,1.5709677,0.7860138624999999,0.04,0.04,-9.817815499999998,0.0024717959458941422,-0.0007313868250004954,0.00025852829500003785,-0.007877304684370845,0.00010395859100001521
0.165,0.0001518528239999972,-0.785061536,6.216210700000408e-05,-2.3558188700000002,0.00011447014700000396,1.5709671,0.786014725,0.04,0.04,-9.817560199999999,0.002523803315125575,-0.0008653848880005031,0.00026876471800003844,-0.007923142239451503,0.00010807438040001545
0.1675,0.0001510335274999963,-0.7850533279999999,6.335739000000539e-05,-2.35582655,0.00011562685400000521,1.570966365,0.7860155999999999,0.04,0.04,-9.817285349999999,0.0025770608102904623,-0.0009945223885004552,0.00027950097250004476,-0.007964393822476318,0.00011244085450001856
0.17,0.00015006544999999626,-0.785045492,6.477084000000547e-05,-2.3558342000000003,0.00011699408600000529,1.57096536,0.7860165,0.04,0.04,-9.816971399999998,0.0026328185573222156,-0.0011139387640004622,0.00029123689000004545,-0.007996473461389604,0.00011730869800001884
0.17250000000000001,0.00014909737249999618,-0.785037656,6.618429000000555e-05,-2.35584185,0.00011836131800000537,1.570964355,0.7860174,0.04,0.04,-9.816657449999997,0.002688576304353969,-0.0012333551395004691,0.0003029728075000461,-0.008028553100302892,0.00012217654150001913
0.17500000000000002,0.00014812929499999613,-0.78502982,6.759774000000563e-05,-2.3558495,0.00011972855000000545,1.57096335,0.7860183000000001,0.04,0.04,-9.816343499999999,0.0027443340513857222,-0.0013527715150004759,0.0003147087250000468,-0.008060632739216178,0.0001270443850000194
0.1775,0.00014716121749999608,-0.785021984,6.90111900000057e-05,-2.3558571500000003,0.00012109578200000551,1.5709623449999999,0.7860192,0.04,0.04,-9.816029549999998,0.0028000917984174747,-0.0014721878905004815,0.0003264446425000473,-0.008092712378129465,0.00013191222850001964
0.18,0.00014619313999999603,-0.7850141479999999,7.042464000000578e-05,-2.3558648,0.0001224630140000056,1.57096134,0.7860201,0.04,0.04,-9.815715599999997,0.002855849545449228,-0.0015916042660004885,0.00033818056000004795,-0.008124792017042751,0.0001367800720000199
0.1825,0.00014522506249999598,-0.7850063119999999,7.183809000000586e-05,-2.35587245,0.00012383024600000567,1.5709603349999999,0.7860210000000001,0.04,0.04,-9.815401649999998,0.0029116072924809814,-0.0017110206415004952,0.00034991647750004864,-0.008156871655956039,0.0001416479155000202
0.185,0.00014408398799999481,-0.7849988,7.350548650000755e-05,-2.3558800800000004,0.0001254434740000073,1.5709593199999998,0.78602207,0.04,0.0399999995,-9.815149099999998,0.002968975133262805,-0.0018278292700004857,0.00036352727800006117,-0.008182530757039874,0.00014711850000002428
0.1875,0.00014285641499999475,-0.7849914499999999,7.529985625000765e-05,-2.3558877000000003,0.0001271797000000074,1.5709582999999998,0.786023225,0.04,0.03999999875,-9.814927249999998,0.0030271480209196483,-0.0019433340250004925,0.000378075520000062,-0.008204979589209046,0.00015289045500002462
0.19,0.0001416288419999947,-0.7849841,7.709422600000776e-05,-2.35589532,0.0001289159260000075,1.57095728,0.78602438,0.04,0.039999998,-9.814705399999998,0.0030853209085764913,-0.002058838780000499,0.00039262376200006286,-0.008227428421378217,0.00015866241000002493
0.1925,0.00014040126899999463,-0.78497675,7.888859575000786e-05,-2.35590294,0.00013065215200000761,1.57095626,0.786025535,0.04,0.03999999725,-9.814483549999999,0.0031434937962333347,-0.0021743435350005057,0.0004071720040000637,-0.008249877253547389,0.00016443436500002527
0.195,0.00013917369599999454,-0.7849693999999999,8.068296550000796e-05,-2.3559105600000003,0.0001323883780000077,1.57095524,0.78602669,0.04,0.0399999965,-9.814261699999998,0.003201666683890178,-0.0022898482900005125,0.00042172024600006455,-0.008272326085716559,0.0001702063200000256
0.1975,0.00013794612299999448,-0.78496205,8.247733525000806e-05,-2.35591818,0.0001341246040000078,1.57095422,0.786027845,0.04,0.03999999575,-9.814039849999999,0.0032598395715470216,-0.0024053530450005188,0.0004362684880000654,-0.00829477491788573,0.00017597827500002593
0.2,0.00013671854999999306,-0.7849547,8.427170500001015e-05,-2.3559258,0.00013586083000000982,1.5709532,0.786029,0.04,0.039999995,-9.813817999999998,0.0033180124592038732,-0.0025208578000005828,0.000450816730000076,-0.008317223750054848,0.0001817502300000284
0.2025,0.00013519372349999297,-0.78494783,8.650291525001028e-05,-2.35593345,0.00013801575550000995,1.57095206,0.7860305075,0.04,0.03999999575,-9.813575299999998,0.003378080844413757,-0.00264886514500059,0.00046751409550007696,-0.008328049397096055,0.00018799289700002878
0.20500000000000002,0.00013366889699999287,-0.78494096,8.873412550001042e-05,-2.3559411,0.00014017068100001005,1.57095092,0.786032015,0.04,0.0399999965,-9.813332599999999,0.0034381492296236406,-0.0027768724900005975,0.0004842114610000779,-0.00833887504413726,0.00019423556400002915
0.20750000000000002,0.0001321440704999928,-0.78493409,9.096533575001054e-05,-2.35594875,0.00014232560650001018,1.5709497799999999,0.7860335225,0.04,0.03999999725,-9.8130899,0.003498217614833524,-0.0029048798350006047,0.0005009088265000789,-0.008349700691178467,0.0002004782310000295
0.21,0.00013061924399999274,-0.78492722,9.319654600001065e-05,-2.3559564,0.0001444805320000103,1.57094864,0.78603503,0.04,0.039999998,-9.812847199999998,0.0035582860000434066,-0.003032887180000611,0.0005176061920000797,-0.008360526338219671,0.00020672089800002978
0.2125,0.00012909441749999265,-0.7849203499999999,9.542775625001078e-05,-2.3559640500000003,0.00014663545750001042,1.5709475,0.7860365375,0.04,0.03999999875,-9.812604499999999,0.00361835438525329,-0.0031608945250006185,0.0005343035575000806,-0.008371351985260877,0.00021296356500003015
0.215,0.00012756959099999255,-0.7849134799999999,9.765896650001092e-05,-2.3559717,0.00014879038300001055,1.57094636,0.786038045,0.04,0.0399999995,-9.8123618,0.003678422770463174,-0.0032889018700006257,0.0005510009230000816,-0.008382177632302083,0.00021920623200003052
0.2175,0.0001259326249999908,-0.784906733,0.00010005503250001348,-2.35597936,0.00015110523100001305,1.570945075,0.786039685,0.03999999975,0.0399999995,-9.8121197,0.0037410333054142997,-0.0034145020750005976,0.000568331683500092,-0.00838917517103253,0.00022589221100003745
0.22,0.0001240713799999907,-0.784900232,0.00010278081000001364,-2.35598704,0.00015373992400001318,1.5709435,0.78604159,0.039999999,0.039999998,-9.811878799999999,0.0038087281398477986,-0.0035352880000006043,0.000586929234000093,-0.008388516493141637,0.00023346481400003788
0.2225,0.00012221013499999058,-0.7848937309999999,0.0001055065875000138,-2.35599472,0.00015637461700001334,1.570941925,0.786043495,0.03999999825,0.0399999965,-9.8116379,0.0038764229742812976,-0.0036560739250006114,0.0006055267845000941,-0.008387857815250742,0.00024103741700003833
0.225,0.00012034888999999047,-0.7848872299999999,0.00010823236500001395,-2.3560024,0.0001590093100000135,1.5709403499999999,0.7860454,0.0399999975,0.039999994999999997,-9.811397,0.003944117808714796,-0.003776859850000618,0.0006241243350000951,-0.008387199137359847,0.00024861002000003875
0.2275,0.00011848764499999037,-0.7848807289999999,0.00011095814250001411,-2.35601008,0.00016164400300001363,1.570938775,0.786047305,0.03999999675,0.0399999935,-9.8111561,0.004011812643148295,-0.0038976457750006252,0.0006427218855000963,-0.008386540459468952,0.0002561826230000392
0.23,0.00011662639999999026,-0.784874228,0.00011368392000001427,-2.35601776,0.0001642786960000138,1.5709372,0.78604921,0.039999996,0.039999992,-9.810915199999998,0.004079507477581794,-0.004018431700000632,0.0006613194360000974,-0.008385881781578057,0.0002637552260000396
0.2325,0.00011476515499999015,-0.784867727,0.00011640969750001441,-2.35602544,0.00016691338900001393,1.570935625,0.786051115,0.03999999525,0.0399999905,-9.810674299999999,0.004147202312015293,-0.0041392176250006395,0.0006799169865000984,-0.008385223103687162,0.0002713278290000401
0.23500000000000001,0.00011265290339998803,-0.784861454,0.00011950486000001754,-2.35603354,0.00016990226000001692,1.57093401,0.7860532750000001,0.039999994500000004,0.039999991,-9.810434599999999,0.004212420061230942,-0.004260716840000652,0.0006998350630001101,-0.008377715293317971,0.00027908379500004194
0.23750000000000002,0.00011041514849998789,-0.784855295,0.00012278471500001774,-2.35604185,0.0001730682200000171,1.570932375,0.7860555625000001,0.039999993750000004,0.0399999925,-9.810195499999999,0.004276399267837696,-0.0043825727000006585,0.0007204134025001113,-0.008366782916709717,0.0002869314425000424
0.24,0.0001081773935999878,-0.784849136,0.0001260645700000179,-2.35605016,0.00017623418000001727,1.57093074,0.7860578500000001,0.039999993000000005,0.039999994,-9.809956399999999,0.004340378474444449,-0.004504428560000664,0.0007409917420001123,-0.00835585054010146,0.0002947790900000428
0.2425,0.00010593963869998766,-0.7848429769999999,0.00012934442500001808,-2.3560584700000002,0.00017940014000001746,1.570929105,0.7860601375,0.03999999225,0.0399999955,-9.809717299999999,0.004404357681051203,-0.004626284420000671,0.0007615700815001134,-0.008344918163493205,0.00030262673750004325
0.245,0.00010370188379998753,-0.7848368179999999,0.00013262428000001826,-2.35606678,0.00018256610000001763,1.57092747,0.786062425,0.0399999915,0.039999997,-9.809478199999997,0.0044683368876579565,-0.0047481402800006785,0.0007821484210001146,-0.00833398578688495,0.0003104743850000437
0.2475,0.00010146412889998741,-0.784830659,0.00013590413500001844,-2.35607509,0.00018573206000001782,1.5709258350000002,0.7860647125,0.03999999075,0.0399999985,-9.809239099999997,0.00453231609426471,-0.004869996140000685,0.0008027267605001158,-0.008323053410276693,0.00031832203250004417
0.25,9.92263739999849e-05,-0.7848245,0.00013918399000002215,-2.3560834,0.00018889802000002137,1.5709242,0.786067,0.03999999,0.04,-9.808999999999997,0.0045962953008715085,-0.004991852000000757,0.0008233051000001297,-0.008312121033668383,0.00032616968000005183
0.2525,9.657095039998475e-05,-0.7848186245,0.00014307870400002236,-2.35609204,0.0001926570125000216,1.570922025,0.7860696745,0.0399999897,0.03999999925,-9.808810849999999,0.004668152169324833,-0.005125087205000765,0.0008461097095001309,-0.008291230816393946,0.00033528800300005235
0.255,9.39155267999846e-05,-0.784812749,0.0001469734180000226,-2.3561006800000004,0.0001964160050000218,1.5709198500000001,0.786072349,0.0399999894,0.0399999985,-9.808621699999998,0.004740009037778157,-0.005258322410000772,0.0008689143190001322,-0.008270340599119509,0.0003444063260000529
0.2575,9.126010319998444e-05,-0.7848068735,0.00015086813200002283,-2.3561093200000003,0.00020017499750002202,1.570917675,0.7860750235,0.0399999891,0.03999999775,-9.80843255,0.004811865906231481,-0.00539155761500078,0.0008917189285001336,-0.008249450381845073,0.00035352464900005343
0.26,8.860467959998429e-05,-0.7848009979999999,0.00015476284600002304,-2.35611796,0.00020393399000002223,1.5709155000000001,0.7860776979999999,0.0399999888,0.039999997,-9.808243399999999,0.004883722774684805,-0.005524792820000788,0.0009145235380001349,-0.008228560164570636,0.00036264297200005395
0.2625,8.594925599998414e-05,-0.7847951224999999,0.00015865756000002328,-2.3561266,0.00020769298250002246,1.570913325,0.7860803725,0.0399999885,0.03999999625,-9.808054249999998,0.0049555796431381294,-0.0056580280250007955,0.0009373281475001362,-0.0082076699472962,0.0003717612950000545
0.265,8.329383239998399e-05,-0.784789247,0.0001625522740000235,-2.35613524,0.00021145197500002267,1.5709111500000001,0.786083047,0.0399999882,0.0399999955,-9.807865099999999,0.005027436511591454,-0.005791263230000804,0.0009601327570001375,-0.008186779730021763,0.00038087961800005503
0.2675,8.048522469998103e-05,-0.7847834534999999,0.00016667259900002783,-2.356143935,0.00021542851150002686,1.570908935,0.7860858785,0.0399999878,0.039999994750000004,-9.807668699999999,0.005099820392206697,-0.005924500845000812,0.0009837888585001544,-0.008162858895957217,0.00039030331500006113
0.27,7.737024879998085e-05,-0.784777824,0.0001712441460000281,-2.35615274,0.0002198401360000271,1.57090664,0.786089024,0.0399999872,0.039999994000000004,-9.807457799999998,0.005173258297145752,-0.006057743280000819,0.0010091479440001558,-0.008132876828312615,0.0004003377600000617
0.2725,7.425527289998068e-05,-0.7847721944999999,0.00017581569300002836,-2.356161545,0.00022425176050002736,1.570904345,0.7860921694999999,0.0399999866,0.039999993250000004,-9.807246899999999,0.005246696202084806,-0.006190985715000827,0.0010345070295001574,-0.008102894760668014,0.0004103722050000623
0.275,7.114029699998049e-05,-0.784766565,0.00018038724000002865,-2.35617035,0.00022866338500002762,1.57090205,0.786095315,0.039999986,0.0399999925,-9.807035999999998,0.00532013410702386,-0.006324228150000834,0.0010598661150001587,-0.008072912693023411,0.00042040665000006285
0.2775,6.802532109998032e-05,-0.7847609354999999,0.0001849587870000289,-2.356179155,0.00023307500950002787,1.5708997550000001,0.7860984605,0.0399999854,0.03999999175,-9.8068251,0.005393572011962914,-0.006457470585000842,0.00108522520050016,-0.00804293062537881,0.0004304410950000634
0.28,6.491034519998013e-05,-0.784755306,0.00018953033400002917,-2.35618796,0.00023748663400002812,1.57089746,0.786101606,0.0399999848,0.039999991,-9.806614199999999,0.0054670099169019685,-0.00659071302000085,0.0011105842860001617,-0.008012948557734208,0.000440475540000064
0.28250000000000003,6.179536929997996e-05,-0.7847496764999999,0.00019410188100002943,-2.356196765,0.0002418982585000284,1.570895165,0.7861047515,0.039999984200000005,0.03999999025,-9.8064033,0.005540447821841023,-0.0067239554550008575,0.001135943371500163,-0.007982966490089607,0.00045050998500006456
0.28500000000000003,5.8345700599976516e-05,-0.78474415,0.00019916660900003448,-2.35620619,0.0002467853970000333,1.57089256,0.786108233,0.039999984,0.03999999,-9.806154999999999,0.0056148570962254165,-0.00686694364000096,0.0011628137700001792,-0.007944540400057662,0.0004611618300000712
0.28750000000000003,5.472868549997631e-05,-0.7847386749999999,0.00020447792750003478,-2.356215925,0.00025191029250003357,1.5708898,0.7861118825,0.039999984,0.03999999,-9.805888,0.005689752055332466,-0.007014804700000968,0.001190439825000181,-0.00790189229883217,0.0004721223750000718
0.29,5.111167039997618e-05,-0.7847331999999999,0.00020978924600003498,-2.3562256599999998,0.00025703518800003375,1.57088704,0.786115532,0.039999984,0.03999999,-9.805620999999999,0.005764647014439513,-0.007162665760000974,0.001218065880000182,-0.007859244197606679,0.0004830829200000722
0.2925,4.7494655299975974e-05,-0.784727725,0.00021510056450003528,-2.356235395,0.00026216008350003403,1.57088428,0.7861191815,0.039999984,0.03999999,-9.805354,0.005839541973546563,-0.007310526820000982,0.0012456919350001836,-0.007816596096381186,0.0004940434650000728
0.295,4.387764019997577e-05,-0.78472225,0.0002204118830000356,-2.35624513,0.0002672849790000343,1.57088152,0.786122831,0.039999984,0.03999999,-9.805086999999999,0.005914436932653612,-0.007458387880000991,0.001273317990000185,-0.007773947995155694,0.0005050040100000734
0.2975,4.026062509997556e-05,-0.7847167749999999,0.0002257232015000359,-2.356254865,0.0002724098745000346,1.57087876,0.7861264805,0.039999984,0.03999999,-9.804819999999998,0.0059893318917606615,-0.007606248940000999,0.0013009440450001868,-0.007731299893930202,0.000515964555000074
0.3,3.664360999997163e-05,-0.7847113,0.0002310345200000417,-2.3562646,0.0002775347700000402,1.570876,0.78613013,0.039999984,0.03999999,-9.804552999999999,0.006064226850867734,-0.007754110000001053,0.001328570100000205,-0.0076886517927046575,0.0005269251000000802
0.3025,3.248155602497139e-05,-0.784705981,0.00023714926700004203,-2.3562745449999998,0.0002834341845000405,1.570872715,0.7861343255000001,0.0399999834,0.03999999,-9.80439565,0.006142522557639049,-0.007908575050001062,0.0013586277600002067,-0.007638383982702679,0.0005386970250000809
0.305,2.831950204997115e-05,-0.784700662,0.0002432640140000424,-2.35628449,0.0002893335990000409,1.57086943,0.786138521,0.0399999828,0.03999999,-9.8042383,0.006220818264410363,-0.00806304010000107,0.0013886854200002084,-0.007588116172700702,0.0005504689500000816
0.3075,2.415744807497091e-05,-0.784695343,0.00024937876100004274,-2.356294435,0.0002952330135000412,1.5708661449999999,0.7861427165,0.0399999822,0.03999999,-9.80408095,0.006299113971181678,-0.00821750515000108,0.00141874308000021,-0.007537848362698723,0.0005622408750000822
0.31,1.999539409997067e-05,-0.784690024,0.0002554935080000431,-2.35630438,0.00030113242800004157,1.5708628599999999,0.786146912,0.0399999816,0.03999999,-9.8039236,0.006377409677952992,-0.00837197020000109,0.0014488007400002118,-0.007487580552696746,0.0005740128000000829
0.3125,1.583334012497043e-05,-0.784684705,0.0002616082550000434,-2.356314325,0.0003070318425000419,1.570859575,0.7861511075000001,0.039999981,0.03999999,-9.803766249999999,0.006455705384724306,-0.008526435250001099,0.0014788584000002137,-0.007437312742694767,0.0005857847250000836
0.315,1.1671286149970188e-05,-0.784679386,0.0002677230020000438,-2.35632427,0.00031293125700004225,1.57085629,0.786155303,0.039999980399999996,0.03999999,-9.803608899999999,0.006534001091495621,-0.008680900300001107,0.0015089160600002154,-0.00738704493269279,0.0005975566500000843
0.3175,7.313085874965698e-06,-0.784674098,0.0002741269630000504,-2.35633457,0.00031910953300004865,1.570852925,0.78615969,0.03999997985,0.0399999899,-9.803416449999999,0.006613095174544048,-0.008837299000001159,0.0015397853250002347,-0.007333074719644546,0.0006096867750000928
0.32,2.562592999965423e-06,-0.784668872,0.00028110935200005083,-2.35634558,0.000325845532000049,1.5708494,0.7861644600000001,0.039999979399999996,0.0399999896,-9.803153799999999,0.006693786010146648,-0.008997565000001167,0.0015722778000002366,-0.007271699700504013,0.0006225333000000935
0.3225,-2.1878998750348507e-06,-0.7846636459999999,0.0002880917410000512,-2.3563565900000003,0.0003325815310000494,1.570845875,0.78616923,0.03999997895,0.0399999893,-9.802891149999999,0.006774476845749247,-0.009157831000001176,0.0016047702750002384,-0.007210324681363479,0.0006353798250000942
0.325,-6.9383927500351244e-06,-0.78465842,0.0002950741300000516,-2.3563676,0.0003393175300000498,1.57084235,0.786174,0.0399999785,0.039999989,-9.802628499999997,0.006855167681351847,-0.009318097000001186,0.0016372627500002403,-0.007148949662222946,0.000648226350000095
0.3275,-1.1688885625035398e-05,-0.784653194,0.000302056519000052,-2.35637861,0.0003460535290000502,1.570838825,0.78617877,0.039999978049999996,0.0399999887,-9.802365849999997,0.006935858516954447,-0.009478363000001194,0.0016697552250002422,-0.007087574643082412,0.0006610728750000958
0.33,-1.6439378500035672e-05,-0.784647968,0.0003090389080000524,-2.35638962,0.0003527895280000506,1.5708353,0.78618354,0.0399999776,0.0399999884,-9.802103199999998,0.0070165493525570465,-0.009638629000001203,0.001702247700000244,-0.0070261996239418785,0.0006739194000000965
0.3325,-2.118987137503595e-05,-0.784642742,0.0003160212970000528,-2.35640063,0.000359525527000051,1.570831775,0.78618831,0.03999997715,0.0399999881,-9.801840549999998,0.007097240188159646,-0.009798895000001213,0.0017347401750002459,-0.006964824604801346,0.0006867659250000972
0.335,-2.6361730500041043e-05,-0.78463755,0.00032362523400006034,-2.35641207,0.00036686068900005823,1.57082793,0.7861935250000001,0.039999977,0.039999988,-9.801641799999999,0.007179030030966418,-0.009973163700001382,0.001768912170000267,-0.006897394498809613,0.0007002464400001052
0.3375,-3.1744272750041356e-05,-0.7846323749999999,0.0003315399450000608,-2.356423725,0.00037449543250005863,1.570823925,0.7861989625,0.039999977,0.039999988,-9.801474999999998,0.007261369377375258,-0.010154433750001392,0.001803923925000269,-0.006826936849392383,0.000714043950000106
0.34,-3.712681500004167e-05,-0.7846272,0.00033945465600006123,-2.35643538,0.0003821301760000591,1.57081992,0.7862044,0.039999977,0.039999988,-9.8013082,0.007343708723784098,-0.010335703800001404,0.001838935680000271,-0.006756479199975155,0.0007278414600001068
0.3425,-4.250935725004198e-05,-0.784622025,0.00034736936700006173,-2.356447035,0.00038976491950005955,1.570815915,0.7862098375000001,0.039999977,0.039999988,-9.801141399999999,0.007426048070192937,-0.010516973850001414,0.0018739474350002732,-0.006686021550557926,0.0007416389700001076
0.34500000000000003,-4.789189950004229e-05,-0.7846168499999999,0.0003552840780000622,-2.35645869,0.00039739966300005996,1.57081191,0.786215275,0.039999977,0.039999988,-9.800974599999998,0.0075083874166017766,-0.010698243900001424,0.001908959190000275,-0.0066155639011406964,0.0007554364800001084
0.34750000000000003,-5.32744417500426e-05,-0.784611675,0.0003631987890000627,-2.3564703450000004,0.0004050344065000604,1.5708079050000001,0.7862207125,0.039999977,0.039999988,-9.8008078,0.007590726763010616,-0.010879513950001436,0.0019439709450002772,-0.006545106251723468,0.0007692339900001092
0.35000000000000003,-5.8656984000048295e-05,-0.7846065,0.00037111350000007103,-2.356482,0.0004126691500000685,1.5708039,0.78622615,0.039999977,0.039999988,-9.800640999999999,0.0076730661094194874,-0.011060784000001529,0.0019789827000002975,-0.0064746486023061585,0.0007830315000001176
0.3525,-6.47154144000485e-05,-0.78460137,0.0003800253630000714,-2.3564943750000005,0.00042126513250006885,1.57079934,0.7862322835,0.03999997595,0.0399999868,-9.800417199999998,0.007759386720136426,-0.011252575650001536,0.002016310455000299,-0.00639412121381542,0.000797782909500118
0.355,-7.077384480004885e-05,-0.78459624,0.0003889372260000719,-2.3565067500000003,0.00042986111500006933,1.57079478,0.7862384170000001,0.0399999749,0.039999985599999996,-9.800193399999998,0.007845707330853366,-0.011444367300001547,0.002053638210000301,-0.006313593825324681,0.0008125343190001189
0.3575,-7.68322752000492e-05,-0.7845911099999999,0.0003978490890000724,-2.356519125,0.0004384570975000698,1.57079022,0.7862445505000001,0.03999997385,0.0399999844,-9.799969599999999,0.007932027941570306,-0.011636158950001557,0.002090965965000303,-0.006233066436833941,0.0008272857285001198
0.36,-8.289070560004955e-05,-0.7845859799999999,0.00040676095200007295,-2.3565315000000004,0.0004470530800000703,1.57078566,0.7862506840000001,0.0399999728,0.0399999832,-9.799745799999998,0.008018348552287245,-0.01182795060000157,0.0021282937200003053,-0.006152539048343201,0.0008420371380001207
0.3625,-8.89491360000499e-05,-0.78458085,0.00041567281500007346,-2.3565438750000003,0.0004556490625000708,1.5707811,0.7862568175000001,0.03999997175,0.039999981999999996,-9.799521999999998,0.008104669163004187,-0.01201974225000158,0.0021656214750003073,-0.006072011659852461,0.0008567885475001216
0.365,-9.500756640005025e-05,-0.78457572,0.00042458467800007393,-2.35655625,0.00046424504500007133,1.57077654,0.7862629510000001,0.039999970700000005,0.039999980799999994,-9.799298199999997,0.008190989773721126,-0.01221153390000159,0.0022029492300003096,-0.005991484271361722,0.0008715399570001224
0.3675,-0.00010130591200005662,-0.7845705799999999,0.0004338505960000833,-2.356568975,0.00047318230000008033,1.57077181,0.7862693230000001,0.0399999695,0.03999997985,-9.799074849999998,0.008277312899009022,-0.01240643660000168,0.0022410778300003317,-0.0059076193021602484,0.0008865663635001302
0.37,-0.000108084088000057,-0.78456542,0.0004438246240000839,-2.3565824,0.0004828021000000809,1.57076674,0.7862761720000001,0.039999968000000004,0.039999979399999996,-9.798852399999998,0.008363641053438826,-0.012607561400001691,0.002280808120000334,-0.005817079171537559,0.000902142764000131
0.3725,-0.0001148622640000574,-0.78456026,0.0004537986520000845,-2.3565958250000003,0.0004924219000000815,1.57076167,0.786283021,0.039999966500000005,0.03999997895,-9.798629949999999,0.00844996920786863,-0.012808686200001702,0.0023205384100003362,-0.005726539040914868,0.0009177191645001319
0.375,-0.0001216404400000578,-0.7845551,0.00046377268000008504,-2.35660925,0.000502041700000082,1.5707566,0.7862898700000001,0.039999965,0.0399999785,-9.798407499999998,0.008536297362298436,-0.013009811000001715,0.002360268700000339,-0.005635998910292178,0.0009332955650001328
0.3775,-0.0001284186160000582,-0.78454994,0.00047374670800008563,-2.356622675,0.0005116615000000826,1.5707515300000001,0.7862967190000001,0.0399999635,0.039999978049999996,-9.798185049999997,0.00862262551672824,-0.013210935800001726,0.0023999989900003412,-0.005545458779669488,0.0009488719655001337
0.38,-0.00013519679200005858,-0.7845447799999999,0.0004837207360000862,-2.3566361,0.0005212813000000832,1.57074646,0.786303568,0.039999962,0.0399999776,-9.797962599999998,0.008708953671158046,-0.013412060600001737,0.0024397292800003435,-0.005454918649046798,0.0009644483660001346
0.3825,-0.00014197496800005897,-0.78453962,0.0004936947640000868,-2.356649525,0.0005309011000000837,1.57074139,0.786310417,0.0399999605,0.03999997715,-9.797740149999997,0.00879528182558785,-0.01361318540000175,0.002479459570000346,-0.005364378518424108,0.0009800247665001354
0.385,-0.00014926222900006606,-0.784534414,0.0005044202420000973,-2.35666367,0.0005412452400000938,1.57073595,0.7863177800000001,0.0399999598,0.0399999766,-9.797539899999999,0.008885498717428006,-0.013827416100001932,0.00252084910000037,-0.005267870472743199,0.0009963215400001458
0.3875,-0.0001568040325000665,-0.784529185,0.0005155214450000979,-2.356678175,0.0005519515500000945,1.570730325,0.7863254000000001,0.0399999595,0.039999976,-9.797350749999998,0.008977659977973262,-0.014048199750001945,0.0025630682500003723,-0.005168378469533298,0.0010129785000001469
0.39,-0.0001643458360000669,-0.784523956,0.0005266226480000985,-2.35669268,0.000562657860000095,1.5707247,0.78633302,0.039999959200000004,0.0399999754,-9.797161599999997,0.009069821238518518,-0.014268983400001958,0.002605287400000375,-0.005068886466323397,0.0010296354600001479
0.3925,-0.00017188763950006734,-0.784518727,0.0005377238510000991,-2.356707185,0.0005733641700000956,1.570719075,0.78634064,0.0399999589,0.0399999748,-9.796972449999998,0.009161982499063772,-0.014489767050001972,0.0026475065500003773,-0.004969394463113497,0.0010462924200001487
0.395,-0.00017942944300006777,-0.784513498,0.0005488250540000998,-2.35672169,0.0005840704800000962,1.57071345,0.78634826,0.0399999586,0.0399999742,-9.796783299999998,0.009254143759609028,-0.014710550700001985,0.0026897257000003793,-0.004869902459903596,0.0010629493800001497
0.3975,-0.0001869712465000682,-0.784508269,0.0005599262570001004,-2.3567361950000003,0.0005947767900000969,1.570707825,0.78635588,0.0399999583,0.0399999736,-9.796594149999999,0.009346305020154284,-0.014931334350001997,0.0027319448500003818,-0.004770410456693695,0.0010796063400001507
0.4,-0.000194513050000076,-0.78450304,0.0005710274600001119,-2.3567507,0.0006054831000001079,1.5707022,0.7863635000000001,0.039999958,0.039999973,-9.796404999999998,0.009438466280699541,-0.01515211800000218,0.002774164000000407,-0.0046709184534837155,0.0010962633000001602
0.4025,-0.0002028622570000765,-0.78449773,0.0005833206710001126,-2.3567664350000004,0.0006173383350001086,1.5706959299999999,0.7863719195000001,0.0399999574,0.03999997255,-9.796221399999999,0.009530859859661036,-0.015391560900002193,0.0028188782500004096,-0.004562752577475144,0.0011138698200001613
0.405,-0.00021121146400007696,-0.78449242,0.0005956138820001134,-2.3567821700000002,0.0006291935700001093,1.57068966,0.786380339,0.0399999568,0.0399999721,-9.796037799999999,0.009623253438622532,-0.015631003800002208,0.002863592500000412,-0.004454586701466572,0.0011314763400001623
0.40750000000000003,-0.00021956067100007746,-0.7844871099999999,0.0006079070930001141,-2.356797905,0.0006410488050001099,1.57068339,0.7863887585000001,0.0399999562,0.03999997165,-9.795854199999997,0.009715647017584027,-0.015870446700002223,0.002908306750000415,-0.004346420825458002,0.0011490828600001634
0.41000000000000003,-0.00022790987800007793,-0.7844818,0.0006202003040001148,-2.35681364,0.0006529040400001106,1.5706771199999998,0.7863971780000001,0.0399999556,0.039999971200000005,-9.795670599999998,0.009808040596545522,-0.016109889600002234,0.0029530210000004173,-0.00423825494944943,0.0011666893800001644
0.41250000000000003,-0.00023625908500007843,-0.78447649,0.0006324935150001155,-2.3568293750000002,0.0006647592750001113,1.57067085,0.7864055975,0.039999955,0.03999997075,-9.795486999999998,0.009900434175507018,-0.01634933250000225,0.0029977352500004197,-0.004130089073440859,0.0011842959000001655
0.41500000000000004,-0.0002446082920000789,-0.7844711799999999,0.0006447867260001162,-2.35684511,0.000676614510000112,1.5706645799999999,0.7864140170000001,0.039999954399999996,0.0399999703,-9.795303399999998,0.009992827754468513,-0.016588775400002264,0.0030424495000004226,-0.004021923197432288,0.0012019024200001665
0.4175,-0.00025324117200008727,-0.784465831,0.0006574988250001286,-2.356861265,0.0006888734530001239,1.5706581099999999,0.7864227235000001,0.039999953649999996,0.0399999698,-9.795118799999997,0.01008603768423281,-0.016834218200002443,0.003088011370000448,-0.003910913143771483,0.0012197800550001747
0.42,-0.0002624413980000878,-0.784460404,0.0006710487000001293,-2.3568782600000002,0.0007019398120001246,1.57065124,0.7864320040000001,0.0399999526,0.0399999692,-9.794932199999998,0.010180880315602645,-0.017091660800002458,0.003135268480000451,-0.0037942147348064463,0.0012381999200001758
0.4225,-0.00027164162400008835,-0.784454977,0.0006845985750001301,-2.356895255,0.0007150061710001254,1.57064437,0.7864412845000001,0.039999951549999996,0.0399999686,-9.794745599999997,0.01027572294697248,-0.017349103400002473,0.0031825255900004537,-0.0036775163258414094,0.001256619785000177
0.425,-0.00028084185000008886,-0.7844495499999999,0.0006981484500001309,-2.35691225,0.0007280725300001262,1.5706375,0.7864505650000001,0.0399999505,0.039999968,-9.794558999999998,0.010370565578342317,-0.01760654600000249,0.0032297827000004565,-0.0035608179168763725,0.001275039650000178
0.4275,-0.0002900420760000894,-0.7844441229999999,0.0007116983250001317,-2.3569292450000003,0.0007411388890001269,1.57063063,0.7864598455,0.03999994945,0.0399999674,-9.794372399999999,0.010465408209712151,-0.017863988600002503,0.003277039810000459,-0.003444119507911336,0.001293459515000179
0.43,-0.00029924230200008994,-0.7844386959999999,0.0007252482000001325,-2.35694624,0.0007542052480001277,1.57062376,0.7864691260000001,0.0399999484,0.0399999668,-9.794185799999997,0.010560250841081987,-0.018121431200002515,0.0033242969200004617,-0.003327421098946299,0.0013118793800001801
0.4325,-0.00030844252800009045,-0.7844332689999999,0.0007387980750001332,-2.3569632350000003,0.0007672716070001285,1.57061689,0.7864784065,0.03999994735,0.0399999662,-9.793999199999998,0.010655093472451822,-0.01837887380000253,0.0033715540300004645,-0.0032107226899812623,0.0013302992450001812
0.435,-0.0003182390360000999,-0.7844277439999999,0.000753228586000147,-2.35698103,0.0007811867440001418,1.5706095899999999,0.7864882950000001,0.039999947,0.039999966,-9.793817199999998,0.010752453561873146,-0.01865077260000276,0.003420427560000491,-0.0030881998827667592,0.0013494288200001927
0.4375,-0.0003283336850001004,-0.7844221699999999,0.0007680994150001479,-2.356999225,0.0007955262700001426,1.570602075,0.7864984875000001,0.039999947,0.039999966,-9.793637499999997,0.010851072380320155,-0.018929899500002775,0.003470109300000494,-0.002962764876427652,0.001368913250000194
0.44,-0.000338428334000101,-0.7844165959999999,0.0007829702440001488,-2.35701742,0.0008098657960001434,1.57059456,0.7865086800000001,0.039999947,0.039999966,-9.793457799999997,0.010949691198767167,-0.019209026400002792,0.003519791040000497,-0.002837329870088545,0.001388397680000195
0.4425,-0.0003485229830001016,-0.7844110219999999,0.0007978410730001496,-2.357035615,0.0008242053220001443,1.570587045,0.7865188725000001,0.039999947,0.039999966,-9.793278099999998,0.011048310017214177,-0.01948815330000281,0.0035694727800004997,-0.0027118948637494377,0.001407882110000196
0.445,-0.0003586176320001022,-0.7844054479999999,0.0008127119020001505,-2.35705381,0.0008385448480001451,1.5705795299999998,0.7865290650000001,0.039999947,0.039999966,-9.793098399999998,0.011146928835661188,-0.019767280200002825,0.003619154520000503,-0.0025864598574103304,0.0014273665400001971
0.4475,-0.00036871228100010273,-0.7843998739999999,0.0008275827310001514,-2.357072005,0.0008528843740001459,1.5705720149999998,0.7865392575000001,0.039999947,0.039999966,-9.792918699999998,0.011245547654108198,-0.02004640710000284,0.003668836260000506,-0.002461024851071223,0.0014468509700001984
0.45,-0.0003788069300001129,-0.7843942999999999,0.0008424535600001664,-2.3570902,0.0008672239000001604,1.5705645,0.7865494500000001,0.039999947,0.039999966,-9.792738999999997,0.011344166472555232,-0.02032553400000307,0.003718518000000533,-0.0023355898447320216,0.0014663354000002088
0.4525,-0.0003898391480001136,-0.784388546,0.0008587092400001673,-2.357110345,0.0008828980660001613,1.57055631,0.7865605815000001,0.0399999464,0.0399999651,-9.792535449999997,0.011445014458150693,-0.020625431250003087,0.003770592690000536,-0.0022009507229071488,0.0014867455400002102
0.455,-0.0004008713660001142,-0.7843827919999999,0.0008749649200001683,-2.3571304900000003,0.0008985722320001623,1.5705481199999998,0.7865717130000001,0.0399999458,0.0399999642,-9.792331899999997,0.011545862443746153,-0.020925328500003105,0.0038226673800005394,-0.0020663116010822763,0.0015071556800002113
0.4575,-0.00041190358400011484,-0.7843770379999999,0.0008912206000001692,-2.3571506350000004,0.0009142463980001632,1.5705399299999998,0.7865828445,0.039999945200000005,0.0399999633,-9.792128349999997,0.011646710429341615,-0.021225225750003122,0.0038747420700005423,-0.0019316724792574035,0.0015275658200002125
0.46,-0.00042293580200011545,-0.7843712839999999,0.0009074762800001701,-2.35717078,0.000929920564000164,1.5705317399999998,0.786593976,0.039999944600000004,0.0399999624,-9.791924799999999,0.011747558414937076,-0.02152512300000314,0.003926816760000546,-0.0017970333574325306,0.0015479759600002137
0.4625,-0.0004339680200001161,-0.7843655299999999,0.0009237319600001711,-2.3571909250000003,0.000945594730000165,1.5705235499999999,0.7866051075000001,0.039999944,0.0399999615,-9.791721249999998,0.011848406400532537,-0.021825020250003158,0.003978891450000548,-0.001662394235607658,0.0015683861000002149
0.465,-0.00044500023800011677,-0.784359776,0.000939987640000172,-2.3572110700000004,0.0009612688960001659,1.57051536,0.7866162390000001,0.0399999434,0.0399999606,-9.791517699999998,0.011949254386127997,-0.022124917500003175,0.0040309661400005515,-0.0015277551137827853,0.001588796240000216
0.4675,-0.0004563592200001278,-0.7843539479999999,0.0009567260770001883,-2.35723164,0.0009774082530001817,1.5705069249999999,0.786627704,0.03999994265,0.0399999599,-9.791346899999999,0.012050472479314626,-0.022433584250003472,0.004083868350000581,-0.001391159626653775,0.0016094697050002256
0.47000000000000003,-0.0004683717300001285,-0.784347972,0.0009744300280001894,-2.35725306,0.0009944779920001826,1.570498,0.7866398360000001,0.039999941600000005,0.0399999596,-9.7912416,0.01215243078768355,-0.02275979000000349,0.004138425600000584,-0.001250651408916677,0.001630669820000227
0.47250000000000003,-0.00048038424000012924,-0.7843419959999999,0.0009921339790001905,-2.35727448,0.0010115477310001836,1.5704890749999998,0.7866519680000001,0.03999994055,0.0399999593,-9.7911363,0.012254389096052478,-0.02308599575000351,0.004192982850000587,-0.0011101431911795787,0.001651869935000228
0.47500000000000003,-0.0004923967500001299,-0.7843360199999999,0.0010098379300001914,-2.3572959000000004,0.0010286174700001845,1.5704801499999999,0.7866641000000001,0.0399999395,0.039999959,-9.791030999999998,0.012356347404421403,-0.02341220150000353,0.0042475401000005904,-0.0009696349734424806,0.0016730700500002292
0.47750000000000004,-0.0005044092600001306,-0.784330044,0.0010275418810001924,-2.3573173200000004,0.0010456872090001854,1.570471225,0.7866762320000001,0.03999993845,0.039999958700000005,-9.790925699999999,0.01245830571279033,-0.023738407250003545,0.004302097350000593,-0.0008291267557053825,0.0016942701650002306
0.48,-0.000516421770000131,-0.7843240679999999,0.0010452458320001931,-2.3573387400000003,0.0010627569480001862,1.5704622999999998,0.7866883640000001,0.0399999374,0.0399999584,-9.7908204,0.012560264021159253,-0.024064613000003558,0.004356654600000595,-0.0006886185379682874,0.0017154702800002313
0.4825,-0.0005284342800001317,-0.7843180919999999,0.001062949783000194,-2.3573601600000003,0.001079826687000187,1.5704533749999998,0.7867004960000001,0.03999993635,0.0399999581,-9.790715099999998,0.012662222329528178,-0.024390818750003575,0.0044112118500005985,-0.0005481103202311893,0.0017366703950002324
0.485,-0.0005411286050001437,-0.7843119599999999,0.0010816610900002117,-2.35738248,0.0010978673000002041,1.5704439099999998,0.7867133200000002,0.039999936,0.039999958,-9.790547399999998,0.012768126372249049,-0.024734722800003887,0.004467375540000628,-0.0004016319464409326,0.0017585580100002451
0.4875,-0.0005541638375001444,-0.7843057499999999,0.0011008760750002128,-2.3574052500000002,0.0011163933500002053,1.570434175,0.7867264900000002,0.039999936,0.039999958,-9.790348499999999,0.012876003282145795,-0.025087476000003908,0.004524342450000631,-0.00025216849462424395,0.0017807893750002464
0.49,-0.0005671990700001452,-0.7842995399999999,0.001120091060000214,-2.3574280200000004,0.0011349194000002062,1.5704244399999998,0.7867396600000002,0.039999936,0.039999958,-9.790149599999998,0.012983880192042541,-0.02544022920000393,0.004581309360000635,-0.00010270504280755538,0.0018030207400002477
0.4925,-0.0005802343025001459,-0.7842933299999999,0.001139306045000215,-2.35745079,0.0011534454500002074,1.570414705,0.7867528300000002,0.039999936,0.039999958,-9.789950699999997,0.013091757101939288,-0.02579298240000395,0.004638276270000638,4.6758409009133245e-05,0.001825252105000249
0.495,-0.0005932695350001467,-0.7842871199999999,0.001158521030000216,-2.3574735600000003,0.0011719715000002085,1.5704049699999998,0.7867660000000002,0.039999936,0.039999958,-9.789751799999998,0.013199634011836034,-0.02614573560000397,0.004695243180000641,0.00019622186082582187,0.0018474834700002503
0.4975,-0.0006063047675001474,-0.7842809099999999,0.0011777360150002172,-2.3574963300000005,0.0011904975500002097,1.570395235,0.7867791700000001,0.039999936,0.039999958,-9.789552899999997,0.01330751092173278,-0.02649848880000399,0.004752210090000645,0.0003456853126425104,0.0018697148350002516
0.5,-0.0006193400000001603,-0.7842746999999999,0.0011969510000002363,-2.3575191000000006,0.001209023600000228,1.5703854999999998,0.7867923400000001,0.039999936,0.039999958,-9.789353999999998,0.013415387831629514,-0.02685124200000426,0.004809177000000674,0.0004951487644592994,0.0018919462000002616
0.5025000000000001,-0.0006334398950001614,-0.784268244,0.001217739260000238,-2.3575438950000005,0.0012290656550002295,1.570375015,0.7868065840000001,0.0399999366,0.039999959200000004,-9.789153899999997,0.013522275397555239,-0.02722608390000429,0.00486848001000068,0.0006534326326818121,0.0019149397150002633
0.505,-0.0006475397900001619,-0.7842617879999999,0.0012385275200002387,-2.3575686900000004,0.0012491077100002302,1.57036453,0.7868208280000001,0.0399999372,0.0399999604,-9.788953799999998,0.013629162963480958,-0.027600925800004304,0.0049277830200006815,0.0008117165009043177,0.001937933230000264
0.5075000000000001,-0.000661639685000163,-0.784255332,0.0012593157800002404,-2.3575934850000007,0.0012691497650002318,1.570354045,0.7868350720000001,0.039999937799999996,0.0399999616,-9.788753699999997,0.013736050529406681,-0.027975767700004334,0.004987086030000686,0.0009700003691268304,0.001960926745000266
0.51,-0.0006757395800001635,-0.7842488759999999,0.0012801040400002412,-2.3576182800000005,0.0012891918200002325,1.57034356,0.7868493160000001,0.0399999384,0.0399999628,-9.788553599999997,0.0138429380953324,-0.028350609600004347,0.005046389040000688,0.001128284237349336,0.0019839202600002667
0.5125,-0.000689839475000164,-0.7842424199999999,0.001300892300000242,-2.3576430750000004,0.0013092338750002332,1.570333075,0.7868635600000001,0.039999939,0.039999964,-9.788353499999998,0.013949825661258118,-0.02872545150000436,0.0051056920500006904,0.0012865681055718417,0.0020069137750002674
0.515,-0.0007039393700001652,-0.784235964,0.0013216805600002436,-2.35766787,0.0013292759300002348,1.57032259,0.7868778040000002,0.0399999396,0.0399999652,-9.788153399999997,0.014056713227183843,-0.02910029340000439,0.005164995060000695,0.0014448519737943542,0.002029907290000269
0.5175,-0.0007184080030001787,-0.784229412,0.0013430137250002635,-2.3576931600000006,0.001349843110000254,1.5703118349999998,0.7868924225000001,0.03999994035,0.03999996635,-9.787979499999999,0.01416586227715145,-0.029484271800004725,0.005225108065000725,0.00160526015097465,0.002053236270000282
0.52,-0.0007336141120001799,-0.784222668,0.0013654367000002653,-2.3577194400000003,0.0013714605400002556,1.5703005399999999,0.7869077900000001,0.039999941399999996,0.039999967399999996,-9.787857999999998,0.014279534295202605,-0.029886523200004757,0.0052868410600007305,0.001769916946070308,0.002077236180000284
0.5225,-0.0007488202210001805,-0.784215924,0.0013878596750002662,-2.3577457200000005,0.0013930779700002565,1.570289245,0.7869231575000002,0.03999994245,0.03999996845,-9.787736499999998,0.014393206313253753,-0.030288774600004773,0.005348574055000732,0.0019345737411659589,0.002101236090000285
0.525,-0.0007640263300001816,-0.78420918,0.001410282650000268,-2.357772,0.001414695400000258,1.57027795,0.7869385250000002,0.0399999435,0.0399999695,-9.787614999999999,0.014506878331304908,-0.030691026000004805,0.0054103070500007375,0.002099230536261617,0.0021252360000002866
0.5275,-0.0007792324390001822,-0.784202436,0.0014327056250002686,-2.3577982800000004,0.001436312830000259,1.570266655,0.7869538925000003,0.03999994455,0.03999997055,-9.787493499999998,0.014620550349356056,-0.03109327740000482,0.005472040045000739,0.002263887331357268,0.0021492359100002876
0.53,-0.0007944385480001834,-0.7841956919999999,0.0014551286000002704,-2.35782456,0.0014579302600002605,1.57025536,0.7869692600000002,0.0399999456,0.0399999716,-9.787371999999998,0.01473422236740721,-0.03149552880000485,0.0055337730400007445,0.0024285441264529257,0.0021732358200002894
0.5325,-0.000809644657000184,-0.7841889479999999,0.0014775515750002713,-2.3578508400000002,0.0014795476900002615,1.5702440649999998,0.7869846275000002,0.03999994665,0.03999997265,-9.787250499999999,0.01484789438545836,-0.03189778020000487,0.005595506035000746,0.0025932009215485765,0.0021972357300002903
0.535,-0.0008256155340001991,-0.7841819929999999,0.0015011049200002937,-2.35787854,0.001502254240000283,1.5702321799999999,0.7870007650000003,0.0399999477,0.039999973700000004,-9.787080199999998,0.01496144551783933,-0.03232070290000528,0.0056587847300007795,0.002763720555233002,0.002221808300000303
0.5375,-0.0008419687950001997,-0.7841749324999999,0.0015252234500002944,-2.3579069500000003,0.0015255053500002839,1.57022,0.7870172875000002,0.03999994875,0.03999997475,-9.786885499999997,0.01507493620738521,-0.03275396125000529,0.005722836275000782,0.002937171608211643,0.0022466672000003036
0.54,-0.000858322056000201,-0.7841678719999999,0.0015493419800002965,-2.3579353600000004,0.0015487564600002858,1.5702078199999998,0.7870338100000002,0.0399999498,0.0399999758,-9.786690799999997,0.015188426896931095,-0.03318721960000533,0.005786887820000787,0.003110622661190292,0.0022715261000003056
0.5425,-0.0008746753170002016,-0.7841608114999999,0.0015734605100002973,-2.35796377,0.0015720075700002866,1.57019564,0.7870503325000002,0.03999995085,0.03999997685,-9.786496099999997,0.015301917586476973,-0.03362047795000534,0.0058509393650007895,0.0032840737141689334,0.0022963850000003064
0.545,-0.0008910285780002029,-0.784153751,0.0015975790400002993,-2.35799218,0.0015952586800002885,1.5701834599999998,0.7870668550000002,0.0399999519,0.0399999779,-9.786301399999997,0.015415408276022858,-0.034053736300005376,0.0059149909100007945,0.003457524767147582,0.0023212439000003084
0.5475,-0.0009073818390002035,-0.7841466904999999,0.0016216975700003,-2.35802059,0.0016185097900002893,1.5701712799999998,0.7870833775000002,0.03999995295,0.03999997895,-9.786106699999998,0.015528898965568737,-0.03448699465000539,0.005979042455000797,0.0036309758201262233,0.002346102800000309
0.55,-0.0009237351000002197,-0.7841396299999999,0.001645816100000324,-2.3580490000000003,0.0016417609000003125,1.5701590999999997,0.7870999000000002,0.039999954,0.03999998,-9.785911999999998,0.01564238965511467,-0.034920253000005806,0.006043094000000832,0.003804426873104946,0.0023709617000003203
0.5525,-0.0009412759650002202,-0.7841322304999999,0.001671690050000325,-2.3580790300000003,0.0016667034850003132,1.5701460799999998,0.7871176150000002,0.0399999546,0.0399999812,-9.785791099999999,0.01575986314565088,-0.035383830550005824,0.006109557350000835,0.003983773721849862,0.002396539400000321
0.555,-0.0009588168300002217,-0.7841248309999999,0.0016975640000003271,-2.3581090600000003,0.0016916460700003152,1.5701330599999999,0.7871353300000002,0.0399999552,0.0399999824,-9.785670199999998,0.015877336636187095,-0.035847408100005855,0.00617602070000084,0.004163120570594787,0.0024221171000003232
0.5575,-0.0009763576950002223,-0.7841174314999999,0.001723437950000328,-2.3581390900000003,0.0017165886550003161,1.57012004,0.7871530450000002,0.0399999558,0.0399999836,-9.785549299999998,0.015994810126723304,-0.03631098565000587,0.006242484050000842,0.004342467419339703,0.002447694800000324
0.56,-0.0009938985600002237,-0.784110032,0.00174931190000033,-2.3581691200000003,0.0017415312400003182,1.5701070199999998,0.7871707600000002,0.0399999564,0.0399999848,-9.785428399999999,0.01611228361725952,-0.03677456320000591,0.006308947400000848,0.004521814268084627,0.002473272500000326
0.5625,-0.0010114394250002243,-0.7841026324999999,0.0017751858500003308,-2.3581991500000004,0.001766473825000319,1.5700939999999999,0.7871884750000002,0.039999957,0.039999986,-9.785307499999998,0.016229757107795728,-0.03723814075000593,0.00637541075000085,0.004701161116829544,0.002498850200000327
0.5650000000000001,-0.0010289802900002257,-0.784095233,0.001801059800000333,-2.3582291800000004,0.0017914164100003211,1.57008098,0.7872061900000002,0.039999957600000004,0.0399999872,-9.7851866,0.01634723059833194,-0.03770171830000597,0.006441874100000856,0.004880507965574468,0.002524427900000329
0.5675,-0.0010469303150002422,-0.7840877099999999,0.0018275386350003573,-2.3582598900000002,0.0018169417900003445,1.570067645,0.7872243200000002,0.0399999584,0.0399999886,-9.785043099999998,0.016465402115137858,-0.03817633785000641,0.006509118425000888,0.005062759877184957,0.0025502802550003405
0.5700000000000001,-0.0010656986600002436,-0.7840799399999999,0.0018552272400003595,-2.3582919600000003,0.0018436327600003465,1.5700536799999998,0.7872432800000002,0.0399999596,0.0399999904,-9.784854399999999,0.016584969684483114,-0.03867304140000645,0.006577924700000894,0.005250821914526262,0.0025766819200003428
0.5725,-0.0010844670050002443,-0.7840721699999998,0.0018829158450003605,-2.3583240300000003,0.0018703237300003474,1.5700397149999998,0.7872622400000002,0.0399999608,0.0399999922,-9.784665699999998,0.016704537253828363,-0.03916974495000647,0.006646730975000896,0.005438883951867559,0.0026030835850003437
0.5750000000000001,-0.0011032353500002457,-0.7840643999999999,0.0019106044500003627,-2.3583561000000004,0.0018970147000003496,1.5700257499999999,0.7872812000000002,0.039999962,0.039999994000000004,-9.784476999999999,0.016824104823173616,-0.03966644850000651,0.006715537250000902,0.005626945989208864,0.002629485250000346
0.5775,-0.0011220036950002465,-0.7840566299999999,0.0019382930550003639,-2.3583881700000004,0.0019237056700003505,1.5700117849999997,0.7873001600000002,0.0399999632,0.0399999958,-9.784288299999998,0.016943672392518868,-0.04016315205000653,0.006784343525000904,0.0058150080265501605,0.002655886915000347
0.58,-0.0011407720400002472,-0.7840488599999998,0.0019659816600003646,-2.3584202400000005,0.0019503966400003514,1.5699978199999998,0.7873191200000003,0.0399999644,0.039999997600000003,-9.784099599999998,0.017063239961864117,-0.04065985560000654,0.006853149800000906,0.006003070063891457,0.0026822885800003478
0.5825,-0.0011595403850002486,-0.7840410899999999,0.001993670265000367,-2.3584523100000006,0.0019770876100003534,1.5699838549999998,0.7873380800000003,0.0399999656,0.0399999994,-9.783910899999999,0.01718280753120937,-0.041156559150006586,0.006921956075000912,0.006191132101232762,0.00270869024500035
0.585,-0.001179153230000266,-0.7840330799999998,0.002022607320000393,-2.3584857700000006,0.0020049832600003785,1.5699692799999998,0.7873578940000003,0.039999966399999996,0.0399999995,-9.783754199999999,0.017306644283236736,-0.041671682900006966,0.006992305790000945,0.0063834906555737545,0.0027358791600003668
0.5875,-0.0011991883250002677,-0.7840249499999998,0.0020521686000003953,-2.3585199250000004,0.002033481250000381,1.5699543999999996,0.7873781350000003,0.039999967,0.03999999875,-9.783613499999998,0.017432615626605034,-0.04219601675000701,0.007063427225000951,0.006577997468414475,0.002763461700000369
0.59,-0.0012192234200002685,-0.7840168199999998,0.0020817298800003964,-2.35855408,0.002061979240000382,1.5699395199999997,0.7873983760000003,0.0399999676,0.039999998,-9.783472799999998,0.01755858696997333,-0.04272035060000703,0.007134548660000953,0.006772504281255187,0.0027910442400003697
0.5925,-0.00123925851500027,-0.7840086899999998,0.0021112911600003987,-2.3585882350000005,0.002090477230000384,1.5699246399999998,0.7874186170000003,0.0399999682,0.03999999725,-9.783332099999997,0.01768455831334163,-0.04324468445000707,0.0072056700950009584,0.006967011094095908,0.002818626780000372
0.595,-0.0012592936100002709,-0.7840005599999998,0.0021408524400003993,-2.3586223900000003,0.0021189752200003855,1.5699097599999998,0.7874388580000002,0.0399999688,0.0399999965,-9.783191399999998,0.017810529656709925,-0.04376901830000709,0.007276791530000961,0.007161517906936619,0.002846209320000373
0.5975,-0.0012793287050002725,-0.7839924299999999,0.0021704137200004017,-2.3586565450000005,0.0021474732100003877,1.5698948799999997,0.7874590990000002,0.0399999694,0.03999999575,-9.783050699999997,0.017936501000078223,-0.04429335215000713,0.007347912965000967,0.007356024719777339,0.0028737918600003753
0.6,-0.001299363800000291,-0.7839842999999999,0.002199975000000429,-2.3586907000000004,0.002175971200000414,1.5698799999999997,0.7874793400000003,0.03999997,0.039999995,-9.782909999999998,0.018062472343446528,-0.04481768600000763,0.007419034400001,0.0075505315326181485,0.0029013744000003835
0.6025,-0.0013207043750002928,-0.7839757799999999,0.0022314665250004317,-2.3587269400000004,0.0022063294000004164,1.5698641599999998,0.7875008965000003,0.039999970450000005,0.03999999575,-9.782759249999998,0.018189190514387412,-0.04537702610000767,0.007492403690001006,0.0077521167928380295,0.0029294841600003858
0.605,-0.0013420449500002934,-0.7839672599999998,0.002262958050000433,-2.3587631800000004,0.0022366876000004176,1.5698483199999997,0.7875224530000002,0.0399999709,0.0399999965,-9.782608499999997,0.018315908685328293,-0.04593636620000769,0.007565772980001008,0.007953702053057902,0.0029575939200003863
0.6075,-0.0013633855250002951,-0.7839587399999999,0.0022944495750004353,-2.3587994200000004,0.0022670458000004197,1.5698324799999999,0.7875440095000003,0.03999997135,0.03999999725,-9.782457749999997,0.018442626856269177,-0.04649570630000774,0.007639142270001014,0.008155287313277783,0.0029857036800003886
0.61,-0.0013847261000002958,-0.7839502199999999,0.0023259411000004365,-2.3588356600000004,0.002297404000000421,1.5698166399999998,0.7875655660000003,0.0399999718,0.039999998,-9.782306999999998,0.018569345027210058,-0.04705504640000775,0.007712511560001017,0.008356872573497655,0.0030138134400003896
0.6125,-0.0014060666750002975,-0.7839416999999999,0.0023574326250004394,-2.3588719000000005,0.0023277622000004235,1.5698007999999999,0.7875871225000003,0.03999997225,0.03999999875,-9.782156249999998,0.018696063198150942,-0.0476143865000078,0.007785880850001023,0.008558457833717536,0.003041923200000392
0.615,-0.0014274072500002981,-0.7839331799999999,0.0023889241500004406,-2.3589081400000005,0.0023581204000004243,1.5697849599999998,0.7876086790000003,0.039999972700000004,0.0399999995,-9.782005499999999,0.01882278136909182,-0.04817372660000782,0.007859250140001025,0.008760043093937409,0.003070032960000393
0.6175,-0.001449195635000319,-0.7839245149999998,0.0024210777750004707,-2.3589450850000007,0.002389116650000454,1.5697687649999998,0.7876306925000003,0.039999973,0.04,-9.781855149999998,0.018950276542456738,-0.04874437350000834,0.007933386800001063,0.008963980572301035,0.0030983977500004057
0.62,-0.0014718796400003196,-0.7839155599999998,0.002454555600000472,-2.3589834400000007,0.002421389000000455,1.5697518599999998,0.7876536200000003,0.039999973,0.04,-9.781705599999999,0.01907932572066962,-0.04933763400000836,0.008009058200001066,0.009172622486951842,0.003127272600000407
0.6225,-0.0014945636450003216,-0.7839066049999999,0.0024880334250004747,-2.3590217950000008,0.0024536613500004576,1.5697349549999997,0.7876765475000003,0.039999973,0.04,-9.781556049999997,0.019208374898882503,-0.049930894500008406,0.008084729600001072,0.009381264401602658,0.003156147450000409
0.625,-0.0015172476500003224,-0.7838976499999999,0.0025215112500004758,-2.359060150000001,0.0024859337000004587,1.5697180499999996,0.7876994750000003,0.039999973,0.04,-9.781406499999997,0.019337424077095385,-0.050524155000008425,0.008160401000001075,0.009589906316253465,0.0031850223000004104
0.6275000000000001,-0.0015399316550003242,-0.7838886949999999,0.0025549890750004786,-2.359098505000001,0.0025182060500004615,1.5697011449999998,0.7877224025000004,0.039999973,0.04,-9.781256949999998,0.01946647325530827,-0.05111741550000848,0.008236072400001081,0.009798548230904282,0.0032138971500004125
0.63,-0.001562615660000325,-0.7838797399999998,0.0025884669000004797,-2.3591368600000004,0.0025504784000004626,1.5696842399999997,0.7877453300000004,0.039999973,0.04,-9.781107399999998,0.019595522433521147,-0.0517106760000085,0.008311743800001084,0.01000719014555509,0.0032427720000004134
0.6325000000000001,-0.0015852996650003268,-0.7838707849999998,0.002621944725000482,-2.3591752150000005,0.002582750750000465,1.5696673349999997,0.7877682575000003,0.039999973,0.04,-9.780957849999998,0.01972457161173403,-0.052303936500008544,0.008387415200001089,0.010215832060205906,0.003271646850000416
0.635,-0.0016089041700003475,-0.7838615499999999,0.002656783750000513,-2.3592151000000006,0.0026163351800004946,1.5696497699999996,0.7877921160000003,0.039999973,0.04,-9.780811199999999,0.01985717471689173,-0.05292079560000908,0.008464578900001124,0.010428677964958614,0.0033010179300004276
0.6375000000000001,-0.0016329689250003496,-0.7838521749999999,0.0026923033750005155,-2.359255750000001,0.0026505756500004975,1.5696318749999998,0.7878164400000003,0.039999973,0.04,-9.780665999999998,0.019991554785521726,-0.05354945400000913,0.008542488750001132,0.010643625864762146,0.00333063712500043
0.64,-0.0016570336800003503,-0.7838427999999998,0.002727823000000517,-2.3592964000000007,0.0026848161200004987,1.5696139799999997,0.7878407640000004,0.039999973,0.04,-9.780520799999998,0.020125934854151716,-0.05417811240000915,0.008620398600001133,0.01085857376456567,0.003360256320000431
0.6425,-0.0016810984350003513,-0.7838334249999999,0.002763342625000518,-2.3593370500000006,0.0027190565900005,1.5695960849999997,0.7878650880000003,0.039999973,0.04,-9.780375599999998,0.020260314922781707,-0.054806770800009175,0.008698308450001137,0.011073521664369193,0.003389875515000432
0.645,-0.0017051631900003531,-0.7838240499999999,0.002798862250000521,-2.359377700000001,0.0027532970600005024,1.5695781899999997,0.7878894120000004,0.039999973,0.04,-9.780230399999997,0.0203946949914117,-0.055435429200009226,0.008776218300001143,0.011288469564172725,0.0034194947100004347
0.6475,-0.001729227945000354,-0.7838146749999999,0.0028343818750005225,-2.3594183500000008,0.0027875375300005036,1.5695602949999998,0.7879137360000004,0.039999973,0.04,-9.780085199999998,0.02052907506004169,-0.05606408760000925,0.008854128150001146,0.011503417463976246,0.0034491139050004354
0.65,-0.001753292700000377,-0.7838052999999999,0.0028699015000005564,-2.3594590000000006,0.002821778000000536,1.5695423999999998,0.7879380600000003,0.039999973,0.04,-9.779939999999998,0.02066345512867169,-0.05669274600000984,0.008932038000001183,0.01171836536377988,0.003478733100000447
0.6525,-0.0017787748500003777,-0.7837954674999998,0.0029075173450005577,-2.3595019450000008,0.0028580370200005376,1.5695234999999996,0.7879638210000004,0.039999973,0.04,-9.779798249999997,0.020797914545985025,-0.05735813940000987,0.009012075000001186,0.011940097576010457,0.003508958805000448
0.655,-0.0018042570000003798,-0.7837856349999999,0.0029451331900005604,-2.359544890000001,0.0028942960400005404,1.5695045999999997,0.7879895820000004,0.039999973,0.04,-9.779656499999998,0.020932373963298365,-0.058023532800009915,0.009092112000001193,0.012161829788241044,0.0035391845100004506
0.6575,-0.0018297391500003808,-0.7837758024999999,0.0029827490350005617,-2.359587835000001,0.002930555060000542,1.5694856999999998,0.7880153430000004,0.039999973,0.04,-9.779514749999997,0.0210668333806117,-0.05868892620000994,0.009172149000001196,0.012383562000471623,0.0035694102150004518
0.66,-0.0018552213000003828,-0.7837659699999998,0.003020364880000565,-2.3596307800000007,0.0029668140800005447,1.5694667999999996,0.7880411040000004,0.039999973,0.04,-9.779372999999998,0.02120129279792504,-0.059354319600009996,0.009252186000001203,0.01260529421270221,0.003599635920000454
0.6625,-0.0018807034500003836,-0.7837561374999998,0.003057980725000566,-2.359673725000001,0.003003073100000546,1.5694478999999997,0.7880668650000003,0.039999973,0.04,-9.779231249999999,0.021335752215238375,-0.060019713000010015,0.009332223000001204,0.012827026424932789,0.003629861625000455
0.665,-0.0019061856000003857,-0.7837463049999999,0.0030955965700005693,-2.359716670000001,0.003039332120000549,1.5694289999999997,0.7880926260000004,0.039999973,0.04,-9.779089499999998,0.021470211632551715,-0.06068510640001007,0.009412260000001211,0.013048758637163376,0.0036600873300004578
0.6675,-0.0019321522300004086,-0.7837363124999998,0.0031339289300006032,-2.359760385000001,0.003076282500000582,1.5694097399999996,0.7881188825000004,0.03999997285,0.0399999995,-9.778948999999997,0.0216076555661878,-0.0613637139000107,0.009493041000001248,0.01327260220423683,0.0036906633100004744
0.67,-0.001959087820000411,-0.7837259999999998,0.003173694320000606,-2.3598056400000007,0.0031146156000005846,1.5693897599999997,0.7881461300000004,0.0399999724,0.039999998,-9.778810999999997,0.021751068532468987,-0.06206874960001075,0.009575310000001254,0.013500668480995758,0.0037219398400004772
0.6725,-0.0019860234100004116,-0.7837156874999999,0.003213459710000608,-2.3598508950000006,0.003152948700000586,1.5693697799999997,0.7881733775000004,0.039999971950000004,0.0399999965,-9.778672999999998,0.021894481498750167,-0.06277378530001078,0.009657579000001257,0.013728734757754676,0.0037532163700004784
0.675,-0.0020129590000004137,-0.7837053749999998,0.003253225100000611,-2.359896150000001,0.003191281800000589,1.5693497999999997,0.7882006250000004,0.0399999715,0.039999994999999997,-9.778534999999998,0.022037894465031356,-0.06347882100001083,0.009739848000001263,0.013956801034513605,0.003784492900000481
0.6775,-0.002039894590000415,-0.7836950624999999,0.0032929904900006125,-2.3599414050000007,0.0032296149000005906,1.5693298199999997,0.7882278725000004,0.03999997105,0.0399999935,-9.778396999999998,0.022181307431312535,-0.06418385670001087,0.009822117000001266,0.014184867311272522,0.003815769430000482
0.68,-0.002066830180000417,-0.7836847499999998,0.0033327558800006155,-2.3599866600000006,0.0032679480000005934,1.5693098399999998,0.7882551200000004,0.039999970600000004,0.039999992,-9.778258999999997,0.02232472039759372,-0.06488889240001092,0.009904386000001273,0.014412933588031451,0.0038470459600004844
0.6825,-0.0020937657700004176,-0.7836744374999999,0.003372521270000617,-2.3600319150000004,0.003306281100000595,1.5692898599999998,0.7882823675000005,0.03999997015,0.0399999905,-9.778120999999997,0.0224681333638749,-0.06559392810001094,0.009986655000001276,0.01464099986479037,0.0038783224900004855
0.685,-0.002121693710000443,-0.7836638099999998,0.003413754470000655,-2.3600788600000007,0.003346025970000631,1.5692691399999998,0.7883106010000005,0.03999997,0.039999991,-9.777979099999998,0.022608040086927097,-0.06632406300001159,0.010070312400001315,0.01487352047115927,0.0039096594000004896
0.6875,-0.0021501178250004443,-0.7836530249999998,0.003455721575000656,-2.3601266500000007,0.0033864767250006323,1.5692480499999997,0.7883393275000005,0.03999997,0.0399999925,-9.777835249999997,0.02274619368836491,-0.06706674750001161,0.010154664000001317,0.015108268242332995,0.00394102650000049
0.6900000000000001,-0.0021785419400004464,-0.7836422399999998,0.0034976886800006596,-2.3601744400000007,0.0034269274800006358,1.5692269599999997,0.7883680540000004,0.03999997,0.039999994,-9.777691399999997,0.02288434728980273,-0.06780943200001167,0.010239015600001325,0.015343016013506728,0.003972393600000493
0.6925,-0.0022069660550004476,-0.7836314549999999,0.003539655785000661,-2.3602222300000006,0.003467378235000637,1.5692058699999998,0.7883967805000004,0.03999997,0.0399999955,-9.777547549999998,0.023022500891240544,-0.0685521165000117,0.010323367200001328,0.01557776378468045,0.004003760700000494
0.6950000000000001,-0.0022353901700004498,-0.7836206699999998,0.0035816228900006643,-2.3602700200000006,0.0035078289900006402,1.5691847799999996,0.7884255070000005,0.03999997,0.039999997,-9.777403699999997,0.023160654492678366,-0.06929480100001176,0.010407718800001336,0.015812511555854183,0.004035127800000497
0.6975,-0.002263814285000451,-0.7836098849999998,0.0036235899950006656,-2.360317810000001,0.003548279745000642,1.5691636899999997,0.7884542335000004,0.03999997,0.0399999985,-9.777259849999997,0.02329880809411618,-0.07003748550001178,0.010492070400001339,0.016047259327027906,0.004066494900000497
0.7000000000000001,-0.0022922384000004774,-0.7835990999999998,0.003665557100000705,-2.360365600000001,0.00358873050000068,1.5691425999999995,0.7884829600000004,0.03999997,0.04,-9.777115999999998,0.023436961695554204,-0.07078017000001244,0.010576422000001381,0.01628200709820173,0.004097862000000518
0.7025,-0.0023221857200004786,-0.7835878139999998,0.0037097770250007064,-2.360415880000001,0.0036313538250006814,1.5691203399999996,0.7885132360000005,0.03999997,0.04,-9.776991949999998,0.023587873671206197,-0.07156001100001247,0.010663038600001385,0.016522260103378515,0.0041303603400005195
0.705,-0.0023521330400004797,-0.7835765279999998,0.003753996950000708,-2.360466160000001,0.0036739771500006826,1.5690980799999996,0.7885435120000004,0.03999997,0.04,-9.776867899999997,0.023738785646858187,-0.07233985200001249,0.010749655200001387,0.016762513108555296,0.0041628586800005205
0.7075,-0.002382080360000482,-0.7835652419999998,0.0037982168750007117,-2.360516440000001,0.003716600475000686,1.5690758199999995,0.7885737880000004,0.03999997,0.04,-9.776743849999997,0.023889697622510184,-0.07311969300001256,0.010836271800001395,0.017002766113732092,0.004195357020000523
0.71,-0.002412027680000483,-0.7835539559999998,0.003842436800000713,-2.360566720000001,0.0037592238000006876,1.5690535599999995,0.7886040640000005,0.03999997,0.04,-9.776619799999997,0.024040609598162174,-0.07389953400001258,0.010922888400001397,0.017243019118908874,0.004227855360000524
0.7125,-0.0024419750000004856,-0.7835426699999998,0.003886656725000717,-2.360617000000001,0.003801847125000691,1.5690312999999996,0.7886343400000004,0.03999997,0.04,-9.776495749999999,0.02419152157381417,-0.07467937500001265,0.011009505000001404,0.01748327212408567,0.004260353700000527
0.715,-0.0024719223200004867,-0.7835313839999998,0.003930876650000718,-2.360667280000001,0.003844470450000692,1.5690090399999996,0.7886646160000005,0.03999997,0.04,-9.776371699999999,0.024342433549466164,-0.07545921600001267,0.011096121600001407,0.017723525129262455,0.004292852040000528
0.7175,-0.002502388690000514,-0.7835199219999998,0.00397586430500076,-2.360718435000001,0.0038878331500007317,1.5689863849999994,0.7886954150000005,0.0399999698,0.04,-9.776245649999998,0.024492475949230198,-0.07625352100001344,0.01118344480000145,0.017965745087716933,0.0043254802200005365
0.72,-0.002533893160000515,-0.7835081079999998,0.004022387420000761,-2.3607713400000008,0.003932674600000734,1.5689629399999996,0.7887272600000005,0.0399999692,0.04,-9.776115599999999,0.024640779197218427,-0.07707675400001347,0.011272181200001452,0.01821189895272649,0.004358368080000538
0.7225,-0.002565397630000518,-0.7834962939999998,0.004068910535000765,-2.3608242450000008,0.0039775160500007374,1.5689394949999995,0.7887591050000005,0.0399999686,0.04,-9.775985549999998,0.024789082445206664,-0.07789998700001353,0.011360917600001458,0.01845805281773605,0.00439125594000054
0.725,-0.002596902100000519,-0.7834844799999998,0.004115433650000767,-2.3608771500000008,0.004022357500000739,1.5689160499999995,0.7887909500000005,0.039999968,0.04,-9.775855499999999,0.024937385693194893,-0.07872322000001357,0.011449654000001462,0.018704206682745604,0.004424143800000542
0.7275,-0.0026284065700005214,-0.7834726659999998,0.00416195676500077,-2.360930055000001,0.004067198950000742,1.5688926049999996,0.7888227950000005,0.0399999674,0.04,-9.775725449999998,0.02508568894118313,-0.07954645300001363,0.011538390400001469,0.01895036054775517,0.004457031660000545
0.73,-0.0026599110400005225,-0.7834608519999998,0.004208479880000771,-2.360982960000001,0.004112040400000744,1.5688691599999995,0.7888546400000005,0.0399999668,0.04,-9.775595399999998,0.025233992189171363,-0.08036968600001367,0.011627126800001473,0.019196514412764723,0.004489919520000546
0.7325,-0.0026914155100005253,-0.7834490379999998,0.004255002995000775,-2.361035865000001,0.004156881850000748,1.5688457149999995,0.7888864850000006,0.0399999662,0.04,-9.77546535,0.0253822954371596,-0.08119291900001373,0.011715863200001479,0.019442668277774286,0.004522807380000549
0.735,-0.002723980000000553,-0.7834368599999998,0.0043030942300008165,-2.361090500000001,0.004203232240000787,1.5688214899999995,0.7889194040000006,0.0399999654,0.04,-9.775339599999999,0.025534215755763208,-0.08204412300001446,0.011805999900001517,0.01969239339232856,0.004556027960000558
0.7375,-0.0027570745000005557,-0.7834244999999997,0.00435196952500082,-2.361146000000001,0.0042503371000007905,1.5687968749999994,0.7889528600000005,0.0399999645,0.04,-9.775215999999999,0.02568794460967438,-0.08290931250001453,0.011896836750001525,0.01994390413165507,0.004589414900000561
0.74,-0.0027901690000005567,-0.7834121399999998,0.004400844820000822,-2.361201500000001,0.004297441960000792,1.5687722599999996,0.7889863160000006,0.0399999636,0.04,-9.775092399999998,0.025841673463585547,-0.08377450200001456,0.011987673600001528,0.02019541487098157,0.004622801840000562
0.7425,-0.0028232635000005595,-0.7833997799999998,0.0044497201150008265,-2.361257000000001,0.004344546820000796,1.5687476449999995,0.7890197720000005,0.0399999627,0.04,-9.774968799999998,0.025995402317496717,-0.08463969150001462,0.012078510450001535,0.02044692561030808,0.0046561887800005645
0.745,-0.0028563580000005606,-0.7833874199999997,0.004498595410000828,-2.361312500000001,0.004391651680000798,1.5687230299999995,0.7890532280000006,0.0399999618,0.04,-9.774845199999998,0.026149131171407883,-0.08550488100001465,0.012169347300001538,0.02069843634963458,0.004689575720000566
0.7475,-0.0028894525000005633,-0.7833750599999998,0.004547470705000832,-2.361368000000001,0.004438756540000801,1.5686984149999996,0.7890866840000006,0.0399999609,0.04,-9.774721599999998,0.026302860025319057,-0.08637007050001472,0.012260184150001546,0.02094994708896109,0.004722962660000569
0.75,-0.002922547000000592,-0.7833626999999997,0.004596346000000875,-2.361423500000001,0.004485861400000843,1.5686737999999996,0.7891201400000005,0.03999996,0.04,-9.774597999999997,0.026456588879230303,-0.08723526000001552,0.012351021000001584,0.021201457828287685,0.004756349600000584
0.7525000000000001,-0.002957263810000595,-0.7833497789999998,0.004647621400000879,-2.361481625000001,0.0045352795900008465,1.5686480299999996,0.7891552415000006,0.0399999591,0.03999999925,-9.774473349999997,0.026615054067226945,-0.0881457195000156,0.012443933700001592,0.021458652894948346,0.004790556560000586
0.755,-0.002991980620000596,-0.7833368579999997,0.004698896800000881,-2.361539750000001,0.004584697780000848,1.5686222599999995,0.7891903430000006,0.0399999582,0.0399999985,-9.774348699999997,0.02677351925522358,-0.08905617900001563,0.012536846400001595,0.021715847961608994,0.004824763520000588
0.7575000000000001,-0.003026697430000599,-0.7833239369999998,0.004750172200000884,-2.361597875000001,0.0046341159700008525,1.5685964899999996,0.7892254445000005,0.0399999573,0.03999999775,-9.774224049999997,0.026931984443220224,-0.0899666385000157,0.012629759100001603,0.021973043028269655,0.00485897048000059
0.76,-0.0030614142400006003,-0.7833110159999997,0.004801447600000886,-2.361656000000001,0.004683534160000854,1.5685707199999996,0.7892605460000006,0.0399999564,0.039999997,-9.774099399999997,0.02709044963121686,-0.09087709800001574,0.012722671800001606,0.022230238094930306,0.004893177440000592
0.7625000000000001,-0.003096131050000603,-0.7832980949999998,0.0048527230000008905,-2.361714125000001,0.0047329523500008585,1.5685449499999995,0.7892956475000006,0.039999955499999996,0.03999999625,-9.773974749999997,0.0272489148192135,-0.09178755750001581,0.012815584500001614,0.022487433161590964,0.004927384400000594
0.765,-0.003130847860000604,-0.7832851739999998,0.004903998400000892,-2.361772250000001,0.00478237054000086,1.5685191799999996,0.7893307490000006,0.0399999546,0.0399999955,-9.773850099999997,0.027407380007210137,-0.09269801700001584,0.012908497200001617,0.022744628228251615,0.004961591360000596
0.7675000000000001,-0.0031661159250006357,-0.7832720719999998,0.004956089330000939,-2.361831285000001,0.004832573950000905,1.5684929999999997,0.7893664045000006,0.039999953799999995,0.039999995,-9.773722199999996,0.027566848788413232,-0.09362283200001667,0.01300208260000166,0.02300375811756114,0.004995942585000606
0.77,-0.0032024865000006373,-0.7832586079999998,0.005009811320000941,-2.361892140000001,0.0048843478000009065,1.5684659999999995,0.7894031680000007,0.0399999532,0.039999995,-9.773587799999998,0.027728324756029068,-0.09457635800001671,0.013097013400001663,0.023266757652168086,0.005030582340000607
0.7725,-0.0032388570750006384,-0.7832451439999998,0.005063533310000943,-2.361952995000001,0.004936121650000909,1.5684389999999995,0.7894399315000007,0.0399999526,0.039999995,-9.773453399999998,0.027889800723644904,-0.09552988400001675,0.013191944200001667,0.02352975718677503,0.005065222095000608
0.775,-0.0032752276500006413,-0.7832316799999998,0.005117255300000947,-2.3620138500000007,0.004987895500000913,1.5684119999999995,0.7894766950000006,0.039999952,0.039999995,-9.773318999999997,0.028051276691260747,-0.09648341000001681,0.013286875000001674,0.023792756721381987,0.005099861850000611
0.7775,-0.0033115982250006425,-0.7832182159999997,0.005170977290000949,-2.362074705000001,0.005039669350000915,1.5683849999999995,0.7895134585000007,0.0399999514,0.039999995,-9.773184599999997,0.028212752658876582,-0.09743693600001685,0.013381805800001678,0.024055756255988932,0.005134501605000613
0.78,-0.0033479688000006454,-0.7832047519999997,0.005224699280000953,-2.362135560000001,0.005091443200000919,1.5683579999999995,0.7895502220000007,0.039999950799999996,0.039999995,-9.773050199999998,0.028374228626492425,-0.09839046200001693,0.013476736600001685,0.02431875579059589,0.005169141360000615
0.7825,-0.003384339375000647,-0.7831912879999997,0.005278421270000955,-2.362196415000001,0.005143217050000921,1.5683309999999995,0.7895869855000007,0.0399999502,0.039999995,-9.772915799999998,0.02853570459410826,-0.09934398800001697,0.013571667400001687,0.024581755325202834,0.005203781115000616
0.785,-0.00342183315000068,-0.7831774499999997,0.005333804940001003,-2.362259130000001,0.0051965903500009675,1.5683031699999994,0.7896249060000007,0.0399999493,0.039999995,-9.772791599999998,0.0286981461569695,-0.10032462700001776,0.013667983400001733,0.024848353490238194,0.005238700430000627
0.7875,-0.0034598885250006813,-0.7831634249999997,0.0053900194500010054,-2.362322775000001,0.00525076337500097,1.5682749249999994,0.7896634050000008,0.03999994825,0.039999995,-9.772672499999999,0.02886107051745339,-0.1013188225000178,0.013764992000001737,0.025116750970487604,0.005273759525000627
0.79,-0.003497943900000684,-0.7831493999999998,0.00544623396000101,-2.362386420000001,0.005304936400000974,1.5682466799999994,0.7897019040000007,0.039999947200000004,0.039999995,-9.772553399999998,0.02902399487793729,-0.10231301800001788,0.013862000600001744,0.025385148450737024,0.005308818620000631
0.7925,-0.0035359992750006856,-0.7831353749999997,0.005502448470001012,-2.362450065000001,0.005359109425000976,1.5682184349999995,0.7897404030000007,0.03999994615,0.039999995,-9.772434299999997,0.02918691923842118,-0.10330721350001791,0.013959009200001747,0.025653545930986434,0.005343877715000632
0.795,-0.003574054650000689,-0.7831213499999997,0.005558662980001017,-2.362513710000001,0.00541328245000098,1.5681901899999995,0.7897789020000008,0.0399999451,0.039999995,-9.772315199999998,0.02934984359890508,-0.104301409000018,0.014056017800001755,0.025921943411235854,0.005378936810000635
0.7975,-0.00361211002500069,-0.7831073249999997,0.005614877490001019,-2.3625773550000013,0.0054674554750009825,1.5681619449999995,0.7898174010000008,0.03999994405,0.039999995,-9.772196099999997,0.02951276795938897,-0.10529560450001803,0.014153026400001758,0.026190340891485264,0.005413995905000636
0.8,-0.0036501654000007243,-0.7830932999999998,0.005671092000001069,-2.3626410000000013,0.005521628500001031,1.5681336999999995,0.7898559000000008,0.039999943,0.039999995,-9.772076999999998,0.029675692319872982,-0.10628980000001897,0.0142500350000018,0.026458738371734784,0.005449055000000646
0.8025,-0.0036899353350007256,-0.7830786689999998,0.005729843400001071,-2.3627074950000013,0.005578242625001033,1.5681041499999995,0.7898961150000008,0.03999994255,0.03999999575,-9.771949199999996,0.029844805598261977,-0.107331593500019,0.014348903900001804,0.02673257710412639,0.005484478910000647
0.805,-0.0037297052700007286,-0.7830640379999997,0.005788594800001076,-2.3627739900000013,0.0056348567500010376,1.5680745999999994,0.7899363300000007,0.0399999421,0.0399999965,-9.771821399999997,0.030013918876650978,-0.10837338700001908,0.01444777280000181,0.027006415836518007,0.005519902820000649
0.8075,-0.00376947520500073,-0.7830494069999997,0.005847346200001078,-2.3628404850000013,0.005691470875001039,1.5680450499999994,0.7899765450000008,0.03999994165,0.03999999725,-9.771693599999997,0.030183032155039976,-0.10941518050001912,0.014546641700001814,0.02728025456890961,0.00555532673000065
0.81,-0.0038092451400007334,-0.7830347759999997,0.0059060976000010834,-2.3629069800000013,0.005748085000001044,1.5680154999999993,0.7900167600000008,0.0399999412,0.039999998,-9.771565799999998,0.030352145433428977,-0.1104569740000192,0.014645510600001823,0.02755409330130123,0.005590750640000653
0.8125,-0.0038490150750007347,-0.7830201449999997,0.0059648490000010854,-2.3629734750000013,0.005804699125001046,1.5679859499999995,0.7900569750000008,0.03999994075,0.03999999875,-9.771437999999996,0.030521258711817975,-0.11149876750001925,0.014744379500001827,0.027827932033692833,0.005626174550000655
0.8150000000000001,-0.0038887850100007377,-0.7830055139999997,0.00602360040000109,-2.3630399700000013,0.00586131325000105,1.5679563999999995,0.7900971900000008,0.039999940299999995,0.0399999995,-9.771310199999997,0.030690371990206976,-0.11254056100001933,0.014843248400001835,0.02810177076608445,0.005661598460000658
0.8175,-0.003929136120000771,-0.7829906819999998,0.0060832117850011394,-2.3631074350000016,0.005918755700001098,1.5679264299999993,0.7901379980000008,0.03999994,0.04,-9.771187599999998,0.030860555730763288,-0.11359708900002019,0.014942823575001879,0.02837716564536607,0.0056972704650006725
0.8200000000000001,-0.003970649580000775,-0.7829754479999997,0.006144543140001145,-2.3631768400000013,0.005977854800001103,1.5678956199999994,0.7901799920000008,0.03999994,0.04,-9.771075399999997,0.031032880395654057,-0.11468308600002028,0.015043811300001885,0.02865567281842746,0.005733438660000675
0.8225,-0.004012163040000776,-0.7829602139999997,0.006205874495001147,-2.3632462450000014,0.006036953900001105,1.5678648099999994,0.7902219860000008,0.03999994,0.04,-9.770963199999997,0.03120520506054482,-0.11576908300002031,0.01514479902500189,0.02893417999148884,0.005769606855000677
0.8250000000000001,-0.00405367650000078,-0.7829449799999997,0.006267205850001152,-2.3633156500000014,0.00609605300000111,1.5678339999999993,0.7902639800000009,0.03999994,0.04,-9.770850999999997,0.03137752972543559,-0.1168550800000204,0.015245786750001898,0.029212687164550232,0.00580577505000068
0.8275,-0.004095189960000782,-0.7829297459999998,0.006328537205001154,-2.3633850550000015,0.006155152100001112,1.5678031899999993,0.7903059740000008,0.03999994,0.04,-9.770738799999997,0.03154985439032635,-0.11794107700002043,0.015346774475001901,0.02949119433761161,0.005841943245000681
0.8300000000000001,-0.004136703420000785,-0.7829145119999997,0.006389868560001159,-2.3634544600000016,0.006214251200001117,1.5677723799999994,0.7903479680000008,0.03999994,0.04,-9.770626599999998,0.03172217905521712,-0.11902707400002052,0.01544776220000191,0.029769701510673003,0.0058781114400006836
0.8325,-0.004178216880000787,-0.7828992779999997,0.006451199915001161,-2.3635238650000012,0.006273350300001119,1.5677415699999993,0.7903899620000008,0.03999994,0.04,-9.770514399999998,0.03189450372010788,-0.12011307100002057,0.015548749925001912,0.030048208683734385,0.005914279635000685
0.835,-0.004220912200000822,-0.7828836299999997,0.0065142795300012135,-2.3635952400000013,0.0063341361000011686,1.5677098699999994,0.7904331440000009,0.03999994,0.04,-9.770402299999997,0.032070884481075736,-0.1212337150000216,0.01565095265000195,0.030329970642929627,0.005951000230000702
0.8375,-0.004264198450000825,-0.7828677749999997,0.006578233275001218,-2.3636676000000016,0.006395765250001174,1.5676777249999994,0.7904769200000008,0.03999994,0.04,-9.770290249999997,0.03224929329008197,-0.12237168250002169,0.015753762875001957,0.030613359995191675,0.005987997025000705
0.84,-0.004307484700000827,-0.7828519199999997,0.006642187020001221,-2.3637399600000015,0.006457394400001176,1.5676455799999993,0.7905206960000009,0.03999994,0.04,-9.770178199999997,0.032427702099088206,-0.12350965000002173,0.01585657310000196,0.03089674934745371,0.006024993820000706
0.8425,-0.00435077095000083,-0.7828360649999997,0.006706140765001226,-2.3638123200000014,0.006519023550001181,1.5676134349999993,0.7905644720000008,0.03999994,0.04,-9.770066149999996,0.03260611090809444,-0.12464761750002182,0.01595938332500197,0.031180138699715757,0.006061990615000709
0.845,-0.004394057200000831,-0.7828202099999997,0.006770094510001228,-2.3638846800000017,0.006580652700001183,1.5675812899999995,0.7906082480000008,0.03999994,0.04,-9.769954099999998,0.032784519717100676,-0.12578558500002185,0.016062193550001973,0.031463528051977795,0.006098987410000711
0.8475,-0.004437343450000834,-0.7828043549999997,0.006834048255001233,-2.3639570400000016,0.006642281850001188,1.5675491449999994,0.7906520240000008,0.03999994,0.04,-9.769842049999998,0.03296292852610691,-0.12692355250002196,0.01616500377500198,0.03174691740423984,0.006135984205000713
0.85,-0.0044806297000008705,-0.7827884999999997,0.0068980020000012875,-2.3640294000000015,0.00670391100000124,1.5675169999999994,0.7906958000000008,0.03999994,0.04,-9.769729999999997,0.033141337335113166,-0.12806152000002288,0.016267814000002025,0.03203030675650197,0.00617298100000072
0.8525,-0.004525715740000874,-0.7827719699999997,0.006964619160001293,-2.3641047150000016,0.006768107700001245,1.5674835199999995,0.7907413850000008,0.03999994045,0.04,-9.769608349999997,0.03332097548991788,-0.12924510250002297,0.016372667150002032,0.032318485528236233,0.006210227050000723
0.855,-0.004570801780000876,-0.7827554399999997,0.007031236320001295,-2.3641800300000018,0.006832304400001247,1.5674500399999993,0.7907869700000009,0.0399999409,0.04,-9.769486699999996,0.033500613644722586,-0.13042868500002303,0.016477520300002036,0.03260666429997048,0.006247473100000724
0.8575,-0.00461588782000088,-0.7827389099999997,0.0070978534800013,-2.3642553450000015,0.006896501100001252,1.5674165599999994,0.7908325550000008,0.03999994135,0.04,-9.769365049999998,0.0336802517995273,-0.1316122675000231,0.016582373450002044,0.032894843071704746,0.0062847191500007265
0.86,-0.004660973860000881,-0.7827223799999997,0.007164470640001303,-2.3643306600000016,0.0069606978000012545,1.5673830799999995,0.7908781400000009,0.0399999418,0.04,-9.769243399999997,0.033859889954332006,-0.13279585000002314,0.016687226600002047,0.03318302184343899,0.006321965200000728
0.8625,-0.004706059900000885,-0.7827058499999997,0.007231087800001308,-2.3644059750000017,0.00702489450000126,1.5673495999999993,0.7909237250000009,0.039999942250000003,0.04,-9.769121749999998,0.03403952810913673,-0.13397943250002325,0.01679207975000206,0.03347120061517326,0.006359211250000731
0.865,-0.004751145940000886,-0.7826893199999997,0.0072977049600013106,-2.3644812900000014,0.007089091200001263,1.5673161199999994,0.7909693100000008,0.039999942700000006,0.04,-9.769000099999998,0.03421916626394143,-0.13516301500002328,0.016896932900002062,0.033759379386907505,0.006396457300000732
0.8675,-0.004796840935000927,-0.7826725849999997,0.007365223230001369,-2.3645576300000015,0.007154156575001318,1.5672821849999994,0.7910155200000009,0.039999943,0.03999999975,-9.768882349999998,0.03439977783710119,-0.13636444500002443,0.01700243710000211,0.034049030393367805,0.006433833030000743
0.87,-0.004843753840000928,-0.7826554399999998,0.007434543720001371,-2.3646360200000016,0.007220959300001321,1.5672473399999993,0.7910629800000009,0.039999943,0.039999999,-9.768772399999998,0.03458233624697087,-0.1376015700000245,0.01710924340000211,0.034341625869279906,0.006471468120000744
0.8725,-0.004890666745000932,-0.7826382949999997,0.007503864210001376,-2.3647144100000017,0.007287762025001326,1.5672124949999995,0.7911104400000009,0.039999943,0.03999999825,-9.768662449999997,0.03476489465684055,-0.13883869500002458,0.01721604970000212,0.03463422134519202,0.006509103210000747
