rsonawane2002/My_IMU/logs_2/traj_430/clean_430.csv
time,j1,j2,j3,j4,j5,j6,j7,gripper1,gripper2,imu_ax,imu_ay,imu_az,imu_gx,imu_gy,imu_gz,quat_x,quat_y,quat_z,quat_w
1978.9833333318622,0.00016700293,-0.785875,4.0107683e-05,-2.3551247,9.29385e-05,1.570997,0.786,0.04,0.04,0.0,-0.0,0.0,2.875329272945135e-08,-0.0011641195053377316,4.421952117202833e-08,0.9999995971961153,0.00020320632366974898,0.0008736418299892524,3.263050917662294e-05
1978.999999998529,0.00016700881,-0.78576016,4.0116996e-05,-2.3552213,9.296797e-05,1.5709941,0.786,0.04,0.04,-0.2919984605129766,-3.696200699191939e-05,0.020128407658037695,-5.12376405978188e-07,-0.002237629221641325,-3.6269737554839686e-07,0.9999996850593819,0.0002032048371754632,0.00076650252022943,3.2600882810960944e-05
1979.0166666651955,0.0001670361,-0.7856541,4.0142175e-05,-2.35531,9.295304e-05,1.5709913,0.786,0.04,0.04,0.023131096432860154,-9.553965333463808e-06,-0.001568861814460476,-4.422327348828295e-06,-0.0032252323134615464,-3.4019462184876192e-06,0.9999997559110243,0.00020318666480412806,0.0006677078598759068,3.2546654035255306e-05
1979.0333333318622,0.000167121,-0.7855565,4.021038e-05,-2.355391,9.282579e-05,1.5709884,0.786,0.04,0.04,0.022263103019914965,-3.1109604489704254e-05,-0.001423461052429964,-1.5203287138057934e-05,-0.004129810448737661,-1.1487258090746447e-05,0.9999998124204805,0.00020312411105678646,0.0005769300424099004,3.242414650174116e-05
1979.0499999985288,0.00016731635,-0.78546625,4.036064e-05,-2.355465,9.2488495e-05,1.5709856,0.786,0.04,0.04,0.020331271864670875,-6.28554038851494e-05,-0.0010481955351693273,-3.537969008551574e-05,-0.004953936911048236,-2.6790635189528826e-05,0.9999998571490508,0.0002029769995690027,0.000493424035359186,3.2170437006232456e-05
1979.0666666651955,0.00016768959,-0.7853826,4.0642608e-05,-2.3555317,9.181791e-05,1.5709827,0.786,0.04,0.04,0.01947359264622417,-0.00010435600883600192,-0.0005975432364913047,-6.815619266962601e-05,-0.005702667986039937,-5.1270430796487325e-05,0.9999998920927784,0.0002026940403904103,0.0004168024397409266,3.17062060466635e-05
1979.0833333318621,0.00016832176,-0.7853048,4.111565e-05,-2.3555925,9.066638e-05,1.5709798,0.7859981,0.04,0.04,0.016524062391787275,-0.00015399396862978494,-0.000647842689494027,-0.00011633179591705329,-0.006377140918696073,-8.66885622333118e-05,0.999999919392663,0.00020126007900928217,0.00034605204311819533,3.093592824293591e-05
1979.0999999985288,0.00016930535,-0.7852321,4.184763e-05,-2.3556497,8.886586e-05,1.570977,0.7859962,0.04,0.04,0.011812433199187566,-0.0002109674575168541,-0.0013692799738063144,-0.0001735353823279905,-0.006985414782251006,-0.00013458781604237422,0.9999999405343926,0.00019955858042944666,0.0002796827398826862,2.9751459880154303e-05
1979.1166666651955,0.00017074376,-0.78516364,4.291397e-05,-2.3557003,8.622738e-05,1.5709741,0.7859943,0.04,0.04,0.015959361554895857,-0.00027410278576903905,0.0005978615454704794,-0.00025083624939560274,-0.0075368929246694095,-0.00019640355922550198,0.9999999561787125,0.00019751104771166612,0.00021873765759402827,2.8032060379554027e-05
1979.133333331862,0.00017274955,-0.7850987,4.439706e-05,-2.3557441,8.254832e-05,1.5709711,0.7859905,0.04,0.04,0.015195932615230667,-0.00034498249451851205,0.0008866789394712526,-0.00035097365728768254,-0.008022090753567461,-0.0002733507190669008,0.9999999675812026,0.00019407833356599422,0.00016282944171374525,2.5646974400640183e-05
1979.1499999985288,0.00017544383,-0.7850364,4.6385263e-05,-2.355786,7.7607314e-05,1.5709682,0.78598666,0.04,0.04,0.0062073982050492305,-0.0004177320872749931,-0.0006829972741373425,-0.0004669970788110335,-0.00844148648917118,-0.0003665526154497946,0.9999999757105604,0.00019012238264280073,0.00010921630606922059,2.2453431631627467e-05
1979.1666666651954,0.00017895474,-0.7849763,4.897213e-05,-2.3558214,7.1180424e-05,1.5709649,0.78598094,0.04,0.039999995,0.013707531030648923,-0.0005038235196859779,0.0015489083126096759,-0.0006099675633404629,-0.008819852148545623,-0.00047620404226916845,0.9999999809998015,0.00018459213006200947,5.992488561554867e-05,1.83071137977948e-05
1979.183333331862,0.0001834173,-0.78491735,5.22563e-05,-2.3558507,6.3005864e-05,1.5709612,0.7859748,0.04,0.04,0.011229942071055987,-0.0005745818040786023,0.0016621985460041344,-0.0007727676375036232,-0.009134729051059056,-0.0006054940944628816,0.9999999839525855,0.000178130170717393,1.3941949344260046e-05,1.3041978901796842e-05
1979.1999999985287,0.00018897177,-0.7848588,5.6339915e-05,-2.3558774,5.284584e-05,1.5709546,0.7859672,0.04,0.039999995,0.003974032372977554,-0.0006723245898323659,-0.0012924692784022085,-0.0009643883474262036,-0.009395254886992619,-0.0007520108235140224,0.9999999850005763,0.0001700937704244864,-3.201068710727126e-05,6.501725123459321e-06
1979.2166666651954,0.00019576357,-0.78480023,6.13291e-05,-2.3558974,4.0429004e-05,1.5709479,0.78595763,0.04,0.039999995,0.01127804748670691,-0.0007575535607562596,0.003018002647992013,-0.0011816867196656738,-0.009629526581533732,-0.0009187699954285376,0.9999999843860031,0.0001601638616344143,-7.46547003268785e-05,-1.4854541721797063e-06
1979.233333331862,0.00020394205,-0.78474087,6.733272e-05,-2.3559122,2.5478039e-05,1.570941,0.7859458,0.04,0.04,0.007980540059393526,-0.0008446407183193799,0.002605854389070572,-0.0014242010881088984,-0.009804886066761076,-0.0011062901571466967,0.999999982350224,0.0001480185344977657,-0.00011518211720128918,-1.109707159341041e-05
1979.2499999985287,0.00021365994,-0.78467995,7.446231e-05,-2.3559237,7.722897e-06,1.5709331,0.78593135,0.04,0.04,0.0036562801250639154,-0.0009437987490744609,0.0016568334478384017,-0.001691965124187165,-0.009931449527721072,-0.0013134462813634276,0.9999999787881492,0.0001334226437720044,-0.0001552916087139029,-2.2508124723675017e-05
1979.2666666651953,0.00022507308,-0.78461677,8.283145e-05,-2.355928,-1.3119714e-05,1.5709226,0.7859142,0.04,0.04,0.008818611629135553,-0.0010399638371705018,0.002531380016801421,-0.00198523059688922,-0.010021845477578022,-0.0015414189763581993,0.9999999737380392,0.00011616846186540885,-0.0001942678567898656,-3.589998937442323e-05
1979.283333331862,0.00023833975,-0.7845506,9.255538e-05,-2.3559275,-3.7332407e-05,1.5709118,0.7858947,0.04,0.04,0.004693548197298725,-0.0011409671993803145,0.003555202981209149,-0.002304480572813874,-0.010069283222656713,-0.0017905353535479496,0.9999999670004299,9.634451212349027e-05,-0.00023252801753280883,-5.1454786440952067e-05
1979.2999999985286,0.00025361998,-0.78448105,0.00010375082,-2.3559234,-6.520763e-05,1.5708975,0.7858721,0.04,0.04,0.001225824353823235,-0.0012371924464928445,0.0009464071168752142,-0.0026531748486507737,-0.010075223552981022,-0.0020610224292499976,0.9999999577896095,7.344192962641722e-05,-0.0002724264168212057,-6.936072131426856e-05
1979.3166666651953,0.00027107523,-0.78440714,0.00011653552,-2.3559122,-9.703793e-05,1.5708829,0.78584635,0.04,0.04,0.0072657791449382,-0.0013393214739330212,0.005492383244409815,-0.003028964827662379,-0.010060832029278034,-0.0023530592185105827,0.9999999464748844,4.7308144115553694e-05,-0.00031104235851369733,-8.980433679278605e-05
1979.333333331862,0.0002908679,-0.7843286,0.00013102799,-2.3558953,-0.0001331181,1.5708662,0.7858171,0.04,0.04,0.0039018930104939287,-0.0014390762850219926,0.0035977255484764825,-0.0034330403107963947,-0.009996287559079916,-0.002666779453914069,0.9999999321448525,1.7641030292134838e-05,-0.0003501937262226919,-0.00011297538989814567
1979.3499999985286,0.00031316112,-0.78424454,0.00014734697,-2.3558726,-0.0001737426,1.5708477,0.78578407,0.04,0.04,0.0030920296317349383,-0.001541374474545973,0.00433715222616371,-0.003864635281412612,-0.009896917038718865,-0.0030022519471979937,0.9999999141095207,-1.5802536834376007e-05,-0.00039011888042313366,-0.0001390629001971894
1979.3666666651952,0.00033811826,-0.7841545,0.00016561178,-2.3558447,-0.00021920614,1.5708263,0.78574723,0.04,0.04,0.0013114715795348175,-0.0016438072287377602,0.0035382565867214666,-0.004324050775433561,-0.009763763500210541,-0.00335950670754068,0.999999891153359,-5.3176547117710546e-05,-0.00043192043675940894,-0.00016825653393514603
1979.3833333318619,0.0003659026,-0.7840575,0.00018594135,-2.3558102,-0.00026979725,1.5708035,0.7857063,0.04,0.04,0.0032802890042260557,-0.0017524454988074117,0.0059320364992121455,-0.004812386727357496,-0.009605645833698653,-0.0037377618268264667,0.9999998627891133,-9.475426228220639e-05,-0.000474495656521282,-0.00020074176518028065
1979.3999999985285,0.00039667755,-0.7839535,0.00020845488,-2.3557694,-0.0003258288,1.5707777,0.785661,0.04,0.04,0.0017725036042914866,-0.0018412745471051628,0.004452975079471955,-0.005328796587842415,-0.00941158505582383,-0.004139294314951674,0.9999998273736123,-0.00014077903620267852,-0.0005190365736905157,-0.00023671722363727057
1979.4166666651952,0.0004306052,-0.7838415,0.00023327055,-2.3557217,-0.00038758665,1.5707498,0.7856111,0.04,0.04,0.002271416483101696,-0.0019498796702414715,0.006114846308502564,-0.005873224160054365,-0.00918962498276287,-0.004561632506015977,0.9999997837920934,-0.0001914935837497476,-0.0005651259058162077,-0.0002763669380604452
1979.4333333318618,0.00046784725,-0.7837212,0.00026050623,-2.3556678,-0.00045536418,1.5707192,0.78555626,0.04,0.04,0.0005376788008826239,-0.002050686844928904,0.005518204288712525,-0.006445883444252718,-0.008935624048496515,-0.005005464066823,0.9999997300517903,-0.0002471998070738388,-0.0006135682863331802,-0.0003198789772199501
1979.4499999985285,0.00050856423,-0.7835923,0.00029027901,-2.355607,-0.0005294481,1.5706855,0.7854965,0.04,0.04,0.0011681013268649565,-0.0021551279404692387,0.005599065549599658,-0.0070455906374141605,-0.008655802979645324,-0.005470644250394931,0.9999996642879045,-0.0003080198828090492,-0.0006644828463659814,-0.0003674375825816552
1979.4666666651951,0.00055291527,-0.7834539,0.00032270534,-2.355539,-0.00061013846,1.5706488,0.7854314,0.039999995,0.04,0.0007246086938472729,-0.0022481027199552158,0.006357205672680166,-0.007673614752205634,-0.008350608300908289,-0.005957748277017335,0.9999995842918411,-0.00037425416852033156,-0.0007180483753011181,-0.00041923322028111163
1979.4833333318618,0.00060105865,-0.78330547,0.0003579002,-2.3554637,-0.0006977186,1.5706093,0.7853606,0.03999999,0.04,0.0006103948230862244,-0.0023513760051482,0.006947084576403029,-0.008329292740235823,-0.00801805794600375,-0.006465795723998814,0.9999994876471877,-0.0004462319738569241,-0.000774294685592902,-0.0004754472919860706
1979.4999999985284,0.0006531503,-0.78314614,0.0003959775,-2.3553808,-0.0007924643,1.5705668,0.785284,0.03999999,0.04,-8.786726006793089e-05,-0.0024563953656827242,0.00729478221728197,-0.00901083181746512,-0.007658404596545456,-0.0069937200854241505,0.9999993713207771,-0.0005241023023706022,-0.0008337283601662386,-0.0005362572597316091
1979.516666665195,0.00070934475,-0.782976,0.00043705004,-2.3552902,-0.000894658,1.5705208,0.7852014,0.039999988,0.04,-0.00013619483201221527,-0.002553438675698366,0.006996275930193363,-0.009719203571395576,-0.007276842399086398,-0.0075429785592705965,0.9999992321431529,-0.0006081023151835534,-0.0008964983925733884,-0.0006018432610996691
1979.5333333318617,0.0007697945,-0.78279436,0.00048122925,-2.3551912,-0.0010045745,1.570471,0.7851126,0.039999984,0.039999995,0.00034244072377731527,-0.0026537293021773926,0.007479819975797497,-0.010453967261109616,-0.006870184101158753,-0.008111568496012987,0.9999990667030871,-0.0006984082694199474,-0.0009626643388778634,-0.0006723810039513407
1979.5499999985284,0.00083465024,-0.7826007,0.00052862475,-2.355084,-0.0011224875,1.5704176,0.7850174,0.039999984,0.039999995,-0.0003187490785316882,-0.0027508008775537895,0.007818983373764077,-0.011215232227266938,-0.006441372750581674,-0.008700065421107486,0.9999988708982117,-0.0007953143299024139,-0.0010325242541222718,-0.0007480448402346835
1979.566666665195,0.00090406055,-0.7823945,0.000579345,-2.3549685,-0.001248666,1.5703604,0.7849155,0.03999998,0.039999995,-0.0012907124191441355,-0.0028477032699916294,0.007894391973528592,-0.012002011356697748,-0.005989621007782527,-0.009309014814438188,0.9999986401121004,-0.000898994129750609,-0.0011064953322874884,-0.0008290063836940486
1979.5833333318617,0.0009781714,-0.78217536,0.0006334964,-2.3548448,-0.0013833735,1.5702994,0.7848067,0.039999977,0.039999988,-0.0014155676081317736,-0.0029445330184807027,0.008273972052497136,-0.012814389733264774,-0.005517795651766355,-0.009935539712099045,0.9999983694802766,-0.00100970876919524,-0.0011846968187256765,-0.0009154334695330605
1979.5999999985283,0.0010571269,-0.78194284,0.0006911844,-2.354712,-0.0015268733,1.5702344,0.7846908,0.039999973,0.039999988,-0.0006367183866151649,-0.0030397355300085835,0.008713003201332725,-0.013651356241134015,-0.005027704979689534,-0.010582724137912402,0.9999980539798166,-0.0011276882761429004,-0.0012670095323402861,-0.0010074932142523378
1979.616666665195,0.0011410688,-0.78169644,0.0007525122,-2.354571,-0.0016794197,1.5701655,0.7845675,0.03999997,0.03999998,-0.002852257885677112,-0.0031342890285745366,0.008588406995380105,-0.014512991954081875,-0.004515400936096228,-0.01124678871104049,0.999997686994401,-0.0012531612057150316,-0.0013541785747311695,-0.0011053475600419829
1979.6333333318616,0.0012301353,-0.7814358,0.000817581,-2.3544207,-0.0018412658,1.5700926,0.7844367,0.039999966,0.039999977,-0.0008596453774822876,-0.0032280320297675626,0.009351238631238878,-0.015398258349275041,-0.003987973054357946,-0.011929960294311228,0.999997263038937,-0.001386263907893576,-0.0014457270619766195,-0.00120915684460231
1979.6499999985283,0.001324464,-0.78116035,0.00088649086,-2.35426,-0.0020126593,1.5700153,0.78429824,0.03999996,0.039999977,-0.0003175548338285594,-0.003323144820535813,0.00980388081277539,-0.01630723537309753,-0.003439446676261941,-0.012631891252072836,0.9999967754128953,-0.0015272214069186013,-0.001541684846070858,-0.0013190778676642838
1979.666666665195,0.0014241881,-0.78086984,0.00095933897,-2.3540895,-0.0021938419,1.5699335,0.7841519,0.039999958,0.039999973,-0.0015355146987916513,-0.0034133652696508813,0.009583181839079025,-0.017239987259965533,-0.002869705221620204,-0.01335048425057496,0.9999962161351243,-0.0016762263681953163,-0.0016425585919980178,-0.0014352636929016286
1979.6833333318616,0.001529439,-0.7805636,0.0010362215,-2.3539107,-0.002385052,1.5698472,0.7839975,0.039999958,0.039999973,-0.0046933763495626835,-0.0035012044323424335,0.009310180188193407,-0.018195479216454005,-0.0022805208366005027,-0.01408619121982183,0.9999955754702363,-0.0018335008143919066,-0.0017493914563843612,-0.0015578652852530658
1979.6999999985283,0.0016403452,-0.78024167,0.001117232,-2.3537207,-0.002586523,1.5697565,0.7838347,0.039999958,0.039999973,0.0002625803562583684,-0.0035968109128319166,0.010665568824719251,-0.019173470479995104,-0.0016832563641224329,-0.014838636980957519,0.9999948473930158,-0.0019992626319832495,-0.0018606636231827298,-0.00168702911318977
1979.716666665195,0.0017570324,-0.7799033,0.0012024625,-2.3535204,-0.0027984823,1.569661,0.7836635,0.039999954,0.03999997,-0.0023313447102824014,-0.003684210562043171,0.010409844671666058,-0.020172940234773507,-0.0010618438001941902,-0.01560743265341748,0.9999940210555459,-0.0021736401466097943,-0.0019774181327585237,-0.0018228985714386168
1979.7333333318616,0.0018796236,-0.77954817,0.001292003,-2.3533103,-0.003021153,1.5695604,0.7834837,0.039999954,0.03999997,-0.003587503268653869,-0.00377025756833078,0.010100408851898557,-0.021194483011974838,-0.000425425359886579,-0.01639217854592964,0.9999930853234898,-0.0023568488855854933,-0.002100221340251645,-0.001965614117753482
1979.7499999985282,0.002008239,-0.7791761,0.0013859409,-2.3530889,-0.003254754,1.5694551,0.78329504,0.039999954,0.039999973,-0.0008087671526491036,-0.0038621899529856603,0.011320287940641549,-0.022237029529363753,0.0002218416335075784,-0.017193397557448573,0.9999920316193294,-0.002549071802694927,-0.0022280898493709455,-0.002115312367923835
1979.7666666651949,0.002142996,-0.7787867,0.0014843622,-2.3528574,-0.003499497,1.569345,0.7830973,0.03999995,0.03999997,-0.0037787477139339387,-0.003945312843659367,0.010735204003742282,-0.023300129466776037,0.0008894654733213334,-0.01800880911827542,0.9999908463163661,-0.0027505212121794664,-0.00236206689489384,-0.002272125991866219
1979.7833333318615,0.0022840085,-0.7783796,0.0015873504,-2.352614,-0.0037555892,1.5692295,0.78289044,0.03999995,0.03999997,-0.0010940598583086825,-0.004034836516322079,0.01145400175106559,-0.024382994530751115,0.0015694848732777933,-0.018838857246465647,0.9999895186243101,-0.0029613451899210903,-0.002501616081112032,-0.0024361841411509482
1979.7999999985282,0.0024313892,-0.77795446,0.0016949872,-2.35236,-0.004023236,1.5691088,0.78267425,0.03999995,0.039999984,-0.0038489385193019032,-0.004115155534369129,0.011191302805868553,-0.02548539152767562,0.002266790703758054,-0.019687654431945017,0.9999880338540943,-0.0031816935399717524,-0.002647512302981054,-0.002607614512531779
1979.8166666651948,0.002585247,-0.7775107,0.0018073516,-2.3520942,-0.0043026293,1.568983,0.7824485,0.03999995,0.04,-0.0020611376831292105,-0.004208443887303466,0.012063044116406019,-0.026607128808901172,0.002973974136948947,-0.02054846127891622,0.999986379091888,-0.003411800933110479,-0.00279936841612451,-0.0027865357629587254
1979.8333333318615,0.0027456866,-0.77704823,0.0019245209,-2.3518178,-0.0045939484,1.5688517,0.7822132,0.039999947,0.039999995,-0.004664004949450629,-0.004293303028920972,0.0113983530915851,-0.027747030744561446,0.003697668135417236,-0.021420307042611893,0.9999845379677832,-0.0036516924320898706,-0.0029580186100922217,-0.002973061325154725
1979.8499999985281,0.0029128115,-0.77656674,0.002046571,-2.3515284,-0.0048973956,1.5687149,0.7819681,0.03999995,0.04,-0.0006284870274209098,-0.004375430112920449,0.01259154484638536,-0.02890604595147482,0.004428070402037239,-0.02230514591903769,0.9999824978078957,-0.0039016274231442596,-0.003122420189945431,-0.003167313292096183
1979.8666666651948,0.003086721,-0.77606606,0.0021735737,-2.351228,-0.0052131335,1.5685726,0.7817131,0.039999947,0.039999995,-0.004399371325836121,-0.004461169901879333,0.011902134823116306,-0.030082297211431692,0.005177665909296036,-0.02320273528815847,0.9999802394985117,-0.004161717354123747,-0.003293616211000069,-0.0033693936276868596
1979.8833333318614,0.003267514,-0.77554566,0.0023056013,-2.3509147,-0.0055413693,1.5684246,0.78144795,0.03999995,0.04,-0.001917645701432491,-0.00452953252077829,0.012728003694806311,-0.03127633113777521,0.005936899038205587,-0.0241124142965166,0.9999777469834592,-0.0044321891282162506,-0.003471160001485973,-0.003579425325458972
1979.899999998528,0.0034552831,-0.77500534,0.0024427217,-2.3505893,-0.005882236,1.5682712,0.7811725,0.03999995,0.04,-0.003189550310667144,-0.00463521294730763,0.012869278702098974,-0.03248632390173137,0.006709546439778898,-0.02503400097844073,0.9999750018574942,-0.004713149377349402,-0.0036552601857073614,-0.003797493387224097
1979.9166666651947,0.0036501195,-0.7744448,0.0025850015,-2.3502524,-0.006235933,1.5681118,0.7808867,0.03999995,0.04,-0.004927681939692619,-0.00468252459132068,0.012275315242482598,-0.033712592406512414,0.0074936462774088716,-0.025966841028367653,0.9999719821623984,-0.005004732017380191,-0.0038467215001717595,-0.004023714867938457
1979.9333333318614,0.0038521115,-0.7738638,0.0027325063,-2.3499022,-0.0066026114,1.5679467,0.78059053,0.03999995,0.04,-0.001961480311574171,-0.004781449899731241,0.013504928417762407,-0.03495460966849265,0.008284565341639162,-0.026910561631539612,0.9999686718066754,-0.005307008555398833,-0.004044619920878472,-0.004258182133528641
1979.949999998528,0.0040613455,-0.773262,0.0028852979,-2.3495393,-0.006982416,1.5677754,0.78028375,0.03999995,0.04,-0.0035976298834006215,-0.004861701130739809,0.012967662035778815,-0.036212724380334654,0.00908899217038369,-0.027864799675603638,0.9999650469661577,-0.005620168867074895,-0.004249671014075643,-0.004500982575779045
1979.9666666651947,0.0042779027,-0.7726395,0.0030434355,-2.3491642,-0.007375503,1.5675981,0.7799661,0.03999995,0.04,-0.004341934623042221,-0.00493002415267868,0.012939467313222153,-0.03748531262830669,0.00990304945414918,-0.028829108386039342,0.9999610848564356,-0.005944400378402153,-0.0044619943683467805,-0.004752208238126905
1979.9833333318613,0.0045018634,-0.77199566,0.0032069786,-2.3487759,-0.0077820267,1.5674149,0.77963775,0.039999947,0.04,-0.0029965436256329525,-0.0050112447491321935,0.013834717382299466,-0.03877187934031305,0.010724489089216421,-0.02980390890575719,0.9999567646192444,-0.00627971037771852,-0.004681291503821662,-0.005011949684618751
1979.999999998528,0.004733303,-0.77133036,0.0033759829,-2.3483741,-0.008202115,1.5672255,0.77929837,0.039999947,0.04,-0.0032155393389965425,-0.0050934606669821025,0.013737442283323631,-0.0400730448759937,0.011556792655635643,-0.0307878272577154,0.9999520611946855,-0.0066263110607080265,-0.0049077417658018796,-0.00528028266164755
1980.0166666651946,0.0049722963,-0.77064353,0.0035505027,-2.3479602,-0.008635923,1.56703,0.778948,0.039999943,0.04,-0.005276219987315756,-0.005147366329150485,0.013325934566621456,-0.04138724931006808,0.012396929176288403,-0.031782131596491764,0.9999469474081223,-0.006984237570599215,-0.005141911018134705,-0.0055572966285003045
1980.0333333318613,0.005218915,-0.76993495,0.00373059,-2.347533,-0.009083564,1.5668283,0.7785865,0.039999947,0.04,-0.0035725573151790257,-0.00524420786026502,0.013933237364471829,-0.04271499564406438,0.013243867677842438,-0.03278301080798225,0.9999413992167192,-0.007353638909133513,-0.005383382273370959,-0.005843057641555526
1980.049999998528,0.0054732277,-0.76920426,0.003916294,-2.3470922,-0.009545156,1.5666201,0.77821356,0.039999947,0.04,-0.0036548127352542537,-0.005324008315340991,0.014081106332941573,-0.044055252289055775,0.014099305608935044,-0.03379177759073457,0.9999353880862071,-0.007734722083446647,-0.0056323349872830905,-0.006137632260861625
1980.0666666651946,0.0057352977,-0.76845133,0.0041076615,-2.3466375,-0.010020822,1.5664057,0.7778293,0.039999943,0.04,-0.0033617758079307336,-0.005395723852145377,0.014363477937839875,-0.04540677321650005,0.014961682822363345,-0.03480889110148489,0.9999288875564716,-0.008127483324212217,-0.005888649376383557,-0.00644109101115715
1980.0833333318612,0.0060051885,-0.7676761,0.004304739,-2.3461692,-0.010510691,1.5661851,0.7774336,0.03999994,0.04,-0.0037734367896335996,-0.005462106787476086,0.014482144352134796,-0.04677036334581811,0.015832656162945765,-0.0358329985309222,0.9999218684547504,-0.008532038770538618,-0.006152355329132281,-0.0067535045926689794
1980.099999998528,0.0062829587,-0.7668783,0.004507572,-2.3456876,-0.011014857,1.565958,0.77702624,0.039999936,0.04,-0.004671820546819916,-0.005541205994006888,0.014198854813707307,-0.04814471828875904,0.016713511536938567,-0.03686373080849388,0.9999142973108283,-0.008948530439253444,-0.006423959784753431,-0.007074925939830612
1980.1166666651945,0.0065686647,-0.7660576,0.0047161984,-2.3451922,-0.011533412,1.5657243,0.77660733,0.039999936,0.04,-0.004250455853482826,-0.0056229560513937,0.014514716370017666,-0.049529642002209565,0.01759799636195111,-0.03789981519659414,0.9999061437268029,-0.009376977694879475,-0.0067034324295622075,-0.007405404807737275
1980.1333333318612,0.006862363,-0.76521385,0.004930659,-2.344683,-0.012066462,1.5654839,0.77617675,0.039999936,0.04,-0.004430519063824967,-0.0056960670925718625,0.014722329047467397,-0.05092516950172078,0.018487138355408238,-0.03894164110830542,0.9998973750033381,-0.00981749160199411,-0.00699080312199554,-0.007744997855925932
1980.1499999985278,0.0071641016,-0.7643471,0.0051509915,-2.3441596,-0.012614091,1.5652374,0.77573436,0.03999994,0.04,-0.003869153890478927,-0.005779655524329377,0.015086009352938134,-0.05233056798653955,0.01938139577880868,-0.039988978076690974,0.9998879600237158,-0.01027017796600425,-0.0072857441535451005,-0.008093749210817479
1980.1666666651945,0.0074739293,-0.76345766,0.005377232,-2.3436222,-0.01317643,1.5649842,0.7752801,0.039999954,0.04,-0.0036329704097060045,-0.005814287385398111,0.014547446226642613,-0.05374513751004678,0.02028271911260368,-0.04105050298762937,0.999877864152854,-0.010735108730191643,-0.007588314967408192,-0.00845172725738874
1980.1833333318611,0.0077918917,-0.76254463,0.0056094145,-2.3430707,-0.0137534905,1.564724,0.774814,0.039999954,0.04,-0.004828192990213864,-0.005939069418535621,0.014833663611435455,-0.05516842133527863,0.021192937044397543,-0.04210649025480852,0.999867047725079,-0.011212329227212617,-0.007899170762754672,-0.00881893690283092
1980.1999999985278,0.008118033,-0.76160806,0.0058475668,-2.3425047,-0.014345372,1.564457,0.77433574,0.03999995,0.04,-0.003866109309091925,-0.006003302435631484,0.015311032658127388,-0.056600397589988444,0.022104090712010218,-0.04316749823959447,0.9998554762337236,-0.011702029474434614,-0.008217865389674445,-0.009195424952130148
1980.2166666651945,0.008452394,-0.7606479,0.006091721,-2.341925,-0.014952169,1.5641835,0.7738455,0.039999943,0.04,-0.005161972391531933,-0.006053524154236382,0.015031345096816473,-0.05803977913933436,0.023020694047692584,-0.04423309288282692,0.999843110162588,-0.012204162229528363,-0.008544784995268397,-0.00958123864972853
1980.233333331861,0.008795008,-0.7596641,0.006341903,-2.3413303,-0.01557394,1.5639033,0.7733431,0.039999943,0.04,-0.0035359131388856824,-0.006140832809394328,0.01558782364166067,-0.059486759392286044,0.02393921949580049,-0.04530116925318345,0.9998299148267823,-0.012718850532700153,-0.008879393513372755,-0.009976403632119778
1980.2499999985278,0.009145913,-0.75865644,0.00659814,-2.3407211,-0.016210753,1.5636166,0.77282864,0.039999936,0.04,-0.004295371600004927,-0.0062131737125090125,0.01566584382537428,-0.06094068944913637,0.024866664558375287,-0.046373134779101904,0.9998158494823005,-0.013246074340505135,-0.009221957984884468,-0.01038095031665093
1980.2666666651944,0.00950514,-0.75762486,0.0068604555,-2.3400974,-0.016862659,1.5633229,0.77230203,0.039999932,0.04,-0.0044632061192873,-0.006282018689228452,0.015330316090578222,-0.06240159066562795,0.025796860508147043,-0.0474467252343098,0.999800870948142,-0.01378592425956065,-0.009572716785337144,-0.01079489865604329
1980.283333331861,0.009872719,-0.7565694,0.0071288683,-2.33946,-0.017529711,1.5630225,0.7717632,0.03999993,0.04,-0.005585809156016808,-0.006344634402923738,0.015285043342228022,-0.06386900707019054,0.02673071346660834,-0.048522532497911164,0.9997849354897909,-0.01433846536226652,-0.00993184839363938,-0.011218269305723337
1980.2999999985277,0.010248676,-0.7554899,0.0074034,-2.338807,-0.018211955,1.5627149,0.77121204,0.039999925,0.04,-0.0034733088147609337,-0.006433304028759246,0.015689886214453885,-0.06534239820964205,0.02766499392156037,-0.04960007077223516,0.9997680039051546,-0.01490378117095674,-0.010298935589661861,-0.011651077204742987
1980.3166666651944,0.010633037,-0.7543863,0.0076840688,-2.3381402,-0.018909449,1.5624005,0.77064866,0.039999917,0.04,-0.0055048946431268675,-0.006482753948204405,0.015364682998098012,-0.06682086443950251,0.028604640422220363,-0.0506798444541545,0.9997500281759734,-0.015481846922229614,-0.010674483548963104,-0.012093344408391707
1980.333333331861,0.011025821,-0.75325865,0.00797089,-2.3374584,-0.019622218,1.5620792,0.7700729,0.039999917,0.04,-0.0038861378563126436,-0.006575249568984212,0.015928428549938367,-0.06830456189983275,0.0295438079858888,-0.051758927034551865,0.9997309681533488,-0.016072773714873503,-0.011057956189129567,-0.012545073343651974
1980.3499999985277,0.011427049,-0.7521066,0.008263879,-2.336762,-0.020350296,1.561751,0.76948476,0.039999913,0.04,-0.0050886344853839915,-0.006644076687994591,0.015805151610281953,-0.06979265670699039,0.030487217850830216,-0.052839514735501206,0.999710773827459,-0.01667656137407012,-0.011449799296251159,-0.013006271184145924
1980.3666666651943,0.011836738,-0.75093037,0.008563048,-2.336051,-0.021093719,1.5614159,0.7688843,0.039999917,0.04,-0.004914892127882986,-0.006709055682322003,0.015729982396628372,-0.07128504598048603,0.03143149320451298,-0.05392043977092788,0.9996893994768203,-0.017293231909818126,-0.01184992256855692,-0.013476944717072191
1980.383333331861,0.012254903,-0.7497299,0.0088684065,-2.3353252,-0.02185252,1.561074,0.76827127,0.039999925,0.04,-0.004572722809803587,-0.006779198541630345,0.015991821371330595,-0.07278141478502068,0.032377505608652275,-0.055001920849341905,0.9996667971237942,-0.01792292536696399,-0.01225817770769044,-0.013957096898405037
1980.3999999985276,0.012681553,-0.748505,0.009179963,-2.3345847,-0.022626698,1.5607253,0.76764584,0.039999917,0.04,-0.004737198678328447,-0.006864408443973784,0.016084463516885528,-0.07428042544848618,0.03332467201979489,-0.05608303973905398,0.9996429192039289,-0.01856557178938541,-0.012674622171337066,-0.01444671528045463
1980.4166666651943,0.013116695,-0.7472557,0.009497724,-2.3338299,-0.02341629,1.5603695,0.76700807,0.039999913,0.04,-0.0057439498075906315,-0.00689937117977716,0.015647682285702125,-0.07578226126346183,0.03427557813572621,-0.0571631786104884,0.9996177108666624,-0.019221157342882447,-0.013099701426507238,-0.014945803913817488
1980.433333331861,0.013560339,-0.74598205,0.009821691,-2.3330603,-0.0242213,1.5600067,0.7663578,0.039999913,0.04,-0.004766185181126481,-0.006989362652877126,0.01601417637897562,-0.07728724511697208,0.0352217896767403,-0.05824127202960745,0.9995911251494675,-0.019889786804525186,-0.013532998489362466,-0.01545434745238526
1980.4499999985276,0.01401249,-0.744684,0.010151872,-2.3322759,-0.025041731,1.5596371,0.765695,0.039999906,0.04,-0.004932847380767491,-0.007069238345504443,0.016107912295804105,-0.07879389812068449,0.03617063962191442,-0.059318624856465094,0.9995631096631941,-0.020571477600219306,-0.01397457180952195,-0.015972333972518276
1980.4666666651942,0.014473148,-0.7433615,0.01048827,-2.3314767,-0.025877604,1.55926,0.76501966,0.039999902,0.04,-0.005106145098143777,-0.007109731255175097,0.015776441729009605,-0.08030209602850652,0.03711984216654661,-0.06039398228222642,0.9995336084873493,-0.021266235973978562,-0.014424658588414838,-0.01649975564562007
1980.4833333318609,0.014942313,-0.74201465,0.010830879,-2.3306627,-0.026728902,1.5588763,0.76433206,0.0399999,0.04,-0.004793961064120111,-0.007207008879443408,0.016276542251403292,-0.08181141997904617,0.03806523369647825,-0.06146615879585819,0.9995025767871482,-0.021973958020528015,-0.01488283841343006,-0.01703658667464878
1980.4999999985275,0.015419982,-0.74064344,0.011179702,-2.329834,-0.02759561,1.5584856,0.7636321,0.03999989,0.04,-0.004966710887766013,-0.007282466694455425,0.01615825570724372,-0.0833223817593287,0.039013079688239236,-0.0625366228476804,0.9994699578933748,-0.02269468222033591,-0.015349259267159618,-0.017582801468569918
1980.5166666651942,0.01590615,-0.73924774,0.011534735,-2.3289905,-0.028477766,1.5580881,0.7629195,0.039999895,0.04,-0.005136166514096985,-0.0073124973172673455,0.01625419560347119,-0.08483426903033311,0.03996087124908605,-0.06360480464024136,0.9994356913556119,-0.023428593935418802,-0.015823982442653216,-0.01813839602594353
1980.5333333318608,0.016400801,-0.73782766,0.011895968,-2.3281324,-0.02937531,1.5576837,0.7621939,0.039999895,0.04,-0.005404742358061654,-0.007403768747910391,0.016190365298829335,-0.08634515768358567,0.04090775880791622,-0.06466799113281518,0.9993997185320803,-0.02417581498394116,-0.016307008977143843,-0.018703315911361578
1980.5499999985275,0.016903939,-0.7363834,0.012263394,-2.3272593,-0.030288251,1.5572723,0.7614567,0.039999902,0.04,-0.004506744503784965,-0.007466799408398228,0.01617135228026978,-0.08785368167628126,0.04185245600028871,-0.06573522715985722,0.9993620016467676,-0.024935692990924654,-0.01679811638338811,-0.019277556006885996
1980.5666666651941,0.017415542,-0.7349147,0.01263701,-2.3263712,-0.031216545,1.5568539,0.7607071,0.03999991,0.04,-0.004748837256629557,-0.007552170882588194,0.016300621639286916,-0.08936508066589618,0.04279704476329027,-0.0667941093349699,0.9993224722809225,-0.02570864569344475,-0.017297400051227603,-0.019861064483600283
1980.5833333318608,0.017935602,-0.7334219,0.013016801,-2.325469,-0.032160155,1.5564287,0.7599447,0.039999902,0.04,-0.006049154605625162,-0.007607951122349729,0.015913399525713245,-0.09087519749319294,0.04374113901122066,-0.06784623824476566,0.9992810638986196,-0.026494828453328362,-0.017805099713267863,-0.020453797277578966
1980.5999999985274,0.018464105,-0.7319047,0.013402757,-2.3245516,-0.03311908,1.5559967,0.7591701,0.039999906,0.04,-0.0044265531822018644,-0.007697434341977574,0.016689916206269473,-0.09238222153744416,0.044681706645360426,-0.0688928616592244,0.999237732837188,-0.027293940319350358,-0.018320760593833082,-0.0210557314644676
1980.616666665194,0.019001024,-0.7303634,0.013794865,-2.3236198,-0.03409325,1.5555576,0.7583832,0.039999906,0.04,-0.005663218701990047,-0.007740684076474463,0.015842135739041474,-0.09388802537414417,0.04562204644880177,-0.06993461629192035,0.9991924105387858,-0.028106061697663984,-0.0188447700222172,-0.021666810110105992
1980.6333333318607,0.01954634,-0.7287979,0.014193106,-2.3226736,-0.035082646,1.5551118,0.7575839,0.039999902,0.04,-0.005507096573564851,-0.0078108868684634986,0.016301169068588806,-0.09539161476687455,0.046558407624214926,-0.07097187553547112,0.9991450375390856,-0.028931220542150523,-0.01937700748781932,-0.022286992165338
1980.6499999985274,0.020100027,-0.72720844,0.014597468,-2.3217127,-0.036087252,1.5546591,0.75677234,0.0399999,0.04,-0.00520935276735468,-0.007859190696788212,0.01616637345271954,-0.09689245604672711,0.0474927960367239,-0.07200454296201318,0.999095556921067,-0.029769348479933525,-0.01991732067874496,-0.02291624682716157
1980.666666665194,0.020662067,-0.7255948,0.015007932,-2.3207371,-0.03710698,1.5541998,0.7559486,0.039999895,0.04,-0.0050254498500601485,-0.007978275522629169,0.016502573443166746,-0.09838990786193777,0.048423329927593795,-0.07302950831652424,0.9990439110690994,-0.03062038150742486,-0.020465616644808823,-0.023554501214098897
1980.6833333318607,0.021232426,-0.7239573,0.015424472,-2.3197474,-0.038141802,1.5537332,0.7551127,0.03999989,0.04,-0.006165678205194425,-0.007965068488925003,0.015597769502195824,-0.09988447409481666,0.04935192019386776,-0.07404914694328421,0.9989900267037495,-0.031484299025784916,-0.02102242940756928,-0.024201713226559615
1980.6999999985273,0.021811077,-0.7222962,0.015847076,-2.3187435,-0.039191645,1.5532602,0.75426465,0.039999887,0.04,-0.00523295099372767,-0.008095853434451558,0.01621067236565743,-0.1013757187292254,0.050274230540663746,-0.07506217793347487,0.9989338549061637,-0.03236109851190458,-0.02158707141524038,-0.024857819154698577
1980.716666665194,0.022397991,-0.7206112,0.016275711,-2.317725,-0.04025647,1.5527805,0.7534045,0.03999988,0.04,-0.005220775598235861,-0.00814135924592993,0.01631155954366914,-0.10286253020930408,0.05119410003897694,-0.07606858381832789,0.9988753309041891,-0.033250732882601594,-0.022159658633955612,-0.025522766367367878
1980.7333333318606,0.022993127,-0.7189028,0.016710361,-2.316693,-0.04133621,1.5522935,0.75253224,0.03999988,0.04,-0.006952890655620436,-0.008141254314347757,0.015066451470424624,-0.10434523749005652,0.0521113224918929,-0.07706779881686719,0.9988143754673565,-0.03415318073708724,-0.02274087380444422,-0.026196493351299976
1980.7499999985273,0.023596456,-0.717171,0.017151002,-2.3156466,-0.0424308,1.5518004,0.75164807,0.03999987,0.04,-0.004702556135494085,-0.008299976328076872,0.01650129019565849,-0.10582287689580937,0.05301872608851614,-0.0780604087625334,0.9987509521615201,-0.035068345867192006,-0.023329579896001023,-0.026878939273569758
1980.766666665194,0.024207938,-0.7154157,0.017597592,-2.3145857,-0.043540202,1.5513006,0.750752,0.039999865,0.04,-0.004921408746727529,-0.008310958965417059,0.01629605874442497,-0.10729555480174563,0.05392467493421236,-0.07904540846014803,0.9986849921780871,-0.03599619877741903,-0.023925982744489895,-0.027570045729756156
1980.7833333318606,0.02482753,-0.7136371,0.01805011,-2.3135104,-0.044664297,1.5507942,0.7498439,0.03999987,0.04,-0.005200789984072252,-0.008401591606265607,0.016017496180209534,-0.10876269261514585,0.05482948777454434,-0.0800193212681048,0.998616427982488,-0.03693674765922573,-0.024530169808291345,-0.028269722408110192
1980.7999999985273,0.025455195,-0.71183527,0.018508527,-2.3124204,-0.04580302,1.5502812,0.7489239,0.03999986,0.04,-0.004387295913166334,-0.008480658962830775,0.01625536221847579,-0.11022373877227669,0.055728813477414194,-0.08098851586161743,0.9985452018301985,-0.037889938033751354,-0.02514186927949357,-0.028977903768552894
1980.816666665194,0.026090888,-0.71001047,0.018972816,-2.3113167,-0.046956323,1.5497613,0.7479923,0.039999865,0.04,-0.006118737425131471,-0.008470284979998632,0.015433243090900994,-0.11167817624966661,0.05662655687507852,-0.0819534193086947,0.9984712403410445,-0.038855601076210104,-0.025761580265802008,-0.029694535844683935
1980.8333333318606,0.026734566,-0.7081626,0.019442938,-2.3102,-0.048124116,1.5492351,0.7470489,0.039999876,0.04,-0.006971175491465864,-0.00853669226553791,0.015648542459234527,-0.1131269522684523,0.05751781968215165,-0.08291113751190923,0.998394472719825,-0.039833783468802765,-0.026389360946836606,-0.03041953592481045
1980.8499999985272,0.027386177,-0.7062922,0.019918853,-2.3090696,-0.049306262,1.5487025,0.746094,0.03999988,0.04,-0.005645145744659352,-0.008629284177881502,0.015529340439179862,-0.114568080696523,0.05839941976103828,-0.0838515172725283,0.9983148490229807,-0.040824350385240016,-0.027024758859679032,-0.03115280155014163
1980.8666666651939,0.028045675,-0.7043991,0.020400537,-2.3079257,-0.05050271,1.5481633,0.7451274,0.039999872,0.04,-0.005936549224405674,-0.008676373140563756,0.015566866223259979,-0.1160024580028863,0.05927559206791426,-0.08478520448891902,0.9982322953067916,-0.04182733871841716,-0.02766792128303746,-0.0318942702400434
1980.8833333318605,0.028713003,-0.7024835,0.020887949,-2.3067677,-0.05171337,1.5476177,0.74414945,0.03999987,0.04,-0.004958059594484254,-0.008749121010057787,0.01583067334560706,-0.11742858629173744,0.060145660779396745,-0.08570945115214121,0.9981467632826978,-0.042842530370379675,-0.028318452099833597,-0.032643863288628415
1980.8999999985272,0.029388117,-0.7005456,0.021381043,-2.3055964,-0.052938126,1.5470656,0.74316,0.03999987,0.04,-0.0058621241804779345,-0.008789370933661236,0.015331664737772144,-0.11884728624533236,0.061010845822749044,-0.0866214907482016,0.9980581768590434,-0.04386998536603217,-0.02897655917342302,-0.03340148211165937
1980.9166666651938,0.030070957,-0.6985854,0.021879788,-2.3044116,-0.05417687,1.5465075,0.74215937,0.039999858,0.04,-0.005960323876053053,-0.00888102296952506,0.01569663076177452,-0.12025738110685136,0.061870603313536957,-0.08752625026554724,0.9979664787090253,-0.04490952969384281,-0.02964211490249517,-0.03416703879316412
1980.9333333318605,0.030761464,-0.69660336,0.022384143,-2.3032138,-0.055429533,1.5459429,0.7411475,0.039999854,0.04,-0.005888368355311258,-0.008870322233121841,0.015036791550904205,-0.12165935326651292,0.0627222471220083,-0.08841992953043401,0.9978716010727736,-0.04596111271183306,-0.030315145380925078,-0.03494046152074953
1980.9499999985271,0.031459592,-0.6945993,0.02289406,-2.3020024,-0.056695983,1.5453721,0.7401244,0.03999985,0.04,-0.005367584173732176,-0.009000024594098266,0.015620156977669275,-0.12305247897210722,0.06356735742624314,-0.08930315886442558,0.9977734829045223,-0.04702473622600642,-0.03099540943476249,-0.0357216403518223
1980.9666666651938,0.032165263,-0.6925737,0.023409504,-2.300778,-0.057976138,1.5447954,0.73909026,0.03999985,0.04,-0.005462329144600986,-0.009002914233226245,0.015259138492962343,-0.12443592723123434,0.06440647195309157,-0.09017669157404974,0.9976720683296194,-0.048100233386882574,-0.03168272081004678,-0.036510502942294944
1980.9833333318604,0.03287842,-0.69052655,0.023930423,-2.2995405,-0.059269857,1.5442122,0.7380451,0.03999985,0.04,-0.006256344301025507,-0.00904402063733184,0.014896563794897233,-0.12580984176761284,0.06524048907590586,-0.09103785434675049,0.9975672772438825,-0.04918756102613748,-0.03237752207452236,-0.03730693336151751
1980.999999998527,0.03359901,-0.6884579,0.02445677,-2.2982907,-0.060577042,1.5436231,0.73698914,0.03999984,0.04,-0.006772175357494525,-0.00909381557342194,0.014940969732823994,-0.12717360921507762,0.0660649000113468,-0.09189039781053875,0.9974590500398631,-0.050286572459376046,-0.03307971536215767,-0.03811084564032118
1981.0166666651937,0.034326967,-0.6863683,0.0249885,-2.2970276,-0.06189757,1.5430281,0.7359224,0.039999843,0.04,-0.004664365849160745,-0.00920756947131382,0.015290326374839402,-0.12852769625054467,0.06687892947488877,-0.09272898198427325,0.9973473466747937,-0.051397208314271546,-0.03378852240306983,-0.03892213781468847
1981.0333333318604,0.035062216,-0.68425757,0.025525559,-2.295751,-0.06323134,1.5424271,0.73484504,0.03999983,0.04,-0.004929978249235134,-0.009213573421738147,0.015203202417990447,-0.12987088015763543,0.06768947266462166,-0.09355892063156429,0.9972321002833998,-0.052519325454504454,-0.03450411419807852,-0.0397407186846085
1981.049999998527,0.035804693,-0.6821261,0.026067907,-2.2944636,-0.06457817,1.5418202,0.73375684,0.03999983,0.04,-0.008469090099216814,-0.009211846617376146,0.013967777786394464,-0.1312038002464933,0.06849422065910027,-0.09437543953831538,0.9971132068587094,-0.053653024688935215,-0.035227384632318816,-0.04056645192318118
1981.0666666651937,0.03655432,-0.6799742,0.026615486,-2.293163,-0.06593801,1.5412074,0.7326582,0.039999843,0.04,-0.004622018938582606,-0.009292810943987984,0.014951795171369575,-0.13252512868696242,0.06928278243033226,-0.0951898480875508,0.9969906540166492,-0.05479801472043493,-0.035957100369693594,-0.0413992792105932
1981.0833333318603,0.037311036,-0.677802,0.027168248,-2.2918499,-0.06731068,1.5405886,0.7315494,0.039999843,0.04,-0.005333841449717269,-0.00935218677429045,0.014445620189440511,-0.13383386852201878,0.07006982930586814,-0.09598104967235715,0.9968643750460953,-0.055954126446509315,-0.0366935198298855,-0.042239070776470884
1981.099999998527,0.03807476,-0.6756097,0.027726142,-2.290525,-0.06869607,1.5399644,0.73043036,0.03999984,0.04,-0.006651162358872753,-0.009381710652139191,0.014449529865823152,-0.13513225700973922,0.0708472412864613,-0.09676227639233706,0.9967343013978369,-0.05712133167687356,-0.03743669807028387,-0.043085722948803036
1981.1166666651936,0.03884542,-0.67339766,0.028289108,-2.2891872,-0.07009402,1.5393342,0.7293011,0.039999835,0.04,-0.004441508027763774,-0.00943671659010617,0.014326357362426378,-0.13641847308434235,0.07161610636942917,-0.0975302349555992,0.9966003862450025,-0.058299563952552876,-0.03818618526599188,-0.0439391196325711
1981.1333333318603,0.039622955,-0.6711658,0.028857093,-2.287838,-0.07150439,1.5386987,0.7281617,0.039999835,0.04,-0.006729756092793693,-0.009493794686368101,0.014262720212276925,-0.13769225868261437,0.07237792164564791,-0.09828670638893192,0.9964625541036358,-0.059488756874677313,-0.03894230148835694,-0.04479914317879357
1981.149999998527,0.04040726,-0.66891456,0.02943004,-2.2864769,-0.07292704,1.5380573,0.72701234,0.039999828,0.04,-0.005741775242062985,-0.009478641433047219,0.013886022457088032,-0.13895262435268968,0.07313119652693617,-0.09902967267575266,0.9963207535883248,-0.06068872106666011,-0.03970491964623535,-0.04566568142896399
1981.1666666651936,0.041198287,-0.66664386,0.030007891,-2.2851048,-0.07436185,1.5374107,0.72585315,0.039999824,0.04,-0.007230789917422875,-0.009532413540776219,0.013854677106173163,-0.14020015922440165,0.07387515245319515,-0.09976064483902544,0.9961749145656712,-0.06189938334624312,-0.040474210134809334,-0.046538631752511266
1981.1833333318602,0.04199592,-0.66435415,0.03059059,-2.2837205,-0.075808674,1.5367585,0.7246844,0.03999982,0.04,-0.0049315966430540925,-0.009571726047326312,0.014009209188903249,-0.1414341155473535,0.07460671467832505,-0.10047758766012314,0.9960250122121258,-0.06312048292714972,-0.04124953694871653,-0.047417880429165275
1981.199999998527,0.042800102,-0.66204566,0.031178081,-2.282325,-0.077267386,1.5361013,0.72350615,0.039999817,0.04,-0.006140682847211032,-0.009608021768973268,0.013847588297632996,-0.1426556901149023,0.07533143061602274,-0.10118287931969366,0.9958709798165729,-0.06435199494066651,-0.042030954136353244,-0.0483033249448019
1981.2166666651935,0.043610744,-0.6597185,0.031770293,-2.2809188,-0.07873775,1.5354387,0.7223183,0.039999813,0.04,-0.006982497175256341,-0.00961834912629883,0.013175203415660697,-0.14386321448443173,0.07604694252752066,-0.10187308184146701,0.9957127398440034,-0.0655938701215228,-0.042818875211148084,-0.04919479485149503
1981.2333333318602,0.044427764,-0.65737325,0.032367174,-2.2795029,-0.080219656,1.5347708,0.7211211,0.03999981,0.04,-0.00789323393366459,-0.009590132744580204,0.012661724093598892,-0.14505606966983087,0.07674937910666967,-0.10254984161793614,0.9955502348054265,-0.0668459407115151,-0.04361331921459063,-0.050092200753601365
1981.2499999985268,0.04525107,-0.65501004,0.032968655,-2.2780747,-0.08171298,1.5340977,0.71991473,0.0399998,0.04,-0.0038827447119471614,-0.009729780121636028,0.01368353474568984,-0.14623441334846402,0.07743768452135921,-0.10321347871574711,0.9953834660010352,-0.06810797507646889,-0.0444131145024659,-0.050995437079603356
1981.2666666651935,0.046080597,-0.6526291,0.03357468,-2.2766356,-0.08321755,1.5334196,0.7186992,0.039999794,0.04,-0.005589496937696836,-0.009768755415378444,0.013325374416095492,-0.1473985734953572,0.07812111175581338,-0.10386370346493147,0.9952123599937109,-0.0693799705683438,-0.045218525176931604,-0.051904365717222366
1981.2833333318601,0.046916224,-0.6502303,0.03418518,-2.2751856,-0.08473316,1.5327369,0.71747494,0.03999979,0.04,-0.005678916462481531,-0.0098012125805777,0.013555681843224754,-0.14854696495162384,0.07879612828372581,-0.10449934253881069,0.9950368795400929,-0.0706616416491241,-0.04602944700188144,-0.05281884856058858
1981.2999999985268,0.047757886,-0.64781415,0.03480009,-2.2737257,-0.086259745,1.5320488,0.7162417,0.039999794,0.04,-0.00731180978603696,-0.009644576321976572,0.012119916030184363,-0.14968152585464262,0.07946275965710034,-0.10512841530090022,0.9948569254878666,-0.0719530075220207,-0.04684659254179983,-0.05373880613288839
1981.3166666651935,0.04860547,-0.64538103,0.03541936,-2.2722557,-0.087797046,1.531356,0.7149999,0.0399998,0.04,-0.00603566268904121,-0.009811987783026749,0.012649146219856355,-0.15080002966077982,0.08011455576547123,-0.10573787462506688,0.9946724899415039,-0.0732538127129525,-0.04766923402709059,-0.05466407233142207
1981.33333333186,0.049458895,-0.6429313,0.03604288,-2.2707746,-0.089344904,1.5306585,0.7137495,0.039999798,0.04,-0.004480602536194311,-0.009846266601691578,0.012954066423742638,-0.15190252271295696,0.08075509861472273,-0.10633091300314862,0.9944835495046619,-0.0745639550928587,-0.04849677186574759,-0.05559450947818959
1981.3499999985268,0.050318066,-0.64046496,0.03667062,-2.269284,-0.09090317,1.5299566,0.71249074,0.039999798,0.04,-0.006771817818096437,-0.009822016956712032,0.012333515398577077,-0.15298891630853856,0.08139113383046082,-0.1069100911316905,0.9942900256250055,-0.07588331470173333,-0.04932976067009819,-0.05653001154019274
1981.3666666651934,0.05118289,-0.6379824,0.0373025,-2.267784,-0.092471674,1.5292495,0.71122354,0.03999979,0.04,-0.00697933808526674,-0.009731011156428881,0.011469516827289361,-0.1540592830301566,0.0820153216024071,-0.10747539760920277,0.9940918524028488,-0.07721178242375444,-0.05016849285028563,-0.057470444285307044
1981.38333333186,0.052053273,-0.635484,0.037938446,-2.2662737,-0.094050266,1.5285382,0.7099483,0.03999978,0.04,-0.004542822718600625,-0.009903337014624536,0.012617156400462903,-0.15511246025090486,0.0826228700079387,-0.10802586060447789,0.993889049332883,-0.07854910287335126,-0.051011793331912615,-0.05841569134258214
1981.3999999985267,0.05292911,-0.63296986,0.0385784,-2.264754,-0.09563874,1.5278224,0.708665,0.039999776,0.04,-0.0063441675528963515,-0.009829635677172793,0.011655487458184233,-0.15614894092573217,0.08322614097278597,-0.10856120010697304,0.9936815363155274,-0.07989520201213196,-0.05186025205882643,-0.059365607361913424
1981.4166666651934,0.05381031,-0.6304403,0.039222278,-2.263226,-0.09723692,1.5271022,0.7073739,0.03999977,0.04,-0.0076349319846347186,-0.009770919228400954,0.011188203869760827,-0.15716859673800548,0.08381579941415522,-0.10908325736758961,0.9934692589904839,-0.0812498961414956,-0.05271409501880778,-0.06032006303248746
1981.43333333186,0.05469679,-0.62789565,0.039870013,-2.2616885,-0.09884462,1.5263779,0.7060752,0.039999764,0.04,-0.005303797797551191,-0.009922024495749582,0.011752669092524037,-0.1581709812096383,0.08439015548195336,-0.10958923078490171,0.9932522213420465,-0.08261300067203328,-0.05357247854660587,-0.06127892346824041
1981.4499999985267,0.055588435,-0.6253362,0.04052154,-2.2601418,-0.10046168,1.5256491,0.70476884,0.039999764,0.04,-0.005881738547008908,-0.009828560101537986,0.011060407385166116,-0.15915580574006416,0.08495589167801293,-0.11007910468136517,0.9930303630348537,-0.0839844144705696,-0.05443566554818203,-0.06224206401806238
1981.4666666651933,0.05648513,-0.6227623,0.04117677,-2.258586,-0.10208789,1.5249157,0.70345515,0.039999757,0.04,-0.005210421264245646,-0.009833490209278789,0.01103907819515193,-0.16012278555103612,0.08551040829556783,-0.11055480160877032,0.9928036683559744,-0.08536388068091579,-0.055303374966819044,-0.06320934022194934
1981.48333333186,0.057386793,-0.62017405,0.041835632,-2.2570214,-0.10372311,1.5241783,0.70213413,0.03999975,0.04,-0.006197410507779999,-0.009829385840084276,0.010946817471091386,-0.16107253384552433,0.08605206060672503,-0.11101740440455067,0.9925720860165207,-0.08675134785497632,-0.056175660930470876,-0.06418062655647974
1981.4999999985266,0.058293313,-0.61757183,0.04249806,-2.2554486,-0.10536708,1.523437,0.700806,0.03999975,0.04,-0.006109079657545813,-0.00987764180254147,0.01077085978047343,-0.162003404128936,0.0865822898882476,-0.11146200332716538,0.992335596394423,-0.08814661168483424,-0.05705230347936698,-0.06515576447794802
1981.5166666651933,0.059204586,-0.61495596,0.043163966,-2.2538679,-0.10701966,1.522692,0.69947094,0.03999974,0.04,-0.006596766089983497,-0.009782161112967952,0.010347396789800456,-0.1629159896936527,0.08710081296712943,-0.11189302809857785,0.9920941568275666,-0.08954952117280274,-0.057933383295814656,-0.06613463802139845
1981.53333333186,0.060120504,-0.6123269,0.043833278,-2.2522793,-0.108680636,1.5219431,0.69812906,0.03999973,0.04,-0.006096607880534677,-0.00979382998274464,0.010089589040651603,-0.1638099617227003,0.08760602570351285,-0.11230856848547224,0.9918477508656848,-0.09095988339328306,-0.0588186524459965,-0.06711709797212473
1981.5499999985266,0.06104096,-0.60968494,0.044505935,-2.250683,-0.110349834,1.5211904,0.69678056,0.039999727,0.04,-0.006266853392822291,-0.009763112451401101,0.009826665923373668,-0.16468496345993727,0.08809894037806887,-0.11270891023475735,0.9915963462640363,-0.09237752225049406,-0.05970810003053144,-0.06810302672728195
1981.5666666651932,0.061965857,-0.60703003,0.045181848,-2.2490792,-0.11202708,1.520435,0.6954255,0.039999723,0.04,-0.0061047858989971004,-0.009869034312926656,0.01065074824455614,-0.1655415851445901,0.08857883334002262,-0.11309607529762286,0.9913399370957973,-0.09380235740110958,-0.06060118496880841,-0.06909228064893756
1981.5833333318599,0.06289509,-0.60436285,0.045860924,-2.2474675,-0.1137122,1.519676,0.69406426,0.039999727,0.04,-0.005179999814886038,-0.009743702827755274,0.009795767741160866,-0.1663782634277913,0.08904745781141461,-0.11347117842651297,0.991078511480519,-0.09523405970443069,-0.06149786082800035,-0.07008474204384052
1981.5999999985265,0.06382857,-0.60168374,0.046543103,-2.2458482,-0.115404874,1.5189133,0.6926967,0.039999727,0.04,-0.005245943883691595,-0.009835495796899768,0.00936293063460436,-0.16719513547350034,0.0895079461423252,-0.11382402483305343,0.9908120334406936,-0.09667260118808835,-0.06239812690807153,-0.07108021051608313
1981.6166666651932,0.06476614,-0.59899265,0.04722831,-2.2442217,-0.11710499,1.5181468,0.69132316,0.039999716,0.04,-0.006185630358923611,-0.009637193227309687,0.00903356707557812,-0.16799190852376397,0.08995624815014984,-0.11416328647241891,0.9905404662218947,-0.09811768945047128,-0.06330229457346424,-0.07207859110406294
1981.6333333318598,0.06570767,-0.59629,0.047916446,-2.242588,-0.118812375,1.5173775,0.68994385,0.039999716,0.04,-0.005517546674949081,-0.009686261452074296,0.009637270571372092,-0.16876945946623625,0.09038834668323464,-0.11448709584526974,0.9902638331862761,-0.09956915574181759,-0.06420961223283722,-0.07307974825485936
1981.6499999985265,0.066653125,-0.5935763,0.04860743,-2.2409475,-0.12052675,1.5166049,0.68855894,0.039999716,0.04,-0.005459486305436911,-0.009704317392573297,0.008740675481000437,-0.16952678997716264,0.09081145323793041,-0.11479351571460496,0.9899821070837188,-0.10102681572824648,-0.06512021547269704,-0.07408351837406632
1981.6666666651931,0.067602366,-0.59085166,0.049301196,-2.2393007,-0.122247964,1.5158296,0.6871684,0.03999971,0.04,-0.006488593474118787,-0.009631722639158458,0.008750802546186875,-0.17026419335823473,0.09122376708751578,-0.11508625382324125,0.9896952545417682,-0.10249059751643753,-0.06603413127821034,-0.07508977336868351
1981.6833333318598,0.06855525,-0.5881166,0.049997654,-2.2376485,-0.1239758,1.5150511,0.6857726,0.03999971,0.04,-0.00713629516739811,-0.009434388537224447,0.00776753761051463,-0.1709807106641451,0.09162133410500728,-0.11536229783548385,0.9894032497021378,-0.10396022130166936,-0.06695161352564966,-0.07609837916847519
1981.6999999985264,0.0695117,-0.58537126,0.050696723,-2.2359898,-0.12571006,1.5142696,0.68437153,0.0399997,0.04,-0.005449235118137885,-0.009544132268989036,0.00821148066423305,-0.17167700496533672,0.09200188137316648,-0.11562313633791892,0.9891061101099721,-0.1054355483241755,-0.06787209092810678,-0.07710919118851607
1981.716666665193,0.07047158,-0.5826161,0.05139833,-2.2343252,-0.1274505,1.5134851,0.68296534,0.039999697,0.04,-0.005758338043193589,-0.009486609253812894,0.00779252946410125,-0.1723525788829785,0.092369048021321,-0.11586819180855445,0.9888038227491918,-0.10691641577880406,-0.0687955268933266,-0.07812205599616906
1981.7333333318597,0.07143479,-0.5798513,0.052102372,-2.2326539,-0.12919693,1.5126982,0.6815545,0.039999686,0.04,-0.004262534845289601,-0.009589308147464615,0.008534284150973903,-0.17300644904650542,0.09272315678488344,-0.11609706361581344,0.9884964468632137,-0.10840248666462861,-0.0697211282889691,-0.07913684157103959
1981.7499999985264,0.07240122,-0.57707745,0.052808784,-2.230978,-0.13094918,1.5119085,0.6801388,0.03999968,0.04,-0.0072744837170013454,-0.00924620128037179,0.006743167385669935,-0.1736400933955911,0.09306997416289196,-0.11631179519178331,0.9881838784396749,-0.10989376860594165,-0.07064990806464225,-0.08015343101803568
1981.766666665193,0.07337073,-0.57429475,0.053517465,-2.2292967,-0.13270706,1.5111161,0.67871875,0.039999664,0.04,-0.005441085690005565,-0.00926368830661134,0.007130307284808346,-0.1742517699988606,0.09339833884540052,-0.11651012899387794,0.9878661724091831,-0.11138990594498627,-0.07158122462185604,-0.08117168561039481
1981.7833333318597,0.07434321,-0.5715034,0.054228336,-2.2276099,-0.13447022,1.5103215,0.67729414,0.039999664,0.04,-0.0052119528233252055,-0.009378322887876323,0.007377328719715415,-0.17484275478642897,0.0937135390372196,-0.11669099890109666,0.9875433340869569,-0.11289086918621048,-0.07251475488240781,-0.08219139419150413
1981.7999999985263,0.07531856,-0.568704,0.05494132,-2.2259188,-0.13623862,1.5095248,0.6758654,0.03999966,0.04,-0.0063946812637105666,-0.009129812552541305,0.006543787324009287,-0.1754112492892324,0.09401636048225287,-0.1168585282988022,0.9872153505094912,-0.11439637557094763,-0.07345065679494395,-0.08321251102475201
1981.816666665193,0.07629665,-0.5658967,0.05565631,-2.2242231,-0.13801193,1.5087255,0.6744327,0.03999965,0.04,-0.006066973939233833,-0.00906704041364198,0.006132692653504357,-0.17595850847974093,0.09430450590716116,-0.11701053979406206,0.9868822182007502,-0.11590621288890583,-0.07438904268874608,-0.08423483567248534
1981.8333333318596,0.07727738,-0.5630819,0.05637325,-2.222522,-0.13978998,1.5079243,0.67299616,0.03999965,0.04,-0.0038681126973472146,-0.009245679387143158,0.0069841189695551975,-0.17648399051813535,0.09457666766149471,-0.11714531973966327,0.9865440153603526,-0.11742019702089981,-0.07532883471723806,-0.0852582532567287
1981.8499999985263,0.07826059,-0.56026006,0.05709204,-2.2208173,-0.14157252,1.5071207,0.67155594,0.039999645,0.04,-0.006652189426104016,-0.008860637030531915,0.0052766168808338065,-0.17698688082033265,0.09484163879335736,-0.11726448716938559,0.9862006679413907,-0.11893815051756831,-0.07627103675822414,-0.08628260459235547
1981.866666665193,0.07924622,-0.55743134,0.05781259,-2.219107,-0.14335936,1.5063156,0.6701122,0.03999963,0.04,-0.0028205592285779346,-0.009207016424511716,0.00705529460673926,-0.17746828486149818,0.09508685405998077,-0.11737002161766838,0.9858523040471419,-0.12045987813130382,-0.07721403689510851,-0.08730775951709027
1981.8833333318596,0.08023412,-0.5545961,0.05853482,-2.2173944,-0.14515035,1.5055083,0.668665,0.039999623,0.04,-0.008279364910057652,-0.008540005836649156,0.004260338245187789,-0.17792645117739853,0.09532790176804494,-0.11745946189116148,0.9854987685554405,-0.12198527233913482,-0.07815973064372857,-0.08833361202711636
1981.8999999985263,0.08122415,-0.55175465,0.059258647,-2.2156765,-0.14694518,1.5046996,0.6672151,0.03999962,0.04,-0.002964215505651957,-0.009030491482560354,0.006509535168897074,-0.17836204506660622,0.09554672058074612,-0.11753223671826205,0.9851402761102283,-0.12351379456916267,-0.07910606747476749,-0.08935999678417227
1981.916666665193,0.08221622,-0.5489075,0.059983984,-2.213956,-0.14874363,1.503889,0.665762,0.03999961,0.04,-0.006570791795668107,-0.008562146965404582,0.004236641258814622,-0.17877668023889107,0.09575919989537951,-0.1175901949877284,0.984776691915244,-0.125045622090513,-0.08005431588027398,-0.09038675768831618
1981.9333333318596,0.0832102,-0.5460547,0.060710724,-2.2122319,-0.15054548,1.503077,0.66430646,0.0399996,0.04,-0.0046240477758807685,-0.008726411323820016,0.005387040856796865,-0.1791679224026014,0.09595280061220206,-0.11763402753833327,0.9844081402690552,-0.12658025978067997,-0.08100355195658138,-0.09141376141639283
1981.9499999985262,0.08420598,-0.543197,0.061438788,-2.210505,-0.1523506,1.5022632,0.66284776,0.03999959,0.04,-0.005790291044438511,-0.008319389645446151,0.0038244491123995417,-0.17953780237262146,0.09613604997931396,-0.11766187363969664,0.984034533925022,-0.12811792277177353,-0.08195434152694858,-0.09244089902470048
1981.9666666651929,0.08520341,-0.54033446,0.06216809,-2.2087755,-0.15415871,1.5014484,0.6613869,0.039999586,0.04,-0.00546380734336438,-0.008427607571279139,0.0044330083749821725,-0.1798827365632633,0.09630176522781704,-0.11767331322969588,0.9836559890095247,-0.12965803599963288,-0.08290607774704034,-0.09346802265488258
1981.9833333318595,0.08620239,-0.53746736,0.06289855,-2.2070425,-0.15596956,1.5006324,0.6599241,0.03999959,0.04,-0.003834634499932932,-0.008477520302989372,0.004703349620172048,-0.18020556911699404,0.09645393508923772,-0.11766854455961655,0.9832725697319783,-0.131200366752908,-0.08385830716248951,-0.09449498238751032
1981.9999999985262,0.08720282,-0.53459644,0.06363005,-2.2053077,-0.157783,1.4998149,0.65845925,0.03999958,0.04,-0.006009481266811001,-0.008004795856027258,0.0028522213628923154,-0.1805069523867039,0.09659583825212034,-0.1176513505505313,0.9828842152552536,-0.13274483331010303,-0.08481177403026548,-0.09552168139944213
1982.0166666651928,0.08820455,-0.53172183,0.06436253,-2.203571,-0.15959872,1.4989965,0.6569925,0.03999957,0.04,-0.00542446622779913,-0.008126937840541304,0.003446296010167771,-0.18078549400091448,0.09672034995665654,-0.1176164661812423,0.9824909921935051,-0.1342912890189056,-0.08576594250504636,-0.0965479314044772
1982.0333333318595,0.08920746,-0.52884364,0.06509591,-2.2018323,-0.16141656,1.4981774,0.65552396,0.039999556,0.04,-0.004930105657319217,-0.008064642404631561,0.0035969938791513556,-0.18104105496983036,0.09683007636572363,-0.11756814931490352,0.9820929406355996,-0.13583956458822352,-0.0867205709481723,-0.09757361949126199
1982.0499999985261,0.09021141,-0.5259624,0.06583009,-2.200091,-0.16323626,1.4973574,0.65405375,0.03999956,0.04,-0.0036027792229553768,-0.007968042327169411,0.003399784620827795,-0.1812720757816354,0.09692560447348927,-0.11750239239226795,0.9816901290198548,-0.13738942465749057,-0.08767527303180545,-0.09859859571040099
1982.0666666651928,0.0912163,-0.5230786,0.06656498,-2.198348,-0.1650576,1.4965363,0.65258163,0.039999556,0.04,-0.00496983522895178,-0.007721683559658299,0.0023004552656802346,-0.18147944611463993,0.09701128915840801,-0.11742169676834019,0.9812825181241266,-0.1389408979707976,-0.08863047651856967,-0.09962271391170155
1982.0833333318594,0.09222198,-0.52019256,0.067300454,-2.1966043,-0.1668804,1.4957145,0.6511093,0.03999954,0.04,-0.005315117553483795,-0.0074898971811426795,0.0022029507248388924,-0.18166198767140904,0.09707922885587641,-0.11733044930691608,0.9808702566661971,-0.14049304372447005,-0.08958595699282425,-0.10064591676915001
1982.099999998526,0.09322836,-0.5173047,0.06803645,-2.1948595,-0.16870436,1.4948925,0.64963526,0.039999533,0.04,-0.004733700143866315,-0.0075515208560930636,0.0020959010035515035,-0.18182490801130594,0.09713315995974545,-0.11722123819098847,0.9804532990038102,-0.142046473175698,-0.09054143250907945,-0.10166797396473942
1982.1166666651927,0.0942353,-0.5144152,0.06877291,-2.1931143,-0.17052935,1.49407,0.64816105,0.039999526,0.04,-0.005380091240314577,-0.007329342781654813,0.001715183524209074,-0.18196111223480976,0.09717354395067485,-0.11709725479057037,0.9800317512286342,-0.14360035499231416,-0.0914970081480837,-0.10268886078717271
1982.1333333318594,0.095242694,-0.5115245,0.06950971,-2.1913674,-0.1723551,1.4932474,0.6466859,0.039999522,0.04,-0.002929785523586581,-0.00741431538623244,0.002265856205263539,-0.18207664799280418,0.09719643440315376,-0.11695726330491871,0.9796056781796997,-0.14515490433630052,-0.09245184046862152,-0.10370837101784249
1982.149999998526,0.096250415,-0.5086329,0.07024676,-2.1896203,-0.17418133,1.4924244,0.64520997,0.039999515,0.04,-0.004894186374770904,-0.007122924049685064,0.0010932286913734046,-0.18216666496979844,0.09721099824525156,-0.11680377439619759,0.9791750611711267,-0.1467099441671938,-0.09340654710083908,-0.10472635208808646
1982.1666666651927,0.097258314,-0.5057408,0.07098398,-2.187873,-0.17600797,1.4916011,0.64373404,0.039999504,0.04,-0.004365781750714781,-0.006852154764167007,0.0009631176008717546,-0.18223233641369802,0.09720923156609346,-0.11663745997337668,0.9787400070242103,-0.1482649552498746,-0.09436082696062748,-0.10574278240290443
1982.1833333318593,0.09826628,-0.5028486,0.071721286,-2.1861253,-0.17783467,1.4907779,0.6422581,0.03999949,0.04,-0.003940680481728798,-0.006892181772949479,0.000911842231321458,-0.1822754744405346,0.09719285624707366,-0.11645495544269575,0.9783005824046274,-0.14981983180884184,-0.09531439005674767,-0.10675746115212427
1982.199999998526,0.09927421,-0.4999565,0.07245854,-2.184378,-0.17966126,1.4899546,0.6407822,0.03999948,0.04,-0.004508518435586417,-0.0066379451915246634,0.0004952483859010925,-0.1822950099448078,0.0971638708574841,-0.11625746168178708,0.9778568057377689,-0.1513744617392184,-0.09626738979376392,-0.10777026244648799
1982.2166666651926,0.10028195,-0.49706483,0.07319572,-2.182631,-0.18148747,1.4891317,0.63930625,0.039999474,0.04,-0.004342824009606616,-0.006579451581119333,0.0003688676694091342,-0.18229062581634004,0.09711904108908606,-0.11604475379461482,0.9774087359531797,-0.15292874693894354,-0.09721956751503516,-0.10878105043747927
1982.2333333318593,0.10128939,-0.49417418,0.07393269,-2.1808844,-0.1833131,1.488309,0.63783145,0.039999474,0.04,-0.0033410094538943724,-0.00643446569628392,0.00012307014867207755,-0.18226080974188757,0.09706083770306956,-0.1158175296313384,0.9769565351935782,-0.15448198374888744,-0.0981705428188906,-0.10978975162651382
1982.249999998526,0.10229641,-0.49128467,0.07466941,-2.1791384,-0.18513788,1.4874867,0.6363574,0.039999466,0.04,-0.003974324267286278,-0.006323782318720661,-0.00019106279218750188,-0.1822110109946277,0.0969901829971701,-0.11557714648761819,0.976500202902413,-0.15603426119580643,-0.09912045955751651,-0.11079619831804613
1982.2666666651926,0.103302896,-0.48839682,0.075405754,-2.1773932,-0.18696162,1.4866648,0.63488346,0.03999946,0.04,-0.0033214005881632147,-0.006114749845552436,-0.0004895271829896686,-0.18213787196728576,0.09690407157789505,-0.1153233757607158,0.9760397556571994,-0.15758578149784083,-0.10006910007704754,-0.11180023280887726
1982.2833333318592,0.1043087,-0.4855109,0.07614163,-2.1756494,-0.18878408,1.4858432,0.63341135,0.039999444,0.04,-0.004181992328833317,-0.005855014268681125,-0.001099762611378452,-0.1820381547390061,0.0968050391694612,-0.11505704843904956,0.9755753529623452,-0.1591355642101375,-0.10101661006434037,-0.11280180577909937
1982.299999998526,0.10531373,-0.48262727,0.07687695,-2.1739073,-0.19060506,1.4850221,0.63193977,0.039999433,0.04,-0.004032238754092532,-0.005686125704247591,-0.0014033709412553108,-0.18191845780285576,0.09669091098984572,-0.11477529501156061,0.975106948539527,-0.16068414218582644,-0.10196292254332776,-0.11380073719603431
1982.3166666651925,0.10631784,-0.47974637,0.077611625,-2.1721668,-0.1924244,1.4842021,0.6304697,0.03999943,0.04,-0.0034519223859330594,-0.005589927731335098,-0.0010713817271357229,-0.18177235036873882,0.0965596602316146,-0.11447811256887279,0.9746347162246685,-0.1622309537832068,-0.10290744835467819,-0.11479697137721125
1982.3333333318592,0.10732092,-0.47686842,0.07834557,-2.170428,-0.19424176,1.4833832,0.6290014,0.039999425,0.04,-0.00324077698976577,-0.005520102111811198,-0.0014337319401702686,-0.18160266632759547,0.09641583016383129,-0.11416747157742038,0.9741587389803295,-0.1637757293553274,-0.10385017892871647,-0.11579033672486803
1982.3499999985258,0.10832284,-0.47399402,0.079078704,-2.1686914,-0.19605699,1.4825652,0.6275349,0.039999418,0.04,-0.003233399409019455,-0.005220062383660962,-0.002060647781410019,-0.18141056509069434,0.0962609218564242,-0.11384434517197853,0.9736790758863103,-0.16531831484715984,-0.10479106145636355,-0.11678075781619449
1982.3666666651925,0.10932348,-0.47112334,0.079810925,-2.166957,-0.19786988,1.4817477,0.6260704,0.039999407,0.04,-0.003087434355775187,-0.004970621722871771,-0.002461373572559822,-0.18119573217929416,0.0960903334005059,-0.1135078414207432,0.9731957811378397,-0.1668585353074289,-0.10573019036826584,-0.11776810950023704
1982.3833333318591,0.1103227,-0.4682566,0.08054213,-2.1652253,-0.19968012,1.4809319,0.6246078,0.039999396,0.04,-0.0038465048238567334,-0.004896601891257735,-0.0023354923581075937,-0.18095743732269748,0.0959050251909428,-0.11315619966852036,0.9727089334192336,-0.16839631154085888,-0.10666735571114028,-0.11875221400649298
1982.3999999985258,0.111320436,-0.46539432,0.08127229,-2.163496,-0.20148757,1.4801173,0.6231473,0.039999384,0.04,-0.0024524102422818217,-0.004847169899532822,-0.0025176649513181104,-0.1806951461000241,0.09570557742892144,-0.11279320403814483,0.972218633952664,-0.1699314704465254,-0.10760217155487485,-0.1197330189370202
1982.4166666651925,0.11231653,-0.46253693,0.08200125,-2.1617694,-0.203292,1.4793037,0.6216889,0.039999377,0.04,-0.0023635855384895876,-0.004434365038950838,-0.003181252761619291,-0.1804082784438685,0.09549257758059229,-0.1124162642953968,0.9717249469310147,-0.1714638199685447,-0.1085347432694639,-0.12071037841520774
1982.433333331859,0.11331084,-0.4596847,0.082728915,-2.160046,-0.20509313,1.4784919,0.6202338,0.039999362,0.04,-0.003048689518037051,-0.004332558996329727,-0.0031747099653145483,-0.18009734345531953,0.09526565561660355,-0.11202723826767941,0.9712280473767502,-0.17299273602653145,-0.10946482161012444,-0.12168420645533085
1982.4499999985258,0.11430326,-0.45683783,0.08345525,-2.158326,-0.20689084,1.4776815,0.61878103,0.03999935,0.04,-0.0024682437685719094,-0.004126863348702381,-0.003430685445926507,-0.17976534359013993,0.09502655621980069,-0.11162360811260093,0.9707279232559819,-0.17451851877529462,-0.11039242560643298,-0.12265438428500693
1982.4666666651924,0.11529365,-0.45399684,0.08418015,-2.1566098,-0.20868477,1.4768732,0.6173316,0.039999347,0.04,-0.003251680681914948,-0.003948194092849577,-0.0038907997903514513,-0.17940792966550267,0.09477333731641188,-0.11120665777205371,0.9702247286997746,-0.1760406348743844,-0.11131744043755995,-0.12362078363650142
1982.483333331859,0.11628194,-0.45116207,0.08490349,-2.154897,-0.21047479,1.4760665,0.61588544,0.03999934,0.04,-0.001732194757231298,-0.003800562665828844,-0.003909615798702859,-0.1790295614073084,0.09450475708888081,-0.1107780856463373,0.9697185645946311,-0.1775589826157783,-0.11223952951834486,-0.12458331022443768
1982.4999999985257,0.117267966,-0.44833362,0.08562525,-2.153188,-0.21226072,1.4752616,0.6144422,0.039999325,0.04,-0.0023553754728622422,-0.003542366464684421,-0.004201609892406921,-0.17862845007071465,0.09422596652929666,-0.1103391982802396,0.9692094526490808,-0.17907359122306885,-0.11315885414735989,-0.12554186373556442
1982.5166666651924,0.118251614,-0.4455122,0.08634531,-2.1514835,-0.2140423,1.4744586,0.6130026,0.039999317,0.04,-0.00253130078897712,-0.0032292676460876635,-0.004965371646847849,-0.17820269055070848,0.09393076509317114,-0.10988563688514122,0.9686975244011732,-0.18058405109013562,-0.11407533554548716,-0.1264963419672619
1982.533333331859,0.1192328,-0.44269797,0.08706357,-2.1497831,-0.2158193,1.4736577,0.6115667,0.039999306,0.04,-0.0015922071984864061,-0.003263691417720871,-0.004591854571978082,-0.17775473083962046,0.09362210659989695,-0.10941987147863522,0.9681829146463572,-0.18209018621286252,-0.1149885473887007,-0.12744662349896224
1982.5499999985257,0.12021138,-0.4398913,0.08777997,-2.1480882,-0.2175915,1.4728589,0.6101347,0.0399993,0.04,-0.0033233787673836446,-0.002724622652994224,-0.0058378206862608195,-0.17728382849760532,0.09330164937840901,-0.10894219772061522,0.9676656338776934,-0.18359183757327652,-0.11589907429904496,-0.12839261180135567
1982.5666666651923,0.12118722,-0.4370925,0.088494405,-2.1463976,-0.21935871,1.4720625,0.60870665,0.03999929,0.04,-0.0010512880929791635,-0.002803966162856497,-0.004961032663475251,-0.17679072395187145,0.09296287209490052,-0.10845144225399667,0.9671458721083563,-0.18508884319197913,-0.11680601496729957,-0.12933420683284308
1982.583333331859,0.12216022,-0.43430206,0.08920679,-2.1447113,-0.22112074,1.4712682,0.607283,0.03999928,0.04,-0.0004630895223289855,-0.0025606510304143626,-0.005410461719446147,-0.17627430508721564,0.092613494545277,-0.10794942074931185,0.9666237677390175,-0.18658083203714432,-0.1177092363893788,-0.13027133386506057
1982.5999999985256,0.1231303,-0.43151996,0.08991706,-2.143031,-0.22287737,1.4704763,0.60586375,0.03999928,0.04,-0.003028411605288106,-0.0021920076657300225,-0.006366795243817336,-0.17573624893207626,0.09225432801671801,-0.10743412415426837,0.9660992909383781,-0.18806780314833002,-0.1186094586501338,-0.13120387870046424
1982.6166666651923,0.12409729,-0.4287468,0.09062512,-2.1413553,-0.22462831,1.4696871,0.604449,0.039999276,0.04,-0.0003752099587028823,-0.002237999058474216,-0.0056348956221086155,-0.1751759882804667,0.09187750864252522,-0.10690648896289977,0.9655726707612504,-0.18954955035003954,-0.1195056409369434,-0.13213170408851216
1982.633333331859,0.12506111,-0.42598286,0.091330886,-2.1396854,-0.2263734,1.4689006,0.60303897,0.039999265,0.04,-0.0014673986248103787,-0.001862469445917947,-0.0065323956895735336,-0.17459336969443595,0.09149062256301249,-0.10637034110808055,0.9650439571590566,-0.19102585950249004,-0.12039816066513757,-0.13305474309687612
1982.6499999985256,0.12602164,-0.42322847,0.09203427,-2.138021,-0.2281125,1.4681165,0.6016337,0.03999925,0.04,-0.0007112270956177724,-0.001614405452221579,-0.006631544751733998,-0.1739890721457628,0.09108908087387155,-0.10582237567805987,0.9645132561635694,-0.19249659441957298,-0.12128682903347904,-0.13397292608814257
1982.6666666651922,0.12697867,-0.4204839,0.09273518,-2.136363,-0.22984535,1.4673355,0.6002335,0.03999924,0.04,-0.0017838673985970388,-0.0012155991678253208,-0.007053684509683578,-0.1733621995791366,0.09067612192763655,-0.10526315983409434,0.963980660817027,-0.19396154461528467,-0.12217176059076224,-0.1348861212110958
1982.6833333318589,0.12793222,-0.4177496,0.09343354,-2.134711,-0.23157176,1.4665573,0.5988386,0.039999228,0.04,-0.00038111227513848434,-0.00125108899560189,-0.007120026024565185,-0.1727139970188522,0.09024715032342481,-0.10469309798036627,0.9634463312387587,-0.195420463551114,-0.12305251263345736,-0.13579428700293897
1982.6999999985255,0.1288821,-0.41502592,0.09412925,-2.133065,-0.23329146,1.4657823,0.5974491,0.039999213,0.04,-6.4780157238431e-06,-0.0010455878341641967,-0.0070090392827681924,-0.1720429986444773,0.08980869810609206,-0.10410720008105065,0.9629104038181564,-0.19687321803542498,-0.12392880445991934,-0.13669726282653202
1982.7166666651922,0.12982824,-0.41231307,0.09482226,-2.1314263,-0.23500428,1.4650099,0.59606516,0.0399992,0.04,-0.0018998606284181818,-0.0005037490353604346,-0.00858229484819173,-0.17135020235972698,0.08936030892130083,-0.10351116821729749,0.9623728560598657,-0.19831965884297356,-0.12480150374315294,-0.13759499808870682
1982.7333333318588,0.1307706,-0.40961137,0.09551248,-2.1297944,-0.23671001,1.4642411,0.5946868,0.039999187,0.04,-0.00029641677392611143,-0.0006993309364100586,-0.007554004321863594,-0.17063757823846057,0.08889289936927006,-0.10290513243065727,0.9618338916770558,-0.1997597160292236,-0.1256696549173591,-0.13848739475578806
1982.7499999985255,0.13170895,-0.4069212,0.09619981,-2.1281693,-0.23840852,1.4634758,0.5933144,0.039999176,0.04,-0.00014223699318360872,-0.00022248624912402093,-0.007996017896005903,-0.16990239052119263,0.08841365935733518,-0.10229038455504574,0.9612936441047258,-0.20119305387642109,-0.12653324520652734,-0.13937439769642532
1982.7666666651921,0.13264316,-0.40424287,0.09688419,-2.1265516,-0.24009949,1.4627134,0.59194803,0.039999157,0.04,-0.0005535063557493558,0.00017248439956318862,-0.008963768979275422,-0.16914661411338655,0.08792361785067475,-0.10166522422367352,0.960752172836309,-0.20261949595612455,-0.1273926753586644,-0.14025586801898526
1982.7833333318588,0.13357325,-0.40157667,0.09756557,-2.1249409,-0.24178278,1.4619545,0.5905879,0.039999146,0.04,0.000670919745959786,-4.001811484688478e-05,-0.008277018756586152,-0.16837091743120766,0.08741756270980092,-0.10102980880235796,0.960209660825705,-0.2040389328724277,-0.12824720537853088,-0.14113176623943502
1982.7999999985254,0.1344989,-0.3989229,0.09824379,-2.1233377,-0.2434582,1.4611994,0.5892341,0.03999914,0.04,6.372312677527248e-06,0.0006513713230044127,-0.00870505244008335,-0.16757380307754544,0.0869012684135752,-0.10038323061914453,0.9596662142547074,-0.2054511465629749,-0.12909695987594175,-0.14200196669337503
1982.816666665192,0.13542026,-0.39628187,0.09891884,-2.1217422,-0.24512555,1.4604481,0.5878868,0.039999135,0.04,0.00046117087728614337,0.0004110108901972387,-0.008934322280396145,-0.16675627060481157,0.08637477319586981,-0.0997272322168168,0.9591219273883307,-0.206856105604566,-0.12994176356079248,-0.14286643433542232
1982.8333333318587,0.13633704,-0.39365387,0.099590614,-2.1201546,-0.24678461,1.4597006,0.58654624,0.03999913,0.04,0.00044973399464520725,0.0010161923069018641,-0.009312787929816047,-0.1659173493004438,0.08583683038427722,-0.09906077285566128,0.958576938248482,-0.20825348097449023,-0.13078168213531405,-0.14372505953392847
1982.8499999985254,0.1372492,-0.39103934,0.10025904,-2.1185746,-0.24843523,1.4589568,0.58521235,0.039999124,0.04,0.0014492770255891685,0.001068074446611278,-0.00930453082002014,-0.16505858972441845,0.08528630838953952,-0.09838448387774704,0.9580313778810677,-0.2096432319520637,-0.1316163404475773,-0.14457777567518187
1982.866666665192,0.13815665,-0.38843843,0.10092402,-2.1170034,-0.2500772,1.4582169,0.5838855,0.039999112,0.04,-0.00015641034627478234,0.0015448692725072988,-0.010204853773210232,-0.1641794939850968,0.08472640739710012,-0.09770004904549319,0.957485298178714,-0.21102513606805434,-0.13244624963064586,-0.14542450508031632
1982.8833333318587,0.13905933,-0.38585147,0.101585515,-2.1154408,-0.25171027,1.4574809,0.5825658,0.0399991,0.04,0.0006718523999138526,0.0015492954164336714,-0.010153446928229393,-0.16328121117097727,0.08415262526007969,-0.09700632866254029,0.9569388451913148,-0.21239907383790574,-0.1332710820053067,-0.14626516570204787
1982.8999999985253,0.13995703,-0.3832788,0.10224342,-2.1138866,-0.25333437,1.4567487,0.5812534,0.039999098,0.04,0.001506136407591896,0.0020190586213941764,-0.010221873584970176,-0.1623630960094165,0.08356520120272354,-0.09630222014864535,0.9563921761509822,-0.21376477347088244,-0.13409063596241946,-0.14709972252633555
1982.916666665192,0.14084964,-0.38072065,0.102897696,-2.1123416,-0.25494927,1.4560205,0.5799484,0.039999086,0.04,0.0004420506904523336,0.0023370329578303872,-0.010939969626799773,-0.16142631673599317,0.08296621670763225,-0.09558863921678702,0.9558453423047403,-0.21512217271582848,-0.13490520858144162,-0.1479280808296818
1982.9333333318586,0.14173704,-0.37817737,0.10354824,-2.110805,-0.2565548,1.4552966,0.578651,0.039999068,0.04,0.002405556612905535,0.0023077687400563374,-0.01009394277182718,-0.16047134598874627,0.08235223654696774,-0.09486810987192525,0.9552985822157021,-0.21647107818442504,-0.13571394806214168,-0.14875017790822462
1982.9499999985253,0.14261927,-0.3756492,0.10419499,-2.1092775,-0.2581508,1.4545773,0.57736135,0.039999057,0.04,0.0016690934280694236,0.002482630636918559,-0.010642095535406959,-0.15949712737065758,0.08173149998101933,-0.09413825204485196,0.9547519677573852,-0.2178114058272084,-0.136517033752464,-0.149565942147283
1982.966666665192,0.14349627,-0.37313658,0.10483786,-2.1077604,-0.25973698,1.4538624,0.5760796,0.039999045,0.04,8.229956496297319e-05,0.002967598616968048,-0.011933987889700681,-0.1585024479829384,0.08110151169405842,-0.09339726515227689,0.9542055203928347,-0.21914304314441954,-0.13731503004710993,-0.15037531052803838
1982.9833333318586,0.14436771,-0.37063956,0.10547679,-2.106252,-0.2613132,1.4531518,0.5748058,0.039999034,0.04,0.003093064906600773,0.0030898842461657416,-0.010765298276016466,-0.1574884235120251,0.08045609010933077,-0.09264366329455252,0.9536595166356171,-0.2204657124079613,-0.13810705576112395,-0.15117816354144878
1982.9999999985253,0.14523362,-0.36815858,0.1061117,-2.1047533,-0.26287925,1.4524459,0.57354045,0.039999023,0.04,0.001918277085977138,0.0033345513319071873,-0.011531982024703957,-0.15645690932853357,0.07980164695626357,-0.09188502649596694,0.9531140538410923,-0.22177919641956953,-0.13889329270444814,-0.15197447696177757
1983.016666665192,0.1460939,-0.36569387,0.10674253,-2.103264,-0.26443508,1.4517441,0.5722831,0.039999012,0.04,0.002617264871829228,0.003672509362043219,-0.011842978164544604,-0.1554093339735827,0.07913642689673224,-0.09111922828907501,0.9525691768108118,-0.2230835950540681,-0.13967379744531458,-0.1527642082260446
1983.0333333318586,0.14694849,-0.36324567,0.1073692,-2.1017852,-0.2659805,1.4510474,0.57103425,0.039999,0.04,0.001969446097205285,0.0038350101298351147,-0.011728437005986692,-0.15434349035957612,0.07845971745443366,-0.09034742839233934,0.952025053219628,-0.22437867528853617,-0.14044832334531424,-0.15354731058346832
1983.0499999985252,0.14779733,-0.3608143,0.10799165,-2.1003165,-0.26751536,1.4503555,0.569794,0.039998986,0.04,0.0024191054495581454,0.004038510453951982,-0.012184481218180387,-0.15325935409320718,0.07777309670825396,-0.08956606166223308,0.951481784487143,-0.22566432543615653,-0.14121689970710197,-0.15432372873839115
1983.0666666651919,0.14864014,-0.35839993,0.10860982,-2.0988588,-0.26903936,1.4496683,0.56856257,0.039998975,0.04,0.0015433199092695915,0.004669302585580404,-0.012839431180844407,-0.1521583248153038,0.07707622221903043,-0.08877826981509472,0.950939470106066,-0.22694027654646312,-0.1419798874573291,-0.15509334812625963
1983.0833333318585,0.149477,-0.35600296,0.10922363,-2.0974102,-0.2705524,1.4489864,0.5673398,0.039998963,0.04,0.005089069933261747,0.004066973873373403,-0.01121167479516405,-0.15104101780768042,0.07636503514517218,-0.08798136660183356,0.9503983940599171,-0.2282065938828823,-0.14273582106869961,-0.15585611460750537
1983.0999999985252,0.15030782,-0.3536236,0.10983302,-2.095973,-0.2720543,1.4483092,0.56612605,0.039998956,0.04,0.001769437394405493,0.005054789428901585,-0.013494356093346482,-0.14990498114070622,0.07565133941383415,-0.087178457357772,0.9498584792947864,-0.22946302659815596,-0.1434861130502319,-0.156612017731545
1983.1166666651918,0.15113245,-0.35126206,0.110437885,-2.0945473,-0.273545,1.4476371,0.56492156,0.039998952,0.04,0.0021392371512218844,0.005305840147290519,-0.013217774774298974,-0.1487531326110076,0.07492238668057596,-0.08636673826054701,0.9493198906779521,-0.2307094199590112,-0.14423044471858745,-0.15736101016978804
1983.1333333318585,0.15195076,-0.34891862,0.111038215,-2.0931325,-0.27502424,1.4469706,0.5637262,0.039998937,0.04,0.0032866232761330494,0.005251370202161154,-0.012674657706779335,-0.1475855895717324,0.0741820396082343,-0.0855472977968144,0.9487828008413702,-0.23194577663600202,-0.1449682547363948,-0.1581030001202079
1983.1499999985251,0.15276274,-0.34659347,0.11163395,-2.0917277,-0.27649185,1.446309,0.5625403,0.03999893,0.04,0.004982357296134943,0.005311766469298651,-0.012687381441245371,-0.14640111380462367,0.0734332687830116,-0.08472225899948634,0.948247401551265,-0.2331717849363758,-0.1456993145660282,-0.15883794853827587
1983.1666666651918,0.15356827,-0.34428692,0.11222499,-2.0903335,-0.2779477,1.4456527,0.5613638,0.039998915,0.04,0.004751201690078588,0.005625896043226497,-0.012782470022054682,-0.14520162785902957,0.07267858245752587,-0.08389056706275137,0.9477138004802271,-0.23438742801164583,-0.14642351560914718,-0.15956578595070933
1983.1833333318584,0.15436728,-0.34199926,0.1128113,-2.0889513,-0.27939168,1.4450017,0.56019694,0.039998904,0.04,0.0027111741315977156,0.00626109364601779,-0.014160608759583582,-0.1439862977677176,0.07191705860891082,-0.08305470585777168,0.9471819773943589,-0.23559262212634172,-0.14714159704409552,-0.16028652007658067
1983.199999998525,0.15515971,-0.33973074,0.11339281,-2.0875812,-0.28082365,1.4443563,0.55903983,0.03999889,0.04,0.0034662218857173244,0.006330042481259013,-0.013841661262370408,-0.14275496298184198,0.07114427296452772,-0.08220793208640079,0.9466521077297485,-0.23678723716025749,-0.147853162344668,-0.16100010445188495
1983.2166666651917,0.15594545,-0.3374814,0.11396945,-2.0862224,-0.2822433,1.4437164,0.5578927,0.03999888,0.04,0.004254927855251722,0.0063919983220417365,-0.0136686275088449,-0.14150768240700212,0.07036321067775309,-0.08135257894893483,0.9461243636047202,-0.23797108759075605,-0.1485580232387827,-0.1617064123522044
1983.2333333318584,0.15672445,-0.33525148,0.11454122,-2.0848753,-0.28365082,1.443082,0.5567555,0.039998874,0.04,0.004300984689997733,0.006760890838625189,-0.01388059958074006,-0.1402474605018865,0.06957184603963962,-0.08049428160090388,0.9455988031632735,-0.239144150151872,-0.14925620973629297,-0.16240555027301085
1983.249999998525,0.15749656,-0.3330414,0.115107976,-2.0835402,-0.2850457,1.4424531,0.55562824,0.039998867,0.04,0.004548454445885142,0.007027926710914678,-0.014202653128170262,-0.13897279092033316,0.06877158683577422,-0.07963055098535879,0.9450755882641492,-0.24030629760349492,-0.1499476064342871,-0.16309730569172814
1983.2666666651917,0.15826179,-0.33085126,0.11566972,-2.0822177,-0.28642794,1.44183,0.554511,0.03999885,0.04,0.0036750601707824515,0.007213806681855006,-0.014662955615296625,-0.13768425688657981,0.06796274228129766,-0.07876181666911403,0.9445547439663022,-0.2414575581923504,-0.15063247018457426,-0.1637816905781417
1983.2833333318583,0.15901995,-0.32868132,0.11622635,-2.0809069,-0.28779748,1.4412127,0.5534044,0.03999884,0.04,0.00554380019790468,0.007520361314683477,-0.014069753097789572,-0.1363807413019364,0.06714347225048753,-0.07788738530883106,0.9440365571012573,-0.24259746443581628,-0.15131019161968157,-0.1644587334796567
1983.299999998525,0.15977111,-0.3265318,0.11677787,-2.0796087,-0.28915414,1.4406011,0.552308,0.039998833,0.04,0.004456581906309154,0.007606251379693729,-0.014784725393357512,-0.1350655186320871,0.0663178875471317,-0.07700732356764012,0.9435209937431596,-0.2437262731148925,-0.15198111826222815,-0.1651283677967179
1983.3166666651916,0.16051511,-0.32440284,0.11732418,-2.0783234,-0.29049775,1.4399952,0.55122226,0.039998822,0.04,0.004330435790955711,0.008099793262056343,-0.015187818255846253,-0.13373633122830786,0.06548416853935742,-0.07612289327562499,0.943008187959764,-0.24484368560164155,-0.1526454183339386,-0.16579054051273162
1983.3333333318583,0.16125189,-0.32229477,0.11786528,-2.07705,-0.29182836,1.4393957,0.5501472,0.039998814,0.04,0.006355277833591799,0.007907288782724176,-0.014002596591233818,-0.13239467237108687,0.06463879289607102,-0.07523098269127154,0.9424983784710088,-0.2459496701963977,-0.1533020726533026,-0.16644530882546305
1983.349999998525,0.16198143,-0.32020766,0.11840107,-2.0757895,-0.29314566,1.4388019,0.54908264,0.039998807,0.04,0.004972674954006884,0.008360372006738226,-0.015288770433463661,-0.13104026973948413,0.06379169198755123,-0.07433643879795708,0.9419915337007623,-0.24704422511653087,-0.1539519040468046,-0.16709252680183526
1983.3666666651916,0.16270365,-0.3181417,0.11893151,-2.0745423,-0.29444957,1.4382142,0.5480289,0.039998803,0.04,0.004643463429765404,0.008688230324307988,-0.015420330518689518,-0.12967307492917649,0.06293377568522532,-0.07343597862825252,0.9414877664793526,-0.24812722048440622,-0.15459487803578806,-0.16773220236288103
1983.3833333318582,0.1634184,-0.31609702,0.11945658,-2.0733075,-0.29573986,1.4376326,0.5469861,0.039998796,0.04,0.006246478518234788,0.008596531214252745,-0.014832128935249322,-0.1282932279408811,0.062067703969675134,-0.07253003612070583,0.9409872993175012,-0.24919847171770132,-0.15523048569148565,-0.1683642495564393
1983.399999998525,0.16412573,-0.31407404,0.11997616,-2.0720859,-0.29701653,1.437057,0.54595435,0.039998785,0.04,0.005855345272243184,0.00904021752771711,-0.01548745093771231,-0.1269025876421303,0.061196017245040944,-0.0716214027847951,0.9404901875798513,-0.25025793226436627,-0.15585888862781705,-0.1689887015172372
1983.4166666651915,0.16482548,-0.31207278,0.12049028,-2.0708773,-0.2982795,1.4364877,0.54493374,0.039998773,0.04,0.005959364514462884,0.009220758265601758,-0.015401314496932272,-0.1255008112787132,0.06031707890071579,-0.07070843203059131,0.9399965411528345,-0.2513055119821431,-0.1564800309983302,-0.1696055487502161
1983.4333333318582,0.16551764,-0.3100933,0.120998874,-2.0696821,-0.29952863,1.4359246,0.54392415,0.03999876,0.04,0.005742797066088379,0.009417940492623122,-0.015504578741087904,-0.12408674308089013,0.059433782793266665,-0.06978906938737453,0.9395064211306848,-0.25234125698571735,-0.1570939764393853,-0.17021473862019754
1983.4499999985248,0.16620219,-0.308136,0.12150187,-2.0685008,-0.30076393,1.4353678,0.5429259,0.03999875,0.04,0.005620057251376487,0.009828652721174946,-0.016057060596352812,-0.12266158534240289,0.05854289239611517,-0.06886562723019302,0.9390199199835993,-0.253364988562802,-0.15770083762894116,-0.1708163290077861
1983.4666666651915,0.16687901,-0.30620086,0.12199927,-2.0673313,-0.30198506,1.4348172,0.5419391,0.03999874,0.04,0.008514001928072723,0.009342913412124787,-0.014804633791087873,-0.12122742507218986,0.05764276504236572,-0.06793943514503575,0.938537345108871,-0.25437653222445533,-0.1582996736996776,-0.17141016596464814
1983.4833333318581,0.16754802,-0.3042882,0.12249102,-2.066176,-0.30319202,1.4342731,0.5409636,0.039998733,0.04,0.0058240766001915745,0.01017989655029694,-0.016102132553719173,-0.11978334931776376,0.056742220968841045,-0.06701175873080761,0.9380586044775575,-0.25537599284374096,-0.15889126727736688,-0.17199628492407387
1983.4999999985248,0.16820921,-0.30239812,0.12297703,-2.0650346,-0.30438477,1.4337356,0.5399996,0.03999873,0.04,0.006013986135089411,0.010340478698950273,-0.01613194644167759,-0.11832920279101646,0.05583499390136791,-0.06608157892839286,0.9375838040964362,-0.25636327075878407,-0.15947557919457436,-0.1725746891710048
1983.5166666651915,0.16886255,-0.3005307,0.12345732,-2.063907,-0.30556324,1.4332042,0.5390473,0.039998718,0.04,0.006930330203314128,0.010489359396570475,-0.016202422268452032,-0.11686575718747497,0.05491964556683719,-0.06514681631162733,0.9371130685535145,-0.2573381976810504,-0.16005255443427605,-0.17314539722310787
1983.533333331858,0.16950792,-0.29868612,0.12393183,-2.0627933,-0.30672723,1.4326795,0.5381066,0.039998706,0.04,0.006495356333990898,0.010614232198319362,-0.016068779389089016,-0.11539449385316931,0.05399909689516575,-0.0642092935391079,0.9366464986638132,-0.2583008268312538,-0.16062204394073246,-0.17370831413438922
1983.5499999985248,0.17014535,-0.2968645,0.12440055,-2.0616927,-0.30787668,1.4321615,0.53717774,0.039998703,0.04,0.008166198225834087,0.01049399560553721,-0.01564466908041684,-0.11391414580636577,0.05307201019297922,-0.06326898317855566,0.936184275265634,-0.25925101744560874,-0.16118362479067738,-0.17426345514224859
1983.5666666651914,0.17077473,-0.29506606,0.1248634,-2.0606065,-0.30901158,1.4316502,0.5362606,0.03999869,0.04,0.006750569136082518,0.011103715280785798,-0.01633116791499578,-0.11242552029726331,0.05214497738089792,-0.062327868666371584,0.935726388409867,-0.26018879887067436,-0.16173771045500124,-0.1748108348828435
1983.583333331858,0.17139608,-0.2932908,0.1253204,-2.059535,-0.31013185,1.431145,0.5353552,0.039998684,0.04,0.006115468763590037,0.01143958233905118,-0.017233496668311865,-0.11092861917034914,0.051211468424567204,-0.061383684208899,0.9352728155627136,-0.26111414373632524,-0.1622848805916556,-0.1753504546375402
1983.5999999985247,0.1720093,-0.29153892,0.12577148,-2.058477,-0.31123734,1.4306463,0.53446186,0.039998677,0.04,0.008579850394951904,0.011182451962410411,-0.01594347815210284,-0.10942403487172118,0.05026936064835757,-0.06043594121209115,0.9348238772830266,-0.2620268246101251,-0.16282410941940698,-0.17588226470579885
1983.6166666651914,0.17261435,-0.28981048,0.12621658,-2.0574331,-0.31232795,1.4301547,0.5335804,0.03999867,0.04,0.0072873525591932165,0.011488255980868223,-0.016255274325183144,-0.10791350291218807,0.04932407954482959,-0.05948749987192105,0.9343795746579674,-0.26292695618600564,-0.16335565202468075,-0.17640622756680038
1983.633333331858,0.17321122,-0.28810564,0.12665573,-2.0564036,-0.31340364,1.4296697,0.5327111,0.03999866,0.04,0.007591411738627762,0.011619859061351434,-0.016606655831674644,-0.10639525323204888,0.048376962618698165,-0.05853679013883243,0.9339399857987275,-0.26381443247095226,-0.16387959338455363,-0.17692237568610547
1983.6499999985247,0.17379986,-0.28642446,0.12708883,-2.0553887,-0.3144644,1.4291917,0.53185385,0.039998654,0.04,0.007408710087419834,0.011936130099834963,-0.016573760116322944,-0.10487102921716644,0.04742470186885443,-0.057585076238923824,0.9335051841336962,-0.26468923538357375,-0.1643959308287173,-0.17743071265858287
1983.6666666651913,0.17438023,-0.2847671,0.12751597,-2.0543885,-0.31551015,1.4287204,0.5310088,0.039998647,0.04,0.007325562862514623,0.012068768396855667,-0.016994052810970217,-0.10334030051372213,0.046470410151155064,-0.05663152778235057,0.9330752079266672,-0.26555134393252017,-0.16490483212785498,-0.17793126883469151
1983.683333331858,0.17495233,-0.28313357,0.12793699,-2.0534022,-0.31654093,1.4282554,0.53017575,0.039998636,0.04,0.008831866213365736,0.012225668511431365,-0.016459263364843046,-0.1018021730299949,0.045510524505095934,-0.05567179386980966,0.9326502051676461,-0.2664006898856084,-0.1654059694861491,-0.17842402441254007
1983.6999999985246,0.17551602,-0.28152403,0.12835196,-2.0524306,-0.31755644,1.4277976,0.52935505,0.039998632,0.04,0.007671401243247722,0.012308558386170398,-0.01679020237523865,-0.10025962384367251,0.044548646623691845,-0.05471354145873016,0.9322302533974025,-0.267237215699289,-0.16589944758710784,-0.17890891114251053
1983.7166666651913,0.17607138,-0.27993858,0.12876084,-2.0514736,-0.3185569,1.4273463,0.5285466,0.039998624,0.04,0.008266044880178569,0.012553535498940893,-0.016861393246236922,-0.09871370488168721,0.04358276758729355,-0.05375651978219388,0.9318153807414055,-0.268060949981587,-0.16638529667271817,-0.17938605397257115
1983.733333331858,0.17661835,-0.27837718,0.12916361,-2.05053,-0.31954202,1.4269024,0.52775043,0.039998617,0.04,0.009979223007339222,0.012042134296580409,-0.015601425717526318,-0.09716336927450414,0.04261294948412517,-0.0527987064302063,0.9314058453329327,-0.26887183577769896,-0.16686267711729427,-0.1798553146015558
1983.7499999985246,0.17715693,-0.2768399,0.12956025,-2.0496013,-0.32051182,1.4264653,0.52696663,0.039998606,0.04,0.007724799166730634,0.012803022119978191,-0.017147727262334378,-0.095608407365431,0.04164741728637987,-0.05184385573464445,0.9310015133696525,-0.26966989047527806,-0.16733260626578075,-0.18031675228544258
1983.7666666651912,0.17768706,-0.27532694,0.12995069,-2.048688,-0.32146633,1.4260349,0.5261951,0.039998595,0.04,0.007670736168652326,0.013146483619844163,-0.01733124410925324,-0.09404964187965148,0.04067675014743733,-0.050887741403146836,0.9306024306019794,-0.27045511107110326,-0.1677951546230839,-0.180770393422763
1983.7833333318579,0.17820874,-0.27383828,0.13033499,-2.0477884,-0.32240552,1.4256116,0.52543604,0.03999859,0.04,0.009876949416542935,0.012703539992992008,-0.016146245980830365,-0.09248714630522567,0.03970290167379791,-0.04992986335584795,0.9302088323526853,-0.27122740051476724,-0.1682494914276237,-0.18121626322546724
1983.7999999985245,0.17872193,-0.272374,0.13071309,-2.046904,-0.32332936,1.4251953,0.5246895,0.039998587,0.04,0.00792931380855233,0.013280525021772127,-0.017159752574280596,-0.09092204902543213,0.03873124577267072,-0.04897480011582367,0.9298206498665309,-0.2719867742026866,-0.16869629930775853,-0.18165437605647164
1983.8166666651912,0.17922668,-0.27093402,0.131085,-2.0460346,-0.32423776,1.4247857,0.5239553,0.039998583,0.04,0.008529217087405172,0.013232991611514255,-0.01706403261352296,-0.08935472011597395,0.03775536688610605,-0.048018894378946034,0.9294379307401422,-0.27273329105100624,-0.16913559087570565,-0.18208469664718008
1983.8333333318578,0.17972288,-0.26951846,0.13145068,-2.0451796,-0.32513085,1.4243832,0.5232338,0.03999858,0.04,0.009203729253326465,0.01340852036207374,-0.016612427394901985,-0.08778518804684345,0.03677802342219255,-0.047064002944048534,0.9290608379680448,-0.27346676101957895,-0.16956699301689665,-0.1825073282111772
1983.8499999985245,0.18021055,-0.2681274,0.13181017,-2.0443397,-0.32600844,1.4239874,0.52252454,0.039998572,0.04,0.00860517494720714,0.01351394408102835,-0.017193942559923237,-0.08621423979058482,0.035800866183515,-0.04610814891399485,0.9286893142767791,-0.2741874054546268,-0.16999087608648433,-0.18292218642235658
1983.8666666651911,0.18068969,-0.26676086,0.1321634,-2.0435145,-0.3268707,1.4235986,0.5218279,0.039998565,0.04,0.009071898179469073,0.013668469379884973,-0.016765174807820138,-0.08464235765070569,0.03482128823244643,-0.04515552792177458,0.9283234785067768,-0.2748950890607128,-0.17040699390360864,-0.1833293912391468
1983.8833333318578,0.18116029,-0.2654187,0.13251045,-2.042704,-0.3277174,1.423217,0.5211435,0.03999856,0.04,0.008934678193694978,0.01345256013794982,-0.016703593849287657,-0.08306948498385311,0.03384262055175848,-0.04420230927103926,0.9279633499869839,-0.27559000494040103,-0.17081537545177938,-0.18372881583233383
1983.8999999985244,0.18162236,-0.26410115,0.13285124,-2.0419085,-0.32854855,1.4228423,0.52047175,0.039998557,0.04,0.009265726804019714,0.013765190292064355,-0.016999949652984903,-0.08149527660864041,0.03286333610646744,-0.04325255477284368,0.927609021667126,-0.2762719302569512,-0.17121608854957143,-0.18412054338297235
1983.916666665191,0.18207587,-0.26280802,0.1331858,-2.0411277,-0.3293643,1.4224746,0.51981246,0.03999855,0.04,0.00914934029099257,0.013800299290822604,-0.016619910237447577,-0.07992161778142934,0.03188413305274798,-0.04230360773827157,0.9272605075789273,-0.2769410105757623,-0.17160905783650535,-0.18450463141670093
1983.9333333318577,0.18252084,-0.26153943,0.13351412,-2.0403621,-0.33016458,1.4221138,0.5191656,0.039998546,0.04,0.008621592904001218,0.014110207517778472,-0.01725859985564071,-0.07834821663528835,0.030905130430680234,-0.041357191231249875,0.9269177878296014,-0.27759725708795424,-0.17199466535793922,-0.1848810767783791
1983.9499999985244,0.18295726,-0.2602954,0.13383617,-2.039611,-0.33094943,1.4217601,0.51853126,0.03999854,0.04,0.009782771935329393,0.013917951735434309,-0.016462938877137567,-0.07677561692246423,0.029925302510341385,-0.04041266430928113,0.9265810282617654,-0.27824059987930133,-0.17237237102539635,-0.1852499186268627
1983.966666665191,0.18338515,-0.25907567,0.13415195,-2.0388746,-0.33171877,1.421413,0.5179094,0.039998535,0.04,0.009460479963818713,0.0140946753925425,-0.016811363082225306,-0.0752041094935353,0.028948827652388324,-0.03947043326424278,0.9262501975756323,-0.27887106592019534,-0.17274260067641786,-0.18561113650636352
1983.9833333318577,0.18380453,-0.25788048,0.13446149,-2.0381532,-0.3324727,1.4210731,0.5173,0.03999852,0.04,0.009170141738157334,0.014088999421049686,-0.016669999760976495,-0.07363375277295145,0.027973145566151988,-0.03852749323929986,0.9259253342294665,-0.2794887741242668,-0.17310514519579465,-0.18596480655572523
1983.9999999985243,0.18421537,-0.25670967,0.1347649,-2.0374467,-0.3332113,1.4207401,0.5167032,0.0399985,0.04,0.009017161703517296,0.014185062000240944,-0.016859087342369072,-0.07206613062643226,0.026997996077365263,-0.037589968916673204,0.9256064404522995,-0.2800936833363885,-0.17346024229413476,-0.18631100421483132
1984.016666665191,0.18461765,-0.25556323,0.13506205,-2.036755,-0.33393452,1.4204142,0.5161187,0.039998498,0.04,0.009411608752141198,0.014307873481175792,-0.016562536599407096,-0.07050155093509172,0.02602516610071788,-0.036654985812877953,0.9252935744085579,-0.2806858690303253,-0.17380776152076857,-0.1866496882399355
1984.0333333318576,0.18501145,-0.2544411,0.13535297,-2.0360775,-0.33464238,1.4200952,0.5155466,0.03999849,0.04,0.010422616891747616,0.014136128334171771,-0.01610241048040084,-0.06894021083210046,0.025052437760314655,-0.035724611116120346,0.9249868341891732,-0.28126530189081383,-0.1741474401809726,-0.18698089637012436
1984.0499999985243,0.18539676,-0.25334316,0.13563772,-2.0354142,-0.33533484,1.4197831,0.5149869,0.03999849,0.04,0.009891843318055038,0.014081835873869242,-0.01623128228722681,-0.06738217002143634,0.024086547041774826,-0.03479855065557684,0.9246861992812804,-0.2818320833021937,-0.17447947631391736,-0.18730462360952793
1984.066666665191,0.18577364,-0.2522696,0.13591623,-2.0347652,-0.33601207,1.4194778,0.5144395,0.039998487,0.04,0.01029754819794615,0.014344673856123147,-0.01633350352649998,-0.06582835611959201,0.02312363493375575,-0.03387781740096654,0.9243917150676396,-0.2823861622042348,-0.1748038277050016,-0.18762098584527087
1984.0833333318576,0.18614203,-0.25122002,0.1361886,-2.034131,-0.3366741,1.4191793,0.5139044,0.03999848,0.04,0.009091579719666676,0.014507857767057097,-0.01649507973391362,-0.0642792013510025,0.022165875749940056,-0.03296055734799379,0.9241032939678706,-0.28292768835155885,-0.17512093801712073,-0.18792999310854683
