rsonawane2002/My_IMU/logs_2/traj_430/imu_400hz_430.csv
time,j1,j2,j3,j4,j5,j6,j7,gripper1,gripper2,imu_ax,imu_ay,imu_az,imu_gx,imu_gy,imu_gz
0.0,0.00016700293,-0.785875,4.0107683e-05,-2.3551247,9.29385e-05,1.570997,0.786,0.04,0.04,-9.510341,-0.010563813149929,0.08002018,3.8550084e-07,-0.0011641274904832,2.9389943e-07
0.0025,0.00016700381200000002,-0.7858577739999998,4.010907995000002e-05,-2.3551391900000005,9.294292050000007e-05,1.570996565,0.786,0.04,0.04,-9.558963200000708,-0.008881755208106412,0.06937737009984513,2.2896978299772214e-07,-0.0013251611904729886,3.3178961150055137e-07
0.005,0.00016700469400000002,-0.7858405479999995,4.011047690000004e-05,-2.355153680000001,9.294734100000013e-05,1.57099613,0.786,0.04,0.04,-9.607585400001415,-0.0071996972662838245,0.058734560199690256,7.24387259954443e-08,-0.0014861948904627768,3.6967979300110273e-07
0.0075,0.00016700557600000005,-0.7858233219999993,4.011187385000006e-05,-2.3551681700000007,9.29517615000002e-05,1.570995695,0.786,0.04,0.04,-9.656207600002123,-0.005517639324461238,0.04809175029953538,-8.409233100683348e-08,-0.0016472285904525652,4.075699745016541e-07
0.01,0.00016700645800000005,-0.7858060959999991,4.011327080000008e-05,-2.355182660000001,9.295618200000026e-05,1.57099526,0.786,0.04,0.04,-9.70482980000283,-0.00383558138263865,0.03744894039938051,-2.406233880091114e-07,-0.0018082622904423535,4.4546015600220547e-07
0.0125,0.00016700734000000007,-0.7857888699999988,4.01146677500001e-05,-2.3551971500000013,9.296060250000032e-05,1.570994825,0.786,0.04,0.04,-9.753452000003538,-0.0021535234408160634,0.02680613049922563,-3.9715444501138927e-07,-0.001969295990432142,4.833503375027569e-07
0.015,0.00016700822200000007,-0.7857716439999985,4.011606470000012e-05,-2.3552116400000016,9.29650230000004e-05,1.57099439,0.786,0.04,0.04,-9.802074200004245,-0.0004714654989934758,0.01616332059907076,-5.536855020136669e-07,-0.0021303296904219304,5.212405190033082e-07
0.0175,0.0001670101745000004,-0.7857548569999985,4.0118254950000365e-05,-2.3552257350000017,9.296722349999979e-05,1.57099396,0.786,0.04,0.04,-9.834384199999969,0.0006507204176161677,0.008997801974979474,-8.56926993058065e-07,-0.0022870600805761053,4.1485784796156686e-07
0.02,0.0001670142680000004,-0.7857389479999984,4.012203180000037e-05,-2.3552390400000016,9.296498399999978e-05,1.57099354,0.786,0.04,0.04,-9.834069799999968,0.0006531622842887598,0.008786865899979282,-1.4535893520586073e-06,-0.0024351838510628097,1.9929471961207887e-08
0.0225,0.0001670183615000004,-0.7857230389999984,4.0125808650000375e-05,-2.3552523450000016,9.296274449999979e-05,1.57099312,0.786,0.04,0.04,-9.83375539999997,0.0006556041509613521,0.00857592982497909,-2.0502517110591495e-06,-0.002583307621549514,-3.749989040391512e-07
0.025,0.00016702245500000042,-0.7857071299999985,4.012958550000038e-05,-2.355265650000001,9.296050499999978e-05,1.5709927,0.786,0.04,0.04,-9.833440999999969,0.0006580460176339443,0.008364993749978898,-2.6469140700596926e-06,-0.002731431392036219,-7.699272800395108e-07
0.0275,0.0001670265485000004,-0.7856912209999984,4.0133362350000384e-05,-2.355278955000001,9.295826549999978e-05,1.57099228,0.786,0.04,0.04,-9.833126599999968,0.0006604878843065365,0.008154057674978706,-3.2435764290602347e-06,-0.0028795551625229237,-1.1648556560398698e-06
0.03,0.00016703064200000042,-0.7856753119999984,4.013713920000039e-05,-2.355292260000001,9.295602599999978e-05,1.57099186,0.786,0.04,0.04,-9.832812199999967,0.0006629297509791287,0.007943121599978514,-3.840238788060778e-06,-0.003027678933009628,-1.5597840320402285e-06
0.0325,0.0001670347355000004,-0.7856594029999984,4.0140916050000386e-05,-2.355305565000001,9.295378649999977e-05,1.57099144,0.786,0.04,0.04,-9.832497799999967,0.000665371617651721,0.007732185524978322,-4.436901147061321e-06,-0.003175802703496333,-1.9547124080405883e-06
0.035,0.0001670445900000012,-0.7856443399999986,4.014899550000097e-05,-2.3553181000000007,9.29403149999982e-05,1.57099101,0.786,0.04,0.04,-9.832223999999975,0.0006714547285816876,0.007529957519981283,-5.720520640153905e-06,-0.003315639891674485,-2.8569551801093354e-06
0.0375,0.00016705732500000103,-0.7856296999999988,4.015922625000084e-05,-2.3553302500000006,9.292122749999844e-05,1.570990575,0.786,0.04,0.04,-9.83197049999998,0.0006793584616394969,0.007332083549983803,-7.3476187001331835e-06,-0.003451333788700282,-4.012855150094615e-06
0.04,0.00016707006000000088,-0.785615059999999,4.016945700000071e-05,-2.3553424000000005,9.290213999999868e-05,1.57099014,0.786,0.04,0.04,-9.831716999999982,0.0006872621946973064,0.007134209579986323,-8.974716760112467e-06,-0.0035870276857260797,-5.168755120079898e-06
0.0425,0.0001670827950000007,-0.7856004199999992,4.017968775000058e-05,-2.3553545500000004,9.288305249999892e-05,1.570989705,0.786,0.04,0.04,-9.831463499999986,0.0006951659277551158,0.006936335609988842,-1.0601814820091752e-05,-0.0037227215827518767,-6.324655090065181e-06
0.045,0.00016709553000000056,-0.7855857799999993,4.018991850000045e-05,-2.3553667000000003,9.286396499999916e-05,1.57098927,0.786,0.04,0.04,-9.831209999999988,0.0007030696608129251,0.006738461639991361,-1.222891288007103e-05,-0.0038584154797776738,-7.480555060050461e-06
0.0475,0.0001671082650000004,-0.7855711399999995,4.020014925000032e-05,-2.35537885,9.28448774999994e-05,1.570988835,0.786,0.04,0.04,-9.830956499999992,0.0007109733938707344,0.00654058766999388,-1.3856010940050312e-05,-0.003994109376803471,-8.636455030035744e-06
0.05,0.00016712100000000054,-0.7855564999999998,4.0210380000000416e-05,-2.355391,9.282578999999907e-05,1.5709884,0.786,0.04,0.04,-9.830702999999994,0.000718877126928597,0.006342713699997124,-1.548310900005523e-05,-0.004129803273829049,-9.7923550000408e-06
0.0525,0.00016715030250000096,-0.7855429624999996,4.023291900000074e-05,-2.3554021000000005,9.277519574999834e-05,1.57098798,0.786,0.04,0.04,-9.83042324999999,0.0007297050004129845,0.006184646444994824,-1.8519277150099406e-05,-0.004253429430540928,-1.2035180950073433e-05
0.055,0.0001671796050000014,-0.7855294249999993,4.025545800000107e-05,-2.3554132000000005,9.27246014999976e-05,1.57098756,0.786,0.04,0.04,-9.830143499999986,0.0007405328738973721,0.006026579189992524,-2.1555445300143594e-05,-0.004377055587252807,-1.4278006900106071e-05
0.0575,0.0001672089075000018,-0.7855158874999991,4.02779970000014e-05,-2.3554243000000006,9.267400724999687e-05,1.57098714,0.786,0.04,0.04,-9.829863749999982,0.0007513607473817597,0.005868511934990224,-2.459161345018778e-05,-0.004500681743964686,-1.6520832850138712e-05
0.06,0.00016723821000000222,-0.785502349999999,4.0300536000001725e-05,-2.355435400000001,9.262341299999614e-05,1.57098672,0.786,0.04,0.04,-9.829583999999977,0.0007621886208661472,0.005710444679987924,-2.7627781600231956e-05,-0.004624307900676565,-1.8763658800171344e-05
0.0625,0.00016726751250000266,-0.7854888124999988,4.032307500000205e-05,-2.355446500000001,9.25728187499954e-05,1.5709863,0.786,0.04,0.04,-9.829304249999973,0.0007730164943505349,0.005552377424985624,-3.066394975027614e-05,-0.0047479340573884435,-2.1006484750203982e-05
0.065,0.00016729681500000308,-0.7854752749999986,4.034561400000238e-05,-2.355457600000001,9.252222449999466e-05,1.57098588,0.786,0.04,0.04,-9.829024499999969,0.0007838443678349224,0.005394310169983324,-3.3700117900320325e-05,-0.004871560214100323,-2.3249310700236623e-05
0.0675,0.00016733501200000647,-0.7854620674999986,4.037473840000488e-05,-2.355468335000001,9.245496574998838e-05,1.570985455,0.786,0.04,0.04,-9.828758499999973,0.0007956264598776263,0.005240261384983134,-3.736605050056893e-05,-0.004991412884568637,-2.5952258350418507e-05
0.07,0.0001673909980000065,-0.7854495199999986,4.041703360000492e-05,-2.3554783400000012,9.235437799998829e-05,1.57098502,0.786,0.04,0.04,-9.828519999999973,0.0008093169890359738,0.005094249539983001,-4.2291512000573414e-05,-0.0051037185825537346,-2.9575449400421804e-05
0.0725,0.00016744698400000655,-0.7854369724999986,4.045932880000496e-05,-2.3554883450000013,9.22537902499882e-05,1.570984585,0.786,0.04,0.04,-9.828281499999973,0.0008230075181943213,0.004948237694982869,-4.721697350057787e-05,-0.0052160242805388305,-3.3198640450425084e-05
0.075,0.00016750297000000662,-0.7854244249999985,4.0501624000005e-05,-2.3554983500000013,9.21532024999881e-05,1.57098415,0.786,0.04,0.04,-9.828042999999973,0.0008366980473526687,0.004802225849982736,-5.214243500058235e-05,-0.005328329978523928,-3.6821831500428385e-05
0.0775,0.00016755895600000667,-0.7854118774999985,4.054391920000504e-05,-2.355508355000001,9.205261474998802e-05,1.570983715,0.786,0.04,0.04,-9.827804499999973,0.0008503885765110162,0.004656214004982603,-5.7067896500586835e-05,-0.005440635676509025,-4.044502255043168e-05
0.08,0.0001676149420000067,-0.7853993299999985,4.0586214400005075e-05,-2.355518360000001,9.195202699998793e-05,1.57098328,0.786,0.04,0.04,-9.827565999999972,0.0008640791056693637,0.0045102021599824705,-6.199335800059132e-05,-0.005552941374494123,-4.406821360043498e-05
0.0825,0.00016767092800000678,-0.7853867824999985,4.0628509600005116e-05,-2.355528365000001,9.185143924998784e-05,1.570982845,0.786,0.04,0.04,-9.827327499999972,0.000877769634827711,0.0043641903149823375,-6.69188195005958e-05,-0.00566524707247922,-4.769140465043828e-05
0.085,0.00016775280700001243,-0.7853748199999985,4.068991220000929e-05,-2.355537780000001,9.170275699997738e-05,1.57098241,0.78599981,0.04,0.04,-9.827106199999973,0.000893455510961155,0.004227770529982761,-7.33836340009475e-05,-0.0057701318990570905,-5.241173850069007e-05
0.08750000000000001,0.0001678476325000138,-0.7853631499999983,4.076086850001032e-05,-2.355546900000001,9.153002749997487e-05,1.570981975,0.785999525,0.04,0.04,-9.82689349999997,0.0009101390605816029,0.004096146774980846,-8.061812500105278e-05,-0.005871306289933373,-5.768064375076675e-05
0.09,0.0001679424580000152,-0.7853514799999982,4.083182480001136e-05,-2.355556020000001,9.135729799997235e-05,1.57098154,0.78599924,0.04,0.04,-9.826680799999966,0.0009268226102020506,0.003964523019978931,-8.785261600115801e-05,-0.005972480680809655,-6.29495490008434e-05
0.0925,0.00016803728350001657,-0.785339809999998,4.090278110001239e-05,-2.3555651400000017,9.118456849996984e-05,1.570981105,0.7859989549999999,0.04,0.04,-9.826468099999962,0.0009435061598224984,0.0038328992649770154,-9.508710700126331e-05,-0.006073655071685937,-6.821845425092007e-05
0.095,0.00016813210900001795,-0.7853281399999978,4.097373740001342e-05,-2.355574260000002,9.101183899996732e-05,1.57098067,0.78599867,0.04,0.04,-9.82625539999996,0.0009601897094429462,0.0037012755099751,-0.00010232159800136858,-0.006174829462562219,-7.348735950099674e-05
0.0975,0.00016822693450001933,-0.7853164699999976,4.104469370001445e-05,-2.355583380000002,9.083910949996482e-05,1.570980235,0.785998385,0.04,0.04,-9.826042699999956,0.000976873259063394,0.0035696517549731847,-0.00010955608900147387,-0.006276003853438502,-7.875626475107342e-05
0.1,0.0001683217600000322,-0.7853047999999977,4.111565000002397e-05,-2.355592500000002,9.066637999994105e-05,1.5709798,0.7859980999999999,0.04,0.04,-9.825829999999954,0.0009935568086839933,0.003438027999976569,-0.0001167905800018743,-0.006377178244312616,-8.402517000156043e-05
0.10250000000000001,0.00016846929850003033,-0.7852938949999978,4.122544700002257e-05,-2.355601080000002,9.039630199994448e-05,1.5709793799999998,0.785997815,0.04,0.04,-9.825618049999957,0.001010934310037402,0.0033306855849779358,-0.00012537719800176497,-0.006468421057816685,-9.117394800146942e-05
0.105,0.00016861683700002846,-0.7852829899999979,4.1335244000021166e-05,-2.3556096600000016,9.012622399994793e-05,1.57097896,0.7859975299999999,0.04,0.04,-9.82540609999996,0.0010283118113908107,0.0032233431699793032,-0.0001339638160016556,-0.006559663871320752,-9.832272600137836e-05
0.1075,0.00016876437550002657,-0.785272084999998,4.144504100001977e-05,-2.3556182400000014,8.985614599995136e-05,1.5709785399999998,0.785997245,0.04,0.04,-9.825194149999962,0.0010456893127442194,0.00311600075498067,-0.00014255043400154626,-0.006650906684824821,-0.00010547150400128734
0.11,0.0001689119140000247,-0.7852611799999982,4.155483800001837e-05,-2.3556268200000012,8.958606799995481e-05,1.57097812,0.78599696,0.04,0.04,-9.824982199999965,0.0010630668140976282,0.0030086583399820364,-0.00015113705200143693,-0.006742149498328889,-0.00011262028200119631
0.1125,0.00016905945250002283,-0.7852502749999983,4.166463500001698e-05,-2.355635400000001,8.931598999995824e-05,1.5709777,0.785996675,0.04,0.04,-9.824770249999968,0.0010804443154510369,0.002901315924983403,-0.0001597236700013276,-0.006833392311832957,-0.0001197690600011053
0.115,0.00016920699100002093,-0.7852393699999984,4.177443200001558e-05,-2.3556439800000013,8.904591199996169e-05,1.57097728,0.78599639,0.04,0.04,-9.82455829999997,0.0010978218168044456,0.00279397350998477,-0.00016831028800121827,-0.006924635125337026,-0.00012691783800101427
0.11750000000000001,0.00016937727050002788,-0.7852286769999987,4.190094700002065e-05,-2.355652230000001,8.873393599994889e-05,1.570976855,0.785996105,0.04,0.04,-9.824372199999983,0.0011156820342899912,0.0026887685449869646,-0.00017790087500149795,-0.007013040361936594,-0.00013476418050119353
0.12,0.0001695930320000251,-0.7852184079999988,4.206089800001862e-05,-2.355659820000001,8.833816399995392e-05,1.57097642,0.78599582,0.04,0.04,-9.824237799999985,0.0011345076840392316,0.0025878384799882504,-0.00018949940000135022,-0.0070957704447305705,-0.00014400565200107582
0.1225,0.00016980879350002236,-0.785208138999999,4.222084900001658e-05,-2.3556674100000006,8.794239199995896e-05,1.570975985,0.785995535,0.04,0.04,-9.824103399999986,0.0011533333337884718,0.0024869084149895353,-0.00020109792500120255,-0.0071785005275245475,-0.00015324712350095815
0.125,0.0001700245550000196,-0.7851978699999991,4.238080000001455e-05,-2.3556750000000006,8.754661999996401e-05,1.57097555,0.78599525,0.04,0.04,-9.823968999999988,0.0011721589835377122,0.0023859783499908206,-0.00021269645000105488,-0.007261230610318524,-0.0001624885950008405
0.1275,0.00017024031650001686,-0.7851876009999992,4.254075100001251e-05,-2.3556825900000007,8.715084799996905e-05,1.570975115,0.785994965,0.04,0.04,-9.823834599999989,0.0011909846332869526,0.002285048284992106,-0.0002242949750009072,-0.007343960693112501,-0.00017173006650072283
0.13,0.00017045607800001412,-0.7851773319999994,4.270070200001048e-05,-2.3556901800000007,8.675507599997409e-05,1.57097468,0.7859946800000001,0.04,0.04,-9.82370019999999,0.001209810283036193,0.0021841182199933908,-0.00023589350000075953,-0.007426690775906478,-0.00018097153800060518
0.1325,0.00017067183950001137,-0.7851670629999995,4.2860653000008436e-05,-2.3556977700000004,8.635930399997913e-05,1.570974245,0.785994395,0.04,0.04,-9.823565799999992,0.0012286359327854332,0.0020831881549946757,-0.00024749202500061186,-0.007509420858700454,-0.0001902130095004875
0.135,0.0001709443390000175,-0.7851571459999995,4.306227900001295e-05,-2.3557046800000006,8.585947399996788e-05,1.5709738,0.78599392,0.04,0.04,-9.823382099999987,0.0012470568995932507,0.001993872059995139,-0.0002613716170008743,-0.0075855155941141165,-0.00020097207000067046
0.1375,0.0001712452075000219,-0.7851474049999994,4.328474250001619e-05,-2.3557112500000006,8.530761499995984e-05,1.5709733499999998,0.78599335,0.04,0.04,-9.823173749999984,0.0012652755249304007,0.0019103629499939237,-0.0002763917425010929,-0.007658292655838345,-0.00021248992500083808
0.14,0.00017154607600002627,-0.7851376639999992,4.3507206000019426e-05,-2.3557178200000006,8.475575599995182e-05,1.5709729,0.78599278,0.04,0.04,-9.822965399999982,0.0012834941502675508,0.0018268538399927084,-0.0002914118680013115,-0.007731069717562575,-0.0002240077800010057
0.14250000000000002,0.00017184694450003064,-0.785127922999999,4.372966950002266e-05,-2.3557243900000007,8.420389699994378e-05,1.57097245,0.78599221,0.04,0.04,-9.822757049999979,0.001301712775604701,0.001743344729991493,-0.0003064319935015301,-0.007803846779286803,-0.00023552563500117333
0.145,0.00017214781300003504,-0.7851181819999989,4.39521330000259e-05,-2.3557309600000007,8.365203799993576e-05,1.5709719999999998,0.78599164,0.04,0.04,-9.822548699999976,0.001319931400941851,0.0016598356199902786,-0.0003214521190017485,-0.007876623841011031,-0.0002470434900013408
0.1475,0.0001724486815000394,-0.7851084409999988,4.4174596500029134e-05,-2.3557375300000007,8.310017899992773e-05,1.5709715499999999,0.78599107,0.04,0.04,-9.822340349999973,0.001338150026279001,0.0015763265099890634,-0.0003364722445019671,-0.00794940090273526,-0.0002585613450015084
0.15,0.00017274955000005882,-0.7850986999999987,4.4397060000043395e-05,-2.355744100000001,8.254831999989215e-05,1.5709711,0.7859904999999999,0.04,0.04,-9.822131999999975,0.0013563686516162756,0.0014928173999889066,-0.00035149237000253167,-0.008022177964458057,-0.0002700792000020324
0.1525,0.00017315369200005917,-0.7850893549999987,4.4695290450043667e-05,-2.355750385000001,8.180716909989148e-05,1.570970665,0.7859899239999999,0.04,0.04,-9.821957849999974,0.001375441707207728,0.0014165832599888372,-0.00036889024150254753,-0.008085105661311983,-0.00028404604950204513
0.155,0.00017355783400005954,-0.7850800099999986,4.499352090004394e-05,-2.3557566700000008,8.10660181998908e-05,1.57097023,0.785989348,0.04,0.04,-9.821783699999974,0.0013945147627991803,0.0013403491199887678,-0.00038628811300256335,-0.00814803335816591,-0.00029801289900205786
0.1575,0.00017396197600005992,-0.7850706649999987,4.529175135004421e-05,-2.3557629550000008,8.032486729989012e-05,1.570969795,0.785988772,0.04,0.04,-9.821609549999975,0.0014135878183906326,0.0012641149799886985,-0.0004036859845025792,-0.008210961055019839,-0.0003119797485020706
0.16,0.0001743661180000603,-0.7850613199999986,4.558998180004448e-05,-2.355769240000001,7.958371639988946e-05,1.5709693599999999,0.7859881959999999,0.04,0.04,-9.821435399999974,0.001432660873982085,0.001187880839988629,-0.000421083856002595,-0.008273888751873766,-0.00032594659800208326
0.1625,0.00017477026000006066,-0.7850519749999986,4.5888212250044755e-05,-2.355775525000001,7.884256549988878e-05,1.5709689249999998,0.7859876199999999,0.04,0.04,-9.821261249999974,0.0014517339295735373,0.0011116466999885595,-0.0004384817275026109,-0.008336816448727694,-0.000339913447502096
0.165,0.000175174402000061,-0.7850426299999985,4.6186442700045027e-05,-2.355781810000001,7.81014145998881e-05,1.57096849,0.7859870439999999,0.04,0.04,-9.821087099999973,0.0014708069851649896,0.0010354125599884901,-0.0004558795990026267,-0.00839974414558162,-0.0003538802970021087
0.1675,0.0001756193755000776,-0.7850333949999987,4.651460635005717e-05,-2.355787770000001,7.728596949985795e-05,1.570968035,0.7859863739999998,0.04,0.03999999975,-9.820939249999986,0.0014893939544006205,0.0009637024584907673,-0.00047462318600315827,-0.008460610872142862,-0.0003686721250024226
0.17,0.00017614601200007088,-0.7850243799999987,4.690263640005223e-05,-2.3557930800000006,7.632193599987022e-05,1.57096754,0.7859855159999999,0.04,0.039999999,-9.820843999999987,0.0015070087509252712,0.000901040433991565,-0.0004960582040028854,-0.008517355658121539,-0.00038511391000221326
0.17250000000000001,0.00017667264850006417,-0.7850153649999989,4.729066645004729e-05,-2.355798390000001,7.53579024998825e-05,1.570967045,0.7859846579999998,0.04,0.03999999825,-9.820748749999987,0.0015246235474499219,0.0008383784094923628,-0.0005174932220026124,-0.008574100444100216,-0.0004015556950020039
0.17500000000000002,0.00017719928500005747,-0.785006349999999,4.7678696500042354e-05,-2.3558037000000005,7.439386899989478e-05,1.57096655,0.7859837999999999,0.04,0.0399999975,-9.82065349999999,0.0015422383439745726,0.0007757163849931607,-0.0005389282400023395,-0.008630845230078893,-0.0004179974800017946
0.1775,0.00017772592150005077,-0.7849973349999991,4.806672655003741e-05,-2.3558090100000006,7.342983549990707e-05,1.570966055,0.7859829419999999,0.04,0.03999999675,-9.82055824999999,0.001559853140499223,0.0007130543604939592,-0.0005603632580020664,-0.00868759001605757,-0.000434439265001585
0.18,0.00017825255800004407,-0.7849883199999992,4.845475660003246e-05,-2.3558143200000004,7.246580199991935e-05,1.57096556,0.7859820839999999,0.04,0.039999996,-9.820462999999991,0.0015774679370238738,0.000650392335994757,-0.0005817982760017935,-0.008744334802036248,-0.0004508810500013757
0.1825,0.00017877919450003736,-0.7849793049999993,4.8842786650027525e-05,-2.3558196300000005,7.150176849993163e-05,1.570965065,0.7859812259999999,0.04,0.03999999525,-9.820367749999992,0.0015950827335485245,0.0005877303114955549,-0.0006032332940015205,-0.008801079588014927,-0.00046732283500116635
0.185,0.00017940099600005112,-0.7849704049999993,4.930054700003764e-05,-2.3558243300000004,7.036296799990633e-05,1.5709645300000001,0.7859803259999999,0.04,0.0399999955,-9.820227199999987,0.0016117517254327274,0.0005297278329957468,-0.0006266464370018642,-0.008851491194221999,-0.0004857368270014821
0.1875,0.00018007038000006088,-0.7849615624999992,4.97931725000448e-05,-2.3558287250000003,6.913678399988848e-05,1.570963975,0.7859794049999999,0.04,0.03999999625,-9.820063999999984,0.001627947814996848,0.0004740551274949366,-0.0006510486425022194,-0.008898736210544222,-0.0005051369225017644
0.19,0.0001807397640000706,-0.784952719999999,5.0285798000051974e-05,-2.3558331200000002,6.791059999987063e-05,1.57096342,0.7859784839999999,0.04,0.039999997,-9.819900799999983,0.0016441439045609687,0.0004183824219941264,-0.0006754508480025745,-0.008945981226866444,-0.0005245370180020467
0.1925,0.00018140914800008037,-0.7849438774999989,5.0778423500059146e-05,-2.3558375150000006,6.66844159998528e-05,1.570962865,0.7859775629999999,0.04,0.03999999775,-9.81973759999998,0.0016603399941250894,0.0003627097164933162,-0.0006998530535029296,-0.008993226243188667,-0.000543937113502329
0.195,0.0001820785320000901,-0.7849350349999987,5.127104900006631e-05,-2.3558419100000005,6.545823199983495e-05,1.5709623099999999,0.7859766419999998,0.04,0.0399999985,-9.819574399999977,0.0016765360836892102,0.000307037010992506,-0.0007242552590032848,-0.00904047125951089,-0.0005633372090026115
0.1975,0.00018274791600009986,-0.7849261924999986,5.176367450007348e-05,-2.3558463050000005,6.42320479998171e-05,1.570961755,0.7859757209999998,0.04,0.03999999925,-9.819411199999976,0.001692732173253331,0.0002513643054916958,-0.0007486574645036399,-0.009087716275833112,-0.0005827373045028938
0.2,0.0001834173000001364,-0.7849173499999985,5.2256300000100285e-05,-2.3558507000000004,6.30058639997505e-05,1.5709611999999997,0.7859747999999998,0.04,0.04,-9.819247999999975,0.0017089282628170164,0.0001956915999922698,-0.0007730596700047013,-0.009134961292153996,-0.000602137400003601
0.2025,0.00018425047050013718,-0.7849085674999985,5.286884225010084e-05,-2.3558547050000005,6.148186039974912e-05,1.5709602099999997,0.7859736599999998,0.04,0.03999999925,-9.819094849999974,0.0017224661540261638,0.00014847380199222682,-0.0008017766645047275,-0.009174033533788163,-0.000624133145003621
0.20500000000000002,0.00018508364100013793,-0.7848997849999985,5.34813845001014e-05,-2.3558587100000006,5.995785679974772e-05,1.5709592199999998,0.7859725199999998,0.04,0.0399999985,-9.818941699999975,0.001736004045235311,0.00010125600399218383,-0.0008304936590047536,-0.009213105775422328,-0.000646128890003641
0.20750000000000002,0.00018591681150013868,-0.7848910024999985,5.409392675010196e-05,-2.3558627150000007,5.8433853199746335e-05,1.5709582299999998,0.7859713799999998,0.04,0.03999999775,-9.818788549999974,0.0017495419364444583,5.403820599214084e-05,-0.0008592106535047798,-0.009252178017056493,-0.0006681246350036611
0.21,0.00018674998200013943,-0.7848822199999985,5.470646900010251e-05,-2.3558667200000007,5.690984959974497e-05,1.5709572399999998,0.7859702399999998,0.04,0.039999997,-9.818635399999975,0.0017630798276536055,6.820407992098377e-06,-0.0008879276480048056,-0.009291250258690658,-0.0006901203800036809
0.2125,0.00018758315250014018,-0.7848734374999985,5.5319011250103066e-05,-2.3558707250000004,5.538584599974358e-05,1.5709562499999998,0.7859690999999998,0.04,0.03999999625,-9.818482249999974,0.0017766177188627528,-4.03973900079446e-05,-0.0009166446425048318,-0.009330322500324824,-0.0007121161250037009
0.215,0.00018841632300014094,-0.7848646549999985,5.5931553500103624e-05,-2.3558747300000005,5.386184239974219e-05,1.5709552599999999,0.7859679599999998,0.04,0.0399999955,-9.818329099999975,0.0017901556100719,-8.761518800798758e-05,-0.0009453616370048579,-0.009369394741958989,-0.0007341118700037209
0.2175,0.00018931136000016865,-0.7848558714999985,5.6589374250123875e-05,-2.3558784000000004,5.22249981996917e-05,1.570954265,0.7859667214999997,0.04,0.039999995,-9.818209549999992,0.001803427695997289,-0.00013185036550633473,-0.0009753597200053896,-0.009407159732660469,-0.0007571238730041456
0.22,0.00019033013000015566,-0.7848470859999986,5.733775200011435e-05,-2.3558814000000003,5.036247279971541e-05,1.57095326,0.7859652859999997,0.04,0.039999995,-9.818157199999993,0.0018161681713555666,-0.00017012030200584747,-0.001007919980004975,-0.00944231022149857,-0.0007821683920038267
0.2225,0.0001913489000001427,-0.7848383004999987,5.8086129750104825e-05,-2.3558844000000003,4.849994739973913e-05,1.570952255,0.7859638504999997,0.04,0.039999995,-9.818104849999992,0.0018289086467138446,-0.0002083902385053602,-0.0010404802400045604,-0.009477460710336673,-0.0008072129110035078
0.225,0.00019236767000012971,-0.7848295149999989,5.883450750009529e-05,-2.3558874000000003,4.663742199976284e-05,1.5709512499999998,0.7859624149999997,0.04,0.039999995,-9.818052499999993,0.0018416491220721223,-0.00024666017500487295,-0.0010730405000041459,-0.009512611199174776,-0.000832257430003189
0.2275,0.00019338644000011675,-0.7848207294999989,5.958288525008577e-05,-2.3558904000000003,4.477489659978655e-05,1.570950245,0.7859609794999998,0.04,0.039999995,-9.818000149999994,0.0018543895974304,-0.0002849301115043857,-0.0011056007600037314,-0.009547761688012878,-0.0008573019490028701
0.23,0.0001944052100001038,-0.7848119439999991,6.0331263000076235e-05,-2.3558934000000002,4.291237119981027e-05,1.5709492399999998,0.7859595439999998,0.04,0.039999995,-9.817947799999995,0.001867130072788678,-0.00032320004800389843,-0.0011381610200033167,-0.00958291217685098,-0.0008823464680025512
0.2325,0.0001954239800000908,-0.7848031584999992,6.107964075006671e-05,-2.3558964000000002,4.1049845799833985e-05,1.570948235,0.7859581084999998,0.04,0.039999995,-9.817895449999996,0.0018798705481469556,-0.0003614699845034112,-0.0011707212800029022,-0.009618062665689084,-0.0009073909870022323
0.23500000000000001,0.00019658141800011605,-0.7847942939999991,6.192946200008518e-05,-2.3558988800000003,3.893390749978786e-05,1.57094721,0.7859564469999998,0.04,0.0399999955,-9.817774599999986,0.001887387887109504,-0.0004035353170041586,-0.0012057961700034368,-0.00964732822031026,-0.0009345218940026651
0.23750000000000002,0.0001978081900001339,-0.784785389999999,6.28300050000983e-05,-2.3559011,3.6691262749755226e-05,1.5709461749999998,0.7859546724999998,0.04,0.03999999625,-9.817619499999983,0.0018922936578751855,-0.0004474983475047984,-0.0012421283750039655,-0.009673651307824098,-0.0009626959950030751
0.24,0.00019903496200015174,-0.7847764859999989,6.373054800011138e-05,-2.3559033200000004,3.444861799972261e-05,1.5709451399999999,0.7859528979999998,0.04,0.039999997,-9.81746439999998,0.0018971994286408667,-0.0004914613780054376,-0.0012784605800044938,-0.009699974395337936,-0.0009908700960034847
0.2425,0.0002002617340001696,-0.7847675819999987,6.46310910001245e-05,-2.35590554,3.2205973249689974e-05,1.5709441049999997,0.7859511234999997,0.04,0.03999999775,-9.817309299999978,0.0019021051994065482,-0.0005354244085060774,-0.0013147927850050225,-0.009726297482851774,-0.0010190441970038947
0.245,0.00020148850600018744,-0.7847586779999987,6.553163400013759e-05,-2.3559077600000005,2.9963328499657337e-05,1.5709430699999998,0.7859493489999997,0.04,0.0399999985,-9.817154199999976,0.0019070109701722297,-0.0005793874390067173,-0.0013511249900055513,-0.00975262057036561,-0.0010472182980043048
0.2475,0.00020271527800020528,-0.7847497739999986,6.64321770001507e-05,-2.3559099800000003,2.77206837496247e-05,1.5709420349999998,0.7859475744999997,0.04,0.03999999925,-9.816999099999974,0.0019119167409379111,-0.000623350469507357,-0.0013874571950060802,-0.009778943657879449,-0.0010753923990047148
0.25,0.00020394205000026514,-0.7847408699999984,6.733272000019453e-05,-2.3559122000000006,2.5478038999515554e-05,1.5709409999999997,0.7859457999999996,0.04,0.04,-9.81684399999998,0.0019168225117040833,-0.0006673135000063902,-0.001423789400007296,-0.009805266745391953,-0.0011035665000056634
0.2525,0.0002053997335002466,-0.7847317319999985,6.84021585001809e-05,-2.3559139250000003,2.281476769954946e-05,1.5709398149999998,0.7859436324999997,0.04,0.04,-9.816740574999983,0.0019244263647136264,-0.000702444370005943,-0.0014638986650067853,-0.009824254410344577,-0.0011347021500052671
0.255,0.00020685741700022804,-0.7847225939999986,6.947159700016729e-05,-2.3559156500000005,2.0151496399583372e-05,1.5709386299999997,0.7859414649999997,0.04,0.04,-9.816637149999984,0.0019320302177231695,-0.0007375752400054957,-0.0015040079300062746,-0.0098432420752972,-0.0011658378000048706
0.2575,0.0002083151005002095,-0.7847134559999988,7.054103550015368e-05,-2.355917375,1.7488225099617283e-05,1.5709374449999998,0.7859392974999997,0.04,0.04,-9.816533724999985,0.0019396340707327128,-0.0007727061100050484,-0.001544117195005764,-0.009862229740249823,-0.0011969734500044743
0.26,0.0002097727840001909,-0.7847043179999988,7.161047400014007e-05,-2.3559191000000004,1.482495379965119e-05,1.5709362599999999,0.7859371299999998,0.04,0.04,-9.816430299999986,0.001947237923742256,-0.0008078369800046012,-0.0015842264600052533,-0.009881217405202446,-0.0012281091000040777
0.2625,0.00021123046750017236,-0.7846951799999989,7.267991250012644e-05,-2.355920825,1.21616824996851e-05,1.5709350749999997,0.7859349624999997,0.04,0.04,-9.816326874999987,0.0019548417767517993,-0.0008429678500041539,-0.0016243357250047426,-0.00990020507015507,-0.0012592447500036814
0.265,0.0002126881510001538,-0.784686041999999,7.374935100011283e-05,-2.3559225500000003,9.498411199719009e-06,1.5709338899999998,0.7859327949999998,0.04,0.04,-9.816223449999988,0.001962445629761342,-0.0008780987200037066,-0.0016644449900042318,-0.009919192735107694,-0.0012903804000032849
0.2675,0.00021423059700016663,-0.7846767909999991,7.488076700012218e-05,-2.355923915,6.680766449695734e-06,1.5709325749999998,0.7859304924999998,0.04,0.04,-9.816131174999994,0.001966332085430195,-0.0009133402250034513,-0.0017058251550042746,-0.00993637354113287,-0.0013225629250033359
0.27,0.00021594256800016817,-0.7846673139999991,7.613613800012332e-05,-2.35592456,3.5543747996928865e-06,1.5709309999999999,0.7859279199999998,0.04,0.04,-9.816061199999993,0.0019627837464209117,-0.0009488030000034837,-0.0017497471200043147,-0.009949940629304732,-0.001356839200003367
0.2725,0.00021765453900016973,-0.784657836999999,7.739150900012446e-05,-2.355925205,4.279831496900402e-07,1.5709294249999999,0.7859253474999998,0.04,0.04,-9.815991224999992,0.0019592354074116284,-0.0009842657750035158,-0.0017936690850043546,-0.009963507717476595,-0.0013911154750033982
0.275,0.0002193665100001713,-0.784648359999999,7.86468800001256e-05,-2.35592585,-2.6984085003128052e-06,1.57092785,0.7859227749999997,0.04,0.04,-9.815921249999993,0.001955687068402345,-0.0010197285500035483,-0.0018375910500043947,-0.009977074805648458,-0.0014253917500034294
0.2775,0.00022107848100017286,-0.7846388829999991,7.990225100012675e-05,-2.355926495,-5.8248001503156515e-06,1.570926275,0.7859202024999997,0.04,0.04,-9.815851274999993,0.0019521387293930618,-0.0010551913250035805,-0.0018815130150044346,-0.00999064189382032,-0.0014596680250034606
0.28,0.0002227904520001744,-0.784629405999999,8.115762200012789e-05,-2.35592714,-8.951191800318498e-06,1.5709247,0.7859176299999997,0.04,0.04,-9.815781299999992,0.0019485903903837785,-0.0010906541000036127,-0.0019254349800044747,-0.010004208981992183,-0.0014939443000034918
0.28250000000000003,0.00022450242300017597,-0.784619928999999,8.241299300012903e-05,-2.355927785,-1.2077583450321346e-05,1.570923125,0.7859150574999998,0.04,0.04,-9.815711324999993,0.0019450420513744953,-0.001126116875003645,-0.0019693569450045145,-0.010017776070164046,-0.0015282205750035232
0.28500000000000003,0.00022639974700022447,-0.7846101529999988,8.380384300016452e-05,-2.35592795,-1.5540983300409643e-05,1.57092152,0.7859122499999996,0.04,0.04,-9.815611199999987,0.0019416581373657576,-0.0011551869700029182,-0.002015868510005392,-0.010027061961592046,-0.0015646238700042258
0.28750000000000003,0.0002283897475002534,-0.7846002274999987,8.526243250018574e-05,-2.355927875,-1.9172887250462498e-05,1.5709198999999998,0.7859093249999997,0.04,0.04,-9.815495999999985,0.0019383564358572546,-0.0011810607250032949,-0.002063674875006088,-0.01003420725464911,-0.001602090675004771
0.29,0.00023037974800028233,-0.7845903019999986,8.672102200020693e-05,-2.3559278,-2.2804791200515268e-05,1.57091828,0.7859063999999996,0.04,0.04,-9.815380799999984,0.0019350547343487516,-0.0012069344800036707,-0.0021114812400067824,-0.010041352547706174,-0.0016395574800053155
0.2925,0.00023236974850031128,-0.7845803764999985,8.817961150022816e-05,-2.355927725,-2.6436695150568126e-05,1.5709166599999997,0.7859034749999995,0.04,0.04,-9.815265599999982,0.0019317530328402486,-0.0012328082350040474,-0.0021592876050074783,-0.010048497840763239,-0.0016770242850058608
0.295,0.00023435974900034025,-0.7845704509999983,8.963820100024939e-05,-2.35592765,-3.0068599100620978e-05,1.5709150399999998,0.7859005499999995,0.04,0.04,-9.81515039999998,0.0019284513313317455,-0.001258681990004424,-0.002207093970008174,-0.010055643133820302,-0.001714491090006406
0.2975,0.0002363497495003692,-0.7845605254999981,9.109679050027061e-05,-2.355927575,-3.3700503050673836e-05,1.5709134199999997,0.7858976249999994,0.04,0.04,-9.81503519999998,0.0019251496298232425,-0.0012845557450048004,-0.00225490033500887,-0.010062788426877366,-0.0017519578950069513
0.3,0.00023833975000045858,-0.7845505999999979,9.2555380000336e-05,-2.3559275,-3.733240700083661e-05,1.5709117999999995,0.7858946999999993,0.04,0.04,-9.814919999999985,0.001921847928312373,-0.0013104295000080036,-0.002302706700010446,-0.010069933719933179,-0.0017894247000081417
0.3025,0.0002406317845004294,-0.784540167499998,9.423469600031463e-05,-2.3559268849999997,-4.1513690450783374e-05,1.5709096549999997,0.7858913099999993,0.04,0.04,-9.814838549999985,0.0019067189947207905,-0.0013504302550074944,-0.0023549157900097815,-0.010070824157446758,-0.0018301165500076238
0.305,0.00024292381900040025,-0.7845297349999981,9.591401200029325e-05,-2.35592627,-4.5694973900730135e-05,1.5709075099999996,0.7858879199999994,0.04,0.04,-9.814757099999987,0.001891590061129208,-0.001390431010006985,-0.002407124880009117,-0.010071714594960335,-0.0018708084000071056
0.3075,0.00024521585350037104,-0.7845193024999983,9.759332800027187e-05,-2.355925655,-4.98762573506769e-05,1.5709053649999996,0.7858845299999994,0.04,0.04,-9.814675649999987,0.0018764611275376257,-0.0014304317650064757,-0.002459333970008452,-0.010072605032473914,-0.0019115002500065875
0.31,0.0002475078880003419,-0.7845088699999985,9.927264400025049e-05,-2.35592504,-5.405754080062367e-05,1.5709032199999997,0.7858811399999994,0.04,0.04,-9.814594199999988,0.0018613321939460433,-0.0014704325200059665,-0.0025115430600077876,-0.010073495469987493,-0.0019521921000060693
0.3125,0.00024979992250031267,-0.7844984374999986,0.00010095196000022911,-2.355924425,-5.823882425057043e-05,1.5709010749999996,0.7858777499999995,0.04,0.04,-9.81451274999999,0.001846203260354461,-0.0015104332750054573,-0.002563752150007123,-0.010074385907501072,-0.001992883950005551
0.315,0.0002520919570002835,-0.7844880049999987,0.00010263127600020771,-2.3559238099999997,-6.24201077005172e-05,1.5708989299999998,0.7858743599999995,0.04,0.04,-9.81443129999999,0.0018310743267628787,-0.0015504340300049478,-0.002615961240006458,-0.010075276345014652,-0.0020335758000050333
0.3175,0.00025449274250030244,-0.7844773544999988,0.00010439005500022151,-2.35592284,-6.67991450005515e-05,1.5708967699999998,0.7858708124999996,0.04,0.04,-9.814366199999997,0.0018146761460207427,-0.0015859714900030737,-0.002669519585006498,-0.010075156483798938,-0.002075352040005076
0.32,0.00025711103000030484,-0.7844662679999987,0.00010630776000022326,-2.35592116,-7.157369000055585e-05,1.5708945799999998,0.7858669499999995,0.04,0.04,-9.814333799999996,0.0017957394709788154,-0.001612582360003098,-0.0027257764400065495,-0.010073016025125692,-0.002119297060005116
0.3225,0.0002597293175003072,-0.7844551814999987,0.000108225465000225,-2.35591948,-7.63482350005602e-05,1.5708923899999998,0.7858630874999996,0.04,0.04,-9.814301399999996,0.001776802795936888,-0.0016391932300031222,-0.0027820332950066005,-0.010070875566452444,-0.002163242080005156
0.325,0.0002623476050003096,-0.7844440949999987,0.00011014317000022675,-2.3559178,-8.112278000056453e-05,1.5708901999999998,0.7858592249999995,0.04,0.04,-9.814268999999996,0.001757866120894961,-0.0016658041000031465,-0.002838290150006652,-0.010068735107779198,-0.002207187100005196
0.3275,0.00026496589250031197,-0.7844330084999986,0.0001120608750002285,-2.35591612,-8.589732500056888e-05,1.5708880099999998,0.7858553624999995,0.04,0.04,-9.814236599999996,0.0017389294458530337,-0.0016924149700031706,-0.002894547005006703,-0.010066594649105951,-0.002251132120005236
0.33,0.00026758418000031437,-0.7844219219999987,0.00011397858000023024,-2.35591444,-9.067187000057322e-05,1.5708858199999998,0.7858514999999996,0.04,0.04,-9.814204199999997,0.0017199927708111064,-0.001719025840003195,-0.0029508038600067543,-0.010064454190432703,-0.002295077140005276
0.3325,0.00027020246750031676,-0.7844108354999987,0.000115896285000232,-2.35591276,-9.544641500057757e-05,1.5708836299999998,0.7858476374999995,0.04,0.04,-9.814171799999997,0.0017010560957691793,-0.001745636710003219,-0.0030070607150068053,-0.010062313731759457,-0.002339022160005316
0.335,0.0002730544970003889,-0.7843992859999984,0.00011798476700028472,-2.3559105099999997,-0.00010064594700070884,1.5708812299999997,0.7858434249999995,0.04,0.04,-9.814089999999986,0.0016795465489819344,-0.001781861060005374,-0.003066136130007922,-0.010055156797169305,-0.0023851503500061846
0.3375,0.00027602339750043206,-0.7843875049999983,0.00012015863750031637,-2.3559079749999996,-0.0001060579725007876,1.5708787249999996,0.7858390374999994,0.04,0.04,-9.813983499999985,0.0016567505663227327,-0.0018228921500059712,-0.0031266208250088023,-0.01004549162462207,-0.002432370125006872
0.34,0.00027899229800047525,-0.7843757239999981,0.000122332508000348,-2.3559054399999995,-0.00011146999800086635,1.5708762199999995,0.7858346499999993,0.04,0.04,-9.813876999999984,0.0016339545836635309,-0.0018639232400065684,-0.0031871055200096824,-0.010035826452074834,-0.0024795899000075593
0.3425,0.0002819611985005185,-0.784363942999998,0.00012450637850037964,-2.3559029049999993,-0.00011688202350094512,1.5708737149999996,0.7858302624999993,0.04,0.04,-9.813770499999983,0.001611158601004329,-0.0019049543300071654,-0.0032475902150105626,-0.010026161279527598,-0.0025268096750082464
0.34500000000000003,0.0002849300990005617,-0.7843521619999978,0.00012668024900041127,-2.3559003699999996,-0.0001222940490010239,1.5708712099999995,0.7858258749999992,0.04,0.04,-9.81366399999998,0.0015883626183451273,-0.0019459854200077626,-0.003308074910011443,-0.010016496106980362,-0.0025740294500089336
0.34750000000000003,0.00028789899950060487,-0.7843403809999976,0.0001288541195004429,-2.3558978349999995,-0.00012770607450110263,1.5708687049999994,0.7858214874999991,0.04,0.04,-9.813557499999979,0.0015655666356859256,-0.0019870165100083596,-0.0033685596050123234,-0.010006830934433126,-0.0026212492250096207
0.35000000000000003,0.0002908679000007299,-0.7843285999999973,0.00013102799000053435,-2.355895299999999,-0.0001331181000013302,1.5708661999999993,0.7858170999999989,0.04,0.04,-9.813450999999985,0.0015427706530236538,-0.0020280476000087257,-0.003429044300014101,-0.009997165761884747,-0.002668469000011025
0.3525,0.0002942118830006873,-0.7843159909999975,0.00013347583700050312,-2.355891894999999,-0.00013921177500125247,1.5708634249999995,0.785812145499999,0.04,0.04,-9.813378249999985,0.0015059105527976539,-0.0020680204700082158,-0.003493640795013277,-0.009982269443568477,-0.0027189745700103808
0.355,0.00029755586600064475,-0.7843033819999976,0.00013592368400047196,-2.3558884899999994,-0.0001453054500011749,1.5708606499999995,0.7858071909999991,0.04,0.04,-9.813305499999986,0.0014690504525716533,-0.002107993340007707,-0.0035582372900124547,-0.009967373125252208,-0.0027694801400097377
0.3575,0.00030089984900060217,-0.7842907729999977,0.00013837153100044078,-2.3558850849999993,-0.00015139912500109731,1.5708578749999995,0.7858022364999991,0.04,0.04,-9.813232749999987,0.0014321903523456525,-0.002147966210007198,-0.0036228337850116323,-0.009952476806935937,-0.0028199857100090946
0.36,0.0003042438320005596,-0.784278163999998,0.00014081937800040963,-2.3558816799999995,-0.0001574928000010197,1.5708550999999995,0.7857972819999992,0.04,0.04,-9.813159999999987,0.0013953302521196517,-0.0021879390800066895,-0.0036874302800108095,-0.009937580488619667,-0.0028704912800084515
0.3625,0.000307587815000517,-0.7842655549999981,0.00014326722500037845,-2.3558782749999994,-0.00016358647500094213,1.5708523249999997,0.7857923274999992,0.04,0.04,-9.813087249999988,0.001358470151893651,-0.0022279119500061804,-0.003752026775009987,-0.009922684170303397,-0.0029209968500078084
0.365,0.0003109317980004744,-0.7842529459999982,0.0001457150720003473,-2.3558748699999996,-0.00016968015000086456,1.5708495499999997,0.7857873729999992,0.04,0.04,-9.813014499999989,0.0013216100516676504,-0.0022678848200056714,-0.0038166232700091647,-0.009907787851987126,-0.0029715024200071653
0.3675,0.0003144089770005175,-0.7842400379999981,0.00014826021050037873,-2.3558712049999997,-0.00017601577700094274,1.5708466299999997,0.7857822279999992,0.04,0.04,-9.812946849999992,0.0012842748430504374,-0.002307259550005278,-0.003882604520009504,-0.00989121142774542,-0.0030231052300074366
0.37,0.000318152548000572,-0.7842265319999979,0.0001509999320004186,-2.3558670199999994,-0.00018283530800104197,1.5708434199999997,0.7857767019999992,0.04,0.04,-9.81288939999999,0.0012459894176513702,-0.0023454380000058335,-0.0039513552800105045,-0.009871274791654854,-0.00307690252000822
0.3725,0.0003218961190006265,-0.7842130259999978,0.00015373965350045849,-2.3558628349999995,-0.00018965483900114122,1.5708402099999994,0.785771175999999,0.04,0.04,-9.81283194999999,0.001207703992252303,-0.002383616450006389,-0.004020106040011505,-0.009851338155564288,-0.003130699810009003
0.375,0.00032563969000068096,-0.7841995199999975,0.00015647937500049835,-2.355858649999999,-0.00019647437000124045,1.5708369999999994,0.785765649999999,0.04,0.04,-9.812774499999989,0.0011694185668532358,-0.002421794900006945,-0.004088856800012506,-0.009831401519473723,-0.0031844971000097857
0.3775,0.00032938326100073544,-0.7841860139999973,0.00015921909650053821,-2.3558544649999993,-0.0002032939010013397,1.5708337899999993,0.785760123999999,0.04,0.04,-9.81271704999999,0.0011311331414541688,-0.0024599733500075003,-0.004157607560013506,-0.009811464883383159,-0.0032382943900105686
0.38,0.00033312683200078987,-0.7841725079999972,0.0001619588180005781,-2.355850279999999,-0.00021011343200143896,1.5708305799999993,0.7857545979999988,0.04,0.04,-9.812659599999987,0.0010928477160551016,-0.002498151800008056,-0.004226358320014507,-0.009791528247292593,-0.0032920916800113515
0.3825,0.00033687040300084436,-0.7841590019999969,0.00016469853950061797,-2.355846094999999,-0.0002169329630015382,1.5708273699999993,0.7857490719999988,0.04,0.04,-9.812602149999988,0.0010545622906560344,-0.0025363302500086117,-0.004295109080015507,-0.009771591611202028,-0.0033458889700121344
0.385,0.0003408966940010007,-0.7841447999999965,0.0001676447370007322,-2.3558412499999988,-0.00022426525100182213,1.5708240199999992,0.7857431369999985,0.04,0.04,-9.812552699999989,0.00100448399315166,-0.002582149510011919,-0.004366738630017544,-0.009749133419239775,-0.00340180369001368
0.3875,0.0003450643450010613,-0.7841302499999963,0.00017069417250077656,-2.3558360749999987,-0.00023185391750193255,1.5708205999999991,0.7857369974999985,0.04,0.04,-9.812507249999989,0.0009485092596007452,-0.0026317891750126414,-0.004439807575018608,-0.009725414449342985,-0.0034587771250145093
0.39,0.000349231996001122,-0.7841156999999961,0.00017374360800082096,-2.3558308999999986,-0.000239442584002043,1.570817179999999,0.7857308579999983,0.04,0.04,-9.812461799999987,0.0008925345260498307,-0.002681428840013364,-0.004512876520019671,-0.009701695479446194,-0.003515750560015338
0.3925,0.0003533996470011827,-0.7841011499999958,0.00017679304350086533,-2.3558257249999985,-0.0002470312505021534,1.570813759999999,0.7857247184999983,0.04,0.04,-9.812416349999987,0.0008365597924989161,-0.0027310685050140862,-0.004585945465020735,-0.009677976509549404,-0.0035727239950161674
0.395,0.0003575672980012433,-0.7840865999999956,0.0001798424790009097,-2.3558205499999985,-0.0002546199170022639,1.570810339999999,0.7857185789999982,0.04,0.04,-9.812370899999985,0.0007805850589480015,-0.0027807081700148084,-0.004659014410021798,-0.009654257539652614,-0.0036296974300169963
0.3975,0.000361734949001304,-0.7840720499999954,0.0001828919145009541,-2.3558153749999984,-0.0002622085835023743,1.570806919999999,0.785712439499998,0.04,0.04,-9.812325449999985,0.000724610325397087,-0.0028303478350155307,-0.004732083355022861,-0.009630538569755823,-0.0036866708650178256
0.4,0.0003659026000015115,-0.7840574999999949,0.00018594135000110572,-2.355810199999998,-0.0002697972500027519,1.5708034999999987,0.7857062999999977,0.04,0.04,-9.81227999999998,0.0006686355918455023,-0.002879987500017448,-0.004805152300025297,-0.009606819599857278,-0.0037436443000198063
0.4025,0.00037051884250151573,-0.7840418999999949,0.0001893183795011088,-2.355804079999998,-0.0002782019825027596,1.5707996299999987,0.7856995049999977,0.04,0.04,-9.81221999999998,0.0006106142420130445,-0.0029332763500174966,-0.004882413805025368,-0.009577739285295532,-0.0038041353550198618
0.405,0.0003751350850015199,-0.7840262999999948,0.00019269540900111187,-2.355797959999998,-0.00028660671500276724,1.5707957599999987,0.7856927099999977,0.04,0.04,-9.81215999999998,0.0005525928921805866,-0.002986565200017545,-0.004959675310025438,-0.009548658970733785,-0.003864626410019917
0.40750000000000003,0.0003797513275015241,-0.7840106999999948,0.00019607243850111494,-2.355791839999998,-0.0002950114475027749,1.5707918899999989,0.7856859149999977,0.04,0.04,-9.81209999999998,0.0004945715423481288,-0.0030398540500175936,-0.0050369368150255086,-0.009519578656172038,-0.003925117465019972
0.41000000000000003,0.0003843675700015283,-0.7839950999999948,0.000199449468001118,-2.355785719999998,-0.0003034161800027826,1.5707880199999988,0.7856791199999977,0.04,0.04,-9.81203999999998,0.000436550192515671,-0.003093142900017642,-0.0051141983200255784,-0.009490498341610292,-0.003985608520020027
0.41250000000000003,0.0003889838125015325,-0.7839794999999948,0.00020282649750112108,-2.3557795999999978,-0.0003118209125027902,1.5707841499999988,0.7856723249999977,0.04,0.04,-9.81197999999998,0.00037852884268321313,-0.0031464317500176906,-0.005191459825025649,-0.009461418027048545,-0.004046099575020082
0.41500000000000004,0.00039360005500153666,-0.7839638999999948,0.00020620352700112418,-2.3557734799999976,-0.00032022564500279785,1.5707802799999988,0.7856655299999978,0.04,0.04,-9.811919999999981,0.0003205074928507553,-0.003199720600017739,-0.00526872133002572,-0.0094323377124868,-0.004106590630020137
0.4175,0.0003983739325016755,-0.7839478999999945,0.0002096956635012255,-2.3557670149999974,-0.0003289166925030499,1.5707763049999988,0.7856585049999976,0.04,0.04,-9.811862299999984,0.0002565438626084235,-0.003255562535020066,-0.005347376870026814,-0.009401857294131252,-0.004168131185020952
0.42,0.0004034630800016107,-0.7839310999999947,0.00021341801400117811,-2.355759859999998,-0.00033818037000293193,1.5707721199999987,0.7856510199999976,0.04,0.04,-9.811809199999983,0.0001806956715641742,-0.00331651064001929,-0.005428820480025777,-0.009368576668192307,-0.004231770740020142
0.4225,0.0004085522275015459,-0.7839142999999948,0.00021714036450113072,-2.355752704999998,-0.000347444047502814,1.5707679349999988,0.7856435349999977,0.04,0.04,-9.811756099999984,0.00010484748051992488,-0.0033774587450185137,-0.00551026409002474,-0.00933529604225336,-0.004295410295019332
0.425,0.0004136413750014811,-0.783897499999995,0.00022086271500108332,-2.3557455499999977,-0.00035670772500269606,1.570763749999999,0.7856360499999978,0.04,0.04,-9.811702999999985,2.8999289475675565e-05,-0.003438406850017738,-0.0055917077000237035,-0.009302015416314414,-0.004359049850018522
0.4275,0.0004187305225014163,-0.7838806999999953,0.00022458506550103593,-2.355738394999998,-0.00036597140250257807,1.5707595649999988,0.7856285649999979,0.04,0.04,-9.811649899999987,-4.684890156857375e-05,-0.003499354955016962,-0.005673151310022666,-0.009268734790375467,-0.004422689405017712
0.43,0.0004238196700013515,-0.7838638999999955,0.00022830741600098853,-2.355731239999998,-0.00037523508000246014,1.570755379999999,0.785621079999998,0.04,0.04,-9.811596799999986,-0.00012269709261282302,-0.003560303060016186,-0.005754594920021629,-0.00923545416443652,-0.004486328960016901
0.4325,0.0004289088175012867,-0.7838470999999957,0.00023202976650094114,-2.3557240849999985,-0.0003844987575023422,1.5707511949999988,0.7856135949999982,0.04,0.04,-9.811543699999987,-0.00019854528365707234,-0.00362125116501541,-0.0058360385300205925,-0.009202173538497576,-0.004549968515016091
0.435,0.0004343294050014429,-0.7838294699999954,0.00023599411800105522,-2.355716309999998,-0.000394364403002626,1.5707467399999988,0.7856056159999979,0.04,0.04,-9.811491699999987,-0.00027537173593546025,-0.003683720120016332,-0.005920291560022125,-0.009165700804432297,-0.004615775800017278
0.4375,0.00043991571250152423,-0.783811424999995,0.00024007947000111466,-2.355708224999998,-0.00040453103250277393,1.5707421499999987,0.7855973899999977,0.04,0.04,-9.811440249999986,-0.00035268731883037044,-0.003746949500017252,-0.006005949300023372,-0.009127632016305638,-0.004682666950018252
0.44,0.0004455020200016055,-0.7837933799999948,0.0002441648220011741,-2.355700139999998,-0.0004146976620029219,1.5707375599999986,0.7855891639999977,0.04,0.04,-9.811388799999985,-0.00043000290172528057,-0.003810178880018172,-0.006091607040024619,-0.00908956322817898,-0.004749558100019225
0.4425,0.0004510883275016868,-0.7837753349999945,0.00024825017400123355,-2.355692054999998,-0.00042486429150306984,1.5707329699999986,0.7855809379999975,0.04,0.04,-9.811337349999985,-0.0005073184846201907,-0.0038734082600190923,-0.006177264780025865,-0.00905149444005232,-0.0048164492500201985
0.445,0.0004566746350017681,-0.7837572899999943,0.00025233552600129305,-2.3556839699999976,-0.0004350309210032178,1.5707283799999987,0.7855727119999975,0.04,0.04,-9.811285899999984,-0.0005846340675151009,-0.0039366376400200125,-0.006262922520027111,-0.009013425651925661,-0.004883340400021172
0.4475,0.0004622609425018494,-0.783739244999994,0.0002564208780013525,-2.3556758849999975,-0.0004451975505033658,1.5707237899999986,0.7855644859999973,0.04,0.04,-9.811234449999983,-0.0006619496504100111,-0.003999867020020933,-0.006348580260028358,-0.008975356863799001,-0.004950231550022145
0.45,0.00046784725000211083,-0.7837211999999933,0.00026050623000154345,-2.355667799999997,-0.00045536418000384065,1.5707191999999983,0.7855562599999969,0.04,0.04,-9.811182999999987,-0.0007392652333126045,-0.004063096400027509,-0.006434238000030999,-0.008937288075671004,-0.005017122700024236
0.4525,0.00047395479700203306,-0.7837018649999936,0.0002649721470014866,-2.355658679999997,-0.00046647676800369917,1.5707141449999984,0.7855472959999971,0.04,0.04,-9.811146099999988,-0.000838811439495067,-0.004142692550026496,-0.006523930650029857,-0.008895346149788238,-0.005087245840023343
0.455,0.00048006234400195535,-0.7836825299999938,0.00026943806400142974,-2.355649559999997,-0.0004775893560035577,1.5707090899999985,0.7855383319999971,0.04,0.04,-9.811109199999988,-0.0009383576456775296,-0.004222288700025482,-0.006613623300028715,-0.008853404223905471,-0.00515736898002245
0.4575,0.0004861698910018776,-0.783663194999994,0.0002739039810013729,-2.355640439999997,-0.0004887019440034163,1.5707040349999986,0.7855293679999973,0.04,0.04,-9.811072299999989,-0.001037903851859992,-0.004301884850024469,-0.006703315950027574,-0.008811462298022706,-0.005227492120021557
0.46,0.0004922774380017998,-0.7836438599999943,0.00027836989800131604,-2.3556313199999974,-0.0004998145320032747,1.5706989799999984,0.7855204039999973,0.04,0.04,-9.811035399999989,-0.0011374500580424547,-0.004381481000023456,-0.006793008600026431,-0.00876952037213994,-0.005297615260020664
0.4625,0.000498384985001722,-0.7836245249999946,0.0002828358150012592,-2.3556221999999973,-0.0005109271200031332,1.5706939249999985,0.7855114399999975,0.04,0.04,-9.81099849999999,-0.0012369962642249173,-0.004461077150022442,-0.006882701250025289,-0.008727578446257173,-0.005367738400019771
0.465,0.0005044925320016443,-0.7836051899999948,0.00028730173200120233,-2.3556130799999977,-0.0005220397080029917,1.5706888699999986,0.7855024759999977,0.04,0.04,-9.81096159999999,-0.0013365424704073797,-0.004540673300021429,-0.0069723939000241476,-0.008685636520374409,-0.005437861540018878
0.4675,0.0005107817820017366,-0.7835853799999946,0.0002919003265012697,-2.355603599999997,-0.0005334826180031594,1.5706836649999985,0.7854932449999975,0.03999999975,0.04,-9.810923649999989,-0.0014369159937170429,-0.004617218830018388,-0.007063494385024516,-0.008642418123769686,-0.005509091165019171
0.47000000000000003,0.0005174344380017426,-0.7835646199999946,0.0002967642760012741,-2.3555933999999974,-0.0005455861720031704,1.5706781599999986,0.7854834799999975,0.039999999,0.04,-9.810883599999988,-0.0015389441512791658,-0.0046876631200184525,-0.007157410540024601,-0.00859664678572405,-0.005582533760019237
0.47250000000000003,0.0005240870940017487,-0.7835438599999945,0.00030162822550127853,-2.355583199999997,-0.0005576897260031815,1.5706726549999985,0.7854737149999974,0.03999999825,0.04,-9.810843549999989,-0.0016409723088412886,-0.004758107410018517,-0.007251326695024687,-0.008550875447678413,-0.005655976355019305
0.47500000000000003,0.0005307397500017547,-0.7835230999999946,0.00030649217500128295,-2.355572999999997,-0.0005697932800031925,1.5706671499999985,0.7854639499999975,0.0399999975,0.04,-9.81080349999999,-0.0017430004664034115,-0.004828551700018581,-0.007345242850024772,-0.008505104109632776,-0.005729418950019371
0.47750000000000004,0.0005373924060017608,-0.7835023399999945,0.00031135612450128736,-2.3555627999999973,-0.0005818968340032036,1.5706616449999986,0.7854541849999974,0.03999999675,0.04,-9.810763449999989,-0.0018450286239655345,-0.004898995990018645,-0.007439159005024858,-0.00845933277158714,-0.005802861545019438
0.48,0.0005440450620017667,-0.7834815799999946,0.0003162200740012917,-2.355552599999997,-0.0005940003880032143,1.5706561399999985,0.7854444199999974,0.039999996,0.04,-9.81072339999999,-0.001947056781527655,-0.004969440280018707,-0.007533075160024941,-0.008413561433541505,-0.0058763041400195035
0.4825,0.0005506977180017728,-0.7834608199999945,0.00032108402350129614,-2.355542399999997,-0.0006061039420032253,1.5706506349999987,0.7854346549999974,0.03999999525,0.04,-9.810683349999989,-0.002049084939089778,-0.0050398845700187715,-0.0076269913150250265,-0.008367790095495868,-0.00594974673501957
0.485,0.0005577296080019966,-0.7834390569999938,0.0003262248260014596,-2.3555314699999967,-0.0006188964740036321,1.5706448499999985,0.7854243199999971,0.039999994500000004,0.04,-9.810639949999988,-0.0021662758197980372,-0.005130395440027798,-0.007723657030027107,-0.008319297991679207,-0.006025304740021183
0.4875,0.0005649511150021017,-0.7834167924999935,0.0003315040550015364,-2.3555201749999966,-0.0006320334950038234,1.5706389249999984,0.7854136999999969,0.039999993750000004,0.04,-9.810594874999987,-0.002291048062070263,-0.005230939600029262,-0.007821697525028534,-0.008269445504978667,-0.0061019204500222975
0.49,0.0005721726220022068,-0.7833945279999932,0.00033678328400161325,-2.3555088799999964,-0.0006451705160040145,1.5706329999999982,0.7854030799999967,0.039999993000000005,0.04,-9.810549799999986,-0.0024158203043424887,-0.005331483760030725,-0.00791973802002996,-0.008219593018278126,-0.006178536160023412
0.4925,0.0005793941290023119,-0.7833722634999929,0.0003420625130016901,-2.355497584999996,-0.0006583075370042057,1.5706270749999982,0.7853924599999966,0.03999999225,0.04,-9.810504724999985,-0.0025405925466147144,-0.005432027920032188,-0.008017778515031387,-0.008169740531577586,-0.006255151870024528
0.495,0.0005866156360024169,-0.7833499989999925,0.0003473417420017669,-2.355486289999996,-0.0006714445580043969,1.570621149999998,0.7853818399999964,0.0399999915,0.04,-9.810459649999984,-0.00266536478888694,-0.005532572080033651,-0.008115819010032815,-0.008119888044877045,-0.006331767580025642
0.4975,0.0005938371430025221,-0.7833277344999922,0.0003526209710018437,-2.3554749949999962,-0.0006845815790045881,1.570615224999998,0.7853712199999963,0.03999999075,0.04,-9.810414574999985,-0.0027901370311591662,-0.005633116240035115,-0.00821385950503424,-0.008070035558176505,-0.006408383290026758
0.5,0.0006010586500028427,-0.7833054699999913,0.00035790020000207786,-2.3554636999999956,-0.0006977186000051703,1.5706092999999979,0.7853605999999957,0.03999999,0.04,-9.810369499999986,-0.002914909273431855,-0.005733660400033563,-0.00831190000003707,-0.008020183071474484,-0.006484999000028968
0.5025000000000001,0.0006088723975027433,-0.7832815704999916,0.00036361179500200527,-2.3554512649999957,-0.0007119304550049897,1.5706029249999978,0.785349109999996,0.03999999,0.04,-9.810331024999986,-0.003040955564982723,-0.005825919460032391,-0.008413797250035776,-0.007966261799428305,-0.006564626800027957
0.505,0.0006166861450026437,-0.7832576709999919,0.0003693233900019324,-2.3554388299999958,-0.0007261423100048084,1.5705965499999979,0.7853376199999961,0.03999999,0.04,-9.810292549999987,-0.003167001856533586,-0.005918178520031214,-0.008515694500034476,-0.007912340527382128,-0.006644254600026941
0.5075000000000001,0.0006244998925025443,-0.7832337714999922,0.0003750349850018598,-2.355426394999996,-0.0007403541650046277,1.570590174999998,0.7853261299999962,0.03999999,0.04,-9.810254074999987,-0.003293048148084454,-0.006010437580030042,-0.00861759175003318,-0.007858419255335947,-0.006723882400025929
0.51,0.0006323136400024447,-0.7832098719999925,0.000380746580001787,-2.355413959999996,-0.0007545660200044465,1.570583799999998,0.7853146399999964,0.03999999,0.04,-9.810215599999987,-0.003419094439635316,-0.006102696640028865,-0.008719489000031881,-0.0078044979832897704,-0.006803510200024913
0.5125,0.0006401273875023451,-0.7831859724999929,0.00038645817500171413,-2.355401524999996,-0.0007687778750042652,1.570577424999998,0.7853031499999965,0.03999999,0.04,-9.810177124999989,-0.0035451407311861785,-0.006194955700027688,-0.008821386250030582,-0.007750576711243593,-0.006883138000023898
0.515,0.0006479411350022457,-0.7831620729999932,0.00039216977000164154,-2.355389089999996,-0.0007829897300040845,1.570571049999998,0.7852916599999967,0.03999999,0.04,-9.810138649999988,-0.0036711870227370464,-0.006287214760026516,-0.008923283500029286,-0.007696655439197413,-0.006962765800022886
0.5175,0.0006559600225023534,-0.783137632999993,0.0003980311270017201,-2.355376269999996,-0.0007975739850042798,1.570564499999998,0.7852798699999965,0.0399999899,0.04,-9.810104349999992,-0.00380639976360456,-0.006390976345035393,-0.009026513650029567,-0.007641638116895073,-0.0070434713500231345
0.52,0.0006643891900023613,-0.7831121119999929,0.00040419200800172585,-2.355362679999996,-0.0008129030400042942,1.5705575999999979,0.7852674799999966,0.0399999896,0.04,-9.810078399999993,-0.003959945403082373,-0.006517742980035511,-0.009132409600029666,-0.0075844286940831545,-0.007126332400023212
0.5225,0.0006728183575023688,-0.7830865909999929,0.00041035288900173134,-2.355349089999996,-0.0008282320950043077,1.570550699999998,0.7852550899999965,0.0399999893,0.04,-9.810052449999992,-0.00411349104256018,-0.006644509615035624,-0.00923830555002976,-0.007527219271271238,-0.007209193450023285
0.525,0.0006812475250023766,-0.7830610699999928,0.00041651377000173704,-2.355335499999996,-0.0008435611500043221,1.570543799999998,0.7852426999999965,0.039999989,0.04,-9.810026499999992,-0.004267036682037993,-0.006771276250035742,-0.009344201500029858,-0.00747000984845932,-0.007292054500023362
0.5275,0.0006896766925023842,-0.7830355489999928,0.00042267465100174253,-2.355321909999996,-0.0008588902050043356,1.570536899999998,0.7852303099999965,0.0399999887,0.04,-9.810000549999993,-0.004420582321515799,-0.0068980428850358546,-0.009450097450029952,-0.007412800425647404,-0.007374915550023436
0.53,0.000698105860002392,-0.7830100279999928,0.0004288355320017483,-2.355308319999996,-0.0008742192600043499,1.570529999999998,0.7852179199999966,0.0399999884,0.04,-9.809974599999991,-0.004574127960993612,-0.007024809520035973,-0.009555993400030051,-0.007355591002835485,-0.007457776600023514
0.5325,0.0007065350275023994,-0.7829845069999928,0.0004349964130017537,-2.355294729999996,-0.0008895483150043636,1.570523099999998,0.7852055299999965,0.0399999881,0.04,-9.809948649999992,-0.004727673600471419,-0.007151576155036086,-0.009661889350030145,-0.00729838158002357,-0.007540637650023587
0.535,0.0007153897250026721,-0.782957835999992,0.00044146796100195284,-2.3552802999999956,-0.0009056496500048587,1.5705158199999978,0.7851925199999962,0.0399999876,0.0399999995,-9.809912949999987,-0.004880935885057183,-0.007266712330032216,-0.009770408550032366,-0.007238666759785913,-0.0076254550000252825
0.5375,0.0007244571875028038,-0.7829305899999915,0.00044809484250204915,-2.355265449999995,-0.0009221371250050982,1.5705083499999977,0.785179199999996,0.039999987,0.03999999875,-9.809872374999987,-0.005034056492197098,-0.0073760332750338045,-0.009880239375033963,-0.007177699240836998,-0.007711250500026529
0.54,0.0007335246500029361,-0.7829033439999912,0.0004547217240021457,-2.3552505999999953,-0.0009386246000053386,1.5705008799999975,0.7851658799999958,0.0399999864,0.039999998,-9.809831799999987,-0.00518717709933702,-0.0074853542200353975,-0.009990070200035563,-0.007116731721888079,-0.007797046000027779
0.5425,0.0007425921125030678,-0.7828760979999908,0.00046134860550224203,-2.355235749999995,-0.0009551120750055782,1.5704934099999974,0.7851525599999956,0.0399999858,0.03999999725,-9.809791224999985,-0.005340297706476934,-0.007594675165036985,-0.01009990102503716,-0.007055764202939163,-0.007882841500029027
0.545,0.0007516595750031999,-0.7828488519999904,0.0004679754870023386,-2.3552208999999946,-0.0009715995500058184,1.5704859399999973,0.7851392399999954,0.039999985200000004,0.0399999965,-9.809750649999986,-0.005493418313616856,-0.007703996110038578,-0.01020973185003876,-0.006994796683990245,-0.007968637000030277
0.5475,0.0007607270375033317,-0.78282160599999,0.0004746023685024349,-2.3552060499999947,-0.000988087025006058,1.5704784699999972,0.7851259199999951,0.0399999846,0.03999999575,-9.809710074999986,-0.005646538920756771,-0.007813317055040167,-0.010319562675040356,-0.0069338291650413286,-0.008054432500031523
0.55,0.0007697945000037164,-0.7827943599999889,0.0004812292500027158,-2.355191199999994,-0.0010045745000067565,1.5704709999999968,0.7851125999999946,0.039999984,0.039999995,-9.809669499999988,-0.005799659527907935,-0.007922638000054723,-0.010429393500043464,-0.006872861646091143,-0.008140228000033927
0.5525,0.0007795228610035923,-0.7827653109999893,0.0004883385750026251,-2.3551751199999944,-0.001022261450006531,1.5704629899999971,0.7850983199999948,0.039999984,0.039999995,-9.809638224999988,-0.005982210324213232,-0.008065891750052895,-0.010543172250042013,-0.0068085788748920234,-0.008229044425032795
0.555,0.0007892512220034686,-0.7827362619999897,0.0004954479000025347,-2.3551590399999944,-0.0010399484000063062,1.5704549799999972,0.785084039999995,0.039999984,0.039999995,-9.809606949999989,-0.0061647611205185365,-0.008209145500051074,-0.010656951000040566,-0.0067442961036929,-0.008317860850031666
0.5575,0.0007989795830033445,-0.78270721299999,0.0005025572250024441,-2.3551429599999945,-0.0010576353500060807,1.5704469699999972,0.7850697599999951,0.039999984,0.039999995,-9.809575674999989,-0.0063473119168238334,-0.008352399250049249,-0.010770729750039116,-0.00668001333249378,-0.008406677275030533
0.56,0.0008087079440032208,-0.7826781639999905,0.0005096665500023538,-2.355126879999995,-0.0010753223000058557,1.5704389599999973,0.7850554799999953,0.039999984,0.039999995,-9.80954439999999,-0.006529862713129138,-0.008495653000047428,-0.010884508500037669,-0.006615730561294657,-0.008495493700029404
0.5625,0.0008184363050030967,-0.7826491149999908,0.000516775875002263,-2.355110799999995,-0.0010930092500056302,1.5704309499999975,0.7850411999999954,0.039999984,0.039999995,-9.80951312499999,-0.006712413509434435,-0.0086389067500456,-0.010998287250036218,-0.006551447790095537,-0.008584310125028272
0.5650000000000001,0.0008281646660029731,-0.7826200659999911,0.0005238852000021728,-2.3550947199999954,-0.0011106962000054055,1.5704229399999976,0.7850269199999956,0.039999984,0.039999995,-9.80948184999999,-0.00689496430573974,-0.00878216050004378,-0.011112066000034771,-0.0064871650188964135,-0.008673126550027143
0.5675,0.0008381207555030964,-0.7825903899999909,0.0005311607625022627,-2.355078224999995,-0.001128796425005629,1.5704147399999975,0.7850123049999954,0.0399999838,0.039999995,-9.80944959999999,-0.007080681412537867,-0.008926443850043523,-0.011227111475034968,-0.006421729689443758,-0.008762977125027337
0.5700000000000001,0.0008485323020031062,-0.7825594599999908,0.0005387688000022698,-2.355060899999995,-0.0011477232000056466,1.5704061599999974,0.7849970199999954,0.0399999832,0.039999995,-9.80941539999999,-0.007272731140313196,-0.009072786400043659,-0.011344690400035079,-0.00635398924348711,-0.008854896000027422
0.5725,0.0008589438485031153,-0.7825285299999908,0.0005463768375022765,-2.355043574999995,-0.0011666499750056635,1.5703975799999974,0.7849817349999955,0.0399999826,0.039999995,-9.80938119999999,-0.007464780868088517,-0.00921912895004379,-0.011462269325035183,-0.006286248797530465,-0.008946814875027504
0.5750000000000001,0.0008693553950031251,-0.7824975999999907,0.0005539848750022836,-2.355026249999995,-0.001185576750005681,1.5703889999999974,0.7849664499999954,0.039999981999999996,0.039999995,-9.80934699999999,-0.007656830595863846,-0.009365471500043927,-0.011579848250035293,-0.006218508351573817,-0.00903873375002759
0.5775,0.0008797669415031344,-0.7824666699999907,0.0005615929125022904,-2.355008924999995,-0.001204503525005698,1.5703804199999973,0.7849511649999954,0.0399999814,0.039999995,-9.80931279999999,-0.007848880323639167,-0.009511814050044056,-0.011697427175035397,-0.006150767905617172,-0.009130652625027671
0.58,0.0008901784880031436,-0.7824357399999906,0.0005692009500022972,-2.3549915999999946,-0.0012234303000057147,1.5703718399999975,0.7849358799999954,0.0399999808,0.039999995,-9.80927859999999,-0.008040930051414487,-0.009658156600044187,-0.011815006100035502,-0.006083027459660527,-0.009222571500027754
0.5825,0.0009005900345031533,-0.7824048099999906,0.0005768089875023043,-2.3549742749999947,-0.0012423570750057325,1.5703632599999975,0.7849205949999953,0.0399999802,0.039999995,-9.80924439999999,-0.008232979779189816,-0.009804499150044324,-0.011932585025035611,-0.0060152870137038785,-0.00931449037502784
0.585,0.0009114716350033768,-0.78237258599999,0.0005847601400024673,-2.3549561299999944,-0.0012621367500061378,1.570354299999997,0.7849046199999951,0.0399999797,0.0399999943,-9.809216899999994,-0.008429458737433644,-0.009952000950044981,-0.012052705000036874,-0.005945548601427003,-0.009408192000028733
0.5875,0.0009225882625033871,-0.78233971499999,0.0005928828500024749,-2.3549375749999943,-0.0012823428750061566,1.5703451499999972,0.784888299999995,0.03999997925,0.039999993250000004,-9.809192749999994,-0.008628152310908715,-0.01010008237504512,-0.012174095500036987,-0.005874811205991372,-0.009502785000028822
0.59,0.000933704890003397,-0.78230684399999,0.0006010055600024822,-2.3549190199999943,-0.0013025490000061746,1.570335999999997,0.784871979999995,0.039999978799999995,0.0399999922,-9.809168599999992,-0.008826845884383776,-0.01024816380004525,-0.012295486000037095,-0.005804073810555744,-0.009597378000028906
0.5925,0.0009448215175034074,-0.7822739729999899,0.0006091282700024897,-2.3549004649999943,-0.0013227551250061934,1.5703268499999972,0.784855659999995,0.03999997835,0.039999991150000004,-9.809144449999993,-0.009025539457858847,-0.010396245225045389,-0.012416876500037208,-0.005733336415120113,-0.009691971000028995
0.595,0.0009559381450034173,-0.7822411019999899,0.000617250980002497,-2.3548819099999942,-0.0013429612500062114,1.570317699999997,0.784839339999995,0.0399999779,0.0399999901,-9.809120299999993,-0.00922423303133391,-0.01054432665004552,-0.012538267000037314,-0.005662599019684486,-0.009786564000029079
0.5975,0.0009670547725034276,-0.7822082309999898,0.0006253736900025045,-2.354863354999994,-0.0013631673750062303,1.5703085499999971,0.7848230199999949,0.03999997745,0.039999989050000004,-9.809096149999993,-0.009422926604808979,-0.010692408075045658,-0.012659657500037428,-0.005591861624248854,-0.009881157000029166
0.6,0.0009781714000036623,-0.7821753599999892,0.0006334964000026757,-2.3548447999999937,-0.001383373500006656,1.5702993999999968,0.7848066999999946,0.039999977,0.039999988,-9.809071999999995,-0.009621620178294427,-0.010840489500057377,-0.012781048000038667,-0.005521124228812379,-0.00997575000003022
0.6025,0.0009900147250036732,-0.7821404819999892,0.0006421496000026838,-2.354824879999994,-0.001404898470006676,1.570289649999997,0.7847893149999946,0.0399999764,0.039999988,-9.809055799999996,-0.009853904228729475,-0.01102604527505755,-0.012906097750038785,-0.005447646160587216,-0.01007347965003031
0.605,0.0010018580500036837,-0.7821056039999892,0.0006508028000026915,-2.354804959999994,-0.0014264234400066952,1.570279899999997,0.7847719299999946,0.0399999758,0.039999988,-9.809039599999995,-0.01008618827916451,-0.011211601050057715,-0.013031147500038896,-0.005374168092362055,-0.010171209300030399
0.6075,0.0010137013750036949,-0.7820707259999892,0.0006594560000026996,-2.3547850399999937,-0.0014479484100067153,1.570270149999997,0.7847545449999945,0.0399999752,0.039999988,-9.809023399999996,-0.010318472329599556,-0.011397156825057889,-0.013156197250039012,-0.0053006900241368915,-0.01026893895003049
0.61,0.0010255447000037054,-0.7820358479999892,0.0006681092000027073,-2.354765119999994,-0.0014694733800067344,1.570260399999997,0.7847371599999946,0.0399999746,0.039999988,-9.809007199999995,-0.010550756380034592,-0.011582712600058054,-0.013281247000039123,-0.0052272119559117316,-0.010366668600030576
0.6125,0.0010373880250037163,-0.782000969999989,0.0006767624000027153,-2.3547451999999938,-0.0014909983500067544,1.5702506499999969,0.7847197749999946,0.039999974,0.039999988,-9.808990999999995,-0.01078304043046964,-0.011768268375058226,-0.01340629675003924,-0.005153733887686568,-0.010464398250030668
0.615,0.0010492313500037268,-0.781966091999989,0.000685415600002723,-2.354725279999994,-0.0015125233200067737,1.5702408999999968,0.7847023899999945,0.0399999734,0.039999988,-9.808974799999994,-0.011015324480904675,-0.011953824150058391,-0.013531346500039352,-0.005080255819461408,-0.010562127900030754
0.6175,0.0010613239950039738,-0.7819305199999884,0.0006942507900029034,-2.3547049499999932,-0.001534500620007222,1.5702309549999967,0.7846846349999942,0.03999997285,0.0399999876,-9.80895314999999,-0.011247667856587778,-0.012135217100054623,-0.013657620250040628,-0.005005667149064968,-0.010660714300031657
0.62,0.001073915280003985,-0.7818935599999883,0.0007034499600029116,-2.3546837999999934,-0.0015573825800072423,1.5702206199999966,0.7846661399999941,0.0399999724,0.0399999864,-9.80892059999999,-0.011480129882766815,-0.012308284400054777,-0.013786342000040742,-0.00492885727432913,-0.010761014200031746
0.6225,0.0010865065650039968,-0.7818565999999884,0.0007126491300029201,-2.354662649999993,-0.0015802645400072636,1.5702102849999966,0.7846476449999942,0.039999971950000004,0.0399999852,-9.80888804999999,-0.011712591908945861,-0.012481351700054938,-0.013915063750040861,-0.004852047399593288,-0.010861314100031839
0.625,0.001099097850004008,-0.7818196399999883,0.0007218483000029283,-2.3546414999999934,-0.0016031465000072838,1.5701999499999968,0.7846291499999941,0.0399999715,0.039999983999999995,-9.80885549999999,-0.011945053935124898,-0.012654419000055091,-0.014043785500040975,-0.00477523752485745,-0.010961614000031929
0.6275000000000001,0.0011116891350040198,-0.7817826799999883,0.0007310474700029368,-2.354620349999993,-0.001626028460007305,1.5701896149999968,0.784610654999994,0.03999997105,0.0399999828,-9.808822949999989,-0.012177515961303946,-0.012827486300055252,-0.014172507250041095,-0.004698427650121608,-0.011061913900032022
0.63,0.001124280420004031,-0.7817457199999882,0.000740246640002945,-2.3545991999999933,-0.0016489104200073255,1.5701792799999967,0.7845921599999941,0.039999970600000004,0.0399999816,-9.80879039999999,-0.012409977987482982,-0.013000553600055406,-0.014301229000041209,-0.00462161777538577,-0.01116221380003211
0.6325000000000001,0.0011368717050040426,-0.7817087599999882,0.0007494458100029536,-2.354578049999993,-0.0016717923800073468,1.5701689449999967,0.784573664999994,0.03999997015,0.039999980399999996,-9.80875784999999,-0.012642440013662028,-0.013173620900055567,-0.01442995075004133,-0.0045448079006499284,-0.011262513700032204
0.635,0.0011499754500043013,-0.7816703759999875,0.0007590190800031424,-2.3545559699999927,-0.0016956043100078162,1.5701582099999967,0.7845544199999936,0.039999969600000004,0.0399999797,-9.8087451,-0.012897654809143464,-0.0133758437000698,-0.014561015400042576,-0.004466492123876333,-0.01136475230003323
0.6375000000000001,0.0011633354250043138,-0.7816312799999874,0.0007687794000031515,-2.3545334249999925,-0.001719881225007839,1.5701472749999965,0.7845347999999936,0.039999969,0.03999997925,-9.80874225,-0.013164245989259657,-0.013592644250070004,-0.0146932515000427,-0.004387423396084944,-0.011467960250033327
0.64,0.0011766954000043256,-0.7815921839999874,0.0007785397200031603,-2.3545108799999928,-0.0017441581400078605,1.5701363399999966,0.7845151799999937,0.0399999684,0.039999978799999995,-9.808739399999999,-0.013430837169375839,-0.013809444800070196,-0.014825487600042816,-0.004308354668293559,-0.011571168200033418
0.6425,0.0011900553750043375,-0.7815530879999874,0.0007883000400031689,-2.3544883349999925,-0.001768435055007882,1.5701254049999964,0.7844955599999937,0.0399999678,0.03999997835,-9.808736549999999,-0.01369742834949202,-0.014026245350070389,-0.014957723700042933,-0.004229285940502174,-0.011674376150033508
0.645,0.00120341535000435,-0.7815139919999873,0.0007980603600031779,-2.354465789999993,-0.0017927119700079047,1.5701144699999965,0.7844759399999935,0.0399999672,0.0399999779,-9.8087337,-0.013964019529608214,-0.01424304590007059,-0.015089959800043056,-0.004150217212710785,-0.011777584100033605
0.6475,0.001216775325004362,-0.7814748959999872,0.0008078206800031867,-2.3544432449999926,-0.0018169888850079262,1.5701035349999963,0.7844563199999935,0.0399999666,0.03999997745,-9.80873085,-0.014230610709724395,-0.014459846450070783,-0.015222195900043175,-0.0040711484849194,-0.011880792050033697
0.65,0.0012301353000046327,-0.7814357999999865,0.0008175810000033844,-2.354420699999992,-0.0018412658000084177,1.5700925999999962,0.7844366999999932,0.039999966,0.039999977,-9.80872799999999,-0.014497201889841209,-0.014676647000066302,-0.015354432000044452,-0.003992079757126971,-0.011984000000034726
0.6525,0.0012442846050046454,-0.7813944824999864,0.0008279174790033935,-2.354396594999992,-0.0018669748250084407,1.570081004999996,0.7844159309999932,0.0399999651,0.039999977,-9.80869784999999,-0.014765683747916113,-0.014879141750066481,-0.015490195650044574,-0.003909834532505753,-0.01209005720003482
0.655,0.0012584339100046586,-0.7813531649999864,0.0008382539580034032,-2.354372489999992,-0.0018926838500084647,1.5700694099999961,0.7843951619999932,0.0399999642,0.039999977,-9.80866769999999,-0.015034165605991027,-0.015081636500066671,-0.0156259593000447,-0.0038275893078845314,-0.01219611440003492
0.6575,0.001272583215004671,-0.7813118474999864,0.0008485904370034124,-2.354348384999992,-0.0019183928750084874,1.5700578149999962,0.7843743929999931,0.0399999633,0.039999977,-9.80863754999999,-0.01530264746406593,-0.01528413125006685,-0.01576172295004482,-0.003745344083263313,-0.012302171600035014
0.66,0.0012867325200046843,-0.7812705299999863,0.0008589269160034221,-2.354324279999992,-0.0019441019000085115,1.570046219999996,0.7843536239999931,0.0399999624,0.039999977,-9.80860739999999,-0.015571129322140847,-0.015486626000067038,-0.015897486600044947,-0.0036630988586420915,-0.012408228800035111
0.6625,0.001300881825004697,-0.7812292124999862,0.0008692633950034312,-2.354300174999992,-0.0019698109250085344,1.5700346249999961,0.7843328549999932,0.0399999615,0.039999977,-9.80857724999999,-0.01583961118021575,-0.015689120750067218,-0.016033250250045067,-0.0035808536340208733,-0.012514286000035206
0.665,0.0013150311300047103,-0.7811878949999862,0.0008795998740034409,-2.354276069999992,-0.0019955199500085582,1.570023029999996,0.7843120859999931,0.0399999606,0.039999977,-9.80854709999999,-0.016108093038290666,-0.01589161550006741,-0.016169013900045194,-0.0034986084093996516,-0.012620343200035305
0.6675,0.0013294502050049928,-0.7811458244999854,0.0008901332655036473,-2.3542514749999914,-0.0020217184300090714,1.5700112099999959,0.7842909229999927,0.0399999599,0.039999976799999996,-9.808515174999988,-0.016387914680045444,-0.016108752050082248,-0.016305956800046498,-0.0034152967389387058,-0.012727246600036247
0.67,0.0013444088200050069,-0.7811022479999854,0.0009010604820036574,-2.3542258999999914,-0.0020488958200090964,1.5699989399999958,0.7842689719999927,0.0399999596,0.0399999762,-9.808479699999989,-0.01669041588912595,-0.01635517220008248,-0.016445258200046626,-0.003329852176801501,-0.012835842400036348
0.6725,0.00135936743500502,-0.7810586714999853,0.0009119876985036672,-2.3542003249999914,-0.0020760732100091207,1.5699866699999958,0.7842470209999927,0.0399999593,0.0399999756,-9.808444224999988,-0.016992917098206443,-0.016601592350082697,-0.01658455960004675,-0.0032444076146643,-0.012944438200036445
0.675,0.0013743260500050341,-0.7810150949999853,0.0009229149150036774,-2.3541747499999914,-0.002103250600009146,1.5699743999999958,0.7842250699999926,0.039999959,0.039999975,-9.808408749999987,-0.017295418307286953,-0.016848012500082925,-0.01672386100004688,-0.0031589630525270954,-0.013053034000036545
0.6775,0.0013892846650050473,-0.7809715184999853,0.0009338421315036871,-2.3541491749999914,-0.0021304279900091704,1.569962129999996,0.7842031189999926,0.039999958700000005,0.0399999744,-9.808373274999989,-0.017597919516367445,-0.017094432650083147,-0.016863162400047003,-0.0030735184903898944,-0.013161629800036642
0.68,0.0014042432800050614,-0.7809279419999853,0.0009447693480036973,-2.3541235999999914,-0.0021576053800091955,1.569949859999996,0.7841811679999926,0.0399999584,0.0399999738,-9.808337799999988,-0.017900420725447952,-0.017340852800083375,-0.017002463800047135,-0.0029880739282526895,-0.013270225600036743
0.6825,0.0014192018950050745,-0.7808843654999853,0.000955696564503707,-2.3540980249999914,-0.0021847827700092197,1.5699375899999959,0.7841592169999926,0.0399999581,0.039999973200000004,-9.808302324999987,-0.018202921934528445,-0.017587272950083593,-0.017141765200047256,-0.0029026293661154885,-0.01337882140003684
0.685,0.0014347131900053706,-0.7808392159999844,0.000967027223003923,-2.354071619999991,-0.0022129629100097565,1.5699248699999957,0.7841364599999922,0.039999958,0.039999973,-9.80827189999999,-0.018506979197367407,-0.017823116800078427,-0.017283318500048536,-0.0028152677230235857,-0.013489156400037828
0.6875,0.0014505008250053847,-0.7807932799999844,0.0009785596025039334,-2.354044799999991,-0.0022416444250097822,1.5699119249999958,0.7841132999999921,0.039999958,0.039999973,-9.808243999999991,-0.018811814487084393,-0.01805367250007863,-0.017425997750048664,-0.0027269475394558025,-0.013600361000037926
0.6900000000000001,0.0014662884600053993,-0.7807473439999844,0.000990091982003944,-2.354017979999991,-0.002270325940009809,1.5698989799999956,0.7840901399999921,0.039999958,0.039999973,-9.80821609999999,-0.01911664977680139,-0.01828422820007885,-0.017568677000048796,-0.002638627355888015,-0.013711565600038032
0.6925,0.0014820760950054134,-0.7807014079999843,0.0010016243615039544,-2.3539911599999908,-0.0022990074550098345,1.5698860349999957,0.7840669799999921,0.039999958,0.039999973,-9.808188199999991,-0.019421485066518376,-0.018514783900079053,-0.017711356250048924,-0.002550307172320232,-0.01382277020003813
0.6950000000000001,0.0014978637300054282,-0.7806554719999842,0.001013156741003965,-2.3539643399999908,-0.002327688970009861,1.5698730899999958,0.7840438199999921,0.039999958,0.039999973,-9.80816029999999,-0.019726320356235377,-0.018745339600079267,-0.017854035500049055,-0.0024619869887524443,-0.013933974800038234
0.6975,0.001513651365005442,-0.7806095359999842,0.0010246891205039754,-2.353937519999991,-0.0023563704850098864,1.5698601449999956,0.784020659999992,0.039999958,0.039999973,-9.808132399999991,-0.020031155645952363,-0.01897589530007947,-0.017996714750049183,-0.0023736668051846607,-0.014045179400038332
0.7000000000000001,0.00152943900000575,-0.7805635999999834,0.0010362215000042,-2.3539106999999904,-0.002385052000010445,1.5698471999999954,0.7839974999999916,0.039999958,0.039999973,-9.808104500000006,-0.020335990935681766,-0.019206451000097217,-0.01813939400005047,-0.002285346621616451,-0.01415638400003932
0.7025,0.0015460749300055378,-0.7805153104999839,0.001048373075004045,-2.353882199999991,-0.0024152726500100597,1.5698335949999955,0.7839730799999919,0.039999958,0.039999973,-9.808121225000006,-0.020676715578997265,-0.01948772290009363,-0.018285414350048608,-0.0021958049677479282,-0.014270147450037868
0.705,0.0015627108600053256,-0.7804670209999846,0.00106052465000389,-2.353853699999991,-0.002445493300009674,1.5698199899999956,0.7839486599999922,0.039999958,0.039999973,-9.808137950000006,-0.021017440222312764,-0.01976899480009004,-0.018431434700046746,-0.0021062633138794053,-0.014383910900036418
0.7075,0.0015793467900051142,-0.7804187314999852,0.0010726762250037355,-2.3538251999999913,-0.00247571395000929,1.569806384999996,0.7839242399999925,0.039999958,0.039999973,-9.808154675000006,-0.02135816486562828,-0.02005026670008647,-0.018577455050044888,-0.0020167216600108784,-0.014497674350034972
0.71,0.001595982720004902,-0.7803704419999857,0.0010848278000035805,-2.3537966999999917,-0.0025059346000089046,1.569792779999996,0.7838998199999928,0.039999958,0.039999973,-9.808171400000004,-0.02169888950894378,-0.02033153860008288,-0.018723475400043026,-0.0019271800061423554,-0.014611437800033522
0.7125,0.0016126186500046904,-0.7803221524999864,0.0010969793750034262,-2.353768199999992,-0.002536155250008521,1.569779174999996,0.7838753999999931,0.039999958,0.039999973,-9.808188125000004,-0.022039614152259294,-0.020612810500079307,-0.01886949575004117,-0.0018376383522738285,-0.014725201250032075
0.715,0.0016292545800044784,-0.780273862999987,0.0011091309500032712,-2.3537396999999927,-0.0025663759000081354,1.5697655699999964,0.7838509799999934,0.039999958,0.039999973,-9.808204850000005,-0.022380338795574793,-0.020894082400075717,-0.01901551610003931,-0.0017480966984053056,-0.014838964700030625
0.7175,0.0016461795600046486,-0.7802247514999865,0.0011214935250033952,-2.3537106849999923,-0.002597120965008444,1.5697517249999962,0.7838261399999932,0.0399999578,0.03999997285,-9.808200849999988,-0.022722385544421384,-0.02116985465007032,-0.01916260075003963,-0.0016573475498924122,-0.014953557450030875
0.72,0.001663682640004903,-0.7801739959999858,0.001134278100003581,-2.353680639999992,-0.0026289148600089057,1.569737399999996,0.7838004599999928,0.0399999572,0.0399999724,-9.808155399999986,-0.023067076504327013,-0.021434627600074165,-0.019311814000041796,-0.0015641834120936234,-0.015069808800032563
0.7225,0.001681185720005158,-0.780123240499985,0.0011470626750037674,-2.353650594999991,-0.002660708755009369,1.5697230749999957,0.7837747799999925,0.0399999566,0.039999971950000004,-9.808109949999986,-0.023411767464232656,-0.021699400550078025,-0.019461027250043974,-0.0014710192742948306,-0.015186060150034257
0.725,0.0016986888000054122,-0.7800724849999843,0.0011598472500039532,-2.3536205499999907,-0.002692502650009831,1.5697087499999955,0.783749099999992,0.039999955999999996,0.0399999715,-9.808064499999986,-0.023756458424138285,-0.021964173500081872,-0.01961024050004614,-0.0013778551364960418,-0.015302311500035947
0.7275,0.0017161918800056675,-0.7800217294999835,0.0011726318250041396,-2.3535905049999903,-0.0027242965450102945,1.5696944249999953,0.7837234199999916,0.0399999554,0.03999997105,-9.808019049999984,-0.024101149384043927,-0.022228946450085732,-0.019759453750048315,-0.001284690998697249,-0.015418562850037641
0.73,0.0017336949600059218,-0.7799709739999828,0.0011854164000043254,-2.35356045999999,-0.0027560904400107567,1.5696800999999951,0.7836977399999913,0.0399999548,0.039999970600000004,-9.807973599999984,-0.024445840343949556,-0.02249371940008958,-0.019908667000050482,-0.0011915268608984602,-0.01553481420003933
0.7325,0.001751198040006177,-0.779920218499982,0.0011982009750045118,-2.353530414999989,-0.0027878843350112197,1.569665774999995,0.7836720599999909,0.0399999542,0.03999997015,-9.807928149999983,-0.0247905313038552,-0.02275849235009344,-0.02005788025005266,-0.0010983627230996672,-0.015651065550041025
0.735,0.0017692915200065893,-0.7798677869999808,0.0012114165500048128,-2.3534993899999885,-0.0028207493700119685,1.5696509399999945,0.7836455199999903,0.039999954,0.03999997,-9.807902599999993,-0.025159385427969073,-0.023054988600111927,-0.020209279200054643,-0.0010036949329899876,-0.01576894310004253
0.7375,0.0017876802000066066,-0.7798145174999809,0.0012248476250048253,-2.3534678749999887,-0.002854149975012,1.5696358499999945,0.7836185499999903,0.039999954,0.03999997,-9.807886999999994,-0.025540321134167633,-0.02336734650011222,-0.020361771000054787,-0.0009082753167260688,-0.01588763375004264
0.74,0.0018060688800066228,-0.7797612479999808,0.0012382787000048373,-2.3534363599999883,-0.0028875505800120293,1.5696207599999945,0.7835915799999903,0.039999954,0.03999997,-9.807871399999994,-0.025921256840366176,-0.023679704400112498,-0.02051426280005492,-0.000812855700462154,-0.016006324400042744
0.7425,0.00182445756000664,-0.7797079784999807,0.0012517097750048497,-2.3534048449999885,-0.0029209511850120605,1.5696056699999945,0.7835646099999902,0.039999954,0.03999997,-9.807855799999995,-0.026302192546564736,-0.02399206230011279,-0.020666754600055064,-0.0007174360841982351,-0.016125015050042858
0.745,0.0018428462400066562,-0.7796547089999807,0.0012651408500048617,-2.3533733299999886,-0.00295435179001209,1.5695905799999945,0.7835376399999903,0.039999954,0.03999997,-9.807840199999994,-0.02668312825276328,-0.024304420200113065,-0.0208192464000552,-0.0006220164679343203,-0.016243705700042962
0.7475,0.0018612349200066735,-0.7796014394999806,0.0012785719250048742,-2.3533418149999883,-0.0029877523950121213,1.5695754899999945,0.7835106699999902,0.039999954,0.03999997,-9.807824599999995,-0.02706406395896184,-0.024616778100113357,-0.02097173820005534,-0.0005265968516704014,-0.016362396350043072
0.75,0.0018796236000070184,-0.7795481699999797,0.001292003000005126,-2.353310299999988,-0.0030211530000127476,1.5695603999999943,0.7834836999999897,0.039999954,0.03999997,-9.807808999999999,-0.02744499966516199,-0.024929136000109056,-0.02112423000005661,-0.0004311772354058932,-0.016481087000044095
0.7525000000000001,0.0018989159100072997,-0.7794923594999789,0.0013060936850053315,-2.3532770899999873,-0.0030561931500132583,1.5695446049999942,0.7834554009999893,0.039999954,0.039999970450000005,-9.80780465,-0.027830347046401784,-0.025228901100113423,-0.02127983460005888,-0.0003341267146966387,-0.01660229435004586
0.755,0.00191820822000758,-0.779436548999978,0.0013201843700055363,-2.353243879999987,-0.0030912333000137674,1.5695288099999938,0.7834271019999889,0.039999954,0.0399999709,-9.807800299999998,-0.028215694427641564,-0.02552866620011778,-0.02143543920006114,-0.0002370761939873885,-0.016723501700047622
0.7575000000000001,0.0019375005300078614,-0.7793807384999772,0.0013342750550057417,-2.3532106699999864,-0.003126273450014278,1.5695130149999936,0.7833988029999885,0.039999954,0.03999997135,-9.80779595,-0.02860104180888136,-0.02582843130012215,-0.021591043800063405,-0.00014002567327813404,-0.016844709050049388
0.76,0.0019567928400081418,-0.7793249279999764,0.0013483657400059465,-2.3531774599999857,-0.0031613136000147872,1.5694972199999935,0.7833705039999881,0.039999954,0.0399999718,-9.807791599999998,-0.02898638919012114,-0.026128196400126504,-0.02174664840006567,-4.297515256888385e-05,-0.01696591640005115
0.7625000000000001,0.001976085150008423,-0.7792691174999756,0.0013624564250061518,-2.3531442499999855,-0.003196353750015298,1.569481424999993,0.7833422049999876,0.039999954,0.03999997225,-9.807787249999997,-0.029371736571360937,-0.026427961500130874,-0.021902253000067935,5.407536814037067e-05,-0.01708712375005292
0.765,0.0019953774600087034,-0.7792133069999748,0.0013765471100063566,-2.353111039999985,-0.003231393900015807,1.569465629999993,0.7833139059999873,0.039999954,0.039999972700000004,-9.807782899999998,-0.029757083952600714,-0.02672772660013523,-0.022057857600070195,0.00015112588884962086,-0.017208331100054677
0.7675000000000001,0.0020149768500092296,-0.7791566299999734,0.001390861965006741,-2.353077324999984,-0.003266991150016762,1.5694495949999925,0.7832851529999865,0.039999953799999995,0.03999997285,-9.807769799999985,-0.03015452604760107,-0.027044399100160033,-0.02221448005007244,0.0002491905368972219,-0.017330261900056335
0.77,0.0020351904000089718,-0.7790982199999741,0.0014056251600065525,-2.3530425999999847,-0.003303702600016294,1.5694330799999927,0.7832554919999869,0.0399999532,0.0399999724,-9.807739199999986,-0.030576157570072357,-0.02739488640015556,-0.02237313820007042,0.00034928343961730527,-0.01745363960005476
0.7725,0.002055403950008714,-0.7790398099999749,0.0014203883550063642,-2.3530078749999848,-0.0033404140500158256,1.569416564999993,0.7832258309999872,0.0399999526,0.039999971950000004,-9.807708599999986,-0.030997789092543644,-0.02774537370015109,-0.022531796350068394,0.0004493763423373887,-0.017577017300053187
0.775,0.002075617500008457,-0.7789813999999756,0.0014351515500061766,-2.3529731499999853,-0.003377125500015359,1.5694000499999932,0.7831961699999876,0.039999952,0.0399999715,-9.807677999999987,-0.03141942061501495,-0.028095861000146636,-0.02269045450006638,0.0005494692450574766,-0.01770039500005162
0.7775,0.0020958310500081992,-0.7789229899999763,0.0014499147450059884,-2.352938424999986,-0.003413836950014891,1.5693835349999934,0.783166508999988,0.0399999514,0.03999997105,-9.807647399999986,-0.03184105213748624,-0.028446348300142168,-0.022849112650064354,0.00064956214777756,-0.017823772700050047
0.78,0.0021160446000079423,-0.778864579999977,0.0014646779400058006,-2.3529036999999864,-0.0034505484000144243,1.5693670199999936,0.7831368479999884,0.039999950799999996,0.039999970600000004,-9.807616799999987,-0.03226268365995755,-0.028796835600137714,-0.02300777080006234,0.0007496550504976477,-0.01794715040004848
0.7825,0.002136258150007684,-0.7788061699999779,0.0014794411350056123,-2.352868974999987,-0.003487259850013956,1.5693505049999936,0.7831071869999887,0.0399999502,0.03999997015,-9.807586199999987,-0.032684315182428834,-0.029147322900133242,-0.023166428950060314,0.0008497479532177312,-0.018070528100046904
0.785,0.0021570972500081567,-0.7787459899999765,0.0014946610200059574,-2.352833059999986,-0.0035251062200148137,1.5693334499999934,0.7830766139999881,0.03999995,0.03999997,-9.807569699999995,-0.033109099045560204,-0.029486462100128598,-0.023327042500062317,0.0009510758624338841,-0.018195399800048445
0.7875,0.0021782491250084642,-0.7786849249999755,0.001510109250006182,-2.352796549999985,-0.0035635200500153718,1.5693161249999932,0.7830455849999876,0.03999995,0.03999997,-9.807560249999996,-0.03353545907901892,-0.029819927250133445,-0.023488633750064665,0.0010530212748970204,-0.01832101850005027
0.79,0.0021994010000087726,-0.7786238599999746,0.001525557480006407,-2.352760039999985,-0.0036019338800159315,1.5692987999999928,0.7830145559999871,0.03999995,0.03999997,-9.807550799999996,-0.03396181911247765,-0.030153392400138302,-0.02365022500006702,0.0011549666873601613,-0.0184466372000521
0.7925,0.0022205528750090797,-0.7785627949999738,0.0015410057100066316,-2.3527235299999845,-0.00364034771001649,1.5692814749999926,0.7829835269999866,0.03999995,0.03999997,-9.807541349999996,-0.034388179145936365,-0.03048685755014315,-0.023811816250069368,0.0012569120998232974,-0.018572255900053927
0.795,0.002241704750009388,-0.7785017299999729,0.0015564539400068568,-2.352687019999984,-0.0036787615400170498,1.5692641499999924,0.7829524979999862,0.03999995,0.03999997,-9.807531899999995,-0.0348145391793951,-0.03082032270014801,-0.023973407500071722,0.0013588575122864383,-0.01869787460005576
0.7975,0.0022628566250096956,-0.778440664999972,0.0015719021700070811,-2.3526505099999833,-0.0037171753700176078,1.569246824999992,0.7829214689999857,0.03999995,0.03999997,-9.807522449999995,-0.03524089921285382,-0.031153787850152853,-0.02413499875007407,0.0014608029247495749,-0.018823493300057583
0.8,0.0022840085000104555,-0.7783795999999698,0.0015873504000076361,-2.3526139999999818,-0.0037555892000189876,1.5692294999999914,0.7828904399999846,0.03999995,0.03999997,-9.807512999999986,-0.0356672592463336,-0.031487253000182576,-0.024296590000077792,0.0015627483372139526,-0.018949112000060764
0.8025,0.0023061156050104754,-0.7783158289999698,0.0016034959200076505,-2.352575899999982,-0.003795736220019023,1.5692113949999915,0.7828580114999846,0.03999995,0.0399999721,-9.807482849999985,-0.03613811992131131,-0.031873287000182916,-0.024461072500077938,0.0016673092614423205,-0.01907758730006088
0.805,0.0023282227100104957,-0.7782520579999697,0.0016196414400076655,-2.3525377999999817,-0.0038358832400190606,1.5691932899999914,0.7828255829999846,0.03999995,0.0399999742,-9.807452699999986,-0.036608980596289045,-0.03225932100018328,-0.024625555000078094,0.0017718701856706928,-0.019206062600060997
0.8075,0.0023503298150105156,-0.7781882869999697,0.0016357869600076799,-2.352499699999982,-0.0038760302600190965,1.5691751849999913,0.7827931544999845,0.03999995,0.039999976300000004,-9.807422549999986,-0.037079841271266754,-0.032645355000183625,-0.02479003750007824,0.0018764311098990608,-0.01933453790006111
0.81,0.002372436920010536,-0.7781245159999696,0.0016519324800076949,-2.352461599999982,-0.0039161772800191345,1.5691570799999914,0.7827607259999846,0.03999995,0.039999978400000004,-9.807392399999985,-0.03755070194624449,-0.033031389000183986,-0.024954520000078393,0.0019809920341274335,-0.01946301320006123
0.8125,0.002394544025010556,-0.7780607449999696,0.0016680780000077092,-2.352423499999982,-0.00395632430001917,1.5691389749999913,0.7827282974999845,0.03999995,0.039999980500000004,-9.807362249999985,-0.0380215626212222,-0.033417423000184326,-0.02511900250007854,0.002085552958355801,-0.019591488500061344
0.8150000000000001,0.0024166511300105762,-0.7779969739999695,0.0016842235200077245,-2.352385399999982,-0.003996471320019207,1.5691208699999912,0.7826958689999844,0.03999995,0.039999982600000004,-9.807332099999986,-0.03849242329619994,-0.03380345700018469,-0.025283485000078692,0.0021901138825841738,-0.019719963800061465
0.8175,0.002439082090010957,-0.7779322719999684,0.001700605420008002,-2.352346709999981,-0.004037205665019897,1.5691025099999911,0.7826629624999839,0.03999995,0.039999984800000006,-9.80731245,-0.038965228572714075,-0.03419101545018544,-0.02544892210007945,0.0022951590014193006,-0.019849056750061874
0.8200000000000001,0.0024621607600106635,-0.7778657079999692,0.0017174600800077878,-2.3523068399999816,-0.004079114660019365,1.5690836399999912,0.7826290999999843,0.03999995,0.0399999872,-9.807313800000001,-0.039441923052292716,-0.034581622800180484,-0.025616268400077323,0.002401172509465863,-0.019979385000060218
0.8225,0.002485239430010369,-0.7777991439999701,0.0017343147400075728,-2.352266969999982,-0.00412102365501883,1.5690647699999916,0.7825952374999848,0.03999995,0.0399999896,-9.80731515,-0.03991861753187133,-0.0349722301501755,-0.02578361470007519,0.0025071860175124214,-0.020109713250058555
0.8250000000000001,0.002508318100010076,-0.7777325799999709,0.0017511694000073585,-2.3522270999999826,-0.004162932650018297,1.5690458999999917,0.7825613749999852,0.03999995,0.039999992000000005,-9.8073165,-0.04039531201144996,-0.03536283750017053,-0.02595096100007306,0.002613199525558984,-0.0202400415000569
0.8275,0.0025313967700097816,-0.7776660159999718,0.0017680240600071436,-2.352187229999983,-0.004204841645017762,1.569027029999992,0.7825275124999856,0.03999995,0.0399999944,-9.80731785,-0.04087200649102858,-0.03575344485016555,-0.026118307300070927,0.002719213033605542,-0.020370369750055236
0.8300000000000001,0.002554475440009488,-0.7775994519999726,0.0017848787200069292,-2.3521473599999836,-0.00424675064001723,1.5690081599999923,0.782493649999986,0.03999995,0.0399999968,-9.8073192,-0.041348700970607215,-0.036144052200160585,-0.0262856536000688,0.0028252265416521044,-0.02050069800005358
0.8325,0.0025775541100091937,-0.7775328879999734,0.0018017333800067143,-2.352107489999984,-0.004288659635016696,1.5689892899999924,0.7824597874999865,0.03999995,0.039999999200000004,-9.80732055,-0.04182539545018583,-0.036534659550155606,-0.026452999900066665,0.002931240049698662,-0.02063102625005192
0.835,0.002601290960009718,-0.777464452999972,0.0018190685300070969,-2.352066559999983,-0.004331761210017646,1.568969869999992,0.7824249699999858,0.0399999497,0.0399999995,-9.807299699999987,-0.042310310527879716,-0.03692723980015892,-0.026622143000068665,0.003038915130353525,-0.020762486800053312
0.8375,0.0026253569000100688,-0.777395082499971,0.001836643925007353,-2.3520250999999823,-0.004375459075018282,1.5689501749999917,0.7823896749999852,0.03999994925,0.03999999875,-9.807267749999987,-0.04279933590462397,-0.03732080650016466,-0.02679218450007114,0.0031474209973110716,-0.020894513500055237
0.84,0.0026494228400104182,-0.77732571199997,0.0018542193200076086,-2.351983639999982,-0.004419156940018917,1.5689304799999915,0.7823543799999847,0.0399999488,0.039999998,-9.807235799999987,-0.0432883612813682,-0.037714373200170376,-0.026962226000073614,0.003255926864268613,-0.021026540200057155
0.8425,0.002673488780010769,-0.7772563414999689,0.0018717947150078647,-2.3519421799999813,-0.004462854805019554,1.5689107849999913,0.7823190849999843,0.03999994835,0.03999999725,-9.807203849999986,-0.043777386658112455,-0.038107939900176115,-0.02713226750007609,0.0033644327312261596,-0.02115856690005908
0.845,0.002697554720011119,-0.7771869709999679,0.00188937011000812,-2.3519007199999806,-0.004506552670020189,1.5688910899999908,0.7822837899999837,0.0399999479,0.0399999965,-9.807171899999984,-0.044266412034856685,-0.03850150660018183,-0.02730230900007856,0.003472938598183701,-0.021290593600060997
