rsonawane2002/My_IMU/logs_incomplete/traj_395/imu_395.csv
time,j1,j2,j3,j4,j5,j6,j7,gripper1,gripper2,imu_ax,imu_ay,imu_az,imu_gx,imu_gy,imu_gz
1592.233333332214,0.00016700293,-0.785875,4.0107683e-05,-2.3551247,9.29385e-05,1.570997,0.786,0.04,0.04,-9.533548,0.021562350913882256,0.08489512,-3.3518384e-07,-0.0011641274904832244,2.3198591e-07
1592.2499999988806,0.00016701261,-0.78576016,4.0121977e-05,-2.3552213,9.29829e-05,1.5709941,0.786,0.04,0.04,-9.834498,0.0006502778269350529,0.009054749,-1.3894626e-06,-0.002238243818283081,1.204243e-06
1592.2666666655473,0.00016707004,-0.7856543,4.0186624e-05,-2.35531,9.3085495e-05,1.5709913,0.786,0.04,0.04,-9.832377,0.0007841166807338595,0.007596609,-9.61236e-06,-0.003227153792977333,3.099282e-06
1592.283333332214,0.00016725704,-0.785557,4.0385763e-05,-2.355391,9.3348994e-05,1.5709884,0.786,0.04,0.04,-9.830679,0.0010323970345780253,0.0061814655,-3.1785476e-05,-0.004135296680033207,7.335345e-06
1592.2999999988806,0.00016769294,-0.7854673,4.0840358e-05,-2.3554652,9.391834e-05,1.5709856,0.786,0.04,0.04,-9.828786,0.0013878649333491921,0.0049783313,-7.403356e-05,-0.004966821987181902,1.4938808e-05
1592.3166666655472,0.00016853074,-0.7853849,4.170434e-05,-2.3555322,9.4997304e-05,1.5709827,0.7859989,0.04,0.03999999,-9.82734,0.001850275555625558,0.0037728068,-0.00014210504,-0.005728837102651596,2.8351664e-05
1592.333333332214,0.00016995415,-0.785309,4.3161872e-05,-2.355597,9.676569e-05,1.5709798,0.785997,0.04,0.04,-9.825579,0.0023613080848008394,0.0027509802,-0.00023621017,-0.006419240962713957,4.3740536e-05
1592.3499999988805,0.00017217352,-0.7852394,4.5423265e-05,-2.3556552,9.949185e-05,1.570977,0.78599507,0.04,0.04,-9.824769,0.0030046780593693256,0.0017082784,-0.00036310175,-0.007064830977469683,6.596043e-05
1592.3666666655472,0.00017542328,-0.78517544,4.8722424e-05,-2.355708,0.000103473816,1.5709741,0.78599125,0.04,0.039999995,-9.823202,0.003686712123453617,0.0008160062,-0.00053143676,-0.0076459189876914024,9.675049e-05
1592.3833333322139,0.00017995984,-0.7851166,5.3315092e-05,-2.3557582,0.00010898439,1.5709713,0.78598636,0.04,0.04,-9.821948,0.004452893976122141,-8.052075e-05,-0.0007364555,-0.008167337626218796,0.00013170474
1592.3999999988805,0.00018605814,-0.78506285,5.947497e-05,-2.3558037,0.00011636708,1.5709684,0.7859806,0.039999995,0.04,-9.821036,0.005250606220215559,-0.0008597374,-0.0009865916,-0.008648994378745556,0.00017569869
1592.4166666655472,0.00019401014,-0.78501356,6.7492736e-05,-2.3558466,0.00012597055,1.5709655,0.7859725,0.03999999,0.039999995,-9.819877,0.00612332159653306,-0.0016094462,-0.0012862197,-0.009077480062842369,0.00022785683
1592.4333333322138,0.00020412257,-0.7849684,7.767349e-05,-2.3558884,0.00013815246,1.5709625,0.7859616,0.039999984,0.03999999,-9.819077,0.007082982920110226,-0.0023470935,-0.0016326582,-0.009464391507208347,0.00028762623
1592.4499999988805,0.00021671478,-0.78492707,9.033491e-05,-2.3559246,0.00015329498,1.5709596,0.7859483,0.03999998,0.039999988,-9.818368,0.00801088847219944,-0.0029997705,-0.0020274243,-0.009818282909691334,0.00035705927
1592.466666665547,0.00023211737,-0.78488946,0.0001058055,-2.35596,0.00017178855,1.5709563,0.7859322,0.039999977,0.039999988,-9.817206,0.009079541079699993,-0.0036652475,-0.0024746181,-0.010118978098034859,0.00043472738
1592.4833333322138,0.00025067007,-0.78485537,0.00012442323,-2.3559942,0.00019403655,1.570953,0.78591293,0.03999997,0.03999998,-9.816586,0.010074244812130928,-0.0042224363,-0.002976513,-0.010389545932412148,0.00052261585
1592.4999999988804,0.00027272096,-0.78482443,0.00014653387,-2.356026,0.0002204501,1.5709463,0.7858899,0.03999996,0.039999973,-9.815999,0.011238952167332172,-0.0048007085,-0.003534175,-0.010627868585288525,0.00062007125
1592.516666665547,0.00029862465,-0.7847963,0.00017248979,-2.3560553,0.0002514483,1.5709397,0.7858628,0.03999995,0.039999966,-9.815272,0.012281515635550022,-0.005263872,-0.0041468665,-0.01084474939852953,0.0007264083
1592.5333333322137,0.00032874112,-0.7847711,0.00020264869,-2.3560832,0.00028745725,1.5709329,0.78583145,0.039999947,0.039999966,-9.814543,0.013534693978726864,-0.005844501,-0.004816216,-0.011023988015949726,0.0008426277
1592.5499999988804,0.00036343458,-0.7847485,0.00023737257,-2.3561108,0.00032890824,1.5709258,0.7857954,0.039999943,0.03999996,-9.813889,0.014637293294072151,-0.0063236123,-0.00554345,-0.011171956546604633,0.00096970226
1592.566666665547,0.00040307257,-0.7847283,0.0002770266,-2.356138,0.00037623564,1.5709181,0.78575426,0.039999947,0.039999966,-9.81343,0.01597023196518421,-0.0068432787,-0.006328895,-0.011293205432593822,0.001106862
1592.5833333322137,0.0004480249,-0.7847106,0.00032197835,-2.3561652,0.0004298759,1.5709076,0.78570753,0.03999995,0.039999973,-9.812962,0.017110271379351616,-0.0073064757,-0.0071730227,-0.011391389183700085,0.001253289
1592.5999999988803,0.00049866276,-0.7846951,0.00037259658,-2.356192,0.00049026887,1.570897,0.7856549,0.039999954,0.03999998,-9.812573,0.018508827313780785,-0.007746309,-0.008075429,-0.01147512998431921,0.0014098787
1592.616666665547,0.0005553582,-0.7846816,0.00042925088,-2.356219,0.000557854,1.5708855,0.785596,0.039999958,0.039999988,-9.812119,0.019702648743987083,-0.008232113,-0.009036177,-0.011533890850841999,0.0015766553
1592.6333333322136,0.000618483,-0.7846703,0.00049231097,-2.356246,0.00063307135,1.5708712,0.78553057,0.03999996,0.03999999,-9.811709,0.021178243681788445,-0.008725769,-0.010055774,-0.01157058123499155,0.0017544421
1592.6499999988803,0.0006884082,-0.7846608,0.0005621451,-2.356273,0.0007163694,1.5708566,0.7854581,0.039999966,0.039999995,-9.811301,0.02241194248199463,-0.009146187,-0.0111342035,-0.01159354206174612,0.0019423803
1592.666666665547,0.0007655038,-0.78465325,0.00063912105,-2.3563,0.00080817414,1.5708408,0.7853783,0.039999966,0.04,-9.81093,0.02379702962934971,-0.009657329,-0.012270981,-0.011594605632126331,0.0021395073
1592.6833333322136,0.0008501373,-0.7846475,0.0007236046,-2.3563273,0.00090893026,1.5708226,0.78529066,0.03999996,0.039999995,-9.81053,0.02538694068789482,-0.010155373,-0.013466221,-0.01157456450164318,0.0023474265
1592.6999999988802,0.0009426744,-0.78464353,0.0008159586,-2.356355,0.0010190676,1.5708035,0.7851949,0.03999996,0.039999995,-9.810112,0.026682037860155106,-0.010604229,-0.014718858,-0.011538693681359291,0.0025652838
1592.7166666655469,0.0010434774,-0.78464115,0.000916544,-2.3563828,0.0011389907,1.5707815,0.78509045,0.039999954,0.04,-9.809789,0.028326863422989845,-0.011123333,-0.016028864,-0.011484005488455296,0.002790678
1592.7333333322135,0.0011529061,-0.7846404,0.0010257177,-2.356412,0.0012691406,1.5707587,0.7849772,0.03999995,0.04,-9.80944,0.029671641066670418,-0.011588905,-0.017394818,-0.011417374946177006,0.0030273506
1592.7499999988802,0.0012713162,-0.78464115,0.0011438333,-2.3564427,0.0014099408,1.5707332,0.7848547,0.03999995,0.04,-9.809174,0.0314013734459877,-0.012147336,-0.018817168,-0.01133319828659296,0.003273899
1592.7666666655468,0.0013990587,-0.78464353,0.0012712405,-2.3564768,0.0015618048,1.5707066,0.7847225,0.03999995,0.04,-9.808977,0.03278275206685066,-0.012653866,-0.020295257,-0.011240938678383827,0.0035298495
1592.7833333322135,0.0015364813,-0.7846475,0.0014082845,-2.356511,0.0017251554,1.5706773,0.78458035,0.039999943,0.04,-9.808976,0.03459785133600235,-0.013253987,-0.021827819,-0.011142191477119923,0.0037959227
1592.7999999988801,0.001683927,-0.784653,0.0015553064,-2.3565462,0.0019003763,1.5706468,0.7844279,0.03999994,0.04,-9.808619,0.03602284938097,-0.013818969,-0.023414401,-0.011029347777366638,0.0040697143
1592.8166666655468,0.0018417336,-0.7846599,0.0017126414,-2.3565817,0.002087903,1.5706133,0.7842647,0.039999947,0.04,-9.808251,0.037932656705379486,-0.014453508,-0.025054498,-0.010897486470639706,0.004355794
1592.8333333322134,0.0020102335,-0.7846682,0.0018806215,-2.356619,0.0022881136,1.5705785,0.78409046,0.039999943,0.04,-9.807914,0.03940954431891441,-0.015043352,-0.0267468,-0.010752382688224316,0.004649133
1592.84999999888,0.0021897552,-0.78467804,0.0020595724,-2.3566606,0.0025013683,1.5705409,0.78390497,0.03999994,0.04,-9.807683,0.041367631405591965,-0.01573883,-0.028490756,-0.010593369603157043,0.004948989
1592.8666666655467,0.0023806193,-0.7846893,0.0022498139,-2.356703,0.0027280834,1.570501,0.7837077,0.039999936,0.04,-9.807829,0.042929332703351974,-0.01637426,-0.030285813,-0.010437696240842342,0.005260535
1592.8833333322134,0.0025831433,-0.78470194,0.0024516613,-2.356746,0.0029685963,1.5704589,0.7834984,0.03999993,0.04,-9.807484,0.04497534781694412,-0.01710871,-0.032130346,-0.010267259553074837,0.005577463
1592.89999999888,0.0027976376,-0.78471595,0.0026654238,-2.3567903,0.0032232949,1.5704137,0.7832768,0.039999925,0.04,-9.80713,0.04658877104520798,-0.017842408,-0.034024015,-0.010079643689095974,0.0059043276
1592.9166666655467,0.003024408,-0.7847315,0.0028914043,-2.35684,0.003492539,1.5703665,0.7830425,0.039999917,0.04,-9.806861,0.04847951978445053,-0.018577881,-0.035965394,-0.00988281611353159,0.0062393495
1592.9333333322134,0.0032637527,-0.7847484,0.0031299007,-2.3568904,0.0037766707,1.5703167,0.78279537,0.039999913,0.04,-9.80705,0.050676729530096054,-0.01940086,-0.0379539,-0.00968840904533863,0.006581428
1592.94999999888,0.0035159632,-0.7847667,0.0033812022,-2.3569415,0.0040760483,1.5702635,0.78253496,0.039999913,0.04,-9.806745,0.052393265068531036,-0.020224135,-0.039988913,-0.009480470791459084,0.006932124
1592.9666666655467,0.0037813268,-0.78478634,0.003645595,-2.3569965,0.00439101,1.5702082,0.78226095,0.039999913,0.04,-9.8063135,0.054687947034835815,-0.021088097,-0.04206896,-0.009257981553673744,0.0072904183
1592.9833333322133,0.004060122,-0.78480756,0.003923357,-2.3570542,0.0047218893,1.57015,0.7819731,0.039999913,0.04,-9.806404,0.056473661214113235,-0.02198145,-0.04419288,-0.00903382059186697,0.0076560136
1592.99999999888,0.004352624,-0.7848302,0.0042147604,-2.357113,0.005069018,1.5700889,0.7816711,0.039999913,0.04,-9.806218,0.05887611210346222,-0.02292436,-0.046359755,-0.00880181323736906,0.008029533
1593.0166666655466,0.0046590995,-0.7848542,0.004520071,-2.357175,0.005432716,1.5700247,0.7813547,0.03999991,0.04,-9.80586,0.060747262090444565,-0.02387225,-0.048568644,-0.008555043488740921,0.008410813
1593.0333333322133,0.0049798083,-0.7848795,0.0048395502,-2.3572407,0.0058132424,1.569958,0.7810236,0.039999902,0.04,-9.805855,0.06322424113750458,-0.02489903,-0.050818373,-0.008308058604598045,0.008794158
1593.04999999888,0.005315006,-0.7849065,0.005173448,-2.357307,0.006210942,1.569888,0.7806776,0.039999902,0.04,-9.805793,0.06519924104213715,-0.025944307,-0.0531077,-0.00805481243878603,0.009188063
1593.0666666655466,0.0056649363,-0.7849347,0.005522013,-2.3573778,0.0066261054,1.5698148,0.7803162,0.039999902,0.04,-9.805339,0.06780923902988434,-0.027020214,-0.055436227,-0.00778531888499856,0.009588423
1593.0833333322132,0.0060298434,-0.7849644,0.0058854856,-2.3574512,0.0070590083,1.5697386,0.7799395,0.039999902,0.04,-9.805503,0.06985046714544296,-0.028144049,-0.05780118,-0.007520411629229784,0.0099940095
1593.0999999988799,0.006409962,-0.78499556,0.0062640966,-2.3575253,0.0075099496,1.5696594,0.77954704,0.0399999,0.04,-9.8052435,0.07258428633213043,-0.029340513,-0.060203683,-0.007245904300361872,0.010407122
1593.1166666655465,0.0068055205,-0.7850283,0.0066580726,-2.3576057,0.007979175,1.5695767,0.7791388,0.03999989,0.04,-9.804869,0.07471176236867905,-0.030523185,-0.06264176,-0.006955722346901894,0.010824562
1593.1333333322132,0.0072167385,-0.78506255,0.007067635,-2.357687,0.00846692,1.5694908,0.7787144,0.03999989,0.04,-9.805105,0.0775417685508728,-0.031774275,-0.06511478,-0.006674196105450392,0.011245135
1593.1499999988798,0.007643828,-0.7850982,0.007492999,-2.35777,0.008973469,1.5694015,0.77827364,0.039999887,0.04,-9.804725,0.07979820668697357,-0.03305415,-0.06762116,-0.006377888843417168,0.011673536
1593.1666666655465,0.008086997,-0.78513515,0.007934365,-2.3578587,0.0094991,1.569309,0.77781636,0.039999895,0.04,-9.804387,0.08243931829929352,-0.034396768,-0.07015996,-0.00606899056583643,0.012110332
1593.1833333322131,0.008546451,-0.78517365,0.008391938,-2.3579483,0.01004401,1.5692132,0.77734226,0.039999895,0.04,-9.804601,0.0854485034942627,-0.0358026,-0.07273032,-0.0057686129584908485,0.012547873
1593.1999999988798,0.00902238,-0.7852138,0.008865911,-2.3580441,0.010608439,1.569114,0.77685124,0.03999989,0.04,-9.804181,0.08785776048898697,-0.037214097,-0.07533093,-0.0054513197392225266,0.0129919
1593.2166666655464,0.009514972,-0.78525555,0.009356472,-2.358141,0.0111925965,1.5690113,0.7763429,0.03999989,0.04,-9.804349,0.09099917113780975,-0.03869521,-0.07796094,-0.005140905734151602,0.013438
1593.233333332213,0.010024411,-0.7852986,0.009863801,-2.3582394,0.011796672,1.5689052,0.77581733,0.039999887,0.04,-9.803961,0.09346379339694977,-0.04020142,-0.08061876,-0.00481491070240736,0.013880776
1593.2499999988797,0.010550868,-0.7853432,0.01038807,-2.3583436,0.012420916,1.5687956,0.77527416,0.039999884,0.04,-9.803601,0.09680959582328796,-0.041792326,-0.08330393,-0.004478392656892538,0.014338175
1593.2666666655464,0.01109451,-0.7853895,0.010929448,-2.3584492,0.013065512,1.5686822,0.7747133,0.03999989,0.04,-9.803761,0.09943680465221405,-0.04337281,-0.08601481,-0.004146004561334848,0.014798548
1593.283333332213,0.011655504,-0.7854372,0.01148809,-2.3585608,0.013730679,1.5685651,0.7741345,0.0399999,0.04,-9.803334,0.10286344587802887,-0.045039386,-0.0887507,-0.0038013006560504436,0.015264346
1593.2999999988797,0.012233999,-0.7854865,0.012064159,-2.3586738,0.014416566,1.5684445,0.77353776,0.03999989,0.04,-9.803604,0.10560058802366257,-0.046729896,-0.09151075,-0.0034655556082725525,0.015730197
1593.3166666655463,0.012830143,-0.78553736,0.012657794,-2.358793,0.015123365,1.5683202,0.77292275,0.039999895,0.04,-9.803101,0.10916902124881744,-0.04851281,-0.09429383,-0.003114135703071952,0.01620214
1593.333333332213,0.013444085,-0.7855898,0.013269143,-2.3589132,0.015851242,1.5681921,0.7722894,0.039999887,0.04,-9.803355,0.11204470694065094,-0.05031027,-0.09709843,-0.0027712080627679825,0.01667523
1593.3499999988796,0.014075952,-0.7856439,0.013898337,-2.3590376,0.016600342,1.5680604,0.77163756,0.03999989,0.04,-9.8028145,0.11574256420135498,-0.052189402,-0.09992392,-0.0024119948502629995,0.01715233
1593.3666666655463,0.014725881,-0.78569955,0.014545505,-2.3591652,0.01737083,1.5679249,0.77096725,0.03999989,0.04,-9.802833,0.11875258386135101,-0.0540711,-0.10276895,-0.0020529122557491064,0.017632164
1593.383333332213,0.015393991,-0.7857568,0.01521077,-2.3592944,0.018162854,1.5677857,0.77027816,0.03999989,0.04,-9.802533,0.12259437143802643,-0.05604727,-0.10563362,-0.0016869016690179706,0.01811461
1593.3999999988796,0.016080394,-0.7858158,0.015894255,-2.3594294,0.018976534,1.5676427,0.76957035,0.039999884,0.04,-9.802165,0.12573902308940887,-0.058032442,-0.108515345,-0.0013067382387816906,0.018599024
1593.4166666655462,0.016785206,-0.78587633,0.01659606,-2.359566,0.01981202,1.5674957,0.7688427,0.039999895,0.04,-9.802279,0.12934637069702148,-0.060060125,-0.11141477,-0.0009330750908702612,0.019086886
1593.433333332213,0.017508522,-0.78593844,0.01731629,-2.3597085,0.020669429,1.5673449,0.7680966,0.0399999,0.04,-9.801775,0.13339844346046448,-0.062177986,-0.114325695,-0.0005462630651891232,0.01957616
1593.4499999988795,0.018250445,-0.7860022,0.01805504,-2.3598528,0.021548884,1.5671902,0.7673317,0.0399999,0.04,-9.801998,0.13677197694778442,-0.06431303,-0.11725427,-0.00016755891556385905,0.020067718
1593.4666666655462,0.019011073,-0.78606755,0.018812407,-2.360003,0.02245048,1.5670315,0.76654726,0.0399999,0.04,-9.8014765,0.14097312092781067,-0.066535324,-0.12019837,0.0002252148842671886,0.02056041
1593.4833333322129,0.019790486,-0.7861345,0.019588472,-2.3601546,0.02337432,1.566869,0.7657433,0.039999895,0.04,-9.801659,0.1444726586341858,-0.0687689,-0.12315349,0.0006102454499341547,0.021053365
1593.4999999988795,0.020588765,-0.78620315,0.020383317,-2.3603122,0.024320502,1.5667025,0.76492006,0.039999895,0.04,-9.801128,0.14884355664253235,-0.07109588,-0.1261199,0.0010089785791933537,0.021549579
1593.5166666655462,0.021405967,-0.78627336,0.021197008,-2.3604715,0.025289087,1.566532,0.7640773,0.03999992,0.04,-9.80129,0.1524573266506195,-0.07342944,-0.12909779,0.0014009978622198105,0.022039283
1593.5333333322128,0.022242177,-0.7863451,0.022029614,-2.3606367,0.026280204,1.5663574,0.7632149,0.03999993,0.04,-9.800746,0.15701748430728912,-0.0758675,-0.13208535,0.0018066653283312917,0.022537377
1593.5499999988795,0.023097446,-0.7864187,0.022881197,-2.3608036,0.0272939,1.5661788,0.7623328,0.039999936,0.04,-9.800919,0.16082394123077393,-0.07831162,-0.13508132,0.0022035499569028616,0.023035662
1593.566666665546,0.023971839,-0.78649396,0.02375182,-2.3609757,0.028330253,1.5659964,0.76143104,0.039999932,0.04,-9.800372,0.165494903922081,-0.08083291,-0.13808504,0.002614277880638838,0.023534112
1593.5833333322128,0.024865402,-0.786571,0.02464152,-2.3611503,0.02938929,1.5658101,0.76050955,0.039999936,0.04,-9.80041,0.16945412755012512,-0.0833828,-0.14109567,0.0030228695832192898,0.024032699
1593.5999999988794,0.025778174,-0.7866497,0.025550343,-2.3613293,0.030471083,1.5656196,0.7595683,0.039999943,0.04,-9.799946,0.17429524660110474,-0.08599367,-0.14411236,0.003440791042521596,0.02453262
1593.616666665546,0.026710192,-0.78673005,0.02647833,-2.3615115,0.031575695,1.5654253,0.75860727,0.039999943,0.04,-9.799869,0.17841142416000366,-0.08864556,-0.147134,0.0038593942299485207,0.025032375
1593.6333333322127,0.02766149,-0.78681207,0.027425515,-2.361698,0.032703128,1.565227,0.7576262,0.039999947,0.04,-9.799487,0.18340565264225006,-0.09136866,-0.15016022,0.004284286871552467,0.025531262
1593.6499999988794,0.028632099,-0.78689575,0.02839192,-2.3618877,0.033853427,1.5650247,0.75662524,0.039999954,0.04,-9.799413,0.1876915544271469,-0.09411347,-0.15318865,0.004709915723651648,0.026030645
1593.666666665546,0.029622022,-0.786981,0.029377563,-2.3620813,0.035026625,1.5648183,0.7556044,0.039999966,0.04,-9.79909,0.19244372844696045,-0.09692786,-0.15621926,0.005141254980117083,0.026528886
1593.6833333322127,0.030631294,-0.7870679,0.030382462,-2.3622787,0.036222745,1.5646079,0.7545636,0.039999966,0.04,-9.798794,0.1977030485868454,-0.099798016,-0.1592515,0.0055741663090884686,0.027027939
1593.6999999988793,0.03165992,-0.7871566,0.03140663,-2.36248,0.037441745,1.5643934,0.753503,0.039999984,0.04,-9.798608,0.2021738737821579,-0.102700636,-0.16228417,0.0060108802281320095,0.027517589
1593.716666665546,0.0327079,-0.78724706,0.032450065,-2.362685,0.038683668,1.5641748,0.7524223,0.04,0.04,-9.798269,0.20763453841209412,-0.10565022,-0.16531684,0.006450860761106014,0.02801433
1593.7333333322126,0.033775236,-0.7873392,0.033512775,-2.3628936,0.03994855,1.5639521,0.75132155,0.04,0.04,-9.798069,0.21232999861240387,-0.10864061,-0.168347,0.006893893703818321,0.0285108
1593.7499999988793,0.034861904,-0.78743297,0.03459474,-2.3631063,0.04123633,1.5637254,0.7502011,0.04,0.04,-9.797719,0.21789956092834473,-0.11170355,-0.17137492,0.007339970674365759,0.02900436
1593.766666665546,0.03596793,-0.7875283,0.035695963,-2.3633225,0.04254701,1.5634947,0.7490606,0.04,0.04,-9.797551,0.2227669209241867,-0.114802815,-0.17440073,0.007787077687680721,0.029497385
1593.7833333322126,0.037093274,-0.78762525,0.036816403,-2.3635428,0.043880552,1.5632601,0.7479002,0.04,0.04,-9.797162,0.2285112738609314,-0.11797291,-0.17742153,0.008238466456532478,0.029988153
1593.7999999988792,0.038237903,-0.78772396,0.037956063,-2.3637667,0.045236915,1.5630215,0.74671996,0.04,0.04,-9.796966,0.2335360050201416,-0.121167235,-0.180438,0.008691675029695034,0.03047656
1593.8166666655459,0.03940181,-0.78782433,0.039114896,-2.3639946,0.046616122,1.562779,0.74551994,0.04,0.04,-9.796565,0.23947617411613464,-0.12441396,-0.18344888,0.009149111807346344,0.030966558
1593.8333333322125,0.040584937,-0.7879265,0.04029289,-2.3642259,0.048018094,1.5625324,0.74429995,0.04,0.04,-9.796396,0.24466979503631592,-0.12770824,-0.18645358,0.009606990031898022,0.03145116
1593.8499999988792,0.041787256,-0.7880304,0.04148999,-2.3644614,0.04944276,1.5622817,0.7430602,0.04,0.04,-9.795911,0.2507101595401764,-0.13103989,-0.1894501,0.01007148064672947,0.031927828
1593.8666666655458,0.043008726,-0.78813595,0.042706147,-2.3647003,0.050890073,1.5620267,0.7418008,0.04,0.04,-9.795721,0.2561274468898773,-0.13441281,-0.19243848,0.01053551398217678,0.03240789
1593.8833333322125,0.044249307,-0.78824294,0.04394133,-2.3649435,0.052360028,1.5617679,0.74052167,0.04,0.04,-9.79529,0.2624087631702423,-0.13783683,-0.19541878,0.011001826263964176,0.032888025
1593.8999999988791,0.045508943,-0.78835154,0.045195494,-2.3651898,0.053852525,1.5615053,0.7392228,0.04,0.04,-9.795092,0.26796188950538635,-0.14134029,-0.19838871,0.011468885466456413,0.033364773
1593.9166666655458,0.04678756,-0.78846174,0.04646856,-2.3654404,0.055367503,1.5612385,0.7379045,0.04,0.04,-9.794706,0.27399757504463196,-0.14487548,-0.20134756,0.01193992793560028,0.03383924
1593.9333333322124,0.04808511,-0.7885737,0.047760468,-2.3656938,0.056904912,1.5609678,0.73656666,0.04,0.04,-9.794304,0.2805294394493103,-0.14843762,-0.2042959,0.012411137111485004,0.034311533
1593.949999998879,0.049401525,-0.7886873,0.049071163,-2.3659515,0.058464654,1.5606934,0.7352094,0.04,0.04,-9.793945,0.28635555505752563,-0.15204893,-0.20723169,0.012887409888207912,0.034781273
1593.9666666655457,0.050736737,-0.7888027,0.050400555,-2.3662126,0.06004663,1.5604149,0.73383284,0.04,0.04,-9.793506,0.2930161952972412,-0.15569983,-0.21015489,0.01336645893752575,0.03524357
1593.9833333322124,0.05209066,-0.7889196,0.051748592,-2.3664773,0.06165076,1.5601326,0.73243684,0.04,0.04,-9.793213,0.2990356385707855,-0.15938184,-0.21306437,0.013847209513187408,0.035703804
1593.999999998879,0.053463213,-0.789038,0.05311518,-2.3667457,0.06327693,1.5598465,0.7310218,0.04,0.04,-9.792679,0.3059077858924866,-0.16312537,-0.21595858,0.014332076534628868,0.036162566
1594.0166666655457,0.05485431,-0.789158,0.054500237,-2.3670177,0.06492511,1.5595564,0.72958714,0.04,0.04,-9.792419,0.3121199607849121,-0.16693017,-0.2188387,0.014817229472100735,0.036621872
1594.0333333322124,0.056263853,-0.78927946,0.05590366,-2.3672936,0.066595115,1.5592624,0.7281336,0.04,0.04,-9.7919235,0.3191472589969635,-0.17072403,-0.22170033,0.015303281135857105,0.03707543
1594.049999998879,0.057691757,-0.78940266,0.05732536,-2.3675728,0.06828685,1.5589646,0.72666115,0.04,0.04,-9.791639,0.32551345229148865,-0.17460948,-0.22454639,0.015789618715643883,0.03752401
1594.0666666655457,0.059137933,-0.78952765,0.058765262,-2.367856,0.07000022,1.558663,0.7251704,0.04,0.04,-9.791072,0.3327457904815674,-0.17848974,-0.22737473,0.016279488801956177,0.03797229
1594.0833333322123,0.060602255,-0.7896541,0.06022322,-2.3681426,0.071735084,1.558358,0.7236607,0.04,0.04,-9.790777,0.33929240703582764,-0.18243401,-0.23018724,0.01677006296813488,0.03841602
1594.099999998879,0.062084626,-0.7897821,0.061699156,-2.3684335,0.073491305,1.558049,0.72213244,0.04,0.04,-9.790202,0.34664177894592285,-0.18641527,-0.23298018,0.017264194786548615,0.038849395
1594.1166666655456,0.06358495,-0.7899116,0.063192956,-2.3687265,0.075268745,1.5577362,0.7205856,0.04,0.04,-9.789926,0.3534192442893982,-0.19043994,-0.23575406,0.017756223678588867,0.03928402
1594.1333333322123,0.06510309,-0.7900425,0.06470451,-2.3690238,0.07706731,1.5574197,0.7190204,0.04,0.04,-9.7892065,0.36097875237464905,-0.1944912,-0.23850676,0.01825503073632717,0.039716877
1594.149999998879,0.06663892,-0.7901751,0.06623366,-2.3693242,0.07888681,1.5570995,0.7174371,0.04,0.04,-9.788931,0.36790624260902405,-0.19860074,-0.24123898,0.01875087060034275,0.040144667
1594.1666666655456,0.068192296,-0.79030913,0.06778031,-2.3696282,0.08072713,1.5567756,0.71583563,0.04,0.04,-9.788421,0.3752959370613098,-0.20271632,-0.24395029,0.019249465316534042,0.040570125
1594.1833333322122,0.06976317,-0.79044473,0.06934433,-2.3699355,0.082588084,1.5564481,0.7142161,0.04,0.04,-9.787813,0.3830960690975189,-0.20686567,-0.2466392,0.01974938064813614,0.04098832
1594.1999999988789,0.07135133,-0.7905818,0.07092555,-2.3702464,0.08446954,1.5561169,0.7125787,0.04,0.04,-9.787389,0.3902730941772461,-0.2110742,-0.24930494,0.02025112695991993,0.04139939
1594.2166666655455,0.07295666,-0.79072046,0.07252392,-2.3705606,0.08637131,1.5557823,0.71092373,0.04,0.04,-9.786786,0.3982987105846405,-0.21527267,-0.25194716,0.020752623677253723,0.04180897
1594.2333333322122,0.074579015,-0.7908606,0.074139245,-2.3708777,0.08829329,1.555444,0.70925117,0.04,0.04,-9.7863655,0.4056982398033142,-0.21956207,-0.2545657,0.021255813539028168,0.042216897
1594.2499999988788,0.07621826,-0.7910022,0.075771384,-2.3711984,0.09023525,1.5551022,0.7075612,0.04,0.04,-9.785644,0.4138564467430115,-0.22381821,-0.25715938,0.021761460229754448,0.042620316
1594.2666666655455,0.077874236,-0.79114515,0.0774202,-2.3715222,0.09219706,1.5547571,0.705854,0.04,0.04,-9.785236,0.4214341938495636,-0.22816223,-0.25972795,0.02226685918867588,0.04301858
1594.2833333322121,0.07954681,-0.7912895,0.0790855,-2.3718498,0.09417852,1.5544087,0.70412964,0.04,0.04,-9.784551,0.4297742545604706,-0.23250476,-0.26227054,0.022773973643779755,0.0434138
1594.2999999988788,0.0812358,-0.79143536,0.08076717,-2.3721802,0.09617942,1.5540566,0.7023884,0.04,0.04,-9.784125,0.43753454089164734,-0.23691925,-0.26478648,0.023280547931790352,0.043802567
1594.3166666655454,0.08294109,-0.7915827,0.082465075,-2.3725138,0.09819955,1.553701,0.7006304,0.04,0.04,-9.783402,0.44599583745002747,-0.24129145,-0.26727578,0.023788198828697205,0.044179175
1594.333333332212,0.084662504,-0.7917315,0.08417901,-2.3728504,0.10023875,1.5533421,0.69885576,0.04,0.04,-9.782887,0.45397982001304626,-0.24574326,-0.2697372,0.024296067655086517,0.044559788
1594.3499999988787,0.08639985,-0.7918815,0.085908815,-2.37319,0.10229684,1.5529797,0.69706464,0.04,0.04,-9.782167,0.4626477062702179,-0.25017777,-0.27217004,0.02480447292327881,0.04493429
1594.3666666655454,0.08815299,-0.7920329,0.08765434,-2.373533,0.10437363,1.5526142,0.6952573,0.04,0.04,-9.781612,0.4707862138748169,-0.25468937,-0.27457374,0.02531328983604908,0.04530605
1594.383333332212,0.08992172,-0.7921857,0.089415364,-2.373879,0.1064689,1.5522456,0.6934339,0.04,0.04,-9.780915,0.47963452339172363,-0.2591831,-0.27694872,0.02582133375108242,0.045672033
1594.3999999988787,0.09170586,-0.79234004,0.09119177,-2.374228,0.10858246,1.5518736,0.6915946,0.04,0.04,-9.780356,0.48793911933898926,-0.26375392,-0.27929348,0.026330921798944473,0.046033166
1594.4166666655453,0.09350524,-0.7924954,0.09298335,-2.37458,0.110714026,1.5514985,0.68973947,0.04,0.04,-9.779713,0.4966212809085846,-0.26829073,-0.28160837,0.02683926932513714,0.04638448
1594.433333332212,0.09531972,-0.792652,0.09478992,-2.3749342,0.11286343,1.5511205,0.6878687,0.04,0.04,-9.778879,0.505712628364563,-0.27286142,-0.2838915,0.027348842471837997,0.046731282
1594.4499999988786,0.09714903,-0.79281,0.09661133,-2.375292,0.115030445,1.5507392,0.6859829,0.04,0.04,-9.778282,0.5143230557441711,-0.2775099,-0.28614262,0.02785913646221161,0.047077693
1594.4666666655453,0.09899303,-0.7929694,0.09844734,-2.3756526,0.11721481,1.5503545,0.6840817,0.04,0.04,-9.777517,0.5235724449157715,-0.28208348,-0.28836316,0.028366681188344955,0.047417894
1594.483333332212,0.10085156,-0.79313,0.1002978,-2.376016,0.11941637,1.549967,0.6821656,0.04,0.04,-9.776885,0.532339334487915,-0.28673628,-0.29055008,0.0288737490773201,0.04775338
1594.4999999988786,0.10272435,-0.7932916,0.10216252,-2.3763824,0.12163486,1.5495765,0.68023485,0.04,0.04,-9.7760315,0.5417561531066895,-0.29137114,-0.29270414,0.02938123606145382,0.048085038
1594.5166666655452,0.10461125,-0.7934547,0.104041226,-2.3767514,0.12387007,1.5491831,0.6782896,0.04,0.04,-9.7754545,0.5507053732872009,-0.2960995,-0.29482552,0.029885632917284966,0.048410483
1594.533333332212,0.10651206,-0.793619,0.10593379,-2.377123,0.12612166,1.5487869,0.67633015,0.04,0.04,-9.774563,0.5602242350578308,-0.30074936,-0.29691327,0.030390586704015732,0.048722193
1594.5499999988785,0.10842656,-0.79378444,0.10783998,-2.3774974,0.12838951,1.5483875,0.6743565,0.04,0.04,-9.773864,0.5693978071212769,-0.3054923,-0.298967,0.03089607134461403,0.04903776
1594.5666666655452,0.11035455,-0.793951,0.1097596,-2.3778741,0.13067332,1.5479857,0.6723689,0.04,0.04,-9.772997,0.5791393518447876,-0.3101712,-0.3009857,0.0313977487385273,0.049347937
1594.5833333322119,0.11229581,-0.7941185,0.11169244,-2.378254,0.13297285,1.5475808,0.67036766,0.04,0.04,-9.772254,0.5884125232696533,-0.31496722,-0.30296877,0.03190213441848755,0.049650587
1594.5999999988785,0.114250116,-0.79428756,0.1136383,-2.378636,0.13528788,1.5471734,0.6683529,0.04,0.04,-9.771408,0.5983340740203857,-0.31967336,-0.30491674,0.03240007534623146,0.049949896
1594.6166666655452,0.11621726,-0.7944575,0.11559694,-2.3790207,0.1376181,1.5467633,0.66632485,0.04,0.04,-9.770615,0.6077874302864075,-0.3244568,-0.3068282,0.03290107101202011,0.050243814
1594.6333333322118,0.11819704,-0.7946286,0.11756814,-2.379408,0.1399633,1.5463507,0.6642838,0.04,0.04,-9.769712,0.6178396940231323,-0.32919937,-0.30870345,0.03339812904596329,0.050532047
1594.6499999988785,0.12018925,-0.7948008,0.1195517,-2.3797972,0.14232315,1.5459353,0.6622301,0.04,0.04,-9.768961,0.6274375915527344,-0.33402768,-0.31054196,0.03389500826597214,0.05080563
1594.666666665545,0.12219362,-0.7949741,0.1215474,-2.380189,0.14469744,1.5455174,0.66016376,0.04,0.04,-9.768054,0.6374459862709045,-0.33880123,-0.31234336,0.034389298409223557,0.051083963
1594.6833333322118,0.124209955,-0.79514825,0.12355502,-2.3805833,0.14708585,1.5450971,0.65808517,0.04,0.04,-9.767024,0.6477130055427551,-0.34355715,-0.31410754,0.034883640706539154,0.051355515
1594.6999999988784,0.12623802,-0.79532355,0.12557432,-2.3809798,0.1494882,1.5446743,0.6559944,0.04,0.04,-9.766316,0.6576369404792786,-0.34841353,-0.31583366,0.03537207096815109,0.05162272
1594.716666665545,0.12827764,-0.79549974,0.12760507,-2.3813784,0.15190415,1.544249,0.65389186,0.04,0.04,-9.765248,0.6680422425270081,-0.35315564,-0.31752148,0.03585992380976677,0.051884398
1594.7333333322117,0.13032849,-0.7956771,0.12964703,-2.3817797,0.15433349,1.5438216,0.6517777,0.04,0.04,-9.764413,0.6780899167060852,-0.35803682,-0.3191704,0.03634566441178322,0.052138876
1594.7499999988784,0.1323904,-0.7958552,0.13169992,-2.3821828,0.15677588,1.5433918,0.6496521,0.04,0.04,-9.763391,0.6886539459228516,-0.36277956,-0.32078114,0.03682802990078926,0.052387204
1594.766666665545,0.13446307,-0.7960344,0.13376364,-2.3825884,0.15923104,1.5429597,0.6475154,0.04,0.04,-9.7625265,0.698887825012207,-0.36767298,-0.32235208,0.037308432161808014,0.052627947
1594.7833333322117,0.13654631,-0.7962144,0.13583788,-2.3829956,0.1616987,1.5425254,0.64536774,0.04,0.04,-9.761463,0.7095701694488525,-0.37242725,-0.3238837,0.03778453543782234,0.05286183
1594.7999999988783,0.13863985,-0.79639536,0.13792235,-2.3834052,0.16417855,1.542089,0.6432098,0.04,0.04,-9.760524,0.7199804782867432,-0.37730426,-0.32537442,0.03825990483164787,0.053094395
1594.816666665545,0.14074346,-0.79657716,0.14001687,-2.3838162,0.16667035,1.5416505,0.64104134,0.04,0.04,-9.759456,0.7308315634727478,-0.382068,-0.32682753,0.038729920983314514,0.053321645
1594.8333333322116,0.14285688,-0.79675996,0.14212117,-2.3842294,0.1691738,1.5412099,0.63886267,0.04,0.04,-9.758488,0.7413800954818726,-0.38694125,-0.32823864,0.039198633283376694,0.053544268
1594.8499999988783,0.1449799,-0.79694355,0.14423497,-2.3846447,0.1716886,1.5407676,0.63667375,0.04,0.04,-9.7573185,0.7523427605628967,-0.39168444,-0.32960913,0.039664626121520996,0.053760603
1594.866666665545,0.14711225,-0.7971279,0.1463581,-2.385062,0.17421444,1.5403231,0.63447535,0.04,0.04,-9.75643,0.763042688369751,-0.39655736,-0.33093697,0.040126122534275055,0.053968728
1594.8833333322116,0.14925368,-0.79731315,0.14849027,-2.3854804,0.17675106,1.5398769,0.63226753,0.04,0.04,-9.755254,0.7741564512252808,-0.40131128,-0.33222434,0.04058272764086723,0.054174162
1594.8999999988782,0.15140392,-0.79749906,0.15063123,-2.3859007,0.1792981,1.5394287,0.63005114,0.04,0.04,-9.754197,0.7849984169006348,-0.40615252,-0.33346918,0.041039273142814636,0.054373857
1594.9166666655449,0.15356278,-0.79768574,0.15278073,-2.386323,0.18185525,1.5389787,0.6278257,0.04,0.04,-9.753118,0.796036958694458,-0.41095462,-0.33467516,0.04149068519473076,0.054559115
1594.9333333322115,0.15572995,-0.7978732,0.1549385,-2.3867471,0.18442233,1.5385269,0.62559193,0.04,0.04,-9.751908,0.8073776364326477,-0.41567817,-0.33583793,0.041936058551073074,0.054746944
1594.9499999988782,0.15790515,-0.7980613,0.15710428,-2.3871727,0.18699895,1.5380737,0.6233493,0.04,0.04,-9.75093,0.8184547424316406,-0.42050987,-0.3369603,0.042375676333904266,0.054928463
1594.9666666655448,0.1600881,-0.7982501,0.15927778,-2.387599,0.18958478,1.5376185,0.6210988,0.04,0.04,-9.749631,0.829874575138092,-0.42522395,-0.33803764,0.042812690138816833,0.055103738
1594.9833333322115,0.16227868,-0.7984396,0.16145882,-2.3880265,0.19217953,1.537162,0.61884063,0.04,0.04,-9.748481,0.841086208820343,-0.43002608,-0.3390727,0.04324733838438988,0.055275526
1594.9999999988781,0.16447653,-0.7986298,0.1636471,-2.388456,0.19478285,1.5367037,0.61657476,0.04,0.04,-9.747135,0.8525935411453247,-0.43470114,-0.34006494,0.04367949441075325,0.05544134
1595.0166666655448,0.16668138,-0.79882044,0.16584232,-2.3888876,0.19739449,1.5362443,0.61430216,0.04,0.04,-9.74613,0.8639593124389648,-0.43948135,-0.34101367,0.04410376027226448,0.055600073
1595.0333333322114,0.16889295,-0.7990118,0.16804431,-2.3893201,0.20001419,1.535783,0.6120223,0.04,0.04,-9.744866,0.8756298422813416,-0.44416055,-0.34192216,0.04452068731188774,0.055753
1595.049999998878,0.171111,-0.7992037,0.17025273,-2.3897536,0.2026415,1.5353205,0.60973585,0.04,0.04,-9.743725,0.8870971202850342,-0.4488973,-0.3427862,0.04493224248290062,0.05589931
1595.0666666655447,0.17333528,-0.7993961,0.1724673,-2.390188,0.20527618,1.5348572,0.60744303,0.04,0.04,-9.742301,0.8988519310951233,-0.45353255,-0.34360665,0.04534043371677399,0.056041315
1595.0833333322114,0.17556551,-0.799589,0.17468782,-2.3906236,0.2079179,1.5343919,0.605144,0.04,0.04,-9.74112,0.9104695916175842,-0.45827216,-0.3443839,0.04574628546833992,0.056177292
1595.099999998878,0.17780134,-0.79978234,0.17691399,-2.3910606,0.21056637,1.5339257,0.60283923,0.04,0.04,-9.739709,0.9222743511199951,-0.4628444,-0.34511667,0.046144403517246246,0.05630097
1595.1166666655447,0.18004262,-0.7999764,0.17914556,-2.391499,0.21322116,1.5334587,0.60052884,0.04,0.04,-9.738591,0.9340841174125671,-0.4675403,-0.34580722,0.04653473570942879,0.056424305
1595.1333333322114,0.18228905,-0.80017066,0.1813823,-2.3919387,0.2158821,1.5329903,0.598213,0.04,0.04,-9.737159,0.9460623860359192,-0.47208112,-0.34645316,0.04692060127854347,0.0565487
1595.149999998878,0.18454032,-0.8003655,0.18362385,-2.392379,0.21854877,1.532521,0.59589237,0.04,0.04,-9.736015,0.9578747749328613,-0.47674862,-0.3470549,0.047297053039073944,0.05665597
1595.1666666655447,0.18679616,-0.8005606,0.18586996,-2.3928201,0.22122088,1.5320508,0.5935669,0.04,0.04,-9.734596,0.9698788523674011,-0.48131174,-0.34761313,0.04766945168375969,0.056763023
1595.1833333322113,0.1890564,-0.80075616,0.1881204,-2.3932617,0.2238981,1.5315799,0.591237,0.04,0.04,-9.733127,0.9819812178611755,-0.48581433,-0.3481267,0.048035163432359695,0.0568642
1595.199999998878,0.19132058,-0.80095226,0.19037473,-2.393704,0.22658005,1.5311078,0.588903,0.04,0.04,-9.731788,0.9939886331558228,-0.49039733,-0.34859544,0.048397429287433624,0.05695957
1595.2166666655446,0.19358857,-0.8011486,0.19263284,-2.394147,0.22926652,1.530635,0.58656514,0.04,0.04,-9.730243,1.0061711072921753,-0.49480808,-0.34902063,0.04875345900654793,0.057048976
1595.2333333322113,0.19586001,-0.8013453,0.1948944,-2.3945909,0.23195714,1.5301615,0.5842236,0.04,0.04,-9.7289505,1.018326997756958,-0.4993509,-0.34940153,0.0491022989153862,0.057134
1595.249999998878,0.19813468,-0.8015422,0.19715914,-2.395035,0.23465149,1.5296874,0.5818788,0.04,0.04,-9.727428,1.0305805206298828,-0.50373775,-0.34973788,0.04944412782788277,0.05721124
1595.2666666655446,0.20041227,-0.80173934,0.19942681,-2.3954802,0.23734939,1.5292126,0.57953095,0.04,0.04,-9.726077,1.042832612991333,-0.5082184,-0.35002953,0.04977874830365181,0.05728377
1595.2833333322112,0.2026925,-0.80193675,0.20169714,-2.3959265,0.24005035,1.5287371,0.57718045,0.04,0.04,-9.724515,1.0551575422286987,-0.5125596,-0.3502772,0.05010586231946945,0.05734901
1595.2999999988779,0.2049751,-0.80213434,0.20396984,-2.3963728,0.2427541,1.5282611,0.57482743,0.04,0.04,-9.723256,1.067535400390625,-0.51697373,-0.35048154,0.0504208579659462,0.057407714
1595.3166666655445,0.2072598,-0.80233204,0.20624457,-2.3968198,0.24546036,1.5277847,0.5724722,0.04,0.04,-9.72157,1.0799368619918823,-0.52125674,-0.3506405,0.050730831921100616,0.057463516
1595.3333333322112,0.2095463,-0.80253005,0.20852111,-2.397267,0.24816878,1.5273082,0.5701151,0.04,0.04,-9.720233,1.092387080192566,-0.52563524,-0.35075542,0.051031194627285004,0.057510998
1595.3499999988778,0.21183433,-0.8027282,0.21079914,-2.3977146,0.250879,1.5268314,0.56775653,0.04,0.04,-9.718555,1.1048355102539062,-0.52986085,-0.35082567,0.05132681503891945,0.05755166
1595.3666666655445,0.21412359,-0.80292654,0.21307845,-2.3981621,0.2535907,1.5263542,0.56539685,0.04,0.04,-9.717115,1.1173772811889648,-0.5341548,-0.35085225,0.05161387100815773,0.05758796
1595.3833333322111,0.21641378,-0.80312496,0.21535867,-2.3986099,0.2563035,1.5258766,0.56303596,0.04,0.04,-9.715399,1.1298856735229492,-0.53831095,-0.35083464,0.05189448595046997,0.05761863
1595.3999999988778,0.21870472,-0.8033233,0.21763964,-2.3990576,0.2590171,1.5253991,0.5606744,0.04,0.04,-9.713954,1.142503023147583,-0.54254186,-0.35077235,0.052165545523166656,0.057643197
1595.4166666655444,0.220996,-0.80352175,0.21992093,-2.3995054,0.26173118,1.5249214,0.55831254,0.04,0.04,-9.712345,1.1551135778427124,-0.5467003,-0.35066596,0.05242842435836792,0.057662018
1595.433333332211,0.22328739,-0.80372024,0.22220236,-2.3999531,0.2644454,1.5244439,0.5559505,0.04,0.04,-9.710641,1.1677272319793701,-0.5507571,-0.3505159,0.05268373340368271,0.05767467
1595.4499999988777,0.22557862,-0.80391866,0.22448364,-2.4004006,0.26715943,1.5239663,0.5535887,0.04,0.04,-9.709084,1.1804325580596924,-0.554888,-0.35032162,0.052931345999240875,0.05768179
1595.4666666655444,0.22786945,-0.8041171,0.22676446,-2.4008482,0.269873,1.5234888,0.5512273,0.04,0.04,-9.707322,1.19310462474823,-0.5588687,-0.35008317,0.053171053528785706,0.057688102
1595.483333332211,0.23015957,-0.80431545,0.22904457,-2.4012957,0.27258575,1.5230112,0.5488665,0.04,0.04,-9.705809,1.2058184146881104,-0.56293017,-0.34980088,0.05340117961168289,0.05767741
1595.4999999988777,0.23244862,-0.80451375,0.23132369,-2.401743,0.2752972,1.522534,0.5465068,0.04,0.04,-9.70405,1.218536615371704,-0.5668278,-0.3494743,0.053620845079422,0.0576656
1595.5166666655443,0.23473638,-0.804712,0.2336015,-2.4021902,0.27800712,1.5220572,0.54414856,0.04,0.04,-9.7024555,1.2313830852508545,-0.5708295,-0.3491047,0.0538325235247612,0.05764842
1595.533333332211,0.23702258,-0.8049102,0.23587771,-2.402637,0.2807152,1.5215807,0.5417918,0.04,0.04,-9.7007065,1.2441071271896362,-0.57465607,-0.3486925,0.05403377115726471,0.057624374
1595.5499999988776,0.23930697,-0.8051081,0.23815207,-2.4030838,0.2834211,1.5211045,0.53943694,0.04,0.04,-9.699042,1.2569947242736816,-0.5785558,-0.34823617,0.05422741174697876,0.057595138
1595.5666666655443,0.24158923,-0.8053058,0.24042434,-2.4035301,0.28612453,1.5206287,0.5370844,0.04,0.04,-9.697281,1.269782304763794,-0.58231634,-0.3477369,0.05440859496593475,0.05756431
1595.583333332211,0.24386907,-0.8055033,0.24269417,-2.4039757,0.2888251,1.5201538,0.5347343,0.04,0.04,-9.695625,1.2826708555221558,-0.5861586,-0.34719518,0.054581113159656525,0.057521045
1595.5999999988776,0.24614619,-0.8057006,0.24496137,-2.404421,0.29152247,1.5196791,0.532387,0.04,0.04,-9.693764,1.2954400777816772,-0.58984125,-0.34661004,0.054746489971876144,0.057473373
1595.6166666655442,0.24842036,-0.8058976,0.24722555,-2.4048653,0.29421628,1.5192051,0.5300427,0.04,0.04,-9.692109,1.308375597000122,-0.5935819,-0.34598264,0.05490005761384964,0.057413533
1595.633333332211,0.2506912,-0.8060942,0.24948652,-2.4053087,0.29690626,1.5187318,0.52770174,0.04,0.04,-9.690173,1.3212177753448486,-0.5971715,-0.3453121,0.0550452396273613,0.057357874
1595.6499999988775,0.2529586,-0.80629075,0.25174415,-2.4057515,0.29959208,1.5182592,0.5253644,0.04,0.04,-9.68846,1.3341565132141113,-0.6008455,-0.34459916,0.05518190562725067,0.057287484
1595.6666666655442,0.25522217,-0.80648696,0.2539978,-2.4061933,0.3022734,1.5177872,0.523031,0.04,0.04,-9.686654,1.3470556735992432,-0.6044021,-0.34384334,0.055307622998952866,0.057215158
1595.6833333322109,0.25748178,-0.80668294,0.25624737,-2.4066346,0.3049499,1.5173162,0.52070177,0.04,0.04,-9.684708,1.359877109527588,-0.607856,-0.34304556,0.05542422831058502,0.057143003
1595.6999999988775,0.25973696,-0.80687845,0.2584926,-2.4070754,0.30762124,1.5168461,0.5183771,0.04,0.04,-9.682992,1.3728914260864258,-0.61137265,-0.34220615,0.055529892444610596,0.05705813
1595.7166666655442,0.26198748,-0.8070735,0.26073322,-2.4075153,0.31028715,1.516377,0.5160572,0.04,0.04,-9.681138,1.3856741189956665,-0.61476743,-0.34132636,0.055623963475227356,0.056965284
1595.7333333322108,0.2642332,-0.80726826,0.26296902,-2.4079545,0.31294715,1.5159087,0.5137423,0.04,0.04,-9.679339,1.3987410068511963,-0.618216,-0.34040523,0.05570676550269127,0.056867063
1595.7499999988775,0.26647356,-0.8074625,0.26519975,-2.4083924,0.31560108,1.5154417,0.5114327,0.04,0.04,-9.677417,1.4115005731582642,-0.6215021,-0.33944246,0.05577925220131874,0.056764316
1595.766666665544,0.26870853,-0.80765635,0.26742497,-2.408829,0.31824854,1.5149759,0.50912887,0.04,0.04,-9.675606,1.4245549440383911,-0.6248638,-0.3384393,0.05584050342440605,0.056654148
1595.7833333322108,0.27093777,-0.80784976,0.2696444,-2.4092643,0.32088923,1.5145111,0.5068309,0.04,0.04,-9.673599,1.4373037815093994,-0.62807375,-0.3373957,0.05589434131979942,0.05653939
1595.7999999988774,0.27316108,-0.80804265,0.27185795,-2.4096987,0.32352287,1.5140477,0.50453913,0.04,0.04,-9.6717205,1.4503614902496338,-0.6313184,-0.33631128,0.05593712627887726,0.056420367
1595.816666665544,0.27537814,-0.8082349,0.27406523,-2.410132,0.32614914,1.5135856,0.50225353,0.04,0.04,-9.6698,1.4630669355392456,-0.63444686,-0.33518746,0.05596919730305672,0.056291338
1595.8333333322107,0.2775886,-0.8084267,0.27626604,-2.4105637,0.3287676,1.5131246,0.4999751,0.04,0.04,-9.66793,1.4761314392089844,-0.63761127,-0.33402243,0.055989187210798264,0.05615641
1595.8499999988774,0.27979237,-0.80861783,0.2784601,-2.4109945,0.33137804,1.5126654,0.49770352,0.04,0.04,-9.665932,1.488834023475647,-0.64063144,-0.33281985,0.05599837377667427,0.056018893
1595.866666665544,0.28198907,-0.80880827,0.28064707,-2.4114232,0.33398026,1.5122076,0.49543914,0.04,0.04,-9.664057,1.5018454790115356,-0.6437143,-0.33157772,0.05599673092365265,0.055871066
1595.8833333322107,0.2841784,-0.8089983,0.28282672,-2.4118512,0.33657378,1.5117515,0.49318242,0.04,0.04,-9.661998,1.5144892930984497,-0.6466611,-0.33029532,0.05598672106862068,0.055717826
1595.8999999988773,0.28636014,-0.8091874,0.28499892,-2.4122775,0.33915827,1.5112966,0.4909335,0.04,0.04,-9.660113,1.5274800062179565,-0.6496237,-0.32897598,0.05596620589494705,0.05555184
1595.916666665544,0.2885341,-0.809376,0.28716326,-2.4127023,0.3417334,1.5108434,0.48869255,0.04,0.04,-9.658177,1.540348768234253,-0.6525057,-0.3276183,0.05592932924628258,0.055388223
1595.9333333322106,0.2906999,-0.80956393,0.28931952,-2.4131253,0.344299,1.5103921,0.48646006,0.04,0.04,-9.65614,1.5528970956802368,-0.65530944,-0.32622182,0.055883459746837616,0.055214833
1595.9499999988773,0.29285735,-0.8097511,0.29146755,-2.4135468,0.34685448,1.5099423,0.4842362,0.04,0.04,-9.654144,1.5658537149429321,-0.65814316,-0.32478803,0.055828407406806946,0.055035543
1595.966666665544,0.29500622,-0.80993766,0.29360688,-2.413967,0.34940004,1.5094944,0.4820212,0.04,0.04,-9.65215,1.578395128250122,-0.66085315,-0.32331717,0.05575986206531525,0.054852664
1595.9833333322106,0.2971461,-0.81012326,0.2957374,-2.414385,0.35193503,1.5090482,0.47981542,0.04,0.04,-9.650185,1.5913171768188477,-0.6635786,-0.32180947,0.055680226534605026,0.054661907
1595.9999999988772,0.29927695,-0.8103083,0.29785883,-2.4148014,0.35445932,1.508604,0.47761887,0.04,0.04,-9.648151,1.6038049459457397,-0.66619885,-0.32026595,0.05558844655752182,0.05446598
1596.0166666655439,0.3013984,-0.8104925,0.29997095,-2.4152162,0.35697246,1.5081618,0.47543207,0.04,0.04,-9.64611,1.6166318655014038,-0.6688385,-0.31868476,0.05548788234591484,0.054260463
1596.0333333322105,0.30351022,-0.81067586,0.30207354,-2.4156287,0.35947415,1.5077217,0.4732552,0.04,0.04,-9.644152,1.6290385723114014,-0.6713596,-0.3170688,0.05537363886833191,0.054047186
1596.0499999988772,0.3056122,-0.8108584,0.30416626,-2.4160392,0.36196414,1.5072836,0.47108856,0.04,0.04,-9.642018,1.6418342590332031,-0.67390823,-0.31541592,0.05525105074048042,0.053831957
1596.0666666655438,0.30770412,-0.8110401,0.30624893,-2.4164476,0.36444214,1.5068475,0.46893233,0.04,0.04,-9.640019,1.6541454792022705,-0.6763392,-0.31372905,0.05511642247438431,0.05360626
1596.0833333322105,0.30978563,-0.8112207,0.30832118,-2.4168546,0.36690786,1.5064139,0.4667867,0.04,0.04,-9.637931,1.6668782234191895,-0.6787778,-0.31200612,0.05497148260474205,0.053377602
1596.0999999988771,0.31185648,-0.81140065,0.3103829,-2.4172592,0.36936107,1.5059823,0.46465206,0.04,0.04,-9.635951,1.6791573762893677,-0.68114126,-0.31025007,0.05481409281492233,0.053139966
1596.1166666655438,0.31391647,-0.8115796,0.3124338,-2.4176617,0.37180135,1.505553,0.46252862,0.04,0.04,-9.633849,1.6918003559112549,-0.6834594,-0.3084599,0.05464594066143036,0.05289561
1596.1333333322104,0.31596547,-0.81175745,0.3144737,-2.4180617,0.37422854,1.5051259,0.46041653,0.04,0.04,-9.631802,1.704013705253601,-0.6857164,-0.30663666,0.054465390741825104,0.052653722
1596.149999998877,0.31800306,-0.8119344,0.31650236,-2.4184597,0.37664235,1.5047013,0.4583161,0.04,0.04,-9.629697,1.7165452241897583,-0.687972,-0.30477884,0.054275061935186386,0.052397355
1596.1666666655437,0.3200292,-0.8121104,0.31851956,-2.4188554,0.37904257,1.504279,0.45622763,0.04,0.04,-9.627644,1.728849172592163,-0.69014704,-0.3028889,0.05407336354255676,0.052135017
1596.1833333322104,0.32204354,-0.81228536,0.32052496,-2.419249,0.3814288,1.5038592,0.45415124,0.04,0.04,-9.625579,1.740820288658142,-0.69227296,-0.3009663,0.05386131629347801,0.051866062
1596.199999998877,0.32404584,-0.81245923,0.32251838,-2.4196398,0.3838008,1.5034417,0.4520873,0.04,0.04,-9.623525,1.7533100843429565,-0.69437164,-0.29901218,0.053636081516742706,0.05158952
1596.2166666655437,0.32603592,-0.812632,0.3244997,-2.4200284,0.38615823,1.5030268,0.45003596,0.04,0.04,-9.621408,1.7652015686035156,-0.696402,-0.2970268,0.053401120007038116,0.051309202
1596.2333333322103,0.32801354,-0.81280386,0.32646865,-2.4204152,0.388501,1.5026145,0.4479974,0.04,0.04,-9.619323,1.7775641679763794,-0.6984054,-0.29500997,0.05315444618463516,0.051022556
1596.249999998877,0.3299785,-0.8129746,0.328425,-2.420799,0.39082876,1.502205,0.44597197,0.04,0.04,-9.617344,1.789368987083435,-0.70033324,-0.29296327,0.05289357900619507,0.05072938
1596.2666666655437,0.33193058,-0.8131441,0.33036834,-2.4211805,0.39314124,1.501798,0.4439597,0.04,0.04,-9.615157,1.8016289472579956,-0.702277,-0.2908859,0.05262475088238716,0.05043327
1596.2833333322103,0.33386952,-0.81331265,0.33229873,-2.421559,0.39543813,1.501394,0.44196108,0.04,0.04,-9.613138,1.8132699728012085,-0.7041145,-0.28877923,0.05234381556510925,0.050125405
1596.299999998877,0.33579504,-0.81348,0.33421576,-2.4219353,0.39771932,1.5009924,0.43997616,0.04,0.04,-9.610956,1.8254095315933228,-0.7059475,-0.28664315,0.05205497518181801,0.049814075
1596.3166666655436,0.3377071,-0.81364614,0.3361193,-2.422309,0.3999845,1.5005939,0.43800518,0.04,0.04,-9.608984,1.8369284868240356,-0.70770305,-0.28447947,0.051752377301454544,0.049489994
1596.3333333322103,0.33960536,-0.8138111,0.33800915,-2.42268,0.40223333,1.5001984,0.43604836,0.04,0.04,-9.606803,1.8490227460861206,-0.7094439,-0.2822869,0.05143965035676956,0.049168643
1596.349999998877,0.3414899,-0.81397486,0.33988515,-2.4230475,0.40446562,1.4998058,0.4341059,0.04,0.04,-9.604793,1.8603730201721191,-0.7111306,-0.28006712,0.051117151975631714,0.048834637
1596.3666666655436,0.34336028,-0.8141374,0.34174708,-2.423413,0.40668115,1.4994159,0.43217805,0.04,0.04,-9.602568,1.8722940683364868,-0.7127822,-0.27781796,0.050785716623067856,0.048503794
1596.3833333322102,0.34521618,-0.81429875,0.34359476,-2.423776,0.40887973,1.4990289,0.430265,0.04,0.04,-9.600634,1.8835259675979614,-0.7143651,-0.27554294,0.05044025555253029,0.04816023
1596.3999999988769,0.34705758,-0.8144589,0.34542793,-2.4241354,0.41106105,1.4986453,0.42836696,0.04,0.04,-9.598516,1.8953356742858887,-0.71592146,-0.27324298,0.05008360370993614,0.04780946
1596.4166666655435,0.3488842,-0.8146177,0.34724638,-2.4244921,0.413225,1.4982649,0.42648402,0.04,0.04,-9.596361,1.9067353010177612,-0.7174349,-0.27091607,0.04971972107887268,0.047458075
1596.4333333322102,0.35069594,-0.8147753,0.34905005,-2.4248462,0.41537124,1.4978874,0.42461652,0.04,0.04,-9.594362,1.9177366495132446,-0.71892154,-0.26856425,0.04934660717844963,0.047093645
1596.4499999988768,0.3524926,-0.81493145,0.35083875,-2.4251971,0.4174996,1.4975127,0.4227645,0.04,0.04,-9.592247,1.929343819618225,-0.720334,-0.26618776,0.04896030202507973,0.046729825
1596.4666666655435,0.35427386,-0.8150864,0.35261217,-2.425545,0.41960984,1.4971416,0.42092842,0.04,0.04,-9.590239,1.9401732683181763,-0.72173786,-0.26378617,0.04856389760971069,0.046355847
1596.4833333322101,0.35603973,-0.81524,0.35437006,-2.4258897,0.4217017,1.4967736,0.41910815,0.04,0.04,-9.588046,1.9516469240188599,-0.7230809,-0.2613614,0.04815954715013504,0.045983966
1596.4999999988768,0.35779,-0.8153922,0.35611242,-2.4262314,0.42377505,1.4964087,0.4173041,0.04,0.04,-9.586104,1.9623090028762817,-0.7244042,-0.25891373,0.04774513840675354,0.045594547
1596.5166666655434,0.35952434,-0.81554306,0.35783902,-2.4265704,0.4258297,1.4960474,0.41551644,0.04,0.04,-9.583925,1.9735840559005737,-0.7256653,-0.2564425,0.047320667654275894,0.04520563
1596.53333333221,0.36124262,-0.81569254,0.3595498,-2.426906,0.42786536,1.4956893,0.41374516,0.04,0.04,-9.582035,1.9841822385787964,-0.7268977,-0.2539514,0.046884432435035706,0.044811178
1596.5499999988767,0.3629449,-0.81584066,0.3612444,-2.4272385,0.42988196,1.4953346,0.41199052,0.04,0.04,-9.579852,1.9952518939971924,-0.72809327,-0.25143808,0.0464409664273262,0.044408403
1596.5666666655434,0.36463073,-0.8159874,0.36292276,-2.427568,0.4318792,1.4949833,0.41025275,0.04,0.04,-9.577907,2.0056214332580566,-0.72925985,-0.2489027,0.04598797485232353,0.044000816
1596.58333333221,0.36630017,-0.81613266,0.36458468,-2.4278936,0.43385693,1.4946353,0.40853193,0.04,0.04,-9.575788,2.0165927410125732,-0.7303585,-0.24634789,0.04552491381764412,0.043588944
1596.5999999988767,0.36795288,-0.8162764,0.36623007,-2.4282165,0.4358149,1.494291,0.40682828,0.04,0.04,-9.573805,2.026782989501953,-0.7314603,-0.24377203,0.04505337402224541,0.043174844
1596.6166666655433,0.36958885,-0.8164188,0.36785874,-2.4285355,0.43775302,1.4939499,0.40514192,0.04,0.04,-9.571708,2.037574052810669,-0.73249805,-0.24117786,0.0445723757147789,0.042753827
1596.63333333221,0.37120792,-0.81655973,0.3694706,-2.4288514,0.43967098,1.4936122,0.40347305,0.04,0.04,-9.569745,2.047537088394165,-0.7335145,-0.23856352,0.044084303081035614,0.0423269
1596.6499999988766,0.37280983,-0.8166992,0.37106538,-2.429165,0.44156876,1.4932781,0.40182176,0.04,0.04,-9.567688,2.0581445693969727,-0.7344644,-0.23593178,0.0435851588845253,0.041892257
1596.6666666655433,0.37439457,-0.8168371,0.37264302,-2.4294744,0.44344613,1.4929477,0.4001882,0.04,0.04,-9.565776,2.0683722496032715,-0.7353918,-0.23328446,0.043074656277894974,0.041451205
1596.68333333221,0.3759619,-0.8169736,0.37420356,-2.4297807,0.44530296,1.492621,0.39857265,0.04,0.04,-9.5638075,2.0780768394470215,-0.73634547,-0.23061815,0.04255826026201248,0.041009225
1596.6999999988766,0.3775118,-0.8171085,0.3757465,-2.4300833,0.44713897,1.4922978,0.39697504,0.04,0.04,-9.561752,2.08842396736145,-0.7371913,-0.22793645,0.042032528668642044,0.040565193
1596.7166666655432,0.3790441,-0.8172419,0.37727192,-2.4303825,0.44895414,1.4919782,0.3953957,0.04,0.04,-9.559865,2.097926378250122,-0.7380625,-0.22523819,0.04149974137544632,0.040110573
1596.73333333221,0.38055852,-0.81737393,0.3787797,-2.4306781,0.45074838,1.4916623,0.3938346,0.04,0.04,-9.55781,2.108079433441162,-0.73884314,-0.22252555,0.04095817357301712,0.03965297
1596.7499999988765,0.38205516,-0.8175042,0.38026965,-2.4309707,0.4525215,1.4913502,0.3922919,0.04,0.04,-9.555932,2.117387294769287,-0.73964506,-0.21979755,0.04041042923927307,0.039189488
1596.7666666655432,0.38353375,-0.817633,0.3817417,-2.4312594,0.45427322,1.4910419,0.39076772,0.04,0.04,-9.553923,2.127376079559326,-0.7403819,-0.21705647,0.039854004979133606,0.038721174
1596.7833333322098,0.3849943,-0.81776017,0.38319573,-2.4315445,0.45600352,1.4907374,0.38926214,0.04,0.04,-9.552078,2.136512279510498,-0.74112254,-0.21430163,0.0392906628549099,0.038250796
1596.7999999988765,0.38643664,-0.8178858,0.38463166,-2.431826,0.45771226,1.4904368,0.3877754,0.04,0.04,-9.550038,2.1462364196777344,-0.7417784,-0.21153358,0.03872077539563179,0.037773997
1596.8166666655432,0.3878606,-0.8180098,0.3860494,-2.4321046,0.45939928,1.49014,0.3863075,0.04,0.04,-9.548273,2.155217170715332,-0.7424611,-0.208754,0.038142114877700806,0.037298977
1596.8333333322098,0.3892662,-0.81813216,0.38744873,-2.4323788,0.46106452,1.489847,0.38485864,0.04,0.04,-9.546286,2.1647510528564453,-0.74306667,-0.20596385,0.03755641356110573,0.036813136
1596.8499999988765,0.3906533,-0.81825304,0.38882968,-2.43265,0.46270788,1.4895579,0.3834288,0.04,0.04,-9.544453,2.1734418869018555,-0.74370944,-0.20316145,0.036966364830732346,0.036324866
1596.866666665543,0.3920219,-0.81837225,0.39019203,-2.4329169,0.46432915,1.4892726,0.3820183,0.04,0.04,-9.542529,2.1827993392944336,-0.744235,-0.2003501,0.03636811673641205,0.035831213
1596.8833333322098,0.39337167,-0.8184899,0.39153588,-2.4331808,0.46592826,1.4889913,0.38062692,0.04,0.04,-9.540728,2.1912941932678223,-0.744829,-0.1975284,0.03576545789837837,0.035336193
1596.8999999988764,0.39470267,-0.81860596,0.39286098,-2.4334402,0.46750516,1.4887137,0.3792549,0.04,0.04,-9.538829,2.2004544734954834,-0.7453001,-0.19469911,0.03515474125742912,0.03483634
1596.916666665543,0.3960149,-0.81872034,0.39416733,-2.4336972,0.46905977,1.4884404,0.37790236,0.04,0.04,-9.536894,2.209078073501587,-0.7457979,-0.1918602,0.0345405638217926,0.034334585
1596.9333333322097,0.3973082,-0.8188331,0.39545488,-2.4339492,0.470592,1.4881709,0.37656927,0.04,0.04,-9.535352,2.2173595428466797,-0.74629724,-0.18901607,0.03391704335808754,0.033831753
1596.9499999988764,0.3985825,-0.81894416,0.39672348,-2.4341986,0.47210166,1.4879053,0.37525576,0.04,0.04,-9.533262,2.226057291030884,-0.7467233,-0.18616232,0.03329313546419144,0.033323094
1596.966666665543,0.39983773,-0.81905353,0.39797318,-2.4344432,0.47358882,1.4876436,0.37396184,0.04,0.04,-9.531768,2.2341108322143555,-0.74716294,-0.18330537,0.0326588898897171,0.03280818
1596.9833333322097,0.40107387,-0.8191612,0.39920387,-2.434685,0.47505337,1.487386,0.37268764,0.04,0.04,-9.529732,2.2426319122314453,-0.7475433,-0.18044035,0.03202316164970398,0.03229204
1596.9999999988763,0.40229088,-0.8192672,0.4004155,-2.4349222,0.47649518,1.4871325,0.37143326,0.04,0.04,-9.528212,2.25045108795166,-0.74795425,-0.17757235,0.03137974068522453,0.031773638
1597.016666665543,0.40348867,-0.81937176,0.40160778,-2.435156,0.47791418,1.4868832,0.37019858,0.04,0.04,-9.526225,2.25876522064209,-0.7482837,-0.17469895,0.030735906213521957,0.03125337
1597.0333333322096,0.4046671,-0.81947464,0.4027811,-2.435386,0.4793104,1.4866378,0.36898378,0.04,0.04,-9.524692,2.2663447856903076,-0.74862736,-0.17182335,0.030086392536759377,0.030731045
1597.0499999988763,0.40582627,-0.8195758,0.4039353,-2.4356124,0.4806837,1.4863963,0.36778885,0.04,0.04,-9.522776,2.274440288543701,-0.7489018,-0.16894408,0.02943495474755764,0.030206714
1597.066666665543,0.40696624,-0.81967527,0.4050702,-2.4358351,0.48203418,1.4861587,0.36661384,0.04,0.04,-9.52132,2.2818117141723633,-0.74923086,-0.16606395,0.028774600476026535,0.029684054
1597.0833333322096,0.40808687,-0.819773,0.40618587,-2.436054,0.48336178,1.4859251,0.36545882,0.04,0.04,-9.519469,2.2896878719329834,-0.7494561,-0.16318214,0.028112636879086494,0.029153
1597.0999999988762,0.40918812,-0.81986904,0.40728226,-2.436269,0.4846664,1.4856955,0.3643237,0.04,0.04,-9.518008,2.296773910522461,-0.7497618,-0.16030034,0.027445171028375626,0.028619127
1597.1166666655429,0.41026992,-0.8199634,0.40835935,-2.4364798,0.48594803,1.4854698,0.36320862,0.04,0.04,-9.516166,2.3044686317443848,-0.74994797,-0.1574178,0.026775475591421127,0.028086258
1597.1333333322095,0.4113324,-0.8200562,0.40941706,-2.4366875,0.48720667,1.4852484,0.36211333,0.04,0.04,-9.514644,2.3112897872924805,-0.7502271,-0.1545359,0.026104802265763283,0.027550008
1597.1499999988762,0.41237542,-0.82014734,0.4104555,-2.4368904,0.4884423,1.4850312,0.36103815,0.03999998,0.04,-9.512938,2.3188116550445557,-0.7503606,-0.15165584,0.02542985789477825,0.02701481
1597.1666666655428,0.41339904,-0.8202367,0.41147467,-2.4370906,0.48965502,1.484818,0.3599831,0.039999977,0.04,-9.511256,2.3257458209991455,-0.750549,-0.14877741,0.024756351485848427,0.026477251
1597.1833333322095,0.41440323,-0.8203243,0.4124745,-2.437286,0.49084476,1.4846087,0.358948,0.039999977,0.04,-9.509972,2.3323147296905518,-0.75075656,-0.14590445,0.02407597005367279,0.025936686
1597.1999999988761,0.41538802,-0.82041025,0.41345504,-2.437479,0.4920114,1.4844033,0.35793287,0.039999966,0.04,-9.508117,2.3393867015838623,-0.75086725,-0.14303309,0.02339710295200348,0.025398333
1597.2166666655428,0.41635337,-0.8204945,0.41441625,-2.4376667,0.49315512,1.4842021,0.3569377,0.039999947,0.04,-9.5069065,2.345773696899414,-0.75102764,-0.14016955,0.02271081507205963,0.024858817
1597.2333333322094,0.41729945,-0.820577,0.4153582,-2.4378526,0.49427575,1.4840051,0.35596254,0.039999932,0.04,-9.505062,2.352567672729492,-0.7511287,-0.13730898,0.022029666230082512,0.024316845
1597.249999998876,0.41822618,-0.820658,0.4162809,-2.4380326,0.49537358,1.4838121,0.3550073,0.03999993,0.04,-9.50395,2.358755588531494,-0.75125676,-0.13445865,0.02133968286216259,0.023772834
1597.2666666655427,0.4191336,-0.82073736,0.41718438,-2.4382107,0.49644858,1.483623,0.35407186,0.039999925,0.04,-9.50202,2.3652870655059814,-0.7513359,-0.1316104,0.020658111199736595,0.023234358
1597.2833333322094,0.4200217,-0.82081497,0.41806868,-2.438383,0.49750075,1.4834379,0.3531563,0.03999992,0.04,-9.500957,2.371237277984619,-0.75143087,-0.12877402,0.019968198612332344,0.022691004
1597.299999998876,0.42089072,-0.82089096,0.41893387,-2.4385536,0.49853018,1.4832568,0.35226056,0.03999991,0.04,-9.499138,2.3775687217712402,-0.7514673,-0.12594274,0.019284147769212723,0.022150775
1597.3166666655427,0.42174053,-0.8209651,0.4197799,-2.4387186,0.49953687,1.4830797,0.35138458,0.03999991,0.04,-9.498047,2.3832614421844482,-0.7515566,-0.123123564,0.018594937399029732,0.021607941
1597.3333333322093,0.42257118,-0.8210377,0.42060697,-2.4388814,0.5005209,1.4829065,0.35052842,0.039999895,0.04,-9.496298,2.3894102573394775,-0.75156957,-0.12031209,0.01791040226817131,0.021069385
1597.349999998876,0.42338285,-0.8211085,0.42141503,-2.439039,0.5014823,1.4827373,0.3496918,0.039999895,0.04,-9.495251,2.3948798179626465,-0.75162554,-0.11751552,0.01722138747572899,0.020527149
1597.3666666655427,0.42417562,-0.8211778,0.4222042,-2.4391942,0.5024213,1.4825723,0.34887475,0.039999884,0.04,-9.493541,2.40078067779541,-0.75161564,-0.114727125,0.016537578776478767,0.019990334
1597.3833333322093,0.42494926,-0.8212454,0.4229746,-2.439345,0.5033378,1.4824111,0.34807724,0.039999876,0.04,-9.492474,2.4060025215148926,-0.75167173,-0.11195332,0.015852663666009903,0.019451449
1597.399999998876,0.42570412,-0.8213114,0.4237262,-2.4394922,0.5042321,1.4822539,0.34729904,0.03999987,0.04,-9.490904,2.411764144897461,-0.75161,-0.10919335,0.015169582329690456,0.018919868
1597.4166666655426,0.42644024,-0.82137567,0.42445922,-2.4396362,0.50510424,1.4821005,0.34654024,0.039999865,0.04,-9.489609,2.417034149169922,-0.7516023,-0.10644736,0.014489024877548218,0.018384544
1597.4333333322093,0.42715773,-0.82143843,0.42517364,-2.4397757,0.5059543,1.4819509,0.34580073,0.039999865,0.04,-9.488521,2.421900749206543,-0.75163674,-0.103717625,0.013807570561766624,0.017850474
1597.449999998876,0.42785662,-0.82149965,0.4258697,-2.4399135,0.5067824,1.4818051,0.34508026,0.03999986,0.04,-9.486975,2.4272632598876953,-0.75156313,-0.10100246,0.013132208958268166,0.017319655
1597.4666666655426,0.42853707,-0.82155913,0.42654738,-2.4400454,0.50758857,1.4816631,0.3443788,0.039999858,0.04,-9.486079,2.4319894313812256,-0.75155514,-0.09830784,0.012452399358153343,0.01678771
1597.4833333322092,0.42919928,-0.82161695,0.42720675,-2.440176,0.5083729,1.4815248,0.34369627,0.03999985,0.04,-9.48443,2.437069892883301,-0.7514949,-0.095626466,0.01178272720426321,0.016262822
1597.4999999988759,0.4298432,-0.8216733,0.42784798,-2.4403005,0.5091358,1.4813905,0.34303248,0.039999846,0.04,-9.483645,2.441643238067627,-0.7514537,-0.092969045,0.01110604777932167,0.015737444
1597.5166666655425,0.43046904,-0.8217281,0.4284712,-2.4404237,0.509877,1.4812598,0.34238735,0.039999846,0.04,-9.481951,2.446442127227783,-0.7513997,-0.09032542,0.010444517247378826,0.0152174905
1597.5333333322092,0.43107688,-0.82178134,0.42907664,-2.440541,0.51059705,1.4811329,0.34176067,0.039999846,0.04,-9.4812,2.450801372528076,-0.751336,-0.0877075,0.009777153842151165,0.014697547
1597.5499999988758,0.43166694,-0.82183295,0.42966416,-2.4406567,0.5112961,1.4810096,0.34115234,0.03999985,0.04,-9.479585,2.4554057121276855,-0.7512521,-0.08510534,0.009122516959905624,0.014186449
1597.5666666655425,0.43223935,-0.821883,0.43023407,-2.4407668,0.51197416,1.4808902,0.34056228,0.03999985,0.04,-9.478787,2.4595396518707275,-0.7511948,-0.08252956,0.00846571009606123,0.013674638
1597.5833333322091,0.43279418,-0.82193154,0.43078664,-2.4408753,0.5126316,1.4807744,0.33999026,0.039999846,0.04,-9.477288,2.4639737606048584,-0.7510859,-0.0799733,0.00782042182981968,0.013169769
1597.5999999988758,0.43333167,-0.82197857,0.43132192,-2.4409823,0.5132684,1.4806622,0.3394361,0.039999843,0.04,-9.476513,2.467869520187378,-0.7510238,-0.07744436,0.007174852769821882,0.012665128
1597.6166666655424,0.4338519,-0.8220241,0.43184006,-2.4410832,0.5138847,1.4805537,0.33889976,0.039999843,0.04,-9.475443,2.47233247756958,-0.75084317,-0.074944645,0.006527939811348915,0.012163246
1597.633333332209,0.43435514,-0.8220683,0.43234122,-2.441183,0.5144809,1.4804488,0.33838096,0.03999984,0.04,-9.474219,2.475796699523926,-0.7508406,-0.07246543,0.005895486567169428,0.011671152
1597.6499999988757,0.43484148,-0.8221109,0.43282565,-2.4412768,0.5150571,1.4803476,0.33787942,0.03999984,0.04,-9.473239,2.480058431625366,-0.75064516,-0.07001841,0.0052623688243329525,0.01117873
1597.6666666655424,0.43531114,-0.82215214,0.43329346,-2.441369,0.5156137,1.4802499,0.33739513,0.039999843,0.04,-9.47187,2.4836437702178955,-0.75058186,-0.06759254,0.004644148983061314,0.010701302
1597.683333332209,0.43576443,-0.8221918,0.43374473,-2.4414554,0.5161506,1.4801556,0.33692795,0.039999854,0.04,-9.471204,2.4870729446411133,-0.75048053,-0.06520005,0.004027276299893856,0.010222233
1597.6999999988757,0.43620133,-0.8222303,0.43417996,-2.4415405,0.51666826,1.4800647,0.33647746,0.039999846,0.04,-9.469711,2.4907431602478027,-0.7503437,-0.06283191,0.0034267280716449022,0.009753642
1597.7166666655423,0.4366223,-0.8222672,0.43459922,-2.4416242,0.5171669,1.4799774,0.33604357,0.039999843,0.04,-9.469079,2.4939894676208496,-0.7502183,-0.060498603,0.0028273658826947212,0.009285935
1597.733333332209,0.43702716,-0.8223027,0.4350027,-2.4417021,0.5176468,1.479893,0.33562592,0.039999846,0.04,-9.46816,2.497741937637329,-0.75001484,-0.05820109,0.0022284481674432755,0.008820071
1597.7499999988756,0.43741652,-0.8223369,0.43539065,-2.441779,0.5181082,1.4798118,0.33522442,0.039999846,0.04,-9.467028,2.5005836486816406,-0.74997467,-0.05593086,0.0016460001934319735,0.008365976
1597.7666666655423,0.4377905,-0.8223698,0.43576315,-2.441851,0.5185513,1.4797336,0.33483887,0.03999985,0.04,-9.466149,2.504136562347412,-0.74974185,-0.053698488,0.0010644652647897601,0.007914221
1597.783333332209,0.4381493,-0.82240117,0.43612063,-2.4419205,0.51897645,1.4796587,0.33446914,0.03999985,0.04,-9.465123,2.50683856010437,-0.74967027,-0.05149696,0.0004975025076419115,0.007473327
1597.7999999988756,0.4384932,-0.8224314,0.43646324,-2.4419887,0.5193839,1.4795872,0.33411458,0.039999854,0.04,-9.464156,2.5101590156555176,-0.74947214,-0.049334195,-6.332415068754926e-05,0.0070361984
1597.8166666655422,0.4388224,-0.82246023,0.43679124,-2.4420514,0.51977396,1.4795188,0.3337752,0.039999854,0.04,-9.463541,2.5129201412200928,-0.74933416,-0.04721087,-0.0006198549526743591,0.0066053434
1597.833333332209,0.43913716,-0.82248795,0.4371049,-2.442113,0.5201471,1.4794534,0.33345056,0.03999986,0.04,-9.462184,2.51582670211792,-0.7491922,-0.04511918,-0.001156472833827138,0.006185378
1597.8499999988755,0.4394377,-0.8225144,0.4374045,-2.4421735,0.52050346,1.4793905,0.33314055,0.03999986,0.04,-9.461625,2.5184569358825684,-0.7490348,-0.04307019,-0.0016891758423298597,0.0057720537
1597.8666666655422,0.43972433,-0.82253957,0.43769026,-2.442228,0.52084327,1.4793304,0.33284482,0.039999865,0.04,-9.460827,2.5215001106262207,-0.7487857,-0.041066416,-0.0022205784916877747,0.005360457
1597.8833333322088,0.4399975,-0.82256365,0.43796247,-2.442282,0.52116704,1.4792737,0.33256307,0.03999987,0.04,-9.459731,2.5236740112304688,-0.74873465,-0.03909622,-0.0027304652612656355,0.0049633705
1597.8999999988755,0.44025728,-0.8225864,0.43822142,-2.4423342,0.521475,1.47922,0.33229506,0.03999987,0.04,-9.458969,2.5265612602233887,-0.7484853,-0.037172314,-0.0032345810905098915,0.0045718644
1597.9166666655422,0.4405041,-0.82260823,0.4384675,-2.4423811,0.52176744,1.4791682,0.33204055,0.039999872,0.04,-9.458212,2.529083013534546,-0.74831617,-0.035294227,-0.003729888005182147,0.0041861185
1597.9333333322088,0.4407382,-0.8226288,0.43870085,-2.4424272,0.5220449,1.4791191,0.33179903,0.039999872,0.04,-9.457233,2.5310776233673096,-0.74820685,-0.033454612,-0.004208312835544348,0.0038161587
1597.9499999988755,0.44095993,-0.82264835,0.43892193,-2.4424725,0.5223077,1.4790736,0.33157033,0.039999876,0.04,-9.456453,2.5337252616882324,-0.7479691,-0.03166393,-0.004679574631154537,0.0034508142
1597.966666665542,0.44116956,-0.82266676,0.43913096,-2.4425118,0.52255625,1.4790298,0.33135405,0.03999988,0.04,-9.455934,2.535883903503418,-0.7478268,-0.029923918,-0.005141114816069603,0.0030937255
1597.9833333322088,0.44136742,-0.8226842,0.43932825,-2.4425502,0.52279085,1.4789883,0.33114988,0.039999876,0.04,-9.454632,2.5380611419677734,-0.7476583,-0.028223163,-0.005581121426075697,0.0027516107
1597.9999999988754,0.4415539,-0.8227007,0.43951422,-2.4425879,0.52301204,1.47895,0.33095747,0.039999876,0.04,-9.454113,2.540081024169922,-0.7474658,-0.026575388,-0.006013425998389721,0.0024153518
1598.016666665542,0.44172934,-0.8227162,0.43968916,-2.4426215,0.52322,1.4789125,0.3307764,0.03999988,0.04,-9.453348,2.542449712753296,-0.7472371,-0.024980433,-0.006434374023228884,0.002088704
1598.0333333322087,0.44189405,-0.8227307,0.43985346,-2.4426525,0.5234153,1.4788786,0.3306064,0.039999884,0.04,-9.452523,2.5441579818725586,-0.7470882,-0.023432627,-0.006842033937573433,0.0017715461
1598.0499999988754,0.44204843,-0.8227443,0.44000745,-2.4426825,0.5235983,1.4788462,0.33044705,0.03999988,0.03999999,-9.451555,2.5463109016418457,-0.7468839,-0.021936089,-0.007228841073811054,0.0014716742
1598.066666665542,0.4421928,-0.8227571,0.44015154,-2.4427123,0.52376956,1.4788162,0.33029807,0.039999884,0.04,-9.451045,2.54809832572937,-0.7466849,-0.02049567,-0.00760914059355855,0.0011762169
1598.0833333322087,0.4423276,-0.8227691,0.4402861,-2.442738,0.5239294,1.478788,0.3301589,0.03999989,0.04,-9.450356,2.550257444381714,-0.74643046,-0.0191143,-0.00797880720347166,0.00089102436
1598.0999999988753,0.44245318,-0.8227802,0.44041148,-2.4427614,0.52407837,1.4787618,0.3300292,0.03999989,0.04,-9.44946,2.5517830848693848,-0.7463063,-0.017783452,-0.008326586335897446,0.00062047865
1598.116666665542,0.44256985,-0.8227905,0.44052804,-2.442784,0.52421695,1.4787371,0.32990858,0.03999989,0.039999995,-9.448553,2.5536839962005615,-0.7460721,-0.016507996,-0.00865759514272213,0.00036395492
1598.1333333322086,0.44267812,-0.82280016,0.4406362,-2.4428065,0.5243455,1.4787147,0.32979664,0.039999895,0.04,-9.44801,2.5553464889526367,-0.7458633,-0.015293855,-0.008977953344583511,0.00011503342
1598.1499999988753,0.4427785,-0.82280916,0.44073638,-2.4428265,0.52446455,1.4786934,0.32969296,0.0399999,0.04,-9.447329,2.557298421859741,-0.74560624,-0.014142557,-0.009285070933401585,-0.00012312098
1598.166666665542,0.4428713,-0.8228174,0.44082916,-2.4428442,0.5245747,1.4786748,0.32959715,0.0399999,0.04,-9.446528,2.558922290802002,-0.74539477,-0.013050178,-0.00957650039345026,-0.0003476847
1598.1833333322086,0.44295686,-0.82282495,0.44091466,-2.4428596,0.5246763,1.4786565,0.3295087,0.039999902,0.04,-9.445735,2.5603699684143066,-0.7452592,-0.012017061,-0.009843769483268261,-0.0005561453
1598.1999999988752,0.44303578,-0.8228321,0.44099376,-2.442875,0.5247701,1.4786396,0.3294271,0.039999906,0.04,-9.444856,2.5620691776275635,-0.74499065,-0.011046422,-0.010095953941345215,-0.0007523436
1598.2166666655419,0.4431083,-0.8228386,0.44106627,-2.4428897,0.52485645,1.4786248,0.32935196,0.039999906,0.04,-9.444343,2.563589096069336,-0.74475366,-0.0101417815,-0.010336383245885372,-0.00093693804
1598.2333333322085,0.443175,-0.8228445,0.441133,-2.442904,0.5249358,1.4786105,0.32928282,0.03999991,0.04,-9.443573,2.5653538703918457,-0.7445094,-0.009305846,-0.010556950233876705,-0.0011103103
1598.2499999988752,0.44323638,-0.82285005,0.44119447,-2.4429162,0.525009,1.4785968,0.32921922,0.03999991,0.04,-9.442988,2.56684947013855,-0.7442779,-0.008537466,-0.010766437277197838,-0.0012705405
1598.2666666655418,0.44329292,-0.82285523,0.44125104,-2.4429271,0.5250763,1.4785858,0.32916072,0.03999991,0.04,-9.442147,2.5682640075683594,-0.7440713,-0.0078278445,-0.010957096703350544,-0.0014193607
1598.2833333322085,0.44334483,-0.82285994,0.44130307,-2.4429364,0.5251383,1.478575,0.3291069,0.03999991,0.04,-9.441494,2.5695066452026367,-0.7439293,-0.007174181,-0.011124784126877785,-0.0015507818
1598.2999999988751,0.4433926,-0.8228641,0.44135097,-2.4429448,0.525195,1.4785649,0.3290574,0.03999991,0.04,-9.440809,2.570744276046753,-0.7437232,-0.006571542,-0.011279510334134102,-0.0016727941
1598.3166666655418,0.4434365,-0.8228681,0.44139507,-2.4429524,0.5252474,1.478555,0.3290119,0.039999913,0.04,-9.440318,2.571787118911743,-0.7435678,-0.0060168034,-0.01142299547791481,-0.0017839732
1598.3333333322084,0.4434768,-0.8228718,0.44143564,-2.44296,0.5252957,1.4785478,0.32897004,0.039999917,0.04,-9.439803,2.5728600025177,-0.7433723,-0.005506486,-0.0115564726293087,-0.0018870796
1598.349999998875,0.44351396,-0.8228752,0.44147295,-2.4429672,0.52534014,1.4785407,0.32893136,0.039999917,0.04,-9.439415,2.573805093765259,-0.74327177,-0.005038929,-0.011672857217490673,-0.0019801038
1598.3666666655417,0.4435482,-0.82287836,0.4415073,-2.4429743,0.52538097,1.4785336,0.32889587,0.039999917,0.04,-9.439004,2.574721574783325,-0.7431001,-0.0046077995,-0.01178272906690836,-0.0020673797
1598.3833333322084,0.4435796,-0.82288116,0.44153896,-2.4429812,0.5254184,1.4785268,0.3288632,0.03999992,0.04,-9.438731,2.5754904747009277,-0.74296206,-0.0042125676,-0.01188802532851696,-0.0021490646
1598.399999998875,0.4436084,-0.8228838,0.441568,-2.442988,0.5254531,1.4785205,0.3288331,0.03999992,0.04,-9.4383955,2.5763018131256104,-0.7428407,-0.0038501944,-0.01198794599622488,-0.002224541
1598.4166666655417,0.4436349,-0.8228861,0.44159475,-2.4429946,0.52548486,1.4785144,0.32880548,0.03999992,0.04,-9.438095,2.576997995376587,-0.7427364,-0.0035179083,-0.012080177664756775,-0.0022966885
1598.4333333322083,0.4436593,-0.82288826,0.44161934,-2.4429998,0.5255141,1.4785086,0.32877997,0.039999925,0.04,-9.437879,2.5776188373565674,-0.74265766,-0.003213652,-0.012168760411441326,-0.0023641323
1598.449999998875,0.44368178,-0.8228902,0.44164196,-2.4430044,0.52554107,1.4785053,0.32875648,0.03999993,0.04,-9.437476,2.5781631469726562,-0.74258894,-0.0029310926,-0.012247956357896328,-0.0024250029
1598.4666666655417,0.4437024,-0.82289207,0.4416628,-2.4430084,0.5255655,1.4785019,0.3287349,0.039999925,0.04,-9.437157,2.578660726547241,-0.7425671,-0.0026704296,-0.012311538681387901,-0.0024758421
1598.4833333322083,0.4437213,-0.82289386,0.44168192,-2.443012,0.52558804,1.4784987,0.3287151,0.039999917,0.039999995,-9.436905,2.5791614055633545,-0.7424711,-0.002430732,-0.012371266260743141,-0.0025219845
1598.499999998875,0.44373882,-0.8228955,0.44169965,-2.4430153,0.5256087,1.4784955,0.32869685,0.03999992,0.04,-9.43669,2.579559326171875,-0.742393,-0.0022103335,-0.012425529770553112,-0.0025650726
1598.5166666655416,0.44375485,-0.8228971,0.4417158,-2.4430182,0.52562815,1.4784923,0.32868007,0.03999992,0.04,-9.436508,2.5799689292907715,-0.7423167,-0.0020067375,-0.01247731689363718,-0.002604058
1598.5333333322083,0.4437696,-0.8228985,0.44173077,-2.4430206,0.52564603,1.478489,0.3286646,0.03999992,0.04,-9.436308,2.5803163051605225,-0.7422537,-0.0018195297,-0.012523941695690155,-0.0026420949
1598.549999998875,0.44378313,-0.8228999,0.44174457,-2.4430225,0.52566254,1.4784861,0.32865036,0.039999925,0.04,-9.436126,2.5806539058685303,-0.7421935,-0.0016463845,-0.012567310594022274,-0.0026769198
1598.5666666655416,0.4437956,-0.8229011,0.4417572,-2.4430242,0.5256774,1.4784831,0.32863724,0.03999992,0.039999995,-9.435955,2.580939292907715,-0.7421415,-0.0014864152,-0.012606208212673664,-0.0027071175
1598.5833333322082,0.4438071,-0.82290226,0.4417688,-2.4430256,0.5256914,1.4784803,0.3286252,0.03999993,0.04,-9.435807,2.5812432765960693,-0.7420849,-0.0013392235,-0.012642813846468925,-0.0027364898
1598.5999999988749,0.44381765,-0.8229033,0.44177946,-2.443027,0.52570415,1.4784778,0.32861418,0.039999932,0.04,-9.435681,2.581498861312866,-0.74204785,-0.0012033911,-0.012675811536610126,-0.0027630373
1598.6166666655415,0.44382727,-0.82290417,0.44178933,-2.4430282,0.52571595,1.4784756,0.32860395,0.039999925,0.04,-9.435577,2.581775426864624,-0.74199355,-0.0010791317,-0.012706819921731949,-0.0027870832
1598.6333333322082,0.44383618,-0.82290506,0.44179845,-2.4430294,0.52572674,1.4784733,0.32859445,0.03999992,0.039999995,-9.435468,2.581991195678711,-0.74196935,-0.0009644656,-0.012734613381326199,-0.0028097392
1598.6499999988748,0.4438444,-0.82290584,0.4418068,-2.4430306,0.52573675,1.478471,0.32858577,0.03999993,0.04,-9.1638,2.5230419635772705,-0.6851588,0.0,-0.0,0.0
1598.6666666655415,0.4438444,-0.82290584,0.4418068,-2.4430306,0.52573675,1.478471,0.32858577,0.03999993,0.04,-9.434473,2.5839684009552,-0.7415793,0.0,-0.0,0.0
1598.6833333322081,0.4438444,-0.82290584,0.4418068,-2.4430306,0.52573675,1.478471,0.32858577,0.03999993,0.04,-9.434473,2.5839684009552,-0.7415793,0.0,-0.0,0.0
1598.6999999988748,0.4438444,-0.82290584,0.4418068,-2.4430306,0.52573675,1.478471,0.32858577,0.03999993,0.04,-9.434473,2.5839684009552,-0.7415793,0.0,-0.0,0.0
1598.7166666655414,0.4438444,-0.82290584,0.4418068,-2.4430306,0.52573675,1.478471,0.32858577,0.03999993,0.04,-9.434473,2.5839684009552,-0.7415793,0.0,-0.0,0.0
1598.733333332208,0.4438444,-0.82290584,0.4418068,-2.4430306,0.52573675,1.478471,0.32858577,0.03999993,0.04,-9.434473,2.5839684009552,-0.7415793,0.0,-0.0,0.0
1598.7499999988747,0.4438444,-0.82290584,0.4418068,-2.4430306,0.52573675,1.478471,0.32858577,0.03999993,0.04,-9.434473,2.5839684009552,-0.7415793,0.0,-0.0,0.0
1598.7666666655414,0.4438444,-0.82290584,0.4418068,-2.4430306,0.52573675,1.478471,0.32858577,0.03999993,0.04,-9.434473,2.5839684009552,-0.7415793,0.0,-0.0,0.0
1598.783333332208,0.4438444,-0.82290584,0.4418068,-2.4430306,0.52573675,1.478471,0.32858577,0.03999993,0.04,-9.434473,2.5839684009552,-0.7415793,0.0,-0.0,0.0
1598.7999999988747,0.4438444,-0.82290584,0.4418068,-2.4430306,0.52573675,1.478471,0.32858577,0.03999993,0.04,-9.434473,2.5839684009552,-0.7415793,0.0,-0.0,0.0
1598.8166666655413,0.4438444,-0.82290584,0.4418068,-2.4430306,0.52573675,1.478471,0.32858577,0.03999993,0.04,-9.434473,2.5839684009552,-0.7415793,0.0,-0.0,0.0
1598.833333332208,0.4438444,-0.82290584,0.4418068,-2.4430306,0.52573675,1.478471,0.32858577,0.03999993,0.04,-9.434473,2.5839684009552,-0.7415793,0.0,-0.0,0.0
1598.8499999988746,0.4438444,-0.82290584,0.4418068,-2.4430306,0.52573675,1.478471,0.32858577,0.03999993,0.04,-9.434473,2.5839684009552,-0.7415793,0.0,-0.0,0.0
1598.8666666655413,0.4438444,-0.82290584,0.4418068,-2.4430306,0.52573675,1.478471,0.32858577,0.03999993,0.04,-9.434473,2.5839684009552,-0.7415793,0.0,-0.0,0.0
1598.883333332208,0.4438444,-0.82290584,0.4418068,-2.4430306,0.52573675,1.478471,0.32858577,0.03999993,0.04,-9.434473,2.5839684009552,-0.7415793,0.0,-0.0,0.0
1598.8999999988746,0.4438444,-0.82290584,0.4418068,-2.4430306,0.52573675,1.478471,0.32858577,0.03999993,0.04,-9.434473,2.5839684009552,-0.7415793,0.0,-0.0,0.0
1598.9166666655412,0.4438444,-0.82290584,0.4418068,-2.4430306,0.52573675,1.478471,0.32858577,0.03999993,0.04,-9.434473,2.5839684009552,-0.7415793,0.0,-0.0,0.0
1598.933333332208,0.4438444,-0.82290584,0.4418068,-2.4430306,0.52573675,1.478471,0.32858577,0.03999993,0.04,-9.434473,2.5839684009552,-0.7415793,0.0,-0.0,0.0
1598.9499999988745,0.4438444,-0.82290584,0.4418068,-2.4430306,0.52573675,1.478471,0.32858577,0.03999993,0.04,-9.434473,2.5839684009552,-0.7415793,0.0,-0.0,0.0
1598.9666666655412,0.4438444,-0.82290584,0.4418068,-2.4430306,0.52573675,1.478471,0.32858577,0.03999993,0.04,-9.434473,2.5839684009552,-0.7415793,0.0,-0.0,0.0
1598.9833333322078,0.4438444,-0.82290584,0.4418068,-2.4430306,0.52573675,1.478471,0.32858577,0.03999993,0.04,-9.434473,2.5839684009552,-0.7415793,0.0,-0.0,0.0
1598.9999999988745,0.4438444,-0.82290584,0.4418068,-2.4430306,0.52573675,1.478471,0.32858577,0.03999993,0.04,-9.434473,2.5839684009552,-0.7415793,0.0,-0.0,0.0
1599.0166666655412,0.4438444,-0.82290584,0.4418068,-2.4430306,0.52573675,1.478471,0.32858577,0.03999993,0.04,-9.434473,2.5839684009552,-0.7415793,0.0,-0.0,0.0
1599.0333333322078,0.4438444,-0.82290584,0.4418068,-2.4430306,0.52573675,1.478471,0.32858577,0.03999993,0.04,-9.434473,2.5839684009552,-0.7415793,0.0,-0.0,0.0
1599.0499999988745,0.4438444,-0.82290584,0.4418068,-2.4430306,0.52573675,1.478471,0.32858577,0.03999993,0.04,-9.434473,2.5839684009552,-0.7415793,0.0,-0.0,0.0
1599.066666665541,0.4438444,-0.82290584,0.4418068,-2.4430306,0.52573675,1.478471,0.32858577,0.03999993,0.04,-9.434473,2.5839684009552,-0.7415793,0.0,-0.0,0.0
1599.0833333322078,0.4438444,-0.82290584,0.4418068,-2.4430306,0.52573675,1.478471,0.32858577,0.03999993,0.04,-9.434473,2.5839684009552,-0.7415793,0.0,-0.0,0.0
1599.0999999988744,0.4438444,-0.82290584,0.4418068,-2.4430306,0.52573675,1.478471,0.32858577,0.03999993,0.04,-9.434473,2.5839684009552,-0.7415793,0.0,-0.0,0.0
1599.116666665541,0.4438444,-0.82290584,0.4418068,-2.4430306,0.52573675,1.478471,0.32858577,0.03999993,0.04,-9.434473,2.5839684009552,-0.7415793,0.0,-0.0,0.0
1599.1333333322077,0.4438444,-0.82290584,0.4418068,-2.4430306,0.52573675,1.478471,0.32858577,0.03999993,0.04,-9.434473,2.5839684009552,-0.7415793,0.0,-0.0,0.0
1599.1499999988744,0.4438444,-0.82290584,0.4418068,-2.4430306,0.52573675,1.478471,0.32858577,0.03999993,0.04,-9.434473,2.5839684009552,-0.7415793,0.0,-0.0,0.0
1599.166666665541,0.4438444,-0.82290584,0.4418068,-2.4430306,0.52573675,1.478471,0.32858577,0.03999993,0.04,-9.434473,2.5839684009552,-0.7415793,0.0,-0.0,0.0
1599.1833333322077,0.4438444,-0.82290584,0.4418068,-2.4430306,0.52573675,1.478471,0.32858577,0.03999993,0.04,-9.434473,2.5839684009552,-0.7415793,0.0,-0.0,0.0
1599.1999999988743,0.4438444,-0.82290584,0.4418068,-2.4430306,0.52573675,1.478471,0.32858577,0.03999993,0.04,-9.434473,2.5839684009552,-0.7415793,0.0,-0.0,0.0
1599.216666665541,0.4438444,-0.82290584,0.4418068,-2.4430306,0.52573675,1.478471,0.32858577,0.03999993,0.04,-9.434473,2.5839684009552,-0.7415793,0.0,-0.0,0.0
1599.2333333322076,0.4438444,-0.82290584,0.4418068,-2.4430306,0.52573675,1.478471,0.32858577,0.03999993,0.04,-9.434473,2.5839684009552,-0.7415793,0.0,-0.0,0.0
1599.2499999988743,0.4438444,-0.82290584,0.4418068,-2.4430306,0.52573675,1.478471,0.32858577,0.03999993,0.04,-9.434473,2.5839684009552,-0.7415793,0.0,-0.0,0.0
1599.266666665541,0.4438444,-0.82290584,0.4418068,-2.4430306,0.52573675,1.478471,0.32858577,0.03999993,0.04,-9.434473,2.5839684009552,-0.7415793,0.0,-0.0,0.0
1599.2833333322076,0.4438444,-0.82290584,0.4418068,-2.4430306,0.52573675,1.478471,0.32858577,0.03999993,0.04,-9.434473,2.5839684009552,-0.7415793,0.0,-0.0,0.0
1599.2999999988742,0.4438444,-0.82290584,0.4418068,-2.4430306,0.52573675,1.478471,0.32858577,0.03999993,0.04,-9.434473,2.5839684009552,-0.7415793,0.0,-0.0,0.0
1599.3166666655409,0.4438444,-0.82290584,0.4418068,-2.4430306,0.52573675,1.478471,0.32858577,0.03999993,0.04,-9.434473,2.5839684009552,-0.7415793,0.0,-0.0,0.0
1599.3333333322075,0.4438444,-0.82290584,0.4418068,-2.4430306,0.52573675,1.478471,0.32858577,0.03999993,0.04,-9.434473,2.5839684009552,-0.7415793,0.0,-0.0,0.0
1599.3499999988742,0.4438444,-0.82290584,0.4418068,-2.4430306,0.52573675,1.478471,0.32858577,0.03999993,0.04,-9.434473,2.5839684009552,-0.7415793,0.0,-0.0,0.0
1599.3666666655408,0.4438444,-0.82290584,0.4418068,-2.4430306,0.52573675,1.478471,0.32858577,0.03999993,0.04,-9.434473,2.5839684009552,-0.7415793,0.0,-0.0,0.0
1599.3833333322075,0.4438444,-0.82290584,0.4418068,-2.4430306,0.52573675,1.478471,0.32858577,0.03999993,0.04,-9.434473,2.5839684009552,-0.7415793,0.0,-0.0,0.0
1599.3999999988741,0.4438444,-0.82290584,0.4418068,-2.4430306,0.52573675,1.478471,0.32858577,0.03999993,0.04,-9.434473,2.5839684009552,-0.7415793,0.0,-0.0,0.0
1599.4166666655408,0.4438444,-0.82290584,0.4418068,-2.4430306,0.52573675,1.478471,0.32858577,0.03999993,0.04,-9.434473,2.5839684009552,-0.7415793,0.0,-0.0,0.0
1599.4333333322074,0.4438444,-0.82290584,0.4418068,-2.4430306,0.52573675,1.478471,0.32858577,0.03999993,0.04,-9.434473,2.5839684009552,-0.7415793,0.0,-0.0,0.0
1599.449999998874,0.4438444,-0.82290584,0.4418068,-2.4430306,0.52573675,1.478471,0.32858577,0.03999993,0.04,-9.434473,2.5839684009552,-0.7415793,0.0,-0.0,0.0
1599.4666666655407,0.4438444,-0.82290584,0.4418068,-2.4430306,0.52573675,1.478471,0.32858577,0.03999993,0.04,-9.434473,2.5839684009552,-0.7415793,0.0,-0.0,0.0
1599.4833333322074,0.4438444,-0.82290584,0.4418068,-2.4430306,0.52573675,1.478471,0.32858577,0.03999993,0.04,-9.434473,2.5839684009552,-0.7415793,0.0,-0.0,0.0
1599.499999998874,0.4438444,-0.82290584,0.4418068,-2.4430306,0.52573675,1.478471,0.32858577,0.03999993,0.04,-9.434473,2.5839684009552,-0.7415793,0.0,-0.0,0.0
1599.5166666655407,0.4438444,-0.82290584,0.4418068,-2.4430306,0.52573675,1.478471,0.32858577,0.03999993,0.04,-9.434473,2.5839684009552,-0.7415793,0.0,-0.0,0.0
1599.5333333322073,0.4438444,-0.82290584,0.4418068,-2.4430306,0.52573675,1.478471,0.32858577,0.03999993,0.04,-9.434473,2.5839684009552,-0.7415793,0.0,-0.0,0.0
1599.549999998874,0.4438444,-0.82290584,0.4418068,-2.4430306,0.52573675,1.478471,0.32858577,0.03999993,0.04,-9.434473,2.5839684009552,-0.7415793,0.0,-0.0,0.0
1599.5666666655407,0.4438444,-0.82290584,0.4418068,-2.4430306,0.52573675,1.478471,0.32858577,0.03999993,0.04,-9.434473,2.5839684009552,-0.7415793,0.0,-0.0,0.0
1599.5833333322073,0.4438444,-0.82290584,0.4418068,-2.4430306,0.52573675,1.478471,0.32858577,0.03999993,0.04,-9.434473,2.5839684009552,-0.7415793,0.0,-0.0,0.0
1599.599999998874,0.4438444,-0.82290584,0.4418068,-2.4430306,0.52573675,1.478471,0.32858577,0.03999993,0.04,-9.434473,2.5839684009552,-0.7415793,0.0,-0.0,0.0
1599.6166666655406,0.4438444,-0.82290584,0.4418068,-2.4430306,0.52573675,1.478471,0.32858577,0.03999993,0.04,-9.434473,2.5839684009552,-0.7415793,0.0,-0.0,0.0
1599.6333333322073,0.4438444,-0.82290584,0.4418068,-2.4430306,0.52573675,1.478471,0.32858577,0.03999993,0.04,-9.434473,2.5839684009552,-0.7415793,0.0,-0.0,0.0
1599.649999998874,0.4438444,-0.82290584,0.4418068,-2.4430306,0.52573675,1.478471,0.32858577,0.03999993,0.04,-9.434473,2.5839684009552,-0.7415793,0.0,-0.0,0.0
1599.6666666655406,0.4438444,-0.82290584,0.4418068,-2.4430306,0.52573675,1.478471,0.32858577,0.03999993,0.04,-9.434473,2.5839684009552,-0.7415793,0.0,-0.0,0.0
1599.6833333322072,0.4438444,-0.82290584,0.4418068,-2.4430306,0.52573675,1.478471,0.32858577,0.03999993,0.04,-9.434473,2.5839684009552,-0.7415793,0.0,-0.0,0.0
1599.6999999988739,0.4438444,-0.82290584,0.4418068,-2.4430306,0.52573675,1.478471,0.32858577,0.03999993,0.04,-9.434473,2.5839684009552,-0.7415793,0.0,-0.0,0.0
1599.7166666655405,0.4438444,-0.82290584,0.4418068,-2.4430306,0.52573675,1.478471,0.32858577,0.03999993,0.04,-9.434473,2.5839684009552,-0.7415793,0.0,-0.0,0.0
1599.7333333322072,0.4438444,-0.82290584,0.4418068,-2.4430306,0.52573675,1.478471,0.32858577,0.03999993,0.04,-9.434473,2.5839684009552,-0.7415793,0.0,-0.0,0.0
1599.7499999988738,0.4438444,-0.82290584,0.4418068,-2.4430306,0.52573675,1.478471,0.32858577,0.03999993,0.04,-9.434473,2.5839684009552,-0.7415793,0.0,-0.0,0.0
1599.7666666655405,0.4438444,-0.82290584,0.4418068,-2.4430306,0.52573675,1.478471,0.32858577,0.03999993,0.04,-9.434473,2.5839684009552,-0.7415793,0.0,-0.0,0.0
1599.7833333322071,0.4438444,-0.82290584,0.4418068,-2.4430306,0.52573675,1.478471,0.32858577,0.03999993,0.04,-9.434473,2.5839684009552,-0.7415793,0.0,-0.0,0.0
1599.7999999988738,0.4438444,-0.82290584,0.4418068,-2.4430306,0.52573675,1.478471,0.32858577,0.03999993,0.04,-9.434473,2.5839684009552,-0.7415793,0.0,-0.0,0.0
1599.8166666655404,0.4438444,-0.82290584,0.4418068,-2.4430306,0.52573675,1.478471,0.32858577,0.03999993,0.04,-9.434473,2.5839684009552,-0.7415793,0.0,-0.0,0.0
1599.833333332207,0.4438444,-0.82290584,0.4418068,-2.4430306,0.52573675,1.478471,0.32858577,0.03999993,0.04,-9.434473,2.5839684009552,-0.7415793,0.0,-0.0,0.0
1599.8499999988737,0.4438444,-0.82290584,0.4418068,-2.4430306,0.52573675,1.478471,0.32858577,0.03999993,0.04,-9.434473,2.5839684009552,-0.7415793,0.0,-0.0,0.0
1599.8666666655404,0.4438444,-0.82290584,0.4418068,-2.4430306,0.52573675,1.478471,0.32858577,0.03999993,0.04,-9.434473,2.5839684009552,-0.7415793,0.0,-0.0,0.0
1599.883333332207,0.4438444,-0.82290584,0.4418068,-2.4430306,0.52573675,1.478471,0.32858577,0.03999993,0.04,-9.434473,2.5839684009552,-0.7415793,0.0,-0.0,0.0
1599.8999999988737,0.4438444,-0.82290584,0.4418068,-2.4430306,0.52573675,1.478471,0.32858577,0.03999993,0.04,-9.434473,2.5839684009552,-0.7415793,0.0,-0.0,0.0
1599.9166666655403,0.4438444,-0.82290584,0.4418068,-2.4430306,0.52573675,1.478471,0.32858577,0.03999993,0.04,-9.434473,2.5839684009552,-0.7415793,0.0,-0.0,0.0
1599.933333332207,0.4438444,-0.82290584,0.4418068,-2.4430306,0.52573675,1.478471,0.32858577,0.03999993,0.04,-9.434473,2.5839684009552,-0.7415793,0.0,-0.0,0.0
1599.9499999988736,0.4438444,-0.82290584,0.4418068,-2.4430306,0.52573675,1.478471,0.32858577,0.03999993,0.04,-9.434473,2.5839684009552,-0.7415793,0.0,-0.0,0.0
1599.9666666655403,0.4438444,-0.82290584,0.4418068,-2.4430306,0.52573675,1.478471,0.32858577,0.03999993,0.04,-9.434473,2.5839684009552,-0.7415793,0.0,-0.0,0.0
1599.983333332207,0.4438444,-0.82290584,0.4418068,-2.4430306,0.52573675,1.478471,0.32858577,0.03999993,0.04,-9.434473,2.5839684009552,-0.7415793,0.0,-0.0,0.0
1599.9999999988736,0.4438444,-0.82290584,0.4418068,-2.4430306,0.52573675,1.478471,0.32858577,0.03999993,0.04,-9.434473,2.5839684009552,-0.7415793,0.0,-0.0,0.0
1600.0166666655402,0.4438444,-0.82290584,0.4418068,-2.4430306,0.52573675,1.478471,0.32858577,0.03999993,0.04,-9.434473,2.5839684009552,-0.7415793,0.0,-0.0,0.0
1600.033333332207,0.4438444,-0.82290584,0.4418068,-2.4430306,0.52573675,1.478471,0.32858577,0.03999993,0.04,-9.434473,2.5839684009552,-0.7415793,0.0,-0.0,0.0
1600.0499999988735,0.4438444,-0.82290584,0.4418068,-2.4430306,0.52573675,1.478471,0.32858577,0.03999993,0.04,-9.434473,2.5839684009552,-0.7415793,0.0,-0.0,0.0
1600.0666666655402,0.4438444,-0.82290584,0.4418068,-2.4430306,0.52573675,1.478471,0.32858577,0.03999993,0.04,-9.434473,2.5839684009552,-0.7415793,0.0,-0.0,0.0
1600.0833333322068,0.4438444,-0.82290584,0.4418068,-2.4430306,0.52573675,1.478471,0.32858577,0.03999993,0.04,-9.434473,2.5839684009552,-0.7415793,0.0,-0.0,0.0
1600.0999999988735,0.4438444,-0.82290584,0.4418068,-2.4430306,0.52573675,1.478471,0.32858577,0.03999993,0.04,-9.434473,2.5839684009552,-0.7415793,0.0,-0.0,0.0
1600.1166666655402,0.4438444,-0.82290584,0.4418068,-2.4430306,0.52573675,1.478471,0.32858577,0.03999993,0.04,-9.434473,2.5839684009552,-0.7415793,0.0,-0.0,0.0
1600.1333333322068,0.4438444,-0.82290584,0.4418068,-2.4430306,0.52573675,1.478471,0.32858577,0.03999993,0.04,-9.434473,2.5839684009552,-0.7415793,0.0,-0.0,0.0
1600.1499999988735,0.4438444,-0.82290584,0.4418068,-2.4430306,0.52573675,1.478471,0.32858577,0.03999993,0.04,-9.434473,2.5839684009552,-0.7415793,0.0,-0.0,0.0
1600.16666666554,0.4438444,-0.82290584,0.4418068,-2.4430306,0.52573675,1.478471,0.32858577,0.03999993,0.04,-9.434473,2.5839684009552,-0.7415793,0.0,-0.0,0.0
1600.1833333322068,0.4438444,-0.82290584,0.4418068,-2.4430306,0.52573675,1.478471,0.32858577,0.03999993,0.04,-9.434473,2.5839684009552,-0.7415793,0.0,-0.0,0.0
1600.1999999988734,0.4438444,-0.82290584,0.4418068,-2.4430306,0.52573675,1.478471,0.32858577,0.03999993,0.04,-9.434473,2.5839684009552,-0.7415793,0.0,-0.0,0.0
1600.21666666554,0.4438444,-0.82290584,0.4418068,-2.4430306,0.52573675,1.478471,0.32858577,0.03999993,0.04,-9.434473,2.5839684009552,-0.7415793,0.0,-0.0,0.0
1600.2333333322067,0.4438444,-0.82290584,0.4418068,-2.4430306,0.52573675,1.478471,0.32858577,0.03999993,0.04,-9.434473,2.5839684009552,-0.7415793,0.0,-0.0,0.0
1600.2499999988734,0.4438444,-0.82290584,0.4418068,-2.4430306,0.52573675,1.478471,0.32858577,0.03999993,0.04,-9.434473,2.5839684009552,-0.7415793,0.0,-0.0,0.0
