rsonawane2002/My_IMU/logs_2/traj_320/clean_320.csv
time,j1,j2,j3,j4,j5,j6,j7,gripper1,gripper2,imu_ax,imu_ay,imu_az,imu_gx,imu_gy,imu_gz,quat_x,quat_y,quat_z,quat_w
763.4833333329676,0.00016700293,-0.785875,4.0107683e-05,-2.3551247,9.29385e-05,1.570997,0.786,0.04,0.04,0.0,-0.0,0.0,2.875329272945135e-08,-0.0011641195053377316,4.421952117202833e-08,0.9999995971961153,0.00020320632366974898,0.0008736418299892524,3.263050917662294e-05
763.4999999996343,0.00016701264,-0.78576016,4.011381e-05,-2.3552213,9.297102e-05,1.5709941,0.786,0.04,0.04,-0.29199846010250496,-3.969260105757288e-05,0.020128406953401345,-5.983516998162866e-07,-0.0022391902133034086,-5.7342694146479566e-08,0.9999996850594562,0.00020320404991648372,0.0007665025191788066,3.260353486303466e-05
763.5166666663009,0.00016706977,-0.7856543,4.011397e-05,-2.35531,9.298003e-05,1.5709913,0.786,0.04,0.04,0.02332872468862046,-2.8031039017576472e-05,-0.0016704442441284328,-5.64832837432561e-06,-0.0032307587180487765,-9.957373608181843e-07,0.9999997558519593,0.0002031797951275633,0.0006677972575210391,3.257015959505072e-05
763.5333333329676,0.0001672533,-0.78555703,4.00994e-05,-2.355391,9.293184e-05,1.5709884,0.786,0.04,0.04,0.022460745018282324,-7.98644719084802e-05,-0.0015249191217758806,-1.9087294785872946e-05,-0.0041507069722175926,-3.5337955529897803e-06,0.9999998122681892,0.0002030971900748825,0.0005771982266980799,3.25165321584443e-05
763.5499999996342,0.00016767664,-0.78546786,4.005777e-05,-2.3554645,9.2778064e-05,1.5709856,0.786,0.04,0.04,0.021932301658411646,-0.00015463311747774362,-0.00124099261666899,-4.467862178512909e-05,-0.005002731450757118,-8.357704863276866e-06,0.9999998566405621,0.0002029038955308742,0.0004944670166545081,3.2422738262301175e-05
763.5666666663009,0.0001684846,-0.7853864,3.9973234e-05,-2.3555312,9.245785e-05,1.5709826,0.786,0.04,0.04,0.019811097942135092,-0.00025051039854547723,-0.0015076141159475753,-8.627749851139175e-05,-0.005791390767403591,-1.609648360969117e-05,0.99999989124843,0.00020253314411776367,0.00041885857904243383,3.2263667778402825e-05
763.5833333329675,0.00016984987,-0.78531235,3.982718e-05,-2.3555913,9.189931e-05,1.5709795,0.7859981,0.04,0.04,0.019546582932838952,-0.000365829960557437,-0.001362653804792835,-0.00014701830079586414,-0.0065263145210590935,-2.7281802201061186e-05,0.9999999179580935,0.00020095150398335315,0.00035025374582020233,3.200957168216624e-05
763.5999999996342,0.00017197036,-0.7852454,3.959841e-05,-2.3556485,9.101698e-05,1.5709758,0.7859962,0.04,0.04,0.012515998752204993,-0.000495325872579104,-0.003213424906367557,-0.0002213788652359582,-0.007212013925961952,-4.2418551195052186e-05,0.9999999387033636,0.00019902127940737605,0.0002863279175597489,3.162472048813077e-05
763.6166666663008,0.00017506604,-0.7851856,3.9262995e-05,-2.3556988,8.9720634e-05,1.5709691,0.7859943,0.04,0.04,0.01864784612106707,-0.0006432002382989268,-0.0031699595384626633,-0.000321519051791131,-0.007870266263911461,-6.195414472425662e-05,0.99999995421069,0.0001966407741479637,0.0002279155718622045,3.107275041535883e-05
763.6333333329675,0.00017937693,-0.78513235,3.879525e-05,-2.3557422,8.790587e-05,1.5709621,0.7859905,0.04,0.04,0.0189521237253798,-0.000800703098794987,-0.0009388281416278232,-0.00045014127323836275,-0.008496409448887668,-8.626633147551275e-05,0.9999999654614483,0.00019274542920802532,0.00017608963669759912,3.0310748641830646e-05
763.6499999996341,0.00018516056,-0.7850861,3.8167454e-05,-2.355781,8.546649e-05,1.5709516,0.78598475,0.04,0.04,0.014312492819912315,-0.0009726648307320528,-0.00451294413719161,-0.0006010529906163433,-0.00908299020561294,-0.00011570921805896173,0.9999999738171562,0.0001872162782819826,0.00012828712609737659,2.9294457590469444e-05
763.6666666663008,0.00019268988,-0.78504646,3.7350033e-05,-2.3558154,8.230422e-05,1.5709406,0.7859788,0.04,0.03999999,0.014861865535631402,-0.0011665673619348294,-0.002085485214320393,-0.0007770001637069166,-0.009655039506666279,-0.00014905259010496383,0.9999999795885021,0.00018076180691806282,8.58193301039752e-05,2.7985840060257594e-05
763.6833333329674,0.00020225192,-0.78501374,3.6312435e-05,-2.355843,7.826909e-05,1.5709262,0.78597116,0.04,0.039999995,0.017892682953868366,-0.0013357145591934804,-0.00350955838610556,-0.0009880285921318537,-0.010203067945137614,-0.00019046160845227284,0.9999999835974805,0.00017253394147890243,4.841807235681372e-05,2.6320486206063104e-05
763.6999999996341,0.00021414505,-0.7849879,3.502265e-05,-2.3558652,7.323543e-05,1.570908,0.78596115,0.04,0.04,0.01575344535900136,-0.0015336520622170338,-0.004306837616740999,-0.0012301039785920502,-0.010732317102414984,-0.00023774009136616372,0.9999999864608465,0.00016203721893331025,1.530851989705639e-05,2.4246555592761432e-05
763.7166666663007,0.0002286781,-0.78496915,3.3447322e-05,-2.3558831,6.7083165e-05,1.5708859,0.7859485,0.04,0.04,0.013859388148929064,-0.0017456146603912661,-0.0049062503150176795,-0.0015021232079679742,-0.01125055734399808,-0.0002903254860328285,0.9999999885636026,0.00014900987947986884,-1.4045750220725133e-05,2.171560349785475e-05
763.7333333329674,0.00024616855,-0.78495765,3.155229e-05,-2.3558946,5.9687725e-05,1.57086,0.78593326,0.04,0.039999995,0.01776874358569991,-0.001963287825770935,-0.004077251545187011,-0.0018048237212696843,-0.011765919983044278,-0.00034843397391562966,0.999999990201121,0.00013330524781166936,-3.845262797854783e-05,1.867790729793116e-05
763.749999999634,0.00026694126,-0.7849536,2.9302668e-05,-2.3558993,5.0910654e-05,1.57083,0.78591555,0.04,0.03999999,0.018257681953892657,-0.002177405121745477,-0.004336607927957203,-0.0021402389282129865,-0.012267659441119745,-0.00041301213964412524,0.999999991614446,0.0001148627230010271,-5.7882290797543244e-05,1.5076574488197052e-05
763.7666666663007,0.0002913276,-0.78495723,2.6663014e-05,-2.355899,4.0602627e-05,1.5707952,0.7858946,0.04,0.03999999,0.015496032432027462,-0.002389408932388401,-0.005663539874278811,-0.0025114329810980475,-0.012759781738457081,-0.0004849339469687199,0.999999992916256,9.31120743157529e-05,-7.334798555826518e-05,1.0849087941082446e-05
763.7833333329673,0.00031966358,-0.78496873,2.359723e-05,-2.3558927,2.861118e-05,1.5707539,0.7858704,0.04,0.039999995,0.017189984912513445,-0.002603445275913512,-0.006474072449336177,-0.0029159238356797727,-0.013252348118063481,-0.0005642349711020673,0.9999999940629107,6.792799333207084e-05,-8.499869805861776e-05,5.931926928639151e-06
763.799999999634,0.00035228906,-0.78498846,2.006876e-05,-2.355881,1.48039235e-05,1.5707074,0.78584254,0.04,0.039999995,0.016341444076717337,-0.002836104195522854,-0.00621668730893532,-0.003356106160665913,-0.01374741180996217,-0.0006494271581738546,0.9999999949601115,3.894511147561057e-05,-9.25363790915305e-05,2.719710453426657e-07
763.8166666663006,0.00038954747,-0.78501666,1.6040822e-05,-2.355862,-9.81927e-07,1.570654,0.7858108,0.04,0.04,0.019721132188688095,-0.003049394347431851,-0.006635034419488761,-0.00383130996257776,-0.014244760595137412,-0.0007428992445774592,0.9999999953934631,5.885789988054135e-06,-9.560336852723714e-05,-6.198979790114185e-06
763.8333333329673,0.00043178358,-0.7850537,1.1476071e-05,-2.3558352,-1.8856104e-05,1.5705935,0.78577477,0.04,0.039999995,0.020444428996935216,-0.003302695518394346,-0.006911283892585551,-0.004342182965648129,-0.014744165079179142,-0.0008400193838307182,0.9999999949878413,-3.164718329978536e-05,-9.402083070945146e-05,-1.3522446927362718e-05
763.849999999634,0.00047934437,-0.7850999,6.3375132e-06,-2.3558018,-3.8992242e-05,1.5705256,0.78573406,0.04,0.04,0.01924555815633333,-0.003510543823058497,-0.0076679005704960446,-0.004888236683496292,-0.015243207605939852,-0.0009463265307655463,0.9999999931454789,-7.396272670910215e-05,-8.811655600911257e-05,-2.1772222636568826e-05
763.8666666663006,0.00053257664,-0.78515553,5.877762e-07,-2.3557613,-6.151933e-05,1.57045,0.78568864,0.04,0.039999995,0.019996530952681724,-0.00375083329208414,-0.00797094151303579,-0.005468934111116302,-0.015748722781062697,-0.001057871023903502,0.9999999891352369,-0.00012125025826583502,-7.789051370791608e-05,-3.099949875767166e-05
763.8833333329673,0.00059182756,-0.78522104,-5.810434e-06,-2.3557134,-8.659232e-05,1.5703657,0.78563803,0.04,0.039999995,0.020765214312046254,-0.003971438269695566,-0.008707394289797499,-0.006085637490674808,-0.016262568678651376,-0.0011770231874887978,0.9999999820222258,-0.00017390786517137104,-6.331286799367723e-05,-4.126842850605834e-05
763.8999999996339,0.00065744383,-0.7852967,-1.289413e-05,-2.3556576,-0.000114376315,1.5702722,0.7855821,0.04,0.04,0.0216468936881542,-0.0041839019746589675,-0.009080907287328799,-0.006737731078180787,-0.016783115535554213,-0.0013044738758906066,0.9999999706839019,-0.00023215455420389365,-4.4323971118334364e-05,-5.264830317115423e-05
763.9166666663006,0.00072977017,-0.785383,-2.070068e-05,-2.355594,-0.0001449903,1.5701697,0.7855205,0.039999995,0.039999995,0.02227362358193652,-0.004427562259608458,-0.00930548623916394,-0.0074254077269587816,-0.01731505310807485,-0.0014362885386026859,0.9999999537495906,-0.0002963570938237415,-2.0595967681330647e-05,-6.518508888609471e-05
763.9333333329672,0.0008091499,-0.7854803,-2.9266783e-05,-2.3555222,-0.0001786049,1.5700569,0.7854528,0.03999999,0.04,0.022691869512425633,-0.004630672930974636,-0.010300898750381648,-0.008148002443325773,-0.017853438085291135,-0.0015771374437688129,0.9999999295645794,-0.0003668517678375589,7.573161323087224e-06,-7.89510207714704e-05
763.9499999996339,0.0008959242,-0.7855889,-3.8629314e-05,-2.355442,-0.00021533793,1.5699338,0.7853788,0.039999988,0.03999999,0.02331756605840063,-0.004870454611962489,-0.010431061741367209,-0.008905107678769505,-0.018404866172388172,-0.0017222471009813137,0.999999896251613,-0.0004438842386026159,4.03622696259973e-05,-9.399166475387621e-05
763.9666666663005,0.0009904319,-0.78570926,-4.8824484e-05,-2.3553529,-0.0002553496,1.5697997,0.7852981,0.039999984,0.03999999,0.02486490081032855,-0.005075462438017871,-0.010840886665763882,-0.009696806446655933,-0.01896808575640915,-0.0018755216392801089,0.9999998515497094,-0.0005278478273400665,7.806941861107242e-05,-0.00011037389347107434
763.9833333329672,0.0010930079,-0.78584164,-5.9888265e-05,-2.3552542,-0.00029878417,1.5696542,0.7852107,0.03999998,0.039999995,0.02588435597321581,-0.005287814943443323,-0.011080851091493926,-0.010522102582164149,-0.019543057830508897,-0.0020361785425248385,0.99999979298172,-0.0006188657117177344,0.00012090328983628006,-0.00012815671056087716
763.9999999996338,0.0012039844,-0.78598684,-7.185652e-05,-2.3551462,-0.00034577138,1.569497,0.78511614,0.039999977,0.03999999,0.02617637133031092,-0.005506320515410094,-0.012002237998065546,-0.011381884600814934,-0.02012832032992187,-0.0022015290690265595,0.9999997175743466,-0.0007173574921792294,0.00016889371928355658,-0.00014739188307611427
764.0166666663005,0.0013236896,-0.7861447,-8.47645e-05,-2.3550286,-0.0003964511,1.5693274,0.7850141,0.039999973,0.039999988,0.026186776788006405,-0.005712988831134587,-0.012260220764814811,-0.012274805392609856,-0.020723778144186335,-0.0023732213659760654,0.9999996221217751,-0.0008235917267886224,0.00022177254033782845,-0.00016813659618917243
764.0333333329671,0.0014524475,-0.78631586,-9.864717e-05,-2.3549013,-0.00045096097,1.569145,0.78490436,0.03999997,0.039999988,0.027258769474425293,-0.005915434824072842,-0.012851234795729916,-0.013200639706916324,-0.021334986240851977,-0.002552017680198535,0.999999502943384,-0.0009378346528861053,0.00027983783459807117,-0.00019044667259710032
764.0499999996338,0.0015905786,-0.78650075,-0.00011353883,-2.3547633,-0.0005094354,1.5689491,0.78478664,0.03999996,0.03999998,0.029036471845733658,-0.006116069867804293,-0.013190588165334916,-0.014158844473002773,-0.02195969828474076,-0.0027361084499388706,0.9999993558603075,-0.0010603803919258777,0.00034338768167862014,-0.00021437652538959867
764.0666666663004,0.0017383982,-0.7866996,-0.00012947351,-2.3546154,-0.0005720085,1.5687399,0.7846607,0.039999954,0.039999973,0.027705675748612713,-0.0063103856118338665,-0.013691735135656913,-0.015148856432040204,-0.022596037323495702,-0.0029262456714664,0.999999176455947,-0.001191490838909249,0.0004121241240344321,-0.00023998065498507528
764.0833333329671,0.001896217,-0.7869129,-0.00014648451,-2.3544555,-0.0006388115,1.5685165,0.7845263,0.039999947,0.039999966,0.03207067561916688,-0.006501208786247308,-0.013593840795622647,-0.01617064789898819,-0.023249610124003013,-0.0031223262454579317,0.9999989592972215,-0.0013314247659440138,0.00048709031290894764,-0.00026731179120370986
764.0999999996337,0.0020643405,-0.7871412,-0.00016460472,-2.3542852,-0.00070997427,1.5682784,0.78438306,0.039999943,0.039999966,0.029190688813129917,-0.006684444977432947,-0.015104573382052067,-0.01722310227241553,-0.023909517979626295,-0.0033251035556016674,0.9999986991947114,-0.0014804985754462436,0.0005673326316789804,-0.0002964229043323748
764.1166666663004,0.00224307,-0.7873846,-0.00018386664,-2.354103,-0.0007856235,1.5680255,0.7842308,0.03999994,0.03999996,0.03213216230091298,-0.006866712279862265,-0.014685065358732707,-0.018305907732886553,-0.024587028897763735,-0.003532730072888405,0.9999983897259204,-0.0016389362448725377,0.0006536558268606432,-0.0003273646460884922
764.133333332967,0.0024327012,-0.78764373,-0.00020430189,-2.35391,-0.0008658845,1.567757,0.7840693,0.039999936,0.039999958,0.030897153759879004,-0.007040785427425188,-0.015901442086274642,-0.019418451916647525,-0.0252762981210069,-0.0037459486477681696,0.9999980245465675,-0.0018070190773878836,0.000745553330186783,-0.0003601877958724216
764.1499999996337,0.0026335225,-0.7879186,-0.00022594175,-2.3537042,-0.0009508806,1.5674726,0.7838983,0.039999932,0.039999958,0.033693971661352684,-0.007208855344657339,-0.015635603480945726,-0.02056011520861813,-0.025983213348999834,-0.00396548928003535,0.9999975960676923,-0.0019849640977964143,0.0008436808869038249,-0.0003949416763422748
764.1666666663003,0.0028458205,-0.7882099,-0.00024881685,-2.3534863,-0.0010407313,1.5671722,0.7837175,0.039999932,0.039999958,0.033520754966365196,-0.007375572281932696,-0.016239944522355998,-0.02173029140016494,-0.02670096036971897,-0.004189527034602895,0.9999970963118924,-0.0021730474253450127,0.0009480981789112851,-0.0004316740835246153
764.183333332967,0.0030698718,-0.788518,-0.00027295726,-2.3532562,-0.0011355553,1.5668548,0.78352666,0.039999932,0.039999958,0.03365519165674513,-0.007528891193347813,-0.017245499016027566,-0.02292833277128023,-0.027431138016739617,-0.004418780598811251,0.9999965169899688,-0.0023715396524584126,0.0010585370616294613,-0.0004704326698417437
764.1999999996336,0.003305952,-0.7888431,-0.0002983923,-2.3530126,-0.001235468,1.5665205,0.78332555,0.039999932,0.03999996,0.03622087146335495,-0.0076858320657202574,-0.016869989854262357,-0.024153352083971166,-0.02817763724860573,-0.004653972511953753,0.9999958482316599,-0.0025806508123872893,0.001175742698326502,-0.0005112630779593123
764.2166666663003,0.0035543274,-0.7891856,-0.00032515073,-2.3527558,-0.001340582,1.566169,0.783114,0.039999936,0.039999966,0.035844829109499265,-0.007830891900200126,-0.017385907746869655,-0.025404676835430948,-0.028933815283106176,-0.004893282706306051,0.9999950801801594,-0.002800586455955461,0.0012996853989996793,-0.0005542101071312302
764.2333333329669,0.0038152596,-0.78954595,-0.00035326064,-2.3524873,-0.0014510088,1.5657996,0.7828918,0.039999947,0.039999977,0.03360800764344862,-0.007966630772343651,-0.019065230181380954,-0.02668221802825539,-0.02970140686671097,-0.0051373936786938725,0.9999942035454966,-0.003031579668661745,0.0014294115933298867,-0.0005993184607622132
764.2499999996336,0.004089003,-0.78992426,-0.00038274963,-2.3522048,-0.0015668563,1.5654122,0.78265864,0.03999996,0.039999995,0.03769466711787128,-0.008102542569077449,-0.018132356981692688,-0.027985069219156035,-0.030489207969089608,-0.005387018436870419,0.9999932053373753,-0.0032738881796635557,0.0015661432596308018,-0.0006466301564323664
764.2666666663002,0.0043758093,-0.79032105,-0.0004136447,-2.351908,-0.0016882063,1.5650063,0.7824142,0.039999973,0.039999995,0.038506162341689354,-0.008248360015420016,-0.018775123962933016,-0.029311975018014476,-0.03128754013238334,-0.005637721171548914,0.9999920729629691,-0.0035277685562882196,0.0017100294833058583,-0.0006961748366841105
764.2833333329669,0.004675919,-0.79073656,-0.00044597205,-2.3515966,-0.0018151684,1.5645816,0.7821587,0.039999988,0.04,0.039063427522889604,-0.008361078235230319,-0.01907483901890661,-0.030662302353805484,-0.03209560253064657,-0.005894111922041871,0.9999907938864336,-0.0037932331365731,0.0018611897255190696,-0.0007479956935379908
764.2999999996335,0.00498957,-0.791171,-0.0004797572,-2.351271,-0.0019478492,1.5641376,0.7818915,0.03999999,0.04,0.03865578325594754,-0.008468041413206128,-0.019941342109985882,-0.032036744100638316,-0.03291346710964847,-0.006155539927565453,0.9999893544183428,-0.004070650069103803,0.0020192663688929587,-0.000802135482429222
764.3166666663002,0.0053169965,-0.7916248,-0.000515025,-2.3509307,-0.0020863404,1.5636743,0.78161275,0.039999995,0.04,0.03949154867921578,-0.008584801761080726,-0.019965883443351373,-0.033432953952056456,-0.033743669714423136,-0.006420415314214649,0.9999877395836884,-0.004360117662535697,0.002184676849344994,-0.0008586287547468717
764.3333333329668,0.0056584203,-0.79209834,-0.0005517998,-2.350576,-0.0022307385,1.5631912,0.781322,0.04,0.039999995,0.0397454176180867,-0.00867694968670076,-0.020878195652129783,-0.03485167386970932,-0.03458580429788641,-0.006689344664129508,0.9999859338671434,-0.004661905731698099,0.002357302021848428,-0.0009175129337643129
764.3499999996335,0.0060140593,-0.7925918,-0.00059010455,-2.3502064,-0.0023811546,1.5626875,0.7810192,0.04,0.039999995,0.040046616753119935,-0.00875391394022304,-0.021397603588191316,-0.03629081383477144,-0.035438967925169026,-0.00696369493512193,0.9999839216214897,-0.004976132978827652,0.002537022876361138,-0.0009788329827587529
764.3666666663001,0.006384129,-0.7931055,-0.0006299624,-2.3498216,-0.0025376792,1.5621638,0.780704,0.04,0.04,0.04129032609523353,-0.00884533548689663,-0.021127822968347587,-0.03775081527832537,-0.036306457816982676,-0.007241711488242262,0.9999816836928296,-0.005303065563432385,0.0027244653160406664,-0.0010426232422884978
764.3833333329668,0.0067688343,-0.7936397,-0.00067139574,-2.3494217,-0.0027004082,1.5616194,0.78037643,0.04,0.04,0.040999241727623925,-0.008911076668787887,-0.022092089856085018,-0.03922986648065928,-0.03718267522080429,-0.007523999098887355,0.9999792031730187,-0.005642784694563106,0.0029193315522741533,-0.0011089209319370267
764.3999999996335,0.0071683764,-0.79419476,-0.00071442605,-2.3490064,-0.0028694067,1.5610541,0.7800362,0.04,0.04,0.04198053317552297,-0.008998980731588554,-0.022245036542400953,-0.040727852577817844,-0.03807162187295417,-0.007808109179614383,0.9999764600426261,-0.005995488958960269,0.003121919716779346,-0.0011777478689860555
764.4166666663001,0.00758295,-0.79477066,-0.00075907446,-2.3485756,-0.003044749,1.5604674,0.7796831,0.04,0.03999999,0.041799592948121855,-0.009066503986527533,-0.022857666438014235,-0.04224408745302857,-0.038969792207386826,-0.008094738987602313,0.9999734349652987,-0.006361373032262061,0.0033319616942948283,-0.0012491309434803388
764.4333333329668,0.008012739,-0.7953677,-0.0008053609,-2.3481286,-0.0032265407,1.5598593,0.7793169,0.04,0.04,0.04332200402492603,-0.009101077323593436,-0.022782514590868885,-0.04377729804866292,-0.03988093530628076,-0.008386773661503515,0.999970104890245,-0.006740625323769821,0.003550023826943788,-0.001323112567137872
764.4499999996334,0.008457931,-0.7959865,-0.00085330487,-2.3476658,-0.0034148623,1.5592294,0.77893794,0.04,0.04,0.042884794307895824,-0.009148128733143211,-0.02380172258726887,-0.04532655126213337,-0.040800272946260104,-0.008681709404097827,0.9999664502957483,-0.00713313793713975,0.0037758980039683905,-0.0013997215274380195
764.4666666663001,0.008918694,-0.7966273,-0.0009029256,-2.3471866,-0.0036097646,1.5585777,0.7785455,0.04,0.04,0.04442674208575692,-0.009199781438628662,-0.02386798320386241,-0.04689361997618792,-0.04173057377177802,-0.008977874920218325,0.999962444339032,-0.007539329100268804,0.0040101204337534896,-0.001478973405118513
764.4833333329667,0.009395202,-0.7972898,-0.0009542408,-2.3466907,-0.00381134,1.5579034,0.7781398,0.04,0.04,0.0441426720290794,-0.009219909852943662,-0.02425262385379323,-0.048474772969705704,-0.04266808369581329,-0.009278230267461688,0.9999580660229189,-0.007959141748718503,0.004252274333610598,-0.0015609040070714147
764.4999999996334,0.009887614,-0.7979745,-0.0010072682,-2.3461783,-0.0040196283,1.5572066,0.7777205,0.04,0.04,0.04425320489953588,-0.009262326728182429,-0.02483875729837326,-0.050071036612436,-0.04361491607648306,-0.009578767367246508,0.9999532888538263,-0.008392840993658645,0.004502508659160761,-0.0016455230917568535
764.5166666663,0.010396092,-0.79868174,-0.0010620252,-2.3456492,-0.004234697,1.5564873,0.77728754,0.04,0.039999995,0.044844518472642036,-0.00928182914437534,-0.025057828261343396,-0.051681090760688136,-0.04457130627905322,-0.009881720201454208,0.9999480863467947,-0.00884048172178723,0.0047610620967807205,-0.0017328537216296193
764.5333333329667,0.010920783,-0.7994116,-0.0011185273,-2.3451033,-0.0044566393,1.5557452,0.7768408,0.04,0.04,0.045290111284890244,-0.009265482918813153,-0.025426775091030862,-0.05330397758238026,-0.04553479768518089,-0.010189197361661056,0.9999424310929672,-0.009302171309555138,0.005028024238948444,-0.0018229319972897823
764.5499999996333,0.011461832,-0.80016434,-0.0011767902,-2.3445406,-0.0046855137,1.5549798,0.7763801,0.04,0.04,0.044870611409053573,-0.00926339473143311,-0.026299943525187608,-0.054939587949782945,-0.046506988326001183,-0.010498636179606358,0.9999362963573456,-0.009778046027793849,0.005303097186354526,-0.0019157774571154106
764.5666666663,0.012019378,-0.80094016,-0.0012368294,-2.3439598,-0.00492135,1.5541909,0.7759055,0.04,0.039999995,0.0473715479119452,-0.0092804861528753,-0.02611071057747605,-0.056586643017934826,-0.04748866647010563,-0.010807669921143206,0.9999296498235644,-0.010268146724040398,0.005587026254401384,-0.002011393599018296
764.5833333329666,0.012593555,-0.80173916,-0.0012986587,-2.3433619,-0.0051642335,1.5533786,0.77541655,0.04,0.039999995,0.04583140104170713,-0.009243822892007411,-0.026690973613696656,-0.05824531220625512,-0.04847449670756673,-0.011120802785149148,0.9999224618914663,-0.010772693007326938,0.005879453755537321,-0.0021098136921139958
764.5999999996333,0.013184488,-0.80256146,-0.0013622921,-2.3427465,-0.005414193,1.5525423,0.7749134,0.04,0.039999995,0.04607968429526377,-0.009231131405862576,-0.02732125950697384,-0.05991355256745043,-0.049466868760840776,-0.011434000151655238,0.9999147030787295,-0.011291688923804498,0.006180260797109472,-0.002211041542760018
764.6166666662999,0.0137923015,-0.8034073,-0.0014277423,-2.3421133,-0.005671305,1.5516826,0.7743959,0.04,0.039999995,0.04720806694158419,-0.009192309538888326,-0.02714114250546018,-0.06159115165659122,-0.05046796754217482,-0.011750142164027828,0.9999063377694059,-0.011825198251507412,0.0064900436425958455,-0.002315104404700836
764.6333333329666,0.014417104,-0.80427694,-0.0014950214,-2.3414624,-0.005935613,1.5507985,0.77386385,0.04,0.039999995,0.04668941162928597,-0.009138855797373967,-0.028229171763149985,-0.06327797792425667,-0.05147252517915922,-0.012067553576656741,0.9998973345226226,-0.01237336469140042,0.006808385056709652,-0.002422014386328086
764.6499999996332,0.015059004,-0.80517036,-0.0015641414,-2.340794,-0.0062071523,1.5498904,0.77331734,0.04,0.039999995,0.04625767784616208,-0.009099026067567462,-0.028382879202326627,-0.06497285489559507,-0.05248416779321057,-0.012385296380970546,0.9998876601714021,-0.01293618330735291,0.00713528536708937,-0.0025317782540246886
764.6666666662999,0.015718104,-0.80608773,-0.0016351135,-2.3401074,-0.0064859567,1.5489578,0.7727562,0.04,0.039999995,0.04784591556110662,-0.009050464396130262,-0.02862254177711243,-0.06667511173156733,-0.0535040554749148,-0.012703254085983195,0.9998772766291973,-0.01351373387648531,0.00747113210809774,-0.002644402071973884
764.6833333329665,0.016394507,-0.8070293,-0.0017079477,-2.3394027,-0.0067720884,1.5480009,0.7721804,0.04,0.039999995,0.047625530100425806,-0.008973470989910928,-0.0290270398601411,-0.0683846042399094,-0.054527600596227195,-0.013023623087408195,0.9998661467220815,-0.014106095640556792,0.007815984995996787,-0.002759906422099784
764.6999999996332,0.017088296,-0.80799526,-0.0017826542,-2.33868,-0.0070655826,1.5470195,0.7715897,0.04,0.04,0.04721863266867743,-0.008888912703564587,-0.029665484614405102,-0.07009998741739462,-0.05555476078425248,-0.013344701482160635,0.9998542339510774,-0.014713338505567523,0.008169695088776217,-0.0028782985045407716
764.7166666662998,0.017799562,-0.8089857,-0.0018592415,-2.3379385,-0.007366467,1.5460132,0.7709842,0.04,0.039999995,0.04876683028758322,-0.008820448799003351,-0.029813330735151133,-0.07182078076327067,-0.05658720849776588,-0.013665509962455401,0.9998414970049029,-0.015335473813203595,0.008532679835404967,-0.0029995807616699597
764.7333333329665,0.01852838,-0.8100003,-0.0019377193,-2.3371797,-0.0076747765,1.5449823,0.7703636,0.04,0.039999995,0.04586467470972799,-0.008722211035757342,-0.03033109821264368,-0.07354621389928015,-0.05762072190794213,-0.01398671626876902,0.9998279027485116,-0.015972598983671208,0.008904104752332718,-0.0031237614792419604
764.7499999996331,0.019274827,-0.81103945,-0.002018095,-2.3364017,-0.007990543,1.5439264,0.76972806,0.04,0.039999995,0.04890150384708747,-0.00862628358731174,-0.03049221186286477,-0.07527531819644835,-0.05866364169328102,-0.014308067773351984,0.9998134039503904,-0.016624714941532955,0.009284834270298891,-0.0032508440164326917
764.7666666662998,0.020038975,-0.81210333,-0.0021003757,-2.335606,-0.008313801,1.5428452,0.7690775,0.04,0.039999995,0.04649056142298491,-0.00850688635226915,-0.031524688345974106,-0.07700798814927273,-0.059707156967326994,-0.014630340920942328,0.9997979660351816,-0.01729182588069531,0.009674183175047112,-0.003380835624674543
764.7833333329664,0.020820877,-0.81319195,-0.0021845682,-2.3347912,-0.008644593,1.5417392,0.76841176,0.03999999,0.039999995,0.049263709860269955,-0.008379286221345261,-0.031013541444169235,-0.07874326881630687,-0.060758033104453074,-0.014953115922560134,0.9997815372581503,-0.01797397861977493,0.010073105056254687,-0.00351374512893274
764.7999999996331,0.0216206,-0.8143055,-0.0022706792,-2.3339586,-0.008982925,1.5406078,0.7677308,0.039999984,0.03999999,0.0463198541990284,-0.008262423453026663,-0.03240727824254108,-0.08048054124716379,-0.061808343322366496,-0.015274776386625697,0.9997640833358342,-0.01867123510132281,0.010480616446743661,-0.003649565775089787
764.8166666662997,0.022438189,-0.8154439,-0.0023587137,-2.333106,-0.009328819,1.5394514,0.76703477,0.039999984,0.03999999,0.050273191701588615,-0.008139722357477022,-0.03153078666742193,-0.08221883441513461,-0.06286585333524965,-0.01559532234544893,0.9997455489971336,-0.019383456790022558,0.010898058923418474,-0.0037882944699152224
764.8333333329664,0.023273693,-0.8166074,-0.0024486769,-2.3322358,-0.009682282,1.5382692,0.7663236,0.039999984,0.03999999,0.04615310021200969,-0.007981508315746746,-0.03344672382095126,-0.08395865697627065,-0.06391832150965912,-0.01591537841870578,0.999725903394724,-0.02011069559083866,0.011324031796394058,-0.0039299247231736984
764.849999999633,0.024127148,-0.8177959,-0.0025405732,-2.3313465,-0.01004335,1.5370617,0.7655974,0.03999998,0.03999999,0.04832569049808555,-0.007828765486293451,-0.03274210047967685,-0.08569902304345839,-0.06497891403725756,-0.016235438802175612,0.999705092815041,-0.02085289876283473,0.01175936971228941,-0.00407446153824958
764.8666666662997,0.024998592,-0.8190092,-0.002634406,-2.3304389,-0.010412032,1.5358284,0.7648557,0.039999984,0.039999995,0.04668526848465859,-0.007665071811731317,-0.03373420945904648,-0.08743986284763891,-0.06603964463284277,-0.01655385957579806,0.9996830746146231,-0.02161025778195853,0.012203386516471446,-0.004221900659759087
764.8833333329663,0.02588806,-0.8202478,-0.0027301796,-2.3295116,-0.010788317,1.5345701,0.7640986,0.039999988,0.039999995,0.04936886229542914,-0.007533563530806933,-0.0332444279748767,-0.08917867770513083,-0.06710642434472486,-0.01687046757479961,0.9996597867938999,-0.022382688212129263,0.01265739365024552,-0.004372221581288422
764.899999999633,0.026795566,-0.82151157,-0.0028278956,-2.328566,-0.011172232,1.5332863,0.763326,0.03999999,0.039999995,0.046717638468551925,-0.007322729962331437,-0.03430442196645789,-0.09091540606793981,-0.06816827809584339,-0.017186105793599436,0.9996351919660461,-0.023170221669457865,0.013120377655757095,-0.0045254282631183125
764.9166666662996,0.027721133,-0.8228005,-0.0029275562,-2.3276012,-0.011563775,1.5319768,0.7625379,0.039999995,0.039999995,0.04820394340687706,-0.00714405939438445,-0.03457022618749139,-0.09264883957882213,-0.0692317381879059,-0.01750051713689989,0.999609235741693,-0.02397282449796589,0.013592755666514694,-0.004681506049180495
764.9333333329663,0.028664775,-0.82411474,-0.0030291637,-2.3266184,-0.011962956,1.5306418,0.7617344,0.04,0.039999995,0.04573605447326656,-0.0069419669351516305,-0.03528948684012878,-0.09437913643190644,-0.0702954676122017,-0.017814209774708066,0.9995818772360389,-0.02479040888204836,0.014073961717053314,-0.0048404473268979665
764.949999999633,0.02962651,-0.82545424,-0.0031327186,-2.3256156,-0.012369776,1.529281,0.7609155,0.04,0.039999995,0.04910644009745724,-0.006754759624082868,-0.035085683380420285,-0.09610549719333344,-0.07136228540609951,-0.01812554923585597,0.9995530519237589,-0.025622963364305907,0.014564949147891299,-0.005002238963733866
764.9666666662996,0.030606328,-0.826819,-0.003238221,-2.3245952,-0.012784246,1.5278946,0.7600813,0.04,0.039999995,0.0449071547468094,-0.006513668376267184,-0.036186237450097636,-0.09782750855666508,-0.07242491708302705,-0.018435208188500786,0.9995227261168059,-0.026470391754899587,0.015064585772292185,-0.005166874478842057
764.9833333329663,0.031604227,-0.82820904,-0.0033456704,-2.3235552,-0.013206368,1.5264829,0.75923175,0.04,0.04,0.04806402222463646,-0.006307248103667312,-0.03564781101805803,-0.09954499757310264,-0.07349204522476989,-0.018742917910196076,0.9994908313023553,-0.027332642942159025,0.015574003775112035,-0.005334339578231813
764.9999999996329,0.032620206,-0.8296239,-0.0034550668,-2.3224967,-0.0136361215,1.525046,0.7583667,0.04,0.03999999,0.04573755160608428,-0.006102522712277819,-0.03604029050137125,-0.10125733463445713,-0.0745553145873077,-0.019048662707882427,0.9994573227678141,-0.02820976862086639,0.016092487323940887,-0.005504613690313788
765.0166666662996,0.03365426,-0.8310641,-0.0035664078,-2.3214192,-0.014073524,1.5235837,0.75748634,0.04,0.03999999,0.04652274137648682,-0.005840907684471,-0.036822353357046644,-0.10296337824150802,-0.07561741342930968,-0.019352274057615415,0.9994221437898693,-0.029101629489833747,0.016620394258499763,-0.005677689511608946
765.0333333329662,0.034706376,-0.83252937,-0.003679694,-2.3203228,-0.014518571,1.5220946,0.75659055,0.04,0.03999999,0.04588498327096069,-0.00556439286380217,-0.037863535866855536,-0.10466279163629144,-0.07667804159991902,-0.019653333596402593,0.9993852506286864,-0.030008228779910467,0.01715700880676061,-0.005853552778858635
765.0499999996329,0.035776503,-0.8340198,-0.0037949209,-2.3192077,-0.014971241,1.5205812,0.7556795,0.04,0.03999999,0.045796165805578326,-0.005349932661845649,-0.03674388079319968,-0.10635504983363342,-0.0777406506392059,-0.01995190632738657,0.9993465743262094,-0.03092941697594818,0.01770334418384308,-0.0060321764485460555
765.0666666662995,0.036864635,-0.8355354,-0.003912087,-2.3180737,-0.015431547,1.5190417,0.7547532,0.04,0.039999995,0.045383547376953715,-0.005034617242545905,-0.03850589265661508,-0.10803972540103798,-0.07879783699310552,-0.020247871594673582,0.9993060734814238,-0.031865137049414044,0.018258595553891286,-0.006213552314145985
765.0833333329662,0.037970748,-0.83707607,-0.0040311893,-2.316921,-0.015899459,1.517477,0.75381136,0.04,0.04,0.04537204091596969,-0.00481889709679946,-0.037920146421699386,-0.10971660413080787,-0.079855687025413,-0.02054166946005201,0.9992636791716598,-0.03281545500279113,0.018823268290983602,-0.0063976536420536165
765.0999999996328,0.039094802,-0.83864176,-0.004152223,-2.31575,-0.016374957,1.5158867,0.75285435,0.04,0.039999995,0.04408049815922688,-0.0045138696869753,-0.039001492346102395,-0.11138393392463578,-0.08090842639142179,-0.020832544608212693,0.999219351045817,-0.03378015545405526,0.019396766878027927,-0.006584453489504424
765.1166666662995,0.040236745,-0.84023243,-0.0042751837,-2.3145592,-0.016858032,1.5142709,0.75188214,0.04,0.04,0.04591722596427594,-0.004223902814702585,-0.03874730117958691,-0.1130419352724377,-0.08196208221303526,-0.021120940451972735,0.999173018467711,-0.03475915979723064,0.019979835632549063,-0.006773931237484484
765.1333333329661,0.04139656,-0.8418479,-0.0044000666,-2.313351,-0.017348679,1.5126303,0.7508946,0.04,0.04,0.04245820020525315,-0.003954827841103417,-0.039189491225966044,-0.1146904848454816,-0.08300885014598249,-0.021406172273218976,0.9991246357766748,-0.035752482412560765,0.020571728760802474,-0.006966072154262088
765.1499999996328,0.042574167,-0.84348834,-0.0045268666,-2.312123,-0.017846836,1.5109642,0.74989206,0.04,0.039999995,0.045331034366213885,-0.0036329005792177377,-0.03976850886500127,-0.11632789182492505,-0.08405638047118462,-0.02168639324145611,0.9990741389246078,-0.03675987672090956,0.021173072168919088,-0.007160824704372139
765.1666666662994,0.043769524,-0.8451535,-0.0046555772,-2.3108778,-0.018352507,1.5092732,0.74887437,0.04,0.04,0.04148009987492429,-0.0033250737246269535,-0.04005630685584016,-0.11795527865806366,-0.08509544939843318,-0.02196399410682584,0.9990214833641375,-0.03778134406108966,0.02178309012316631,-0.007358179295303043
765.1833333329661,0.044982564,-0.84684336,-0.004786194,-2.3096135,-0.018865656,1.5075572,0.74784166,0.04,0.039999995,0.04389578558319229,-0.0030074019553027326,-0.040125813039848524,-0.11957080705061231,-0.0861355234309625,-0.02223770885366793,0.9989665989278289,-0.038816733847690195,0.022402467470381198,-0.007558098385319063
765.1999999996327,0.04621324,-0.84855765,-0.004918708,-2.308331,-0.019386265,1.5058162,0.746794,0.04,0.04,0.04180610626081105,-0.0026930986244223104,-0.04058117139547068,-0.12117481503373347,-0.08716814222770802,-0.022507774799053186,0.9989094394193567,-0.03986594961755464,0.023030667364265244,-0.007760558018203903
765.2166666662994,0.047461472,-0.85029626,-0.005053113,-2.30703,-0.019914288,1.5040503,0.74573135,0.04,0.039999995,0.042172386390237904,-0.002358292619736302,-0.040881345288812376,-0.12276673387049991,-0.08819825312001718,-0.02277309454680166,0.9988499439546638,-0.04092889994831774,0.023667807981206827,-0.007965517946156807
765.233333332966,0.04872719,-0.85205954,-0.005189401,-2.3057108,-0.020449731,1.5022597,0.7446539,0.04,0.04,0.04162155350533325,-0.0019827440658596457,-0.0413499747770274,-0.12434585572524592,-0.08922477087432407,-0.023035677780586183,0.9987880515312284,-0.04200543907549463,0.024314067569428978,-0.008172963034091763
765.2499999996327,0.050010305,-0.8538471,-0.0053275637,-2.304373,-0.020992532,1.5004447,0.7435615,0.04,0.04,0.041709853853166834,-0.0016619889930073045,-0.041368591349710826,-0.1259117210935015,-0.09024470616159663,-0.023293354431128798,0.9987237008760157,-0.04309550495618619,0.024969474515036453,-0.008382845789410943
765.2666666662993,0.051310774,-0.8556587,-0.005467593,-2.3030179,-0.021542663,1.498605,0.7424542,0.04,0.04,0.0392190977070328,-0.0013263551728301404,-0.04200118531731967,-0.12746356485017596,-0.09125627762158205,-0.023546041738485044,0.9986568471909731,-0.044199060294468774,0.025633342309310338,-0.008595137562889201
765.283333332966,0.052628476,-0.8574944,-0.005609482,-2.3016446,-0.022100095,1.496741,0.74133223,0.04,0.04,0.040215640589247315,-0.0009259786876394949,-0.04207149541666233,-0.12899978538507897,-0.09226744924230029,-0.023794547266788875,0.9985874279766372,-0.04531581060334505,0.026306147716777868,-0.00880980071675538
765.2999999996326,0.053963333,-0.8593541,-0.0057532163,-2.3002524,-0.022664782,1.4948525,0.74019575,0.04,0.04,0.04091315836718401,-0.0005697182560340797,-0.04242246366392699,-0.1305221131624263,-0.09327162147271165,-0.02403785675401802,0.998515380189341,-0.04644563141407092,0.026988068468020477,-0.00902679390754774
765.3166666662993,0.055315256,-0.86123765,-0.0058987886,-2.2988434,-0.023236677,1.49294,0.7390449,0.04,0.04,0.037491271752720934,-0.00020126620875540735,-0.042963346702284966,-0.1320295858888295,-0.09426731215685931,-0.024277173047747277,0.9984406678712245,-0.047588352132621,0.027678359271471383,-0.009246075394670986
765.3333333329659,0.056684144,-0.8631447,-0.006046188,-2.297416,-0.023815751,1.4910034,0.7378796,0.04,0.04,0.03921112020397466,0.00017391918276168927,-0.04265802775116345,-0.1335223801373936,-0.0952595542057998,-0.024510841090204825,0.9983632140534543,-0.04874392129500184,0.028377584082586893,-0.009467612332520539
765.3499999996326,0.058069892,-0.8650754,-0.0061954036,-2.2959719,-0.024401972,1.489043,0.73669976,0.04,0.04,0.03630078801752923,0.000595450929394975,-0.043548923821479235,-0.1349987500451449,-0.09624325917296189,-0.02474008271853299,0.998282978164546,-0.049912246080604225,0.02908505618819055,-0.009691372691405784
765.3666666662992,0.05947241,-0.8670294,-0.0063464227,-2.29451,-0.024995293,1.4870591,0.73550564,0.04,0.04,0.037754526502720154,0.0009501017504368048,-0.04318193682568694,-0.1364584002524281,-0.09722362092816894,-0.024964011922102753,0.9981998883246885,-0.05109313268275792,0.02980137055660656,-0.009917310834564213
765.3833333329659,0.060891576,-0.8690065,-0.0064992374,-2.2930307,-0.025595637,1.4850514,0.7342975,0.04,0.039999995,0.03584923252133443,0.0013588011798237876,-0.04387737773214884,-0.13790124606698045,-0.09819466294186827,-0.02518111830052778,0.9981139126573312,-0.05228632796057453,0.030525871516715635,-0.010145365267826669
765.3999999996325,0.062327277,-0.8710067,-0.006653832,-2.2915342,-0.026202982,1.4830207,0.7330752,0.04,0.039999995,0.036280003619726386,0.0017651195401813258,-0.04369907907071369,-0.13932773205668536,-0.09916168387388172,-0.025394172113987562,0.9980249708301238,-0.05349180953589391,0.031259122296769186,-0.010375508919664067
765.4166666662992,0.063779406,-0.8730299,-0.0068101957,-2.2900205,-0.026817268,1.4809664,0.731839,0.04,0.039999995,0.03518603035694845,0.002187765621070731,-0.04440692860989692,-0.14073597397216264,-0.10011834171106689,-0.02560109377400017,0.9979330255863609,-0.054709324362516736,0.03200067571641516,-0.010607687096690311
765.4333333329658,0.06524783,-0.8750758,-0.006968315,-2.2884903,-0.027438464,1.4788891,0.7305889,0.04,0.04,0.03358780272351147,0.002631490866742553,-0.044605226752203464,-0.1421268625051172,-0.10106892528562644,-0.02580359531645758,0.9978380277223486,-0.055938758501411764,0.03275026165822691,-0.010841867450392784
765.4499999996325,0.06673242,-0.87714446,-0.0071281777,-2.286943,-0.028066495,1.4767888,0.729325,0.04,0.039999995,0.03442641806867819,0.003034955514640003,-0.044754927939050226,-0.1434998462900899,-0.10201522839784938,-0.02599853558125263,0.9977399088324429,-0.05717996688960491,0.03350826548514483,-0.011077989605937165
765.4666666662991,0.06823305,-0.8792354,-0.007289767,-2.2853787,-0.028701317,1.4746658,0.7280474,0.04,0.03999999,0.03338503026109052,0.0034595716314138325,-0.04467157343874817,-0.14485364401469636,-0.10295082489611938,-0.026188411296162038,0.997638619484938,-0.05843277286288943,0.03427453662490489,-0.011316011085574262
765.4833333329658,0.06974962,-0.8813482,-0.0074530714,-2.283798,-0.029342875,1.4725204,0.7267563,0.04,0.039999995,0.031898627002213686,0.0038424250282241557,-0.04471350446579869,-0.1461887012076539,-0.10387756587329525,-0.02637285346756392,0.9975341192594253,-0.05969696689664201,0.035048746713883396,-0.011555882071484426
765.4999999996325,0.07128197,-0.88348347,-0.0076180734,-2.2822003,-0.029991116,1.4703526,0.7254517,0.04,0.03999999,0.03297375215911558,0.004356711296552018,-0.04540956561271958,-0.1475043818217286,-0.10479922605807176,-0.026550220452440904,0.9974263322450843,-0.06097240296943904,0.03583148873691696,-0.01179755208283502
765.5166666662991,0.07282995,-0.8856404,-0.007784763,-2.280587,-0.030645968,1.4681628,0.72413385,0.04,0.039999995,0.02981913829138705,0.004770308945456492,-0.04534776530744633,-0.14880056368175065,-0.10570638532120946,-0.026721461352468247,0.9973152407702653,-0.06225888563958025,0.03662180817451886,-0.012040965588109494
765.5333333329658,0.07439344,-0.8878191,-0.007953121,-2.2789574,-0.031307373,1.4659506,0.7228028,0.04,0.039999995,0.03038184004537925,0.005228130617685595,-0.04589515315309711,-0.1500771383654923,-0.10660877717570649,-0.026886106314301758,0.9972007836706532,-0.06355623740749704,0.03741997127235554,-0.012286068663857466
765.5499999996324,0.075972274,-0.89001936,-0.008123132,-2.2773118,-0.031975288,1.463717,0.72145873,0.04,0.039999995,0.029621248701872105,0.005671436059571933,-0.04552770723140753,-0.15133372181429694,-0.10750311247167357,-0.02704412994299954,0.9970829043231253,-0.06486427182863047,0.03822612482876215,-0.012532818010286006
765.566666666299,0.077566326,-0.8922407,-0.008294781,-2.2756498,-0.032649633,1.461462,0.7201017,0.04,0.04,0.02967652185192904,0.006089597261505625,-0.04545489834748562,-0.1525696929194176,-0.10838662421005393,-0.027195476861047632,0.9969615481753951,-0.06618280948523986,0.03904035607698272,-0.012781149625223307
765.5833333329657,0.07917545,-0.89448303,-0.008468053,-2.2739725,-0.03333035,1.4591857,0.7187318,0.04,0.04,0.027177936913380663,0.006566126189866406,-0.04597475960852471,-0.15378499758994088,-0.10925799750205603,-0.027340270053367567,0.996836687755943,-0.0675117098233195,0.03986200741740751,-0.013031014739729691
765.5999999996324,0.080799446,-0.8967462,-0.008642928,-2.2722795,-0.034017365,1.4568884,0.71734923,0.04,0.04,0.02760782849571264,0.007051834382625771,-0.04594669104325266,-0.1549792217640492,-0.11012084079867504,-0.027477990243433482,0.9967082637994651,-0.06885073161275022,0.04069143393070698,-0.013282350503877433
765.616666666299,0.08243817,-0.8990299,-0.00881939,-2.2705712,-0.03471061,1.4545702,0.71595395,0.04,0.04,0.02607006936967693,0.00750731351392489,-0.04614222770151777,-0.1561521408811194,-0.1109725725033105,-0.027608296977772086,0.996576239947094,-0.07019975974769879,0.04152821564348319,-0.013535102871638527
765.6333333329657,0.08409148,-0.901334,-0.008997422,-2.2688477,-0.035410028,1.4522312,0.71454656,0.04,0.04,0.025650138091126706,0.007978668916090725,-0.04626878588305239,-0.15730273317098342,-0.11181571150518044,-0.027731918624851394,0.9964405830522709,-0.07155837281414372,0.0423724129427304,-0.013789211291918206
765.6499999996323,0.085759215,-0.9036582,-0.009177008,-2.267109,-0.036115557,1.4498719,0.7131267,0.04,0.039999995,0.0252014481499252,0.008422552038049591,-0.04612957665490747,-0.15843306616395253,-0.1126494144809537,-0.027848328090625384,0.9963012242067869,-0.07292662687183907,0.04322413915819593,-0.014044626416763212
765.666666666299,0.08744119,-0.90600234,-0.009358128,-2.2653553,-0.03682709,1.4474926,0.7116949,0.04,0.039999995,0.023863254159506297,0.008888705661894841,-0.04622149646786866,-0.15954042087299836,-0.11347084750931755,-0.027957507342373674,0.9961581412925843,-0.07430414974924592,0.04408315571182813,-0.0143012673925089
765.6833333329656,0.08913721,-0.9083662,-0.009540765,-2.2635872,-0.03754459,1.4450934,0.71025085,0.04,0.04,0.022935215151864696,0.009420923909773948,-0.04639629326030903,-0.16062633697175566,-0.11428071231692677,-0.02805960786962914,0.9960112839059895,-0.07569091559789842,0.04494930826292604,-0.01455909731332069
765.6999999996323,0.09084716,-0.91074955,-0.009724901,-2.2618046,-0.038267974,1.4426742,0.7087953,0.04,0.04,0.02225316829806978,0.009865379588909484,-0.046659371064450283,-0.16168905364797193,-0.11508052117666714,-0.02815400581326926,0.9958606374342744,-0.07708646051524341,0.045822419994021035,-0.014818037661036098
765.7166666662989,0.092570804,-0.913152,-0.009910516,-2.2600079,-0.038997136,1.4402357,0.7073281,0.04,0.039999995,0.0209690854712008,0.01030654416820237,-0.04614818884589589,-0.1627301897791136,-0.11586987395283269,-0.02824016692051176,0.9957061509451922,-0.07849073122798021,0.04670245569828446,-0.015078020856759121
765.7333333329656,0.09430802,-0.9155732,-0.010097591,-2.258197,-0.039732058,1.4377782,0.70584935,0.04,0.039999995,0.020323217212325773,0.010788576841010838,-0.046169929373673924,-0.16374859035018366,-0.11664903185258768,-0.02832076614661707,0.9955477879961526,-0.07990352199885736,0.04758932385153062,-0.015339010512403882
765.7499999996322,0.0960586,-0.9180131,-0.0102861,-2.2563722,-0.040472623,1.4353018,0.7043592,0.04,0.039999995,0.01989765666472465,0.011271628111144544,-0.046384365732943245,-0.16474413888544717,-0.11741717806906943,-0.02839213266467367,0.9953855054032856,-0.08132466127307328,0.048483050418631275,-0.01560092702277753
765.7666666662989,0.09782233,-0.92047143,-0.0104760295,-2.2545338,-0.041218758,1.432807,0.70285755,0.04,0.039999995,0.018636488271406293,0.011760884296684732,-0.046105441661703495,-0.1657161276737265,-0.11817302128627902,-0.028455870047874893,0.9952192638614649,-0.08275400478259919,0.04938354156502394,-0.01586371186012718
765.7833333329655,0.09959904,-0.9229479,-0.010667358,-2.2526815,-0.041970383,1.4302937,0.70134455,0.04,0.039999988,0.01828821458351726,0.012247945208231081,-0.04625248460612408,-0.166663815862875,-0.11891628036768467,-0.028511681607886967,0.9950490264616041,-0.0841913899142464,0.05029070412801375,-0.016127302329588047
765.7999999996322,0.101388566,-0.92544234,-0.010860065,-2.2508156,-0.04272743,1.4277623,0.6998211,0.04,0.039999995,0.01749715699488341,0.01271566061517293,-0.04625107631284209,-0.16758663239028174,-0.11964745590758852,-0.02856001001898538,0.9948747899700708,-0.08563621977780614,0.05120454152079686,-0.016391615900201474
765.8166666662988,0.10319069,-0.9279544,-0.011054132,-2.2489367,-0.043489806,1.4252127,0.69828695,0.04,0.04,0.01589237812109623,0.013215865191307241,-0.04626103234384171,-0.16848753547796508,-0.12036393749817409,-0.028600105602416652,0.9946965249475276,-0.08708850149461879,0.05212460029701174,-0.016656596549448285
765.8333333329655,0.105005205,-0.9304837,-0.011249535,-2.2470446,-0.04425743,1.4226456,0.69674206,0.04,0.03999999,0.015378238042185188,0.013682459563702648,-0.045980435573222955,-0.16936482865953856,-0.12106981058468044,-0.02863216646622868,0.9945141878988594,-0.08854809403790698,0.05305096495300678,-0.01692218152842835
765.8499999996321,0.106831916,-0.9330302,-0.011446251,-2.2451396,-0.045030195,1.4200615,0.695187,0.04,0.039999988,0.014727985455609272,0.014119594797294688,-0.045695149463687024,-0.17021757865073486,-0.12176250140055717,-0.028656082881793075,0.9943277539018657,-0.0900146017756603,0.05398381376048964,-0.017188284949719662
765.8666666662988,0.10867063,-0.93559325,-0.011644259,-2.243223,-0.045808073,1.4174603,0.6936216,0.04,0.03999999,0.011736331407918854,0.01461970860316894,-0.04563486141513362,-0.17104695088357366,-0.1224411487415058,-0.028672697295668757,0.9941372303457423,-0.0914879642896491,0.05492218895692802,-0.017454878710888664
765.8833333329654,0.11052116,-0.938173,-0.01184354,-2.241294,-0.04659092,1.4148425,0.6920462,0.04,0.03999999,0.012743928337410892,0.015072452273173081,-0.045713075750342114,-0.1718518213691283,-0.1231122564574133,-0.02867977404036849,0.9939425666318785,-0.09296786425492752,0.05586668367703047,-0.017721853967391146
765.8999999996321,0.112383276,-0.9407687,-0.012044068,-2.2393527,-0.04737867,1.4122081,0.6904609,0.04,0.03999999,0.01131763657471474,0.015550427131671984,-0.04529890383857538,-0.1726327658156971,-0.12376734158133285,-0.028679000915982113,0.9937437520633279,-0.09445415748224363,0.05681687616326528,-0.017989162083512606
765.9166666662987,0.11425675,-0.9433806,-0.012245828,-2.2373996,-0.04817124,1.4095577,0.6888659,0.04,0.039999984,0.010895785793607615,0.016069728169443298,-0.04530211866538014,-0.17338942045010272,-0.1244125221716453,-0.028669645804599603,0.9935407509062382,-0.09594657375529353,0.0577730307566838,-0.018256730005006237
765.9333333329654,0.11614143,-0.94600815,-0.01244879,-2.235435,-0.048968554,1.4068911,0.68726134,0.04,0.039999988,0.009153838868103392,0.016493206816673572,-0.045329624745393815,-0.1741213183861677,-0.12504171173222037,-0.02865217861489462,0.9933335701714588,-0.09744492831404963,0.058734549572289484,-0.018524497370603576
765.949999999632,0.11803706,-0.9486509,-0.012652932,-2.2334585,-0.049770482,1.404209,0.68564737,0.04,0.03999999,0.009367762415379843,0.0169351348591279,-0.04463721370349116,-0.1748285727430709,-0.125659997995529,-0.028627314340527017,0.9931221675267132,-0.09894899616919382,0.05970178455978844,-0.018792377298476815
765.9666666662987,0.1199434,-0.9513086,-0.012858234,-2.2314713,-0.05057696,1.4015119,0.6840244,0.04,0.03999999,0.0069586919818398485,0.017405234899791483,-0.044356747308582634,-0.17551065572610447,-0.12626320409317265,-0.028593681075311975,0.9929065617711561,-0.10045844224987849,0.0606742581653551,-0.01906030872239591
765.9833333329653,0.121860296,-0.9539812,-0.013064672,-2.2294729,-0.051387876,1.3987998,0.6823924,0.04,0.03999998,0.007263082141317767,0.017855824143733073,-0.04451077665655889,-0.17616939197972917,-0.12685348247539419,-0.028550934632381827,0.9926867117044249,-0.10197314422926036,0.06165217336259478,-0.019328212051894552
765.999999999632,0.12378748,-0.9566683,-0.01327222,-2.2274635,-0.052203164,1.3960731,0.6807517,0.04,0.03999998,0.006266767202367518,0.01833109381763065,-0.04402381499776231,-0.17680274603376223,-0.12743029149669705,-0.028500372238092563,0.9924626097419322,-0.10349283033586991,0.062635437117108,-0.019596028946006136
766.0166666662986,0.12572479,-0.9593693,-0.013480853,-2.2254436,-0.053022712,1.3933325,0.67910236,0.04,0.03999998,0.004776908081094433,0.01864347236597147,-0.043289133967350235,-0.17741184069538798,-0.12799025040141143,-0.028440460938216797,0.9922342499618723,-0.10501732362368436,0.06362380812245816,-0.01986368499336957
766.0333333329653,0.12767197,-0.96208423,-0.013690552,-2.2234132,-0.053846434,1.390578,0.6774446,0.04,0.039999988,0.004455985819129538,0.01919215506628949,-0.04344072606972116,-0.17799569802578885,-0.12853607878949505,-0.028374672242318676,0.9920016124329575,-0.10654639765677514,0.06461737023733889,-0.020131108771930816
766.049999999632,0.12962876,-0.96481264,-0.013901287,-2.2213733,-0.054674234,1.3878098,0.6757786,0.04,0.039999988,0.0020569366737888117,0.019641157492222838,-0.043183087036813284,-0.17855432048351674,-0.12906567222096685,-0.02830066315042331,0.9917647365940088,-0.10807977436944641,0.06561540672835908,-0.0203982357261062
766.0666666662986,0.13159494,-0.9675543,-0.014113039,-2.2193232,-0.055506013,1.3850282,0.67410463,0.04,0.03999998,0.0028439331381857613,0.020070219531326955,-0.04272250635481978,-0.17908895355262897,-0.12958339735563973,-0.028215340455549714,0.991523575115812,-0.1096172465593259,0.06661844766299731,-0.02066498674771537
766.0833333329653,0.13357036,-0.97030884,-0.014325779,-2.2172637,-0.056341704,1.3822337,0.6724229,0.04,0.039999984,0.0007098239692027164,0.020435826318927763,-0.042429941693922224,-0.17959838740164702,-0.1300847468886694,-0.02812364272594424,0.9912781522705779,-0.11115858662116715,0.06762598553382783,-0.02093130507139472
766.0999999996319,0.13555467,-0.97307587,-0.014539482,-2.2151945,-0.057181153,1.3794266,0.67073363,0.04,0.039999984,0.0008080514013908413,0.020896956441682907,-0.04190043121735654,-0.18008319389301175,-0.13057206272993882,-0.028022335131202586,0.9910284586374607,-0.11270348627914964,0.06863819357791175,-0.021197092572932306
766.1166666662986,0.13754773,-0.97585505,-0.014754125,-2.2131166,-0.058024287,1.3766066,0.6690369,0.03999999,0.039999984,-0.00189893942370567,0.021287097688497958,-0.04188746372797425,-0.18054387604876854,-0.13104330231237443,-0.02791396065711539,0.9907745346009446,-0.1142518407483333,0.06965420512870327,-0.021462296703475978
766.1333333329652,0.13954921,-0.97864604,-0.014969681,-2.211029,-0.058871012,1.3737748,0.66733295,0.039999984,0.039999977,-0.00022735751321611986,0.021732649333932458,-0.04097578575625871,-0.18097990845695208,-0.1315033932403589,-0.02779564178384218,0.9905163173099742,-0.11580336174335434,0.07067496551690554,-0.021726845164649275
766.1499999996319,0.14155897,-0.9814486,-0.015186129,-2.2089334,-0.059721243,1.3709315,0.66562176,0.03999998,0.039999977,-0.003396336928895849,0.022026052689362585,-0.04055465797890845,-0.18139093723081035,-0.1319439155600395,-0.02767072957370901,0.9902538413373391,-0.1173579693209849,0.07169969737100398,-0.02199068326372127
766.1666666662985,0.14357671,-0.98426247,-0.015403441,-2.2068293,-0.060574852,1.368077,0.663904,0.039999977,0.03999998,-0.003511482597096105,0.02248492249510292,-0.0402690466959843,-0.1817761495158276,-0.13237169474334767,-0.027537090562182447,0.9899871301767631,-0.11891516701454653,0.0727285192003987,-0.02225371054895185
766.1833333329652,0.1456022,-0.9870873,-0.015621593,-2.204717,-0.06143174,1.3652116,0.66217947,0.039999977,0.03999998,-0.00411063209551088,0.02286414621238131,-0.03985888331132781,-0.18213804054996846,-0.1327817451920304,-0.027394374762582573,0.9897161631653808,-0.12047494921166797,0.073761362325971,-0.02251587016884254
766.1999999996318,0.14763525,-0.98992264,-0.015840556,-2.202597,-0.062291835,1.3623351,0.66044855,0.039999973,0.03999998,-0.006108910429114545,0.02321390046810118,-0.039522311074946526,-0.18247455229059162,-0.13317541961737311,-0.0272439631893154,0.9894409997522406,-0.1220370223962201,0.0747975718722282,-0.022777102887982244
766.2166666662985,0.14967556,-0.99276805,-0.016060308,-2.200469,-0.06315499,1.3594488,0.6587115,0.039999973,0.039999984,-0.005903757241476626,0.023505240221666918,-0.03830886981007753,-0.18278676366394234,-0.13355625749241914,-0.02708513695846034,0.989161609189218,-0.12360111311926049,0.07583770727942253,-0.023037315305323665
766.2333333329651,0.15172294,-0.9956234,-0.016280815,-2.1983345,-0.064021155,1.3565526,0.6569684,0.039999966,0.039999988,-0.008354511037378387,0.023897608046166696,-0.038229250128829495,-0.18307444299360687,-0.13391984958900893,-0.026919803289920143,0.9888780419615082,-0.1251670741063509,0.07688105097271272,-0.023296473710843455
766.2499999996318,0.15377711,-0.9984888,-0.016502058,-2.1961923,-0.06489018,1.3536459,0.6552196,0.039999954,0.039999977,-0.007410938597995909,0.0244215241373337,-0.03880474443234139,-0.18333774705914313,-0.1342686904755878,-0.02674409525839136,0.9885903033904869,-0.1267345895450408,0.07792780664854076,-0.02355446467450747
766.2666666662984,0.15583785,-1.0013629,-0.016724005,-2.1940434,-0.06576199,1.3507309,0.6534652,0.03999995,0.03999998,-0.009420165015239235,0.0244041491981338,-0.03610311944052258,-0.18357701303475418,-0.13460242480245502,-0.02656180839225239,0.988298392206287,-0.12830353524948956,0.0789779397355835,-0.023811254483409535
766.2833333329651,0.1579049,-1.0042458,-0.016946629,-2.1918871,-0.06663648,1.3478067,0.6517055,0.039999943,0.03999998,-0.009043270800201952,0.02494346412061088,-0.03669229735817625,-0.18379149773518583,-0.1349178565944522,-0.026371802667012702,0.9880023386755015,-0.12987359839917742,0.08003135705591613,-0.024066763354827613
766.2999999996317,0.15997796,-1.0071372,-0.017169906,-2.1897244,-0.06751352,1.3448734,0.6499405,0.03999994,0.039999977,-0.010985905392191242,0.02529769693297504,-0.036407857547771094,-0.18398217510507614,-0.13521482666400114,-0.02617299216876244,0.9877021814979439,-0.13144465959318932,0.08108757595731401,-0.024320920089503612
766.3166666662984,0.16205688,-1.010037,-0.017393814,-2.1875563,-0.06839303,1.3419323,0.64817065,0.03999993,0.03999998,-0.012544531169833562,0.025458490271044326,-0.035254445863108774,-0.18414811043796134,-0.13549897237011305,-0.025968963941243477,0.987397945262808,-0.13301642578004805,0.0821465963141647,-0.024573662272512748
766.333333332965,0.16414131,-1.0129447,-0.01761832,-2.185383,-0.069274895,1.3389835,0.646396,0.03999992,0.039999977,-0.01383393936325028,0.025799614839930318,-0.03465694512791995,-0.18429045074411346,-0.13576536163001635,-0.025755127217049333,0.9870896623914688,-0.1345887474577029,0.08320811315039084,-0.024824934312393063
766.3499999996317,0.16623107,-1.0158604,-0.017843397,-2.183204,-0.07015897,1.336027,0.6446169,0.03999992,0.039999973,-0.012713947307751994,0.026161043883567853,-0.03482396288494449,-0.18440881475369608,-0.1360180248050741,-0.02553198516300932,0.9867773317638935,-0.13616129982125935,0.08427254032421393,-0.02507462652203714
766.3666666662983,0.16832586,-1.018782,-0.01806902,-2.181019,-0.07104522,1.333063,0.64283335,0.039999906,0.039999973,-0.015004005886920524,0.026224940540133662,-0.03249623262270296,-0.18450189728814353,-0.1362530261615004,-0.0253105422813966,0.9864610436259081,-0.137734009088633,0.08533880113702126,-0.025322740162796453
766.383333332965,0.17042542,-1.0217112,-0.01829516,-2.1788297,-0.071933486,1.3300927,0.6410459,0.039999906,0.039999977,-0.015314899308327412,0.026670466018980515,-0.03322225494536424,-0.1845724403998018,-0.1364751465366674,-0.0250732534695967,0.9861407723467505,-0.1393064605175938,0.08640778611568943,-0.025569154698577436
766.3999999996316,0.17252949,-1.0246457,-0.018521788,-2.1766355,-0.07282367,1.3271165,0.63925457,0.039999906,0.039999977,-0.016884571660424896,0.026580836443294148,-0.030526146700204926,-0.18461996930289348,-0.13667634148405597,-0.024829696335020204,0.9858165898680122,-0.14087860353817824,0.08747865650391279,-0.025813850205005935
766.4166666662983,0.17463787,-1.0275873,-0.01874888,-2.1744368,-0.07371567,1.324133,0.6374596,0.039999887,0.03999997,-0.016746295728120586,0.02736057633389924,-0.033246987861679234,-0.18464379248969406,-0.1368643892585273,-0.024579283410838162,0.9854885230346515,-0.142450150653723,0.08855152764707408,-0.026056716928314273
766.4333333329649,0.17675027,-1.0305345,-0.018976409,-2.1722333,-0.07460936,1.3211449,0.6356611,0.03999988,0.039999973,-0.016709015280591544,0.02715846021213511,-0.029919756713081558,-0.18464464624167962,-0.1370347129978698,-0.02432123877091162,0.9851565343177856,-0.1440209217751969,0.08962704704783458,-0.026297707494712223
766.4499999996316,0.17886646,-1.0334867,-0.019204346,-2.1700263,-0.07550467,1.3181503,0.6338595,0.03999987,0.039999966,-0.020183388981731554,0.0275362937723303,-0.030306362428922373,-0.18462174431286943,-0.1371816723965595,-0.02405632212289309,0.9848208206898513,-0.1455906886428168,0.09070337237763915,-0.026536781183884917
766.4666666662982,0.18098617,-1.0364435,-0.019432666,-2.1678157,-0.07640147,1.3151512,0.6320549,0.039999858,0.039999966,-0.019870520628106902,0.027510743427415496,-0.02827960327391743,-0.18457809402646247,-0.13731959538392582,-0.02377259665861603,0.9844813343370669,-0.14715926533632276,0.09178132941969494,-0.02677387789498463
766.4833333329649,0.18310909,-1.039405,-0.019661333,-2.1656015,-0.07729963,1.3121481,0.6302476,0.039999854,0.03999996,-0.01981133336181884,0.027803055991700715,-0.02816156510977441,-0.1845096546083116,-0.13744087078253167,-0.023493946495099477,0.9841380855119211,-0.14872640278511512,0.09286120999692411,-0.027008914036619175
766.4999999996315,0.18523496,-1.0423709,-0.019890329,-2.1633842,-0.078199066,1.3091407,0.62843764,0.039999843,0.03999995,-0.021205741575114345,0.028060147358627274,-0.02774241542721212,-0.18441753332881772,-0.13754416240867626,-0.023213148165848033,0.9837911502315395,-0.15029193604317534,0.09394247425275117,-0.02724184681275611
766.5166666662982,0.18736364,-1.0453414,-0.020119611,-2.161164,-0.07909965,1.3061295,0.62662506,0.039999835,0.039999943,-0.021547241569397357,0.02817726888958219,-0.02737385211804,-0.18430273154208388,-0.1376293732860289,-0.022925879703453514,0.9834405213077787,-0.15185581976306634,0.09502529441163908,-0.02747261319847132
766.5333333329648,0.18949474,-1.0483149,-0.020349164,-2.1589415,-0.08000127,1.3031144,0.6248106,0.03999983,0.03999994,-0.023592006864880943,0.028237694013873854,-0.02567440670064869,-0.18416458741726116,-0.13769368297817203,-0.022628302100792724,0.9830863677269702,-0.15341757712035697,0.09610872264704459,-0.027701156132283532
766.5499999996315,0.1916281,-1.0512917,-0.020578958,-2.1567163,-0.08090382,1.3000959,0.6229942,0.039999824,0.039999932,-0.02321569844645488,0.02841458738096561,-0.02544830168743628,-0.18400536194330042,-0.13774548946405044,-0.022323783998570393,0.9827286746729925,-0.15497713215346404,0.09719310848440312,-0.027927408545910085
766.5666666662981,0.19376336,-1.0542712,-0.020808963,-2.1544893,-0.08180719,1.2970755,0.6211762,0.039999813,0.039999925,-0.024202156675556807,0.028381606799924436,-0.02362133361800689,-0.18382322754648173,-0.13777967838213717,-0.022014573964369233,0.9823674711995298,-0.15653423189475024,0.09827862595996824,-0.028151331293245124
766.5833333329648,0.19590034,-1.0572526,-0.021039149,-2.1522603,-0.0827113,1.2940524,0.6193569,0.0399998,0.039999913,-0.02539329159545467,0.028514576706997058,-0.02313525028382335,-0.1836197367431699,-0.13779449105088787,-0.02169930574081065,0.9820028823648582,-0.1580886648863183,0.09936444309144651,-0.028372883369488733
766.5999999996315,0.19803871,-1.0602368,-0.02126949,-2.1500301,-0.08361601,1.2910264,0.61753625,0.039999794,0.03999991,-0.026186564360930475,0.02886915686806102,-0.023723627907645817,-0.18339486969008661,-0.13779543637129374,-0.021377742187051865,0.981634940381151,-0.159640309934618,0.10045055196965337,-0.028591989715049074
766.6166666662981,0.20017824,-1.0632225,-0.021499958,-2.1477985,-0.08452121,1.2879995,0.6157147,0.039999787,0.039999906,-0.025931837927384294,0.028591340682654343,-0.021025053733325638,-0.18314817949238954,-0.1377819318417418,-0.021050496221136306,0.9812636465362157,-0.16118889336312778,0.1015374850902256,-0.028808605734594102
766.6333333329648,0.20231868,-1.0662097,-0.021730525,-2.1455655,-0.08542678,1.2849717,0.61389244,0.03999978,0.039999902,-0.026263506434043293,0.028724198563869624,-0.020787299905999923,-0.1828802248872377,-0.13774755407751538,-0.020719254837355663,0.9808890477877907,-0.16273427909865398,0.10262511885767896,-0.02902266899597314
766.6499999996314,0.20445973,-1.0691977,-0.021961166,-2.1433318,-0.08633261,1.2819424,0.61206955,0.039999772,0.0399999,-0.02823605056367917,0.02885061025146851,-0.020174507589609814,-0.18259066716493375,-0.13769136334283044,-0.02038315698618895,0.9805112881028526,-0.16427627882864645,0.10371249997688795,-0.029234148963867675
766.666666666298,0.20660114,-1.0721862,-0.022191847,-2.141098,-0.08723862,1.2789123,0.61024636,0.03999976,0.03999989,-0.029281404838421565,0.028774685369892944,-0.01898131140265491,-0.1822802739669078,-0.13762243484575734,-0.020041925059133256,0.9801304225052998,-0.16581470050673866,0.10479956766285789,-0.029443005843853655
766.6833333329647,0.20874271,-1.0751749,-0.022422543,-2.138864,-0.08814467,1.2758822,0.60842305,0.039999753,0.03999989,-0.029064760831287728,0.028704968809543235,-0.017849100531897033,-0.18194880970997424,-0.13753846687616736,-0.01969547284958101,0.9797464698562129,-0.16734938956977594,0.10588655509643001,-0.029649183204985528
766.6999999996314,0.21088408,-1.0781636,-0.022653224,-2.13663,-0.08905066,1.2728522,0.6065999,0.039999746,0.039999884,-0.029659042211394038,0.02884769697619749,-0.01742609817745322,-0.1815963833047083,-0.13743628321990875,-0.01934398679821782,0.9793595137620311,-0.16888007637213395,0.10697328097645842,-0.029852634146280633
766.716666666298,0.21302503,-1.0811517,-0.022883864,-2.134396,-0.08995647,1.2698236,0.60477704,0.03999974,0.039999884,-0.02952678199981129,0.028616383502403503,-0.01563828158608338,-0.18122371903620077,-0.13731846974145306,-0.018988695727612262,0.9789695417700386,-0.17040668139360557,0.10806015454499375,-0.030053322989163064
766.7333333329647,0.21516532,-1.0841391,-0.02311443,-2.1321628,-0.09086199,1.2667959,0.60295486,0.039999727,0.039999887,-0.031043754506221433,0.028679020716606413,-0.015386644616621759,-0.1808298134265084,-0.13717863747631384,-0.018631136795396103,0.9785766963223916,-0.17192891184006115,0.10914652519500402,-0.030251193796319475
766.7499999996313,0.21730465,-1.0871251,-0.023344897,-2.1299314,-0.09176712,1.2637693,0.6011335,0.03999972,0.039999887,-0.03337571705208653,0.028502546610459367,-0.013956576559148726,-0.18041634704090204,-0.13701985097601901,-0.01826880051896225,0.978181116003043,-0.17344667034325326,0.11023150041097476,-0.030446233905451373
766.766666666298,0.21944277,-1.0901095,-0.023575233,-2.1277013,-0.09267172,1.2607447,0.59931314,0.039999712,0.03999988,-0.032013308788680916,0.028461511285521324,-0.013150075565360186,-0.17998329318184764,-0.13684940439005752,-0.01790042194391897,0.9777827669309566,-0.17495980250578083,0.11131584505661728,-0.03063838832758418
766.7833333329646,0.2215794,-1.093092,-0.023805417,-2.1254728,-0.093575716,1.2577219,0.597494,0.039999705,0.03999988,-0.03316535117536823,0.02846213127426292,-0.012513453901874527,-0.1795299531420762,-0.1366616079116875,-0.01753022618866533,0.9773817735316827,-0.17646808683982906,0.1123990242266378,-0.030827624755289235
766.7999999996313,0.22371437,-1.0960721,-0.024035411,-2.1232457,-0.094478965,1.2547019,0.59567624,0.039999697,0.03999988,-0.03273384827275905,0.0282068356552867,-0.011199647559156922,-0.17905693175789733,-0.13645942032449349,-0.017155574568311308,0.9769781366375145,-0.17797143782553632,0.11348138999673006,-0.031013899706602007
766.8166666662979,0.22584729,-1.0990499,-0.024265194,-2.1210206,-0.095381394,1.2516836,0.59386015,0.03999969,0.039999884,-0.03390061510790687,0.028462412787419455,-0.011513065557011704,-0.17856371445821667,-0.13623665916291297,-0.01677881344734504,0.9765720096864509,-0.17946957408207337,0.1145622878132972,-0.031197180750010288
766.8333333329646,0.22797798,-1.1020246,-0.024494734,-2.118798,-0.09628287,1.2486688,0.5920459,0.039999682,0.039999887,-0.0348289379852762,0.027881995962573264,-0.008924487681261084,-0.17805190260464465,-0.13599916710128127,-0.0163986772323165,0.9761634332070356,-0.18096242883117242,0.11564171635424962,-0.031377451451949874
766.8499999996312,0.23010613,-1.1049957,-0.024724009,-2.1165779,-0.09718326,1.2456578,0.5902339,0.039999675,0.039999884,-0.0344847185287378,0.02781343905873812,-0.008226934034016864,-0.17752052556279563,-0.13574541814762267,-0.016014492614765938,0.9757524714462017,-0.18244970447640638,0.11671985266759757,-0.03155464777739455
766.8666666662979,0.23223153,-1.1079626,-0.024952993,-2.1143608,-0.098082475,1.2426507,0.5884243,0.03999966,0.039999884,-0.036026268399691475,0.027500208658945424,-0.006726011804314425,-0.1769705883083467,-0.13547381008660472,-0.015629802181323788,0.9753392521539884,-0.18393133043624715,0.11779598408542005,-0.03172877282527833
766.8833333329645,0.23435389,-1.110925,-0.025181646,-2.1121469,-0.09898042,1.2396476,0.5866174,0.039999656,0.039999887,-0.03617340975159422,0.027412198961353218,-0.006168910739834388,-0.17640227653097088,-0.13518920545736063,-0.015240594193443521,0.9749238641410186,-0.1854070854481225,0.11886999138315425,-0.031899795337054296
766.8999999996312,0.23647293,-1.1138837,-0.025409944,-2.1099362,-0.09987696,1.2366495,0.5848132,0.03999965,0.039999884,-0.03544446000942614,0.027446143671052553,-0.006151464345505175,-0.17581628800938867,-0.13489005326849157,-0.014848437212403365,0.9745062502530328,-0.18687688042112577,0.11994275538994546,-0.032067666134433036
766.9166666662978,0.23858845,-1.1168368,-0.025637865,-2.1077292,-0.10077199,1.2336571,0.58301204,0.039999645,0.039999884,-0.036713073014471576,0.02668692480200449,-0.0029839014648147533,-0.17521142036014378,-0.13456896790200482,-0.014455487722084423,0.9740865780052513,-0.18834053329268904,0.12101345071688342,-0.032232387665782354
766.9333333329645,0.24070016,-1.119786,-0.025865374,-2.1055262,-0.101665415,1.2306694,0.58121413,0.039999634,0.039999884,-0.03679608631030895,0.027239618008159314,-0.005281005485713308,-0.17458815277345285,-0.13423004432963598,-0.014062094859330049,0.9736648968187623,-0.18979786206031884,0.12208225026052051,-0.03239389497372107
766.9499999996311,0.24280773,-1.1227286,-0.026092447,-2.1033275,-0.1025571,1.2276882,0.57941973,0.039999623,0.039999884,-0.03784711570542498,0.026119654715812263,-0.0005544231963527935,-0.17394734418801133,-0.13387408160824107,-0.01366829926417458,0.9732413401347881,-0.19124873334253575,0.12314856289696383,-0.03255222425472617
766.9666666662978,0.24491103,-1.1256648,-0.026319055,-2.101133,-0.10344695,1.2247121,0.57762897,0.039999615,0.039999884,-0.038274290180417836,0.026259544157957934,-0.0015368088808531688,-0.1732893319499883,-0.13350352101199067,-0.013271140990556207,0.9728160311530011,-0.19269305935767359,0.1242118550679191,-0.03270733048858787
766.9833333329644,0.24700971,-1.1285944,-0.02654517,-2.0989437,-0.104334876,1.2217433,0.57584214,0.039999608,0.03999988,-0.03840401893655532,0.0257184335102717,0.0007814410214912471,-0.17261366984737367,-0.1331207658187703,-0.012871773686140855,0.9723889805089162,-0.19413063487314286,0.12527265802414916,-0.03285922001730848
766.9999999996311,0.24910356,-1.1315175,-0.02677077,-2.0967593,-0.105220735,1.2187814,0.5740594,0.0399996,0.03999988,-0.03842236106077479,0.025682483504652423,0.0005275809262461628,-0.17192092959134958,-0.13272080208323433,-0.012472115004528647,0.9719602689355277,-0.1955613303898397,0.12633085208106398,-0.03300783966582883
767.0166666662977,0.2511923,-1.1344337,-0.026995827,-2.0945797,-0.10610444,1.2158265,0.572281,0.039999586,0.03999988,-0.03807705726481814,0.025423478408591327,0.0015008815698269729,-0.17121075832033794,-0.13230512316452703,-0.012072976812439393,0.9715299597256611,-0.19698498681004764,0.12738649401645474,-0.03315318188494319
767.0333333329644,0.25327575,-1.1373429,-0.027220305,-2.092406,-0.10698591,1.2128791,0.5705071,0.03999958,0.039999887,-0.03965885759873444,0.02502464479775708,0.0025421981962536755,-0.17048359871352287,-0.13187140210866424,-0.011673923411808368,0.9710981790661748,-0.19840151774383774,0.12843905390662927,-0.03329525195686255
767.049999999631,0.2553535,-1.1402444,-0.027444186,-2.0902383,-0.107865,1.2099398,0.568738,0.03999957,0.039999884,-0.03951896739371463,0.024591392009936167,0.004173698494513989,-0.1697402559735689,-0.13142057907056956,-0.01127304100886381,0.9706650041836015,-0.19981071187287272,0.12948858813135639,-0.03343403382562088
767.0666666662977,0.25742546,-1.1431382,-0.02766744,-2.0880766,-0.10874158,1.207009,0.566974,0.03999956,0.03999988,-0.03926746648481583,0.024347043530707768,0.00442272852461123,-0.16898078761990104,-0.13095538401275258,-0.010872733730087458,0.9702304957894559,-0.20121240505224094,0.13053521861218698,-0.03356947713486559
767.0833333329643,0.25949132,-1.1460232,-0.027890038,-2.085921,-0.10961562,1.2040861,0.56521505,0.03999955,0.03999988,-0.04027961344745812,0.023881191845864444,0.005946422441049926,-0.16820525658600713,-0.13047152059964487,-0.01047397844790221,0.969794813533897,-0.20260660044966008,0.1315780552043937,-0.033701639212588654
767.099999999631,0.2615508,-1.1488999,-0.028111953,-2.0837722,-0.11048694,1.2011722,0.56346154,0.039999537,0.03999988,-0.03996525611569268,0.02361437289694797,0.006441238130472371,-0.16741321136760037,-0.12997587846309605,-0.010074694866995096,0.9693579712712512,-0.20399306722476235,0.13261768973757232,-0.03383046594102223
767.1166666662976,0.26360372,-1.1517668,-0.028333163,-2.08163,-0.1113555,1.1982678,0.56171364,0.039999526,0.03999988,-0.04047942695959428,0.022867997898682463,0.008855488654868626,-0.16660550450647468,-0.12946321714314124,-0.009676632607494767,0.9689201155651719,-0.2053717319384815,0.13365347370111577,-0.03395600596930668
767.1333333329643,0.26564988,-1.1546242,-0.028553639,-2.0794945,-0.11222119,1.1953732,0.5599715,0.039999526,0.039999884,-0.03986761295133867,0.022675252559268416,0.008848868464672588,-0.16578269184744868,-0.1289353825905281,-0.009278705892711125,0.9684812573032191,-0.2067424927035189,0.13468582117112265,-0.03407822675215953
767.149999999631,0.26768896,-1.1574723,-0.028773347,-2.0773664,-0.11308384,1.192488,0.55823547,0.039999515,0.03999988,-0.04088288186068212,0.022382789020603325,0.009220684845256955,-0.16494388175554436,-0.12839134300757135,-0.008882061375353703,0.968041558169863,-0.2081051552476083,0.13571420168243706,-0.03419709749571284
767.1666666662976,0.2697206,-1.1603101,-0.028992275,-2.0752463,-0.11394335,1.1896136,0.5565057,0.039999507,0.039999876,-0.041331132263477954,0.02165208691981141,0.011525269675927152,-0.16409014098192704,-0.12783286673509822,-0.008486317410469,0.9676010890399396,-0.20945960385973678,0.1367386145387835,-0.034312652675926474
767.1833333329643,0.27174476,-1.1631374,-0.029210389,-2.0731342,-0.114799686,1.18675,0.5547824,0.039999492,0.039999884,-0.040998063460540024,0.021227380301797535,0.012279403742920803,-0.1632213337155755,-0.12726118783610788,-0.008094563144652317,0.9671599326456809,-0.2108057484844373,0.1377589457495056,-0.03442490314732865
767.1999999996309,0.27376106,-1.1659536,-0.029427664,-2.0710304,-0.11565274,1.1838975,0.5530656,0.03999948,0.039999884,-0.041606646135194936,0.020755169861237655,0.013407597134229565,-0.16233778595741175,-0.12667293568591834,-0.007703225661098781,0.966718205185865,-0.21214354441478958,0.13877477892156204,-0.03453388279098688
767.2166666662976,0.27576935,-1.1687586,-0.029644072,-2.068935,-0.11650236,1.1810561,0.5513557,0.039999478,0.039999887,-0.04129505292356228,0.020309449718817207,0.01398487923525149,-0.1614393307112937,-0.12607321391578127,-0.007312099091208613,0.9662759904512703,-0.21347279990971577,0.13978617905572938,-0.03463954562523011
767.2333333329642,0.27776927,-1.1715522,-0.029859588,-2.0668483,-0.117348455,1.1782264,0.54965305,0.039999474,0.039999887,-0.041637753408751976,0.01987027113937452,0.01498827226411592,-0.1605268143530852,-0.1254596052677103,-0.006922737726628284,0.9658334097603043,-0.2147933048318509,0.14079297064313065,-0.03474190852095269
767.2499999996309,0.27976072,-1.174334,-0.030074181,-2.0647705,-0.11819093,1.1754091,0.54795754,0.039999466,0.039999884,-0.04099072345113974,0.01925956202445428,0.01613731002715335,-0.15960152021017632,-0.1248333752194784,-0.006535716090578708,0.9653904449080217,-0.21610513281757737,0.1417955071267582,-0.034840990354102125
767.2666666662975,0.28174332,-1.1771038,-0.03028784,-2.0627017,-0.11902969,1.1726042,0.54626954,0.039999455,0.039999884,-0.04132580102123029,0.01885569388525625,0.01701359860215579,-0.15866060245775646,-0.1241897830096084,-0.0061528861065497376,0.9649472633903651,-0.2174080266747502,0.14279337748758053,-0.03493680235118736
767.2833333329642,0.28371704,-1.1798608,-0.030500531,-2.060642,-0.11986467,1.1698117,0.54458916,0.039999437,0.03999988,-0.04124862728183132,0.01827788125323561,0.017850653793816118,-0.1577067669985429,-0.12353310965570308,-0.005773168049605579,0.9645039457833593,-0.2187020074332358,0.14378635033788953,-0.03502935867973314
767.2999999996308,0.2856815,-1.182605,-0.030712234,-2.0585926,-0.12069577,1.1670325,0.5429165,0.039999425,0.039999884,-0.04227437410011525,0.017600323611471347,0.019466878401763754,-0.15673897977045745,-0.12286268077716084,-0.005396303235284311,0.9640606016677632,-0.2199870074025301,0.14477412930635142,-0.03511871822343792
767.3166666662975,0.28763646,-1.1853362,-0.030922916,-2.0565522,-0.121522844,1.1642667,0.54125196,0.039999425,0.039999884,-0.04023505099972624,0.017317143390000178,0.019468363470831473,-0.15575768888428507,-0.12218119531137145,-0.005019985287329179,0.9636172538676161,-0.22126273525017418,0.14575736890064736,-0.0352048213943273
767.3333333329641,0.28958184,-1.1880538,-0.031132558,-2.0545216,-0.12234581,1.1615145,0.53959566,0.039999418,0.039999887,-0.041101801952336814,0.016580284649124477,0.020836809942670342,-0.15476334224556706,-0.1214817748709148,-0.004649517652827742,0.9631740306520494,-0.22252923938025182,0.14673548267975248,-0.03528770920691184
767.3499999996308,0.29151723,-1.1907576,-0.03134114,-2.0525022,-0.12316455,1.1587765,0.53794783,0.039999407,0.039999884,-0.04252351495166451,0.01582798770587604,0.022419686831831598,-0.15375585858344193,-0.12076868954218287,-0.004282254947807429,0.9627310945610065,-0.2237863903028984,0.14770794287948108,-0.03536742414817964
767.3666666662974,0.2934425,-1.1934472,-0.031548627,-2.0504928,-0.12397904,1.1560527,0.53630865,0.0399994,0.039999884,-0.040677390022336724,0.015549390455394455,0.022547870378608614,-0.152736088682195,-0.1200458548180203,-0.003917776953860308,0.9622884686805966,-0.22503404704975274,0.14867516458108648,-0.03544398608437182
767.3833333329641,0.29535744,-1.1961228,-0.031754993,-2.0484946,-0.12478914,1.1533436,0.53467816,0.039999384,0.039999887,-0.04165421752961862,0.01484708535853356,0.023526614734770135,-0.15170334642022243,-0.1193104495450496,-0.0035586962805838618,0.9618462424614466,-0.22627224805812615,0.14963685619042896,-0.03551741672705096
767.3999999996307,0.29726171,-1.1987834,-0.031960227,-2.0465074,-0.12559475,1.1506493,0.53305674,0.039999373,0.039999887,-0.04117909968694988,0.014223825140661783,0.02478182048780697,-0.15065817681935897,-0.11856213886252184,-0.003202406631955243,0.9614045536499444,-0.22750075293805994,0.150592844662086,-0.03558773342526559
767.4166666662974,0.2991552,-1.2014294,-0.0321643,-2.0445316,-0.1263958,1.1479703,0.5314445,0.039999362,0.039999884,-0.04115834414006869,0.013731377864893701,0.02521572718108267,-0.14960139677735862,-0.1178006302478635,-0.0028501438086818293,0.9609634523970834,-0.2287195385754942,0.15154319307579145,-0.03565496407633526
767.433333332964,0.3010377,-1.2040596,-0.032367196,-2.0425668,-0.12719221,1.1453071,0.52984166,0.03999935,0.03999988,-0.04030190058559313,0.01293870012138397,0.026756659643162317,-0.14853249296715704,-0.11702678230724567,-0.0025023390048835997,0.9605230284506261,-0.2299284918904523,0.15248784730399806,-0.03571913853402161
767.4499999996307,0.30290908,-1.2066741,-0.032568883,-2.040614,-0.12798388,1.1426595,0.52824837,0.039999347,0.039999884,-0.04118575435096972,0.012286367181955568,0.02747879865525049,-0.14745271248499808,-0.11624054797918815,-0.0021591380497567453,0.9600834052301658,-0.23112763441138331,0.15342634201672387,-0.035780290502099285
767.4666666662973,0.30476907,-1.2092729,-0.03276935,-2.0386732,-0.1287707,1.1400285,0.5266649,0.039999336,0.039999884,-0.04071719899085835,0.011702087232742103,0.028263042807669114,-0.14636022191082138,-0.11544502311834487,-0.001820379647077222,0.9596446413410284,-0.23231679704291794,0.15435891757856013,-0.03583842520457211
767.483333332964,0.30661738,-1.2118556,-0.03296856,-2.0367444,-0.1295526,1.1374139,0.52509123,0.039999325,0.039999884,-0.04006535674387912,0.0112790186651196,0.028654384011211897,-0.14525669649919365,-0.11463624970726222,-0.0014870241985044663,0.9592068010254402,-0.2334959377735969,0.1552855721614881,-0.03589360650936978
767.4999999996306,0.30845374,-1.214422,-0.033166487,-2.0348272,-0.1303295,1.1348159,0.5235276,0.039999317,0.039999887,-0.03937765555188655,0.01067463329631757,0.029446031896407376,-0.14414155823712826,-0.11381532234207367,-0.0011594028961501857,0.9587699816946277,-0.23466488090395737,0.15620631105694943,-0.035945851743898034
767.5166666662973,0.3102781,-1.2169715,-0.03336313,-2.0329232,-0.13110127,1.1322349,0.5219743,0.039999314,0.03999989,-0.04086388092905402,0.009689027181142146,0.030966014510780404,-0.1430162725656538,-0.11297852152989057,-0.0008369149511775337,0.9583343517072643,-0.23582367014712982,0.1571203794135025,-0.03599518452671482
767.5333333329639,0.31209016,-1.2195038,-0.03355846,-2.0310316,-0.13186786,1.1296715,0.52043146,0.039999306,0.039999895,-0.03931366494587252,0.009163065157051647,0.03172688816870939,-0.1418802172588653,-0.11213488063785962,-0.0005195311898120863,0.9578999323398674,-0.2369721696736061,0.15802819072597157,-0.03604166143974721
767.5499999996306,0.3138898,-1.2220187,-0.033752438,-2.0291533,-0.13262922,1.1271251,0.51889926,0.039999295,0.03999989,-0.040309355591405804,0.00852798959048856,0.03222504204810628,-0.14073369514862977,-0.11127823620762584,-0.00020752286899408667,0.9574668962321938,-0.23811033204813187,0.15892910715859382,-0.03608533343603422
767.5666666662972,0.31567687,-1.224516,-0.033945043,-2.0272887,-0.13338517,1.1245971,0.51737773,0.03999929,0.039999895,-0.039716540065137806,0.007610472285474873,0.033596220606652016,-0.13957748182023705,-0.11041422997350367,9.986058215338822e-05,0.9570352453809803,-0.2392382215124439,0.15982336733737923,-0.036126219274524356
767.5833333329639,0.31745103,-1.2269955,-0.034136273,-2.025437,-0.13413568,1.122087,0.5158673,0.039999284,0.039999895,-0.038824378644797264,0.0072934022591217285,0.033691411157743545,-0.1384099143073613,-0.10954051783792329,0.00040194264391590906,0.9566051120995989,-0.2403555324735019,0.16071097702555726,-0.03616433848121954
767.5999999996305,0.31921223,-1.229457,-0.034326106,-2.0235994,-0.1348807,1.1195953,0.514368,0.03999927,0.039999895,-0.039095645512166044,0.00657982954082037,0.03448531444965042,-0.13723317547303449,-0.10865695528181846,0.000696744977844721,0.956176566281296,-0.24146232244502822,0.16159176652984356,-0.03619975032687445
767.6166666662972,0.32096022,-1.2318999,-0.034514524,-2.0217745,-0.13562012,1.1171228,0.5128795,0.039999258,0.0399999,-0.037198689334827506,0.005821328419645944,0.035609354308241414,-0.136046873688641,-0.10776359766989782,0.000985703655880188,0.9557495505198801,-0.24255872543099205,0.16246620027193268,-0.03623251533553875
767.6333333329638,0.32269463,-1.2343242,-0.03470149,-2.0199642,-0.13635388,1.1146691,0.51140255,0.039999254,0.0399999,-0.03899801188858021,0.00520870514800903,0.036196796470905346,-0.13484932369835417,-0.10685443440173734,0.001269102807510858,0.9553243668299648,-0.24364434753306838,0.16333341259111236,-0.036262685883064145
767.6499999996305,0.3244156,-1.2367295,-0.034887,-2.0181682,-0.13708188,1.1122344,0.50993735,0.03999924,0.039999895,-0.03832096865430401,0.004382940763762722,0.03702800173807086,-0.13364357586137998,-0.10593863469454667,0.0015460747494989296,0.9549010700029353,-0.2447192784408932,0.16419329769080196,-0.03629025020632135
767.6666666662971,0.3261228,-1.2391156,-0.035071027,-2.0163865,-0.13780403,1.1098192,0.5084838,0.03999923,0.039999895,-0.03752804780972063,0.003778368535514026,0.037670601741229826,-0.13242867071024303,-0.10501553846088235,0.0018175460731397336,0.9544796851517965,-0.24578347958350782,0.16504609040213838,-0.03631528382541011
767.6833333329638,0.32781607,-1.2414823,-0.035253547,-2.014619,-0.13852029,1.1074239,0.507042,0.039999228,0.039999902,-0.03689930710741862,0.0031287775279609242,0.03832068850679882,-0.13120486496266076,-0.10408356985915626,0.002082157130987111,0.9540602525779093,-0.24683696753052095,0.1658918531622604,-0.03633784481368462
767.6999999996304,0.3294952,-1.2438291,-0.035434548,-2.0128665,-0.13923058,1.1050484,0.50561255,0.03999922,0.039999902,-0.037175334720584985,0.002431747625876446,0.03909234526539018,-0.12997149064942157,-0.10314004427314288,0.002340387742046174,0.9536429942423665,-0.24787941014583414,0.16673013225242003,-0.03635795040011742
767.7166666662971,0.33115998,-1.2461562,-0.035614017,-2.011129,-0.13993487,1.1026933,0.5041952,0.039999213,0.0399999,-0.036635509856974835,0.0018065498487151999,0.03972445764013344,-0.12873131095848506,-0.10219006457602321,0.002592152690083352,0.9532278981944066,-0.24891094872836295,0.16756110170724497,-0.03637569108174622
767.7333333329638,0.33281028,-1.2484629,-0.035791922,-2.0094066,-0.14063299,1.1003586,0.50278986,0.0399992,0.0399999,-0.03659451095869848,0.0009019753570538303,0.0406836647718567,-0.12748273371013583,-0.10123064031484443,0.0028362741467735098,0.952815055327575,-0.24993172278064965,0.16838435443663682,-0.03639111800925779
767.7499999996304,0.334446,-1.2507492,-0.035968266,-2.0076995,-0.14132495,1.0980446,0.5013973,0.039999187,0.039999902,-0.03586452811572549,0.0004011120154648329,0.04105112790577792,-0.12622433958048196,-0.10026611587073612,0.0030750673780988863,0.9524045913261993,-0.25094134283667535,0.16920008572817155,-0.03640422867855974
767.766666666297,0.33606696,-1.2530154,-0.036143024,-2.0060074,-0.14201066,1.0957515,0.50001746,0.03999918,0.039999902,-0.0348976097363618,5.266761957806176e-06,0.04081420018453574,-0.12496003030473359,-0.09929157009443428,0.0033069801366106266,0.951996503690424,-0.2519398342470465,0.1700085895257099,-0.03641505688939385
767.7833333329637,0.33767298,-1.2552606,-0.036316175,-2.0043309,-0.14269003,1.0934798,0.49865016,0.039999176,0.03999991,-0.03494774147272395,-0.0010501771159562856,0.042465781622547105,-0.12368844848279371,-0.09830716113429115,0.0035304634130883944,0.9515908790642192,-0.25292734356473007,0.17080945847944257,-0.036423710039409196
767.7999999996304,0.3392638,-1.2574847,-0.036487687,-2.0026703,-0.14336298,1.0912293,0.49729574,0.039999172,0.03999991,-0.03504033320100852,-0.0017315836535011786,0.04297960216151364,-0.12240868729933431,-0.09731321956028,0.003747853887832636,0.9511878657210229,-0.25390371272285495,0.17160240920116315,-0.03643023369389726
767.816666666297,0.34083942,-1.2596872,-0.036657553,-2.0010254,-0.14402951,1.0890003,0.49595433,0.03999917,0.03999991,-0.03425425180423325,-0.002392086964334017,0.043607762217134916,-0.12112182413044267,-0.09631427462514654,0.003958835379291634,0.9507875294182706,-0.25486893609708305,0.1723873925445798,-0.036434684122730564
767.8333333329637,0.34239972,-1.2618682,-0.03682577,-1.9993967,-0.14468949,1.0867934,0.494626,0.03999916,0.039999913,-0.03380118860527581,-0.0030895941109873593,0.044110245729983566,-0.11982810973435094,-0.09530967281175821,0.0041622967421121315,0.9503898827495942,-0.2558230526635506,0.17316459030518944,-0.036437084921143885
767.8499999996303,0.34394434,-1.2640276,-0.0369923,-1.9977845,-0.14534289,1.0846083,0.4933109,0.039999146,0.039999913,-0.03403803978914155,-0.0037030717630531784,0.0446217808845184,-0.11852634960644873,-0.09429764220814316,0.004358107191801283,0.9499951055444485,-0.2567659039591969,0.1739335397695312,-0.03643753214543279
767.866666666297,0.3454733,-1.2661651,-0.037157144,-1.9961885,-0.14598964,1.0824454,0.4920092,0.03999914,0.039999913,-0.03287303395813623,-0.004275089625230266,0.04485769600415801,-0.11721927053672677,-0.0932807312426327,0.004548456811794152,0.9496031979467049,-0.25769749349624343,0.1746945427573606,-0.03643604020666474
767.8833333329636,0.34698638,-1.2682807,-0.037320293,-1.994609,-0.1466297,1.0803047,0.49072084,0.03999913,0.03999992,-0.03258518991073878,-0.0048823565459918394,0.04529336171721354,-0.11590510672225249,-0.09225701123174813,0.004730292396077265,0.9492142286590297,-0.25861784082970035,0.17544748586400333,-0.03643268065662159
767.8999999996303,0.34848344,-1.2703741,-0.037481725,-1.993046,-0.14726302,1.0781868,0.4894461,0.039999124,0.039999917,-0.032070045057563945,-0.005632304864662541,0.046062230718529884,-0.11458509004893944,-0.09122663651037441,0.00490589836361123,0.9488282908246979,-0.2595268333621891,0.17619232065826884,-0.03642750934020991
767.9166666662969,0.34996465,-1.2724451,-0.037641417,-1.9915003,-0.14788951,1.0760914,0.48818517,0.039999116,0.039999913,-0.03225392823584805,-0.006404651046934551,0.04650815185779367,-0.11325957037323665,-0.09018952529486622,0.00507468902576888,0.9484454577326378,-0.26042459132402723,0.17692876980220973,-0.036420548544978955
767.9333333329636,0.35142952,-1.2744935,-0.037799362,-1.9899709,-0.14850911,1.0740188,0.48693794,0.0399991,0.039999913,-0.03083358374222911,-0.006796288332461264,0.04661331149119485,-0.11192718039831343,-0.08914932524124652,0.00523535195591425,0.9480657766116244,-0.26131097593747643,0.1776570638633682,-0.036411876247294465
767.9499999996302,0.3528781,-1.2765188,-0.03795554,-1.9884591,-0.14912185,1.0719697,0.48570475,0.0399991,0.03999992,-0.03128103440435126,-0.007850031567367688,0.048171760249388074,-0.11058974483803852,-0.08810195708182854,0.005389311439893449,0.9476893635329824,-0.26218597889316747,0.17837686809528458,-0.03640158852027966
767.9666666662969,0.3543101,-1.2785214,-0.03810995,-1.9869643,-0.14972757,1.0699438,0.48448554,0.039999094,0.03999992,-0.030286471356033573,-0.008087807022617854,0.04742792247416361,-0.10924720245699986,-0.0870505018519131,0.005536575872670715,0.9473162503688338,-0.2630495628816409,0.17908835870641265,-0.03638968302629079
767.9833333329635,0.3557255,-1.2805007,-0.038262583,-1.9854865,-0.15032633,1.0679413,0.48328045,0.039999094,0.03999992,-0.029515616186337468,-0.008805928795989348,0.04834332054730606,-0.10790039314042305,-0.08599413318668214,0.005677315704851638,0.9469465049848887,-0.2639016974423849,0.17979148693620195,-0.036376256118539056
767.9999999996302,0.35712427,-1.2824568,-0.0384134,-1.9840268,-0.15091798,1.0659626,0.48208958,0.03999909,0.03999993,-0.030232672631358426,-0.009684583060111385,0.04894558020280271,-0.10654846726829861,-0.08493249628025419,0.005809391913482703,0.9465802120897483,-0.2647424961839724,0.18048591391723476,-0.03636134859802527
768.0166666662968,0.35850626,-1.2843896,-0.03856241,-1.9825835,-0.15150255,1.0640075,0.48091298,0.03999908,0.039999932,-0.02766936126179509,-0.009688201287054443,0.048118570219807255,-0.10519112006298931,-0.08386838597794921,0.005934541247482217,0.9462173227306235,-0.265571799775586,0.18117240270871965,-0.036344983494242415
768.0333333329635,0.35987136,-1.2862985,-0.03870961,-1.9811586,-0.15207991,1.0620764,0.47975084,0.03999907,0.039999932,-0.029462389350598528,-0.011097097451576166,0.05030232048122696,-0.10382996196011596,-0.0827953678865017,0.006051939266548401,0.9458580767005972,-0.2663897167196022,0.18184979592112654,-0.03632725271393402
768.0499999996301,0.36121938,-1.2881839,-0.03885497,-1.9797521,-0.1526501,1.0601695,0.47860315,0.03999906,0.039999932,-0.028730521220499128,-0.01133003575929381,0.04983475563098971,-0.10246439832327328,-0.0817221501428322,0.00616275137852873,0.9455024845728516,-0.26719618301925263,0.18251839093494998,-0.0363082417231065
768.0666666662968,0.36255038,-1.2900451,-0.038998492,-1.9783622,-0.1532131,1.0582868,0.47747004,0.039999053,0.039999936,-0.026173352052083487,-0.011727930212267201,0.04982894433879226,-0.10109520853375767,-0.08064725980591729,0.006267439378396328,0.9451504961399336,-0.2679911529983847,0.18317878113251856,-0.036287955354888116
768.0833333329634,0.36386412,-1.2918826,-0.039140157,-1.976991,-0.1537688,1.0564286,0.47635168,0.03999905,0.039999936,-0.027916043870934715,-0.012586254405799746,0.050581388568066155,-0.09972242647412617,-0.0795646295786439,0.006364571421424131,0.9448022938896927,-0.2687746242729553,0.18383027497467977,-0.03626646950614525
768.0999999996301,0.36516052,-1.2936957,-0.039279956,-1.9756376,-0.15431717,1.0545945,0.47524798,0.039999034,0.03999994,-0.026348696672906513,-0.013027356989533945,0.050653399480499184,-0.09834640810368349,-0.07848056318724982,0.0064534354469347605,0.9444579078125852,-0.2695466203985915,0.18447293438175166,-0.03624384475407965
768.1166666662967,0.36643964,-1.2954844,-0.03941788,-1.9743023,-0.15485819,1.0527853,0.47415912,0.039999034,0.039999943,-0.02616328526028333,-0.013742793589609226,0.05124090870936571,-0.096967943114364,-0.07739528108085154,0.0065376203484352885,0.9441173622915101,-0.27030717698053003,0.1851068310896574,-0.036220123915898836
768.1333333329634,0.3677012,-1.2972492,-0.039553937,-1.9729854,-0.15539181,1.051001,0.47308505,0.03999903,0.039999943,-0.025637349793106168,-0.014029156524686393,0.05095149704653079,-0.09558625369328334,-0.07630624797449574,0.006614975659782987,0.9437806848163482,-0.27105624114401916,0.18573214150185663,-0.03619536873129508
768.14999999963,0.36894524,-1.2989892,-0.0396881,-1.9716868,-0.15591802,1.0492412,0.47202593,0.039999023,0.03999994,-0.02545188292963907,-0.014846392799663932,0.05176159939835612,-0.09420204413256597,-0.07521274799819973,0.006684107767779834,0.9434480236016385,-0.2717938501916483,0.1863482941633381,-0.03616964227879566
768.1666666662967,0.37017173,-1.3007048,-0.039820362,-1.9704065,-0.15643677,1.0475062,0.4709817,0.03999902,0.03999994,-0.024560999077749557,-0.015088106956054337,0.05125420637903111,-0.09281572180801026,-0.07412069071511124,0.006747889735207985,0.9431193293821397,-0.27252005550424224,0.1869557030446531,-0.036142979855393595
768.1833333329633,0.37138045,-1.3023957,-0.039950725,-1.9691447,-0.156948,1.0457963,0.46995267,0.03999902,0.03999994,-0.024268073808109136,-0.015854167505637007,0.05208535763689959,-0.09142678770647386,-0.0730245188772075,0.006804869199696674,0.9427947382933274,-0.273234697518683,0.1875541457794861,-0.03611542494859265
768.19999999963,0.3725715,-1.304062,-0.04007917,-1.9679012,-0.15745178,1.0441116,0.4689387,0.03999901,0.039999943,-0.023423389207044565,-0.016152675536143524,0.05187995812594992,-0.09003642884568598,-0.07192949843510535,0.006854089441434175,0.942474197608932,-0.2739379053383571,0.1881439200943997,-0.03608706404995043
768.2166666662966,0.37374467,-1.3057032,-0.0402057,-1.9666765,-0.15794805,1.042452,0.46793982,0.039999,0.039999947,-0.023563775302593015,-0.016906928722126846,0.052664484499415076,-0.08864436942719513,-0.07082991675816876,0.006896250728945813,0.9421578637307643,-0.27462968735386717,0.1887244471679796,-0.03605797658411072
768.2333333329633,0.37489998,-1.3073196,-0.040330306,-1.9654704,-0.15843675,1.0408176,0.46695614,0.039998993,0.039999947,-0.022839996979318045,-0.017195655634930085,0.05221650252285048,-0.0872513394820237,-0.06973144567294158,0.0069335310718863785,0.941845711903584,-0.2753100390966533,0.18929608748984364,-0.03602816401744166
768.24999999963,0.37603742,-1.3089107,-0.04045298,-1.9642829,-0.15891783,1.0392085,0.46598777,0.039998986,0.03999995,-0.02216249577058349,-0.017906939923086063,0.0529000382667566,-0.085857250504158,-0.0686325133652758,0.006963991794032613,0.9415378271907134,-0.2759789709061956,0.1898586173732071,-0.035997680420848804
768.2666666662966,0.3771569,-1.3104769,-0.040573724,-1.963114,-0.15939139,1.0376245,0.46503463,0.03999898,0.03999995,-0.0220013661797136,-0.01802352407722918,0.05235989991960732,-0.08446273666750528,-0.06753392960636188,0.006988517384351099,0.941234244063374,-0.27663650517790833,0.19041204030055336,-0.035966605538785085
768.2833333329633,0.37825838,-1.3120174,-0.040692534,-1.9619641,-0.15985729,1.0360664,0.46409678,0.03999898,0.03999995,-0.021345240049486236,-0.019076645428066363,0.05384678854068459,-0.08306826683542476,-0.06643556891174027,0.007007845621328945,0.9409349855418407,-0.27728269906369907,0.19095636549726325,-0.03593500047866791
768.2999999996299,0.379342,-1.313534,-0.0408094,-1.960833,-0.16031559,1.0345333,0.46317434,0.039998975,0.03999995,-0.020952943971064286,-0.018418524926983038,0.051124612412323245,-0.0816731818022205,-0.06533740295232816,0.007021051009595242,0.9406400227061323,-0.27791751567842665,0.19149201097565005,-0.03590281179851906
768.3166666662966,0.3804075,-1.3150251,-0.040924326,-1.9597205,-0.16076623,1.0330267,0.46226725,0.039998967,0.039999954,-0.01973518219124948,-0.019807847099265197,0.05383738347783107,-0.0802778853484234,-0.06423777429850709,0.0070261957397641794,0.9403493690118923,-0.2785409881660872,0.19201903945011156,-0.03587019095366428
768.3333333329632,0.38145497,-1.31649,-0.041037295,-1.9586269,-0.16120921,1.0315454,0.46137553,0.03999896,0.039999954,-0.02022130948606815,-0.02030675081058364,0.053892545331465924,-0.07888274263719199,-0.0631344656189676,0.007024973463170617,0.9400632349580216,-0.2791532163927611,0.19253646775133754,-0.03583719637016931
768.3499999996299,0.3824842,-1.3179302,-0.041148316,-1.9575521,-0.16164455,1.0300893,0.46049923,0.039998956,0.039999954,-0.019646133205863947,-0.019970655659273806,0.052223580407528836,-0.07748864790931137,-0.06203664321409154,0.007019918018196111,0.9397815814035594,-0.27975406825337923,0.1930448814524899,-0.03580383073503279
768.3666666662965,0.3834953,-1.3193452,-0.041257385,-1.9564962,-0.16207223,1.0286587,0.4596384,0.039998952,0.039999954,-0.019094974851707747,-0.02065586451645285,0.05297698417754959,-0.07609640090907664,-0.06093989985317419,0.0070091921518759745,0.9395044168369482,-0.2803436362315415,0.19354429164873688,-0.035770148707150534
768.3833333329632,0.3844883,-1.3207349,-0.0413645,-1.9554594,-0.16249226,1.0272541,0.458793,0.03999895,0.039999954,-0.01852887408064774,-0.021161641201736248,0.053372288768585574,-0.07470576291883407,-0.05984415658648082,0.006992412356972899,0.9392317598040965,-0.28092197689407444,0.19403470602267645,-0.035736215970899925
768.3999999996298,0.3854632,-1.3220991,-0.041469656,-1.9544414,-0.16290456,1.0258749,0.45796305,0.039998952,0.039999958,-0.018357493262710634,-0.021491314385588267,0.05306624042319408,-0.07331680270572465,-0.058749424616704155,0.006970589965937961,0.9389636698130324,-0.2814891769327357,0.1945158964927543,-0.03570204549593776
768.4166666662965,0.38641995,-1.3234376,-0.041572858,-1.9534423,-0.16330922,1.0245215,0.4571485,0.03999895,0.039999958,-0.017539008367251085,-0.021972900958933117,0.05365861821521323,-0.07192949709934333,-0.057659679481953593,0.006943786768330476,0.9387001568452622,-0.2820452328893451,0.1949879856781188,-0.0356677387041116
768.4333333329631,0.3873585,-1.324751,-0.041674133,-1.9524624,-0.1637062,1.0231937,0.45634943,0.039998945,0.039999958,-0.0175751338402641,-0.022005822715778778,0.05287986038429171,-0.07054434729873599,-0.056571022388636066,0.0069120793540413256,0.9384412573407945,-0.2825901047798095,0.19545103719024126,-0.035633288683811534
768.4499999996298,0.38827896,-1.3260388,-0.041773424,-1.9515013,-0.16409548,1.0218917,0.4555658,0.03999894,0.03999996,-0.016591019162515153,-0.022613055604475685,0.05329576585577922,-0.0691624274051058,-0.05548571969144327,0.006874876127497653,0.938186958126303,-0.2831239423534695,0.19590506195759608,-0.03559875794651418
768.4666666662964,0.38918126,-1.3273017,-0.041870754,-1.9505589,-0.16447717,1.0206153,0.45479763,0.03999893,0.039999966,-0.01630027029952963,-0.022453613789299998,0.05243931709904004,-0.06778308388365237,-0.054403872087414124,0.006832397697146331,0.9379372723479028,-0.2836466508564238,0.19635029448893748,-0.035564201841428805
768.4833333329631,0.3900656,-1.3285394,-0.041966144,-1.9496354,-0.16485116,1.0193645,0.45404485,0.039998926,0.039999966,-0.016006885385166925,-0.023028160703844613,0.052784296009478204,-0.06640777866695353,-0.053322611874191406,0.006785214240846556,0.9376922171308153,-0.28415844527994005,0.19678651158072424,-0.03552960411083328
768.4999999996297,0.39093173,-1.3297516,-0.042059593,-1.9487308,-0.16521753,1.0181394,0.45330742,0.039998922,0.039999966,-0.015608363375774204,-0.02335015862517109,0.05307667800556748,-0.06503553810431088,-0.05224409071386011,0.006733436436839477,0.9374518516764836,-0.2846592277572567,0.19721371289788447,-0.03549508819548509
768.5166666662964,0.39177993,-1.3309387,-0.042151086,-1.9478451,-0.16557626,1.0169398,0.45258543,0.03999891,0.039999966,-0.01519137836965001,-0.023545632010774087,0.05257692260775271,-0.063667571260723,-0.051170234822376474,0.006677014640211969,0.9372161534311845,-0.28514913615411497,0.1976319702966927,-0.035460629081613536
768.533333332963,0.39261007,-1.3321005,-0.042240642,-1.9469781,-0.1659274,1.0157654,0.45187852,0.039998908,0.039999966,-0.01482200014963908,-0.02373433711261863,0.05246988614416026,-0.06230410415756736,-0.05010031170107215,0.0066167559409929105,0.936985143090004,-0.28562828173077376,0.19804116262906926,-0.035426320845623374
768.5499999996297,0.39342234,-1.3332373,-0.04232826,-1.9461299,-0.16627091,1.0146165,0.45118704,0.039998904,0.039999966,-0.014488010881796853,-0.02399606426032319,0.05231114466070219,-0.060944730684489246,-0.04903514217044112,0.006553177138009583,0.9367588424272615,-0.2860966091195362,0.19844142177196944,-0.03539213909556279
