rsonawane2002/My_IMU/logs_2/traj_494/clean_494.csv
time,j1,j2,j3,j4,j5,j6,j7,gripper1,gripper2,imu_ax,imu_ay,imu_az,imu_gx,imu_gy,imu_gz,quat_x,quat_y,quat_z,quat_w
2686.1833333399254,0.00016700293,-0.785875,4.0107683e-05,-2.3551247,9.29385e-05,1.570997,0.786,0.04,0.04,0.0,-0.0,0.0,2.875329272945135e-08,-0.0011641195053377316,4.421952117202833e-08,0.9999995971961153,0.00020320632366974898,0.0008736418299892524,3.263050917662294e-05
2686.2000000065923,0.00016701236,-0.78576016,4.0118142e-05,-2.3552213,9.297562e-05,1.5709941,0.786,0.04,0.04,-0.2919984602391956,-4.794015552834433e-05,0.020128405152641804,-5.049359019957462e-07,-0.0022376291108310424,3.211874189567872e-08,0.9999996850597151,0.0002032026543448607,0.0007665025187841571,3.260430269129078e-05
2686.216666673259,0.00016706757,-0.7856542,4.015249e-05,-2.35531,9.302097e-05,1.5709913,0.786,0.04,0.04,0.023196973454298053,-8.519700488260513e-05,-0.0016027382944816537,-4.331612946029585e-06,-0.003223300160296803,-2.8886087760888303e-07,0.9999997558940875,0.00020316726195261764,0.0006677376493679904,3.257699481004695e-05
2686.233333339926,0.00016724585,-0.7855566,4.0251234e-05,-2.355391,9.309335e-05,1.5709884,0.786,0.04,0.04,0.02226310998474368,-0.0002325572051897404,-0.0014234777476751503,-1.4473588631845774e-05,-0.004125266623942782,-1.198289021004883e-06,0.9999998123978638,0.00020304718691387217,0.0005769895965442235,3.254354939808333e-05
2686.250000006593,0.00016765945,-0.7854666,4.0472594e-05,-2.3554652,9.3220864e-05,1.5709856,0.786,0.04,0.04,0.02012367476116328,-0.0004464059856919744,-0.001256272666494418,-3.365408840706115e-05,-0.004943940000889809,-2.9569026620288602e-06,0.9999998571520016,0.0002027657381865769,0.0004934835017260529,3.249715938449531e-05
2686.26666667326,0.00016845186,-0.7853832,4.0890827e-05,-2.3555326,9.343867e-05,1.5709827,0.786,0.04,0.04,0.01866320126462373,-0.0007190387285355875,-0.0008108776600179723,-6.404821311059656e-05,-0.005683462616447091,-5.792621774982761e-06,0.9999998922392175,0.00020222494005117892,0.0004166233196574434,3.242894553298215e-05
2686.2833333399267,0.00016979466,-0.78530633,4.1594587e-05,-2.3555977,9.378663e-05,1.5709826,0.786,0.04,0.04,0.012106628187558144,-0.0010429606300648092,-0.0006109895151817923,-0.00010840217049877278,-0.0063459484190333286,-9.904611236806678e-06,0.9999999195041561,0.0002013078259120754,0.0003455745864707885,3.2327169479404656e-05
2686.3000000065936,0.0001718845,-0.78523445,4.26852e-05,-2.3556561,9.432044e-05,1.5709827,0.786,0.04,0.039999995,0.016957959663099764,-0.0014220398278083808,0.00029512456638514095,-0.00016813698349386552,-0.006937759692387948,-1.4708913222297695e-05,0.9999999401697862,0.00019988008044264166,0.00028048631243598955,3.2183939943612906e-05
2686.3166666732604,0.00017494064,-0.78516746,4.4275785e-05,-2.355713,9.5069954e-05,1.5709832,0.786,0.04,0.04,0.00835417971860597,-0.0018196279582916443,-0.0017830481705116696,-0.0002452778691253067,-0.007452233101586434,-2.3530819999971143e-05,0.9999999559791928,0.00019779224252169402,0.00021885510754763814,3.197316367189963e-05
2686.3333333399273,0.0001792021,-0.78510463,4.648937e-05,-2.3557637,9.610501e-05,1.5709838,0.786,0.04,0.04,0.014780860178409405,-0.0022819478161421416,0.00037028938375538445,-0.0003413882438209674,-0.007911114806983845,-3.2442836381859514e-05,0.9999999673298906,0.00019488116056012153,0.0001623498992091424,3.168692604393116e-05
2686.350000006594,0.0001849256,-0.7850452,4.9458165e-05,-2.3558135,9.74861e-05,1.5709846,0.786,0.04,0.04,0.00545309157249374,-0.0027663278325705293,-0.0013401533736745463,-0.00045757247857592027,-0.008296570525894803,-4.323970570661387e-05,0.9999999754277085,0.00019097192240575747,0.00010813946737350104,3.1307553905563964e-05
2686.366666673261,0.00019238328,-0.7849885,5.3322117e-05,-2.35586,9.9293015e-05,1.5709854,0.786,0.04,0.039999995,0.00870420459908594,-0.0032923837291136838,-7.584869472498923e-05,-0.0005953244737208723,-0.008631697604237359,-5.4455061948851044e-05,0.9999999806266808,0.00018587888972459944,5.6968867167855075e-05,3.082571261286374e-05
2686.383333339928,0.00020186142,-0.7849341,5.822853e-05,-2.3559034,0.000101568825,1.5709864,0.786,0.04,0.04,0.00780938551845356,-0.0038150046932663626,0.0001787184000789921,-0.000755433610649438,-0.008905733004829565,-7.016679199258464e-05,0.9999999834137789,0.00017940686629635384,8.540081078439032e-06,3.0210680761204112e-05
2686.400000006595,0.00021365767,-0.78488135,6.4330525e-05,-2.3559463,0.00010439391,1.5709873,0.786,0.039999995,0.039999995,0.0026560220822702263,-0.004384401222090432,-0.0007470616933069607,-0.0009393761201994236,-0.009121267185911624,-8.724144641256517e-05,0.9999999841321568,0.00017135299670979455,-3.881582183693712e-05,2.944772561997e-05
2686.4166666732617,0.00022808032,-0.7848299,7.178668e-05,-2.3559887,0.000107828455,1.5709916,0.786,0.03999999,0.04,0.003317683934178639,-0.00495797655396131,0.0019433434879312372,-0.001147131125564579,-0.009288537098476714,-0.00010816330816360042,0.9999999830560631,0.00016150713516970575,-8.36087212251198e-05,2.8511409653542823e-05
2686.4333333399286,0.0002454461,-0.7847788,8.0759964e-05,-2.356031,0.00011195891,1.5709963,0.786,0.039999988,0.039999995,0.0008482209870486201,-0.00556460888669525,0.00018903288614424696,-0.0013799314860788521,-0.009393667419562697,-0.0001297036419569773,0.9999999802407532,0.00014965329153082576,-0.00012795458184270659,2.738631820522492e-05
2686.4500000065955,0.0002660793,-0.78472763,9.141708e-05,-2.3560731,0.000116861214,1.571001,0.786,0.039999984,0.03999999,3.806742281398101e-05,-0.006176455084500857,7.241545962877183e-05,-0.0016383507472015463,-0.009452101722600548,-0.00015358511547755815,0.9999999756375457,0.0001355704333160634,-0.0001722408303259609,2.6051146024899883e-05
2686.4666666732624,0.00029031045,-0.7846761,0.00010392811,-2.3561156,0.00012261278,1.5710058,0.786,0.03999998,0.03999999,-0.0008660679693406337,-0.006800349181117237,0.00011157064092603974,-0.0019225989632344997,-0.009465757611790153,-0.00018070889476348901,0.9999999691027919,0.0001190331923936463,-0.00021685489204822692,2.4484081130577928e-05
2686.4833333399292,0.00031847492,-0.7846232,0.00011846534,-2.3561585,0.00012929353,1.571014,0.786,0.039999977,0.039999988,-0.0011657132709119722,-0.007435099398099662,0.0030854156785498077,-0.0022333364778153175,-0.009435598403688482,-0.00020938949106132494,0.9999999607966694,9.981307797715295e-05,-0.00026063447075313774,2.2664550486456995e-05
2686.500000006596,0.00035091216,-0.78456885,0.00013520345,-2.3562014,0.00013698298,1.5710225,0.786,0.039999973,0.039999984,-0.0015722675845264433,-0.008075339297068619,0.0009999068253385701,-0.002570597039413764,-0.009349675972508659,-0.00024051964965572778,0.9999999502468015,7.767858517983515e-05,-0.00030503987205530894,2.056959813696233e-05
2686.516666673263,0.00038796506,-0.78451246,0.00015431861,-2.356245,0.00014576122,1.5710311,0.786,0.03999997,0.039999984,-0.003418460172932569,-0.008721982135532201,0.0008903806875792952,-0.002934613621637227,-0.009216436803860929,-0.000274976597899526,0.9999999369470596,5.239606791774484e-05,-0.0003507565391224683,1.8176333849250186e-05
2686.53333333993,0.0004299779,-0.78445363,0.00017598821,-2.3562927,0.00015571037,1.5710433,0.786,0.039999966,0.03999998,-0.008457544665407823,-0.009373178802854614,0.0021984048831358294,-0.0033255396115815157,-0.009043243353497097,-0.0003110536299493833,0.9999999204233461,2.3730998034334885e-05,-0.0003979334713268215,1.54626571104994e-05
2686.5500000065967,0.0004772966,-0.784392,0.0002003898,-2.3563426,0.00016691133,1.5710557,0.786,0.03999995,0.039999966,-0.006668434259782252,-0.01002505709738013,0.0007653245643224338,-0.003743755743151277,-0.008827849169235348,-0.00034962400283406966,0.9999998997741384,-8.552402887270609e-06,-0.00044746472277741714,1.2405303229321578e-05
2686.5666666732636,0.00053026795,-0.784327,0.00022770201,-2.3563936,0.00017944585,1.57107,0.786,0.03999994,0.039999954,-0.0051800202057750155,-0.010681697934232173,0.0027703366267006757,-0.0041892976948403144,-0.008574995970819373,-0.00039068866663430433,0.9999998747911444,-4.469066063736791e-05,-0.0004983369963222204,8.982122625056774e-06
2686.5833333399305,0.0005892381,-0.7842581,0.00025810287,-2.3564494,0.00019339472,1.5710862,0.786,0.039999932,0.03999995,-0.011717503510277893,-0.011332816505782549,0.0013894909790757026,-0.004661609938409696,-0.00827582253041383,-0.0004351188061011978,0.9999998437268754,-8.49193410938959e-05,-0.0005525470245309821,5.16874022933649e-06
2686.6000000065974,0.000654553,-0.78418493,0.00029177024,-2.3565075,0.0002088399,1.571103,0.786,0.03999993,0.03999995,-0.008675206486574716,-0.011987170953849753,0.0017805945617954677,-0.005161176840092169,-0.007945717449351459,-0.0004820436194715767,0.9999998056735092,-0.00012947440384622694,-0.0006098265604119531,9.427195577883707e-07
2686.6166666732643,0.00072655734,-0.7841071,0.0003288814,-2.3565686,0.00022586311,1.571123,0.786,0.03999993,0.03999995,-0.008987109900071566,-0.012639839229701237,0.003680934522387602,-0.005687613745545816,-0.007579528357592117,-0.0005306072519656998,0.9999997600968351,-0.00017859062066626565,-0.0006692517017255072,-3.717831287723632e-06
2686.633333339931,0.0008055937,-0.7840242,0.00036961274,-2.3566344,0.0002445444,1.5711441,0.786,0.03999993,0.03999995,-0.013367167383382395,-0.01328365273960394,0.0014463633910555274,-0.006240782005682514,-0.007167465023941899,-0.000581673669147606,0.9999997042457779,-0.0002325012403326032,-0.0007330575852355676,-8.83779446987107e-06
2686.650000006598,0.00089200283,-0.7839359,0.0004141392,-2.3567042,0.0002649634,1.571168,0.786,0.039999932,0.039999958,-0.011955698420273997,-0.01392809267788472,0.003169494943700002,-0.0068205038929669976,-0.006729128404544648,-0.0006360740861317651,0.9999996372666322,-0.00029143837256111107,-0.0008002010881972982,-1.4439442862809215e-05
2686.666666673265,0.0009861225,-0.78384155,0.00046263475,-2.3567781,0.00028720035,1.5711938,0.786,0.039999936,0.039999966,-0.01297366166517211,-0.014566392979352537,0.0030262698187399906,-0.007426542394344113,-0.0062507926757392005,-0.0006929600226287433,0.999999556885006,-0.00035563211554349246,-0.0008713974181867042,-2.0545794703748247e-05
2686.683333339932,0.0010882871,-0.7837411,0.0005152716,-2.3568583,0.00031133444,1.5712215,0.786,0.039999936,0.039999966,-0.016694817234053083,-0.015195392235564055,0.0018637399169962876,-0.008058926929307582,-0.005740477417695201,-0.0007514520423502762,0.9999994599871853,-0.0004253099012377659,-0.0009478386121317116,-2.718070877942296e-05
2686.7000000065987,0.0011988282,-0.7836345,0.00057222066,-2.3569407,0.00033744273,1.5712523,0.786,0.039999943,0.039999977,-0.009897820293369719,-0.01582742787402847,0.004705013002603842,-0.008717140291331383,-0.005204421611327451,-0.0008132531074900059,0.9999993467348541,-0.0005006982826467526,-0.0010269616098561203,-3.436490374042296e-05
2686.7166666732655,0.001318074,-0.7835206,0.00063365005,-2.35703,0.00036560275,1.5712845,0.786,0.039999947,0.039999984,-0.018976372944812248,-0.016439136813016335,0.0019276117284361405,-0.009400564621189862,-0.004617409873307691,-0.0008775326677237713,0.999999211019686,-0.0005820196231159798,-0.0011124022205328838,-4.212438155530708e-05
2686.7333333399324,0.0014463477,-0.7833991,0.00069972686,-2.357126,0.00039589117,1.5713198,0.7860015,0.03999995,0.039999988,-0.01914884463594113,-0.01705223225232657,0.003298011285668423,-0.010109443237804057,-0.004014175442912249,-0.000943367419473208,0.9999990508650178,-0.0006687491158116178,-0.0012035344785213116,-5.048210133797385e-05
2686.7500000065993,0.001583969,-0.78326994,0.00077061524,-2.357229,0.0004283823,1.571358,0.7860022,0.039999958,0.04,-0.01935787556370805,-0.01765369329777052,0.0031617570833475384,-0.010850018538304178,-0.003384655200818045,-0.0010124580220249803,0.9999988620309083,-0.0007622365084622224,-0.001300537154577629,-5.946009797306696e-05
2686.766666673266,0.0017312529,-0.7831331,0.0008464768,-2.3573349,0.00046316462,1.5713984,0.7860037,0.03999996,0.04,-0.012665036537917729,-0.018265135701737798,0.004528560903471757,-0.011611490016753021,-0.0027304482630426557,-0.0010823002973437239,0.9999986438031652,-0.0008619220376952699,-0.0014016815844683915,-6.907218632581084e-05
2686.783333339933,0.0018885094,-0.7829883,0.00092747185,-2.357448,0.0005002955,1.5714415,0.7860047,0.03999996,0.04,-0.020473900797135514,-0.01883179550695776,0.0029357179191613625,-0.012400345053065769,-0.0020325267697126957,-0.0011562782634653092,0.9999983890054817,-0.0009686415634111719,-0.001509113447263915,-7.93509063653202e-05
2686.8000000066,0.002056043,-0.78283507,0.001013757,-2.3575683,0.00053985405,1.5714879,0.7860062,0.039999958,0.04,-0.020110240176718364,-0.019413759309625158,0.0037764077141400065,-0.013210944227624003,-0.0013106588855030406,-0.0012318546898615612,0.9999980939679111,-0.0010821252947944286,-0.0016226239735939853,-9.031517805702888e-05
2686.816666673267,0.0022341548,-0.7826726,0.0011054871,-2.3576956,0.0005818932,1.571537,0.78600734,0.039999954,0.04,-0.02152521233156346,-0.019967824837642794,0.0037113002663069494,-0.01404703098937039,-0.0005605500098640323,-0.0013113712038241667,0.9999977522456511,-0.0012029951587667707,-0.0017429581016918051,-0.0001019968092192317
2686.8333333399337,0.002423139,-0.78250104,0.0012028144,-2.3578305,0.00062649243,1.5715892,0.78600895,0.039999954,0.04,-0.022027905498855915,-0.02052973569398528,0.0036213534393203517,-0.014904328923574477,0.0002118644147319688,-0.0013925090921397413,0.9999973590154406,-0.0013310336237156543,-0.0018700858437671573,-0.00011441404421254166
2686.8500000066006,0.0026232859,-0.7823202,0.0013058868,-2.3579729,0.0006737548,1.5716441,0.7860103,0.03999995,0.03999999,-0.022040093946107397,-0.021100675403339098,0.0034649848374534997,-0.01578595295145863,0.0010082820918705967,-0.0014727979735857303,0.9999969076142925,-0.0014667949141170362,-0.002004245523975038,-0.00012757120254557538
2686.8666666732674,0.002834879,-0.7821295,0.0014148516,-2.3581228,0.0007236769,1.5717025,0.78601193,0.03999995,0.04,-0.022742870601777376,-0.021587294105019847,0.00432280996578438,-0.016688740733291896,0.0018267591201383076,-0.0015618622854265325,0.9999963922944337,-0.001610233760616472,-0.0021453474534475726,-0.00014152617080320573
2686.8833333399343,0.0030581965,-0.7819289,0.0015298508,-2.358281,0.0007763957,1.5717641,0.7860135,0.03999995,0.04,-0.023800757375558312,-0.022160174750896107,0.003854637917455328,-0.01761383215624666,0.0026724318677098344,-0.0016468197737396079,0.9999958050954777,-0.0017616868147231777,-0.0022938683638821867,-0.00015626561767959627
2686.900000006601,0.0032935117,-0.78171796,0.0016510261,-2.3584466,0.00083192147,1.571829,0.7860153,0.039999943,0.04,-0.023391593585109227,-0.022638578925213843,0.0042190181704260254,-0.018559733002013478,0.003539640988972769,-0.0017389389049745057,0.9999951391024515,-0.0019211912232293008,-0.002449748348876398,-0.00017183940033735102
2686.916666673268,0.0035410915,-0.7814963,0.0017785147,-2.3586206,0.0008903434,1.5718974,0.78601694,0.03999994,0.04,-0.02496031881982219,-0.023159743314044544,0.004333970921144292,-0.01952729637271536,0.004429813651146837,-0.0018310376726531031,0.9999943852180946,-0.0020891061678305423,-0.0026133746598310196,-0.00018825671825834663
2686.933333339935,0.0038011952,-0.78126395,0.0019124503,-2.3588026,0.00095171377,1.5719692,0.78601885,0.039999936,0.04,-0.024165052405900056,-0.023642715304415807,0.004279331500955941,-0.020514419614239554,0.005341871953865711,-0.0019262437848096242,0.9999935357782799,-0.0022654287225677065,-0.0027845979857086247,-0.00020554419285150193
2686.950000006602,0.004074079,-0.7810205,0.0020529644,-2.3589933,0.0010160947,1.5720446,0.78602064,0.039999936,0.04,-0.026139116360401893,-0.024123591551548744,0.004275226015404421,-0.021522266796848412,0.006276754861015259,-0.002023785510531959,0.9999925800207926,-0.0024505104141731475,-0.0029639247212834238,-0.0002237237480407982
2686.9666666732687,0.0043599913,-0.78076583,0.0022001856,-2.3591926,0.0010835435,1.5721238,0.78602254,0.039999932,0.04,-0.02593853069912111,-0.02459219303189899,0.004413179924500632,-0.02254868034177414,0.007233505747845192,-0.0021236878859762645,0.9999915086331467,-0.002644400344890688,-0.003151324737079312,-0.00024281849315183844
2686.9833333399356,0.0046591745,-0.7804997,0.0023542396,-2.359401,0.0011541201,1.5722066,0.78602445,0.03999993,0.04,-0.026951968993005337,-0.02504896701714405,0.004217364260816758,-0.02359404084524481,0.00821077243436589,-0.0022259217722373076,0.9999903101621809,-0.002847321899709491,-0.003347125547842145,-0.00026285035946103973
2687.0000000066025,0.0049718665,-0.7802217,0.0025152466,-2.3596191,0.0012278607,1.5722932,0.78602636,0.03999992,0.04,-0.028633938598798814,-0.02547498637292256,0.004037778917820312,-0.024657541621298094,0.009208561687944879,-0.002332016348237176,0.9999889716118069,-0.003059434361068323,-0.003551893007789622,-0.0002838524482752776
2687.0166666732694,0.0052982992,-0.77993196,0.0026833266,-2.3598466,0.0013048389,1.5723833,0.78602827,0.039999913,0.04,-0.02773694766866619,-0.025926195613234018,0.004015807305091101,-0.02573870705174736,0.010220085714816987,-0.0024388457304243766,0.9999874819444892,-0.0032808944523322696,-0.0037653883552462384,-0.0003058372879976754
2687.0333333399362,0.0056386953,-0.7796298,0.002858595,-2.3600836,0.0013851154,1.5724775,0.7860302,0.039999913,0.04,-0.028726366500730904,-0.026353451980455807,0.00453422002244519,-0.02683700630204008,0.01125136119628261,-0.002547178851221071,0.9999858279304357,-0.0035118522792385353,-0.003987819818046839,-0.00032882358282417505
2687.050000006603,0.0059932726,-0.7793156,0.0030411638,-2.36033,0.0014687335,1.5725754,0.7860321,0.03999991,0.04,-0.02847833973100844,-0.026753106009985532,0.004094326840164975,-0.027951950595244867,0.012299306900179323,-0.0026587669422574803,0.9999839965246758,-0.003752454255212792,-0.004219157146374,-0.00035283788584763515
2687.06666667327,0.0063622436,-0.77898854,0.0032311424,-2.3605864,0.0015557425,1.5726773,0.786034,0.039999906,0.04,-0.029682986215973095,-0.02715035384472965,0.004277357716619967,-0.029082798055733276,0.013365912063034894,-0.0027727014531492983,0.9999819718056836,-0.004002842934168259,-0.004459876705536464,-0.00037790452858541636
2687.083333339937,0.006745815,-0.77864873,0.0034286384,-2.3608532,0.0016461932,1.5727831,0.7860359,0.039999906,0.04,-0.0307642885228665,-0.02753511797506606,0.003980926257440842,-0.030229268285514664,0.014446856061510808,-0.0028889968097391104,0.9999797379864374,-0.004263156688021596,-0.00471018661334365,-0.00040404665223744106
2687.1000000066038,0.0071441843,-0.77829593,0.003633753,-2.3611298,0.001740164,1.5728929,0.7860378,0.03999991,0.04,-0.029861454332658077,-0.02793241633174213,0.004242742803484134,-0.03139086829116684,0.01554282662439887,-0.003004613707782016,0.9999772803148022,-0.004533528307941735,-0.004969907613789494,-0.0004312697569239051
2687.1166666732706,0.007557548,-0.77793014,0.0038465862,-2.361416,0.0018376467,1.5730069,0.7860397,0.03999991,0.04,-0.029797127147679348,-0.028258700981878028,0.004303309760333995,-0.03256686210147758,0.0166540334975867,-0.003127374806362662,0.9999745831836415,-0.004814088967983729,-0.0052389198020531425,-0.0004596231264751922
2687.1333333399375,0.00798609,-0.7775512,0.004067235,-2.361713,0.0019387144,1.573125,0.7860416,0.039999913,0.04,-0.03121754741208793,-0.028619660911032366,0.00394198338731222,-0.03375726750922741,0.01778314112280861,-0.0032502019262455883,0.9999716273254035,-0.00510496127835464,-0.005517669673338618,-0.0004891174774830906
2687.1500000066044,0.008429995,-0.7771586,0.004295793,-2.3620207,0.0020434174,1.5732474,0.7860435,0.039999913,0.04,-0.032461287574947484,-0.02896258387537591,0.003904002421539765,-0.03496072966639218,0.018925952719945866,-0.0033747188242245997,0.9999683925802999,-0.005406266914914022,-0.00580654402978502,-0.0005197738413460612
2687.1666666732713,0.008889437,-0.7767524,0.00453235,-2.3623393,0.002151788,1.5733743,0.78604543,0.03999991,0.04,-0.03209698263653138,-0.029283717618823132,0.003999437229995628,-0.03617757140487067,0.02008082739779994,-0.003502491440053529,0.9999648608651106,-0.005718122544332249,-0.006105393158124404,-0.0005516194091598868
2687.183333339938,0.009364585,-0.77633244,0.004776993,-2.3626688,0.0022638477,1.5735054,0.78604734,0.039999906,0.04,-0.032680589638856006,-0.029577951771680988,0.0037186079267836902,-0.03740680051746413,0.021249224303524546,-0.0036343131195171966,0.9999610110315881,-0.006040639713392187,-0.006414454684783407,-0.0005846876379158123
2687.200000006605,0.009855601,-0.7758985,0.005029803,-2.3630087,0.0023796349,1.5736408,0.78604925,0.039999906,0.04,-0.03208217653198897,-0.02987945430464288,0.0038919128348080534,-0.03864815570756877,0.022429628507518833,-0.0037685336634984048,0.9999568234852111,-0.006373924998526254,-0.006733578831225286,-0.0006190004872314447
2687.216666673272,0.01036264,-0.77545047,0.0052908645,-2.3633597,0.0024992067,1.5737805,0.78605115,0.039999902,0.04,-0.033099797996483105,-0.030180533466413542,0.003606916305631813,-0.03990109510393943,0.02362244329299621,-0.0039037281664416473,0.9999522746764702,-0.006718081851985354,-0.0070630926553903635,-0.0006545744606814901
2687.233333339939,0.010885854,-0.77498835,0.005560255,-2.3637218,0.0026225871,1.5739245,0.78605306,0.039999902,0.04,-0.03344907925439955,-0.030445826173615756,0.00329778438117323,-0.041164918793855816,0.02482785976916781,-0.00404222245177842,0.9999473415892487,-0.0070732097695132504,-0.007403084647156896,-0.0006914404225183273
2687.2500000066057,0.011425388,-0.7745118,0.005838048,-2.3640954,0.0027498102,1.5740734,0.78605497,0.0399999,0.04,-0.03407935411889884,-0.03071266140385852,0.0036548657682322627,-0.04243935459291649,0.02604223255031367,-0.004183226197428281,0.9999420009885374,-0.007439402770523783,-0.007753553889104471,-0.0007296215091240247
2687.2666666732725,0.011981378,-0.7740209,0.0061243144,-2.3644803,0.00288091,1.574227,0.7860569,0.03999989,0.04,-0.03369523758551818,-0.030962819932316143,0.0033811945103767727,-0.04372390963043758,0.027268503202521145,-0.004326806522499907,0.9999362290744696,-0.007816750556457249,-0.008114469613772973,-0.0007691410502499768
2687.2833333399394,0.012553961,-0.7735154,0.0064191204,-2.3648765,0.0030158912,1.5743849,0.7860588,0.039999884,0.04,-0.03444884423080552,-0.03117915678694655,0.0030343737560611928,-0.045017874194529725,0.02850705241534633,-0.00447531678768145,0.9999299979693193,-0.00820534013698412,-0.008486188282168792,-0.000810038735612848
2687.3000000066063,0.013143259,-0.77299535,0.006722534,-2.3652842,0.0031548028,1.5745475,0.7860607,0.039999876,0.04,-0.034323128445223894,-0.031422055966001325,0.0029911570160745526,-0.046320949176252776,0.02975393159415065,-0.0046247647102288045,0.9999232829613696,-0.008605252558794189,-0.008868559872290595,-0.0008523297179298558
2687.316666673273,0.013749393,-0.7724603,0.0070346165,-2.3657033,0.0032976675,1.5747147,0.7860626,0.03999987,0.04,-0.03490209136902678,-0.03163252637151462,0.0029623072720807997,-0.04763270703142766,0.031009974678538794,-0.004777583614117887,0.9999160545856026,-0.009016565034737519,-0.009261881210818768,-0.0008960431760622776
2687.33333333994,0.014372475,-0.77191025,0.0073554274,-2.366134,0.0034445203,1.5748866,0.7860645,0.03999986,0.04,-0.034777514266792764,-0.03184417761185471,0.0029059880607862354,-0.0489523446991455,0.032275044715526315,-0.00493224877672877,0.9999082863966889,-0.009439350737919468,-0.009666002117808745,-0.0009411992042097071
2687.350000006607,0.015012617,-0.77134526,0.007685021,-2.3665767,0.0035953936,1.5750632,0.7860665,0.039999854,0.04,-0.0360012465860704,-0.032026308237526405,0.0023478093667206323,-0.050279640270825404,0.033549837302283156,-0.005088452408581821,0.9998999465476842,-0.009873647481239636,-0.010081278909822126,-0.0009878233126756274
2687.366666673274,0.015669923,-0.77076524,0.008023453,-2.3670313,0.0037503054,1.5752447,0.7860692,0.039999854,0.04,-0.03567812450797625,-0.032209701670894014,0.0022776490601561505,-0.05161442454081146,0.03483069695222339,-0.005248531530543254,0.9998910098373444,-0.010319165222555002,-0.010507620426261022,-0.001035948137113052
2687.3833333399407,0.01634448,-0.77017,0.008370769,-2.3674974,0.003909294,1.5754308,0.7860727,0.039999846,0.04,-0.03518708921754765,-0.03238104043905496,0.0023253735998762792,-0.0529592584103066,0.03611912425041977,-0.0054112266963416734,0.9998814466128729,-0.010775989064326008,-0.01094496573470643,-0.0010855892870981275
2687.4000000066076,0.017036388,-0.7695594,0.008727018,-2.3679755,0.0040723467,1.5756216,0.7860764,0.039999843,0.04,-0.03603808022980548,-0.03251349458811004,0.0019831380711599067,-0.05431357037997782,0.03741609986548621,-0.005575990578494058,0.9998712212592158,-0.011244388057273045,-0.011393521912685037,-0.0011367907664901616
2687.4166666732744,0.017745733,-0.7689333,0.009092243,-2.3684657,0.0042395103,1.5758173,0.78608024,0.039999843,0.04,-0.03661865428303823,-0.03267708304289865,0.001811384927252746,-0.05567487078841674,0.03871787723403804,-0.005745905520388939,0.999860298373183,-0.01172453450069922,-0.011853436645967039,-0.0011895661021745548
2687.4333333399413,0.018472586,-0.7682918,0.009466489,-2.368968,0.004410805,1.5760176,0.78608406,0.039999835,0.04,-0.0366738626994767,-0.03279070183280011,0.0012654898575048534,-0.0570416097476562,0.04002652313936972,-0.005913421583248221,0.9998486423392484,-0.012216501491328132,-0.012324857313668523,-0.0012439436770555691
2687.450000006608,0.01921703,-0.7676348,0.0098497905,-2.3694828,0.004586246,1.5762231,0.7860879,0.039999828,0.04,-0.036877586185557476,-0.032922841789551766,0.0014329511827115837,-0.05841333276925371,0.041337643550607914,-0.0060863975087947116,0.9998362215760689,-0.012720337283533674,-0.01280754377752366,-0.001299948564369471
2687.466666673275,0.01997913,-0.76696247,0.010242184,-2.3700094,0.0047658496,1.5764337,0.7860917,0.039999824,0.04,-0.036092429933543,-0.033034864245344575,0.0012020314265948073,-0.05978913566698694,0.042655003722793225,-0.006263119656963953,0.9998230029547474,-0.01323608266238091,-0.013301345249398362,-0.0013576055621343486
2687.483333339942,0.020758947,-0.76627433,0.010643698,-2.3705482,0.0049496274,1.5766485,0.7860955,0.039999824,0.04,-0.03718617521988321,-0.03310078659624141,0.0004994794667867453,-0.061168892793982986,0.043979885580707534,-0.006442044172967273,0.999808941330861,-0.013763769470465776,-0.013806945151847466,-0.001416951093292949
2687.500000006609,0.02155653,-0.7655707,0.011054367,-2.3710997,0.0051375944,1.5768685,0.7860993,0.039999824,0.04,-0.0373911116037462,-0.033183701945228156,0.0005502584677907763,-0.06255209355099166,0.04530503341089411,-0.006623752051431243,0.9997940046929881,-0.014303426418123884,-0.014323954116881388,-0.0014780091732310174
2687.5166666732757,0.022371938,-0.76485115,0.011474211,-2.371663,0.0053297626,1.5770937,0.7861031,0.039999824,0.04,-0.03669921375513141,-0.03327840706356944,0.0007601045626914882,-0.06393800705531981,0.046634436864236635,-0.0068085525438241375,0.9997781564408846,-0.014855086253566624,-0.01485228070761236,-0.0015408029878481507
2687.5333333399426,0.02320522,-0.7641159,0.01190326,-2.3722394,0.0055261417,1.5773234,0.78610694,0.03999982,0.04,-0.03823288830628879,-0.03330075149904008,-0.0005812470269095371,-0.06532667885198092,0.04796994770406532,-0.006997149516772707,0.9997613479031311,-0.01541877257146195,-0.015392578186154022,-0.0016053747498096492
2687.5500000066095,0.024056418,-0.7633651,0.012341535,-2.372828,0.0057267435,1.5775583,0.78611076,0.03999981,0.04,-0.03720098601567301,-0.03337417058274644,-0.0002131081427325654,-0.06671710531276029,0.049303726413671714,-0.007187866773452045,0.9997435476152988,-0.015994507470730206,-0.015944278169663276,-0.0016717433995589687
2687.5666666732764,0.024925562,-0.76259816,0.01278905,-2.3734288,0.005931574,1.5777982,0.7861146,0.03999981,0.04,-0.0373451595595764,-0.033412485590662844,-0.00014211093701810285,-0.06810956339381008,0.05064101721263442,-0.007382472739079103,0.9997247132533433,-0.01658230548720652,-0.016507497478177004,-0.0017399374291528786
2687.5833333399432,0.025812684,-0.7618156,0.013245824,-2.3740418,0.006140642,1.5780427,0.7861184,0.039999813,0.04,-0.03700279448468624,-0.033419317380933844,-0.0011400405623529508,-0.06950266275288688,0.05198094264023837,-0.007579365599917785,0.999704802375651,-0.01718217991900241,-0.01708229318928893,-0.0018099888636973918
2687.60000000661,0.026717803,-0.7610173,0.013711868,-2.3746674,0.006353951,1.5782925,0.7861222,0.03999982,0.04,-0.03774431052205873,-0.03342517255856409,-0.001092740522068425,-0.07089679957537509,0.05332299335044759,-0.007778612555253715,0.9996837737902432,-0.017794134946189543,-0.017668603104961447,-0.0018819262297074305
2687.616666673277,0.027640946,-0.760203,0.014187192,-2.3753052,0.0065715048,1.5785472,0.786126,0.039999824,0.04,-0.03735697700779639,-0.03344547667250425,-0.0011904691482600427,-0.07229125759505929,0.05466730267346581,-0.007984386385879077,0.9996615838250157,-0.018418181275390185,-0.01826645431881056,-0.001955778511626238
2687.633333339944,0.028582122,-0.7593727,0.0146718,-2.3759556,0.0067933113,1.5788065,0.78612983,0.039999828,0.04,-0.03824479271514747,-0.033393242844353965,-0.0021507417756749803,-0.07368554532539025,0.056013045278753185,-0.00819162725673719,0.999638180281789,-0.01905431296184149,-0.018876290930560754,-0.0020315809535094414
2687.6500000066108,0.02954134,-0.75852656,0.0151657015,-2.3766189,0.0070193685,1.5790712,0.78613365,0.039999828,0.04,-0.038284905415508774,-0.033383472058386154,-0.002034999547273486,-0.07507929250125872,0.05735559168576498,-0.008402829491637506,0.9996135246246052,-0.019702528589778192,-0.01949775240950787,-0.0021093614484884848
2687.6666666732776,0.030518614,-0.7576647,0.015668899,-2.3772938,0.00724968,1.5793409,0.78613746,0.03999984,0.04,-0.036228780684033346,-0.03339828022674643,-0.001983753100387453,-0.07647218106176552,0.05869817666658514,-0.00861803420310742,0.9995875818482471,-0.020362832090525165,-0.020130299506773683,-0.0021891381396773038
2687.6833333399445,0.031513926,-0.7567869,0.016181381,-2.3779814,0.007484258,1.5796155,0.7861413,0.03999984,0.04,-0.03814772109860254,-0.03328294609693111,-0.003001406980351895,-0.0778635802674728,0.06004576224279566,-0.008834193276736922,0.9995602914494618,-0.02103519629191274,-0.020774673992916968,-0.0022709458195811767
2687.7000000066114,0.03252729,-0.755893,0.01670316,-2.3786817,0.007723086,1.579895,0.7861451,0.039999835,0.04,-0.03829082225332847,-0.033260471460691554,-0.003079728663890613,-0.07925321120337062,0.0613910986429497,-0.009053620646523873,0.9995316061721227,-0.021719623427308342,-0.02143084251636026,-0.0023548269982545944
2687.7166666732783,0.033558674,-0.754983,0.017234223,-2.3793943,0.007966155,1.5801796,0.7861489,0.03999983,0.04,-0.037901721281485834,-0.033160751826066814,-0.0033030781973586443,-0.08064053448900393,0.06273334284922336,-0.009277029473893656,0.9995014806818822,-0.022416083376506128,-0.02209868246657771,-0.0024408101163257917
2687.733333339945,0.034608066,-0.7540573,0.017774563,-2.380119,0.0082134595,1.5804691,0.7861528,0.039999828,0.04,-0.03711354668809452,-0.03308916269284534,-0.0037080384656773546,-0.08202544599119924,0.06407310119249733,-0.009502839018302223,0.9994698736319596,-0.023124529610042056,-0.02277789224363012,-0.0025289241519999162
2687.750000006612,0.035675447,-0.75311553,0.01832417,-2.380857,0.008465009,1.5807635,0.7861572,0.039999824,0.04,-0.03912523857136918,-0.03295867674730918,-0.004615132286334145,-0.08340743806073805,0.06541348151652944,-0.009732106620173629,0.9994367245218637,-0.02384469467623174,-0.023469212322936917,-0.0026192147194145244
2687.766666673279,0.036760803,-0.7521582,0.01888303,-2.381607,0.008720775,1.5810632,0.7861621,0.03999982,0.04,-0.036833405905123406,-0.03290567794711069,-0.004250783339920794,-0.084788584245405,0.06674639693417755,-0.00996349854791571,0.9994020063663934,-0.024576591383743303,-0.024171625833412293,-0.0027117026668041556
2687.783333339946,0.037864093,-0.75118506,0.019451125,-2.382369,0.008980771,1.5813674,0.7861673,0.03999982,0.04,-0.03701046772033312,-0.032770294211301176,-0.004974474734531498,-0.08616841613817726,0.06808098034332619,-0.0101999765172404,0.9993656575726207,-0.025320240950374988,-0.024885575985065835,-0.0028064159616479857
2687.8000000066127,0.038985267,-0.7501961,0.02002844,-2.383144,0.009244983,1.5816767,0.7861728,0.039999817,0.04,-0.038384933780299946,-0.032605136297605974,-0.005444038919466543,-0.08754557553315104,0.06941294765213774,-0.01043814283998909,0.9993276221369076,-0.026075658854768483,-0.02561120756262402,-0.0029033939911771193
2687.8166666732795,0.040124316,-0.74919146,0.020614952,-2.383931,0.009513408,1.581991,0.78617847,0.039999813,0.04,-0.037126531809872354,-0.03251701902755033,-0.0056735039224653505,-0.08891907204845953,0.07073911880785244,-0.01067678227277278,0.9992878547813288,-0.02684285221295048,-0.026348218565405365,-0.0030026571621627218
2687.8333333399464,0.04128118,-0.74817103,0.021210637,-2.3847299,0.009786027,1.58231,0.7861842,0.039999828,0.04,-0.0369006586520948,-0.03235278291608967,-0.00595455303065151,-0.09028896929245939,0.0720627207445684,-0.010925759663072451,0.9992463020023807,-0.027621832847983873,-0.027096604659584647,-0.003104239134987188
2687.8500000066133,0.042455807,-0.7471349,0.021815471,-2.3855414,0.0100628305,1.5826339,0.7861899,0.03999984,0.04,-0.03793845233468485,-0.03215609883349402,-0.006703392498685901,-0.09165402176071281,0.07338363603633441,-0.011181629632424524,0.9992029036597764,-0.02841258124357267,-0.02785659956151964,-0.003208177959264255
2687.86666667328,0.043648146,-0.7460833,0.022429425,-2.3863654,0.01034381,1.582963,0.78619564,0.039999843,0.04,-0.03724602075700911,-0.03200213696384069,-0.006776363070870595,-0.09301344075859687,0.0746968988146976,-0.011435478195681359,0.9991576169383957,-0.02921504842933337,-0.02862781143217029,-0.003314494209049386
2687.883333339947,0.044858128,-0.7450161,0.023052473,-2.3872013,0.01062894,1.5832967,0.78620136,0.039999854,0.04,-0.03678202554815435,-0.03179927713500563,-0.007389575266292248,-0.09436642841461895,0.07600762485241891,-0.011690482816293764,0.9991103829388973,-0.030029181588217633,-0.029410413912620812,-0.0034232309767512205
2687.900000006614,0.046085704,-0.74393326,0.023684582,-2.3880491,0.01091824,1.5836353,0.7862071,0.039999846,0.04,-0.036655805668006636,-0.03166622364281918,-0.0074249138581450325,-0.09571334279635808,0.07731285494982003,-0.01194957427165802,0.9990611540972553,-0.030854932769157573,-0.030204164249432952,-0.003534396647863174
2687.916666673281,0.04733079,-0.742835,0.024325715,-2.3889096,0.011211653,1.5839788,0.7862128,0.03999985,0.04,-0.03771815572692905,-0.031341120266437095,-0.008491772172236622,-0.0970532305138863,0.07861325821117338,-0.012212251302965854,0.9990098641973807,-0.03169222807866593,-0.031009443607824927,-0.0036480574109879226
2687.9333333399477,0.048593353,-0.74172133,0.02497584,-2.389782,0.011509168,1.584327,0.7862185,0.03999985,0.04,-0.03645701118952793,-0.03121727634233379,-0.008522890936402128,-0.09838667977220232,0.07990401165301274,-0.012479708288982778,0.9989564687321656,-0.03254103243850251,-0.031825859536460326,-0.003764233091044855
2687.9500000066146,0.049873278,-0.7405925,0.025634903,-2.3906662,0.011810791,1.58468,0.78622425,0.039999843,0.04,-0.03625687904027508,-0.03093582505860476,-0.00900614805672273,-0.09971222005840572,0.08119021601962241,-0.012748277521485576,0.9989009159559847,-0.0334012535934066,-0.032653317715784815,-0.00388293739787299
2687.9666666732815,0.051170494,-0.73944825,0.026302876,-2.391562,0.012116476,1.585038,0.78622997,0.03999985,0.04,-0.03559787863123276,-0.030750963947061283,-0.008873931816966163,-0.10103023390337713,0.08247078283975268,-0.013021065331527009,0.9988431585069608,-0.03427283893130502,-0.033491544055997344,-0.004004209306752575
2687.9833333399483,0.052484933,-0.738289,0.026979716,-2.3924701,0.012426224,1.5854005,0.7862357,0.039999846,0.04,-0.03691340273568322,-0.03042845327595467,-0.01036367207292166,-0.10234023269626233,0.08374640391753396,-0.013297476138288057,0.9987831223664679,-0.03515571523552589,-0.034341068646281406,-0.004128094766240131
2688.000000006615,0.05381648,-0.7371146,0.027665377,-2.3933897,0.012739993,1.5857676,0.7862414,0.039999846,0.04,-0.03542111284662308,-0.030190986817707488,-0.010073514718178522,-0.10364160954778011,0.0850137872544793,-0.013577218278045158,0.9987207671903291,-0.036049801998494314,-0.035201408962899035,-0.004254616981169709
2688.016666673282,0.055165056,-0.7359252,0.028359808,-2.3943212,0.013057776,1.5861396,0.78624713,0.039999843,0.04,-0.03604643729464563,-0.029913831070804697,-0.010729029000033918,-0.10493470175899158,0.0862729490726288,-0.013860202333410288,0.9986560319619718,-0.03695502623176055,-0.03607267800427522,-0.004383806996055576
2688.033333339949,0.05653058,-0.73472095,0.029062962,-2.3952646,0.013379546,1.5865165,0.78625286,0.03999984,0.04,-0.03577777387353542,-0.02964606823289001,-0.011044408678007045,-0.10621855805671629,0.0875236206561962,-0.01414752352006381,0.9985888669277854,-0.037871313603257815,-0.03695466087171577,-0.004515694155044395
2688.050000006616,0.057912935,-0.73350185,0.029774778,-2.3962193,0.013705279,1.5868977,0.7862586,0.039999843,0.04,-0.03476708679710505,-0.029333288437213834,-0.011581209355915334,-0.10749301709026747,0.08876875708713242,-0.014437475096891372,0.998519215273564,-0.03879857448810517,-0.03784735115448269,-0.00465030727435073
2688.0666666732827,0.05931202,-0.73226804,0.03049521,-2.397186,0.014034956,1.5872835,0.7862643,0.039999835,0.04,-0.03614825242017616,-0.0289773732908713,-0.012435820103684492,-0.10875781507286446,0.09000475011162345,-0.014730809858685728,0.9984470081464506,-0.039736719199551844,-0.03875103957584915,-0.004787692810568819
2688.0833333399496,0.06072772,-0.7310195,0.0312242,-2.3981638,0.014368549,1.5876739,0.78627,0.03999983,0.04,-0.03412567326941396,-0.028750929116472257,-0.012050916197337003,-0.11001292281652154,0.09122875119645286,-0.015027261830403083,0.9983722128995755,-0.04068566555812173,-0.03966506465563634,-0.004927856933979892
2688.1000000066165,0.062159937,-0.7297566,0.031961698,-2.399153,0.0147060165,1.5880688,0.7862758,0.03999984,0.04,-0.03453673857960471,-0.028377356286839184,-0.013000533754325971,-0.1112572309095353,0.0924458576906209,-0.01532764275851773,0.9982947686732682,-0.041645296721782576,-0.040589537618166686,-0.00507085165275017
2688.1166666732834,0.063608535,-0.728479,0.03270765,-2.4001534,0.015047354,1.5884686,0.7862816,0.039999835,0.04,-0.034402588466586614,-0.028082856541786216,-0.012960466929867742,-0.11249160022520845,0.09365462017887444,-0.01562994093881477,0.9982146207155972,-0.04261554204217651,-0.041524362666963216,-0.005216691592442314
2688.1333333399502,0.065073416,-0.72718716,0.03346197,-2.4011652,0.015392525,1.5888724,0.78628737,0.03999983,0.04,-0.034532874876447295,-0.027651880466109113,-0.014134048480607397,-0.1137145551173171,0.09485470184690098,-0.01593225314745157,0.9981317014182051,-0.043596301785600824,-0.042469770191367516,-0.005365418391000423
2688.150000006617,0.06655444,-0.7258811,0.034224603,-2.4021883,0.015741501,1.5892807,0.78629345,0.039999828,0.04,-0.03392671969100203,-0.027320047175588558,-0.014274178354312106,-0.11492660335568171,0.09604097237918939,-0.016239215967449944,0.9980459720189858,-0.04458732651260805,-0.043425454132297515,-0.0055170630356696955
2688.166666673284,0.06805147,-0.72456086,0.034995478,-2.4032226,0.01609425,1.5896935,0.7863,0.039999824,0.04,-0.03387884629295623,-0.026929809374540148,-0.014596160306412642,-0.11612895567548702,0.09721832548123159,-0.01655033167546955,0.9979573824508091,-0.04558841374043113,-0.04439134671098191,-0.005671655996823017
2688.183333339951,0.0695644,-0.7232265,0.035774555,-2.4042675,0.01645074,1.590111,0.7863068,0.039999817,0.04,-0.03297574392526759,-0.02666346160927202,-0.014657036738707774,-0.1173218350468817,0.09838474037598259,-0.01686621462252597,0.9978658837416489,-0.04659960621353539,-0.045367112990796224,-0.005829221570843168
2688.2000000066178,0.071093075,-0.7218785,0.03656173,-2.4053235,0.016810944,1.5905329,0.78631383,0.039999813,0.04,-0.03280601910466974,-0.02615681013692084,-0.015618131418748682,-0.1185036313369222,0.09954113403466071,-0.017184203138059982,0.9977714221118682,-0.0476207678000963,-0.046352715322102674,-0.005989780735336408
2688.2166666732846,0.07263736,-0.72051674,0.03735696,-2.4063907,0.017174823,1.5909588,0.786321,0.0399998,0.04,-0.03353352986090741,-0.025737527539954064,-0.016357195566429894,-0.11967448173849568,0.10068770986730524,-0.017505510393930508,0.9976739179197879,-0.04865185487997683,-0.0473485615735344,-0.006153392254304706
2688.2333333399515,0.07419713,-0.7191414,0.03816015,-2.407468,0.017542342,1.591389,0.7863283,0.03999979,0.04,-0.03156832300066359,-0.02542050073414681,-0.016200256214315978,-0.12083349274357295,0.10181948356090781,-0.017830334808794028,0.9975733473852111,-0.04969273751609508,-0.0483539592213337,-0.006320051617113494
2688.2500000066184,0.075772226,-0.7177526,0.03897125,-2.408556,0.017913477,1.591823,0.78633577,0.039999772,0.04,-0.03199561657758476,-0.02497694768088532,-0.016939235535051722,-0.12198068205531729,0.10294195508661236,-0.018159945411416054,0.9974696413849262,-0.05074332677629416,-0.04936913758359886,-0.006489804107416428
2688.2666666732853,0.0773625,-0.7163502,0.039790157,-2.4096544,0.018288188,1.5922616,0.7863433,0.03999976,0.04,-0.03182325736188485,-0.024557069043001922,-0.01688135369193322,-0.12311517077912865,0.10405131738715241,-0.018490730084997024,0.9973627572671057,-0.051803525571799645,-0.05039379078459278,-0.0066626575213713695
2688.283333339952,0.07896781,-0.71493477,0.04061681,-2.4107628,0.01866644,1.5927043,0.7863509,0.039999746,0.04,-0.03056043791567209,-0.02415843862637601,-0.0174477780237714,-0.12423674267432114,0.10514910970568955,-0.018824545574585027,0.9972526554207345,-0.052873197520370833,-0.05142761212498704,-0.006838636661451124
2688.300000006619,0.08058798,-0.71350616,0.041451115,-2.411882,0.019048192,1.5931513,0.78635854,0.03999974,0.04,-0.03181295077330226,-0.023602356602347996,-0.0181600078986488,-0.12534516008751592,0.10623680062920782,-0.01916143131581614,0.9971392601234832,-0.053952257482801594,-0.05247094937612425,-0.007017784869175415
2688.316666673286,0.082222916,-0.71206456,0.042293012,-2.413011,0.019433409,1.5936024,0.78636616,0.03999973,0.04,-0.030459720740272367,-0.023288230426651846,-0.018361374075581693,-0.12644006826225915,0.10731163093174582,-0.01950111644669087,0.9970225307130703,-0.0550406221446054,-0.05352346597505668,-0.007200121836223006
2688.333333339953,0.08387239,-0.71061003,0.043142404,-2.4141498,0.019822055,1.5940574,0.7863738,0.039999723,0.04,-0.02960319357987462,-0.022791665038743303,-0.01854512254362284,-0.12752101980323166,0.10837300964227885,-0.01984356522522297,0.996902425219686,-0.05613813712797202,-0.05458494484284301,-0.007385658224775191
2688.3500000066197,0.08553624,-0.70914304,0.043999203,-2.4152992,0.02021409,1.5945164,0.7863814,0.039999712,0.04,-0.030988104297180463,-0.022138191584794575,-0.01989575983003533,-0.1285873775077395,0.10942239819149767,-0.020188891474380202,0.996778870758202,-0.05724465024638237,-0.055655732274154844,-0.007574450026266186
2688.3666666732865,0.08721433,-0.7076633,0.04486334,-2.416458,0.02060947,1.5949792,0.78638905,0.03999971,0.04,-0.02896509590677443,-0.021884380738754206,-0.019324601519588036,-0.12963934377769612,0.11045591702286481,-0.02053573415530463,0.9966518387537204,-0.058360072021337764,-0.05673531334839397,-0.007766499967931866
2688.3833333399534,0.08890646,-0.7061715,0.045734715,-2.4176261,0.021008164,1.5954458,0.7863967,0.0399997,0.04,-0.02851243652939317,-0.021304993092793878,-0.020125743848264932,-0.13067697187789476,0.11147659503238175,-0.020886001969620177,0.9965212910183396,-0.05948424716628319,-0.057823440446708375,-0.007961822725232137
2688.4000000066203,0.09061247,-0.70466703,0.046613224,-2.4188042,0.021410117,1.5959163,0.7864043,0.039999697,0.04,-0.029571479501910858,-0.020789698750922625,-0.02031448048658291,-0.13169928648067403,0.1124851696462876,-0.021239101191487905,0.9963871524917334,-0.060617036720214734,-0.058920489627236804,-0.00816046020527203
2688.416666673287,0.09233219,-0.7031507,0.0474988,-2.4199915,0.0218153,1.5963905,0.78641194,0.039999694,0.04,-0.027864120931786474,-0.020331636795081764,-0.02086961540201937,-0.13270690613124742,0.11347771465350096,-0.02159448948649298,0.9962494013194874,-0.061758317146576064,-0.060025915570587805,-0.008362421521222222
2688.433333339954,0.09406544,-0.70162255,0.048391342,-2.4211879,0.022223668,1.5968684,0.7864196,0.03999969,0.04,-0.027362505660466496,-0.01983458746945832,-0.021088669744684374,-0.13369903983555098,0.11445604184893722,-0.02195232482754618,0.9961079953656018,-0.06290794845680833,-0.06113955943873079,-0.00856772206106986
2688.450000006621,0.09581204,-0.70008266,0.04929076,-2.4223938,0.022635177,1.5973499,0.7864272,0.03999968,0.04,-0.02805425683920504,-0.019225740770376087,-0.02188130217017914,-0.13467559852296845,0.11542246218841325,-0.022312755487071373,0.9959628678236186,-0.06406577940497417,-0.06226167751903269,-0.00877640805240792
2688.466666673288,0.09757183,-0.69853115,0.050196942,-2.423609,0.023049777,1.597835,0.7864348,0.03999968,0.04,-0.027479793440954303,-0.018732649232949816,-0.02211994314416099,-0.1356364213754569,0.11637092607811911,-0.02267499425240233,0.9958139781881473,-0.06523167907186643,-0.06339208078379611,-0.008988491779028088
2688.4833333399547,0.09934455,-0.6969684,0.051109813,-2.4248335,0.02346743,1.5983238,0.78644246,0.039999682,0.04,-0.02697494268355527,-0.01815119567552259,-0.02240413025360599,-0.13658109692627188,0.1173036057307871,-0.023038499046787335,0.9956612974453751,-0.06640547360212051,-0.06453046135412692,-0.009203988401438185
2688.5000000066216,0.10113004,-0.6953942,0.052029267,-2.4260666,0.0238881,1.5988165,0.7864501,0.03999967,0.04,-0.02589255759020137,-0.017729136004085433,-0.022210323830096357,-0.13751002472653337,0.1182216902076422,-0.023404900313253093,0.995504795592477,-0.06758703142869192,-0.06567651212499187,-0.009422891813739492
2688.5166666732885,0.10292815,-0.693809,0.052955203,-2.4273078,0.024311733,1.5993123,0.7864577,0.039999664,0.04,-0.02488385414662897,-0.017211869425290405,-0.022875186104531764,-0.1384228946998656,0.11912623376751512,-0.02377356230325457,0.9953444252601079,-0.06877623190331891,-0.06683019178912504,-0.00964523168384035
2688.5333333399553,0.10473862,-0.69221294,0.053887513,-2.428558,0.024738276,1.5998116,0.78646535,0.039999656,0.04,-0.025965682260120637,-0.01645207705467111,-0.023677138265010278,-0.13931879153290597,0.12001525814872506,-0.024144327992852477,0.9951801325626728,-0.06997287691590662,-0.06799163700040842,-0.009871045874523365
2688.550000006622,0.10656129,-0.69060594,0.054826107,-2.4298165,0.02516769,1.6003146,0.78647304,0.03999965,0.04,-0.0244861391650808,-0.01611886187901923,-0.022996287386334302,-0.14019837046842057,0.12088678479792246,-0.02451659007795917,0.9950119101292593,-0.07117681480002487,-0.0691602729553358,-0.010100315865823583
2688.566666673289,0.10839596,-0.6889888,0.055770874,-2.4310834,0.025599929,1.6008207,0.7864807,0.03999964,0.04,-0.02443781357654995,-0.015347359947903705,-0.024573627073198878,-0.14106128213377084,0.12174541692154542,-0.02489012414227268,0.9948396951945868,-0.0723879099714824,-0.07033632482610408,-0.010333090779567712
2688.583333339956,0.11024242,-0.68736064,0.05672173,-2.4323583,0.026034938,1.6013302,0.7864884,0.039999627,0.04,-0.024124967482519466,-0.014980424710483997,-0.02369976497011983,-0.14190736565550216,0.12258615492120606,-0.025265778047470572,0.994663452349493,-0.07360602546631513,-0.07151963345297871,-0.010569371125638327
2688.600000006623,0.11210047,-0.68572265,0.057678547,-2.4336412,0.026472684,1.6018423,0.7864961,0.03999962,0.04,-0.023278722419695086,-0.014196079950418161,-0.025207893543344184,-0.14273609708978663,0.12340906248309064,-0.02564281462304565,0.9944831435734056,-0.07483098361589878,-0.07271012723978126,-0.010809182957519805
2688.6166666732897,0.113969885,-0.6840746,0.058641218,-2.4349318,0.026913097,1.6023576,0.7865038,0.03999961,0.04,-0.022588144209079175,-0.01373310247870796,-0.02460421287389103,-0.14354768885207553,0.12421538181611261,-0.026021409921950685,0.9942987565640253,-0.07606263119585445,-0.07390737924846176,-0.011052516610285024
2688.6333333399566,0.11585046,-0.6824166,0.059609637,-2.43623,0.027356144,1.6028763,0.7865115,0.039999604,0.04,-0.022299364422195822,-0.0131600534426346,-0.02484879599544687,-0.14434181749664884,0.12500568096884343,-0.026400462838354,0.9941102616638341,-0.07730080802495783,-0.07511122988026009,-0.01129937516974962
2688.6500000066235,0.11774199,-0.68074894,0.060583696,-2.4375358,0.027801767,1.6033978,0.7865194,0.039999597,0.04,-0.02212758208224308,-0.012479967795386848,-0.025543200692590418,-0.1451182614022993,0.1257788766089293,-0.02678154484191421,0.9939176172781741,-0.07854522821284544,-0.07632181346441567,-0.011549804265521256
2688.6666666732904,0.11964427,-0.67907214,0.0615633,-2.4388485,0.028249916,1.6039224,0.7865275,0.039999586,0.04,-0.020213582247619044,-0.01204268619835469,-0.025385789090237587,-0.14587830394620893,0.12653452647946062,-0.027163664469238496,0.9937208350866347,-0.07979579072165209,-0.07753840653329014,-0.011803779483953083
2688.6833333399572,0.12155709,-0.6773862,0.06254831,-2.4401686,0.028700534,1.6044499,0.7865359,0.039999582,0.04,-0.020910862711986944,-0.011293075361651361,-0.025970716833279006,-0.14662083949837332,0.12727710235938555,-0.027546227760010186,0.9935198668771344,-0.08105224554116709,-0.0787612334945721,-0.012061331252759445
2688.700000006624,0.12348018,-0.67569107,0.063538626,-2.4414961,0.029153572,1.60498,0.78654444,0.03999957,0.04,-0.021043007606813546,-0.010602326761957603,-0.026448020150349194,-0.14734679152555352,0.1280023942082986,-0.02793028512191282,0.9933146512488503,-0.08231449783297032,-0.0799905201174816,-0.012322489692255096
2688.716666673291,0.12541337,-0.6739869,0.06453414,-2.4428306,0.029608987,1.6055131,0.7865531,0.03999956,0.04,-0.019866470342200238,-0.010172562608318225,-0.026138928670538242,-0.14805543817835326,0.1287068245419705,-0.028314633764075513,0.9931051926155977,-0.08358241624288561,-0.0812257211227259,-0.012587228568301299
2688.733333339958,0.12735642,-0.6722745,0.06553473,-2.4441721,0.030066729,1.6060491,0.78656185,0.039999556,0.04,-0.019392739932300174,-0.009415393826794904,-0.026839990358240584,-0.14874595139333915,0.12939443711607043,-0.028698751815073628,0.9928914738279184,-0.08485580812043376,-0.08246664608027218,-0.012855555698734061
2688.7500000066248,0.12930912,-0.67055327,0.06654028,-2.4455206,0.03052673,1.6065874,0.7865707,0.039999545,0.04,-0.01955930363992664,-0.008774171822401033,-0.027101629119297144,-0.149418950602844,0.13006482666425742,-0.02908425250375394,0.9926734316013157,-0.08613450824284064,-0.08371363786080868,-0.013127509997773333
2688.7666666732916,0.13127121,-0.6688239,0.06755067,-2.4468749,0.030988952,1.6071284,0.78657967,0.039999537,0.04,-0.01686116269186133,-0.008395459860310872,-0.026395843736359836,-0.1500736563824559,0.1307134527196326,-0.02946840478922812,0.9924511155040951,-0.08741839536591865,-0.08496567912729032,-0.013403016703834909
2688.7833333399585,0.1332425,-0.6670865,0.0685658,-2.4482358,0.03145332,1.6076721,0.78658867,0.039999522,0.04,-0.018154220101007645,-0.007597784129342866,-0.02725185975702704,-0.15071028592898217,0.1313476952877087,-0.029854376947728065,0.992224465557934,-0.088707294997872,-0.08622311041970292,-0.013682141352316317
2688.8000000066254,0.13522272,-0.6653412,0.069585524,-2.4496028,0.031919815,1.6082181,0.78659767,0.03999951,0.04,-0.017197515532041407,-0.006924317634171562,-0.02748021880469853,-0.15132849993862582,0.13196339812820979,-0.0302402065188579,0.9919934604840197,-0.09000103413427331,-0.08748583377647555,-0.013964852313427477
2688.8166666732923,0.1372117,-0.66358835,0.070609726,-2.450976,0.032388337,1.6087664,0.7866067,0.0399995,0.04,-0.016380056991383007,-0.006382274989702452,-0.027470323192968493,-0.151927767401291,0.13255910298972026,-0.03062510004773341,0.9917580999962615,-0.09129945303204452,-0.08875350818623778,-0.01425116670628015
2688.833333339959,0.13920914,-0.66182804,0.07163829,-2.4523547,0.032858875,1.6093172,0.78661585,0.03999949,0.04,-0.015786746884538516,-0.005751010161292314,-0.027468506856487274,-0.15250852939028894,0.1331371416626273,-0.03101060672810163,0.9915183768414146,-0.09260234912630344,-0.09002594631567357,-0.014541056083513417
2688.850000006626,0.1412148,-0.66006035,0.072671115,-2.4537394,0.033331327,1.6098702,0.78662497,0.039999478,0.039999995,-0.016037356272580183,-0.004998816658807748,-0.027905069566269702,-0.153070395918681,0.13369680687357033,-0.03139603723419683,0.9912742499241182,-0.0939095728579516,-0.09130328159440894,-0.01483456548423382
2688.866666673293,0.1432285,-0.6582856,0.07370806,-2.4551291,0.033805676,1.6104255,0.78663415,0.03999947,0.039999988,-0.014038754181955326,-0.004610447520658756,-0.027410336197597474,-0.1536129995449321,0.1342365312884731,-0.03177901316369784,0.9910257559054843,-0.09522095345204223,-0.09258485309653264,-0.015131626903318263
2688.88333333996,0.14524995,-0.6565043,0.07474902,-2.4565246,0.03428185,1.6109829,0.7866434,0.039999466,0.039999988,-0.014643117536916606,-0.0037233853446949627,-0.028286807059485497,-0.15413671817205699,0.13476024322380448,-0.03216368350155977,0.9907728567033408,-0.09653628186350806,-0.093870853436794,-0.015432290138489188
2688.9000000066267,0.14727896,-0.654716,0.07579388,-2.4579253,0.034759797,1.6115422,0.7866526,0.03999946,0.03999998,-0.014175766321189442,-0.0032081251160109847,-0.02814997048581347,-0.15464124452788505,0.13526421360707816,-0.032546358373008004,0.9905155223064415,-0.09785544386333708,-0.0951613011463869,-0.015736547919841297
2688.9166666732935,0.14931527,-0.65292156,0.07684246,-2.4593306,0.035239454,1.6121037,0.78666186,0.03999945,0.039999973,-0.012114975940646922,-0.0026421982653290765,-0.02766409486067989,-0.15512674403747223,0.13574599427868733,-0.03292851652659721,0.9902538157657677,-0.09917824358688225,-0.09645535769912547,-0.016044323964943444
2688.9333333399604,0.15135859,-0.6511209,0.07789468,-2.4607415,0.035720762,1.612667,0.78667116,0.039999444,0.039999966,-0.013971752895036715,-0.0016479314911166387,-0.028979683550867108,-0.1555923878805399,0.13621303452486022,-0.03330968001679056,0.9899876499836809,-0.10050444073275988,-0.09775377631472291,-0.016355717318265475
2688.9500000066273,0.15340865,-0.64931417,0.0789504,-2.4621568,0.036203675,1.6132324,0.78668046,0.039999433,0.039999958,-0.011433902910873428,-0.0013347986638989617,-0.027659320619677352,-0.15603905244274596,0.13665644577864453,-0.03368875852422506,0.9897170990738919,-0.10183389354441964,-0.0990556035886716,-0.016670612587052172
2688.966666673294,0.1554654,-0.64750177,0.080009505,-2.463576,0.036688123,1.6137992,0.7866898,0.03999942,0.039999947,-0.010623551875399428,-0.0008376417754418775,-0.028246482806748574,-0.1564666711763083,0.13708269880938365,-0.03406776525345164,0.9894421381811982,-0.10316649908826724,-0.10036085344982101,-0.016989048004895244
2688.983333339961,0.15752843,-0.64568394,0.081071846,-2.4649997,0.037174053,1.6143682,0.7866992,0.03999941,0.03999994,-0.010528140564147748,-3.402669476182396e-05,-0.02794106770633853,-0.15687426324607462,0.1374902325950964,-0.03444532673925578,0.9891627977609195,-0.10450201587323293,-0.10166916261904206,-0.0173109669447864
2689.000000006628,0.15959755,-0.6438608,0.08213733,-2.4664273,0.037661415,1.6149386,0.78670853,0.039999396,0.039999925,-0.010048974824461432,0.0006023928692366898,-0.0283934628554805,-0.15726184301473786,0.1378806530867251,-0.034821000774683745,0.988879045151042,-0.10584029397203162,-0.10298069560482187,-0.01763639889049505
2689.016666673295,0.16167247,-0.64203256,0.0832058,-2.4678595,0.03815013,1.6155107,0.78671795,0.03999938,0.03999991,-0.010465190968611537,0.0014256852766347805,-0.028653190150551566,-0.1576296654516,0.13825060011816598,-0.03519490669449842,0.9885908738324735,-0.10718108781436204,-0.10429546918790573,-0.01796534711468921
2689.0333333399617,0.16375299,-0.64019936,0.084277116,-2.4692953,0.03864017,1.6160845,0.78672737,0.03999937,0.0399999,-0.008683364147321626,0.0017879717225777192,-0.027947920996074238,-0.15797817860399635,0.13859963522060775,-0.03556641231801557,0.988298328297788,-0.10852428097272938,-0.10561291423732296,-0.018297733997671324
2689.0500000066286,0.16583881,-0.63836145,0.08535116,-2.4707348,0.039131448,1.6166594,0.7867368,0.039999362,0.039999895,-0.008771845682820079,0.0026544912833825762,-0.028559877500144992,-0.15830651721900985,0.13893003721544545,-0.03593610535396878,0.9880013790378006,-0.10986966534195017,-0.1069332533205489,-0.018633598453743898
2689.0666666732955,0.16792965,-0.63651925,0.08642782,-2.4721775,0.039623905,1.617236,0.7867462,0.039999355,0.039999887,-0.00703054628534705,0.003055412737618113,-0.02767957765652529,-0.1586156070569703,0.13923888409107563,-0.03630409643628715,0.9877001069822353,-0.11121707205060159,-0.1082556802208001,-0.018972855654964333
2689.0833333399623,0.17002529,-0.6346729,0.08750696,-2.4736235,0.0401175,1.6178136,0.7867557,0.039999347,0.03999988,-0.007285056543016033,0.0038772943156628603,-0.028443618786888614,-0.15890416287960935,0.13953024689529692,-0.0366692500260352,0.9873944676626827,-0.11256628302626592,-0.10958059612888736,-0.01931554055199219
2689.100000006629,0.1721255,-0.6328225,0.08858844,-2.4750726,0.04061216,1.6183925,0.78676516,0.039999336,0.039999872,-0.006572007662475343,0.004373012504460538,-0.027983668407705053,-0.15917372447464662,0.1398014802740895,-0.037032563986913423,0.987084495964693,-0.11391717015596742,-0.11090760738018719,-0.019661607131318846
2689.116666673296,0.17423004,-0.63096845,0.08967213,-2.4765246,0.041107822,1.6189728,0.78677464,0.03999932,0.039999854,-0.005763591249063893,0.004950766363215342,-0.027707331532722534,-0.15942248763900366,0.14005265718676999,-0.03739151826162664,0.9867702283422318,-0.11526955728517983,-0.11223637900003437,-0.020011018206448475
2689.133333339963,0.17633861,-0.6291107,0.09075789,-2.47798,0.041604422,1.619554,0.7867841,0.039999306,0.039999843,-0.006477720955033739,0.005877996274866737,-0.02841196362299847,-0.1596512655751332,0.14028609035361247,-0.03774891344716806,0.9864516165754574,-0.11662322024688902,-0.11356737149302716,-0.020363810720907993
2689.15000000663,0.17845099,-0.62724954,0.09184563,-2.4794374,0.042101927,1.6201363,0.78679365,0.039999302,0.03999984,-0.004213834825472773,0.006092081664782478,-0.027423493246447883,-0.15986041102021253,0.14049458324806702,-0.03810287098445162,0.9861287456223299,-0.11797800544724547,-0.11489983965925636,-0.020719897062901626
2689.1666666732967,0.18056688,-0.6253855,0.09293515,-2.480897,0.042600267,1.6207194,0.7868032,0.0399993,0.039999835,-0.003524379262631605,0.006851793336104528,-0.027413186092717368,-0.1600493467342212,0.14068456595232007,-0.03845321808186537,0.9858016538106975,-0.11933372053032018,-0.11623351006586637,-0.021079222619750676
2689.1833333399636,0.18268603,-0.6235185,0.09402637,-2.4823594,0.043099362,1.6213038,0.7868127,0.03999929,0.039999828,-0.004643023081607467,0.007620068066338526,-0.027736322931404267,-0.16021833684156597,0.14085738389233782,-0.03880094417432711,0.9854703125041051,-0.1206901827869308,-0.11756866421269416,-0.021441831711904006
2689.2000000066305,0.18480825,-0.62164915,0.09511913,-2.4838233,0.043599155,1.621889,0.7868222,0.039999284,0.03999982,-0.0017355536741758826,0.007850936864917113,-0.026809507969827173,-0.16036763741888663,0.1410078461286296,-0.03914438170003056,0.9851348187583758,-0.12204730137859095,-0.11890447103994367,-0.021807610204158792
2689.2166666732974,0.18693316,-0.6197773,0.09621332,-2.4852898,0.04409958,1.6224748,0.78683174,0.039999284,0.03999982,-0.003578102182744125,0.009032313365842093,-0.027851185291627445,-0.16049552496630662,0.1411433245695367,-0.039485524622824356,0.984795112145639,-0.12340473424872445,-0.12024165397834437,-0.022176638780760323
2689.2333333399642,0.18906058,-0.6179033,0.09730877,-2.4867575,0.0446006,1.6230613,0.7868412,0.03999928,0.039999817,-0.0010130820270681795,0.009091831554369767,-0.026467651406569814,-0.1606045908553169,0.14125209745550876,-0.039820926508867455,0.984451295818499,-0.12476244000574524,-0.12157932672882855,-0.022548770193870176
2689.250000006631,0.19119024,-0.6160274,0.098405376,-2.4882274,0.045102134,1.6236482,0.78685075,0.039999276,0.039999817,-0.0020355649138270593,0.010124435170483226,-0.027488086763582942,-0.16069278364014633,0.14134532462775076,-0.04015375511126893,0.9841033360514075,-0.12612013825461083,-0.12291794556332401,-0.022924078119304702
2689.266666673298,0.19332187,-0.6141497,0.09950299,-2.4896977,0.04560413,1.6242359,0.7868603,0.039999273,0.039999813,0.0006602322722537579,0.01011296743282375,-0.02550523162210272,-0.1607612043181141,0.1414137039262896,-0.04048088113791619,0.9837513724805925,-0.12747772575627536,-0.12425644980630017,-0.023302387433324825
2689.283333339965,0.19545522,-0.61227065,0.10060149,-2.49117,0.04610651,1.6248242,0.78686976,0.039999265,0.0399998,-0.0008751117472671766,0.01123879897731439,-0.02687266863172777,-0.16080972824032716,0.14146721985473837,-0.04080511940923078,0.9833953512637938,-0.12883501514983448,-0.12559538487403635,-0.023683776777447322
2689.3000000066318,0.19759002,-0.6103903,0.10170074,-2.492643,0.04660924,1.6254125,0.7868793,0.039999258,0.039999794,0.0005936822361718441,0.011659505973954376,-0.026319488800385926,-0.16083749194368252,0.14149721191380843,-0.04112390059577232,0.9830353192136007,-0.13019177658975897,-0.12693456869440045,-0.02406818974046503
2689.3166666732986,0.19972605,-0.6085091,0.10280056,-2.4941168,0.047112234,1.6260012,0.78688884,0.039999254,0.03999979,0.0019884047370632985,0.012031572573034666,-0.02540741328067586,-0.16084591369147158,0.14150680985017372,-0.0414378666336694,0.9826713820072265,-0.13154788394999392,-0.1282732897798196,-0.024455517605417792
2689.3333333399655,0.20186296,-0.606627,0.10390088,-2.4955907,0.047615454,1.6265903,0.7868983,0.039999254,0.03999979,0.0022641853941740564,0.012587067928099271,-0.025156311811858068,-0.16083403862628537,0.14149880952102256,-0.04174750122947955,0.9823035520669493,-0.13290317411896047,-0.1296116027129604,-0.02484573098013951
2689.3500000066324,0.20400049,-0.6047444,0.10500154,-2.497065,0.048118804,1.6271793,0.7869078,0.039999254,0.03999979,0.0024848127811338827,0.013387073315485054,-0.025389630300587385,-0.16080169480408438,0.1414714944942319,-0.042052672392638164,0.9819318600384398,-0.13425741265211386,-0.13094949675415762,-0.02523883296118841
2689.3666666732993,0.20613845,-0.6028614,0.1061024,-2.4985402,0.048622254,1.6277685,0.7869172,0.03999926,0.039999798,0.0023633255450628,0.01390868800827394,-0.025248058717530775,-0.16074977385904737,0.14142455824797,-0.04235235953895404,0.9815563308734195,-0.1356104770780317,-0.13228690839044263,-0.025634775159485472
2689.383333339966,0.20827651,-0.6009784,0.10720333,-2.5000153,0.04912574,1.6283578,0.7869266,0.03999926,0.039999798,0.003825380092892239,0.01436246309832745,-0.024574813009947682,-0.16067733157445682,0.14135486005548348,-0.042645433816327044,0.9811770486846678,-0.13696214868108114,-0.13362345114258217,-0.02603348359041408
2689.400000006633,0.2104145,-0.59909534,0.10830418,-2.50149,0.049629178,1.628947,0.78693604,0.03999926,0.039999798,0.004326148121136519,0.014776397022314702,-0.02414688795975284,-0.1605856332539408,0.14126625302603202,-0.04293476149692321,0.980794055772847,-0.13831229616571053,-0.13495897159519898,-0.026434917741208656
2689.4166666733,0.2125521,-0.5972128,0.10940483,-2.5029645,0.05013252,1.6295362,0.7869455,0.039999258,0.039999794,0.00527085707080488,0.015328379885232168,-0.023812561739244842,-0.16047349557488327,0.14115734592966545,-0.04321766373624145,0.9804074298992191,-0.13966069598546807,-0.13629317140798686,-0.02683901680046355
2689.433333339967,0.21468909,-0.595331,0.110505134,-2.5044382,0.050635703,1.6301253,0.78695494,0.03999925,0.039999783,0.006040460516376633,0.015746302770131004,-0.023279425410160925,-0.16034138457531574,0.14103162283489856,-0.04349466199338229,0.980017237703173,-0.14100725286799717,-0.13762572546195814,-0.027245699373169032
2689.4500000066337,0.21682514,-0.5934499,0.11160497,-2.505911,0.051138658,1.6307139,0.78696436,0.039999247,0.03999978,0.005929882431687794,0.016451452173299463,-0.02333366628295419,-0.16018913409189314,0.14088772376798142,-0.04376701529281332,0.9796234793494842,-0.14235172985477473,-0.13895692118749622,-0.02765497728540023
2689.4666666733006,0.21896002,-0.59157,0.112704195,-2.5073836,0.051641338,1.6313024,0.7869738,0.039999247,0.03999978,0.006325437053145144,0.01703512156202014,-0.023153725264668523,-0.16001714108430762,0.14072193963220936,-0.044031631985148985,0.9792262324029255,-0.14369394661361756,-0.14028646133046324,-0.028066781930797383
2689.4833333399674,0.22109345,-0.5896914,0.11380269,-2.5088553,0.05214367,1.6318904,0.7869832,0.03999925,0.039999783,0.006737803510126206,0.017499828141137597,-0.022732661067959015,-0.15982617062741694,0.14053725247949983,-0.044291970307159215,0.9788255397711926,-0.14503373997331667,-0.14161428311024765,-0.028481077580676455
2689.5000000066343,0.2232252,-0.58781433,0.11490031,-2.5103264,0.052645598,1.632478,0.7869926,0.039999247,0.03999978,0.007123327948099778,0.01802609271750466,-0.02256588504376822,-0.15961519063908347,0.14033006206358128,-0.04454398427585915,0.978421449394902,-0.14637095114314042,-0.14294029418468643,-0.028897825589944436
2689.516666673301,0.22535498,-0.5859388,0.1159969,-2.511795,0.053147048,1.6330647,0.78700197,0.039999243,0.039999772,0.009638057632388453,0.018055638439723465,-0.020940419833137547,-0.15938459687872478,0.14010348431486436,-0.04478847958803267,0.9780140899149306,-0.14770545503812973,-0.14426385580227005,-0.02931686185304956
2689.533333339968,0.22748254,-0.58406556,0.11709236,-2.5132623,0.053647973,1.6336509,0.7870113,0.039999243,0.039999776,0.00908267814678787,0.018820056700113996,-0.021409151978435403,-0.15913415635712383,0.13985895511387117,-0.04502780379943711,0.977603507501784,-0.14903704732435036,-0.14558495938104682,-0.029738195087588678
2689.550000006635,0.22960764,-0.58219457,0.118186526,-2.5147278,0.054148316,1.6342365,0.7870207,0.039999254,0.039999783,0.009499399625712002,0.01924472499439389,-0.020838954034974044,-0.15886434158908272,0.13959576486930275,-0.04526005226856561,0.9771897633860345,-0.15036555581169217,-0.14690348905832668,-0.03016174500053184
2689.566666673302,0.23173,-0.5803259,0.11927929,-2.5161915,0.05464799,1.6348213,0.78703,0.039999258,0.039999783,0.009961511542444512,0.019677638696929955,-0.020362528372253053,-0.15857497031829815,0.1393134278668143,-0.045484739166748465,0.9767729086346755,-0.1516908510771193,-0.1482193544361694,-0.030587475008250386
2689.5833333399687,0.23384938,-0.57846,0.1203705,-2.5176528,0.05514695,1.6354054,0.7870393,0.03999926,0.039999787,0.011175740258617672,0.019943853273962642,-0.019600591990465155,-0.15826615685002923,0.13901187604525672,-0.04570282325435275,0.9763530583861085,-0.15301275657752392,-0.1495321181895843,-0.031015275822987014
2689.6000000066356,0.23596549,-0.57659703,0.121460006,-2.519112,0.055645157,1.6359884,0.7870486,0.03999926,0.039999787,0.01075288329597246,0.020780851923851706,-0.020051780435270672,-0.15793736824178958,0.13869352027533088,-0.04591369487790981,0.9759302127605806,-0.15433105386829044,-0.15084212971203245,-0.03144515124672004
2689.6166666733025,0.23807807,-0.5747372,0.12254771,-2.5205688,0.056142516,1.6365706,0.7870578,0.03999926,0.039999787,0.012018317461026662,0.020816979160553917,-0.018648115939035037,-0.15759025660273862,0.13835397475855035,-0.04611699622139498,0.9755045094027784,-0.15564565269079864,-0.15214874790442443,-0.03187697357679785
2689.6333333399693,0.24018688,-0.5728806,0.123633444,-2.5220237,0.05663897,1.6371516,0.78706706,0.03999926,0.039999783,0.011183395693503684,0.02172062012830711,-0.01931878270076126,-0.15722369803433525,0.1379961050135325,-0.04631297684627304,0.9750759298775818,-0.15695631658853515,-0.15345246528062895,-0.032310780795670464
2689.650000006636,0.24229164,-0.5710277,0.124717124,-2.5234747,0.057134464,1.6377317,0.78707623,0.039999273,0.039999794,0.014420011066618166,0.02125035388361174,-0.016962332398473556,-0.1568381563911703,0.1376164600369761,-0.04650013358639823,0.9746447042105446,-0.15826299797449866,-0.1547520651037811,-0.03274633372728643
2689.666666673303,0.24439216,-0.5691784,0.12579858,-2.5249228,0.05762896,1.6383104,0.7870854,0.039999265,0.039999783,0.013045423874746831,0.022147545514450417,-0.0177596280461767,-0.15643310981963138,0.13722374731134898,-0.04668030630959198,0.9742107916785724,-0.15956547241626115,-0.1560481875401007,-0.033183679046092755
2689.68333333997,0.24648811,-0.5673334,0.12687765,-2.5263677,0.05812237,1.6388881,0.78709453,0.039999254,0.03999977,0.01451325340207088,0.02241615912475514,-0.01670864494822677,-0.156009156842509,0.13681026556858628,-0.04685204016507698,0.9737743542193307,-0.16086359215939233,-0.1573401663337502,-0.03362266854921253
2689.700000006637,0.24857925,-0.5654927,0.12795426,-2.5278099,0.05861465,1.6394643,0.78710365,0.039999254,0.039999772,0.013477588676291674,0.02322161873201667,-0.017368401818163015,-0.15556661418269718,0.13638152844819934,-0.047017554368543484,0.9733353580322269,-0.1621571488024127,-0.15862858064624183,-0.03406337180473697
2689.7166666733037,0.2506653,-0.56365633,0.12902829,-2.529248,0.05910573,1.6400391,0.7871127,0.039999254,0.03999977,0.015667256802709417,0.02291252861481574,-0.01538922045476454,-0.15510551730336314,0.1359292766183809,-0.047171756337609234,0.9728939851622114,-0.16344607597403052,-0.15991259580646502,-0.03450558775503511
2689.7333333399706,0.25274616,-0.5618249,0.13009955,-2.5306828,0.059595548,1.6406126,0.7871218,0.039999258,0.039999772,0.01531594095249833,0.023576032597272256,-0.015707648912766103,-0.154625522478804,0.13546165531207607,-0.047319741376234514,0.9724502873471378,-0.16473019765666247,-0.16119226725654026,-0.0349493003529716
2689.7500000066375,0.25482142,-0.5599983,0.13116796,-2.5321133,0.06008406,1.6411842,0.7871308,0.039999258,0.03999977,0.016489253179075014,0.023757155023829135,-0.014753370797437881,-0.15412669112831565,0.13497664177582608,-0.04745810348014243,0.9720043376234502,-0.1660093618293934,-0.16246751885632726,-0.035394416831815725
2689.7666666733044,0.2568909,-0.55817693,0.13223338,-2.5335402,0.06057118,1.6417545,0.78713965,0.039999265,0.039999776,0.016103193091776546,0.024283281914183608,-0.01458805159491039,-0.15360986984577105,0.13447352255116293,-0.04758907108240189,0.9715562246466045,-0.16728345096579753,-0.1637381462646039,-0.03584088226092526
2689.7833333399713,0.25895426,-0.5563609,0.13329571,-2.534963,0.061056875,1.6423229,0.78714854,0.03999927,0.039999772,0.017121283045917757,0.024492127271441566,-0.013883526059199625,-0.153073287063257,0.1339520393061278,-0.04770906029695605,0.9711060306803222,-0.1685522474172192,-0.16500409871888433,-0.03628862732155045
2689.800000006638,0.26101127,-0.55455047,0.13435479,-2.5363805,0.061541077,1.6428896,0.7871574,0.039999273,0.039999776,0.018505230880849766,0.024471155922783927,-0.012537165317505483,-0.15251950352805366,0.13341238674411196,-0.04782173246291387,0.9706539215342073,-0.16981562433512795,-0.16626477542444187,-0.036737484875746525
2689.816666673305,0.26306176,-0.55274576,0.13541046,-2.5377939,0.06202372,1.6434544,0.78716624,0.03999927,0.03999977,0.01761659716963404,0.025170658550405234,-0.012984081022748839,-0.15194728898832588,0.13285843244866874,-0.0479257354288644,0.97019988608025,-0.17107345219796644,-0.16752058521396335,-0.03718747816821327
2689.833333339972,0.26510552,-0.55094737,0.13646261,-2.5392025,0.06250476,1.6440176,0.787175,0.03999927,0.03999977,0.018967004777370455,0.02515350537162786,-0.011904854568745016,-0.15135765741634286,0.132284205937044,-0.04802043809325826,0.9697440942838265,-0.1723256293882004,-0.16877089661120048,-0.03763845792076603
2689.8500000066388,0.2671422,-0.54915506,0.13751115,-2.5406063,0.062984124,1.6445785,0.78718376,0.039999276,0.039999776,0.018695132577017937,0.025714079731758988,-0.011845616111805235,-0.15074956897054353,0.1316966165102128,-0.04810735220163826,0.9692865522427444,-0.17357193509111746,-0.17001612147807826,-0.038090437483043096
2689.8666666733056,0.26917163,-0.5473692,0.13855593,-2.5420055,0.06346176,1.6451375,0.78719246,0.039999284,0.039999776,0.0187762385031931,0.025986249326570565,-0.011265038946461914,-0.15012331060138284,0.1310899209433883,-0.04818232355993724,0.9688273717422564,-0.1748122620363432,-0.17125597719739324,-0.038543314321607805
2689.8833333399725,0.27119353,-0.54559,0.13959682,-2.543399,0.06393764,1.6456945,0.78720117,0.039999288,0.03999978,0.02071626733337606,0.02575857835939166,-0.009884675676974375,-0.14947990607355083,0.13046430688100982,-0.04824899304758428,0.9683667132188013,-0.17604648224350367,-0.1724899565204757,-0.03899691935356024
2689.9000000066394,0.27320763,-0.5438177,0.14063367,-2.5447874,0.064411715,1.6462495,0.7872098,0.03999929,0.03999978,0.020311064066436124,0.026301719858767836,-0.009654249448876051,-0.1488189848267294,0.12982447123724977,-0.04830604927928785,0.9679046514320448,-0.1772744258755203,-0.17371806913622298,-0.0394511865765637
2689.9166666733063,0.27521378,-0.5420525,0.14166637,-2.5461705,0.06488386,1.6468023,0.7872184,0.0399993,0.039999787,0.020492972299113177,0.026635071719283143,-0.009462420530326199,-0.14814118616853997,0.12916685225633873,-0.048354309554288044,0.9674412316040291,-0.1784959967700817,-0.1749404025689684,-0.03990611580374179
2689.933333339973,0.27721164,-0.5402946,0.14269488,-2.5475478,0.065354064,1.6473526,0.787227,0.039999314,0.039999794,0.021340049128393268,0.02670066494193657,-0.008681195566406785,-0.14744529548027507,0.12849291803006616,-0.04839098242786636,0.9669765662215062,-0.1797110295590135,-0.17615676618358875,-0.04036161494594906
2689.95000000664,0.27920103,-0.5385442,0.14371902,-2.5489187,0.06582226,1.6479006,0.7872355,0.039999317,0.039999798,0.022607217867531837,0.026506254163960463,-0.007285040062399162,-0.14673311743763093,0.12780151009854726,-0.0484189002362968,0.9665108219667405,-0.1809194654103191,-0.1773665956583684,-0.040817506065175424
2689.966666673307,0.28118178,-0.53680164,0.14473866,-2.5502832,0.06628838,1.6484462,0.787244,0.03999932,0.039999798,0.022974427903910133,0.026737330218951083,-0.0068867905434366605,-0.14600326056815263,0.1270979089451122,-0.04843777010339734,0.9660440958398193,-0.18212116062626202,-0.17856978291064707,-0.04127372501257729
2689.983333339974,0.28315347,-0.5350671,0.14575367,-2.551642,0.06675241,1.6489893,0.78725255,0.039999325,0.039999794,0.02208799101701686,0.02756297125289242,-0.007103791645124424,-0.14525583650942964,0.12638005160070837,-0.048446408211184705,0.9655764215317975,-0.18331584238077397,-0.17976668953721595,-0.04173024618794022
2690.0000000066407,0.28511602,-0.53334045,0.14676395,-2.5529945,0.067214265,1.64953,0.787261,0.039999332,0.0399998,0.0226806612626973,0.027348912518254664,-0.006101652437306981,-0.14449362823312656,0.1256444156159167,-0.0484457904743183,0.96510789682315,-0.18450351507696747,-0.1809570648809762,-0.04218697765307968
2690.0166666733076,0.2870691,-0.53162205,0.14776935,-2.5543404,0.06767389,1.650068,0.7872694,0.039999332,0.039999798,0.023642183275107698,0.027506866337578817,-0.005325727023985927,-0.1437140994052381,0.12489331940059811,-0.04843443894305326,0.9646386419395313,-0.18568401552344524,-0.18214072323633085,-0.04264380136774726
2690.0333333399744,0.28901252,-0.52991223,0.14876981,-2.55568,0.06813122,1.6506032,0.78727776,0.039999336,0.039999798,0.02333383707573411,0.02796909828559624,-0.00539918689956842,-0.14291867306702646,0.12412610323075307,-0.04841267749354127,0.9641687095310463,-0.18685721060780383,-0.1833177846125665,-0.04310072214996412
2690.0500000066413,0.29094607,-0.52821124,0.1497652,-2.5570128,0.06858623,1.6511359,0.7872861,0.039999347,0.03999981,0.024570261032152985,0.027577903298592332,-0.00381355092204938,-0.14210751043845618,0.12334055805045395,-0.04838025160122555,0.9636983073733314,-0.1880230002433293,-0.18448757487013193,-0.04355753050633636
2690.066666673308,0.29286972,-0.5265193,0.1507554,-2.5583386,0.069038846,1.6516659,0.7872944,0.039999347,0.039999805,0.024787700599704365,0.02766483891749605,-0.0036592509332633583,-0.14128007976858176,0.12254408478326448,-0.048337939601034906,0.9632274765187716,-0.18918138538946225,-0.18565015871407067,-0.04401420760213314
2690.083333339975,0.2947831,-0.5248364,0.15174022,-2.559657,0.06948903,1.652193,0.78730255,0.039999355,0.039999805,0.02542366936795215,0.027871149379110616,-0.0027142250998757333,-0.14043529043473077,0.1217332295344316,-0.04828468026149456,0.9627563326919433,-0.19033216887860707,-0.18680544857023818,-0.04447059405941851
2690.100000006642,0.29668573,-0.5231627,0.15271966,-2.5609682,0.06993673,1.6527166,0.7873106,0.03999936,0.03999981,0.025502521375075915,0.028255067671867362,-0.0023988892992043986,-0.13957531750414828,0.12090709722650722,-0.0482227299100165,0.9622849431976153,-0.1914751598040658,-0.18795357221547726,-0.04492667319767964
2690.116666673309,0.2985776,-0.52149856,0.15369359,-2.5622716,0.070381895,1.6532378,0.78731847,0.03999937,0.039999813,0.026184768419734716,0.027828891678971512,-0.0010836563056892956,-0.1386996367231156,0.12006630104452393,-0.048148824659456566,0.9618134986958943,-0.1926103816053471,-0.18909385421732003,-0.045382253375570974
2690.1333333399757,0.3004585,-0.519844,0.15466183,-2.5635674,0.07082448,1.653756,0.78732616,0.039999373,0.039999813,0.026208916064018872,0.02817043627437732,-0.0008863845181839025,-0.13780830521440476,0.11921374321618773,-0.04806647283922886,0.9613420463292756,-0.19373767425113578,-0.19022651461454576,-0.04583728474510602
2690.1500000066426,0.30232826,-0.5181994,0.15562433,-2.5648553,0.07126444,1.6542709,0.78733385,0.03999939,0.039999828,0.026866305758899145,0.02814511128537145,-0.0004336893486334148,-0.13690136311534992,0.11834682039852779,-0.047973862053927036,0.960870692850161,-0.19485690112923224,-0.19135144556741374,-0.04629172694148614
2690.1666666733095,0.3041868,-0.51656467,0.15658095,-2.5661356,0.071701676,1.6547828,0.78734154,0.039999403,0.039999835,0.02644050258977515,0.02823728118448443,7.26819140872692e-05,-0.1359791576069011,0.1174668562085986,-0.04787020531193483,0.9603995159528713,-0.19596798757548234,-0.19246862931131503,-0.04674552742380477
2690.1833333399763,0.30603355,-0.5149407,0.15753159,-2.567408,0.0721362,1.6552914,0.7873492,0.039999414,0.039999843,0.02759774771030621,0.028544377992167913,0.0008536496281852379,-0.1350423455275869,0.1165711704496171,-0.047756857745734974,0.9599287116009426,-0.1970706650009469,-0.19357769068921496,-0.04719850959161109
2690.200000006643,0.30786854,-0.5133269,0.15847617,-2.5686727,0.07256792,1.6557965,0.7873569,0.039999418,0.03999984,0.026985094647624663,0.028564478410098015,0.0009685036173046058,-0.13409121136678726,0.11566533510323247,-0.04763215045959672,0.9594582470384951,-0.19816493375821545,-0.19467906868685597,-0.04765072332755024
2690.21666667331,0.30969158,-0.51172346,0.15941451,-2.5699286,0.07299681,1.6562988,0.7873646,0.039999425,0.039999843,0.028100421176757706,0.028002360610990262,0.0027786419233510884,-0.133125682323122,0.1147429109050967,-0.04749529807557217,0.9589883604824424,-0.1992507194033171,-0.19577201731203137,-0.048101897197879336
2690.233333339977,0.31150243,-0.510131,0.16034661,-2.5711758,0.07342282,1.6567973,0.7873723,0.03999943,0.039999843,0.028982612368055882,0.028144405411412166,0.002937133609526299,-0.1321470792663721,0.113808778813782,-0.04735035491569306,0.9585191281793712,-0.2003279364494612,-0.19685654661973512,-0.048552022049662115
2690.250000006644,0.31330085,-0.5085495,0.16127233,-2.5724144,0.07384591,1.6572922,0.78738,0.039999437,0.039999846,0.028607038187100642,0.028369008186590605,0.0033255928530984136,-0.13115373394751273,0.11286359559083566,-0.04719446360831556,0.9580506285787294,-0.20139643801136217,-0.19793273517500815,-0.049001022258491456
2690.2666666733107,0.31508666,-0.5069792,0.16219151,-2.5736442,0.074266024,1.6577843,0.78738767,0.039999444,0.039999846,0.029118671445060862,0.028066703942952742,0.004651114914611121,-0.13014651890578952,0.11190655095531048,-0.047027336747122006,0.9575830637683949,-0.20245614149365404,-0.19900003253001855,-0.04944869875423966
2690.2833333399776,0.3168597,-0.5054201,0.1631041,-2.574865,0.07468312,1.6582726,0.78739536,0.039999455,0.039999858,0.02899700559746421,0.028366499609544515,0.004420022274187474,-0.12912647326278642,0.1109396665837876,-0.04685248147825323,0.9571164088353025,-0.20350695092425305,-0.20005894120711518,-0.04989509902601475
2690.3000000066445,0.3186198,-0.5038726,0.16401,-2.5760772,0.075097166,1.6587571,0.78740305,0.03999947,0.039999865,0.02943333559939365,0.02835084337173832,0.0049418868799167015,-0.12809265843131892,0.10995979759291563,-0.04666480738531836,0.9566507903453196,-0.2045487888243143,-0.20110924898634291,-0.05034012608576239
2690.3166666733114,0.32036668,-0.50233656,0.16490915,-2.5772808,0.075508066,1.6592381,0.78741074,0.039999466,0.03999986,0.02892100140972076,0.028488404704563042,0.0054897095443484645,-0.12704634304158804,0.10896756103296021,-0.046468105707338496,0.9561862944759112,-0.20558153515516178,-0.20215097164962134,-0.050783730867149116
2690.3333333399783,0.3221001,-0.5008124,0.16580139,-2.578475,0.075915836,1.6597155,0.7874184,0.039999463,0.039999854,0.03018787603692452,0.028166737640578088,0.006734605233083002,-0.1259870737216902,0.10796191156235557,-0.0462586699616698,0.9557231108955867,-0.20660506633236408,-0.20318368510287674,-0.051225696421586656
2690.350000006645,0.32382005,-0.49930024,0.16668662,-2.5796592,0.07632042,1.660189,0.7874261,0.03999947,0.039999858,0.031195492689639615,0.027659974970151158,0.007640510219508734,-0.12491569201786473,0.10694605800989537,-0.04603938055185492,0.9552613450616043,-0.20761941845236362,-0.20420717820258014,-0.05166592768098422
2690.366666673312,0.32552627,-0.4978002,0.1675648,-2.5808344,0.07672176,1.6606587,0.7874338,0.039999485,0.03999987,0.03000538315811596,0.028291184137185788,0.007272905187694079,-0.12383228419993843,0.10592052859146583,-0.04581122368042988,0.9548010226134558,-0.20862442034638906,-0.2052217942041099,-0.05210444928293789
2690.383333339979,0.32721862,-0.4963124,0.16843583,-2.5819998,0.077119805,1.6611246,0.7874415,0.039999492,0.03999987,0.031001631145821662,0.027748401640437237,0.008492527822978602,-0.12273602467359805,0.10488437717557259,-0.045571806355321334,0.9543422969430512,-0.20962006545311326,-0.20622715482241283,-0.05254111760085057
2690.4000000066458,0.3288968,-0.49483705,0.16929963,-2.5831554,0.077514514,1.6615866,0.7874492,0.03999951,0.03999989,0.031108582120698003,0.027860723200190396,0.009080274545669731,-0.12162903116290857,0.10383593148492504,-0.04532370421379976,0.9538852843159723,-0.21060619841967915,-0.20722319884280407,-0.05297583802077159
2690.4166666733126,0.33056077,-0.49337417,0.17015606,-2.5843015,0.07790588,1.6620448,0.78745687,0.03999953,0.03999991,0.030786278928562893,0.027896240697133923,0.00915991367536062,-0.12051044785803423,0.1027793940893619,-0.04506622325935185,0.9534300254872383,-0.2115827740247747,-0.20821009078706904,-0.05340856045453425
2690.4333333399795,0.33221036,-0.49192405,0.17100501,-2.585437,0.07829385,1.6624986,0.7874645,0.039999552,0.039999936,0.03224766305367499,0.027386614374991236,0.010442519900388803,-0.11938064685681408,0.10171078746688492,-0.044797634370946325,0.9529766831027715,-0.212549768090692,-0.20918744587397856,-0.053839112508973754
2690.4500000066464,0.33384547,-0.49048683,0.17184652,-2.5865626,0.07867841,1.6629486,0.7874721,0.03999958,0.03999998,0.03166524982542995,0.02731345546206354,0.01068040244864843,-0.11824173347108301,0.10063084166705875,-0.04452407489466696,0.9525253447644781,-0.21350714142314256,-0.21015520344883842,-0.05426747281758865
2690.4666666733133,0.3354657,-0.48906267,0.17268036,-2.587678,0.079059474,1.6633947,0.78747976,0.039999604,0.04,0.03206384535061613,0.02746894701189939,0.011531539537057434,-0.11709085483887445,0.0995429486625839,-0.04423999247122626,0.9520761543592071,-0.21445467167859372,-0.21111326930336058,-0.054693487910870135
2690.48333333998,0.3370711,-0.48765162,0.17350656,-2.5887833,0.079436995,1.6638367,0.7874874,0.039999627,0.04,0.03172043865133922,0.02736675547626577,0.01152271904751867,-0.1159305010261355,0.09844729511025485,-0.04394728735980598,0.9516291314138573,-0.21539240231731843,-0.21206179367091949,-0.055117192722000774
2690.500000006647,0.3386613,-0.48625386,0.17432499,-2.589879,0.079811014,1.6642747,0.78749496,0.03999964,0.04,0.031201325641561084,0.027751750921689577,0.011582023756062654,-0.11476422883966818,0.0973371244827362,-0.04365300276675979,0.9511843463766194,-0.2163201529833495,-0.21300095433028932,-0.055538491838809295
2690.516666673314,0.34023637,-0.4848695,0.17513558,-2.5909634,0.080181405,1.6647084,0.78750247,0.039999653,0.04,0.033724642249022274,0.026355079221396238,0.013848482199285694,-0.11358449581383201,0.09621837006842655,-0.0433399561284531,0.9507420318318016,-0.21723805990111086,-0.2139299180409682,-0.055957165812105567
2690.533333339981,0.3417961,-0.4834987,0.17593831,-2.592037,0.080548175,1.6651379,0.78751,0.039999656,0.04,0.032812911423985014,0.026647109033928196,0.013609060008712426,-0.11239269150577702,0.09509736054967022,-0.04301672962786988,0.9503022260113526,-0.2181459982795533,-0.21484893146063702,-0.0563732145855438
2690.5500000066477,0.34334028,-0.48214152,0.176733,-2.5931,0.08091131,1.6655629,0.7875173,0.039999656,0.04,0.032555384294363776,0.026976327243422027,0.013641132643360532,-0.11119175074634484,0.09396641632118075,-0.04268530280075675,0.9498649572519166,-0.21904388495107924,-0.21575825677990304,-0.0567865660315059
2690.5666666733146,0.3448688,-0.48079818,0.17751962,-2.594152,0.08127076,1.6659834,0.7875243,0.039999668,0.04,0.033561662091052824,0.026260423642621156,0.01491491270558809,-0.10997681114675567,0.09282967862156552,-0.0423364970917685,0.9494303772915046,-0.21993183230574082,-0.21665743942226642,-0.05719704326044911
2690.5833333399814,0.34638157,-0.47946882,0.17829812,-2.5951931,0.081626475,1.6663997,0.7875308,0.039999668,0.04,0.03299458106591491,0.026415896205744804,0.01493356568464943,-0.10875179074750746,0.09168620377575003,-0.04198035497189927,0.9489985257542547,-0.22080983450504788,-0.21754659755175038,-0.057604626513512475
2690.6000000066483,0.34787846,-0.4781534,0.17906846,-2.5962234,0.08197847,1.6668118,0.7875366,0.039999656,0.04,0.03316564911104436,0.026011699086569973,0.01565495845916587,-0.10751235706875625,0.09053736498568203,-0.04160955693544311,0.9485694880737413,-0.22167795211923993,-0.2184256098308271,-0.05800917866830594
2690.616666673315,0.34935927,-0.47685224,0.17983048,-2.5972428,0.08232668,1.6672195,0.78754246,0.03999965,0.04,0.03308649595281654,0.026276968163774228,0.015776594345628947,-0.1062631378052125,0.0893794900870033,-0.04123453448754924,0.9481434093875476,-0.22253574189718187,-0.21929456551324336,-0.05841072118700522
2690.633333339982,0.35082382,-0.4755653,0.18058419,-2.5982506,0.082671046,1.6676227,0.7875483,0.03999964,0.04,0.03420614530584842,0.025525568329420878,0.017136822192187484,-0.10500631462871718,0.08821376775584636,-0.0408507852094012,0.9477204457316073,-0.22338321384033763,-0.22015309204978362,-0.0588091198502835
2690.650000006649,0.35227203,-0.4742928,0.18132952,-2.599248,0.08301159,1.6680211,0.78755414,0.03999963,0.04,0.032776640886011954,0.026255685631537684,0.01608355399522754,-0.10374150640760355,0.087042722251804,-0.040458308238772146,0.9473005418439935,-0.22422024659273973,-0.22100180381205017,-0.05920445212809254
2690.666666673316,0.35370383,-0.4730346,0.18206637,-2.6002333,0.08334826,1.6684152,0.78756,0.039999623,0.04,0.03433309923921435,0.024918716603750113,0.018345726937996076,-0.1024690628568897,0.08586217347609526,-0.04005517496375284,0.9468839487398977,-0.22504690999094923,-0.22183989871380871,-0.059596436646090614
2690.6833333399827,0.35511905,-0.4717909,0.18279469,-2.6012075,0.083681025,1.6688046,0.78756577,0.039999615,0.04,0.03360565701775453,0.025423768441801275,0.01776593327011966,-0.10118920068742658,0.08467720138671503,-0.03964523372967578,0.9464706524774892,-0.22586312245477264,-0.22266777732240298,-0.05998512195633965
2690.7000000066496,0.35651758,-0.47056216,0.18351442,-2.60217,0.084009856,1.6691896,0.78757155,0.039999623,0.04,0.03449600741856074,0.024874553303932956,0.018820423424714683,-0.09990122210220743,0.08348642045834122,-0.03922465555283918,0.9460608393557466,-0.22666884508794335,-0.2234849960014375,-0.060370352543576214
2690.7166666733165,0.3578993,-0.46934813,0.18422554,-2.6031208,0.08433472,1.6695697,0.78757733,0.039999623,0.04,0.0341881272679867,0.02478188656694913,0.01898417767467464,-0.09860734634730363,0.08229169548219792,-0.03879827366990267,0.9456545248792919,-0.22746404556003055,-0.22429178927558263,-0.06075212602323153
2690.7333333399833,0.35926425,-0.46814904,0.18492796,-2.6040602,0.08465563,1.6699454,0.7875831,0.039999623,0.04,0.03398615654643944,0.024606046600061937,0.01925247017908749,-0.09730602153704254,0.08109101788550725,-0.03836197148740772,0.9452517966273749,-0.2282487154157267,-0.2250880813045265,-0.06113035693039463
2690.75000000665,0.3606122,-0.4669648,0.18562162,-2.604987,0.08497256,1.6703166,0.7875889,0.039999627,0.04,0.03531636761533452,0.02357054695443228,0.02102372251239215,-0.09599811598640029,0.07988672004666117,-0.03791795223877786,0.9448528631657168,-0.22902286008222908,-0.22587331571578434,-0.0615048109895513
2690.766666673317,0.36194304,-0.46579573,0.18630649,-2.6059031,0.085285455,1.6706829,0.7875947,0.039999623,0.04,0.032801913630309265,0.025227039988573452,0.018812924715760904,-0.09468377939109815,0.07868169977482792,-0.0374684514598302,0.944457551662017,-0.22978627152505818,-0.22664861053262525,-0.06187576157778733
2690.783333339984,0.36325666,-0.46464172,0.18698251,-2.6068072,0.085594304,1.6710443,0.78760046,0.039999627,0.04,0.03474345046021732,0.023772555350243252,0.02093660176007983,-0.09336461142322562,0.07746652338550958,-0.037007326045421084,0.9440660912177588,-0.23053904385529686,-0.2274132400069187,-0.062242934865440885
2690.800000006651,0.36455306,-0.46350288,0.18764964,-2.6076992,0.08589909,1.6714011,0.78760624,0.039999627,0.04,0.03471144967819306,0.023432428605474342,0.021431136376237614,-0.09203987989270351,0.07624736129038147,-0.036539660821563257,0.9436785781139253,-0.23128118560555233,-0.22816707108574413,-0.06260624622130997
2690.8166666733177,0.36583218,-0.46237934,0.18830788,-2.6085796,0.08619978,1.6717532,0.787612,0.03999963,0.04,0.033830434466408654,0.023769069855450464,0.020893348979722504,-0.09070969438739647,0.07502696189864921,-0.03606476487527455,0.943294992948318,-0.23201265560719506,-0.22891045343885297,-0.06296577024978431
2690.8333333399846,0.36709383,-0.46127126,0.18895705,-2.6094472,0.08649641,1.6721003,0.7876178,0.039999627,0.04,0.03571440153096184,0.022672281314961573,0.02281989659865813,-0.08937412004113379,0.07380080346406671,-0.03558112836467209,0.9429155842655931,-0.2327334189685573,-0.22964273165435964,-0.06332118478522732
2690.8500000066515,0.36833796,-0.46017852,0.18959731,-2.6103034,0.086788915,1.6724426,0.7876235,0.03999963,0.04,0.033682314683569636,0.023444609358380664,0.021487626782090707,-0.08803413856096068,0.0725751948291782,-0.035092653521887396,0.942540219102787,-0.23344347240640415,-0.23036463729133871,-0.06367271354466308
2690.8666666733184,0.3695644,-0.4591012,0.19022846,-2.611147,0.08707725,1.6727802,0.78762925,0.03999963,0.04,0.03512284496602902,0.022418116321909487,0.0233934785400014,-0.08669024041108112,0.07134289090633478,-0.03459579413966368,0.9421691480539476,-0.23414277242055195,-0.23107550413049474,-0.06402007473718048
2690.8833333399853,0.37077335,-0.45803955,0.19085051,-2.6119783,0.087361455,1.6731126,0.78763497,0.039999627,0.04,0.03471663241783052,0.022500445256379287,0.022733731082635877,-0.08534176127852751,0.07011193327975389,-0.03409241325798156,0.9418023306053279,-0.23483136606953373,-0.2317756686689245,-0.0643633357538454
2690.900000006652,0.37196448,-0.4569934,0.19146344,-2.6127977,0.08764149,1.6734403,0.7876407,0.039999623,0.04,0.03411259232288799,0.022518836534080044,0.0231092788112508,-0.08398935287827967,0.06887813234713214,-0.033582236042912425,0.9414398411139071,-0.23550914558426528,-0.232465185768385,-0.06470243670265341
2690.916666673319,0.37313786,-0.45596296,0.19206719,-2.613605,0.08791733,1.6737633,0.78764635,0.039999623,0.04,0.034514177124900236,0.02206347790987273,0.023661900413229908,-0.08263256392440085,0.0676421328538407,-0.03306261131887295,0.9410817709774808,-0.23617618364128723,-0.2331438643682979,-0.06503729024138309
2690.933333339986,0.3742934,-0.4549482,0.19266179,-2.6143997,0.08818899,1.6740811,0.78765196,0.039999615,0.04,0.034988016060388816,0.02157204409203306,0.02417782226756815,-0.08127425647561491,0.06640288908210154,-0.03253869714723546,0.9407281811842755,-0.23683249355658217,-0.23381169030734186,-0.06536782539690406
2690.9500000066528,0.37543106,-0.45394912,0.19324721,-2.6151822,0.08845642,1.6743939,0.7876575,0.039999608,0.04,0.03431608993824664,0.021662900605745605,0.02401168018517641,-0.07991321715142616,0.06516362565366679,-0.03201074861963006,0.9403790848587193,-0.23747807032303878,-0.23446882939901262,-0.06569407063183016
2690.9666666733197,0.37655076,-0.45296583,0.19382338,-2.615952,0.088719636,1.674702,0.787663,0.039999608,0.04,0.034837479431826246,0.020998429694452092,0.02511323844558433,-0.07854983077297291,0.06392066894283088,-0.03147626449618317,0.9400346497854265,-0.23811290116268038,-0.23511489328650595,-0.0660158349000995
2690.9833333399865,0.37765244,-0.45199832,0.19439037,-2.61671,0.088978596,1.6750053,0.7876684,0.039999604,0.04,0.03389102688569068,0.021389297438623167,0.02440076996996776,-0.07718374231806895,0.06268074191493493,-0.03093678349219663,0.9396948178435288,-0.23873695822372623,-0.23575032464565013,-0.06633323846738308
2691.0000000066534,0.3787362,-0.45104674,0.19494803,-2.6174552,0.08923333,1.6753032,0.78767335,0.039999604,0.04,0.034834166665964617,0.02070078772038464,0.02506821782175539,-0.07581672210671277,0.06143749585590252,-0.030391999018489758,0.9393596201144937,-0.23935049708876854,-0.23637499962631897,-0.06664610411247672
2691.0166666733203,0.3798019,-0.450111,0.19549638,-2.6181884,0.08948382,1.6755966,0.78767776,0.0399996,0.04,0.0340218565923589,0.020608592386617275,0.025422793593399273,-0.07444598557869982,0.06019401883326088,-0.029842371083514247,0.9390291478109615,-0.23995350187279008,-0.23698879916945567,-0.06695435436641699
2691.033333339987,0.38084954,-0.44919118,0.19603547,-2.6189091,0.08973008,1.6758847,0.7876817,0.039999593,0.04,0.03431936643711886,0.020368321774610898,0.02535688586472462,-0.07307253193295275,0.05895006000940231,-0.02928890353814183,0.9387033931032261,-0.24054598345791778,-0.2375919354429122,-0.06725802428888532
2691.050000006654,0.38187912,-0.44828728,0.19656527,-2.6196172,0.089972034,1.676168,0.78768563,0.039999593,0.04,0.03448594334938271,0.01983699032247488,0.026112264217192926,-0.07169675581603938,0.057705475157615635,-0.028732131571717338,0.9383825246559452,-0.2411277668394677,-0.23818412791119772,-0.06755707727934933
2691.066666673321,0.38289052,-0.44739923,0.19708577,-2.6203127,0.09020973,1.6764463,0.78768957,0.039999593,0.04,0.034324974186783486,0.019646827726804705,0.026351160578386157,-0.07032007371882876,0.05646150886142282,-0.028169670331699957,0.9380665926033095,-0.24169881364917425,-0.23876543236910636,-0.06785145265793638
2691.083333339988,0.38388395,-0.4465271,0.19759691,-2.6209962,0.090443164,1.6767195,0.7876935,0.039999597,0.04,0.033438179815847846,0.019915576467366414,0.02551356853146558,-0.06894435497845178,0.055220060133041794,-0.027604781192502276,0.9377555195680415,-0.24225916324932548,-0.23933627760796355,-0.0681412471427769
2691.1000000066547,0.38485914,-0.445671,0.19809876,-2.6216671,0.09067236,1.6769878,0.78769743,0.039999593,0.04,0.03431168766090398,0.019181110737831464,0.026694170435603848,-0.06756835524345065,0.05397762967921809,-0.02703379202526839,0.9374494775231448,-0.24280879601605493,-0.23989624514449234,-0.06842629052046054
2691.1166666733216,0.38581616,-0.44483072,0.1985913,-2.622325,0.090897284,1.6772511,0.7877013,0.039999597,0.04,0.034580427363795074,0.01849223083750795,0.02742972340653571,-0.06619406527267975,0.05273763792335428,-0.026460046754549164,0.9371485333252632,-0.24334782237252892,-0.2404451752375623,-0.06870648832413107
2691.1333333399884,0.38675517,-0.4440064,0.1990745,-2.6229706,0.091117956,1.6775094,0.7877052,0.039999597,0.04,0.03348538905576515,0.018912698188344734,0.02641635737444803,-0.06482058883948615,0.05150125993402933,-0.025883415071697655,0.9368526146932767,-0.24387623411971093,-0.2409835060519235,-0.06898195840131696
2691.1500000066553,0.38767597,-0.44319803,0.19954836,-2.6236036,0.091334336,1.6777625,0.78770906,0.0399996,0.04,0.0339315877341706,0.018569451417638216,0.02706267409838814,-0.06344884859342738,0.05026640276917176,-0.025304735296008813,0.9365617984867295,-0.24439398918826855,-0.24151117759093507,-0.06925263000483906
2691.166666673322,0.38857862,-0.4424055,0.20001289,-2.6242242,0.09154648,1.6780108,0.78771293,0.0399996,0.04,0.03344944892089696,0.018240377329659108,0.02722976008793232,-0.062078268426300494,0.04903409890282973,-0.024719269682913336,0.9362761393443253,-0.2449011306252884,-0.24202812666940557,-0.06951843650312711
2691.183333339989,0.38946322,-0.4416289,0.20046817,-2.6248326,0.09175439,1.6782541,0.7877168,0.0399996,0.04,0.03317152060733353,0.018167472345809177,0.026895893159828432,-0.0607117108743066,0.04780434665823944,-0.02413383731371412,0.9359956101226622,-0.24539772572692614,-0.24253454044466888,-0.06977944346618907
2691.200000006656,0.39032978,-0.4408683,0.20091408,-2.6254287,0.09195806,1.6784923,0.7877207,0.0399996,0.04,0.03341983187608033,0.017826581405933073,0.027270328349282558,-0.05934717802194714,0.046578100548399864,-0.023545047436144176,0.9357202684749474,-0.2458837854509161,-0.2430303719182102,-0.07003557340949446
2691.216666673323,0.39117834,-0.44012347,0.20135076,-2.6260116,0.09215744,1.6787256,0.7877245,0.0399996,0.04,0.033985006445425014,0.016853132132044202,0.028279368409189765,-0.057986542522350484,0.045353326408057,-0.022953692142568927,0.9354502079889988,-0.24635948584141437,-0.2435152695840914,-0.07028673835568179
2691.2333333399897,0.39200893,-0.43939447,0.20177816,-2.6265829,0.0923526,1.6789541,0.7877283,0.0399996,0.04,0.032199677581878916,0.0177204222640559,0.02693290567578055,-0.0566282668974782,0.044135952906236925,-0.022361560140064463,0.9351853344804666,-0.24682469973409207,-0.24398984740978483,-0.07053305703556927
2691.2500000066566,0.3928215,-0.43868122,0.20219631,-2.6271415,0.09254357,1.6791776,0.7877321,0.039999597,0.04,0.03319115369029291,0.016813391815506673,0.027937123104992967,-0.05527447985068685,0.04292130249534734,-0.021766627328245296,0.934925749537402,-0.24727949384113923,-0.24445383868448292,-0.07077439883190613
2691.2666666733235,0.39361617,-0.43798372,0.20260523,-2.6276875,0.09273029,1.6793963,0.78773594,0.039999597,0.04,0.03312540411271048,0.016465510835184105,0.02810361584149046,-0.053925925344938015,0.04171132720430232,-0.02117266318984306,0.934671481768042,-0.24772397371281876,-0.2449071755519713,-0.07101076946927982
