rsonawane2002/My_IMU/logs_2/traj_357/imu_357.csv
time,j1,j2,j3,j4,j5,j6,j7,gripper1,gripper2,imu_ax,imu_ay,imu_az,imu_gx,imu_gy,imu_gz
1172.3333333325959,0.00016700293,-0.785875,4.0107683e-05,-2.3551247,9.29385e-05,1.570997,0.786,0.04,0.04,-9.479698,-0.010944771580398083,0.09269115,-4.899897e-07,-0.0011641273740679026,6.354963e-07
1172.3499999992625,0.00016700276,-0.78576016,4.0117407e-05,-2.3552213,9.297783e-05,1.5709941,0.786,0.04,0.04,-9.834492,0.000630105147138238,0.009070271,5.1246485e-07,-0.0022382433526217937,1.0995088e-06
1172.3666666659292,0.00016698154,-0.7856541,4.0145937e-05,-2.35531,9.304091e-05,1.5709913,0.786,0.04,0.04,-9.832224,0.0006490180385299027,0.007662874,4.963447e-06,-0.003221629187464714,2.2710988e-06
1172.3833333325958,0.0001669055,-0.78555655,4.0225066e-05,-2.355391,9.317112e-05,1.5709884,0.786,0.04,0.04,-9.830354,0.000672480498906225,0.006343833,1.7166201e-05,-0.004119724500924349,4.6118657e-06
1172.3999999992625,0.00016672655,-0.7854664,4.040037e-05,-2.3554654,9.343108e-05,1.5709856,0.786,0.04,0.04,-9.828129,0.0007069713901728392,0.005306658,4.067836e-05,-0.004930019844323397,8.642248e-06
1172.4166666659291,0.00016638346,-0.78538287,4.0729847e-05,-2.3555331,9.390017e-05,1.5709827,0.7860019,0.04,0.04,-9.826259,0.0007588259759359062,0.004302091,7.930326e-05,-0.005657488480210304,1.4834754e-05
1172.4333333325958,0.00016580377,-0.78530526,4.128263e-05,-2.3555984,9.467275e-05,1.570983,0.7860038,0.04,0.04,-9.824099,0.0008103588479571044,0.0034973086,0.00012777741,-0.006301773712038994,2.3624134e-05
1172.4499999992624,0.0001649042,-0.7852328,4.2137835e-05,-2.3556576,9.585738e-05,1.5709836,0.78600764,0.04,0.04,-9.822559,0.0008759851334616542,0.0026511191,0.0001980829,-0.006865937728434801,3.536462e-05
1172.466666665929,0.00016359259,-0.7851648,4.3383418e-05,-2.3557153,9.7575496e-05,1.5709845,0.78601146,0.04,0.04,-9.820403,0.0009490306256338954,0.0020409843,0.00028517962,-0.007347273640334606,5.043101e-05
1172.4833333325957,0.0001617682,-0.78510046,4.511516e-05,-2.3557684,9.9967896e-05,1.5709853,0.7860172,0.04,0.039999995,-9.818882,0.001038244110532105,0.0014857566,0.00040101493,-0.007765904534608126,6.9853486e-05
1172.4999999992624,0.0001593233,-0.7850391,4.743606e-05,-2.3558192,0.00010316381,1.5709863,0.78602576,0.04,0.039999995,-9.816969,0.0011212194804102182,0.0009645936,0.0005399724,-0.00810837373137474,9.235155e-05
1172.516666665929,0.00015614336,-0.78498024,5.045517e-05,-2.3558698,0.000107321604,1.5709872,0.7860372,0.04,0.03999999,-9.815197,0.0012265413533896208,0.00054604467,0.0007007918,-0.008383788168430328,0.00011975066
1172.5333333325957,0.00015210858,-0.78492284,5.4287197e-05,-2.3559196,0.00011257767,1.5709916,0.78605115,0.04,0.039999995,-9.813725,0.001326746423728764,0.00014041812,0.00088660483,-0.008601629175245762,0.00014993102
1172.5499999992624,0.00014709392,-0.7848661,5.905143e-05,-2.3559692,0.00011909597,1.5709964,0.7860685,0.04,0.04,-9.811996,0.0014406300615519285,-0.0003346624,0.0011021617,-0.008742288686335087,0.00018466906
1172.566666665929,0.00014097017,-0.78480947,6.487096e-05,-2.3560188,0.00012706495,1.5710012,0.7860899,0.04,0.039999995,-9.810441,0.0015824595466256142,-0.0007122401,0.0013464474,-0.008824916556477547,0.00022565572
1172.5833333325957,0.0001336047,-0.78475255,7.187278e-05,-2.3560686,0.00013664772,1.5710096,0.78611565,0.04,0.039999995,-9.808867,0.0017033156473189592,-0.0010913579,0.001618987,-0.008850648999214172,0.00027065503
1172.5999999992623,0.00012486157,-0.7846947,8.018676e-05,-2.3561192,0.00014801185,1.5710182,0.7861463,0.04,0.04,-9.807143,0.0018523422768339515,-0.0015203313,0.0019214835,-0.00880108680576086,0.00031981515
1172.616666665929,0.00011460225,-0.7846351,8.994503e-05,-2.3561702,0.0001613493,1.5710305,0.78618205,0.04,0.04,-9.805547,0.0020067922305315733,-0.0018916149,0.0022539904,-0.008694631978869438,0.00037479933
1172.6333333325956,0.00010268623,-0.78457296,0.00010128175,-2.356226,0.00017684327,1.5710429,0.78622365,0.04,0.04,-9.803759,0.00217714486643672,-0.0023331677,0.0026184744,-0.008514284156262875,0.00043486027
1172.6499999992623,8.897125e-05,-0.78450805,0.00011433269,-2.3562841,0.00019469741,1.571059,0.7862715,0.04,0.03999999,-9.802712,0.002356979064643383,-0.0027911132,0.0030138672,-0.008297167718410492,0.00050161197
1172.666666665929,7.331426e-05,-0.78443956,0.00012923543,-2.3563445,0.00021505875,1.5710754,0.7863263,0.04,0.04,-9.801051,0.002534955507144332,-0.003306751,0.0034410313,-0.008013232611119747,0.00057041465
1172.6833333325956,5.557066e-05,-0.784367,0.00014612748,-2.3564103,0.00023813709,1.5710955,0.7863883,0.04,0.04,-9.799569,0.002735879272222519,-0.0038498673,0.0038994404,-0.007677679415792227,0.0006460678
1172.6999999992622,3.5595724e-05,-0.78428966,0.0001651475,-2.3564808,0.0002641133,1.571119,0.786458,0.04,0.04,-9.798211,0.0029586157761514187,-0.0044787307,0.004389937,-0.007288732100278139,0.0007262749
1172.7166666659289,1.3244173e-05,-0.7842069,0.00018643384,-2.3565547,0.00029319426,1.5711437,0.7865361,0.04,0.04,-9.796963,0.003183037508279085,-0.0052505904,0.0049130875,-0.0068456800654530525,0.00081310107
1172.7333333325955,-1.1628771e-05,-0.7841185,0.00021012548,-2.3566358,0.0003255506,1.5711714,0.78662294,0.039999995,0.04,-9.79545,0.003412742167711258,-0.0060171564,0.005467808,-0.006351242307573557,0.0009036734
1172.7499999992622,-3.916806e-05,-0.78402376,0.00023636072,-2.3567238,0.00036138113,1.5712029,0.78671914,0.039999995,0.04,-9.794221,0.0036889114417135715,-0.006853245,0.0060549276,-0.005814180243760347,0.0010002638
1172.7666666659288,-6.9517846e-05,-0.78392184,0.0002652775,-2.356819,0.00040087302,1.5712382,0.7868253,0.03999999,0.039999995,-9.7931185,0.0039407601580023766,-0.007908335,0.006673637,-0.005228452384471893,0.0011020164
1172.7833333325955,-0.00010282167,-0.78381294,0.00029701306,-2.3569171,0.0004442112,1.5712764,0.78694177,0.039999988,0.039999995,-9.7918215,0.0042422376573085785,-0.009004034,0.0073236595,-0.004597221501171589,0.0012080638
1172.7999999992621,-0.00013922216,-0.7836955,0.0003317035,-2.3570232,0.00049158494,1.5713181,0.78706896,0.03999998,0.039999988,-9.790164,0.004535608924925327,-0.010225762,0.008005278,-0.0039011610206216574,0.001320002
1172.8166666659288,-0.00017886063,-0.7835701,0.0003694843,-2.3571372,0.0005431783,1.5713636,0.7872074,0.039999973,0.03999998,-9.788936,0.00487291906028986,-0.011535227,0.008718491,-0.0031657477375119925,0.001436952
1172.8333333325954,-0.00022187729,-0.7834361,0.00041048953,-2.3572636,0.00059917424,1.5714128,0.78735775,0.03999997,0.039999977,-9.787848,0.005193361081182957,-0.013028639,0.009463303,-0.00238368334248662,0.0015588326
1172.849999999262,-0.00026841092,-0.7832927,0.00045485207,-2.3573978,0.00065975334,1.5714661,0.7875204,0.039999966,0.039999977,-9.787043,0.005564972758293152,-0.014545096,0.010238608,-0.0015769799938425422,0.0016847464
1172.8666666659287,-0.00031859876,-0.7831396,0.0005027027,-2.3575401,0.0007250957,1.5715234,0.78769577,0.039999958,0.03999997,-9.785932,0.0059264348819851875,-0.016397353,0.011044141,-0.0007231609197333455,0.0018162832
1172.8833333325954,-0.00037257624,-0.7829759,0.00055417133,-2.3576915,0.00079537777,1.5715852,0.78788435,0.039999954,0.039999966,-9.784497,0.006343141198158264,-0.01823493,0.0118801715,0.0001762236061040312,0.0019524861
1172.899999999262,-0.00043047714,-0.78280175,0.00060938566,-2.3578525,0.00087077444,1.5716512,0.78808665,0.039999947,0.039999958,-9.783525,0.006739372853189707,-0.02041503,0.012746152,0.0011176572879776359,0.00209326
1172.9166666659287,-0.0004924333,-0.78261626,0.00066847226,-2.3580253,0.0009514574,1.5717225,0.7883032,0.03999994,0.03999995,-9.782181,0.007196846418082714,-0.022565633,0.013641528,0.002100784331560135,0.0022384888
1172.9333333325953,-0.00055857457,-0.7824194,0.000731555,-2.3582075,0.0010375963,1.5717984,0.78853446,0.039999932,0.039999943,-9.781536,0.007634611800312996,-0.025095403,0.014565758,0.0031172928865998983,0.0023880894
1172.949999999262,-0.00062902883,-0.78221047,0.00079875614,-2.3584015,0.0011293585,1.571879,0.7887808,0.03999993,0.03999994,-9.780069,0.00813431665301323,-0.027605005,0.015518019,0.004178544040769339,0.0025418971
1172.9666666659286,-0.00070392166,-0.7819891,0.0008701964,-2.3586068,0.0012269075,1.5719651,0.7890426,0.039999932,0.039999947,-9.779407,0.008608844131231308,-0.030476628,0.01649858,0.005270801018923521,0.0026989686
1172.9833333325953,-0.0007833767,-0.78175503,0.0009459934,-2.3588245,0.0013304055,1.5720563,0.7893204,0.039999932,0.039999943,-9.778386,0.00914393737912178,-0.033478644,0.017507182,0.0064017754048109055,0.002861726
1172.999999999262,-0.00086751475,-0.7815078,0.0010262636,-2.359054,0.0014400088,1.5721527,0.78961456,0.039999936,0.03999995,-9.77724,0.009706887416541576,-0.036571555,0.018542722,0.007565113715827465,0.0030266151
1173.0166666659286,-0.00095645525,-0.7812469,0.0011111203,-2.3592963,0.0015558748,1.572255,0.78992546,0.03999994,0.039999954,-9.776491,0.010255768895149231,-0.040063523,0.019605204,0.008763449266552925,0.0031960667
1173.0333333325952,-0.0010503144,-0.7809721,0.0012006754,-2.3595517,0.0016781547,1.5723627,0.7902536,0.039999947,0.03999996,-9.775309,0.010875560343265533,-0.043593172,0.020694358,0.009996348060667515,0.003369061
1173.049999999262,-0.0011492065,-0.78068304,0.0012950379,-2.3598206,0.0018069983,1.5724763,0.79059935,0.039999954,0.03999997,-9.774716,0.011465182527899742,-0.047515675,0.021809375,0.011258664540946484,0.0035454778
1173.0666666659286,-0.0012532435,-0.78037953,0.0013943149,-2.3601034,0.0019425506,1.5725957,0.79096293,0.03999996,0.03999998,-9.773595,0.0121357636526227,-0.051483154,0.022949439,0.01255202665925026,0.0037242856
1173.0833333325952,-0.0013625346,-0.7800612,0.0014986111,-2.3603995,0.0020849549,1.5727211,0.791345,0.039999973,0.03999999,-9.772994,0.012774471193552017,-0.055844896,0.024115097,0.013876206241548061,0.0039070533
1173.0999999992619,-0.0014771862,-0.77972734,0.0016080282,-2.3607104,0.0022343514,1.5728528,0.79174596,0.03999998,0.04,-9.771815,0.01349572278559208,-0.06025707,0.025305001,0.015231890603899956,0.0040927352
1173.1166666659285,-0.0015973026,-0.77937794,0.0017226668,-2.3610353,0.0023908848,1.572991,0.79216594,0.03999998,0.039999995,-9.771357,0.014189980924129486,-0.06514091,0.026518073,0.016613589599728584,0.0042821597
1173.1333333325952,-0.0017229858,-0.77901274,0.0018426232,-2.3613753,0.0025546795,1.5731351,0.79260546,0.03999998,0.039999995,-9.770164,0.014953846111893654,-0.07004021,0.027754856,0.01802760548889637,0.0044731586
1173.1499999992618,-0.0018543346,-0.77863115,0.0019679938,-2.3617306,0.0027258673,1.573286,0.7930647,0.03999998,0.039999995,-9.769693,0.015687597915530205,-0.0753973,0.029014273,0.0194667000323534,0.0046665967
1173.1666666659285,-0.001991446,-0.7782332,0.0020988695,-2.3621013,0.002904555,1.5734437,0.79354423,0.03999998,0.04,-9.7686615,0.0164960864931345,-0.08081144,0.030296639,0.020931221544742584,0.0048605064
1173.183333332595,-0.0021344142,-0.77781844,0.002235341,-2.3624878,0.0030908948,1.573608,0.7940442,0.03999998,0.04,-9.768217,0.01729566417634487,-0.086682916,0.031600274,0.022421546280384064,0.0050593745
1173.1999999992618,-0.002283329,-0.77738667,0.0023774966,-2.36289,0.0032849857,1.5737791,0.79456496,0.039999977,0.04,-9.767145,0.01815178245306015,-0.092604354,0.03292554,0.023937959223985672,0.005258008
1173.2166666659284,-0.002438281,-0.7769375,0.00252542,-2.3633084,0.0034869534,1.5739571,0.7951069,0.039999973,0.039999995,-9.766728,0.018992114812135696,-0.09901464,0.03427185,0.025477388873696327,0.005459451
1173.233333332595,-0.0025993555,-0.77647066,0.0026791953,-2.3637428,0.0036969115,1.574142,0.7956703,0.03999998,0.04,-9.766006,0.019876748323440552,-0.105600715,0.03563843,0.027040749788284302,0.0056627146
1173.2499999992617,-0.002766637,-0.7759862,0.0028389012,-2.364194,0.0039149714,1.5743343,0.79625535,0.039999984,0.04,-9.764928,0.020820308476686478,-0.112330675,0.037024498,0.028628215193748474,0.0058669755
1173.2666666659284,-0.0029402063,-0.7754836,0.0030046157,-2.3646617,0.004141246,1.5745338,0.79686236,0.039999984,0.04,-9.764528,0.021722443401813507,-0.11956397,0.03843033,0.03023996762931347,0.006073111
1173.283333332595,-0.0031201418,-0.7749625,0.0031764142,-2.3651466,0.0043758466,1.5747406,0.79749167,0.039999988,0.04,-9.7635355,0.022716408595442772,-0.12685892,0.03985513,0.03187236562371254,0.006280902
1173.2999999992617,-0.0033065188,-0.7744229,0.0033543697,-2.3656492,0.004618854,1.574955,0.7981435,0.039999995,0.04,-9.763205,0.02365463227033615,-0.13469583,0.04129839,0.03352489694952965,0.006487886
1173.3166666659283,-0.0034994108,-0.7738645,0.003538552,-2.366169,0.0048703807,1.5751768,0.7988182,0.04,0.04,-9.762225,0.02469652332365513,-0.14255635,0.042759556,0.0351964607834816,0.0066969194
1173.333333332595,-0.0036988885,-0.77328724,0.0037290289,-2.3667066,0.0051304903,1.5754061,0.79951596,0.04,0.04,-9.761879,0.025667592883110046,-0.15096506,0.044238128,0.036888595670461655,0.0069039925
1173.3499999992616,-0.0039050204,-0.77269083,0.0039258646,-2.367262,0.00539931,1.5756428,0.80023664,0.04,0.039999995,-9.760914,0.026763789355754852,-0.15940672,0.045733064,0.03859772905707359,0.007114352
1173.3666666659283,-0.0041178707,-0.7720749,0.0041291225,-2.3678358,0.0056768856,1.5758871,0.80098146,0.04,0.04,-9.760565,0.027774885296821594,-0.16841534,0.04724629,0.04032639414072037,0.0073214485
1173.383333332595,-0.004337505,-0.7714395,0.0043388633,-2.3684278,0.0059633097,1.5761393,0.80174977,0.04,0.04,-9.759702,0.028892261907458305,-0.17747669,0.048772607,0.04206615313887596,0.007529273
1173.3999999992616,-0.0045639803,-0.77078426,0.0045551457,-2.369038,0.006258657,1.5763996,0.8025419,0.04,0.04,-9.759389,0.029958736151456833,-0.18710949,0.050315633,0.043825216591358185,0.0077366633
1173.4166666659282,-0.0047973576,-0.7701092,0.004778025,-2.3696666,0.006563019,1.5766679,0.80335826,0.04,0.039999995,-9.758361,0.031108226627111435,-0.19679667,0.051874015,0.045601364225149155,0.007944165
1173.4333333325949,-0.0050376896,-0.76941407,0.0050075524,-2.3703144,0.0068764566,1.5769441,0.80419886,0.04,0.039999995,-9.7580805,0.03220416605472565,-0.20703863,0.05344674,0.047393471002578735,0.008150063
1173.4499999992615,-0.005285031,-0.76869863,0.0052437796,-2.37098,0.007199037,1.5772285,0.8050641,0.04,0.04,-9.757136,0.03338399529457092,-0.21733704,0.055033784,0.049198828637599945,0.008354945
1173.4666666659282,-0.005539431,-0.7679628,0.005486756,-2.3716652,0.007530826,1.5775211,0.805954,0.04,0.04,-9.756734,0.03451104089617729,-0.2282301,0.05663385,0.05102254077792168,0.008558516
1173.4833333325948,-0.005800938,-0.7672064,0.005736526,-2.3723695,0.0078719,1.5778214,0.8068688,0.04,0.04,-9.756195,0.03569047152996063,-0.2392915,0.058247503,0.05285678058862686,0.0087615
1173.4999999992615,-0.0060695964,-0.7664294,0.0059931353,-2.3730934,0.008222296,1.5781302,0.80780864,0.04,0.04,-9.755218,0.036899492144584656,-0.25054297,0.059873376,0.054701067507267,0.008961312
1173.5166666659281,-0.0063454485,-0.76563174,0.0062566223,-2.3738365,0.008582093,1.5784475,0.8087735,0.04,0.04,-9.754949,0.038067203015089035,-0.26239663,0.061511252,0.056559111922979355,0.009160849
1173.5333333325948,-0.0066285366,-0.76481307,0.006527028,-2.3745987,0.00895132,1.5787729,0.8097638,0.04,0.04,-9.753952,0.03929486498236656,-0.27430025,0.06316173,0.05842769145965576,0.00935679
1173.5499999992614,-0.0069188974,-0.7639735,0.0068043857,-2.3753805,0.009330051,1.5791067,0.81077945,0.04,0.04,-9.753603,0.04048093035817146,-0.286804,0.06482293,0.060309428721666336,0.009551976
1173.566666665928,-0.0072165667,-0.76311296,0.007088734,-2.3761818,0.009718324,1.5794489,0.81182075,0.04,0.03999999,-9.752595,0.0417301282286644,-0.2993558,0.06649539,0.062199998646974564,0.009744696
1173.5833333325947,-0.007521579,-0.762231,0.007380101,-2.377003,0.0101161795,1.5797997,0.8128877,0.04,0.03999999,-9.752227,0.04291103780269623,-0.31251225,0.068177834,0.06410374492406845,0.009933952
1173.5999999992614,-0.007833962,-0.7613277,0.007678518,-2.3778439,0.010523657,1.580159,0.8139807,0.04,0.03999999,-9.751226,0.04416770488023758,-0.32574213,0.069870494,0.06601378321647644,0.010120389
1173.616666665928,-0.008153749,-0.7604029,0.007984012,-2.3787053,0.0109408,1.5805261,0.8150996,0.04,0.03999999,-9.750893,0.04536280035972595,-0.33958355,0.07157158,0.06793347746133804,0.01030442
1173.6333333325947,-0.008480961,-0.7594567,0.008296609,-2.3795862,0.011367648,1.5809022,0.81624424,0.04,0.039999988,-9.749909,0.04661918804049492,-0.35346305,0.073281504,0.06985443085432053,0.0104854265
1173.6499999992614,-0.008815621,-0.7584889,0.008616332,-2.3804874,0.011804226,1.5812871,0.81741506,0.04,0.039999988,-9.749487,0.047802504152059555,-0.36798614,0.07500102,0.07178717106580734,0.010662803
1173.666666665928,-0.009157758,-0.7574994,0.008943198,-2.3814087,0.012250543,1.5816804,0.8186119,0.04,0.03999999,-9.748423,0.04903974384069443,-0.38256124,0.07672841,0.07372486591339111,0.010835048
1173.6833333325947,-0.009507384,-0.75648826,0.009277229,-2.38235,0.012706636,1.5820824,0.8198351,0.04,0.039999995,-9.748026,0.050223611295223236,-0.39774665,0.078464024,0.07566849887371063,0.011004256
1173.6999999992613,-0.00986452,-0.7554556,0.009618442,-2.383312,0.013172537,1.5824931,0.8210847,0.04,0.039999995,-9.746833,0.05145472288131714,-0.41299754,0.080206186,0.07761894911527634,0.011170134
1173.716666665928,-0.010229175,-0.754401,0.009966848,-2.3842943,0.013648259,1.582912,0.82236046,0.04,0.04,-9.746481,0.05261361226439476,-0.42884833,0.081955045,0.07957206666469574,0.0113318395
1173.7333333325946,-0.010601364,-0.7533247,0.010322462,-2.3852966,0.01413384,1.58334,0.8236627,0.04,0.039999988,-9.745671,0.053789373487234116,-0.44492006,0.083710715,0.08152706921100616,0.011489997
1173.7499999992613,-0.0109811025,-0.7522264,0.01068529,-2.386319,0.014629293,1.5837767,0.8249913,0.04,0.03999998,-9.7444,0.054973576217889786,-0.4612101,0.08547196,0.0834885910153389,0.011643286
1173.766666665928,-0.011368391,-0.75110644,0.011055345,-2.3873618,0.015134595,1.5842217,0.8263464,0.04,0.03999998,-9.743858,0.05607089027762413,-0.478105,0.08723911,0.0854547768831253,0.011790093
1173.7833333325946,-0.011763238,-0.7499646,0.01143263,-2.388425,0.015649758,1.5846759,0.82772785,0.04,0.039999984,-9.742619,0.057228799909353256,-0.495045,0.08901106,0.0874200314283371,0.011932914
1173.7999999992612,-0.012165648,-0.7488009,0.011817148,-2.3895092,0.016174803,1.5851384,0.8291357,0.04,0.039999984,-9.74205,0.05829238146543503,-0.51263106,0.090788044,0.08938945829868317,0.012070509
1173.8166666659279,-0.012575618,-0.74761534,0.0122088995,-2.3906133,0.016709728,1.5856096,0.8305704,0.04,0.03999998,-9.740727,0.05939333885908127,-0.5302771,0.092569835,0.09135792404413223,0.012202791
1173.8333333325945,-0.012993153,-0.7464078,0.012607888,-2.3917375,0.017254537,1.5860897,0.8320314,0.04,0.039999977,-9.74007,0.06040964648127556,-0.5485233,0.09435401,0.09332755953073502,0.012330172
1173.8499999992612,-0.013418247,-0.7451785,0.013014109,-2.392882,0.017809216,1.5865785,0.8335192,0.04,0.039999973,-9.738596,0.06144213676452637,-0.5668899,0.09614192,0.09530022740364075,0.0124511365
1173.8666666659278,-0.013850897,-0.7439272,0.013427555,-2.394047,0.018373746,1.587076,0.83503294,0.04,0.039999977,-9.737929,0.062392719089984894,-0.585808,0.09793195,0.097271628677845,0.0125661595
1173.8833333325945,-0.014291093,-0.7426541,0.013848224,-2.3952317,0.018948132,1.5875822,0.8365731,0.04,0.03999998,-9.736373,0.0633658841252327,-0.604847,0.09972689,0.09924263507127762,0.012676026
1173.8999999992611,-0.01473883,-0.7413593,0.014276107,-2.396437,0.019532379,1.588097,0.8381397,0.04,0.039999977,-9.735539,0.06423622369766235,-0.62445873,0.10152363,0.10121523588895798,0.01277868
1173.9166666659278,-0.015194095,-0.74004275,0.014711192,-2.3976634,0.02012647,1.5886204,0.83973265,0.04,0.03999997,-9.733949,0.06512365490198135,-0.6441556,0.103322566,0.1031845286488533,0.012875714
1173.9333333325944,-0.015656874,-0.73870444,0.0151534695,-2.3989096,0.020730367,1.5891527,0.84135187,0.04,0.039999977,-9.733202,0.06591542065143585,-0.66444576,0.105122745,0.10514716058969498,0.012965759
1173.949999999261,-0.016127149,-0.7373443,0.015602922,-2.4001753,0.021344066,1.5896934,0.8429974,0.04,0.039999973,-9.7314205,0.06671040505170822,-0.6848429,0.10692424,0.1071101576089859,0.013049633
1173.9666666659277,-0.016604912,-0.7359626,0.016059533,-2.4014618,0.021967527,1.5902426,0.84466916,0.04,0.039999973,-9.730354,0.06739497929811478,-0.70583016,0.10872628,0.10907184332609177,0.013125799
1173.9833333325944,-0.017090136,-0.7345594,0.016523287,-2.4027684,0.022600755,1.5908008,0.846367,0.04,0.039999936,-9.729038,0.06808257848024368,-0.72700405,0.110527866,0.11102567613124847,0.01319831
1173.999999999261,-0.0175828,-0.73313445,0.016994167,-2.4040942,0.023243733,1.5913671,0.8480909,0.04,0.0399999,-9.727125,0.06872934848070145,-0.7484154,0.11233007,0.11297853291034698,0.013267486
1174.0166666659277,-0.018082889,-0.7316881,0.017472144,-2.4054408,0.023896392,1.591942,0.8498408,0.04,0.039999902,-9.725897,0.06920652836561203,-0.77039844,0.11413162,0.11492747068405151,0.013321999
1174.0333333325943,-0.01859037,-0.7302205,0.0179572,-2.4068074,0.024558693,1.5925256,0.85161674,0.04,0.039999902,-9.724035,0.0697072222828865,-0.79247147,0.11593213,0.11686592549085617,0.0133684855
1174.049999999261,-0.019105218,-0.7287316,0.018449306,-2.4081936,0.025230622,1.5931177,0.85341823,0.04,0.039999902,-9.7227335,0.0701131820678711,-0.8151138,0.11773067,0.11880119889974594,0.013409061
1174.0666666659276,-0.019627403,-0.72722125,0.018948443,-2.4095993,0.025912156,1.593718,0.8552457,0.04,0.0399999,-9.720595,0.07047619670629501,-0.83785295,0.119528465,0.12073085457086563,0.013441794
1174.0833333325943,-0.0201569,-0.72568977,0.019454572,-2.4110253,0.026603231,1.594327,0.85709864,0.04,0.0399999,-9.719165,0.07071957737207413,-0.8611639,0.12132311,0.12265315651893616,0.013465893
1174.099999999261,-0.020693677,-0.7241373,0.019967671,-2.4124703,0.027303804,1.5949442,0.8589772,0.04,0.0399999,-9.716961,0.07093766331672668,-0.8845702,0.1231156,0.12456730008125305,0.013483016
1174.1166666659276,-0.021237696,-0.7225639,0.0204877,-2.4139352,0.028013844,1.5955698,0.86088103,0.04,0.03999989,-9.715372,0.07103128731250763,-0.9085146,0.124904856,0.12647442519664764,0.013491971
1174.1333333325942,-0.021788921,-0.72096974,0.021014633,-2.4154196,0.028733302,1.5962037,0.8628101,0.04,0.03999989,-9.712981,0.07107190787792206,-0.93256336,0.12669118,0.12837348878383636,0.013491926
1174.149999999261,-0.022347316,-0.7193548,0.02154843,-2.416923,0.029462136,1.5968457,0.8647643,0.04,0.039999884,-9.711284,0.07100186496973038,-0.9571521,0.12847383,0.13026294112205505,0.0134843765
1174.1666666659276,-0.022912843,-0.71771884,0.022089055,-2.418446,0.03020028,1.5974963,0.86674345,0.04,0.039999887,-9.708733,0.0708637684583664,-0.9818514,0.13025244,0.13214360177516937,0.013467713
1174.1833333325942,-0.02348546,-0.7160628,0.022636468,-2.4199877,0.030947657,1.5981548,0.8687474,0.04,0.03999989,-9.706885,0.07060432434082031,-1.0071095,0.1320265,0.13401301205158234,0.013442708
1174.1999999992609,-0.024065124,-0.71438634,0.02319063,-2.4215484,0.031704247,1.5988213,0.870776,0.04,0.039999887,-9.704095,0.0702810287475586,-1.0324078,0.13379602,0.13587574660778046,0.013409714
1174.2166666659275,-0.024651797,-0.7126896,0.023751505,-2.4231272,0.032470018,1.599496,0.8728292,0.04,0.03999989,-9.702058,0.06981676071882248,-1.0582576,0.1355607,0.13772690296173096,0.013368171
1174.2333333325942,-0.025245428,-0.7109726,0.02431904,-2.4247258,0.033244852,1.6001787,0.87490684,0.04,0.039999887,-9.699438,0.06926193088293076,-1.0843073,0.13731962,0.13957089185714722,0.013316523
1174.2499999992608,-0.025845967,-0.7092356,0.024893202,-2.4263427,0.034028705,1.6008694,0.8770086,0.04,0.039999887,-9.696623,0.06861958652734756,-1.1105745,0.13907206,0.1413983851671219,0.013256707
1174.2666666659275,-0.026453368,-0.70747894,0.025473936,-2.4279795,0.034821536,1.6015681,0.8791344,0.04,0.039999887,-9.69426,0.06783908605575562,-1.1373408,0.14081836,0.14321504533290863,0.013188528
1174.283333332594,-0.027067576,-0.70570236,0.026061187,-2.4296331,0.035623264,1.6022747,0.8812841,0.04,0.039999884,-9.691288,0.06696684658527374,-1.1641978,0.14255813,0.14501331746578217,0.013112008
1174.2999999992608,-0.027688542,-0.7039063,0.02665491,-2.4313054,0.03643381,1.6029888,0.88345784,0.04,0.039999887,-9.688522,0.06593992561101913,-1.1915812,0.14429076,0.14680686593055725,0.013025726
1174.3166666659274,-0.028316217,-0.7020909,0.027255062,-2.4329956,0.03725311,1.6037108,0.88565457,0.04,0.039999884,-9.685263,0.06481200456619263,-1.2190378,0.14601427,0.14858415722846985,0.012929801
1174.333333332594,-0.02895054,-0.7002562,0.027861578,-2.434704,0.038081095,1.6044407,0.8878746,0.04,0.039999887,-9.682478,0.0635475143790245,-1.2469656,0.14773205,0.1503484845161438,0.012825506
1174.3499999992607,-0.029591465,-0.6984024,0.028474422,-2.4364305,0.038917698,1.6051782,0.89011776,0.04,0.03999988,-9.678979,0.06215811148285866,-1.2750374,0.14944197,0.1520989090204239,0.012711185
1174.3666666659274,-0.03023892,-0.69652975,0.02909352,-2.4381738,0.039762855,1.6059234,0.89238405,0.04,0.039999876,-9.67602,0.06062793731689453,-1.3035418,0.15114276,0.15383462607860565,0.01258846
1174.383333332594,-0.030892847,-0.6946384,0.029718824,-2.4399354,0.040616475,1.6066755,0.8946729,0.04,0.039999884,-9.672199,0.05896652489900589,-1.3321586,0.1528336,0.1555577516555786,0.012456818
1174.3999999992607,-0.031553194,-0.6927284,0.030350275,-2.441714,0.04147849,1.607435,0.8969844,0.04,0.039999876,-9.669088,0.057151392102241516,-1.3611935,0.15451598,0.15726080536842346,0.0123156225
1174.4166666659273,-0.032219887,-0.6908001,0.03098781,-2.4435089,0.042348795,1.6082019,0.89931804,0.04,0.03999988,-9.66509,0.055184800177812576,-1.3903834,0.15618724,0.15894922614097595,0.01216343
1174.433333332594,-0.032892864,-0.6888535,0.031631373,-2.445322,0.043227307,1.608976,0.90167373,0.04,0.03999988,-9.661553,0.053080227226018906,-1.4199761,0.15784961,0.16062478721141815,0.012002984
1174.4499999992606,-0.033572063,-0.6868891,0.032280903,-2.4471517,0.044113945,1.6097572,0.90405124,0.04,0.039999876,-9.657506,0.05082090198993683,-1.4496962,0.15950134,0.1622793972492218,0.011833036
1174.4666666659273,-0.034257423,-0.68490666,0.03293634,-2.4489975,0.045008626,1.6105455,0.9064504,0.04,0.039999876,-9.653772,0.04840179905295372,-1.4797958,0.16114204,0.1639179289340973,0.01165361
1174.483333332594,-0.03494886,-0.6829067,0.033597592,-2.450859,0.045911267,1.6113408,0.90887076,0.04,0.03999987,-9.649609,0.045821115374565125,-1.5101256,0.16277133,0.1655401587486267,0.01146548
1174.4999999992606,-0.035646316,-0.6808892,0.03426463,-2.4527376,0.04682178,1.6121429,0.91131234,0.04,0.039999872,-9.64496,0.04307087883353233,-1.5406027,0.1643899,0.16714797914028168,0.011267473
1174.5166666659272,-0.03634973,-0.6788545,0.03493737,-2.4546325,0.047740057,1.612952,0.9137747,0.04,0.03999987,-9.640988,0.04015820845961571,-1.5714768,0.16599603,0.16873355209827423,0.0110605955
1174.5333333325939,-0.037059013,-0.6768029,0.035615742,-2.456543,0.048666023,1.6137679,0.91625756,0.04,0.039999865,-9.636237,0.03707132488489151,-1.6024587,0.16758962,0.1702994406223297,0.010843741
1174.5499999992605,-0.0377741,-0.67473453,0.036299683,-2.458469,0.049599566,1.6145904,0.91876084,0.04,0.039999865,-9.631824,0.03380461037158966,-1.6338059,0.16917174,0.17184855043888092,0.010617497
1174.5666666659272,-0.03849491,-0.67264944,0.03698911,-2.4604106,0.050540578,1.6154197,0.9212842,0.04,0.039999865,-9.626723,0.03035256266593933,-1.6652622,0.17074035,0.17338038980960846,0.010380711
1174.5833333325938,-0.03922138,-0.6705482,0.037683975,-2.4623673,0.051489,1.6162554,0.9238273,0.04,0.039999865,-9.62216,0.026740366593003273,-1.6970843,0.17229551,0.17489029467105865,0.010137434
1174.5999999992605,-0.039953414,-0.66843075,0.038384188,-2.464339,0.052444704,1.6170977,0.92639023,0.04,0.039999865,-9.616789,0.022915396839380264,-1.7289748,0.17383754,0.17638170719146729,0.009882998
1174.6166666659271,-0.040690955,-0.6662975,0.039089676,-2.4663258,0.0534076,1.617946,0.92897224,0.04,0.039999858,-9.611848,0.01891743578016758,-1.7612301,0.17536426,0.1778550148010254,0.009619962
1174.6333333325938,-0.041433923,-0.6641485,0.03980036,-2.4683268,0.054377586,1.6188008,0.93157333,0.04,0.03999986,-9.606301,0.014718431979417801,-1.7935625,0.17687732,0.17930454015731812,0.009348213
1174.6499999992604,-0.042182226,-0.6619839,0.040516164,-2.4703424,0.055354543,1.6196617,0.9341932,0.04,0.039999865,-9.601024,0.010325543582439423,-1.8262355,0.17837556,0.18073590099811554,0.009066078
1174.666666665927,-0.042935785,-0.65980417,0.041237026,-2.472372,0.056338362,1.6205287,0.9368315,0.04,0.039999865,-9.595202,0.005723870825022459,-1.8590047,0.17985824,0.18214382231235504,0.008775426
1174.6833333325937,-0.043694515,-0.6576096,0.04196285,-2.4744153,0.05732896,1.6214017,0.9394879,0.04,0.03999986,-9.589637,0.0009345650905743241,-1.8920714,0.18132566,0.1835329532623291,0.008476028
1174.6999999992604,-0.044458333,-0.6554002,0.042693574,-2.4764729,0.0583262,1.6222804,0.9421622,0.04,0.039999865,-9.583431,-0.004082873463630676,-1.9252173,0.18277764,0.18490080535411835,0.0081670005
1174.716666665927,-0.045227166,-0.65317625,0.043429103,-2.4785435,0.059330005,1.6231651,0.94485396,0.04,0.039999835,-9.577683,-0.00926322489976883,-1.9586434,0.18421304,0.18624436855316162,0.007852554
1174.7333333325937,-0.046000905,-0.6509381,0.04416935,-2.4806268,0.06034028,1.6240551,0.94756305,0.04,0.039999787,-9.571411,-0.014674929901957512,-1.992232,0.18563287,0.18756820261478424,0.007533022
1174.7499999992604,-0.046779472,-0.64868593,0.04491425,-2.4827237,0.06135686,1.6249511,0.9502892,0.04,0.039999783,-9.564699,-0.020368926227092743,-2.0259237,0.18703574,0.1888706386089325,0.007198016
1174.766666665927,-0.047562793,-0.64641994,0.045663707,-2.4848332,0.062379662,1.6258525,0.953032,0.04,0.03999978,-9.558504,-0.02621481940150261,-2.0598729,0.18842079,0.1901477426290512,0.00685401
1174.7833333325937,-0.04835077,-0.64414054,0.046417642,-2.4869556,0.06340855,1.6267592,0.95579123,0.04,0.039999776,-9.551533,-0.03231558948755264,-2.093922,0.18978843,0.19140276312828064,0.0065020844
1174.7999999992603,-0.04914332,-0.64184785,0.04717597,-2.4890902,0.064443424,1.627671,0.95856637,0.04,0.039999772,-9.544982,-0.0385989174246788,-2.1281784,0.19113773,0.19263195991516113,0.0061421287
1174.816666665927,-0.049940348,-0.6395424,0.047938604,-2.4912372,0.065484144,1.6285882,0.9613573,0.04,0.03999978,-9.53771,-0.045157596468925476,-2.1625373,0.19246982,0.19383807480335236,0.005773135
1174.8333333325936,-0.05074176,-0.6372242,0.04870545,-2.4933958,0.06653062,1.6295106,0.9641636,0.04,0.039999772,-9.530808,-0.05190223082900047,-2.197086,0.19378302,0.1950197070837021,0.005396024
1174.8499999992603,-0.051547475,-0.63489336,0.049476434,-2.4955666,0.0675827,1.6304379,0.966985,0.04,0.039999772,-9.523237,-0.05892122536897659,-2.2317443,0.19507724,0.1961781531572342,0.0050106584
1174.866666665927,-0.052357394,-0.6325504,0.050251443,-2.4977481,0.06864028,1.63137,0.9698213,0.04,0.039999776,-9.516038,-0.06612615287303925,-2.2665794,0.19635247,0.19730764627456665,0.004618299
1174.8833333325936,-0.053171415,-0.6301958,0.05103042,-2.4999409,0.069703184,1.6323068,0.97267187,0.04,0.03999978,-9.508091,-0.0736294537782669,-2.3014998,0.19760771,0.19841569662094116,0.00421658
1174.8999999992602,-0.05398945,-0.6278294,0.05181325,-2.5021446,0.07077135,1.6332481,0.9755365,0.04,0.03999977,-9.500442,-0.08131598681211472,-2.3365552,0.19884367,0.19949974119663239,0.0038081605
1174.9166666659269,-0.05481141,-0.6254515,0.052599862,-2.5043595,0.0718447,1.6341941,0.978415,0.04,0.039999772,-9.492344,-0.08927617222070694,-2.3717115,0.20005995,0.2005537897348404,0.0033938691
1174.9333333325935,-0.055637177,-0.6230629,0.053390153,-2.5065835,0.07292301,1.6351445,0.98130727,0.04,0.03999977,-9.484407,-0.09746135771274567,-2.4070191,0.2012551,0.20158135890960693,0.0029706084
1174.9499999992602,-0.056466665,-0.6206633,0.05418404,-2.5088181,0.0740062,1.6360991,0.9842126,0.04,0.039999772,-9.475735,-0.10594005882740021,-2.4423635,0.2024289,0.20258919894695282,0.002539251
1174.9666666659268,-0.057299793,-0.61825323,0.054981414,-2.5110629,0.07509415,1.6370581,0.98713034,0.04,0.039999764,-9.467498,-0.11460470408201218,-2.477853,0.20358126,0.20356698334217072,0.00210173
1174.9833333325935,-0.058136433,-0.61583287,0.05578219,-2.5133164,0.076186694,1.6380212,0.99006045,0.04,0.03999977,-9.458862,-0.12354625016450882,-2.5134254,0.20471346,0.20451830327510834,0.0016574403
1174.9999999992601,-0.058976512,-0.61340255,0.056586284,-2.5155795,0.07728374,1.6389883,0.9930026,0.04,0.039999764,-9.449772,-0.13277281820774078,-2.549059,0.20582528,0.20544575154781342,0.0012060236
1175.0166666659268,-0.05981993,-0.61096275,0.0573936,-2.5178516,0.07838516,1.639959,0.9959564,0.04,0.039999764,-9.440959,-0.14218586683273315,-2.5847752,0.20691496,0.20634478330612183,0.0007492963
1175.0333333325934,-0.06066657,-0.6085136,0.05820402,-2.5201328,0.07949082,1.6409335,0.99892163,0.04,0.039999764,-9.431612,-0.1519143283367157,-2.6205451,0.20798221,0.20721673965454102,0.00028555244
1175.04999999926,-0.061516333,-0.6060552,0.059017457,-2.5224223,0.08060055,1.6419119,1.0018979,0.04,0.039999764,-9.422463,-0.16184252500534058,-2.6563861,0.20902711,0.20805969834327698,-0.00018388545
1175.0666666659267,-0.062369127,-0.603588,0.059833806,-2.5247195,0.08171425,1.6428936,1.0048854,0.04,0.03999976,-9.412764,-0.17209357023239136,-2.6923196,0.21004896,0.20887678861618042,-0.0006594626
1175.0833333325934,-0.06322486,-0.6011124,0.06065299,-2.5270245,0.08283178,1.6438786,1.0078822,0.04,0.039999764,-9.403153,-0.18253517150878906,-2.728251,0.21104532,0.20966683328151703,-0.0011410604
1175.09999999926,-0.06408339,-0.5986286,0.061474897,-2.5293374,0.08395302,1.6448672,1.0108896,0.04,0.039999757,-9.393111,-0.19330018758773804,-2.7642415,0.2120231,0.21043065190315247,-0.0016281941
1175.1166666659267,-0.064944655,-0.5961369,0.062299438,-2.5316577,0.085077815,1.6458584,1.0139064,0.04,0.03999976,-9.38323,-0.20426730811595917,-2.800256,0.21297392,0.21116593480110168,-0.0021216252
1175.1333333325933,-0.06580852,-0.59363776,0.06312653,-2.533985,0.08620602,1.6468529,1.0169328,0.04,0.039999764,-9.372911,-0.21555271744728088,-2.8362956,0.2139024,0.21187008917331696,-0.0026197385
1175.14999999926,-0.06667488,-0.5911313,0.06395602,-2.536319,0.08733753,1.6478505,1.0199677,0.04,0.03999977,-9.362602,-0.2270307093858719,-2.8723612,0.2148044,0.21254824101924896,-0.003120925
1175.1666666659266,-0.06754365,-0.5886179,0.06478784,-2.5386598,0.088472165,1.6488508,1.0230111,0.04,0.039999764,-9.351933,-0.23885145783424377,-2.9084547,0.21568431,0.21319812536239624,-0.0036282998
1175.1833333325933,-0.06841472,-0.58609766,0.0656219,-2.5410075,0.089609824,1.6498537,1.0260626,0.04,0.03999976,-9.341294,-0.25085359811782837,-2.9445252,0.21653876,0.21381941437721252,-0.0041392785
1175.19999999926,-0.06928796,-0.583571,0.06645809,-2.5433605,0.09075037,1.6508591,1.0291219,0.04,0.039999764,-9.330438,-0.26319363713264465,-2.9806254,0.21736841,0.21440520882606506,-0.0046542617
1175.2166666659266,-0.0701633,-0.58103836,0.06729631,-2.5457191,0.09189364,1.651867,1.0321885,0.04,0.039999764,-9.31932,-0.2757352590560913,-3.0167031,0.2181731,0.21496695280075073,-0.005172737
1175.2333333325932,-0.07104064,-0.5785,0.06813645,-2.5480828,0.093039505,1.6528771,1.0352625,0.04,0.039999764,-9.308055,-0.2885723412036896,-3.052771,0.21895252,0.21549974381923676,-0.005694656
1175.24999999926,-0.071919836,-0.5759561,0.068978414,-2.550452,0.09418783,1.6538894,1.0383432,0.04,0.039999764,-9.296473,-0.3017181158065796,-3.0888338,0.2197054,0.21600480377674103,-0.0062221726
1175.2666666659266,-0.07280081,-0.5734071,0.0698221,-2.5528257,0.09533848,1.6549041,1.0414299,0.04,0.039999764,-9.285045,-0.31502676010131836,-3.12482,0.2204313,0.21647745370864868,-0.006750413
1175.2833333325932,-0.07368344,-0.57085335,0.070667416,-2.5552034,0.096491314,1.6559204,1.0445228,0.04,0.03999976,-9.273125,-0.3286999464035034,-3.1608303,0.2211326,0.21692441403865814,-0.007283212
1175.2999999992599,-0.074567586,-0.5682951,0.07151426,-2.5575867,0.09764621,1.6569384,1.047621,0.04,0.03999976,-9.261218,-0.34255674481391907,-3.196727,0.22180638,0.2173416167497635,-0.00781956
1175.3166666659265,-0.0754532,-0.56573266,0.07236252,-2.559973,0.098803006,1.6579584,1.0507243,0.04,0.039999757,-9.249184,-0.3567189872264862,-3.23263,0.22245379,0.21772481501102448,-0.008354486
1175.3333333325932,-0.076340124,-0.5631662,0.07321207,-2.5623639,0.099961534,1.6589799,1.0538322,0.04,0.039999753,-9.236833,-0.371127188205719,-3.268456,0.22307569,0.21808257699012756,-0.008895957
1175.3499999992598,-0.0772283,-0.56059617,0.07406285,-2.5647569,0.10112168,1.6600027,1.056945,0.04,0.03999975,-9.224481,-0.3858073353767395,-3.3042476,0.22367062,0.21840576827526093,-0.009435491
1175.3666666659265,-0.078117594,-0.558023,0.0749147,-2.567154,0.1022833,1.6610267,1.0600616,0.04,0.039999753,-9.21175,-0.40072184801101685,-3.3399286,0.2242363,0.21870428323745728,-0.009978861
1175.383333332593,-0.07900789,-0.5554467,0.075767554,-2.5695531,0.10344622,1.6620522,1.0631816,0.04,0.039999757,-9.199079,-0.4159286618232727,-3.3755598,0.22477514,0.2189670354127884,-0.010522655
1175.3999999992598,-0.079899065,-0.552868,0.07662131,-2.5719547,0.10461035,1.6630788,1.0663049,0.04,0.039999753,-9.186051,-0.4313574433326721,-3.4110904,0.2252874,0.21920430660247803,-0.011069568
1175.4166666659264,-0.08079104,-0.55028695,0.077475876,-2.574359,0.10577549,1.6641061,1.069431,0.04,0.039999757,-9.172897,-0.44708022475242615,-3.4465518,0.22577222,0.21941319108009338,-0.011615214
1175.433333332593,-0.08168367,-0.54770386,0.07833111,-2.5767643,0.10694156,1.6651343,1.0725596,0.04,0.039999757,-9.159737,-0.4629972279071808,-3.481865,0.22622901,0.2195885330438614,-0.012161747
1175.4499999992597,-0.08257687,-0.5451191,0.07918692,-2.5791714,0.108108364,1.666163,1.0756903,0.04,0.039999757,-9.1462,-0.47925812005996704,-3.5171547,0.22665775,0.2197370082139969,-0.012709591
1175.4666666659264,-0.083470516,-0.54253304,0.08004319,-2.58158,0.10927579,1.6671925,1.0788226,0.04,0.039999757,-9.13263,-0.49566832184791565,-3.5522416,0.22705843,0.21985416114330292,-0.013257044
1175.483333332593,-0.084364496,-0.5399458,0.08089984,-2.5839896,0.11044367,1.6682223,1.0819564,0.04,0.039999757,-9.118897,-0.5123680233955383,-3.5872636,0.22743082,0.21994176506996155,-0.013803549
1175.4999999992597,-0.08525872,-0.53735775,0.081756756,-2.5864003,0.11161187,1.6692525,1.085091,0.04,0.039999757,-9.105062,-0.5293622016906738,-3.6222055,0.22777435,0.21999652683734894,-0.014349826
1175.5166666659263,-0.08615308,-0.53476936,0.08261385,-2.588811,0.11278024,1.670283,1.0882262,0.04,0.039999757,-9.091025,-0.5465059280395508,-3.656937,0.22808918,0.220020592212677,-0.014894407
1175.533333332593,-0.087047435,-0.532181,0.08347096,-2.5912218,0.11394869,1.6713135,1.0913615,0.04,0.03999976,-9.076743,-0.5639910697937012,-3.6916168,0.22837472,0.22001811861991882,-0.015437929
1175.5499999992596,-0.087941706,-0.5295928,0.08432804,-2.5936327,0.11511699,1.672344,1.0944966,0.04,0.03999976,-9.062419,-0.5816320180892944,-3.726058,0.22863191,0.21998420357704163,-0.0159822
1175.5666666659263,-0.088835776,-0.52700526,0.08518499,-2.596043,0.11628506,1.6733742,1.097631,0.04,0.03999976,-9.047965,-0.5995710492134094,-3.7604485,0.22886,0.2199193388223648,-0.016522516
1175.583333332593,-0.089729525,-0.5244185,0.086041674,-2.5984528,0.117452756,1.6744039,1.1007646,0.04,0.039999764,-9.0332985,-0.6176698803901672,-3.794581,0.22905934,0.21982453763484955,-0.01705992
1175.5999999992596,-0.09062284,-0.5218329,0.08689795,-2.600861,0.11861988,1.6754334,1.1038966,0.04,0.03999976,-9.018574,-0.6360898613929749,-3.828661,0.22922777,0.21969781816005707,-0.017596234
1175.6166666659262,-0.091515616,-0.5192488,0.087753765,-2.603268,0.11978632,1.6764622,1.107027,0.04,0.03999976,-9.003519,-0.6546605825424194,-3.8624816,0.22936834,0.21954424679279327,-0.018130857
1175.6333333325929,-0.092407726,-0.5166666,0.088609,-2.6056726,0.12095194,1.6774904,1.1101553,0.04,0.03999976,-8.988519,-0.6735256910324097,-3.8962157,0.2294784,0.21935974061489105,-0.01866207
1175.6499999992595,-0.0932991,-0.51408637,0.08946358,-2.6080756,0.12211658,1.6785176,1.1132809,0.04,0.039999764,-8.973186,-0.6925334334373474,-3.9296765,0.2295591,0.21914856135845184,-0.019190313
1175.6666666659262,-0.0941896,-0.51150876,0.09031735,-2.610477,0.1232801,1.6795437,1.1164035,0.04,0.03999976,-8.957964,-0.7118359804153442,-3.9630566,0.22961079,0.21890491247177124,-0.019715812
1175.6833333325928,-0.09507914,-0.50893384,0.09117025,-2.6128755,0.124442354,1.6805688,1.1195228,0.04,0.03999977,-8.94251,-0.7312484979629517,-3.9961286,0.22963262,0.21862880885601044,-0.020234622
1175.6999999992595,-0.095967576,-0.506362,0.09202214,-2.6152706,0.12560321,1.6815927,1.1226385,0.04,0.039999764,-8.926944,-0.7509828805923462,-4.0291343,0.22962476,0.2183244526386261,-0.020749912
1175.7166666659261,-0.09685481,-0.5037936,0.09287291,-2.6176634,0.12676258,1.6826153,1.1257503,0.04,0.039999764,-8.911065,-0.7708544135093689,-4.061827,0.2295868,0.21799299120903015,-0.021263538
1175.7333333325928,-0.09774074,-0.5012289,0.09372249,-2.6200516,0.12792027,1.6836363,1.1288576,0.04,0.039999776,-8.895337,-0.7909247875213623,-4.0943575,0.22951722,0.2176278531551361,-0.021770192
1175.7499999992594,-0.098625235,-0.4986684,0.09457076,-2.6224372,0.12907611,1.684656,1.13196,0.04,0.039999783,-8.879283,-0.811301052570343,-4.126742,0.22941895,0.21723821759223938,-0.022277301
1175.766666665926,-0.09950825,-0.49611208,0.095417626,-2.6248176,0.13023001,1.6856742,1.1350573,0.04,0.039999787,-8.863242,-0.8317251205444336,-4.1587873,0.22929049,0.21681661903858185,-0.022778286
1175.7833333325927,-0.10038959,-0.49356043,0.096262954,-2.627195,0.13138185,1.6866902,1.1381487,0.04,0.039999787,-8.847027,-0.8524484038352966,-4.1907554,0.22913212,0.2163701057434082,-0.02327354
1175.7999999992594,-0.101269215,-0.49101374,0.09710672,-2.6295667,0.13253146,1.6877043,1.1412344,0.03999999,0.039999783,-8.830766,-0.8732496500015259,-4.222333,0.22894432,0.21588784456253052,-0.023762528
1175.816666665926,-0.102147,-0.4884723,0.09794877,-2.6319342,0.13367867,1.6887163,1.1443136,0.03999997,0.03999979,-8.814323,-0.8943617939949036,-4.2538395,0.22872518,0.21538102626800537,-0.02424794
1175.8333333325927,-0.103022814,-0.48593643,0.09878895,-2.6342964,0.13482332,1.689726,1.1473866,0.039999932,0.039999787,-8.797789,-0.9155248999595642,-4.2849684,0.22847663,0.2148418426513672,-0.024727322
1175.8499999992594,-0.10389656,-0.48340645,0.099627204,-2.636653,0.13596532,1.6907338,1.1504523,0.039999902,0.039999798,-8.781237,-0.9370430707931519,-4.315978,0.22819544,0.21427157521247864,-0.025216058
1175.866666665926,-0.10476816,-0.48088273,0.10046344,-2.6390035,0.13710445,1.6917391,1.1535102,0.039999884,0.0399998,-8.764396,-0.9584541916847229,-4.3466578,0.22788514,0.21367812156677246,-0.025679909
1175.8833333325927,-0.10563746,-0.47836548,0.10129756,-2.6413481,0.13824058,1.6927419,1.1565604,0.039999858,0.039999798,-8.747639,-0.9802014231681824,-4.3771873,0.22754614,0.21305915713310242,-0.026134875
1175.8999999992593,-0.10650443,-0.47585502,0.10212944,-2.6436863,0.13937363,1.6937418,1.1596025,0.03999984,0.039999787,-8.730642,-1.0020034313201904,-4.40734,0.22717683,0.212412029504776,-0.02657756
1175.916666665926,-0.10736888,-0.47335172,0.10295899,-2.6460187,0.1405034,1.6947384,1.1626363,0.039999817,0.039999794,-8.713776,-1.0238896608352661,-4.437381,0.22677727,0.21174295246601105,-0.026981771
1175.9333333325926,-0.10823075,-0.47085577,0.1037861,-2.6483438,0.14162983,1.6957322,1.1656606,0.039999787,0.03999977,-8.696662,-1.0462396144866943,-4.4669514,0.22634587,0.21103133261203766,-0.027419353
1175.9499999992593,-0.1090899,-0.46836746,0.1046107,-2.6506615,0.14275275,1.6967235,1.1686758,0.03999977,0.039999746,-8.679549,-1.068656325340271,-4.4964676,0.2258868,0.21029354631900787,-0.027858805
1175.966666665926,-0.10994627,-0.46588728,0.10543265,-2.6529715,0.14387196,1.6977112,1.171682,0.039999757,0.03999974,-8.662135,-1.090959906578064,-4.5255957,0.22539748,0.20953433215618134,-0.02827131
1175.9833333325926,-0.11079974,-0.46341538,0.1062519,-2.6552737,0.14498746,1.6986955,1.1746774,0.03999974,0.039999727,-8.644768,-1.1135355234146118,-4.554472,0.22487505,0.20874843001365662,-0.028676141
1175.9999999992592,-0.11165019,-0.4609521,0.1070683,-2.6575682,0.14609905,1.6996766,1.1776621,0.039999716,0.039999712,-8.627567,-1.1362687349319458,-4.583162,0.22432642,0.2079346925020218,-0.029070681
1176.0166666659259,-0.11249753,-0.4584977,0.10788179,-2.6598542,0.1472066,1.7006541,1.1806372,0.039999697,0.0399997,-8.609948,-1.1590430736541748,-4.6114283,0.22374864,0.20709404349327087,-0.029456764
1176.0333333325925,-0.113341674,-0.45605254,0.10869225,-2.6621318,0.14830993,1.701628,1.1836009,0.039999682,0.039999697,-8.592595,-1.1820224523544312,-4.639561,0.22313698,0.20622673630714417,-0.029834425
1176.0499999992592,-0.114182495,-0.4536168,0.10949959,-2.6644008,0.149409,1.7025981,1.1865529,0.039999656,0.03999968,-8.574827,-1.2050212621688843,-4.667261,0.22249667,0.20533329248428345,-0.030202297
1176.0666666659258,-0.115019925,-0.45119083,0.11030373,-2.666661,0.15050364,1.7035644,1.1894933,0.039999638,0.03999967,-8.557431,-1.2281951904296875,-4.694826,0.22182763,0.20441226661205292,-0.03056051
1176.0833333325925,-0.115853846,-0.44877484,0.11110456,-2.668912,0.15159369,1.7045267,1.192422,0.03999962,0.039999664,-8.539576,-1.2513841390609741,-4.721954,0.22112818,0.20346443355083466,-0.030907424
1176.0999999992591,-0.11668415,-0.4463692,0.111902006,-2.6711524,0.15267906,1.7054847,1.195337,0.039999597,0.03999966,-8.522038,-1.2747530937194824,-4.7489343,0.2203973,0.20249032974243164,-0.031245414
1176.1166666659258,-0.11751076,-0.44397426,0.112695925,-2.6733837,0.15375964,1.7064388,1.1982396,0.039999574,0.03999966,-8.503943,-1.2981503009796143,-4.7754793,0.21964334,0.20149363577365875,-0.031573884
1176.1333333325924,-0.11833355,-0.44159028,0.11348628,-2.6756043,0.15483525,1.7073884,1.2011291,0.039999556,0.03999966,-8.4864025,-1.3216526508331299,-4.8018804,0.218858,0.20047041773796082,-0.031890154
1176.149999999259,-0.11915245,-0.43921742,0.11427294,-2.6778147,0.15590577,1.7083337,1.204005,0.039999545,0.039999675,-8.4682865,-1.34519362449646,-4.8278117,0.21804337,0.19942349195480347,-0.03219849
1176.1666666659257,-0.119967334,-0.436856,0.11505583,-2.6800146,0.15697108,1.7092744,1.2068667,0.039999533,0.039999682,-8.45061,-1.3688347339630127,-4.853615,0.21720034,0.19835259020328522,-0.03249356
1176.1833333325924,-0.12077815,-0.4345063,0.11583485,-2.6822038,0.1580311,1.7102103,1.2097147,0.03999951,0.039999682,-8.432501,-1.3924816846847534,-4.878952,0.21633029,0.19725634157657623,-0.032777138
1176.199999999259,-0.12158479,-0.4321687,0.11660991,-2.6843815,0.15908569,1.7111416,1.2125486,0.039999485,0.039999682,-8.414796,-1.416249394416809,-4.9041395,0.21542962,0.19613373279571533,-0.033049375
1176.2166666659257,-0.12238716,-0.42984322,0.11738095,-2.6865482,0.16013475,1.7120677,1.2153676,0.039999474,0.03999969,-8.396552,-1.4400064945220947,-4.928873,0.21449788,0.19499075412750244,-0.033309743
1176.2333333325923,-0.12318515,-0.42753035,0.11814784,-2.6887028,0.16117807,1.7129891,1.218171,0.03999945,0.039999694,-8.378636,-1.463832139968872,-4.953365,0.21353915,0.19381971657276154,-0.0335593
1176.249999999259,-0.12397866,-0.4252303,0.118910536,-2.6908457,0.1622156,1.7139056,1.2209588,0.039999433,0.039999694,-8.360798,-1.4877249002456665,-4.9776464,0.21255381,0.19262972474098206,-0.03379526
1176.2666666659256,-0.12476763,-0.4229434,0.1196689,-2.692976,0.16324718,1.7148167,1.2237309,0.039999414,0.039999694,-8.342592,-1.5115807056427002,-5.001449,0.21154149,0.19141635298728943,-0.03401886
1176.2833333325923,-0.12555195,-0.42066982,0.12042286,-2.6950939,0.16427276,1.7157224,1.2264873,0.039999384,0.039999697,-8.3247595,-1.5355418920516968,-5.0250864,0.21050125,0.19018103182315826,-0.034234185
1176.299999999259,-0.12633157,-0.41840988,0.12117238,-2.6971993,0.16529219,1.7166227,1.2292268,0.03999937,0.039999697,-8.3065195,-1.5594172477722168,-5.0482717,0.20943183,0.18892411887645721,-0.03443367
1176.3166666659256,-0.12710632,-0.41616377,0.12191732,-2.6992917,0.16630536,1.7175174,1.2319498,0.039999355,0.039999705,-8.288783,-1.5833797454833984,-5.0712795,0.2083369,0.18764366209506989,-0.034620877
1176.3333333325922,-0.1278762,-0.41393176,0.12265761,-2.7013714,0.16731213,1.7184066,1.2346556,0.03999932,0.03999971,-8.27048,-1.6073226928710938,-5.0938377,0.20721482,0.18634217977523804,-0.03479941
1176.349999999259,-0.12864108,-0.41171405,0.12339318,-2.703438,0.16831242,1.7192901,1.2373441,0.03999931,0.039999716,-8.252838,-1.6312443017959595,-5.1162434,0.20606582,0.18501827120780945,-0.034959294
1176.3666666659255,-0.12940088,-0.4095109,0.12412393,-2.7054908,0.16930611,1.7201679,1.2400151,0.039999295,0.039999727,-8.234598,-1.655164122581482,-5.138174,0.20488997,0.1836729347705841,-0.03510919
1176.3833333325922,-0.13015549,-0.40732265,0.124849774,-2.7075295,0.17029312,1.7210397,1.2426682,0.039999273,0.03999973,-8.216913,-1.6790978908538818,-5.1599455,0.20368756,0.18230754137039185,-0.03524445
1176.3999999992589,-0.1309049,-0.40514937,0.12557064,-2.7095537,0.17127332,1.7219057,1.2453029,0.039999247,0.039999727,-8.198654,-1.7029683589935303,-5.181249,0.20245968,0.1809234619140625,-0.035367362
1176.4166666659255,-0.13164897,-0.40299147,0.12628648,-2.7115643,0.17224659,1.7227653,1.2479192,0.039999243,0.039999735,-8.180985,-1.7268526554107666,-5.2024045,0.20120582,0.17952226102352142,-0.035475645
1176.4333333325922,-0.13238764,-0.40084904,0.12699716,-2.71356,0.17321281,1.7236189,1.2505167,0.039999213,0.039999735,-8.162917,-1.7506600618362427,-5.223056,0.19992638,0.17809689044952393,-0.035573173
1176.4499999992588,-0.13312082,-0.39872247,0.12770268,-2.7155414,0.17417188,1.7244662,1.2530949,0.039999187,0.03999974,-8.145324,-1.774487853050232,-5.2435813,0.1986217,0.17665338516235352,-0.035658993
1176.4666666659255,-0.13384844,-0.39661184,0.12840287,-2.7175078,0.17512375,1.7253071,1.255654,0.03999917,0.03999974,-8.127274,-1.7981812953948975,-5.2636275,0.19729325,0.17519249022006989,-0.035727393
1176.483333332592,-0.13457045,-0.3945174,0.12909773,-2.7194593,0.17606828,1.7261417,1.2581934,0.03999916,0.03999975,-8.109559,-1.8218592405319214,-5.2834344,0.19593845,0.17371082305908203,-0.035781857
1176.4999999992588,-0.13528667,-0.3924394,0.1297872,-2.7213953,0.1770054,1.7269696,1.2607129,0.039999124,0.03999975,-8.092114,-1.8455442190170288,-5.303024,0.19455998,0.17221179604530334,-0.03582797
1176.5166666659254,-0.13599713,-0.39037806,0.13047118,-2.7233155,0.17793496,1.7277908,1.2632121,0.0399991,0.03999975,-8.074202,-1.869075059890747,-5.3221197,0.19315779,0.17069439589977264,-0.03585695
1176.533333332592,-0.1367017,-0.38833362,0.13114952,-2.7252207,0.17885691,1.7286057,1.2656908,0.03999909,0.039999753,-8.056856,-1.8925811052322388,-5.3410854,0.19173221,0.16916190087795258,-0.035870366
1176.5499999992587,-0.13740036,-0.3863063,0.13182224,-2.7271092,0.17977114,1.7294134,1.2681489,0.039999075,0.03999976,-8.039099,-1.9159739017486572,-5.359588,0.1902837,0.1676114946603775,-0.03587214
1176.5666666659254,-0.13809296,-0.38429636,0.13248923,-2.7289815,0.18067756,1.7302144,1.2705863,0.039999045,0.03999976,-8.021843,-1.939347267150879,-5.377914,0.18881232,0.16604499518871307,-0.03586245
1176.583333332592,-0.1387795,-0.38230374,0.13315046,-2.7308376,0.18157607,1.7310082,1.2730023,0.039999027,0.039999772,-8.004138,-1.9625743627548218,-5.395783,0.1873174,0.16446302831172943,-0.03584036
1176.5999999992587,-0.13945992,-0.38032886,0.13380583,-2.732677,0.18246654,1.7317954,1.2753972,0.039999016,0.03999978,-7.9871445,-1.9857232570648193,-5.4135184,0.1858006,0.16286444664001465,-0.035800416
1176.6166666659253,-0.1401341,-0.37837183,0.13445528,-2.7345006,0.18334909,1.732575,1.2777703,0.039998997,0.03999978,-7.969553,-2.0087616443634033,-5.4307957,0.18426077,0.161253422498703,-0.035748232
1176.633333332592,-0.14080201,-0.37643296,0.13509879,-2.736307,0.18422337,1.7333473,1.2801214,0.03999897,0.03999978,-7.952785,-2.0317132472991943,-5.4479046,0.18269919,0.1596222072839737,-0.035682365
1176.6499999992586,-0.14146358,-0.37451237,0.13573623,-2.738096,0.18508933,1.7341124,1.2824506,0.03999895,0.039999794,-7.9353414,-2.054539680480957,-5.464556,0.18111758,0.15797656774520874,-0.03560512
1176.6666666659253,-0.14211875,-0.37261015,0.13636756,-2.7398686,0.185947,1.7348706,1.2847573,0.039998922,0.039999794,-7.918665,-2.0772500038146973,-5.4810853,0.1795143,0.15631768107414246,-0.035511818
1176.683333332592,-0.14276744,-0.37072647,0.13699275,-2.741624,0.18679625,1.7356211,1.2870413,0.039998915,0.0399998,-7.9014926,-2.0998029708862305,-5.4971676,0.17789057,0.15464532375335693,-0.03540243
1176.6999999992586,-0.14340961,-0.3688617,0.1376117,-2.743361,0.18763702,1.7363641,1.2893026,0.039998893,0.039999798,-7.885028,-2.1222786903381348,-5.513095,0.17624693,0.1529577672481537,-0.035279695
1176.7166666659252,-0.14404522,-0.3670159,0.13822441,-2.7450807,0.1884692,1.7370996,1.2915411,0.039998874,0.03999981,-7.8678646,-2.1446282863616943,-5.528566,0.17458412,0.1512601375579834,-0.035148203
1176.7333333325919,-0.14467415,-0.3651893,0.13883078,-2.7467828,0.18929274,1.7378277,1.2937565,0.039998844,0.039999805,-7.851314,-2.1667966842651367,-5.543833,0.17290133,0.1495482176542282,-0.035001382
1176.7499999992585,-0.14529641,-0.36338195,0.13943082,-2.7484665,0.19010754,1.7385479,1.2959484,0.039998833,0.039999817,-7.8351507,-2.1888480186462402,-5.5588903,0.17119898,0.1478249430656433,-0.034841485
1176.7666666659252,-0.14591189,-0.36159405,0.14002447,-2.7501323,0.1909136,1.7392606,1.298117,0.03999882,0.039999813,-7.818376,-2.2107253074645996,-5.5734997,0.16947924,0.146091490983963,-0.034665372
1176.7833333325918,-0.14652057,-0.35982582,0.14061154,-2.75178,0.19171086,1.7399652,1.3002616,0.039998792,0.039999817,-7.8024364,-2.232496738433838,-5.5879736,0.16773976,0.14434529840946198,-0.034480244
1176.7999999992585,-0.14712234,-0.35807738,0.14119211,-2.7534091,0.19249907,1.740662,1.302382,0.039998762,0.039999817,-7.785969,-2.2540500164031982,-5.602018,0.16598381,0.14258664846420288,-0.03428181
1176.8166666659251,-0.14771725,-0.35634875,0.14176604,-2.7550197,0.19327833,1.7413508,1.3044785,0.03999874,0.03999982,-7.7702227,-2.2754766941070557,-5.615933,0.16421287,0.14081890881061554,-0.03406932
1176.8333333325918,-0.14830516,-0.3546402,0.14233337,-2.756612,0.19404855,1.7420317,1.3065506,0.039998725,0.03999982,-7.753961,-2.2966909408569336,-5.629429,0.16242315,0.13904109597206116,-0.0338418
1176.8499999992584,-0.14888613,-0.3529519,0.14289406,-2.7581851,0.19480965,1.7427045,1.3085983,0.039998714,0.039999835,-7.7385573,-2.3177812099456787,-5.642795,0.16061775,0.13725151121616364,-0.033604003
1176.866666665925,-0.14945997,-0.35128385,0.14344801,-2.759739,0.19556157,1.7433693,1.3106217,0.039998695,0.03999984,-7.72249,-2.338655710220337,-5.655728,0.1587973,0.13545426726341248,-0.03335271
1176.8833333325917,-0.15002677,-0.34963623,0.14399521,-2.7612739,0.19630428,1.7440261,1.3126203,0.039998673,0.039999843,-7.7072306,-2.3593976497650146,-5.668556,0.15695955,0.13365013897418976,-0.03309117
1176.8999999992584,-0.15058641,-0.3480092,0.14453559,-2.7627897,0.19703767,1.7446744,1.3145938,0.03999865,0.039999843,-7.6914983,-2.3799009323120117,-5.6809564,0.15510824,0.13183744251728058,-0.032816246
1176.916666665925,-0.15113893,-0.34640294,0.14506912,-2.7642863,0.19776174,1.7453146,1.3165424,0.039998632,0.039999843,-7.67662,-2.40020751953125,-5.6932435,0.15324232,0.1300158053636551,-0.03252747
1176.9333333325917,-0.15168421,-0.34481737,0.14559577,-2.7657635,0.19847633,1.7459465,1.3184657,0.039998624,0.039999854,-7.6610823,-2.420349597930908,-5.70511,0.15136251,0.128187894821167,-0.032228764
1176.9499999992584,-0.15222225,-0.34325275,0.1461155,-2.7672212,0.19918165,1.7465702,1.3203636,0.039998606,0.03999985,-7.6465116,-2.440262794494629,-5.7168946,0.14946954,0.12635205686092377,-0.03191529
1176.966666665925,-0.15275295,-0.34170902,0.14662826,-2.768659,0.19987747,1.7471855,1.3222361,0.039998576,0.039999854,-7.631265,-2.4600205421447754,-5.7282443,0.14756408,0.12450999766588211,-0.031596184
1176.9833333325917,-0.1532764,-0.34018642,0.14713407,-2.7700777,0.20056376,1.7477925,1.324083,0.039998557,0.039999858,-7.6165667,-2.479527473449707,-5.73943,0.14564742,0.12266212701797485,-0.03126267
1176.9999999992583,-0.15379252,-0.33868498,0.14763285,-2.7714772,0.20124044,1.748391,1.3259043,0.039998543,0.039999872,-7.6024175,-2.4988229274749756,-5.750453,0.14371839,0.12080825120210648,-0.030918807
1177.016666665925,-0.15430127,-0.33720487,0.1481246,-2.7728565,0.20190755,1.748981,1.3276998,0.039998528,0.039999872,-7.5877557,-2.517871141433716,-5.761064,0.14177713,0.11894713342189789,-0.030559614
1177.0333333325916,-0.15480264,-0.33574617,0.14860927,-2.7742155,0.20256501,1.7495624,1.3294693,0.039998513,0.039999876,-7.573852,-2.536757707595825,-5.7715793,0.13982509,0.11708177626132965,-0.030192155
1177.0499999992583,-0.15529656,-0.33430892,0.14908683,-2.7755551,0.2032128,1.7501352,1.331213,0.039998498,0.039999876,-7.559361,-2.5554027557373047,-5.7817054,0.1378636,0.11521399021148682,-0.029813444
1177.066666665925,-0.15578307,-0.3328931,0.14955728,-2.7768743,0.2038509,1.7506998,1.3329308,0.039998475,0.039999876,-7.545892,-2.57380747795105,-5.7917485,0.1358922,0.1133396178483963,-0.029424496
1177.0833333325916,-0.1562621,-0.33149892,0.15002058,-2.7781732,0.20447929,1.7512554,1.334622,0.039998457,0.039999876,-7.5317025,-2.5920183658599854,-5.801411,0.13391075,0.1114652007818222,-0.02902672
1177.0999999992582,-0.15673362,-0.33012632,0.15047674,-2.7794523,0.20509793,1.7518028,1.3362873,0.039998434,0.039999872,-7.5184927,-2.60996150970459,-5.81098,0.13192335,0.10958690941333771,-0.028618675
1177.1166666659249,-0.15719761,-0.32877538,0.15092573,-2.7807105,0.20570676,1.7523414,1.3379261,0.03999842,0.03999988,-7.5047483,-2.627687692642212,-5.8201737,0.129927,0.10770644247531891,-0.02820192
1177.1333333325915,-0.15765412,-0.32744616,0.15136746,-2.781949,0.20630576,1.7528712,1.3395387,0.0399984,0.03999988,-7.4918094,-2.645169734954834,-5.8292947,0.127924,0.1058250218629837,-0.02777543
1177.1499999992582,-0.15810314,-0.32613876,0.15180197,-2.7831671,0.20689493,1.7533925,1.3411249,0.03999839,0.039999884,-7.47843,-2.6623899936676025,-5.8380413,0.12591395,0.10394055396318436,-0.027339011
1177.1666666659248,-0.15854454,-0.32485315,0.1522293,-2.7843654,0.20747429,1.7539048,1.3426845,0.039998375,0.039999887,-7.4658947,-2.679373025894165,-5.8467283,0.12389752,0.10205545276403427,-0.026894094
1177.1833333325915,-0.15897845,-0.32358938,0.15264937,-2.7855432,0.20804381,1.7544087,1.3442177,0.03999836,0.039999895,-7.45285,-2.6961183547973633,-5.855031,0.12187615,0.10016784071922302,-0.026440153
1177.1999999992581,-0.15940475,-0.3223475,0.15306218,-2.7867,0.20860343,1.7549039,1.3457249,0.03999835,0.0399999,-7.440661,-2.712602138519287,-5.863296,0.11984986,0.0982816070318222,-0.025977144
1177.2166666659248,-0.15982355,-0.32112738,0.15346773,-2.787837,0.20915326,1.75539,1.3472052,0.03999833,0.039999902,-7.4278626,-2.7288825511932373,-5.87118,0.117816366,0.09639717638492584,-0.025508918
1177.2333333325914,-0.16023476,-0.31992924,0.15386602,-2.788953,0.20969312,1.7558678,1.3486583,0.03999831,0.039999902,-7.4157557,-2.7448437213897705,-5.878943,0.115781456,0.09451034665107727,-0.025030483
1177.249999999258,-0.16063836,-0.31875306,0.15425709,-2.7900488,0.21022314,1.7563368,1.3500848,0.039998304,0.039999906,-7.4040356,-2.7605814933776855,-5.886586,0.113746434,0.09262949973344803,-0.024545018
1177.2666666659247,-0.16103442,-0.3175988,0.15464093,-2.7911248,0.21074328,1.756797,1.3514851,0.039998285,0.039999902,-7.391876,-2.776060104370117,-5.893859,0.111709654,0.09074932336807251,-0.024052653
1177.2833333325914,-0.16142288,-0.31646636,0.15501745,-2.7921798,0.21125358,1.7572485,1.352859,0.039998274,0.039999913,-7.3806953,-2.791257381439209,-5.9010854,0.109668456,0.08886774629354477,-0.023553807
1177.299999999258,-0.16180377,-0.31535587,0.1553868,-2.7932146,0.21175398,1.7576913,1.3542063,0.039998252,0.039999906,-7.3687787,-2.8062355518341064,-5.9079924,0.10762603,0.08699315041303635,-0.02304887
1177.3166666659247,-0.16217713,-0.31426722,0.15574887,-2.794229,0.21224451,1.7581252,1.3555275,0.03999824,0.039999906,-7.357936,-2.82090163230896,-5.9148307,0.10558351,0.08512059599161148,-0.02253483
1177.3333333325913,-0.16254297,-0.31320038,0.15610372,-2.7952232,0.2127252,1.7585508,1.3568221,0.039998226,0.03999991,-7.3464894,-2.83534836769104,-5.9213448,0.10353932,0.08325087279081345,-0.022016713
1177.349999999258,-0.16290128,-0.31215546,0.1564513,-2.7961967,0.21319604,1.7589674,1.3580904,0.03999821,0.039999917,-7.3359704,-2.849508762359619,-5.927834,0.10149589,0.08138619363307953,-0.02149447
1177.3666666659246,-0.16325206,-0.31113222,0.15679164,-2.79715,0.21365705,1.7593753,1.3593324,0.0399982,0.039999917,-7.3248343,-2.8634212017059326,-5.9339843,0.099454194,0.07952900975942612,-0.020965964
1177.3833333325913,-0.16359532,-0.31013077,0.15712477,-2.7980833,0.21410829,1.7597747,1.3605478,0.03999819,0.039999917,-7.314728,-2.87703013420105,-5.9400916,0.09741364,0.07767559587955475,-0.020431554
1177.399999999258,-0.16393113,-0.309151,0.1574507,-2.7989962,0.21454978,1.7601651,1.3617367,0.039998177,0.03999992,-7.3040814,-2.89039945602417,-5.9458885,0.095377065,0.07582715153694153,-0.019893078
1177.4166666659246,-0.16425945,-0.3081929,0.15776947,-2.7998886,0.2149815,1.760547,1.3628995,0.039998166,0.039999925,-7.2943025,-2.9034841060638428,-5.9516544,0.09334499,0.07398400455713272,-0.019350832
1177.4333333325912,-0.16458035,-0.30725628,0.15808111,-2.800761,0.2154035,1.7609206,1.3640361,0.039998155,0.039999936,-7.283934,-2.9163448810577393,-5.957113,0.09131661,0.0721503272652626,-0.018807372
1177.449999999258,-0.1648938,-0.30634117,0.1583856,-2.8016138,0.21581581,1.7612854,1.3651468,0.039998144,0.039999932,-7.274562,-2.92887282371521,-5.9625545,0.08929377,0.07032542675733566,-0.018257251
1177.4666666659245,-0.16519988,-0.30544758,0.15868302,-2.8024464,0.21621847,1.7616417,1.3662314,0.039998136,0.039999936,-7.2647314,-2.9411470890045166,-5.9676723,0.08727558,0.06850538402795792,-0.017702699
1177.4833333325912,-0.16549863,-0.30457532,0.15897334,-2.8032596,0.21661153,1.7619897,1.3672901,0.039998118,0.039999932,-7.2552986,-2.9531822204589844,-5.9727073,0.08526393,0.0666956678032875,-0.017147638
1177.4999999992579,-0.16578999,-0.30372426,0.15925659,-2.804053,0.21699493,1.7623291,1.3683232,0.039998107,0.039999932,-7.2465415,-2.964890241622925,-5.9776654,0.08325896,0.064893938601017,-0.016588481
1177.5166666659245,-0.16607413,-0.30289438,0.15953283,-2.8048265,0.21736884,1.7626599,1.3693306,0.03999809,0.039999932,-7.2372327,-2.9763739109039307,-5.9823246,0.08126151,0.06310131400823593,-0.016026393
1177.5333333325912,-0.16635105,-0.30208555,0.15980211,-2.80558,0.21773326,1.7629825,1.3703127,0.03999808,0.03999994,-7.228759,-2.987574338912964,-5.9869595,0.079272434,0.061318088322877884,-0.015464515
1177.5499999992578,-0.16662069,-0.30129758,0.16006444,-2.8063142,0.21808827,1.763297,1.3712691,0.039998077,0.039999943,-7.2197237,-2.998541831970215,-5.991326,0.07729255,0.05954958498477936,-0.014901253
1177.5666666659245,-0.16688319,-0.30053046,0.16031985,-2.807029,0.21843389,1.7636031,1.3722003,0.03999807,0.03999994,-7.211746,-3.0091683864593506,-5.9956765,0.07532371,0.057790812104940414,-0.014334741
1177.583333332591,-0.16713852,-0.2997841,0.16056839,-2.8077245,0.21877022,1.7639009,1.3731062,0.03999806,0.03999994,-7.2031465,-3.019590377807617,-5.999743,0.07336572,0.05604470521211624,-0.013770085
1177.5999999992578,-0.16738679,-0.29905826,0.16081007,-2.8084009,0.21909729,1.7641902,1.3739873,0.039998043,0.03999994,-7.1954427,-3.029705047607422,-6.0037923,0.071419396,0.054310910403728485,-0.013205605
1177.6166666659244,-0.1676281,-0.29835278,0.16104499,-2.8090582,0.21941507,1.7644715,1.3748441,0.03999803,0.039999936,-7.187293,-3.0395641326904297,-6.00758,0.06948503,0.05258787050843239,-0.012639561
1177.633333332591,-0.1678624,-0.29766753,0.16127315,-2.8096964,0.21972379,1.7647448,1.3756759,0.03999802,0.039999936,-7.1799726,-3.0491340160369873,-6.011381,0.06756135,0.050879765301942825,-0.012073248
1177.6499999992577,-0.16808978,-0.2970025,0.16149464,-2.8103163,0.22002335,1.7650102,1.3764832,0.039998014,0.03999994,-7.172126,-3.0584969520568848,-6.014905,0.06565345,0.04918628931045532,-0.011509395
1177.6666666659244,-0.16831031,-0.29635733,0.16170964,-2.8109174,0.22031398,1.7652674,1.3772666,0.039998006,0.039999943,-7.165218,-3.067539691925049,-6.0184283,0.06376048,0.04750777781009674,-0.010947063
1177.683333332591,-0.16852407,-0.2957319,0.161918,-2.8115005,0.22059575,1.7655166,1.378026,0.039998002,0.03999995,-7.157777,-3.0763652324676514,-6.0216837,0.06188151,0.04584340751171112,-0.010385368
1177.6999999992577,-0.16873105,-0.29512608,0.16211982,-2.8120651,0.22086866,1.7657582,1.3787618,0.039998,0.03999995,-7.1512365,-3.0848724842071533,-6.024958,0.060018618,0.04419320821762085,-0.009823918
1177.7166666659243,-0.16893138,-0.29453972,0.1623152,-2.8126113,0.22113287,1.765992,1.379474,0.039997987,0.039999947,-7.144143,-3.0931880474090576,-6.027986,0.058172066,0.042561113834381104,-0.009265952
1177.733333332591,-0.16912505,-0.29397252,0.16250421,-2.81314,0.22138837,1.7662185,1.3801627,0.03999798,0.03999995,-7.137563,-3.1012279987335205,-6.0309496,0.056342717,0.04094665125012398,-0.008712613
1177.7499999992576,-0.16931224,-0.29342434,0.1626869,-2.8136508,0.22163531,1.7664374,1.3808283,0.039997973,0.03999995,-7.131526,-3.1089768409729004,-6.033859,0.05453315,0.03935065120458603,-0.008161266
1177.7666666659243,-0.169493,-0.29289493,0.16286331,-2.814144,0.22187376,1.7666488,1.3814712,0.039997965,0.039999954,-7.1250134,-3.116511106491089,-6.036532,0.05274326,0.037772148847579956,-0.0076139285
1177.783333332591,-0.16966735,-0.29238415,0.1630336,-2.81462,0.22210383,1.7668526,1.3820915,0.039997958,0.03999995,-7.119258,-3.123774528503418,-6.0392127,0.050972592,0.03621404618024826,-0.0070715593
1177.7999999992576,-0.16983537,-0.29189178,0.16319777,-2.8150787,0.22232568,1.7670491,1.3826895,0.039997954,0.03999995,-7.113159,-3.130791664123535,-6.041657,0.04922212,0.03467395529150963,-0.0065306495
1177.8166666659242,-0.16999716,-0.29141733,0.16335589,-2.8155205,0.22253938,1.7672381,1.3832655,0.039997946,0.03999995,-7.1077223,-3.1375732421875,-6.044107,0.047494866,0.033154599368572235,-0.005997001
1177.8333333325909,-0.17015278,-0.29096103,0.16350806,-2.815946,0.222745,1.7674202,1.3838198,0.03999794,0.03999995,-7.1019483,-3.1441168785095215,-6.046354,0.045789395,0.03165464103221893,-0.0054671015
1177.8499999992575,-0.17030244,-0.29052225,0.16365443,-2.816355,0.22294259,1.767595,1.3843527,0.039997928,0.039999947,-7.096908,-3.1503822803497314,-6.0485926,0.044107176,0.030176063999533653,-0.0049426425
1177.8666666659242,-0.17044607,-0.29010078,0.16379501,-2.8167474,0.22313239,1.7677629,1.3848643,0.039997928,0.039999947,-7.091394,-3.156463861465454,-6.050641,0.04244944,0.028721263632178307,-0.004423247
1177.8833333325908,-0.17058383,-0.28969646,0.1639299,-2.8171241,0.22331454,1.7679243,1.3853555,0.039997924,0.039999947,-7.086661,-3.16227650642395,-6.0526814,0.040817194,0.027287527918815613,-0.0039105453
1177.8999999992575,-0.17071585,-0.28930902,0.16405918,-2.817485,0.22348909,1.7680792,1.3858263,0.03999792,0.039999954,-7.081512,-3.1678948402404785,-6.054535,0.03921016,0.02587883360683918,-0.0034065668
1177.9166666659241,-0.17084219,-0.2889381,0.16418296,-2.8178308,0.22365618,1.7682272,1.3862767,0.039997917,0.039999954,-7.0770674,-3.173243284225464,-6.056388,0.037628494,0.02449479140341282,-0.0029094375
1177.9333333325908,-0.17096297,-0.2885835,0.16430134,-2.8181612,0.22381596,1.7683685,1.3867077,0.039997913,0.039999958,-7.0722833,-3.1783883571624756,-6.058047,0.036076143,0.023134097456932068,-0.0024187786
1177.9499999992574,-0.17107826,-0.28824475,0.16441445,-2.8184767,0.22396852,1.7685039,1.3871192,0.039997905,0.039999958,-7.0681024,-3.1833035945892334,-6.059712,0.03455061,0.021799063310027122,-0.0019361122
1177.966666665924,-0.17118813,-0.28792173,0.16452233,-2.8187776,0.22411406,1.768633,1.3875116,0.0399979,0.039999958,-7.063585,-3.18802809715271,-6.0612044,0.033055324,0.02049197256565094,-0.0014619274
1177.9833333325907,-0.1712928,-0.28761402,0.1646251,-2.8190641,0.22425269,1.7687557,1.3878857,0.039997898,0.03999996,-7.0594845,-3.1925208568573,-6.0626483,0.031590343,0.01921098493039608,-0.0009965316
1177.9999999992574,-0.17139232,-0.28732133,0.16472287,-2.819337,0.22438452,1.7688726,1.3882414,0.03999789,0.03999996,-7.0557647,-3.1967875957489014,-6.064054,0.030154744,0.01795666664838791,-0.0005394935
1178.016666665924,-0.17148684,-0.28704324,0.16481578,-2.8195958,0.22450978,1.7689838,1.3885791,0.03999789,0.03999996,-7.051689,-3.2008728981018066,-6.065303,0.028752102,0.016731727868318558,-9.0525005e-05
1178.0333333325907,-0.17157646,-0.28677955,0.16490394,-2.8198414,0.22462855,1.7690892,1.3888996,0.039997887,0.039999966,-7.048188,-3.204766273498535,-6.066551,0.02738306,0.015536493621766567,0.00034642845
1178.0499999992574,-0.17166123,-0.2865298,0.16498747,-2.820074,0.22474104,1.769189,1.389203,0.039997883,0.03999996,-7.0444245,-3.2084460258483887,-6.0676327,0.026046697,0.014370146207511425,0.0007747738
1178.066666665924,-0.17174135,-0.28629372,0.16506642,-2.820294,0.22484744,1.7692837,1.3894901,0.039997883,0.03999996,-7.0411997,-3.2119381427764893,-6.0687256,0.024745671,0.013234279118478298,0.0011932387
1178.0833333325907,-0.17181697,-0.28607097,0.16514096,-2.8205018,0.22494784,1.769372,1.3897612,0.03999788,0.03999996,-7.037646,-3.2152624130249023,-6.0696707,0.023478532,0.012130627408623695,0.0015994231
1178.0999999992573,-0.17188819,-0.2858609,0.16521123,-2.8206973,0.22504246,1.7694563,1.3900166,0.03999788,0.03999996,-7.03472,-3.2183456420898438,-6.0705996,0.022247486,0.011054026894271374,0.0019985603
1178.116666665924,-0.17195514,-0.28566337,0.16527733,-2.8208823,0.22513147,1.7695359,1.3902569,0.03999788,0.03999996,-7.031346,-3.221355676651001,-6.071439,0.021054298,0.010015656240284443,0.0023820223
1178.1333333325906,-0.17201793,-0.28547785,0.16533941,-2.8210547,0.22521506,1.769609,1.3904825,0.039997876,0.03999996,-7.0286984,-3.2240943908691406,-6.0722537,0.01989759,0.009007821790874004,0.0027554797
1178.1499999992573,-0.17207679,-0.28530407,0.16539761,-2.8212168,0.2252934,1.769678,1.390694,0.039997872,0.03999996,-7.0255146,-3.2267496585845947,-6.0728984,0.018781217,0.008031662553548813,0.0031183525
1178.166666665924,-0.1721318,-0.28514147,0.16545211,-2.8213687,0.2253666,1.769743,1.3908919,0.039997872,0.03999996,-7.0229483,-3.2291924953460693,-6.0736055,0.017704656,0.007092170417308807,0.0034681556
1178.1833333325906,-0.17218313,-0.28498968,0.16550297,-2.8215098,0.225435,1.7698041,1.3910766,0.039997872,0.03999996,-7.0201774,-3.231502056121826,-6.0741773,0.016667578,0.006187481805682182,0.0038057768
1178.1999999992572,-0.17223087,-0.28484827,0.16555032,-2.821641,0.2254987,1.7698613,1.3912487,0.03999787,0.039999958,-7.0176444,-3.233693838119507,-6.0747614,0.0156738,0.005324260797351599,0.004126064
1178.2166666659239,-0.17227523,-0.28471687,0.16559444,-2.8217633,0.22555794,1.7699146,1.3914088,0.03999786,0.039999954,-7.01492,-3.235743522644043,-6.075213,0.014722843,0.004500928800553083,0.0044302586
1178.2333333325905,-0.17231634,-0.28459492,0.16563533,-2.8218775,0.22561288,1.7699641,1.3915573,0.039997865,0.039999958,-7.012622,-3.237588882446289,-6.075634,0.013814791,0.003713449230417609,0.0047237244
1178.2499999992572,-0.17235434,-0.284482,0.16567326,-2.8219838,0.22566384,1.7700098,1.3916948,0.03999786,0.039999954,-7.010527,-3.239306688308716,-6.07604,0.012950385,0.0029620814602822065,0.005004001
1178.2666666659238,-0.17238943,-0.28437752,0.1657083,-2.8220823,0.22571088,1.7700517,1.391822,0.03999786,0.039999954,-7.0081987,-3.2409298419952393,-6.0763407,0.012131978,0.0022481181658804417,0.0052718935
1178.2833333325905,-0.17242183,-0.2842811,0.16574074,-2.822173,0.22575428,1.77009,1.3919394,0.03999786,0.039999954,-7.0061746,-3.2424252033233643,-6.0766544,0.011359345,0.0015726016135886312,0.005526553
1178.2999999992571,-0.17245162,-0.2841922,0.16577059,-2.8222563,0.2257943,1.7701244,1.3920478,0.03999786,0.039999954,-7.0038967,-3.2438464164733887,-6.0768695,0.010633874,0.0009375633089803159,0.0057670306
1178.3166666659238,-0.17247905,-0.28411055,0.16579817,-2.8223324,0.22583118,1.7701575,1.3921475,0.03999786,0.039999954,-7.001889,-3.2451586723327637,-6.0770936,0.009957042,0.00034353186492808163,0.0059918086
1178.3333333325904,-0.1725042,-0.28403527,0.16582346,-2.822401,0.22586504,1.7701879,1.3922395,0.03999786,0.039999954,-6.9996634,-3.2464029788970947,-6.077266,0.009329807,-0.00020032045722473413,0.006195914
1178.349999999257,-0.17252733,-0.28396618,0.16584675,-2.8224645,0.2258963,1.7702148,1.392324,0.03999786,0.039999954,-6.9976563,-3.247559070587158,-6.0774274,0.008753014,-0.0006964987842366099,0.0063804276
1178.3666666659237,-0.17254858,-0.28390256,0.16586818,-2.8225243,0.22592495,1.7702404,1.3924015,0.039997857,0.039999954,-6.9958186,-3.2485580444335938,-6.0774927,0.008222318,-0.0011573043884709477,0.006552648
1178.3833333325904,-0.1725681,-0.2838441,0.16588786,-2.8225775,0.22595136,1.7702634,1.3924729,0.039997853,0.039999954,-6.994427,-3.249446392059326,-6.077642,0.007733954,-0.0015833163633942604,0.006713534
1178.399999999257,-0.17258607,-0.28379032,0.165906,-2.8226297,0.2259756,1.7702852,1.3925385,0.03999785,0.039999954,-6.99258,-3.250375270843506,-6.0777216,0.007286051,-0.001970442244783044,0.006857548
1178.4166666659237,-0.17260253,-0.28374082,0.16592272,-2.8226748,0.2259979,1.7703048,1.392599,0.039997846,0.039999954,-6.9916644,-3.251054286956787,-6.077837,0.006870714,-0.002335913944989443,0.0069977148
1178.4333333325903,-0.17261767,-0.28369522,0.16593808,-2.8227193,0.22601841,1.7703232,1.3926549,0.039997842,0.039999954,-6.989914,-3.251905679702759,-6.077908,0.0064919023,-0.0026632610242813826,0.007120212
1178.449999999257,-0.17263158,-0.2836533,0.1659523,-2.8227568,0.22603725,1.7703401,1.3927062,0.03999784,0.039999954,-6.9891844,-3.252469539642334,-6.0780053,0.006138713,-0.002974501345306635,0.0072406027
1178.4666666659236,-0.17264436,-0.28361484,0.16596532,-2.8227937,0.2260546,1.7703553,1.3927534,0.03999784,0.039999954,-6.9875536,-3.253237009048462,-6.078077,0.0058185947,-0.0032471937593072653,0.0073425453
1178.4833333325903,-0.17265607,-0.28357944,0.1659773,-2.8228247,0.22607057,1.7703698,1.3927968,0.03999784,0.039999954,-6.986879,-3.2537012100219727,-6.0781255,0.0055212076,-0.003507991088554263,0.007443205
1178.499999999257,-0.17266683,-0.28354686,0.16598834,-2.822854,0.2260852,1.770383,1.3928369,0.03999784,0.039999954,-6.9856124,-3.2543420791625977,-6.078207,0.005250983,-0.0037358661647886038,0.0075267865
1178.5166666659236,-0.1726767,-0.28351694,0.16599847,-2.8228834,0.22609872,1.7703949,1.3928738,0.03999784,0.039999954,-6.9848537,-3.2547836303710938,-6.078242,0.005000559,-0.003948333207517862,0.0076063573
1178.5333333325902,-0.17268579,-0.28348938,0.16600786,-2.822909,0.22611116,1.7704059,1.3929075,0.03999784,0.039999954,-6.984423,-3.255129814147949,-6.0782905,0.00476834,-0.004152994602918625,0.007686763
1178.549999999257,-0.17269415,-0.28346407,0.16601644,-2.822931,0.22612262,1.770416,1.3929384,0.03999784,0.039999954,-6.9834876,-3.255603790283203,-6.0783377,0.0045567304,-0.004337023943662643,0.00775726
1178.5666666659235,-0.17270187,-0.2834407,0.1660244,-2.8229527,0.22613315,1.7704256,1.3929671,0.03999784,0.039999954,-6.982636,-3.256031036376953,-6.078392,0.0043644737,-0.004499784205108881,0.007816824
1178.5833333325902,-0.17270888,-0.28341928,0.16603167,-2.8229744,0.22614282,1.7704344,1.3929933,0.03999784,0.039999954,-6.9822116,-3.256317615509033,-6.0784245,0.0041846135,-0.00465433532372117,0.0078756185
1178.5999999992569,-0.17271535,-0.28339955,0.16603838,-2.8229935,0.22615169,1.7704424,1.3930178,0.03999784,0.039999954,-6.9818945,-3.2565746307373047,-6.078464,0.004018502,-0.004802254494279623,0.007934349
1178.6166666659235,-0.17272128,-0.28338146,0.16604456,-2.8230083,0.22615989,1.7704494,1.39304,0.03999784,0.039999954,-6.981214,-3.256910800933838,-6.078498,0.0038651996,-0.004935596138238907,0.00798643
1178.6333333325902,-0.17272675,-0.28336477,0.16605027,-2.8230226,0.2261674,1.7704562,1.3930606,0.03999784,0.039999954,-6.980415,-3.257279634475708,-6.0785294,0.003728485,-0.005049166735261679,0.008027725
1178.6499999992568,-0.17273177,-0.28334945,0.1660555,-2.8230367,0.22617427,1.7704624,1.3930794,0.03999784,0.039999954,-6.980078,-3.2574868202209473,-6.078551,0.0036009431,-0.005155352875590324,0.008066861
1178.6666666659235,-0.17273639,-0.28333533,0.16606031,-2.8230507,0.22618061,1.7704681,1.3930968,0.03999784,0.039999954,-6.979828,-3.2576699256896973,-6.0785747,0.0034833455,-0.005256114061921835,0.008105412
1178.68333333259,-0.17274062,-0.2833223,0.16606471,-2.8230648,0.22618645,1.7704735,1.3931129,0.03999784,0.039999954,-6.979583,-3.257840871810913,-6.0785975,0.0033736282,-0.005352973472326994,0.00814393
1178.6999999992568,-0.17274453,-0.28331038,0.16606875,-2.8230777,0.22619182,1.7704785,1.3931274,0.03999784,0.039999954,-6.9793863,-3.2580010890960693,-6.078628,0.0032711534,-0.0054458933882415295,0.008182193
1178.7166666659234,-0.1727481,-0.28329945,0.16607255,-2.8230875,0.22619674,1.770483,1.3931409,0.03999784,0.039999954,-6.9790096,-3.258195638656616,-6.0786557,0.0031781506,-0.005530653987079859,0.008216853
1178.73333333259,-0.17275138,-0.28328934,0.16607597,-2.8230953,0.22620131,1.7704871,1.3931535,0.03999784,0.039999954,-6.9784436,-3.2584478855133057,-6.078675,0.0030945376,-0.005601152777671814,0.008243578
1178.7499999992567,-0.17275445,-0.28328007,0.16607913,-2.823102,0.22620554,1.7704905,1.393165,0.03999784,0.039999954,-6.7842693,-3.1996002197265625,-6.099218,0.0,-0.0,0.0
1178.7666666659234,-0.17275445,-0.28328007,0.16607913,-2.823102,0.22620554,1.7704905,1.393165,0.03999784,0.039999954,-6.9764514,-3.258664131164551,-6.07835,0.0,-0.0,0.0
1178.78333333259,-0.17275445,-0.28328007,0.16607913,-2.823102,0.22620554,1.7704905,1.393165,0.03999784,0.039999954,-6.9764514,-3.258664131164551,-6.07835,0.0,-0.0,0.0
1178.7999999992567,-0.17275445,-0.28328007,0.16607913,-2.823102,0.22620554,1.7704905,1.393165,0.03999784,0.039999954,-6.9764514,-3.258664131164551,-6.07835,0.0,-0.0,0.0
1178.8166666659233,-0.17275445,-0.28328007,0.16607913,-2.823102,0.22620554,1.7704905,1.393165,0.03999784,0.039999954,-6.9764514,-3.258664131164551,-6.07835,0.0,-0.0,0.0
1178.83333333259,-0.17275445,-0.28328007,0.16607913,-2.823102,0.22620554,1.7704905,1.393165,0.03999784,0.039999954,-6.9764514,-3.258664131164551,-6.07835,0.0,-0.0,0.0
1178.8499999992566,-0.17275445,-0.28328007,0.16607913,-2.823102,0.22620554,1.7704905,1.393165,0.03999784,0.039999954,-6.9764514,-3.258664131164551,-6.07835,0.0,-0.0,0.0
1178.8666666659233,-0.17275445,-0.28328007,0.16607913,-2.823102,0.22620554,1.7704905,1.393165,0.03999784,0.039999954,-6.9764514,-3.258664131164551,-6.07835,0.0,-0.0,0.0
1178.88333333259,-0.17275445,-0.28328007,0.16607913,-2.823102,0.22620554,1.7704905,1.393165,0.03999784,0.039999954,-6.9764514,-3.258664131164551,-6.07835,0.0,-0.0,0.0
1178.8999999992566,-0.17275445,-0.28328007,0.16607913,-2.823102,0.22620554,1.7704905,1.393165,0.03999784,0.039999954,-6.9764514,-3.258664131164551,-6.07835,0.0,-0.0,0.0
1178.9166666659232,-0.17275445,-0.28328007,0.16607913,-2.823102,0.22620554,1.7704905,1.393165,0.03999784,0.039999954,-6.9764514,-3.258664131164551,-6.07835,0.0,-0.0,0.0
1178.9333333325899,-0.17275445,-0.28328007,0.16607913,-2.823102,0.22620554,1.7704905,1.393165,0.03999784,0.039999954,-6.9764514,-3.258664131164551,-6.07835,0.0,-0.0,0.0
1178.9499999992565,-0.17275445,-0.28328007,0.16607913,-2.823102,0.22620554,1.7704905,1.393165,0.03999784,0.039999954,-6.9764514,-3.258664131164551,-6.07835,0.0,-0.0,0.0
1178.9666666659232,-0.17275445,-0.28328007,0.16607913,-2.823102,0.22620554,1.7704905,1.393165,0.03999784,0.039999954,-6.9764514,-3.258664131164551,-6.07835,0.0,-0.0,0.0
1178.9833333325898,-0.17275445,-0.28328007,0.16607913,-2.823102,0.22620554,1.7704905,1.393165,0.03999784,0.039999954,-6.9764514,-3.258664131164551,-6.07835,0.0,-0.0,0.0
1178.9999999992565,-0.17275445,-0.28328007,0.16607913,-2.823102,0.22620554,1.7704905,1.393165,0.03999784,0.039999954,-6.9764514,-3.258664131164551,-6.07835,0.0,-0.0,0.0
1179.0166666659231,-0.17275445,-0.28328007,0.16607913,-2.823102,0.22620554,1.7704905,1.393165,0.03999784,0.039999954,-6.9764514,-3.258664131164551,-6.07835,0.0,-0.0,0.0
1179.0333333325898,-0.17275445,-0.28328007,0.16607913,-2.823102,0.22620554,1.7704905,1.393165,0.03999784,0.039999954,-6.9764514,-3.258664131164551,-6.07835,0.0,-0.0,0.0
1179.0499999992564,-0.17275445,-0.28328007,0.16607913,-2.823102,0.22620554,1.7704905,1.393165,0.03999784,0.039999954,-6.9764514,-3.258664131164551,-6.07835,0.0,-0.0,0.0
1179.066666665923,-0.17275445,-0.28328007,0.16607913,-2.823102,0.22620554,1.7704905,1.393165,0.03999784,0.039999954,-6.9764514,-3.258664131164551,-6.07835,0.0,-0.0,0.0
1179.0833333325897,-0.17275445,-0.28328007,0.16607913,-2.823102,0.22620554,1.7704905,1.393165,0.03999784,0.039999954,-6.9764514,-3.258664131164551,-6.07835,0.0,-0.0,0.0
1179.0999999992564,-0.17275445,-0.28328007,0.16607913,-2.823102,0.22620554,1.7704905,1.393165,0.03999784,0.039999954,-6.9764514,-3.258664131164551,-6.07835,0.0,-0.0,0.0
1179.116666665923,-0.17275445,-0.28328007,0.16607913,-2.823102,0.22620554,1.7704905,1.393165,0.03999784,0.039999954,-6.9764514,-3.258664131164551,-6.07835,0.0,-0.0,0.0
1179.1333333325897,-0.17275445,-0.28328007,0.16607913,-2.823102,0.22620554,1.7704905,1.393165,0.03999784,0.039999954,-6.9764514,-3.258664131164551,-6.07835,0.0,-0.0,0.0
1179.1499999992564,-0.17275445,-0.28328007,0.16607913,-2.823102,0.22620554,1.7704905,1.393165,0.03999784,0.039999954,-6.9764514,-3.258664131164551,-6.07835,0.0,-0.0,0.0
1179.166666665923,-0.17275445,-0.28328007,0.16607913,-2.823102,0.22620554,1.7704905,1.393165,0.03999784,0.039999954,-6.9764514,-3.258664131164551,-6.07835,0.0,-0.0,0.0
1179.1833333325897,-0.17275445,-0.28328007,0.16607913,-2.823102,0.22620554,1.7704905,1.393165,0.03999784,0.039999954,-6.9764514,-3.258664131164551,-6.07835,0.0,-0.0,0.0
1179.1999999992563,-0.17275445,-0.28328007,0.16607913,-2.823102,0.22620554,1.7704905,1.393165,0.03999784,0.039999954,-6.9764514,-3.258664131164551,-6.07835,0.0,-0.0,0.0
1179.216666665923,-0.17275445,-0.28328007,0.16607913,-2.823102,0.22620554,1.7704905,1.393165,0.03999784,0.039999954,-6.9764514,-3.258664131164551,-6.07835,0.0,-0.0,0.0
1179.2333333325896,-0.17275445,-0.28328007,0.16607913,-2.823102,0.22620554,1.7704905,1.393165,0.03999784,0.039999954,-6.9764514,-3.258664131164551,-6.07835,0.0,-0.0,0.0
1179.2499999992563,-0.17275445,-0.28328007,0.16607913,-2.823102,0.22620554,1.7704905,1.393165,0.03999784,0.039999954,-6.9764514,-3.258664131164551,-6.07835,0.0,-0.0,0.0
1179.266666665923,-0.17275445,-0.28328007,0.16607913,-2.823102,0.22620554,1.7704905,1.393165,0.03999784,0.039999954,-6.9764514,-3.258664131164551,-6.07835,0.0,-0.0,0.0
1179.2833333325896,-0.17275445,-0.28328007,0.16607913,-2.823102,0.22620554,1.7704905,1.393165,0.03999784,0.039999954,-6.9764514,-3.258664131164551,-6.07835,0.0,-0.0,0.0
1179.2999999992562,-0.17275445,-0.28328007,0.16607913,-2.823102,0.22620554,1.7704905,1.393165,0.03999784,0.039999954,-6.9764514,-3.258664131164551,-6.07835,0.0,-0.0,0.0
1179.3166666659229,-0.17275445,-0.28328007,0.16607913,-2.823102,0.22620554,1.7704905,1.393165,0.03999784,0.039999954,-6.9764514,-3.258664131164551,-6.07835,0.0,-0.0,0.0
1179.3333333325895,-0.17275445,-0.28328007,0.16607913,-2.823102,0.22620554,1.7704905,1.393165,0.03999784,0.039999954,-6.9764514,-3.258664131164551,-6.07835,0.0,-0.0,0.0
1179.3499999992562,-0.17275445,-0.28328007,0.16607913,-2.823102,0.22620554,1.7704905,1.393165,0.03999784,0.039999954,-6.9764514,-3.258664131164551,-6.07835,0.0,-0.0,0.0
1179.3666666659228,-0.17275445,-0.28328007,0.16607913,-2.823102,0.22620554,1.7704905,1.393165,0.03999784,0.039999954,-6.9764514,-3.258664131164551,-6.07835,0.0,-0.0,0.0
1179.3833333325895,-0.17275445,-0.28328007,0.16607913,-2.823102,0.22620554,1.7704905,1.393165,0.03999784,0.039999954,-6.9764514,-3.258664131164551,-6.07835,0.0,-0.0,0.0
1179.3999999992561,-0.17275445,-0.28328007,0.16607913,-2.823102,0.22620554,1.7704905,1.393165,0.03999784,0.039999954,-6.9764514,-3.258664131164551,-6.07835,0.0,-0.0,0.0
1179.4166666659228,-0.17275445,-0.28328007,0.16607913,-2.823102,0.22620554,1.7704905,1.393165,0.03999784,0.039999954,-6.9764514,-3.258664131164551,-6.07835,0.0,-0.0,0.0
1179.4333333325894,-0.17275445,-0.28328007,0.16607913,-2.823102,0.22620554,1.7704905,1.393165,0.03999784,0.039999954,-6.9764514,-3.258664131164551,-6.07835,0.0,-0.0,0.0
1179.449999999256,-0.17275445,-0.28328007,0.16607913,-2.823102,0.22620554,1.7704905,1.393165,0.03999784,0.039999954,-6.9764514,-3.258664131164551,-6.07835,0.0,-0.0,0.0
1179.4666666659227,-0.17275445,-0.28328007,0.16607913,-2.823102,0.22620554,1.7704905,1.393165,0.03999784,0.039999954,-6.9764514,-3.258664131164551,-6.07835,0.0,-0.0,0.0
1179.4833333325894,-0.17275445,-0.28328007,0.16607913,-2.823102,0.22620554,1.7704905,1.393165,0.03999784,0.039999954,-6.9764514,-3.258664131164551,-6.07835,0.0,-0.0,0.0
1179.499999999256,-0.17275445,-0.28328007,0.16607913,-2.823102,0.22620554,1.7704905,1.393165,0.03999784,0.039999954,-6.9764514,-3.258664131164551,-6.07835,0.0,-0.0,0.0
1179.5166666659227,-0.17275445,-0.28328007,0.16607913,-2.823102,0.22620554,1.7704905,1.393165,0.03999784,0.039999954,-6.9764514,-3.258664131164551,-6.07835,0.0,-0.0,0.0
1179.5333333325893,-0.17275445,-0.28328007,0.16607913,-2.823102,0.22620554,1.7704905,1.393165,0.03999784,0.039999954,-6.9764514,-3.258664131164551,-6.07835,0.0,-0.0,0.0
1179.549999999256,-0.17275445,-0.28328007,0.16607913,-2.823102,0.22620554,1.7704905,1.393165,0.03999784,0.039999954,-6.9764514,-3.258664131164551,-6.07835,0.0,-0.0,0.0
1179.5666666659226,-0.17275445,-0.28328007,0.16607913,-2.823102,0.22620554,1.7704905,1.393165,0.03999784,0.039999954,-6.9764514,-3.258664131164551,-6.07835,0.0,-0.0,0.0
1179.5833333325893,-0.17275445,-0.28328007,0.16607913,-2.823102,0.22620554,1.7704905,1.393165,0.03999784,0.039999954,-6.9764514,-3.258664131164551,-6.07835,0.0,-0.0,0.0
1179.599999999256,-0.17275445,-0.28328007,0.16607913,-2.823102,0.22620554,1.7704905,1.393165,0.03999784,0.039999954,-6.9764514,-3.258664131164551,-6.07835,0.0,-0.0,0.0
1179.6166666659226,-0.17275445,-0.28328007,0.16607913,-2.823102,0.22620554,1.7704905,1.393165,0.03999784,0.039999954,-6.9764514,-3.258664131164551,-6.07835,0.0,-0.0,0.0
1179.6333333325892,-0.17275445,-0.28328007,0.16607913,-2.823102,0.22620554,1.7704905,1.393165,0.03999784,0.039999954,-6.9764514,-3.258664131164551,-6.07835,0.0,-0.0,0.0
1179.649999999256,-0.17275445,-0.28328007,0.16607913,-2.823102,0.22620554,1.7704905,1.393165,0.03999784,0.039999954,-6.9764514,-3.258664131164551,-6.07835,0.0,-0.0,0.0
1179.6666666659225,-0.17275445,-0.28328007,0.16607913,-2.823102,0.22620554,1.7704905,1.393165,0.03999784,0.039999954,-6.9764514,-3.258664131164551,-6.07835,0.0,-0.0,0.0
1179.6833333325892,-0.17275445,-0.28328007,0.16607913,-2.823102,0.22620554,1.7704905,1.393165,0.03999784,0.039999954,-6.9764514,-3.258664131164551,-6.07835,0.0,-0.0,0.0
1179.6999999992559,-0.17275445,-0.28328007,0.16607913,-2.823102,0.22620554,1.7704905,1.393165,0.03999784,0.039999954,-6.9764514,-3.258664131164551,-6.07835,0.0,-0.0,0.0
1179.7166666659225,-0.17275445,-0.28328007,0.16607913,-2.823102,0.22620554,1.7704905,1.393165,0.03999784,0.039999954,-6.9764514,-3.258664131164551,-6.07835,0.0,-0.0,0.0
1179.7333333325892,-0.17275445,-0.28328007,0.16607913,-2.823102,0.22620554,1.7704905,1.393165,0.03999784,0.039999954,-6.9764514,-3.258664131164551,-6.07835,0.0,-0.0,0.0
1179.7499999992558,-0.17275445,-0.28328007,0.16607913,-2.823102,0.22620554,1.7704905,1.393165,0.03999784,0.039999954,-6.9764514,-3.258664131164551,-6.07835,0.0,-0.0,0.0
1179.7666666659225,-0.17275445,-0.28328007,0.16607913,-2.823102,0.22620554,1.7704905,1.393165,0.03999784,0.039999954,-6.9764514,-3.258664131164551,-6.07835,0.0,-0.0,0.0
1179.783333332589,-0.17275445,-0.28328007,0.16607913,-2.823102,0.22620554,1.7704905,1.393165,0.03999784,0.039999954,-6.9764514,-3.258664131164551,-6.07835,0.0,-0.0,0.0
1179.7999999992558,-0.17275445,-0.28328007,0.16607913,-2.823102,0.22620554,1.7704905,1.393165,0.03999784,0.039999954,-6.9764514,-3.258664131164551,-6.07835,0.0,-0.0,0.0
1179.8166666659224,-0.17275445,-0.28328007,0.16607913,-2.823102,0.22620554,1.7704905,1.393165,0.03999784,0.039999954,-6.9764514,-3.258664131164551,-6.07835,0.0,-0.0,0.0
1179.833333332589,-0.17275445,-0.28328007,0.16607913,-2.823102,0.22620554,1.7704905,1.393165,0.03999784,0.039999954,-6.9764514,-3.258664131164551,-6.07835,0.0,-0.0,0.0
1179.8499999992557,-0.17275445,-0.28328007,0.16607913,-2.823102,0.22620554,1.7704905,1.393165,0.03999784,0.039999954,-6.9764514,-3.258664131164551,-6.07835,0.0,-0.0,0.0
1179.8666666659224,-0.17275445,-0.28328007,0.16607913,-2.823102,0.22620554,1.7704905,1.393165,0.03999784,0.039999954,-6.9764514,-3.258664131164551,-6.07835,0.0,-0.0,0.0
1179.883333332589,-0.17275445,-0.28328007,0.16607913,-2.823102,0.22620554,1.7704905,1.393165,0.03999784,0.039999954,-6.9764514,-3.258664131164551,-6.07835,0.0,-0.0,0.0
1179.8999999992557,-0.17275445,-0.28328007,0.16607913,-2.823102,0.22620554,1.7704905,1.393165,0.03999784,0.039999954,-6.9764514,-3.258664131164551,-6.07835,0.0,-0.0,0.0
1179.9166666659223,-0.17275445,-0.28328007,0.16607913,-2.823102,0.22620554,1.7704905,1.393165,0.03999784,0.039999954,-6.9764514,-3.258664131164551,-6.07835,0.0,-0.0,0.0
1179.933333332589,-0.17275445,-0.28328007,0.16607913,-2.823102,0.22620554,1.7704905,1.393165,0.03999784,0.039999954,-6.9764514,-3.258664131164551,-6.07835,0.0,-0.0,0.0
1179.9499999992556,-0.17275445,-0.28328007,0.16607913,-2.823102,0.22620554,1.7704905,1.393165,0.03999784,0.039999954,-6.9764514,-3.258664131164551,-6.07835,0.0,-0.0,0.0
1179.9666666659223,-0.17275445,-0.28328007,0.16607913,-2.823102,0.22620554,1.7704905,1.393165,0.03999784,0.039999954,-6.9764514,-3.258664131164551,-6.07835,0.0,-0.0,0.0
1179.983333332589,-0.17275445,-0.28328007,0.16607913,-2.823102,0.22620554,1.7704905,1.393165,0.03999784,0.039999954,-6.9764514,-3.258664131164551,-6.07835,0.0,-0.0,0.0
1179.9999999992556,-0.17275445,-0.28328007,0.16607913,-2.823102,0.22620554,1.7704905,1.393165,0.03999784,0.039999954,-6.9764514,-3.258664131164551,-6.07835,0.0,-0.0,0.0
1180.0166666659222,-0.17275445,-0.28328007,0.16607913,-2.823102,0.22620554,1.7704905,1.393165,0.03999784,0.039999954,-6.9764514,-3.258664131164551,-6.07835,0.0,-0.0,0.0
1180.0333333325889,-0.17275445,-0.28328007,0.16607913,-2.823102,0.22620554,1.7704905,1.393165,0.03999784,0.039999954,-6.9764514,-3.258664131164551,-6.07835,0.0,-0.0,0.0
1180.0499999992555,-0.17275445,-0.28328007,0.16607913,-2.823102,0.22620554,1.7704905,1.393165,0.03999784,0.039999954,-6.9764514,-3.258664131164551,-6.07835,0.0,-0.0,0.0
1180.0666666659222,-0.17275445,-0.28328007,0.16607913,-2.823102,0.22620554,1.7704905,1.393165,0.03999784,0.039999954,-6.9764514,-3.258664131164551,-6.07835,0.0,-0.0,0.0
1180.0833333325888,-0.17275445,-0.28328007,0.16607913,-2.823102,0.22620554,1.7704905,1.393165,0.03999784,0.039999954,-6.9764514,-3.258664131164551,-6.07835,0.0,-0.0,0.0
1180.0999999992555,-0.17275445,-0.28328007,0.16607913,-2.823102,0.22620554,1.7704905,1.393165,0.03999784,0.039999954,-6.9764514,-3.258664131164551,-6.07835,0.0,-0.0,0.0
1180.1166666659221,-0.17275445,-0.28328007,0.16607913,-2.823102,0.22620554,1.7704905,1.393165,0.03999784,0.039999954,-6.9764514,-3.258664131164551,-6.07835,0.0,-0.0,0.0
1180.1333333325888,-0.17275445,-0.28328007,0.16607913,-2.823102,0.22620554,1.7704905,1.393165,0.03999784,0.039999954,-6.9764514,-3.258664131164551,-6.07835,0.0,-0.0,0.0
1180.1499999992554,-0.17275445,-0.28328007,0.16607913,-2.823102,0.22620554,1.7704905,1.393165,0.03999784,0.039999954,-6.9764514,-3.258664131164551,-6.07835,0.0,-0.0,0.0
1180.166666665922,-0.17275445,-0.28328007,0.16607913,-2.823102,0.22620554,1.7704905,1.393165,0.03999784,0.039999954,-6.9764514,-3.258664131164551,-6.07835,0.0,-0.0,0.0
1180.1833333325887,-0.17275445,-0.28328007,0.16607913,-2.823102,0.22620554,1.7704905,1.393165,0.03999784,0.039999954,-6.9764514,-3.258664131164551,-6.07835,0.0,-0.0,0.0
1180.1999999992554,-0.17275445,-0.28328007,0.16607913,-2.823102,0.22620554,1.7704905,1.393165,0.03999784,0.039999954,-6.9764514,-3.258664131164551,-6.07835,0.0,-0.0,0.0
1180.216666665922,-0.17275445,-0.28328007,0.16607913,-2.823102,0.22620554,1.7704905,1.393165,0.03999784,0.039999954,-6.9764514,-3.258664131164551,-6.07835,0.0,-0.0,0.0
1180.2333333325887,-0.17275445,-0.28328007,0.16607913,-2.823102,0.22620554,1.7704905,1.393165,0.03999784,0.039999954,-6.9764514,-3.258664131164551,-6.07835,0.0,-0.0,0.0
1180.2499999992554,-0.17275445,-0.28328007,0.16607913,-2.823102,0.22620554,1.7704905,1.393165,0.03999784,0.039999954,-6.9764514,-3.258664131164551,-6.07835,0.0,-0.0,0.0
1180.266666665922,-0.17275445,-0.28328007,0.16607913,-2.823102,0.22620554,1.7704905,1.393165,0.03999784,0.039999954,-6.9764514,-3.258664131164551,-6.07835,0.0,-0.0,0.0
1180.2833333325887,-0.17275445,-0.28328007,0.16607913,-2.823102,0.22620554,1.7704905,1.393165,0.03999784,0.039999954,-6.9764514,-3.258664131164551,-6.07835,0.0,-0.0,0.0
1180.2999999992553,-0.17275445,-0.28328007,0.16607913,-2.823102,0.22620554,1.7704905,1.393165,0.03999784,0.039999954,-6.9764514,-3.258664131164551,-6.07835,0.0,-0.0,0.0
1180.316666665922,-0.17275445,-0.28328007,0.16607913,-2.823102,0.22620554,1.7704905,1.393165,0.03999784,0.039999954,-6.9764514,-3.258664131164551,-6.07835,0.0,-0.0,0.0
1180.3333333325886,-0.17275445,-0.28328007,0.16607913,-2.823102,0.22620554,1.7704905,1.393165,0.03999784,0.039999954,-6.9764514,-3.258664131164551,-6.07835,0.0,-0.0,0.0
1180.3499999992553,-0.17275445,-0.28328007,0.16607913,-2.823102,0.22620554,1.7704905,1.393165,0.03999784,0.039999954,-6.9764514,-3.258664131164551,-6.07835,0.0,-0.0,0.0
