rsonawane2002/My_IMU/logs_incomplete/traj_482/clean_482.csv
time,j1,j2,j3,j4,j5,j6,j7,gripper1,gripper2,imu_ax,imu_ay,imu_az,imu_gx,imu_gy,imu_gz,quat_x,quat_y,quat_z,quat_w
2553.583333338237,0.00016700293,-0.785875,4.0107683e-05,-2.3551247,9.29385e-05,1.570997,0.786,0.04,0.04,0.0,-0.0,0.0,2.875329272945135e-08,-0.0011641195053377316,4.421952117202833e-08,0.9999995971961153,0.00020320632366974898,0.0008736418299892524,3.263050917662294e-05
2553.600000004904,0.00016700769,-0.78576016,4.0114213e-05,-2.3552213,9.2975424e-05,1.5709941,0.786,0.04,0.04,-0.29199845992424756,-3.798240247131061e-05,0.020128407689612438,2.248480470775319e-07,-0.002238181288518058,1.803580502087755e-07,0.9999996850589163,0.00020320637966148857,0.0007665025184302636,3.260559123086847e-05
2553.616666671571,0.00016702621,-0.7856542,4.0117586e-05,-2.35531,9.301908e-05,1.5709913,0.786,0.04,0.04,0.023196975616368576,-1.670281977103616e-05,-0.001602720847437844,1.7286059591196993e-06,-0.003230183854368276,8.806104769887666e-07,0.9999997558870091,0.0002032002857378452,0.000667737646251012,3.25883700378399e-05
2553.6333333382377,0.00016708128,-0.7855566,4.011353e-05,-2.355391,9.3085306e-05,1.5709884,0.786,0.04,0.04,0.022263115712162218,-4.864085206795327e-05,-0.0014234308262084383,5.8999375875418005e-06,-0.004145107467372311,2.6651595729431557e-06,0.9999998123698125,0.00020317817861346298,0.0005769895843833905,3.258814392232942e-05
2553.6500000049045,0.0001672058,-0.7854666,4.0095983e-05,-2.355465,9.319699e-05,1.5709856,0.786,0.04,0.04,0.020528925185381297,-9.492972517407259e-05,-0.0011496610617500735,1.4153620759676855e-05,-0.004991325212828477,6.001208729125249e-06,0.9999998570161731,0.00020312577112812025,0.0004936026781526611,3.261825419448205e-05
2553.6666666715714,0.00016744195,-0.7853832,4.00573e-05,-2.3555317,9.3382885e-05,1.5709827,0.786,0.04,0.04,0.01947363173355754,-0.00015401566491239724,-0.0005974437778499819,2.740719622089211e-05,-0.005773431303307313,1.1308541382639494e-05,0.9999998918697385,0.0002030246993388686,0.00041710008470506393,3.2695601806633645e-05
2553.6833333382383,0.00016783981,-0.7853062,3.9988103e-05,-2.3555925,9.367749e-05,1.5709832,0.7860019,0.04,0.04,0.018242066619666986,-0.00022428472388781313,0.001500810108590045,4.772196259045797e-05,-0.006499917237627667,1.8964401668361556e-05,0.9999999179884393,0.0002038070096787426,0.00034843543922402946,3.2841466897636296e-05
2553.700000004905,0.00016845681,-0.78523445,3.9878138e-05,-2.3556497,9.4121744e-05,1.5709838,0.7860038,0.04,0.04,0.011915562203923535,-0.0003055323631969277,-0.0013136919971845629,6.705526373386316e-05,-0.007161373532758445,2.9289825130811097e-05,0.9999999381475182,0.0002044939899675337,0.000284241101085598,3.307815592455169e-05
2553.716666671572,0.00016935669,-0.7851675,3.971547e-05,-2.3557003,9.4778465e-05,1.5709846,0.78600574,0.04,0.03999999,0.016759175237379687,-0.00040916577347971947,0.00040435515735737226,9.605032745805666e-05,-0.007789250977466843,4.411774804173333e-05,0.9999999528970267,0.00020505791811329668,0.0002259177642787417,3.344186616693829e-05
2553.733333338239,0.0001706096,-0.78510475,3.9487863e-05,-2.3557441,9.5653435e-05,1.5709856,0.78600955,0.04,0.04,0.015995810518742992,-0.0004766235035019565,0.0006934138829128855,0.0001360679025071089,-0.008373154725017602,5.907106675383212e-05,0.9999999631410849,0.00020642174190329922,0.00017307796225234646,3.393983649131314e-05
2553.750000004906,0.00017228976,-0.78504544,3.9181232e-05,-2.355786,9.682866e-05,1.5709865,0.7860134,0.04,0.039999995,0.007063456442346627,-0.000602553146270327,-0.0011211819310963378,0.00017944549621736627,-0.008917548582031205,7.988634425384251e-05,0.9999999702911124,0.00020762963057137826,0.00012292028685328027,3.461666644429524e-05
2553.7666666715727,0.00017447677,-0.78498876,3.8781334e-05,-2.3558214,9.83481e-05,1.5709909,0.78601915,0.04,0.039999995,0.015339612631315447,-0.0007076394313187799,0.00406711459750575,0.00023637934770156139,-0.009448835037415301,0.00010359956719685874,0.9999999742845734,0.00020954084709636587,7.91401801010111e-05,3.550095378581351e-05
2553.7833333382396,0.00017725374,-0.7849346,3.8272945e-05,-2.355851,0.00010026905,1.5709956,0.7860268,0.04,0.039999995,0.012566128211188854,-0.0008237286825107091,0.0013129114923238205,0.0002998159694516339,-0.009934567208340999,0.00013119024721745172,0.9999999760419163,0.0002121490185987282,3.959185326846947e-05,3.6625756835736025e-05
2553.8000000049065,0.00018070747,-0.784882,3.7640337e-05,-2.3558776,0.00010264153,1.5710003,0.7860363,0.04,0.04,0.006677969039348142,-0.0009380864852775734,0.000450472440749472,0.0003712308856505431,-0.01039564268765987,0.00016205852778355351,0.9999999760723568,0.00021541643720933721,2.3381337041313477e-06,3.8020752600129805e-05
2553.8166666715733,0.00018492747,-0.7848306,3.686713e-05,-2.3558977,0.00010553247,1.5710088,0.78604776,0.04,0.04,0.013765550249678071,-0.0010686290495061856,0.005098406369086206,0.00045157243830531486,-0.01085067942635315,0.00019708717272068832,0.9999999747384792,0.00021930413583402667,-2.916393811837721e-05,3.9726584483800855e-05
2553.83333333824,0.00019000578,-0.78477955,3.5936286e-05,-2.3559127,0.00010902289,1.5710174,0.78606135,0.04,0.039999995,0.009005400253903062,-0.0012100672813142462,0.002092127016428691,0.0005423585421296196,-0.011268888037683526,0.0002388455721127702,0.9999999723872959,0.00022389136197352119,-5.789463477336606e-05,4.178847675765101e-05
2553.850000004907,0.000196037,-0.7847285,3.483101e-05,-2.3559241,0.00011314783,1.5710297,0.7860779,0.04,0.04,0.007245644259978867,-0.0013213075969876857,0.004353194469897126,0.0006440328045652392,-0.011679067382401646,0.00028176781701199505,0.99999996923064,0.00022955416270743344,-8.298973835264686e-05,4.423017605579619e-05
2553.866666671574,0.00020311704,-0.78467715,3.3533517e-05,-2.3559284,0.00011799336,1.5710421,0.7860971,0.04,0.04,0.011794010950261224,-0.0014706506299350878,0.00349689856931068,0.0007543115075922259,-0.012073394451266017,0.0003316448522360165,0.9999999655522577,0.00023607191090493576,-0.00010462810554430805,4.710090908019826e-05
2553.883333338241,0.0002113434,-0.7846249,3.2026022e-05,-2.355928,0.00012363115,1.5710583,0.7861195,0.04,0.039999995,0.008319497620012939,-0.001611177218876727,0.005486000542442859,0.0008755931086013324,-0.012457084150408741,0.0003859883129235378,0.9999999615391896,0.0002437004121321574,-0.0001224223750905305,5.04429447534026e-05
2553.9000000049077,0.00022081501,-0.7845711,3.0290583e-05,-2.3559237,0.00013010782,1.571078,0.78614527,0.04,0.04,0.00592627854549832,-0.0017341641008182822,0.005129578396445567,0.001006996464927014,-0.012823419987043934,0.00044337303180846217,0.9999999572302066,0.0002524562575759173,-0.0001373262836001186,5.428549546585253e-05
2553.9166666715746,0.00023163116,-0.7845153,2.8308952e-05,-2.3559122,0.00013750193,1.5710982,0.7861747,0.04,0.04,0.010098464772401172,-0.0018812785642870688,0.004800601719545661,0.001149027081286576,-0.01318458531741169,0.000506218816885754,0.9999999526764545,0.000262474957661783,-0.00014936972113363862,5.867428645224916e-05
2553.9333333382415,0.00024389222,-0.78445715,2.6062975e-05,-2.3558953,0.00014588112,1.571122,0.78620803,0.04,0.04,0.007810273035513404,-0.0020216935790261944,0.006475609175682351,0.0013013856780558818,-0.013542599427278501,0.0005737548564861941,0.9999999479964726,0.0002738023859371987,-0.00015807594479801858,6.364983236548626e-05
2553.9500000049084,0.00025769882,-0.7843962,2.3534227e-05,-2.3558726,0.00015531533,1.5711497,0.7862454,0.04,0.04,0.007828953684141382,-0.0021637613155671173,0.006997220673277127,0.001464325225067782,-0.013891400839609179,0.0006459961084808727,0.9999999432130643,0.00028648427204983876,-0.00016341526216617685,6.925375309759019e-05
2553.9666666715752,0.00027315173,-0.7843317,2.07044e-05,-2.3558447,0.0001658642,1.5711812,0.78628737,0.04,0.04,0.006227216587584294,-0.0022984338094529733,0.0071883230076341675,0.0016389400699103691,-0.0142331724612485,0.0007221817769109781,0.9999999381490816,0.0003007450790154687,-0.0001659838569068594,7.552211466948105e-05
2553.983333338242,0.00029035134,-0.78426343,1.755493e-05,-2.3558102,0.0001776151,1.5712159,0.7863341,0.04,0.04,0.008204900518204994,-0.002453221169366386,0.0075222744853054024,0.0018235839177931118,-0.014575176139849206,0.0008046784864897251,0.9999999327764814,0.0003166306484300826,-0.00016548386039975374,8.250549732762583e-05
2554.000000004909,0.00030939837,-0.7841912,1.4067594e-05,-2.3557692,0.00019061718,1.5712541,0.7863858,0.04,0.04,0.007648666487169997,-0.00258029530203341,0.00781722029608023,0.0020185453444911457,-0.014913775607291152,0.0008903200098757361,0.999999926970499,0.0003341866378375666,-0.00016197504234560634,9.023510142531783e-05
2554.016666671576,0.0003303931,-0.78411436,1.0224083e-05,-2.3557215,0.00020494896,1.5712963,0.7864428,0.039999995,0.04,0.007507050417498995,-0.002728887402906916,0.008528686375131045,0.0022243916847335217,-0.015250363041290202,0.0009814824820776405,0.9999999205312256,0.0003535782014338905,-0.00015545761252378862,9.875691700927605e-05
2554.0333333382428,0.00035343494,-0.7840326,6.00624e-06,-2.3556674,0.00022067742,1.5713425,0.78650534,0.03999999,0.039999995,0.0067055300090546055,-0.0028680990583038884,0.008624411402835541,0.002440334009267359,-0.015587492211627812,0.0010773301752066073,0.9999999132187125,0.0003748218567348481,-0.00014622981518779888,0.00010811098199222482
2554.0500000049096,0.0003786231,-0.78394556,1.3960995e-06,-2.3556063,0.0002378664,1.5713928,0.78657365,0.039999988,0.039999995,0.007260673389519745,-0.003005154634127486,0.00918555399043175,0.002667226092363079,-0.01592709301131176,0.001177032892962489,0.9999999047977307,0.00039802358536303713,-0.00013408329284969847,0.00011833606921523834
2554.0666666715765,0.00040605554,-0.78385276,-3.6245076e-06,-2.3555384,0.0002565873,1.5714475,0.78664804,0.039999984,0.03999999,0.006741664950493664,-0.0031463191369246533,0.009667301561266939,0.0029045665310117952,-0.016267379982076845,0.0012822283505367171,0.9999998949304576,0.00042329013922963986,-0.00011916735324080781,0.00012947460689504488
2554.0833333382434,0.0004358299,-0.78375363,-9.073197e-06,-2.3554628,0.00027690612,1.5715072,0.7867288,0.039999977,0.039999984,0.007551086941726126,-0.0032842616377320977,0.010737137217331494,0.003152127837239115,-0.016612458349146677,0.0013920421372049597,0.9999998832913772,0.00045072821969451406,-0.00010109489836968484,0.00014156668205658675
2554.1000000049103,0.00046804236,-0.78364855,-1.4967654e-05,-2.3553798,0.00029888842,1.5715717,0.7868161,0.039999973,0.03999998,0.007464968750947598,-0.003419645899594055,0.01025050251879378,0.0034099729699916454,-0.01695924559476977,0.001506437053727674,0.9999998694621226,0.0004803856652312096,-7.992589666907962e-05,0.00015465187227626818
2554.116666671577,0.00050278835,-0.7835363,-2.1325135e-05,-2.3552892,0.00032259908,1.5716411,0.7869103,0.03999997,0.03999998,0.006587202238472756,-0.003554937771660003,0.011121739843078515,0.003678127449885823,-0.01730709709112298,0.001624508845764564,0.9999998529244684,0.0005123702987695457,-5.607799522889731e-05,0.00016876900532279153
2554.133333338244,0.00054016174,-0.7834174,-2.8162976e-05,-2.3551903,0.00034810297,1.5717162,0.78701156,0.03999996,0.039999973,0.008593227112285717,-0.003688468717454941,0.011795971832717633,0.0039561404527718325,-0.017661930632135916,0.0017479474059253694,0.9999998331986945,0.0005467608603823867,-2.8538372779717753e-05,0.0001839584360590026
2554.150000004911,0.0005802552,-0.78329086,-3.549824e-05,-2.355083,0.00037546334,1.5717964,0.7871202,0.039999954,0.039999966,0.0073471229889987555,-0.0038198216079632624,0.011892264061508229,0.004244338362045896,-0.018015072076545548,0.00187583183330046,0.9999998096132268,0.000583666509640418,1.9175988389063514e-06,0.00020025793063101143
2554.166666671578,0.00062316057,-0.78315645,-4.3347492e-05,-2.3549676,0.0004047424,1.5718826,0.7872365,0.03999995,0.03999996,0.006940323174164931,-0.003950546424333671,0.012542697641704237,0.004541970014573222,-0.018373250621894616,0.002008120808039079,0.9999997815045992,0.0006231669355241364,3.546817374354186e-05,0.00021770561096710498
2554.1833333382447,0.0006689682,-0.7830139,-5.1727242e-05,-2.3548439,0.0004360016,1.5719743,0.7873607,0.039999943,0.039999954,0.0068622250104288796,-0.004078909348568301,0.012464144062462879,0.004849119266120059,-0.018737673083978786,0.0021447630192557962,0.9999997481309925,0.0006653723083313262,7.18445083747153e-05,0.0002363387600723524
2554.2000000049115,0.0007177665,-0.78286296,-6.0653758e-05,-2.3547115,0.00046930194,1.5720721,0.78749305,0.039999936,0.039999947,0.007293652017947849,-0.004205785205313862,0.013206503451024254,0.005165583149964276,-0.01910920774509382,0.0022857062754174616,0.9999997086859315,0.0007103341741120138,0.0001114333628261136,0.0002561952752351072
2554.2166666715784,0.0007696429,-0.7827032,-7.014281e-05,-2.3545709,0.0005047023,1.5721762,0.7876337,0.03999993,0.03999994,0.006357550830782266,-0.004330404921870298,0.013370364960185732,0.005491165050376017,-0.019486668259943947,0.0024300318278264055,0.9999996623264499,0.0007581343510613302,0.0001538763716225948,0.00027731093445056804
2554.2333333382453,0.0008246829,-0.7825345,-8.021029e-05,-2.3544204,0.00054226205,1.5722866,0.7877828,0.03999992,0.039999936,0.008625805873974102,-0.004454038703203818,0.01420473338893391,0.005825949567657009,-0.01987203972336418,0.0025794141655182,0.9999996080599829,0.0008087659838843222,0.00019985820830167828,0.00029972347293319326
2554.250000004912,0.000882971,-0.7823565,-9.0871545e-05,-2.3542602,0.00058203895,1.5724037,0.7879408,0.039999917,0.03999993,0.008472031534112467,-0.004575785694184865,0.014607450197634542,0.00617056512001419,-0.020260745451151592,0.002733799439429947,0.9999995446545551,0.000862461269493014,0.00024943755966195163,0.0003234689240367883
2554.266666671579,0.00094458973,-0.7821689,-0.000102141545,-2.3540902,0.000624088,1.5725273,0.78810775,0.039999913,0.03999993,0.00803452894395651,-0.00469402273401919,0.014722564565672336,0.006523195140656706,-0.020652995611695514,0.0028905407213455536,0.9999994710794553,0.0009191850219444145,0.0003023750964821949,0.00034858141971971
2554.283333338246,0.0010096194,-0.78197163,-0.00011403513,-2.353911,0.0006684658,1.5726578,0.78828394,0.03999991,0.039999925,0.007201553993940735,-0.0048114036974039424,0.014843604991554571,0.006884744384629698,-0.02105053599945318,0.0030521562452869963,0.9999993861002815,0.0009790523068557665,0.0003585505750841837,0.0003750961550332249
2554.300000004913,0.0010781398,-0.78176403,-0.0001265669,-2.353721,0.0007152259,1.5727954,0.7884695,0.03999991,0.039999925,0.009006323270566163,-0.004926991068855517,0.01591491501204967,0.007255023632724346,-0.021454692649805283,0.003217739978940054,0.9999992882554034,0.001042088887722382,0.00041843975043355676,0.0004030479027997934
2554.3166666715797,0.0011502289,-0.7815463,-0.00013975087,-2.3535206,0.0007644212,1.5729396,0.7886648,0.03999991,0.039999925,0.008276292807085639,-0.005040433443123118,0.015334423140078712,0.007633851136443832,-0.02186359680157548,0.003387222820647125,0.999999176107645,0.0011084701250413081,0.00048171357340381346,0.0004324697056869146
2554.3333333382466,0.0012259617,-0.78131783,-0.0001536011,-2.35331,0.0008161036,1.5730913,0.78887004,0.03999991,0.03999993,0.007837362638674072,-0.005150755853858659,0.01620703904041676,0.008020516406871913,-0.022278221538060368,0.0035596855108589467,0.9999990481377947,0.0011782244433904817,0.0005484303943366103,0.0004633948293006725
2554.3500000049135,0.0013054129,-0.78107846,-0.00016813108,-2.3530886,0.00087032426,1.5732504,0.7890853,0.039999913,0.039999932,0.008887935037349415,-0.005260985734217871,0.016720728506580684,0.008414816507301746,-0.02270131613934705,0.0037367963160028217,0.9999989025202615,0.0012514097580299383,0.0006189166829113229,0.0004958568640840317
2554.3666666715803,0.0013886545,-0.78082806,-0.00018335402,-2.3528574,0.0009271323,1.5734173,0.7893109,0.039999917,0.039999936,0.006798871381485938,-0.0053671450910096515,0.016432174960523405,0.008817139549614803,-0.023127546899323156,0.003917615081668684,0.9999987378325149,0.0013280855335794952,0.0006926345531875765,0.0005298863731649826
2554.383333338247,0.0014757576,-0.78056633,-0.00019928289,-2.3526144,0.0009865758,1.5735921,0.78954685,0.039999917,0.039999936,0.009743622843361166,-0.0054729546234700156,0.01754959210653606,0.009227024221451934,-0.023563329648080514,0.004102110845546074,0.9999985516298444,0.0014083112549880706,0.0007704467278664191,0.0005655169866014199
2554.400000004914,0.0015667904,-0.78029317,-0.00021593027,-2.352361,0.0010487016,1.5737749,0.7897934,0.039999917,0.039999936,0.007653681710007021,-0.005574458911859368,0.01726134244539601,0.00964429739147292,-0.02400168911568449,0.004290198648199924,0.9999983423245146,0.0014921185287230926,0.0008518151451711672,0.000602778132903525
2554.416666671581,0.0016618205,-0.7800082,-0.00023330827,-2.3520951,0.0011135566,1.5739658,0.79005086,0.039999917,0.039999936,0.010455971770806372,-0.005677440745859193,0.018235342641492736,0.010069600771083764,-0.02444703679447308,0.0044818483406292315,0.9999981069911656,0.0015796875494171487,0.0009374532400608913,0.0006417030109556514
2554.433333338248,0.0017609128,-0.7797113,-0.00025142898,-2.3518186,0.0011811841,1.5741647,0.7903194,0.03999992,0.039999943,0.007515823945003497,-0.005773980756085782,0.01764446600107661,0.010501131036062155,-0.024893884229559085,0.004676095736438769,0.9999978441850078,0.001671021794578604,0.0010265247352427755,0.0006823184498267839
2554.4500000049147,0.0018641312,-0.7794024,-0.000270304,-2.3515291,0.0012516286,1.5743718,0.79059905,0.039999925,0.039999947,0.011026172414507762,-0.005872256521117884,0.018679220813710984,0.01093951716443802,-0.025349538451405494,0.004874649830173352,0.9999975505364586,0.0017661541947283997,0.0011200409626167189,0.0007246576333953363
2554.4666666715816,0.0019715372,-0.7790809,-0.00028994458,-2.3512287,0.0013249321,1.5745872,0.7908901,0.03999993,0.03999995,0.00731901208279595,-0.00596620220638922,0.01827376058192165,0.011384608425681592,-0.025805564387706627,0.0050765414094766734,0.9999972246083162,0.0018651794696682975,0.0012169269534715883,0.0007687457320453648
2554.4833333382485,0.0020831907,-0.7787472,-0.00031036182,-2.3509161,0.0014011351,1.5748115,0.7911926,0.03999993,0.03999995,0.00975629355464136,-0.006058334042353475,0.01903187974476861,0.011836212766816307,-0.026272123819207086,0.005281758724483231,0.9999968627431594,0.0019681030196354705,0.0013181342354667966,0.000814614313885349
2554.5000000049154,0.0021991497,-0.7784006,-0.00033156632,-2.3505912,0.0014802777,1.5750443,0.7915067,0.039999932,0.039999954,0.009413803036495416,-0.006149277741258679,0.01930387308441972,0.012294432028258574,-0.026740859405888693,0.005490217279334515,0.999996462447506,0.0020749908563023095,0.0014233624875782064,0.0008622903506655904
2554.5166666715822,0.0023194698,-0.778041,-0.0003535684,-2.3502545,0.0015623983,1.5752859,0.7918327,0.039999932,0.039999954,0.008130535054218235,-0.006236397370029895,0.01923145743214505,0.012759095495415538,-0.027214771448677788,0.00570185320260667,0.9999960211461174,0.002185940333505672,0.0015323112423304703,0.0009117998953080085
2554.533333338249,0.0024442072,-0.7776684,-0.00037637787,-2.3499048,0.0016475338,1.5755364,0.7921706,0.039999936,0.039999958,0.010555470252859855,-0.00632499030139861,0.019877695090531056,0.013229195630992941,-0.027696978801631016,0.005916635933951473,0.9999955347818136,0.0023009582183161083,0.0016456932554608865,0.0009631725812282681
2554.550000004916,0.0025734128,-0.7772828,-0.0004000044,-2.349542,0.00173572,1.5757955,0.79252076,0.039999936,0.03999996,0.010441367637104015,-0.006406451078441212,0.019826637883268994,0.01370568804743797,-0.028179366824436808,0.006133631589125222,0.999994999907303,0.002420203304031832,0.0017634163624166582,0.0010164345000753642
2554.566666671583,0.0027071377,-0.77688366,-0.0004244575,-2.349167,0.0018269928,1.5760641,0.79288316,0.03999994,0.039999966,0.008164581435932128,-0.00648996017052093,0.020065266045299346,0.014186743137198417,-0.02866622830011258,0.006354493555887435,0.9999944141210325,0.002543626843396513,0.0018850308444090193,0.0010716099710223318
2554.5833333382498,0.0028454312,-0.776471,-0.000449746,-2.3487797,0.0019213855,1.5763416,0.79325795,0.039999943,0.03999997,0.009151953945885083,-0.006569823186404998,0.020069950963952365,0.014673541578384013,-0.029158844444705394,0.006578306408916901,0.9999937737505314,0.0026712985566773265,0.002010623181211323,0.0011287243308395433
2554.6000000049166,0.002988341,-0.7760448,-0.00047587845,-2.348378,0.0020189304,1.5766286,0.7936451,0.039999947,0.039999973,0.01206812979048788,-0.006649880796155087,0.021212359384814583,0.015165367358951153,-0.029658700321925992,0.006805060005616401,0.9999930732114706,0.002803169807424193,0.0021412335138593624,0.0011878077068451865
2554.6166666715835,0.0031359126,-0.7756046,-0.0005028633,-2.3479633,0.0021196576,1.5769248,0.7940448,0.039999947,0.039999973,0.009182764545356825,-0.006724315657192451,0.020690034389558853,0.01566315664434055,-0.03015496137575934,0.007034642038706117,0.9999923103795233,0.002939343311520746,0.002275904966139014,0.0012488792196674134
2554.6333333382504,0.0032881892,-0.77515054,-0.0005307087,-2.3475363,0.0022235978,1.5772305,0.79445726,0.039999947,0.039999977,0.008462561294320103,-0.006797883032249891,0.020535454248871154,0.016166174401753337,-0.030657138206582134,0.007266151205197116,0.9999914816027837,0.0030798925720015736,0.0024144852001540683,0.0013119622069832006
2554.6500000049173,0.0034452134,-0.77468234,-0.00055942213,-2.3470955,0.0023307796,1.5775455,0.7948827,0.039999943,0.039999973,0.010618937992123989,-0.006871782419585939,0.02131878373334839,0.01667370441292208,-0.031167069338974118,0.007501273815091521,0.9999905811467742,0.0032249203746572046,0.0025575667384121845,0.0013770834006767516
2554.666666671584,0.0036070247,-0.7741999,-0.00058901124,-2.3466408,0.002441231,1.5778706,0.795321,0.039999943,0.039999973,0.010663145519163031,-0.0069420496861608005,0.021835220648580567,0.01718530837078844,-0.0316801159434012,0.007739110907592539,0.999989604408774,0.0033743236173481433,0.00270538462334798,0.0014442674782092974
2554.683333338251,0.003773662,-0.77370304,-0.000619483,-2.3461726,0.0025549782,1.5782051,0.7957724,0.039999943,0.039999973,0.009851294437002167,-0.007010263667328338,0.02139267485077312,0.017701875057459536,-0.032192434011135626,0.007979553255726999,0.9999885478653101,0.003528236972872369,0.002857428398490984,0.0015135339569911825
2554.700000004918,0.003945161,-0.7731921,-0.0006508439,-2.3456903,0.0026720457,1.5785493,0.796237,0.039999947,0.039999977,0.011126785500170655,-0.007074685015894932,0.02158453678191563,0.018222714483492712,-0.03270932173243285,0.008222612540880062,0.9999874052558321,0.003686707149128956,0.003014230639654465,0.0015849081221987046
2554.716666671585,0.0041215587,-0.7726664,-0.0006831002,-2.3451948,0.0027924574,1.5789034,0.7967148,0.03999995,0.039999984,0.008798868320947228,-0.007142480167069906,0.021837805007707267,0.018747105952724046,-0.03322657224270602,0.008467291468855987,0.9999861739503746,0.003849692647137576,0.003175131863878052,0.0016584065426786718
2554.7333333382517,0.0043028863,-0.7721259,-0.00071625825,-2.3446858,0.0029162364,1.5792674,0.7972059,0.03999995,0.039999984,0.00951827698438823,-0.007202874896469497,0.021880677591989972,0.019275950779185123,-0.03375093290975936,0.00871533822610608,0.999984848554671,0.004017272226673128,0.003340247100230064,0.0017340514000893767
2554.7500000049185,0.004489176,-0.77157074,-0.0007503241,-2.3441627,0.003043405,1.5796411,0.79771054,0.039999947,0.03999998,0.010448301284959882,-0.007264153927396405,0.022032338416089203,0.01980853105460397,-0.0342802750138997,0.008965814789842538,0.9999834229073361,0.004189494508867668,0.003509870077612524,0.0018118659791487705
2554.7666666715854,0.004680457,-0.77100086,-0.0007853027,-2.3436253,0.0031739832,1.5800251,0.7982288,0.039999947,0.03999998,0.01092462217389123,-0.0073237341552227775,0.022533852966577506,0.02034438597787746,-0.03481221841523024,0.009218686602050071,0.9999818902241724,0.004366439703676364,0.0036843241223427007,0.0018918730842295629
2554.7833333382523,0.004876758,-0.77041584,-0.0008211997,-2.3430738,0.0033079893,1.580419,0.79876053,0.039999947,0.039999984,0.009915792664760836,-0.007379934048959945,0.02240736154983658,0.02088307276989952,-0.0353435972629268,0.009472989146297964,0.9999802473327011,0.004548009931430462,0.0038630983226534,0.001974087496283611
2554.800000004919,0.005078106,-0.7698158,-0.00085801986,-2.3425076,0.0034454425,1.5808232,0.79930604,0.039999943,0.03999998,0.011405288290400328,-0.0074380605594601135,0.02302038934456352,0.02142552015444838,-0.03587875032968378,0.009730470709941076,0.9999784854994661,0.004734345679608947,0.0040468434013088885,0.0020585353203809633
2554.816666671586,0.0052845255,-0.7692007,-0.0008957676,-2.3419273,0.0035863596,1.5812374,0.7998651,0.03999994,0.039999977,0.009984099149429326,-0.007489029708077424,0.02247522659142298,0.02197071117069331,-0.03641274238427372,0.009990161721275937,0.9999766016147216,0.004925351133827657,0.004234988578613273,0.002145229829222376
2554.833333338253,0.005496039,-0.76857054,-0.0009344469,-2.3413327,0.0037307553,1.5816622,0.80043805,0.039999936,0.039999977,0.010592798351272137,-0.007541139967469357,0.022908753367301138,0.022519268673636128,-0.03695054294324723,0.010251188274365521,0.9999745876128728,0.0051211393947831006,0.004427916133559853,0.002234193026151429
2554.85000000492,0.005712666,-0.7679252,-0.000974062,-2.340724,0.003878646,1.5820969,0.80102485,0.039999932,0.039999973,0.009810104814289566,-0.007588290193177513,0.022558021091878544,0.023070499614640548,-0.037487900795831974,0.010515179512618149,0.9999724392318816,0.00532173600407034,0.00462517394869376,0.0023254394182534396
2554.8666666715867,0.0059344303,-0.7672646,-0.0010146166,-2.340101,0.0040300456,1.582542,0.80162555,0.03999993,0.03999997,0.010205915808669808,-0.007641508521421744,0.022883570006104748,0.023624233309306006,-0.03802991537064565,0.010781266204416674,0.9999701493955782,0.00552713458738642,0.004826965444354531,0.00241898855663072
2554.8833333382536,0.006161347,-0.76658857,-0.0010561136,-2.3394635,0.0041849636,1.5829973,0.80224025,0.039999932,0.039999973,0.010427924536671185,-0.007683976532301545,0.023189617950891694,0.02418023766805161,-0.03857431809464726,0.011049391371092804,0.9999677109595964,0.0057373924195733145,0.005033374575877903,0.0025148572181743147
2554.9000000049205,0.0063934335,-0.76589715,-0.0010985567,-2.3388112,0.0043434133,1.5834632,0.80286896,0.03999993,0.03999997,0.01091932247041516,-0.007730217291382693,0.023358125008599018,0.024738379487693227,-0.03911981380307476,0.011319522948490177,0.9999651162326164,0.005952506232697053,0.005244604461880518,0.0026130655326773253
2554.9166666715873,0.0066307066,-0.7651902,-0.0011419479,-2.3381443,0.004505406,1.5839396,0.80351174,0.03999993,0.039999973,0.010287316174517613,-0.007777044076188663,0.023362536892057584,0.02529844487007324,-0.03966420784014459,0.011590705182300936,0.9999623592991461,0.006172503012604325,0.005460440805830695,0.002713628134216733
2554.933333338254,0.006873177,-0.7644679,-0.0011862903,-2.3374631,0.0046709497,1.5844265,0.8041686,0.039999932,0.039999977,0.010166158204460984,-0.007812301681255421,0.02321436465997362,0.025860514274654946,-0.04020949909159317,0.011864647517636726,0.99995943288965,0.006397382952737577,0.00568093746503041,0.0028165610030592833
2554.950000004921,0.007120856,-0.76372993,-0.0012315855,-2.3367672,0.004840051,1.5849236,0.8048395,0.039999932,0.03999998,0.01039604158459273,-0.00785184385251464,0.023289426800277013,0.026424172393327568,-0.04075551474357239,0.01213956122497234,0.9999563309564702,0.00662714475446472,0.005905909765877691,0.002921876505793816
2554.966666671588,0.007373755,-0.76297647,-0.001277836,-2.3360567,0.005012722,1.5854312,0.8055245,0.03999993,0.039999977,0.010283676970779254,-0.007893357300306492,0.023352782575303266,0.026990002876003144,-0.041303657463851784,0.012417150137754757,0.9999530452132851,0.006861818831728368,0.006135500551402618,0.0030295946893824444
2554.983333338255,0.0076318844,-0.7622074,-0.0013250432,-2.3353312,0.005188963,1.5859494,0.806224,0.039999925,0.039999973,0.01097717389926256,-0.007928967423011767,0.023732065417036985,0.027557032885557706,-0.041853451647877224,0.012696486473370872,0.9999495656636989,0.0071015535718736335,0.006369941616249537,0.003139730824629933
2555.0000000049217,0.007895249,-0.7614229,-0.0013732085,-2.334591,0.005368783,1.5864782,0.80693716,0.03999993,0.039999977,0.010748330782006654,-0.007962427479612198,0.02353009109596904,0.028124218291201618,-0.042399971199013856,0.012977526009401111,0.9999458872422384,0.00734599462726994,0.006609197928013184,0.0032522996505448126
2555.0166666715886,0.008163855,-0.7606226,-0.0014223324,-2.3338363,0.0055521834,1.5870174,0.8076648,0.03999993,0.039999977,0.009489581653077117,-0.007994914162840101,0.02332210107856003,0.028694407319353247,-0.042947096903642124,0.013260205151838456,0.999942002758672,0.007595531536107142,0.006852755261252561,0.003367308270656617
2555.0333333382555,0.008437706,-0.7598068,-0.0014724163,-2.3330667,0.0057391673,1.5875671,0.8084063,0.039999925,0.039999977,0.010928709512159074,-0.008024277218680008,0.023635319435810764,0.029264723248236875,-0.04349520145732722,0.013543647824336652,0.9999379033320822,0.007849839901120648,0.0071011146865807,0.003484775971880415
2555.0500000049224,0.008716805,-0.7589754,-0.0015234606,-2.3322825,0.005929738,1.588127,0.8091626,0.03999992,0.039999973,0.009939947054049547,-0.008054792113323939,0.023289282904581654,0.02983733247430582,-0.04404254464864744,0.013829505229616233,0.9999335796085929,0.008109429825631747,0.007353880336881185,0.0036047140025318855
2555.0666666715892,0.009001152,-0.75812835,-0.0015754651,-2.3314834,0.0061238953,1.5886976,0.8099329,0.03999992,0.039999973,0.01084512033997509,-0.008083436265678666,0.02377642066551111,0.030407744632968546,-0.0445927557149145,0.014116885911933812,0.9999290237490861,0.00837385935803104,0.007611464079909569,0.00372713807253628
2555.083333338256,0.009290751,-0.757266,-0.0016284301,-2.3306692,0.0063216365,1.5892787,0.81071734,0.039999917,0.039999973,0.011158871988237173,-0.00811113496573257,0.02361145327895997,0.030980076330962704,-0.04513806478377663,0.014404877482534408,0.9999242250514826,0.00864325007960031,0.007874007502144925,0.0038520629680532516
2555.100000004923,0.009585595,-0.7563878,-0.0016823552,-2.3298402,0.0065229638,1.5898708,0.811516,0.039999917,0.039999973,0.010293997385901754,-0.008134557563361199,0.024057139559441332,0.031552843665669204,-0.04568196440049785,0.014695173584870326,0.9999191760297547,0.008917613139301813,0.00814132468161602,0.00397949950403657
2555.11666667159,0.00988568,-0.7554939,-0.00173724,-2.328997,0.0067278747,1.5904732,0.8123289,0.039999913,0.039999973,0.00921228670487384,-0.008154503596481677,0.023324733339968873,0.03212607938920571,-0.04622248450129673,0.014985910412787592,0.9999138725388165,0.009196984328444222,0.008412812312086623,0.0041094491956200655
2555.1333333382568,0.010191007,-0.7545843,-0.0017930829,-2.328139,0.006936365,1.591086,0.8131559,0.039999913,0.039999973,0.009873423621686861,-0.008181570517192677,0.02351286396584662,0.032698990868510316,-0.04676596609512276,0.015278857248004405,0.9999083036711764,0.009481308642866827,0.00868879103316755,0.0042419271836295624
2555.1500000049236,0.0105015645,-0.753659,-0.0018498835,-2.327266,0.0071484307,1.5917094,0.8139972,0.039999917,0.039999977,0.01093087565202655,-0.00819877003020962,0.023911810808607825,0.03327233684823089,-0.0473090703875353,0.015573135257063466,0.999902456826675,0.009770685101441624,0.008969550919427652,0.004376951099974055
2555.1666666715905,0.010817346,-0.7527185,-0.0019076401,-2.3263779,0.007364068,1.592343,0.81485265,0.03999991,0.03999997,0.011030942568779345,-0.00821348921584246,0.023324131748792,0.03384466900901015,-0.04784829555796861,0.015868613501510087,0.9998963231213827,0.01006503164610416,0.009255114488733156,0.004514532323844467
2555.1833333382574,0.011138345,-0.7517623,-0.0019663516,-2.3254762,0.00758327,1.5929872,0.8157222,0.039999913,0.039999977,0.00804776050320477,-0.008233603863852176,0.0232749279381661,0.034416999541606,-0.04838425969112004,0.01616432989860213,0.9998899006438916,0.010364360789205128,0.009544669539914914,0.00465466423641802
2555.2000000049243,0.011464548,-0.7507904,-0.0020260161,-2.3245595,0.0078060287,1.593642,0.8166059,0.039999913,0.039999977,0.010604358536281389,-0.008247983939195166,0.02385326462570614,0.03498884404101265,-0.0489243770221717,0.016462136615670482,0.9998831726129839,0.010668681585250948,0.009838982887940174,0.0047973716092652155
2555.216666671591,0.011795944,-0.7498032,-0.0020866315,-2.323628,0.008032336,1.5943073,0.81750363,0.039999917,0.039999984,0.010399373495340036,-0.008258110131314361,0.023528505495917784,0.035559668055096014,-0.04946024671787746,0.016760139036797957,0.999876130343682,0.010977944971833652,0.010137987247751381,0.004942662005850239
2555.233333338258,0.012132521,-0.7488006,-0.0021481935,-2.3226817,0.008262186,1.594983,0.8184154,0.039999913,0.03999998,0.010327377335106469,-0.008278141334301312,0.02345016329818872,0.03613005464939928,-0.049991134303787654,0.017060056349059622,0.9998687641303394,0.011292189787946763,0.01044161475503574,0.005090544918578974
2555.250000004925,0.012474261,-0.7477825,-0.002210702,-2.321721,0.008495567,1.5956687,0.81934106,0.039999917,0.039999984,0.009287655208112255,-0.008276668829508213,0.02301905901911372,0.03669959458796544,-0.050519940685608694,0.01736090785820645,0.9998610696722414,0.011611341745367598,0.010749410794077367,0.00524101749030805
2555.266666671592,0.012821156,-0.7467491,-0.002274153,-2.3207457,0.00873247,1.5963649,0.8202808,0.03999991,0.039999977,0.010299311301809055,-0.00829854754880073,0.02355848260471305,0.037268376741344394,-0.05104939206003081,0.017662769040213824,0.999853030450153,0.01193549941314996,0.01106187305453656,0.005394100289164607
2555.2833333382587,0.013173184,-0.7457003,-0.0023385445,-2.3197558,0.008972878,1.5970714,0.8212344,0.039999906,0.039999977,0.009815942688273793,-0.008297978190864932,0.023374569071310525,0.037835642666122694,-0.0515727990018937,0.017964587422608577,0.9998446390438415,0.012264588398479137,0.011378814879320525,0.005549794469023225
2555.3000000049256,0.013530325,-0.74463636,-0.002403872,-2.318752,0.009216785,1.5977883,0.8222018,0.03999991,0.03999998,0.00882994814506155,-0.008302146827116746,0.022925277955598844,0.03840165605782081,-0.052095117540403635,0.018268142452280752,0.9998358885009077,0.012598565466848007,0.011699989696556135,0.005708104315661361
2555.3166666715924,0.013892566,-0.74355733,-0.0024701324,-2.317734,0.009464177,1.5985157,0.82318306,0.03999991,0.039999984,0.009722955482938112,-0.008314909937619588,0.02320004090139438,0.03896629052030394,-0.05261461334111303,0.018571602808992737,0.9998267637730357,0.012937500190151148,0.01202571627755658,0.005869044213487188
2555.3333333382593,0.014259876,-0.74246305,-0.0025373213,-2.3167017,0.009715037,1.5992528,0.82417804,0.039999906,0.03999998,0.009199056681796769,-0.008303136686960838,0.022701354303178434,0.03952928062267023,-0.05312911579507129,0.018876601614196246,0.9998172614459819,0.013281321205460044,0.012355480055838145,0.006032605928119489
2555.350000004926,0.014632241,-0.74135363,-0.0026054364,-2.3156552,0.009969353,1.5999997,0.8251867,0.03999991,0.039999984,0.00893083146116247,-0.00831268289113174,0.022623069632432546,0.04009070309457083,-0.053644961899602356,0.019182295716696735,0.9998073710822508,0.013630041071630784,0.012689272203652981,0.006198796732084615
2555.366666671593,0.015009634,-0.7402293,-0.002674472,-2.3145945,0.010227104,1.6007572,0.826209,0.039999906,0.039999984,0.00990288334534739,-0.008311424970145614,0.023300365669487455,0.04065017315770986,-0.05415981299042698,0.019487841083560952,0.9997970734240986,0.013983619113697209,0.013027799223115576,0.006367638219377207
2555.38333333826,0.015392033,-0.7390899,-0.0027444232,-2.31352,0.010488276,1.601525,0.8272449,0.039999902,0.03999998,0.008636350539115156,-0.008312925210683664,0.022765750197994983,0.041207553442324074,-0.0546671380854754,0.019794775450213777,0.9997863654843203,0.014342070622623333,0.01337042655617948,0.006539120400698829
2555.400000004927,0.015779408,-0.73793584,-0.002815286,-2.3124313,0.010752856,1.6023024,0.8282942,0.039999906,0.039999984,0.009377587815673216,-0.008300314635955458,0.022370032824925445,0.04176273283965472,-0.05517139827491087,0.02010221670179557,0.9997752350664992,0.014705353090220752,0.013717294464644696,0.006713253368403915
2555.4166666715937,0.016171739,-0.736767,-0.0028870557,-2.3113284,0.011020816,1.60309,0.8293569,0.03999991,0.03999999,0.009731084148079105,-0.008303532229812435,0.0228202238411912,0.042315783542264784,-0.05567393936850029,0.020409333944404008,0.99976366849117,0.015073421448496238,0.014068632623348934,0.00689004405087958
2555.4333333382606,0.016568989,-0.73558354,-0.0029597266,-2.3102121,0.011292144,1.6038876,0.83043313,0.03999991,0.03999999,0.008181416674735154,-0.008287126852843038,0.022124544981871885,0.04286701718206255,-0.0561683375073028,0.020717661373139167,0.99975166008288,0.015446388510163968,0.014423924805701876,0.007069486312181886
2555.4500000049275,0.016971134,-0.7343855,-0.0030332939,-2.3090818,0.011566817,1.6046946,0.83152246,0.039999906,0.039999988,0.009253030807165885,-0.008283326836569516,0.022189092761992768,0.04341457009132077,-0.05666137394051998,0.021026354934521506,0.9997391992228276,0.015824059253444853,0.014783341964876504,0.007251585095169434
2555.4666666715943,0.017378148,-0.7331728,-0.0031077522,-2.307938,0.011844816,1.6055115,0.832625,0.03999991,0.039999995,0.00803235070716557,-0.008281326938378714,0.022180648369807265,0.043960147633787035,-0.05715055346930499,0.02133447876499302,0.9997262771704657,0.016206483731591628,0.01514666609195442,0.00743633822776068
2555.483333338261,0.017789988,-0.7319458,-0.0031830955,-2.3067806,0.012126119,1.6063383,0.83374053,0.03999991,0.039999995,0.009267179493788191,-0.00825499631391044,0.022064432613788654,0.044503232103651716,-0.05763717976912817,0.021643796966341205,0.9997128773616175,0.016593624522349446,0.015514275499576024,0.007623760114925782
2555.500000004928,0.018206626,-0.73070437,-0.0032593175,-2.3056095,0.012410704,1.6071744,0.83486915,0.039999913,0.04,0.008413099377957423,-0.008249095458465541,0.02184893487493511,0.04504342016647335,-0.058116375549298556,0.021953149618403535,0.9996989946263418,0.0169854995131054,0.015885743812103035,0.007813839831207574
2555.516666671595,0.018628035,-0.729449,-0.0033364124,-2.3044248,0.012698552,1.6080203,0.83601063,0.03999992,0.04,0.009131278463359038,-0.008241844736761247,0.021798442136744534,0.045580285785292045,-0.05859366185460774,0.022262002196305766,0.9996846115512176,0.017382036387330598,0.016261508889572156,0.008006595241116516
2555.533333338262,0.01905417,-0.7281794,-0.0034143731,-2.303227,0.012989632,1.6088756,0.83716494,0.039999925,0.04,0.00786433082895499,-0.008213173880715699,0.021477913927370196,0.046114409266903716,-0.05906330280485084,0.02257066107129644,0.9996697254859739,0.017783231028855862,0.016641025556364566,0.008202006425523796
2555.5500000049287,0.019485004,-0.7268958,-0.003493194,-2.302016,0.013283924,1.6097403,0.83833206,0.039999932,0.04,0.007995176454489439,-0.008203885453172965,0.02129228766101221,0.04664503171588384,-0.05953035989074264,0.022879463251758096,0.9996543242681422,0.01818910106945414,0.01702431396019664,0.008400077884981809
2555.5666666715956,0.019920493,-0.72559845,-0.0035728686,-2.300792,0.013581398,1.6106143,0.8395118,0.039999932,0.04,0.008279391563137395,-0.0081731314975627,0.021245485880960757,0.04717225927463445,-0.0599925901106151,0.02318548564017114,0.9996383944799984,0.018599581563406787,0.017411544049963347,0.008600812805394254
2555.5833333382625,0.020360598,-0.7242872,-0.0036533892,-2.2995548,0.013882033,1.6114975,0.84070396,0.039999936,0.04,0.008014761162744577,-0.008160458832498496,0.021152068257124235,0.04769547223843472,-0.06045013851537152,0.023493227596376988,0.999621929480687,0.019014574537466106,0.017802528513858513,0.00880420552809869
2555.6000000049294,0.02080528,-0.7229623,-0.0037347488,-2.2983053,0.014185802,1.61239,0.8419086,0.039999943,0.04,0.00706362540019434,-0.008133442487549825,0.020788257282378098,0.048215657464228706,-0.06090246155108017,0.023805285692651335,0.9996049200030396,0.019434135288668122,0.01819707882368418,0.009010250472832491
2555.6166666715962,0.021254508,-0.72162384,-0.0038169397,-2.2970426,0.014492675,1.6132917,0.84312546,0.039999943,0.04,0.008288216263707682,-0.008120682781177085,0.020990124962150247,0.04873228802443297,-0.06135046315803319,0.024106541499130486,0.9995873498649304,0.019858190207053136,0.018595513735933402,0.0092189555049583
2555.633333338263,0.021708235,-0.7202719,-0.0038999552,-2.2957673,0.014802626,1.6142025,0.84435445,0.039999947,0.04,0.007524677164560956,-0.008090850012627826,0.020628778918063695,0.0492448143491994,-0.0617934747110854,0.02441546981141668,0.9995692130682975,0.020286676148868952,0.0189975861651776,0.009430311593571567
2555.65000000493,0.02216642,-0.71890676,-0.003983788,-2.2944796,0.015115625,1.6151222,0.8455956,0.03999994,0.04,0.007387737032127362,-0.008057020359317907,0.020263782101093142,0.049753935700535185,-0.06223101512210913,0.024724855552555155,0.999550497507982,0.020719646270925998,0.01940325645765047,0.009644315879950486
2555.666666671597,0.022629015,-0.7175286,-0.00406843,-2.2931795,0.015431643,1.6160507,0.84684867,0.03999994,0.04,0.007448768225026825,-0.008026322239134548,0.020112556861362485,0.05025827828638135,-0.06266302513704679,0.02503560544076858,0.999531193445123,0.021157006082763437,0.01981251608979339,0.009860964961592694
2555.6833333382638,0.02309598,-0.7161372,-0.004153871,-2.2918668,0.015750656,1.616988,0.8481136,0.039999943,0.04,0.007562634957070102,-0.008011029344839882,0.020248313377990712,0.050758858096468025,-0.06308877697645222,0.025338152377373187,0.9995112899398889,0.021598747755481297,0.02022532586061071,0.010080256540706597
2555.7000000049306,0.023567263,-0.71473294,-0.0042401035,-2.2905424,0.016072625,1.617934,0.8493903,0.039999943,0.04,0.006414669287746477,-0.007959112120051876,0.01966871447631746,0.051255027131307786,-0.06350916953681267,0.02564440474457777,0.9994907796332408,0.022044872096163376,0.020641468168560304,0.01030217618983456
2555.7166666715975,0.024042828,-0.713316,-0.004327121,-2.2892058,0.016397525,1.6188885,0.8506786,0.039999947,0.04,0.007218382180385063,-0.007939511833639223,0.019552522329813193,0.05174624776804118,-0.06392556371413333,0.02595094317894467,0.9994696506514313,0.02249527692568697,0.02106105351873909,0.01052672633933384
2555.7333333382644,0.024522623,-0.7118864,-0.0044149123,-2.2878578,0.016725307,1.6198515,0.8519783,0.039999947,0.04,0.005936706946840786,-0.007891725751135725,0.019245883848606482,0.052233202660009366,-0.06433521630750275,0.02625588646520391,0.9994479006067679,0.022949902350590214,0.02148371646064058,0.010753877526793017
2555.7500000049313,0.025006602,-0.7104445,-0.0045034727,-2.2864978,0.017055964,1.6208228,0.85328925,0.03999995,0.04,0.007186078130549944,-0.007865660298964072,0.019120575135600504,0.052715905774862126,-0.0647411731511304,0.026561074863396532,0.9994255103267979,0.02340871177687365,0.021909834463993482,0.010983654889293587
2555.766666671598,0.025494717,-0.7089903,-0.004592788,-2.285127,0.017389448,1.6218026,0.8546115,0.03999995,0.04,0.005460052761918632,-0.007828784563423952,0.018831839193445,0.053194014160188194,-0.06513996008597947,0.026865416487435075,0.9994024769669231,0.02387176233510111,0.022338951555557058,0.011216025980424716
2555.783333338265,0.025986912,-0.7075236,-0.0046828543,-2.283744,0.01772573,1.6227902,0.8559448,0.039999947,0.04,0.006716606213608145,-0.007779466914552974,0.018898804377642797,0.05366692998622155,-0.06553654181221949,0.02716804827640551,0.9993787893521409,0.024338932007279733,0.022771178876667186,0.011450990977251487
2555.800000004932,0.026483143,-0.70604503,-0.00477366,-2.2823498,0.01806477,1.6237864,0.85728896,0.039999947,0.04,0.00682587598044293,-0.007745781205487079,0.018850397206371383,0.05413476505105662,-0.06592684117240813,0.0274707047487474,0.9993544278161393,0.024810155566286636,0.02320692469996095,0.011688559835326715
2555.816666671599,0.026983349,-0.7045546,-0.004865197,-2.2809439,0.018406533,1.6247905,0.85864395,0.039999947,0.04,0.006947859772710174,-0.00768593443457935,0.01844077863650817,0.05459813693770563,-0.06630740415197242,0.027771490658152,0.999329385467197,0.025285460980543198,0.023645941620754042,0.011928715338372512
2555.8333333382657,0.027487488,-0.70305246,-0.0049574533,-2.279527,0.01875098,1.6258025,0.8600096,0.039999943,0.04,0.0058103956130484136,-0.007656622886590553,0.018059105559364852,0.05505602675947144,-0.06667983593140601,0.028071166288206904,0.9993036596143849,0.025764782026280568,0.02408792370341086,0.012171434594747057
2555.8500000049326,0.0279955,-0.7015386,-0.00505042,-2.2780983,0.0190981,1.6268222,0.8613858,0.03999994,0.04,0.0070424998932505645,-0.007620526658484034,0.018256644551128964,0.05550827314527646,-0.0670469346077976,0.028371461402683727,0.9992772313977651,0.02624808745136188,0.02453318920239537,0.01241673639578668
2555.8666666715994,0.02850734,-0.7000136,-0.005144089,-2.2766593,0.019447826,1.6278496,0.8627722,0.039999947,0.04,0.005473901864982977,-0.007550429330335784,0.01735683583339309,0.05595519365506643,-0.06740419503854947,0.028668769245047205,0.9992501039206897,0.026735223976220187,0.024981315059723452,0.012664577028821304
2555.8833333382663,0.029022949,-0.6984772,-0.005238448,-2.2752101,0.019800141,1.6288846,0.864169,0.039999947,0.04,0.004456406991426576,-0.007516400384936783,0.01722800998700258,0.056397243583955606,-0.06775645858846309,0.02896562624884327,0.9992222704787146,0.027226313479857225,0.02543199313874159,0.01291494323061439
2555.900000004933,0.029542265,-0.6969298,-0.005333487,-2.2737503,0.020154998,1.629927,0.86557573,0.039999943,0.04,0.0059838103652065655,-0.007452962741579666,0.01727644504596615,0.05683303176606817,-0.06810417375781708,0.02926032990013779,0.9991937134550536,0.02772117253517128,0.02588566358689106,0.013167839832026901
2555.9166666716,0.030065242,-0.69537157,-0.005429198,-2.2722805,0.020512354,1.6309768,0.8669924,0.039999943,0.04,0.0048349209368137025,-0.007400631566886057,0.01668353461361516,0.057263724806498675,-0.06844401286282017,0.029554492999721266,0.999164431278859,0.02821982728557524,0.02634193068088427,0.013423237432533179
2555.933333338267,0.030591821,-0.6938023,-0.0055255694,-2.2708,0.020872192,1.6320336,0.86841875,0.039999932,0.04,0.005316702146940244,-0.00737127611008942,0.016836898998806582,0.05768841910231223,-0.06877764736573529,0.029847111738555,0.9991344156665696,0.028722155456798626,0.02680081675948892,0.013681134366804749
2555.950000004934,0.031121938,-0.6922227,-0.0056225937,-2.26931,0.021234434,1.6330974,0.86985505,0.03999994,0.04,0.004917385426850274,-0.007259816637987526,0.016083065956218334,0.05810789142370618,-0.06910613046877082,0.03013744218739751,0.999103650777557,0.029228337884175132,0.0272623120155966,0.013941506771155814
2555.9666666716007,0.031655546,-0.6906327,-0.005720255,-2.2678103,0.02159906,1.6341684,0.8713008,0.039999947,0.04,0.004356552136641767,-0.007248818118217593,0.016143992681283414,0.058519528724130215,-0.0694270088615297,0.03042604808566119,0.999072135207901,0.029738159568077748,0.02772629145601336,0.014204340136928598
2555.9833333382676,0.03219258,-0.6890325,-0.0058185435,-2.2663012,0.021966036,1.6352462,0.8727556,0.039999947,0.04,0.00448492374118814,-0.007180034586209971,0.015740341365511057,0.05892502897684686,-0.06974165988254967,0.030713795512704527,0.9990398662830251,0.030251412485583818,0.028192690273912198,0.014469617650153678
2556.0000000049345,0.032732967,-0.68742216,-0.005917452,-2.264782,0.022335315,1.6363308,0.87421906,0.039999943,0.04,0.005393554150501245,-0.007101152175593983,0.016003948119136524,0.059325613644256384,-0.0700506949717436,0.030999073096715943,0.9990068275889398,0.03076798279617392,0.028661829675222367,0.01473733982119513
2556.0166666716013,0.033276655,-0.6858021,-0.0060169646,-2.2632532,0.022706868,1.6374222,0.87569165,0.03999994,0.04,0.00495983342077011,-0.007056390161236381,0.015363261773959636,0.05972179977500746,-0.07034943571784096,0.03128342720158506,0.9989730056525711,0.03128810092202008,0.029133549147725698,0.015007499199355522
2556.033333338268,0.033823594,-0.6841724,-0.0061170734,-2.2617157,0.023080643,1.6385199,0.8771738,0.03999994,0.04,0.003618381792991343,-0.006993133695933074,0.01475797979622051,0.060110787127964846,-0.07064011343429175,0.03156577404714335,0.9989383977057065,0.031812000593109464,0.029607331871296515,0.015280055853394165
2556.050000004935,0.03437372,-0.6825331,-0.006217767,-2.2601697,0.023456592,1.6396241,0.8786639,0.039999936,0.04,0.0029063624718883574,-0.006920528562134182,0.014690087918500794,0.06049025867392183,-0.07092511730858127,0.031844985740866055,0.9989030199744312,0.032338943891400164,0.03008309258306927,0.015554964949760521
2556.066666671602,0.034926966,-0.6808842,-0.0063190325,-2.2586145,0.023834676,1.6407348,0.88016224,0.039999936,0.04,0.004488770440547185,-0.006867520037545649,0.015024600958968293,0.06086579493373944,-0.07120584961316928,0.03212334372352486,0.9988668453731628,0.03286907410151752,0.030561237885102184,0.015832243078765205
2556.083333338269,0.035483252,-0.6792266,-0.006420859,-2.257051,0.024214864,1.6418515,0.8816695,0.039999932,0.04,0.003783142981683696,-0.00675971080403015,0.013787235410944731,0.06123582901555837,-0.07147656750088817,0.03239956858453885,0.9988298571845315,0.033402784885856775,0.031041545733295216,0.016111883722439654
2556.1000000049357,0.036042526,-0.67756,-0.0065232352,-2.2554793,0.024597097,1.642974,0.88318473,0.039999932,0.04,0.002821907568018034,-0.006698941115673707,0.013617088013373468,0.06159617948141419,-0.071740325301308,0.03267329438271845,0.9987920759522974,0.03393959554817945,0.031523571119479024,0.016393819957580803
2556.1166666716026,0.036604732,-0.6758845,-0.006626149,-2.2538993,0.024981331,1.6441026,0.88470775,0.039999936,0.04,0.0034812029207298423,-0.006646107532252976,0.013907382412092772,0.06195054145472957,-0.07199969405967781,0.03294405438865959,0.9987534819846634,0.0344794729140854,0.03200766428599939,0.016678057381848053
2556.1333333382695,0.037169814,-0.6742006,-0.0067295884,-2.252311,0.025367523,1.6452366,0.8862385,0.03999993,0.04,0.003831990391400808,-0.006574272632411948,0.013175413794774826,0.062298861268592465,-0.07225141633066018,0.03321249345124808,0.9987140681194409,0.03502240521780416,0.03249375879591453,0.016964578167161782
2556.1500000049364,0.03773769,-0.67250836,-0.0068335407,-2.2507148,0.025755621,1.6463765,0.8877767,0.039999936,0.04,0.0031679942273488138,-0.006480525535045717,0.013191973602699747,0.06264024349899351,-0.07249505738047264,0.03347860187121685,0.9986738307734071,0.0355682571330959,0.032981821162626566,0.017253355780217687
2556.1666666716033,0.038308293,-0.67080784,-0.0069379974,-2.249111,0.026145617,1.6475217,0.88932216,0.039999936,0.04,0.0026159298175620904,-0.006420082593175391,0.01270835096336409,0.0629753326101771,-0.0727296754841562,0.033743876991664104,0.9986327717622195,0.0361170297535515,0.03347151693096718,0.017544368858063986
2556.18333333827,0.038881555,-0.6690994,-0.007042943,-2.2474992,0.026537446,1.6486723,0.890875,0.039999932,0.04,0.003453887741411421,-0.0063336095588298336,0.012586046324747358,0.06330368311451251,-0.07295934030055787,0.03400575789877227,0.9985908710816871,0.03666874806416241,0.03396313695963271,0.01783761294528409
2556.200000004937,0.039457425,-0.6673833,-0.0071483674,-2.2458806,0.026931036,1.6498282,0.8924349,0.03999993,0.04,0.0020847221153363904,-0.0062406952782978475,0.011896655947163381,0.06362420437765787,-0.07317869959463555,0.03426305438256505,0.9985481369607663,0.03722331905924787,0.03445629126257999,0.01813302740373297
2556.216666671604,0.040035818,-0.6656598,-0.0072542555,-2.244255,0.027326368,1.6509893,0.8940018,0.03999993,0.04,0.0022803139076987833,-0.006161554052912244,0.011784052119501176,0.06393749700256993,-0.07339230750610581,0.034519506736923396,0.9985045582604555,0.03778072119873037,0.034951062828696464,0.018430611654005825
2556.2333333382708,0.040616672,-0.6639286,-0.0073605967,-2.2426224,0.027723392,1.652155,0.8955751,0.039999936,0.04,0.0022138651639913576,-0.0060912274176719294,0.0115751115730367,0.06424289230753144,-0.07359788231759683,0.034773064606396765,0.9984601456144454,0.03834070965731631,0.03544718307044604,0.018730318067886817
2556.2500000049376,0.041199923,-0.6621905,-0.00746738,-2.2409828,0.028122067,1.6533257,0.89715517,0.03999993,0.04,0.002693972825218438,-0.006000996065144704,0.011222727863624549,0.06454166434406736,-0.07379695330967151,0.03502380130196346,0.9984148720281298,0.03890346158554963,0.03594496959636727,0.019032160950108633
2556.2666666716045,0.041785493,-0.66044545,-0.0075745895,-2.2393367,0.028522326,1.6545012,0.89874136,0.039999925,0.04,0.00190155119170754,-0.005899545828245978,0.010979286990564496,0.06483215077863357,-0.07398805278626513,0.03527062268663791,0.9983687473159545,0.03946871411246638,0.03644421511411926,0.01933608475871212
2556.2833333382714,0.042373322,-0.65869355,-0.0076822126,-2.237685,0.028924113,1.6556811,0.90033376,0.03999992,0.04,0.0005114917645432371,-0.005809770904188771,0.010289434999233293,0.06511599569692542,-0.07416900427109492,0.0355134745011135,0.9983217830565339,0.0400365253635441,0.03694434952182961,0.019642025100441943
2556.3000000049383,0.042963333,-0.6569351,-0.0077902367,-2.2360268,0.029327413,1.6568652,0.9019321,0.039999925,0.04,0.002033342551133188,-0.005737853241351287,0.010236008767194882,0.06539138923132404,-0.0743479534516603,0.035756104906073734,0.998273960680162,0.04060680109159071,0.03744575463548695,0.019950002326543162
2556.316666671605,0.04355545,-0.65517026,-0.007898653,-2.2343624,0.029732162,1.6580539,0.9035362,0.03999993,0.04,0.0019487305309429104,-0.005625910606189832,0.010275935246117918,0.06565938481843342,-0.07451916024361296,0.035994642644660305,0.998225270189608,0.04117946117776617,0.037948576642875605,0.020259996613347465
2556.333333338272,0.044149626,-0.65339947,-0.008007447,-2.2326925,0.030138314,1.6592464,0.9051458,0.039999925,0.04,0.0009805895759384953,-0.00555249748457054,0.009266335525492941,0.06591941359732352,-0.07467998221677241,0.03622889332801339,0.9981757249346026,0.041754430459190015,0.03845236668207704,0.020571951410995246
2556.350000004939,0.044745788,-0.65162283,-0.008116603,-2.2310169,0.030545818,1.6604428,0.9067607,0.039999917,0.04,0.001481507486689182,-0.005462901910985307,0.009206758492186218,0.06617165831779634,-0.0748345397738394,0.0364598795826435,0.9981253184843127,0.04233158745870355,0.03895724203363135,0.020885846809464297
2556.366666671606,0.045343842,-0.64984035,-0.008226112,-2.2293363,0.030954624,1.6616433,0.9083806,0.039999913,0.04,0.0002823363606907492,-0.00533594458543285,0.009071475406252638,0.0664165826477484,-0.07498073229450355,0.03668743882586792,0.9980740555067708,0.04291089403615853,0.03946296293420425,0.02120163799659545
2556.3833333382727,0.0459437,-0.6480526,-0.008335957,-2.22765,0.031364683,1.6628473,0.91000557,0.03999991,0.04,0.0020370871217867403,-0.0052156312732823396,0.008689035353426355,0.06665407583108665,-0.07512105263829465,0.036911719011407204,0.9980219138402332,0.0434923436544399,0.039969911702639915,0.021519333089233424
2556.4000000049396,0.04654533,-0.6462596,-0.0084461225,-2.2259588,0.031775948,1.6640548,0.91163546,0.039999913,0.04,0.00044175821880543253,-0.005170992518452322,0.008110944749040172,0.06688314497412798,-0.07525087684819001,0.03713317995953296,0.9979689073825322,0.04407592039584644,0.04047760966563247,0.021838870271391062
2556.4166666716064,0.04714864,-0.6444616,-0.008556603,-2.224263,0.03218837,1.6652657,0.9132697,0.039999906,0.04,0.0005718751468375416,-0.005038467202393704,0.008034851187588288,0.06710336393130589,-0.07537383679437579,0.0373500829279757,0.9979150387643763,0.0446613704177428,0.040986118855398476,0.02216022250505639
2556.4333333382733,0.047753572,-0.64265865,-0.008667379,-2.222563,0.032601893,1.6664796,0.9149084,0.03999991,0.04,-0.0006621240084214719,-0.0049493535701577995,0.007267205635863583,0.06731671273878884,-0.07548842370623449,0.03756331529428402,0.9978603206847958,0.045248773591808386,0.04149493063200485,0.022483318774567537
2556.45000000494,0.048360046,-0.6408513,-0.008778439,-2.2208586,0.033016488,1.6676968,0.91655135,0.039999906,0.04,0.0009200494989869412,-0.004853685039035716,0.007414443298126017,0.06752129297158202,-0.07559937560311292,0.037773827353822294,0.9978047231577576,0.045838041038395456,0.042004695855545685,0.022808199488698555
2556.466666671607,0.048967976,-0.6390395,-0.008889768,-2.2191505,0.03343208,1.6689172,0.9181982,0.039999906,0.04,-0.0009575900796310322,-0.0047183469146533374,0.006873740673052353,0.06771737205703884,-0.07569948932309961,0.03797933529194293,0.997748273271564,0.04642906543859638,0.042514793358181716,0.023134766301432068
2556.483333338274,0.049577307,-0.6372234,-0.009001358,-2.217438,0.03384861,1.6701403,0.91984886,0.039999895,0.04,0.0008031414293618866,-0.004625665443805382,0.006909418779721399,0.06790561711137028,-0.0757944484818111,0.038179340537842214,0.9976909526535654,0.047021768605609575,0.04302560831939267,0.023463019821999963
2556.500000004941,0.05018795,-0.6354034,-0.009113193,-2.2157218,0.03426602,1.6713659,0.921503,0.03999989,0.04,-0.000521008848064497,-0.004487156484453414,0.0060937248155479296,0.06808558970992912,-0.07587973548743515,0.03837704430229017,0.9976327789507505,0.04761607026094146,0.0435367262164183,0.023792891507017508
2556.5166666716077,0.050799824,-0.6335798,-0.009225256,-2.2140017,0.034684308,1.6725941,0.9231605,0.039999884,0.04,0.0008241923611596036,-0.00440888684422186,0.00614457514189759,0.0682571295081697,-0.07595849379402012,0.03857111997097104,0.9975737284218855,0.04821190753971912,0.044048619422457164,0.024124416279266737
2556.5333333382746,0.05141287,-0.63175255,-0.009337535,-2.2122788,0.03510341,1.6738247,0.9248211,0.039999884,0.04,-0.0018980452613615029,-0.004301378335588857,0.005398823790425666,0.06842066112442051,-0.0760264277223957,0.03876147995224214,0.9975138405602999,0.0488091969009771,0.044560429531160545,0.024457479602788317
2556.5500000049415,0.05202701,-0.62992203,-0.0094500175,-2.210553,0.035523262,1.6750574,0.9264849,0.039999872,0.04,-0.0006896935466738086,-0.004175634618037993,0.0051959711327542735,0.0685757639013913,-0.07608977037266851,0.038950343863328137,0.9974530940712695,0.04940801794778954,0.04507245056422736,0.024792077167058172
2556.5666666716083,0.052642178,-0.6280886,-0.00956269,-2.2088237,0.035943802,1.6762923,0.92815113,0.039999872,0.04,0.000193267126302743,-0.004065599542761589,0.00505845962057716,0.06872136459561357,-0.0761459019654038,0.03913243550093276,0.9973914890934826,0.05000800451137516,0.04558498727644867,0.02512818942306655
2556.583333338275,0.05325829,-0.62625223,-0.00967554,-2.207092,0.036364995,1.6775289,0.9298201,0.03999987,0.04,-0.0016974627555566002,-0.003937963239022957,0.004310055428558002,0.06885969425927957,-0.07619135401674475,0.039311100204996986,0.9973290466305225,0.05060934562139694,0.046097323231266814,0.02546573528762508
2556.600000004942,0.05387526,-0.6244133,-0.009788549,-2.205358,0.03678681,1.6787673,0.93149143,0.03999986,0.04,-0.0011416889521775886,-0.003837818887174327,0.004239499174718553,0.06898875621822122,-0.07623174743584098,0.03948822896148991,0.9972657580692448,0.051211863034149256,0.046609758342481176,0.02580471457701955
2556.616666671609,0.05449303,-0.622572,-0.009901707,-2.2036214,0.037209176,1.6800072,0.93316483,0.039999846,0.04,-0.0006789977632148947,-0.003713540286064132,0.0038814625613614595,0.06910895442880591,-0.07626359388674274,0.039661729360388115,0.9972016271966705,0.05181545485562069,0.04712226618256039,0.02614508336643066
2556.633333338276,0.055111516,-0.62072855,-0.010015001,-2.2018833,0.037632037,1.6812485,0.9348401,0.03999984,0.04,-0.0024875179252425994,-0.003580023637451968,0.003211756776333452,0.06922100344912178,-0.07628724349363669,0.03982976614606721,0.997136679284913,0.05242004084845267,0.04763437605035194,0.026486758208522726
2556.6500000049427,0.05573064,-0.618883,-0.010128411,-2.2001433,0.038055334,1.6824913,0.93651724,0.039999835,0.04,-0.0015765404661749471,-0.0034645575842207066,0.0033746845677917747,0.06932526012185629,-0.07630630934766489,0.03998669964888913,0.9970708959982564,0.05302567684998448,0.048146354497813404,0.02682973157536438
2556.6666666716096,0.056350324,-0.61703604,-0.01024193,-2.198402,0.038479038,1.683735,0.9381959,0.03999984,0.04,-0.0017320266760822989,-0.0033222156785334134,0.0023911502549989194,0.06942009188347553,-0.07631742525406428,0.04014174530649286,0.9970042920331224,0.05363218025440577,0.04865805799379262,0.02717396365943238
2556.6833333382765,0.0569705,-0.6151875,-0.010355541,-2.1966581,0.03890308,1.6849798,0.93987596,0.039999843,0.04,-0.0001648551847033275,-0.003231666311666326,0.002959550201908634,0.06950622927190747,-0.0763213020920025,0.04029209960601106,0.9969368417681302,0.05423953825158475,0.049169962537891417,0.02751946219792841
2556.7000000049434,0.057591096,-0.6133379,-0.01046923,-2.1949136,0.039327413,1.6862257,0.94155705,0.03999984,0.04,-0.002572623159702303,-0.003092971622832563,0.0019652197385422454,0.06958334482878867,-0.07631285924115999,0.04043157974772614,0.9968685846487512,0.05484758122791147,0.04968145266069031,0.02786612702487891
2556.7166666716103,0.058212027,-0.6114871,-0.010582985,-2.1931686,0.039751988,1.6874721,0.9432391,0.039999846,0.04,-0.0031949923834595495,-0.002956372869823698,0.0015255034253813804,0.069651623009731,-0.07629685287984542,0.04057766588502548,0.9967995382317784,0.0554563118310275,0.05019217540973071,0.028213889959594726
2556.733333338277,0.058833223,-0.6096355,-0.010696792,-2.191423,0.040176734,1.6887189,0.9449218,0.039999843,0.04,-0.0024687138021839417,-0.0028233820124096143,0.0012559360529573738,0.06971161919850655,-0.07627693924670154,0.040709354153774704,0.9967297015747845,0.056065598672697586,0.05070228552715932,0.028562718470684922
2556.750000004944,0.059454586,-0.6077833,-0.010810637,-2.1896768,0.040601626,1.6899661,0.94660497,0.039999843,0.04,-0.002492627529182556,-0.0026811244459953865,0.0009526753354194284,0.06976239775688224,-0.07625136017176568,0.04084106637887229,0.996659075045965,0.05667539172782443,0.05121181598151178,0.028912592496954298
2556.766666671611,0.060076084,-0.6059309,-0.010924503,-2.18793,0.041026596,1.6912134,0.9482885,0.039999846,0.04,-0.002184849988928761,-0.0025998152082151726,0.00057665164583387,0.06980486617634551,-0.07621826659589394,0.04096669109068101,0.9965876601365872,0.05728563123031898,0.05172080043794778,0.029263474162924942
2556.7833333382778,0.060697604,-0.60407835,-0.011038379,-2.1861835,0.04145159,1.6924608,0.94997215,0.03999984,0.04,-0.0029588129002888763,-0.0024195979211591445,0.00033582326099956816,0.06983847542737182,-0.0761769989831134,0.04108035598767442,0.9965154719489532,0.05789624949625533,0.052229038569620787,0.029615299943029725
2556.8000000049446,0.061319083,-0.6022259,-0.011152248,-2.1844368,0.04187656,1.6937081,0.9516556,0.039999846,0.04,-0.0026477430436155913,-0.002309483856180461,-3.822812806308917e-05,0.06986218711350393,-0.07612965175392417,0.04120146577332063,0.9964425166536675,0.058507113272358816,0.05273656658326783,0.029968037080357467
2556.8166666716115,0.061940443,-0.6003738,-0.0112661,-2.1826904,0.042301457,1.6949552,0.95333874,0.03999984,0.04,-0.0027472782920590078,-0.002170582395771836,-0.00030283190994850884,0.06987821938904923,-0.07607307373594416,0.041307630338816,0.9963687979796846,0.059118163888093905,0.053243390012116976,0.030321651192449162
2556.8333333382784,0.062561594,-0.5985222,-0.011379918,-2.1809442,0.042726226,1.696202,0.9550214,0.039999835,0.04,-0.002680504838092901,-0.002022129613529766,-0.0005527221976109331,0.06988491866400648,-0.07601012804664906,0.04141246226756713,0.9962943217198915,0.05972937083705067,0.05374945565381897,0.03067609468347404
2556.8500000049453,0.06318247,-0.5966714,-0.01149369,-2.1791992,0.043150805,1.6974484,0.9567033,0.03999984,0.04,-0.003936626931633214,-0.001880055956540727,-0.0012864171839765959,0.06988245478499222,-0.07593699524982889,0.04151173452501279,0.9962191147150253,0.06034064207772349,0.05425441622853413,0.031031285983025972
2556.866666671612,0.06380301,-0.59482175,-0.011607401,-2.177455,0.04357516,1.6986938,0.9583842,0.039999835,0.04,-0.0028617794721963463,-0.001763711135575885,-0.0016272406090589442,0.06987114332388683,-0.07585933098110008,0.04160294929802474,0.9961431779233664,0.0609518399744401,0.05475842705562511,0.03138720992475067
2556.883333338279,0.06442314,-0.59297335,-0.011721036,-2.1757126,0.04399924,1.6999384,0.96006393,0.039999835,0.04,-0.004730486572057657,-0.0016372912196152556,-0.002046817881984353,0.06985108258713892,-0.07577332419102556,0.04169239287325296,0.9960665405151269,0.061562912693948764,0.05526108159304672,0.03174377904457571
2556.900000004946,0.06504276,-0.5911264,-0.011834585,-2.1739714,0.044422973,1.7011821,0.96174246,0.039999843,0.04,-0.003298775301718848,-0.0014615278549276467,-0.0020331413740581894,0.06982212718910971,-0.07568301051015508,0.041777428530277036,0.99598918396446,0.0621738859690711,0.05576271094224693,0.03210098748769606
2556.916666671613,0.06566178,-0.5892811,-0.01194803,-2.1722314,0.044846315,1.7024246,0.9634193,0.03999984,0.04,-0.0030586060668191806,-0.0013110500889798593,-0.0023649617935994627,0.06978401418498445,-0.07558516695847133,0.04185023403302827,0.9959111231544431,0.06278454946696983,0.05626332747798325,0.03245879089847009
2556.9333333382797,0.066280164,-0.58743787,-0.012061358,-2.1704936,0.04526923,1.703666,0.96509445,0.03999984,0.04,-0.00417548711966198,-0.001207845868747559,-0.0030590234915139902,0.06973697579703848,-0.07547796013145044,0.04192309971333995,0.9958323769937241,0.06339489054302419,0.05676267011178279,0.03281713067665175
2556.9500000049466,0.066897795,-0.5855967,-0.01217456,-2.1687572,0.045691647,1.7049057,0.96676767,0.039999843,0.04,-0.0031198585459080164,-0.0010162389490045443,-0.0029640465426084006,0.06968115321834602,-0.07536508882523707,0.04198740983171462,0.995752942657328,0.064004855364454,0.05726089652779934,0.03317597636664136
2556.9666666716134,0.06751463,-0.58375794,-0.012287615,-2.1670232,0.046113517,1.7061439,0.9684387,0.039999843,0.04,-0.0042832108124279955,-0.0009068335888332002,-0.0037415643845184476,0.06961546702994115,-0.07524319091437878,0.0420479420416327,0.9956728516294765,0.06461430813039329,0.05775769221615582,0.03353524567855218
2556.9833333382803,0.0681306,-0.58192176,-0.0124005135,-2.1652923,0.04653479,1.7073799,0.9701071,0.039999835,0.04,-0.005536425322993921,-0.0007650706279629937,-0.004376225391267141,0.06954176059015138,-0.07511430149560486,0.04209686866105859,0.9955921486085316,0.06522306806970349,0.05825259782693812,0.033894835403571674
2557.000000004947,0.068745606,-0.5800885,-0.012513239,-2.1635637,0.046955414,1.7086142,0.971773,0.039999846,0.04,-0.003646072413587831,-0.0006020266471090663,-0.004154279199442001,0.06945930000216205,-0.07498432180553664,0.042151893235609694,0.9955107895172456,0.0658312490764455,0.058746266989418344,0.0342547911188092
2557.016666671614,0.06935957,-0.5782582,-0.01262578,-2.1618388,0.047375333,1.7098465,0.9734361,0.039999843,0.04,-0.005788389701155694,-0.00043498666199015545,-0.004862291462659485,0.06936837447707872,-0.07484359730037053,0.04218856234821945,0.9954288319581254,0.06643868504013281,0.05923803508324395,0.034614979937835876
2557.033333338281,0.06997245,-0.5764311,-0.012738122,-2.1601162,0.047794513,1.7110769,0.97509634,0.039999846,0.04,-0.0033386784269229253,-0.00036858154874447324,-0.004407311501153366,0.06926801081999785,-0.074700612561897,0.04222730052632749,0.995346233112484,0.06704537165640825,0.059728645357017204,0.034975467002719994
2557.050000004948,0.07058413,-0.5746077,-0.012850248,-2.1583974,0.048212897,1.7123047,0.9767533,0.039999843,0.04,-0.005375511758121121,-0.0001370306319914416,-0.005793538728560144,0.0691585188384711,-0.07454645020434804,0.042255013351024606,0.995263055670822,0.0676511430856106,0.06021737561887111,0.03533610801382304
2557.0666666716147,0.07119456,-0.57278794,-0.0129621485,-2.1566815,0.04863041,1.7135297,0.97840685,0.03999984,0.04,-0.0037992707188294617,5.371093569905838e-07,-0.0056435454107939265,0.06904054899124727,-0.0743873650769178,0.04227989457928942,0.9951792892202438,0.06825594631964503,0.0607045321483139,0.03569688888060691
2557.0833333382816,0.07180366,-0.5709721,-0.01307381,-2.15497,0.049047023,1.7147524,0.9800568,0.039999846,0.04,-0.0058568303247241715,0.0001246290083883883,-0.0059520033030224795,0.06891312345596409,-0.07422049011613638,0.04230046638351932,0.9950949625205859,0.06885973794233494,0.06118980013368327,0.03605773725938035
2557.1000000049485,0.07241136,-0.56916046,-0.013185221,-2.1532614,0.04946269,1.7159722,0.9817029,0.039999843,0.04,-0.0034827135615422833,0.0002749290222231471,-0.0062020477577640065,0.06877726998559637,-0.07404797812207117,0.04231341918074399,0.9950100637064038,0.069462366651376,0.06167360560693691,0.036418664357830775
2557.1166666716153,0.07301757,-0.56735325,-0.013296362,-2.1515582,0.049877353,1.717189,0.98334503,0.03999984,0.04,-0.007070735216530011,0.00046827151911066345,-0.007221295967796415,0.068632725607292,-0.07386694864947885,0.04231924544348877,0.9949246635663592,0.0700638283709722,0.06215498753516803,0.036779495726191797
2557.1333333382822,0.07362226,-0.5655508,-0.013407224,-2.149859,0.050290957,1.7184025,0.9849831,0.039999843,0.04,-0.004496498487149836,0.0005548359776369471,-0.0071436355071341495,0.06847952738823285,-0.07368286701272606,0.042320163571301125,0.9948387279684937,0.07066407432409133,0.06263460349903759,0.03714027973059612
2557.150000004949,0.07422531,-0.563753,-0.0135177905,-2.1481638,0.050703455,1.719613,0.9866166,0.039999843,0.04,-0.004602254627394942,0.0007428583580521009,-0.0069715581799467685,0.06831645299606282,-0.07349227990986323,0.04231572590437492,0.9947522758651183,0.07126291721451938,0.06311247248157369,0.037500961434433815
2557.166666671616,0.074826665,-0.5619602,-0.013628055,-2.1464734,0.0511148,1.7208197,0.9882454,0.039999835,0.04,-0.005603737329362701,0.0008956237827872915,-0.007936047482970388,0.0681453606852763,-0.0732926103991232,0.0423060142228874,0.9946653508885093,0.07186028188891494,0.06358813477035437,0.03786144140298286
2557.183333338283,0.07542624,-0.5601728,-0.013737998,-2.1447887,0.05152494,1.7220231,0.98986953,0.039999835,0.04,-0.0066396618331410195,0.001073812247670558,-0.008332685451639676,0.06796645732191048,-0.07308813403076805,0.04228852031742047,0.9945779651948102,0.0724562088809414,0.06406148320031939,0.03822166026911318
2557.2000000049497,0.076023966,-0.55839074,-0.013847603,-2.1431093,0.051933836,1.7232229,0.99148875,0.03999983,0.04,-0.005910491465854761,0.0012035908266039286,-0.008381489567388378,0.06777825850286724,-0.07287923750612159,0.04226576330703858,0.9944901268410485,0.07305062377492597,0.06453258951058875,0.03858158722534727
2557.2166666716166,0.07661979,-0.55661434,-0.013956862,-2.141435,0.052341413,1.7244186,0.9931028,0.03999984,0.04,-0.005129098763712037,0.001340604773217291,-0.008657861401206723,0.06758095615791086,-0.07266505806274354,0.042236889280437784,0.9944018436466326,0.07364337791219974,0.06500161789724933,0.038941185300381986
2557.2333333382835,0.07721363,-0.5548441,-0.014065758,-2.139766,0.052747644,1.7256104,0.9947114,0.03999984,0.04,-0.0053227116306509,0.001510533828144589,-0.00927331152926758,0.06737461654933373,-0.0724443573287859,0.04220175918126006,0.9943131332492665,0.0742343790338359,0.06546852293376554,0.03930041376828124
2557.2500000049504,0.077805415,-0.55307996,-0.014174283,-2.1381025,0.05315249,1.726798,0.9963144,0.03999983,0.04,-0.005299415742632263,0.001650852216777965,-0.009271372008923251,0.06716051028243958,-0.0722161287976661,0.042161386087225056,0.9942240074642864,0.07482356443335686,0.06593331850275154,0.03965923219575143
2557.2666666716173,0.078395076,-0.551322,-0.014282421,-2.1364453,0.05355588,1.7279814,0.99791163,0.039999835,0.04,-0.006669155222871481,0.0018128753217605542,-0.009730401367846753,0.06693751783725116,-0.07198102467359951,0.042113657406056174,0.9941345127431416,0.07541087268019912,0.06639554994058999,0.04001751869686374
2557.283333338284,0.07898255,-0.54957056,-0.014390162,-2.1347947,0.053957768,1.7291608,0.9995029,0.03999983,0.04,-0.006798131829865994,0.001969919834005074,-0.010055687877574826,0.06670637412904208,-0.07174086865271075,0.04205975459915668,0.9940446556591465,0.07599623944660126,0.06685531998068288,0.04037524409516609
2557.300000004951,0.07956774,-0.547826,-0.0144974915,-2.1331503,0.054358087,1.7303355,1.001088,0.03999984,0.04,-0.005726255131266456,0.002169619340186557,-0.010476209834631156,0.06646673826631402,-0.07149668507298604,0.04199893043680074,0.993954444027748,0.0765795876741887,0.0673127335598499,0.04073236857638057
2557.316666671618,0.0801506,-0.5460884,-0.014604395,-2.1315122,0.05475683,1.7315052,1.0026668,0.03999984,0.04,-0.005674083644535699,0.002266977953832572,-0.010809577087833588,0.06621876874447644,-0.07124492853474423,0.041932667344243515,0.9938639003258531,0.07716083680794275,0.06776768520973138,0.041088851693557624
2557.333333338285,0.08073107,-0.544358,-0.014710861,-2.1298807,0.05515396,1.7326701,1.0042388,0.039999835,0.04,-0.006058662331831499,0.0023926065663953944,-0.011010579108061691,0.06596218814093587,-0.070987796647312,0.041860960272792166,0.9937730498594085,0.07773976992828222,0.06822019588192792,0.041444642819775265
2557.3500000049517,0.08130905,-0.54263514,-0.014816879,-2.1282566,0.05554939,1.7338301,1.0058044,0.03999983,0.04,-0.00693767159800629,0.002649263655851719,-0.011589693722724448,0.06569889784907715,-0.07072404869042631,0.04178214706560002,0.9936819040885427,0.07831661159726867,0.06867000875681119,0.04179966186741145
2557.3666666716185,0.081884466,-0.5409196,-0.014922432,-2.1266394,0.05594307,1.734985,1.0073633,0.039999835,0.04,-0.006412787392306996,0.0027714527980560177,-0.011426467763975268,0.06542634954569394,-0.07045579905304265,0.04169702015885872,0.9935904783038363,0.07889125519155149,0.06911717171196773,0.0421538592870643
2557.3833333382854,0.08245728,-0.53921175,-0.015027511,-2.1250296,0.056334972,1.7361348,1.0089152,0.039999835,0.04,-0.0067191138133360084,0.002889298576067012,-0.01187799044362059,0.06514398080976244,-0.07018158267279433,0.04160543591075403,0.9934987990068649,0.07946353307348028,0.06956164396938727,0.042507187294304805
2557.4000000049523,0.08302743,-0.53751177,-0.015132105,-2.1234272,0.056725074,1.7372792,1.0104595,0.03999983,0.04,-0.006525361471965141,0.0030241579978718125,-0.012166961373005769,0.06485350137536317,-0.06990395741734404,0.041508618808537734,0.9934068950612474,0.08003322471450884,0.07000341709038319,0.0428596008175373
2557.416666671619,0.08359479,-0.53582007,-0.015236199,-2.1218326,0.05711329,1.7384181,1.0119963,0.039999835,0.04,-0.006792476416928039,0.003297019193385098,-0.012730554293938212,0.06455611852655581,-0.06961962889630097,0.04140461047522469,0.9933147849641948,0.08060031320724334,0.07044242254822154,0.043211023917138096
2557.433333338286,0.08415938,-0.5341367,-0.015339782,-2.120246,0.057499595,1.7395513,1.0135254,0.039999835,0.04,-0.006773421728301088,0.0033134698987580258,-0.012944396596004104,0.0642515979238695,-0.069329310391516,0.04129352072713085,0.9932224868931261,0.08116477670224222,0.07087858245402472,0.043561417585026664
2557.450000004953,0.08472108,-0.53246206,-0.015442843,-2.1186674,0.057883922,1.7406785,1.0150467,0.03999984,0.04,-0.006743945934895024,0.003573964568967525,-0.013449426001699294,0.06393889904061847,-0.06903566294070519,0.04117809650403084,0.9931300173552883,0.0817265956499717,0.07131185673523516,0.04391071942389675
2557.46666667162,0.085279875,-0.5307959,-0.015545366,-2.117097,0.058266252,1.7418,1.0165602,0.03999984,0.04,-0.007016042958607471,0.003600364483447027,-0.01319924280074325,0.06361862883488026,-0.06873690864327753,0.041055520303578376,0.9930373954732442,0.08228571309085586,0.07174220044758256,0.04425888936455291
2557.4833333382867,0.08583565,-0.5291389,-0.015647346,-2.115535,0.058646545,1.7429155,1.0180658,0.03999984,0.04,-0.006689944779347812,0.003867432228216172,-0.013938952789804837,0.06328965083705923,-0.06843300669444215,0.04092756609122819,0.9929446163381959,0.08284216753035936,0.07216977403289172,0.04460591754359828
2557.5000000049536,0.08638834,-0.5274912,-0.015748763,-2.1139817,0.059024744,1.7440246,1.0195632,0.039999835,0.04,-0.0069105204762553996,0.004018346108608517,-0.014343070290068205,0.06295193759219858,-0.06812280202682786,0.04079206885616685,0.9928517276930162,0.08339579122261291,0.07259430703680594,0.04495170084872451
2557.5166666716204,0.08693793,-0.5258527,-0.01584961,-2.1124375,0.059400797,1.7451278,1.0210527,0.039999835,0.04,-0.00762811857120127,0.004100167558548917,-0.014166729749898188,0.0626065425376244,-0.06780908034037834,0.04065047496848541,0.9927587263476856,0.08394677758618212,0.07301577626572675,0.045296205246475596
2557.5333333382873,0.08748429,-0.5242235,-0.015949879,-2.1109016,0.05977467,1.7462245,1.022532,0.03999983,0.04,-0.006229540702884506,0.0043163917193750345,-0.014316498133193356,0.06225017867557473,-0.0674910824192469,0.04050226822637393,0.9926657043403728,0.08449396712201901,0.07343445560635935,0.04563934351206556
2557.550000004954,0.08802742,-0.52260405,-0.016049555,-2.1093752,0.06014632,1.7473146,1.0240027,0.039999835,0.04,-0.007925595492297433,0.004437102791188252,-0.015225183819889132,0.06189341947586411,-0.0671655300604109,0.04034881810103365,0.9925726450526136,0.08503819580443502,0.0738497930145206,0.04598105717899041
2557.566666671621,0.08856724,-0.5209947,-0.016148621,-2.1078584,0.0605157,1.7483978,1.0254653,0.03999983,0.04,-0.007311752219685275,0.004591094606912205,-0.015602259430624876,0.06152855137762674,-0.06683724289873258,0.04018917324116133,0.9924795267320179,0.08557970585567881,0.07426193855788955,0.046321349775988986
2557.583333338288,0.08910366,-0.5193952,-0.016247068,-2.1063502,0.06088277,1.7494743,1.026918,0.03999983,0.04,-0.006079802875147422,0.004754830867312321,-0.01494041327474438,0.06115222554091106,-0.06650546460210235,0.04002290401869749,0.9923864049160733,0.0861177004898037,0.07467124053516652,0.04666016327703075
2557.600000004955,0.08963667,-0.5178059,-0.016344892,-2.1048522,0.06124747,1.7505441,1.0283617,0.03999984,0.04,-0.008307767507531594,0.004886534483150573,-0.015883941319638772,0.06077117689484832,-0.06616610048730118,0.039850813374470655,0.9922933077993736,0.08665249089596794,0.07507717154268713,0.046997398132787895
2557.6166666716217,0.09016618,-0.5162272,-0.016442087,-2.1033635,0.061609805,1.7516068,1.029796,0.039999835,0.04,-0.006143795394031315,0.005049965359807396,-0.01598921786991614,0.06038217429279584,-0.06582442424868437,0.03967366916782792,0.9922002116245575,0.08718402264969682,0.0754802152811,0.047333110482187676
2557.6333333382886,0.09069214,-0.51465905,-0.016538626,-2.1018858,0.061969724,1.7526624,1.0312206,0.039999835,0.04,-0.009287058592555297,0.0051868013399042345,-0.016702424598791232,0.05998542862061134,-0.06547532688347521,0.03948902463988782,0.992107221669476,0.08771209772508537,0.07587949080769282,0.047667090310858085
2557.6500000049555,0.09121446,-0.5131016,-0.016634507,-2.100418,0.062327184,1.7537107,1.0326351,0.03999983,0.04,-0.0073826232019680305,0.005367693174115895,-0.016467863767233304,0.05958230320606103,-0.06512665307616239,0.03929970826290922,0.9920143199539655,0.08823661113857338,0.07627548878135607,0.04799936741475814
2557.6666666716224,0.09173312,-0.5115551,-0.016729726,-2.0989604,0.0626821,1.7547517,1.0340403,0.03999984,0.04,-0.006943150895022399,0.005518587552458265,-0.016758665124028127,0.0591736009728437,-0.06477329106690566,0.039102820538670854,0.9919214801982257,0.08875791346676484,0.07666829795530174,0.04832992868838491
2557.6833333382892,0.09224807,-0.5100198,-0.016824258,-2.097513,0.06303452,1.755785,1.035435,0.03999983,0.04,-0.00707307096452503,0.005576813688520921,-0.01719195280416308,0.05875446531730041,-0.06441452970271674,0.03890123933335866,0.9918287801381449,0.08927535992596457,0.07705784073301229,0.04865871125846544
2557.700000004956,0.092759214,-0.5084956,-0.016918097,-2.0960767,0.06338432,1.7568108,1.0368192,0.039999835,0.04,-0.008815879001211613,0.0058271585080454935,-0.017436189614339348,0.05833148295097275,-0.06405116945825391,0.038693088509216766,0.9917362564493062,0.08978911760133061,0.07744369633805036,0.048985568301188345
2557.716666671623,0.09326654,-0.5069829,-0.017011244,-2.0946522,0.06373152,1.7578291,1.0381936,0.03999983,0.04,-0.009187405657451464,0.0059118953561337895,-0.017843819562535224,0.057901856694401954,-0.06368676069529443,0.03848034372988598,0.9916439053106084,0.09029943503288256,0.07782577411220037,0.04931050574577379
2557.73333333829,0.09376997,-0.5054819,-0.01710368,-2.0932372,0.06407604,1.7588396,1.0395575,0.039999835,0.04,-0.004969977927604674,0.006072636202666959,-0.017296375295217103,0.05746391603318831,-0.0633213655468364,0.03825986743330321,0.9915516772963473,0.09080598975906291,0.07820516252916508,0.049633617926403105
2557.7500000049567,0.09426945,-0.5039926,-0.017195394,-2.0918334,0.0644179,1.7598422,1.0409104,0.039999835,0.04,-0.007984446455999716,0.006200302527978319,-0.01817346642514206,0.057018628658503774,-0.06294499050669952,0.03803483180316916,0.9914596801720201,0.0913085876543726,0.07858097757683134,0.04995472326846484
2557.7666666716236,0.09476491,-0.50251514,-0.017286375,-2.0904408,0.06475701,1.7608365,1.0422524,0.039999835,0.04,-0.007957954644455256,0.006376677772013117,-0.018365757685456785,0.0565680494652762,-0.06256659367390267,0.03780335363336987,0.9913679281674108,0.09180730245415492,0.07895314813177022,0.050273756744741986
2557.7833333382905,0.09525635,-0.50104994,-0.017376622,-2.0890594,0.065093346,1.7618227,1.0435835,0.03999984,0.04,-0.007128987003923726,0.0064806347465917735,-0.018629303730444136,0.05611152781703363,-0.0621850373838418,0.03756642185422727,0.9912764142076502,0.0923020640440026,0.07932198382945425,0.050590735220984395
2557.8000000049574,0.09574371,-0.4995967,-0.01746612,-2.08769,0.0654269,1.7628009,1.0449034,0.039999835,0.04,-0.009281188988552458,0.006574804018347202,-0.018685711776078584,0.055648743998643016,-0.0617992956367923,0.03732657105378057,0.9911852078270881,0.09279279853307662,0.07968693449424595,0.05090552814854097
2557.8166666716243,0.096226916,-0.49815592,-0.017554859,-2.0863323,0.06575761,1.7637707,1.0462122,0.03999983,0.04,-0.0073144462326979465,0.006776399294444735,-0.019099264187194542,0.05518117735999993,-0.06141146616975479,0.03707670403285145,0.9910942836771952,0.09327955437600673,0.08004839552590648,0.05121816056369943
2557.833333338291,0.09670592,-0.49672756,-0.017642837,-2.0849864,0.066085435,1.7647319,1.0475092,0.039999835,0.04,-0.008334432674805825,0.006923482336840259,-0.01929478735764878,0.054706238682904446,-0.061021019549891815,0.03682312745058497,0.9910037152019364,0.09376200561721705,0.08040606548943882,0.05152851046851774
2557.850000004958,0.09718067,-0.49531195,-0.017730035,-2.0836523,0.06641037,1.7656847,1.048795,0.03999984,0.04,-0.007194540635246938,0.007027717138055611,-0.019291822527867097,0.05422724690456915,-0.06062824278417659,0.036565528808767345,0.9909134495196528,0.09424045084020895,0.08076035201465112,0.051836652370366554
2557.866666671625,0.09765115,-0.49390903,-0.017816449,-2.08233,0.066732354,1.766629,1.0500692,0.039999843,0.04,-0.007785776663782329,0.007138179697704916,-0.019497590139017085,0.053741621636977446,-0.06022915771103571,0.03630118092541907,0.9908235395814803,0.09471471711839617,0.08111101886559628,0.05214248163440097
2557.883333338292,0.098117255,-0.4925191,-0.017902074,-2.0810204,0.06705138,1.7675644,1.0513316,0.03999984,0.04,-0.008693381105784326,0.0073518237701131195,-0.020149513998712898,0.05324945054697471,-0.05982827620932857,0.03603151734957829,0.9907340341082593,0.0951847276095563,0.08145776530808527,0.05244591271473708
2557.9000000049587,0.098579004,-0.49114224,-0.017986901,-2.0797226,0.06736742,1.7684911,1.0525825,0.03999984,0.04,-0.0071937165036839446,0.007368098846474713,-0.01982302182002016,0.05275246660338702,-0.05942608488851642,0.035757849371425156,0.990644896870345,0.09565057313307902,0.08180103771530402,0.05274700363770898
2557.9166666716255,0.09903631,-0.48977855,-0.018070912,-2.0784373,0.06768046,1.7694091,1.0538212,0.039999835,0.04,-0.007888887875751038,0.007528722277630462,-0.020169693577520853,0.05224821606883512,-0.05901821365347254,0.03547835233103763,0.9905561866250887,0.0961119913651836,0.08214063290250158,0.053045665995985945
2557.9333333382924,0.099489175,-0.48842824,-0.018154109,-2.0771651,0.06799042,1.7703179,1.0550475,0.039999835,0.04,-0.008939341051794614,0.007673949842879058,-0.020762758152170768,0.051739717999359544,-0.058608302490981624,0.035191981095366504,0.9904679623069751,0.09656886546582655,0.08247621197122862,0.053341769046297324
2557.9500000049593,0.09993751,-0.4870913,-0.018236483,-2.0759056,0.06829732,1.7712178,1.0562619,0.03999984,0.04,-0.007965658667474784,0.007785636842053134,-0.020476833707849806,0.05122736131902102,-0.05819620356923006,0.034902886181181814,0.990380183492813,0.09702145424613372,0.0828080664954057,0.053635377168431225
2557.966666671626,0.1003813,-0.48576787,-0.018318022,-2.074658,0.068601064,1.7721083,1.0574641,0.039999843,0.04,-0.00663827493134761,0.007915961843893426,-0.020588211275818225,0.05070834069051819,-0.0577827427716515,0.034607606311247055,0.990292860939218,0.09746961719659963,0.08313639838421187,0.053926455103860106
2557.983333338293,0.100820474,-0.48445815,-0.018398717,-2.0734236,0.06890168,1.7729897,1.0586536,0.039999843,0.04,-0.008729379709482288,0.008049339897045482,-0.021064120529423747,0.05018341237970067,-0.057364307246662055,0.03430818142379151,0.9902060699833941,0.09791310949475115,0.08346081224174037,0.054214894420807375
2558.00000000496,0.10125503,-0.48316243,-0.018478565,-2.0722032,0.06919916,1.7738618,1.0598307,0.039999835,0.04,-0.009251509812635561,0.008136213800891134,-0.021712033936749364,0.04965502029503521,-0.056944138760131664,0.034005182933539796,0.9901198307437393,0.09835210321889076,0.08378104826182738,0.05450064690037341
2558.016666671627,0.10168489,-0.48188055,-0.018557563,-2.070995,0.06949341,1.7747247,1.0609947,0.03999984,0.04,-0.0067050072694030405,0.008298975338488779,-0.02074260792788163,0.049122157175938104,-0.056524272615462036,0.03369382500389507,0.9900341108661469,0.09878631257928251,0.08409793289704312,0.05478376995890787
2558.0333333382937,0.102110066,-0.48061258,-0.018635698,-2.0698001,0.06978444,1.775578,1.0621463,0.03999984,0.04,-0.00809844995464104,0.008331704827233,-0.021497375079460035,0.048585443074904144,-0.05609835713317059,0.033380663661421985,0.9899489565843368,0.0992159621946924,0.08441086688663016,0.055064160347835074
2558.0500000049606,0.10253048,-0.47935885,-0.018712964,-2.0686183,0.07007222,1.7764215,1.0632849,0.039999835,0.04,-0.007591393738426433,0.008521454403209727,-0.02180245094163258,0.048043037952986464,-0.05567092944370741,0.033061839268724,0.9898643919678201,0.09964083688727987,0.08471998089274148,0.05534179231027803
2558.0666666716274,0.10294614,-0.4781193,-0.018789371,-2.0674503,0.07035672,1.7772555,1.0644107,0.039999835,0.04,-0.008848594700161527,0.008586553083106407,-0.021876528383613092,0.04749744147342366,-0.05524136972975652,0.032738732972388274,0.9897804414074948,0.10006106899256359,0.08502502054396792,0.05561659968703611
2558.0833333382943,0.10335696,-0.47689405,-0.018864892,-2.066296,0.070637956,1.7780797,1.0655234,0.039999835,0.04,-0.008769370759154071,0.008717752514675325,-0.02208841917932247,0.04694684263954012,-0.05481198342994483,0.032412275171779394,0.9896971393790616,0.10047650458646364,0.08532593635322883,0.05588854011721419
2558.100000004961,0.10376295,-0.4756834,-0.018939521,-2.0651555,0.07091588,1.7788945,1.0666231,0.03999984,0.04,-0.007609745530912093,0.008769192548582772,-0.021991444888525002,0.04639231811631908,-0.054382799189029635,0.032081689069258144,0.9896144513806998,0.10088717939120115,0.08562319270013853,0.05615766666091989
2558.116666671628,0.10416406,-0.4744872,-0.01901326,-2.064028,0.071190454,1.7796996,1.0677092,0.03999984,0.04,-0.007084907495080728,0.008898095004866713,-0.02191444774146678,0.045832949079352106,-0.05394908930342832,0.03174555346923853,0.9895324199062896,0.1012928085517196,0.08591680775328837,0.05642392254701623
2558.133333338295,0.10456023,-0.4733056,-0.019086102,-2.0629148,0.07146168,1.7804947,1.0687823,0.039999835,0.04,-0.009003703384458106,0.009050947325267567,-0.022589382096072086,0.04527154078598167,-0.053510818445621826,0.03140639966144974,0.9894510768123994,0.10169372421819572,0.08620622497196029,0.05668721042263952
2558.150000004962,0.10495149,-0.4721388,-0.019158036,-2.061816,0.07172954,1.7812799,1.0698421,0.039999835,0.04,-0.008771041747301922,0.009055513678563054,-0.022676840851709734,0.04470560429298743,-0.05307334058216951,0.03106333786541075,0.9893704485641135,0.1020897295783032,0.08649152486323944,0.056947508720799296
2558.1666666716287,0.1053378,-0.47098672,-0.01922906,-2.0607312,0.07199401,1.7820554,1.0708884,0.03999983,0.04,-0.008236258740224045,0.009167789160799411,-0.02248682984378192,0.044135749155209694,-0.05263703099919455,0.03071642338167989,0.9892905354146283,0.10248077580096814,0.08677290189715585,0.05720481296723395
2558.1833333382956,0.1057191,-0.46984965,-0.019299172,-2.0596604,0.07225505,1.7828206,1.071921,0.039999835,0.04,-0.00802963229067366,0.009323448824008485,-0.022968953951219007,0.04356253660733739,-0.05219888869132444,0.030364786573386714,0.9892113722297271,0.10286675160979494,0.08705026103207403,0.057459068204044575
2558.2000000049625,0.106095366,-0.46872747,-0.019368365,-2.0586026,0.07251268,1.7835755,1.0729401,0.039999835,0.04,-0.005932196277402824,0.009354722132851045,-0.022418507852917102,0.04298723504191893,-0.051759652623940194,0.030010738452930653,0.9891329064657812,0.10324775782105547,0.0873241463839276,0.05771037436890727
2558.2166666716294,0.10646659,-0.46762034,-0.019436637,-2.057559,0.07276685,1.7843202,1.0739455,0.03999984,0.04,-0.00828751194270616,0.009470823913915183,-0.023089094872830174,0.04240787085013764,-0.05131459750908357,0.029651501205982155,0.9890552217401173,0.10362370251331882,0.08759395416565427,0.05795856985523355
2558.2333333382962,0.10683277,-0.4665283,-0.019503985,-2.0565302,0.07301756,1.785055,1.0749373,0.03999984,0.04,-0.008913592166770457,0.009506398829328688,-0.023055007869610122,0.04182572574804844,-0.05086951294150984,0.02929088801727685,0.9889783265124242,0.10399465534902291,0.08785964894061381,0.05820363764881766
2558.250000004963,0.10719386,-0.46545142,-0.019570393,-2.0555153,0.07326481,1.78578,1.0759151,0.03999984,0.04,-0.006970722243826444,0.00959123054585509,-0.02272943211465428,0.04124022579243883,-0.05042449348207105,0.028927900985342474,0.9889022064629781,0.10436037413524994,0.08812176736990694,0.058445636951001745
2558.26666667163,0.107549824,-0.46438977,-0.019635871,-2.054515,0.07350854,1.7864943,1.0768793,0.039999843,0.04,-0.008478488866980882,0.009742675594281991,-0.02352256226461069,0.040653235912841146,-0.049975156510835866,0.02856067381890795,0.9888269146508633,0.10472110562505849,0.08837964255458733,0.05868442451488385
2558.283333338297,0.10790066,-0.46334344,-0.019700406,-2.0535285,0.07374876,1.7871983,1.0778294,0.039999846,0.04,-0.007251378214290227,0.009765990472584973,-0.023153753283655654,0.04006296647516208,-0.04952763991777352,0.028191337705921606,0.9887524421426314,0.10507660706589678,0.08863375043525894,0.058920056757284685
2558.3000000049637,0.10824633,-0.46231243,-0.019763995,-2.052557,0.073985465,1.7878919,1.0787656,0.039999846,0.04,-0.008637523396926028,0.009864634112816129,-0.02358538239031205,0.03947093090347607,-0.049077008133478886,0.027816002572784937,0.9886788322708677,0.1054270173465618,0.08888363124509682,0.05915243637929787
2558.3166666716306,0.10858686,-0.46129683,-0.019826645,-2.0516,0.07421863,1.788575,1.0796878,0.039999843,0.04,-0.007960360517555998,0.009878188047141023,-0.023473846887878125,0.03887673195960191,-0.048629193698401726,0.027438064377575216,0.9886060887919664,0.10577219791784875,0.0891295220747526,0.059381576653069146
2558.3333333382975,0.10892219,-0.46029675,-0.019888341,-2.0506577,0.074448235,1.789248,1.0805961,0.03999984,0.04,-0.008114926354885199,0.010030085592332982,-0.023559061411715376,0.03828104091602767,-0.048179768378086546,0.027056442059679584,0.9885342133353607,0.10611223756900068,0.08937143470700695,0.05960745559030826
2558.3500000049644,0.10925233,-0.45931208,-0.019949086,-2.0497298,0.0746743,1.7899107,1.0814902,0.03999984,0.04,-0.007384522267672722,0.009996387028418652,-0.023279076774840313,0.037682700349741874,-0.04772924733127587,0.026673083974210945,0.988463212599542,0.10644699968002572,0.08960955864386651,0.05983009774490373
2558.3666666716313,0.10957727,-0.45834297,-0.020008875,-2.048817,0.07489681,1.7905627,1.0823702,0.039999843,0.04,-0.00858944750006252,0.010101566992082311,-0.023902150379950804,0.03708344647352977,-0.04727784580912807,0.026288200841647187,0.9883931357495079,0.10677655500404773,0.0898434520448854,0.06004940157387699
2558.383333338298,0.10989694,-0.45738944,-0.020067709,-2.047918,0.075115725,1.7912045,1.0832362,0.039999843,0.04,-0.0066346250101823045,0.010224091826885329,-0.023368321837780037,0.03648179065790771,-0.04682702429476608,0.025900853976500302,0.9883239257629584,0.10710096562526095,0.0900737234358678,0.06026545671468611
2558.400000004965,0.1102114,-0.45645148,-0.020125581,-2.0470345,0.075331084,1.7918354,1.0840878,0.039999846,0.04,-0.009006257601296142,0.0101739228967751,-0.024061819793241845,0.03587783941451222,-0.04637408976621384,0.02551192433126259,0.988255697180423,0.10741999199113551,0.09029962172571222,0.0604781003938908
2558.416666671632,0.11052063,-0.45552912,-0.020182496,-2.0461662,0.0755429,1.7924558,1.0849253,0.039999846,0.04,-0.008817699662433398,0.010232654405031849,-0.02401652484285144,0.03527433056549396,-0.045923824462803006,0.02512133286038592,0.9881884374229545,0.10773375948968122,0.09052123677272768,0.06068735373152112
2558.433333338299,0.11082462,-0.45462236,-0.02023845,-2.045312,0.07575108,1.7930658,1.0857486,0.039999846,0.04,-0.0065209598185234086,0.010289991647111085,-0.023351391179704528,0.03466992577721496,-0.045477695762208115,0.024726107427753143,0.9881220899357454,0.10804224164167311,0.09073926973204992,0.060893302838253574
2558.4500000049657,0.11112335,-0.45373127,-0.02029344,-2.0444727,0.07595569,1.7936654,1.0865576,0.039999843,0.04,-0.008098317907867525,0.010344973580542205,-0.02378799479136884,0.03406483797196577,-0.045026959688715645,0.024329735207233666,0.9880567037183925,0.10834546767540697,0.09095330465184454,0.061095877473449
2558.4666666716325,0.11141682,-0.45285583,-0.020347467,-2.0436485,0.07615667,1.7942544,1.0873526,0.03999985,0.04,-0.008222278321801113,0.010419727321264727,-0.023913415257181825,0.03345808325303398,-0.04457758422091544,0.023931567149584478,0.9879922970875068,0.10864349104793354,0.0911632222671245,0.061295021449903474
2558.4833333382994,0.11170501,-0.45199618,-0.02040053,-2.0428388,0.07635407,1.7948327,1.0881335,0.03999985,0.04,-0.007115266436041878,0.01042342101751359,-0.023912820271920765,0.032850652930197226,-0.04412912876842773,0.023532923626741954,0.9879288602813578,0.10893623843235986,0.09136927690243003,0.06149079782953225
2558.5000000049663,0.11198794,-0.45115215,-0.020452626,-2.0420442,0.07654787,1.7954007,1.0888997,0.039999846,0.04,-0.00803356365950414,0.010448707635787868,-0.023640497543953032,0.03224245315126326,-0.04368144601457223,0.023130724853367913,0.9878664299946331,0.10922355001914599,0.09157140563078747,0.061683144226567926
2558.516666671633,0.112265594,-0.4503238,-0.020503758,-2.041264,0.07673805,1.7959579,1.0896516,0.03999985,0.04,-0.007294691730264091,0.010505036885202768,-0.023885467428330642,0.031634749532076616,-0.0432336427342916,0.022729356371755837,0.9878050139646218,0.10950546531930178,0.09176958541928729,0.06187205058448196
2558.5333333383,0.11253799,-0.44951117,-0.020553922,-2.040499,0.076924644,1.7965045,1.0903896,0.03999985,0.04,-0.00793494303783504,0.010500081946093753,-0.023957372845151426,0.03102815166355347,-0.04278634369291292,0.02232606119126017,0.9877445967401489,0.10978228246304758,0.09196371723337768,0.06205752799188679
2558.550000004967,0.112805136,-0.44871426,-0.020603118,-2.0397484,0.07710763,1.7970405,1.0911129,0.039999846,0.04,-0.007068249214725597,0.010496857870712084,-0.023742756647138208,0.03041998584148889,-0.04234099971931267,0.021923480694348036,0.9876852188547934,0.11005350953302419,0.09215405828924426,0.062239561663350366
2558.566666671634,0.11306703,-0.4479329,-0.020651355,-2.0390127,0.07728701,1.797566,1.0918224,0.039999858,0.04,-0.007608670395331529,0.01053853106278424,-0.023555349278114868,0.029814905019227993,-0.041895570789918984,0.021517594937432407,0.9876268353728478,0.11031969531941632,0.09234051198138218,0.0624181762234456
2558.5833333383007,0.11332365,-0.44716725,-0.020698631,-2.038292,0.07746285,1.7980812,1.0925174,0.039999858,0.04,-0.007826601400573452,0.010573774222624732,-0.02383456151724417,0.02920709377969498,-0.041451378935061636,0.02111427133482243,0.9875695085064261,0.11058043957607207,0.09252300485659296,0.06259333689655451
2558.6000000049676,0.11357503,-0.4464172,-0.02074494,-2.0375857,0.07763507,1.7985861,1.0931982,0.039999865,0.04,-0.006897239352854356,0.010568708537928018,-0.02333718313056732,0.028602043157914092,-0.041009212225004664,0.020707871566302608,0.9875131927693526,0.11083589224338045,0.09270190463188283,0.06276508563456595
2558.6166666716344,0.11382117,-0.44568273,-0.020790292,-2.0368943,0.077803716,1.7990804,1.0938649,0.03999986,0.04,-0.007677181154797097,0.01056964375920344,-0.02377950767915582,0.027997343098230428,-0.04056621214336297,0.020301763076286384,0.9874579353656598,0.11108610743817057,0.09287677519782173,0.0629333555952391
2558.6333333383013,0.114062116,-0.44496387,-0.020834679,-2.0362177,0.07796879,1.7995639,1.0945174,0.039999865,0.04,-0.007549646829296819,0.010532439254101744,-0.023826061512943753,0.027393440506476963,-0.04012463940263142,0.019894484429926782,0.9874037565317307,0.111330946407612,0.09304765943566842,0.06309813810688863
2558.650000004968,0.11429784,-0.44426066,-0.020878114,-2.0355551,0.0781303,1.8000368,1.0951557,0.039999865,0.04,-0.0060912786131073204,0.01060044252596537,-0.023474861276651104,0.026792004547248637,-0.03968721487364417,0.0194874642289617,0.9873506052270241,0.11157052724177187,0.09321497856662579,0.06325952560401994
2558.666666671635,0.114528306,-0.44357276,-0.020920595,-2.034907,0.078288235,1.8004994,1.0957801,0.039999865,0.04,-0.007315063390223031,0.01064195641314325,-0.02316468110490355,0.02619132117115635,-0.039248390364017526,0.01908107338205936,0.9872985015210634,0.11180494594082113,0.09337852099538446,0.0634174642677204
2558.683333338302,0.11475362,-0.44290045,-0.020962123,-2.0342736,0.078442626,1.8009518,1.0963906,0.03999987,0.04,-0.006847469370718784,0.010516177629854573,-0.023382562899509907,0.025592045454522247,-0.03881124321342018,0.018674012719728756,0.987247444077887,0.11203414741730033,0.09353841863307474,0.06357199236913696
