rsonawane2002/My_IMU/logs_2/traj_353/imu_353.csv
time,j1,j2,j3,j4,j5,j6,j7,gripper1,gripper2,imu_ax,imu_ay,imu_az,imu_gx,imu_gy,imu_gz
1128.133333332636,0.00016700293,-0.785875,4.0107683e-05,-2.3551247,9.29385e-05,1.570997,0.786,0.04,0.04,-9.490597,0.07141219079494476,0.068161175,-2.5503198e-07,-0.0011641276068985462,2.5498082e-07
1128.1499999993027,0.00016701646,-0.78576016,4.0105784e-05,-2.3552213,9.2968774e-05,1.5709941,0.786,0.04,0.04,-9.834329,0.0006273688049986959,0.0091170035,-8.8378994e-07,-0.0022390789818018675,1.0509158e-06
1128.1666666659694,0.0001671035,-0.7856543,4.0042556e-05,-2.35531,9.296001e-05,1.5709913,0.786,0.04,0.04,-9.832666,0.0006129266112111509,0.0075475,-5.6254735e-06,-0.0032371252309530973,1.8914268e-06
1128.183333332636,0.00016738407,-0.78555703,3.9818042e-05,-2.355391,9.285286e-05,1.5709884,0.786,0.04,0.04,-9.830881,0.0005796511541120708,0.006236339,-1.833948e-05,-0.00416997354477644,3.3552753e-06
1128.1999999993027,0.00016802947,-0.7854677,3.9289298e-05,-2.3554652,9.256231e-05,1.5709856,0.786,0.04,0.04,-9.82959,0.0005266366060823202,0.00495382,-4.241158e-05,-0.005048544146120548,5.725054e-06
1128.2166666659693,0.00016925718,-0.7853857,3.827418e-05,-2.355532,9.198018e-05,1.5709862,0.7859998,0.04,0.04,-9.828248,0.00047169619938358665,0.0038678558,-8.166747e-05,-0.005886085797101259,9.257069e-06
1128.233333332636,0.00017132617,-0.7853109,3.6555553e-05,-2.3555934,9.098711e-05,1.570987,0.78599787,0.04,0.039999995,-9.827141,0.00039696801104582846,0.0027244817,-0.00013843614,-0.006672095973044634,1.49301195e-05
1128.2499999993026,0.00017453254,-0.7852427,3.388522e-05,-2.3556511,8.942495e-05,1.5709879,0.78599596,0.04,0.039999995,-9.8262825,0.0003110250108875334,0.0018695397,-0.00020947595,-0.007439786568284035,2.1380763e-05
1128.2666666659693,0.0001792054,-0.7851809,2.9986903e-05,-2.3557017,8.7129425e-05,1.5709922,0.78599215,0.04,0.039999995,-9.825845,0.0002222108596470207,0.0010492704,-0.0003051619,-0.008204961195588112,2.961588e-05
1128.283333332636,0.00018570335,-0.7851253,2.4559644e-05,-2.3557477,8.391003e-05,1.570997,0.78598785,0.04,0.04,-9.8251095,0.00011390045983716846,0.00022732839,-0.0004198649,-0.008943917229771614,3.900155e-05
1128.2999999993026,0.00019441091,-0.78507566,1.7279934e-05,-2.3557901,7.959739e-05,1.5710052,0.78598213,0.04,0.039999995,-9.82467,2.9244692996144295e-05,-0.0003339341,-0.0005629828,-0.00968959555029869,5.2046747e-05
1128.3166666659693,0.00020573614,-0.7850317,7.8053645e-06,-2.3558264,7.3965675e-05,1.5710138,0.7859745,0.04,0.04,-9.824573,-9.853864321485162e-05,-0.00094367145,-0.0007331217,-0.010437979362905025,6.5703956e-05
1128.333333332636,0.00022010661,-0.7849933,-4.2238e-06,-2.3558602,6.681196e-05,1.5710262,0.78596425,0.04,0.04,-9.824152,-0.00019585195695981383,-0.0013132929,-0.0009307636,-0.01120067574083805,8.2471466e-05
1128.3499999993026,0.00023796796,-0.7849604,-1.918199e-05,-2.355888,5.791399e-05,1.5710424,0.785951,0.04,0.04,-9.824404,-0.0003185812383890152,-0.0017093571,-0.001154671,-0.011984172277152538,0.00010162701
1128.3666666659692,0.0002597807,-0.78493303,-3.7456743e-05,-2.3559115,4.7041263e-05,1.5710624,0.78593564,0.04,0.04,-9.82404,-0.00042555638356134295,-0.0019501725,-0.0014060207,-0.01277745608240366,0.00012323514
1128.3833333326359,0.0002860184,-0.7849111,-5.9446273e-05,-2.355931,3.3956436e-05,1.5710864,0.7859167,0.04,0.04,-9.824232,-0.0005488368333317339,-0.0020865137,-0.0016908775,-0.013594637624919415,0.00014738663
1128.3999999993025,0.00031716563,-0.7848946,-8.555825e-05,-2.3559458,1.8417515e-05,1.5711163,0.78589445,0.04,0.04,-9.824326,-0.0006574207218363881,-0.0020522508,-0.0020048292,-0.014442583546042442,0.00017411888
1128.4166666659692,0.0003537161,-0.78488356,-0.00011620818,-2.3559573,1.882466e-07,1.5711516,0.7858684,0.04,0.039999995,-9.824494,-0.0007737178821116686,-0.001976854,-0.0023519387,-0.015311401337385178,0.00020427635
1128.4333333326358,0.00039617115,-0.78487813,-0.00015181738,-2.355963,-2.1005204e-05,1.5711924,0.78583825,0.04,0.04,-9.824789,-0.0008786534308455884,-0.0017052228,-0.0027310047,-0.01621822826564312,0.00023547754
1128.4499999993025,0.00044503753,-0.7848783,-0.00019281282,-2.3559663,-4.5404642e-05,1.5712394,0.78580326,0.04,0.04,-9.8250065,-0.0009918827563524246,-0.001303202,-0.0031435275,-0.017154419794678688,0.00027022947
1128.4666666659691,0.0005008268,-0.7848842,-0.00023962492,-2.355963,-7.325517e-05,1.5712931,0.7857635,0.04,0.039999995,-9.825502,-0.0010744516039267182,-0.0007457504,-0.00358742,-0.01813763752579689,0.00030849336
1128.4833333326358,0.0005640537,-0.7848959,-0.00029268677,-2.3559563,-0.00010483765,1.5713542,0.78571844,0.04,0.04,-9.825667,-0.0011932842899113894,-6.0517807e-05,-0.004065221,-0.019148042425513268,0.00034784232
1128.4999999993024,0.0006352346,-0.7849136,-0.00035243313,-2.3559449,-0.00014039836,1.5714229,0.78566766,0.04,0.04,-9.826153,-0.0012599399778991938,0.00081695686,-0.0045764176,-0.020205222070217133,0.00039079436
1128.516666665969,0.00071488717,-0.78493756,-0.0004192998,-2.3559291,-0.00018019626,1.5714998,0.78561085,0.04,0.04,-9.826545,-0.0013438831083476543,0.0018587396,-0.00512048,-0.021303191781044006,0.00043648513
1128.5333333326357,0.00080352824,-0.7849677,-0.00049372227,-2.3559093,-0.00022447947,1.571586,0.7855478,0.04,0.039999995,-9.82719,-0.0014355768216773868,0.003067767,-0.0056979437,-0.02244579792022705,0.0004857495
1128.5499999993024,0.0009016751,-0.7850042,-0.0005761352,-2.3558836,-0.0002735373,1.5716811,0.7854779,0.039999995,0.039999995,-9.827592,-0.0014912926126271486,0.004463904,-0.0063093333,-0.02363201044499874,0.00053638854
1128.566666665969,0.0010098414,-0.7850475,-0.00066697155,-2.3558536,-0.00032760654,1.5717863,0.78540075,0.03999999,0.03999999,-9.828138,-0.0015690665459260345,0.0060392213,-0.006953226,-0.024861205369234085,0.0005899789
1128.5833333326357,0.0011285391,-0.7850973,-0.0007666624,-2.3558187,-0.0003869433,1.5719017,0.7853161,0.039999988,0.039999984,-9.828592,-0.0015907242195680737,0.007858783,-0.0076298127,-0.026136154308915138,0.0006474522
1128.5999999993023,0.0012582766,-0.7851542,-0.0008756361,-2.3557782,-0.00045180376,1.5720278,0.7852236,0.039999988,0.039999984,-9.829348,-0.0016578908544033766,0.009840578,-0.008339012,-0.027460364624857903,0.00070674776
1128.616666665969,0.0013995586,-0.78521824,-0.0009943176,-2.3557324,-0.0005224401,1.572165,0.78512293,0.039999988,0.039999984,-9.829659,-0.0016635643551126122,0.012083789,-0.009080451,-0.028826745226979256,0.00076869514
1128.6333333326356,0.0015528848,-0.7852895,-0.0011231275,-2.355681,-0.0005991026,1.5723141,0.78501374,0.039999984,0.03999998,-9.830377,-0.001710133976303041,0.014538638,-0.00985453,-0.03024047426879406,0.0008332613
1128.6499999993023,0.0017187503,-0.7853682,-0.0012624832,-2.3556242,-0.0006820392,1.5724756,0.78489566,0.03999998,0.039999977,-9.830769,-0.0016918074106797576,0.017227812,-0.010660326,-0.03169924393296242,0.0009004432
1128.666666665969,0.0018976443,-0.7854547,-0.0014127967,-2.3555617,-0.00077149447,1.5726495,0.7847682,0.039999977,0.03999997,-9.831535,-0.0017089324537664652,0.020144502,-0.0114979455,-0.03320587798953056,0.0009710501
1128.6833333326356,0.0020900506,-0.7855491,-0.0015744743,-2.3554933,-0.0008677119,1.5728368,0.78463113,0.039999977,0.039999973,-9.831965,-0.0016762495506554842,0.023357969,-0.012366153,-0.034759894013404846,0.0010424405
1128.6999999993022,0.0022964454,-0.78565156,-0.0017479187,-2.3554187,-0.0009709292,1.5730375,0.7844841,0.039999977,0.039999973,-9.832685,-0.0016706911846995354,0.026792793,-0.013264741,-0.03635788336396217,0.0011172179
1128.716666665969,0.0025173002,-0.7857622,-0.0019335262,-2.3553386,-0.0010813822,1.5732522,0.78432673,0.039999977,0.039999973,-9.83306,-0.0016007591038942337,0.030535791,-0.014193556,-0.0380018912255764,0.0011944595
1128.7333333326355,0.0027530775,-0.7858814,-0.0021316865,-2.3552523,-0.0011993034,1.5734817,0.78415877,0.03999998,0.039999977,-9.833933,-0.0015803887508809566,0.034509443,-0.015151866,-0.039696600288152695,0.0012740863
1128.7499999993022,0.0030042327,-0.78600925,-0.0023427838,-2.355159,-0.0013249209,1.5737258,0.78397983,0.03999998,0.039999977,-9.834291,-0.0014850320294499397,0.0388075,-0.016139442,-0.04143368452787399,0.0013560982
1128.7666666659688,0.0032712144,-0.7861459,-0.002567196,-2.3550591,-0.001458459,1.5739855,0.7837895,0.03999998,0.039999973,-9.834827,-0.0013949291314929724,0.043381605,-0.017155573,-0.0432160384953022,0.0014413053
1128.7833333326355,0.0035544639,-0.78629184,-0.002805293,-2.3549523,-0.0016001393,1.5742613,0.7835877,0.039999984,0.039999977,-9.835526,-0.001341736176982522,0.048242398,-0.018199217,-0.04504106566309929,0.0015279461
1128.7999999993021,0.0038544128,-0.786447,-0.0030574407,-2.3548386,-0.0017501775,1.5745533,0.78337395,0.039999984,0.039999977,-9.835838,-0.0012011048384010792,0.053448085,-0.019270647,-0.04690563678741455,0.0016168569
1128.8166666659688,0.0041714855,-0.7866116,-0.003323996,-2.3547184,-0.0019087867,1.5748621,0.78314805,0.039999984,0.039999977,-9.836615,-0.0011191773228347301,0.058951132,-0.020369126,-0.04881621152162552,0.0017079539
1128.8333333326354,0.0045060967,-0.78678584,-0.003605309,-2.3545914,-0.0020761748,1.5751878,0.7829097,0.039999988,0.039999977,-9.836944,-0.0009391750209033489,0.06479603,-0.02149417,-0.050767529755830765,0.0018020909
1128.849999999302,0.0048586563,-0.78696996,-0.0039017228,-2.3544571,-0.0022525468,1.5755312,0.7826585,0.03999999,0.03999998,-9.837733,-0.0008338079787790775,0.07094886,-0.022644972,-0.05276423692703247,0.0018974668
1128.8666666659688,0.0052295597,-0.7871642,-0.004213574,-2.3543153,-0.002438102,1.5758923,0.7823943,0.03999999,0.03999998,-9.838044,-0.0006336593069136143,0.077453524,-0.023820993,-0.054801423102617264,0.0019948904
1128.8833333326354,0.0056192004,-0.78736854,-0.0045411885,-2.354166,-0.0026330347,1.5762718,0.7821166,0.039999995,0.039999984,-9.838671,-0.0005030841566622257,0.084307,-0.025021747,-0.05687669664621353,0.0020943643
1128.899999999302,0.0060279556,-0.7875836,-0.00488489,-2.3540092,-0.0028375364,1.5766699,0.78182536,0.039999995,0.039999984,-9.838965,-0.00027179811149835587,0.09151419,-0.026245566,-0.058992765843868256,0.002195763
1128.9166666659687,0.0064561986,-0.78780913,-0.00524499,-2.3538444,-0.0030517895,1.577087,0.7815201,0.04,0.039999995,-9.839612,-0.00011947937309741974,0.09908543,-0.027493337,-0.06114531680941582,0.0022982087
1128.9333333326354,0.0069042933,-0.78804535,-0.0056217974,-2.3536716,-0.0032759847,1.5775236,0.7812008,0.04,0.039999984,-9.8398,0.00015456601977348328,0.10702364,-0.028763384,-0.06333479285240173,0.0024053983
1128.949999999302,0.007372593,-0.7882926,-0.006015609,-2.3534904,-0.0035102926,1.5779797,0.7808671,0.04,0.039999995,-9.840429,0.00031410111114382744,0.11530517,-0.0300558,-0.06556084752082825,0.0025104748
1128.9666666659687,0.007861443,-0.788551,-0.006426714,-2.3533013,-0.0037548908,1.5784558,0.7805187,0.04,0.039999995,-9.8405285,0.0006057750433683395,0.12401944,-0.031369407,-0.0678204819560051,0.0026194188
1128.9833333326353,0.008371178,-0.7888207,-0.0068553938,-2.353104,-0.004009923,1.578952,0.78015536,0.04,0.039999995,-9.841173,0.0008243895135819912,0.13309275,-0.03270371,-0.07011697441339493,0.0027321966
1128.999999999302,0.008902125,-0.7891017,-0.007301928,-2.3528988,-0.00427558,1.5794692,0.7797771,0.04,0.039999995,-9.841272,0.0011197058483958244,0.14257285,-0.034057837,-0.07244790345430374,0.0028443956
1129.0166666659686,0.009454597,-0.7893943,-0.0077665793,-2.3526845,-0.0045520067,1.5800072,0.7793834,0.04,0.03999999,-9.841641,0.0014034193009138107,0.15242739,-0.0354324,-0.07481274753808975,0.0029590172
1129.0333333326353,0.010028904,-0.7896989,-0.008249609,-2.3524618,-0.004839369,1.5805665,0.7789742,0.04,0.039999995,-9.842123,0.0016315765678882599,0.16268623,-0.036825422,-0.07720888406038284,0.0030744434
1129.049999999302,0.010625347,-0.7900152,-0.008751267,-2.3522303,-0.0051378217,1.5811474,0.7785491,0.04,0.039999995,-9.842104,0.00197215611115098,0.17338939,-0.038236372,-0.07963384687900543,0.0031914045
1129.0666666659686,0.011244216,-0.7903436,-0.0092718,-2.3519895,-0.0054474915,1.5817504,0.778108,0.04,0.03999999,-9.842576,0.002230089157819748,0.1844654,-0.03966472,-0.08208967000246048,0.0033106632
1129.0833333326352,0.011885787,-0.7906843,-0.009811445,-2.3517404,-0.0057685217,1.5823755,0.7776508,0.04,0.039999995,-9.842459,0.0025928830727934837,0.19598697,-0.041109566,-0.08457149565219879,0.0034313123
1129.0999999993019,0.012550332,-0.7910372,-0.010370424,-2.3514824,-0.0061010425,1.5830228,0.7771772,0.04,0.039999988,-9.842942,0.0028635342605412006,0.20792928,-0.04257096,-0.08708395808935165,0.0035532804
1129.1166666659685,0.013238112,-0.7914025,-0.010948962,-2.3512154,-0.0064451946,1.5836927,0.77668697,0.04,0.039999984,-9.842844,0.0032410677522420883,0.2203069,-0.04404775,-0.08962550014257431,0.0036765633
1129.1333333326352,0.01394938,-0.7917807,-0.011547268,-2.3509388,-0.006801102,1.5843853,0.77617997,0.04,0.039999984,-9.843183,0.0035182437859475613,0.23310076,-0.045539107,-0.0921935960650444,0.0038010706
1129.1499999993018,0.014684381,-0.7921714,-0.01216555,-2.3506525,-0.0071688876,1.5851012,0.77565616,0.04,0.039999984,-9.842885,0.003913428634405136,0.24635905,-0.047044225,-0.09478380531072617,0.0039268723
1129.1666666659685,0.0154433455,-0.79257494,-0.012804003,-2.350357,-0.007548653,1.5858403,0.7751153,0.04,0.03999998,-9.84311,0.004201103001832962,0.2600284,-0.048563544,-0.097396619617939,0.0040545836
1129.1833333326351,0.016226502,-0.7929914,-0.01346282,-2.3500524,-0.00794053,1.586603,0.7745572,0.04,0.03999997,-9.842844,0.004604238085448742,0.27417794,-0.05009551,-0.10003487020730972,0.0041826144
1129.1999999993018,0.017034054,-0.79342085,-0.01414218,-2.3497381,-0.0083446335,1.5873896,0.77398163,0.04,0.039999973,-9.843052,0.004898431710898876,0.2887498,-0.051639806,-0.1026964783668518,0.0043117255
1129.2166666659684,0.017866222,-0.79386353,-0.014842259,-2.3494143,-0.00876104,1.5882,0.77338856,0.04,0.039999966,-9.842622,0.005314662121236324,0.3037794,-0.053195283,-0.10537781566381454,0.004442609
1129.233333332635,0.018723205,-0.79431945,-0.015563219,-2.3490806,-0.009189857,1.5890348,0.7727778,0.04,0.03999992,-9.84271,0.0056448811665177345,0.3192881,-0.05476155,-0.10808044672012329,0.0045816116
1129.2499999993017,0.019605178,-0.7947888,-0.016305223,-2.3487377,-0.009631165,1.5898938,0.7721493,0.04,0.039999906,-9.842155,0.006034405902028084,0.3352361,-0.056337874,-0.11079970747232437,0.004717528
1129.2666666659684,0.020512335,-0.7952717,-0.017068421,-2.3483844,-0.010085067,1.5907775,0.7715028,0.04,0.039999902,-9.841962,0.006366773508489132,0.35166824,-0.05792428,-0.11354146897792816,0.0048510362
1129.283333332635,0.021444837,-0.79576814,-0.017852958,-2.3480208,-0.010551678,1.591686,0.77083814,0.04,0.03999991,-9.841753,0.0066399360075592995,0.3685569,-0.05951872,-0.1162949651479721,0.0049838386
1129.2999999993017,0.022402849,-0.79627824,-0.018658966,-2.347648,-0.011031058,1.5926193,0.77015525,0.04,0.039999902,-9.841041,0.007058135233819485,0.3859265,-0.061121173,-0.11906380951404572,0.0051191133
1129.3166666659683,0.023386525,-0.796802,-0.019486586,-2.347265,-0.011523286,1.5935776,0.7694539,0.04,0.0399999,-9.840902,0.007323061116039753,0.40377432,-0.0627311,-0.12185036391019821,0.0052542523
1129.333333332635,0.024396013,-0.7973397,-0.02033593,-2.3468719,-0.012028438,1.5945611,0.7687339,0.04,0.039999902,-9.840065,0.007722191512584686,0.42207843,-0.06434656,-0.12465023249387741,0.005390925
1129.3499999993016,0.025431445,-0.7978911,-0.021207111,-2.3464684,-0.012546576,1.5955697,0.7679964,0.04,0.039999895,-9.839706,0.007965299300849438,0.44087535,-0.065967426,-0.12746261060237885,0.005527362
1129.3666666659683,0.026492946,-0.79845643,-0.02210024,-2.3460548,-0.013077766,1.5966036,0.76723975,0.04,0.03999989,-9.838717,0.008351454511284828,0.46014494,-0.06759787,-0.13028723001480103,0.0056653833
1129.383333332635,0.02758064,-0.7990359,-0.02301542,-2.345631,-0.013622059,1.5976633,0.7664646,0.04,0.039999887,-9.83826,0.008577527478337288,0.4798991,-0.06923071,-0.13312369585037231,0.0058037555
1129.3999999993016,0.028694633,-0.7996291,-0.023952737,-2.3451967,-0.01417953,1.5987483,0.7656706,0.04,0.03999989,-9.837075,0.00892734993249178,0.50014293,-0.07086867,-0.13596807420253754,0.0059419777
1129.4166666659683,0.02983502,-0.8002364,-0.024912277,-2.3447523,-0.014750221,1.5998591,0.7648578,0.04,0.039999887,-9.836502,0.009130710735917091,0.5208507,-0.0725095,-0.13882440328598022,0.0060813967
1129.433333332635,0.031001907,-0.8008579,-0.025894128,-2.344298,-0.015334186,1.6009958,0.7640261,0.04,0.03999989,-9.835204,0.009450426325201988,0.54204935,-0.074153244,-0.14168919622898102,0.006220482
1129.4499999993016,0.03219537,-0.801494,-0.02689835,-2.3438327,-0.015931461,1.6021583,0.7631755,0.04,0.039999884,-9.834438,0.009613829664885998,0.5637562,-0.07579919,-0.1445620059967041,0.0063606338
1129.4666666659682,0.033415508,-0.8021439,-0.027925022,-2.3433568,-0.016542085,1.603347,0.7623058,0.04,0.039999884,-9.832876,0.009900959208607674,0.585951,-0.07744653,-0.14743778109550476,0.006501257
1129.4833333326349,0.03466236,-0.8028082,-0.028974183,-2.342871,-0.017166082,1.6045614,0.7614171,0.04,0.039999876,-9.831882,0.010011238977313042,0.6086008,-0.079094686,-0.15031884610652924,0.00664206
1129.4999999993015,0.035935987,-0.8034868,-0.030045891,-2.3423746,-0.017803505,1.6058022,0.7605094,0.04,0.03999988,-9.830258,0.010250283405184746,0.63177675,-0.080743395,-0.15320637822151184,0.0067822947
1129.5166666659682,0.037236463,-0.8041797,-0.031140191,-2.3418677,-0.018454362,1.607069,0.75958246,0.04,0.039999876,-9.828778,0.010395224206149578,0.65541893,-0.0823918,-0.15609674155712128,0.0069234995
1129.5333333326348,0.038563818,-0.804887,-0.032257114,-2.34135,-0.019118693,1.608362,0.7586363,0.04,0.039999876,-9.827501,0.010415098629891872,0.6795826,-0.084039174,-0.15899015963077545,0.0070640882
1129.5499999993015,0.039918095,-0.8056086,-0.033396706,-2.3408225,-0.019796493,1.6096812,0.757671,0.04,0.039999872,-9.825497,0.010582147166132927,0.70419717,-0.08568426,-0.16188471019268036,0.0072054565
1129.5666666659681,0.041299313,-0.8063446,-0.034558997,-2.3402834,-0.020487789,1.6110269,0.75668645,0.04,0.03999987,-9.824074,0.010544859804213047,0.7293324,-0.08732723,-0.16478262841701508,0.007346837
1129.5833333326348,0.0427075,-0.8070952,-0.03574399,-2.3397343,-0.021192594,1.6123989,0.7556827,0.04,0.03999987,-9.821712,0.010646103881299496,0.754925,-0.08896743,-0.16767436265945435,0.007488288
1129.5999999993014,0.04414267,-0.8078599,-0.036951687,-2.3391752,-0.021910906,1.6137971,0.7546598,0.04,0.03999987,-9.820023,0.010537341237068176,0.7810586,-0.09060412,-0.17056675255298615,0.0076295645
1129.616666665968,0.045604836,-0.8086391,-0.038182113,-2.338605,-0.022642734,1.6152215,0.75361764,0.04,0.03999986,-9.817683,0.010553338564932346,0.80762064,-0.09223687,-0.1734611988067627,0.007769827
1129.6333333326347,0.04709398,-0.8094328,-0.03943524,-2.3380249,-0.023388073,1.6166728,0.75255615,0.04,0.039999858,-9.815595,0.010364193469285965,0.83472,-0.09386517,-0.17634984850883484,0.007911606
1129.6499999993014,0.048610106,-0.81024075,-0.04071109,-2.3374336,-0.024146935,1.6181486,0.75147545,0.04,0.03999986,-9.81297,0.010293654166162014,0.86226934,-0.095487125,-0.179235577583313,0.008051458
1129.666666665968,0.05015318,-0.81106305,-0.042009644,-2.3368316,-0.02491929,1.6196513,0.7503756,0.04,0.039999854,-9.810659,0.010016323998570442,0.8903548,-0.09710356,-0.18212132155895233,0.008192495
1129.6833333326347,0.0517232,-0.8118997,-0.04333085,-2.3362195,-0.025705077,1.6211809,0.7492566,0.04,0.039999783,-9.807677,0.009936644695699215,0.91884977,-0.09871371,-0.1849997639656067,0.008343606
1129.6999999993013,0.053320125,-0.81275076,-0.0446747,-2.3355968,-0.026504328,1.6227369,0.7481182,0.04,0.039999776,-9.80519,0.009481468237936497,0.9478519,-0.10031669,-0.18787136673927307,0.008483676
1129.716666665968,0.054943893,-0.81361645,-0.046041172,-2.334964,-0.027317055,1.6243187,0.7469609,0.04,0.03999978,-9.801871,0.009218208491802216,0.9773315,-0.1019108,-0.19073297083377838,0.008621768
1129.7333333326346,0.056594495,-0.8144961,-0.04743022,-2.3343208,-0.028143203,1.6259269,0.74578446,0.04,0.039999772,-9.799077,0.008734631352126598,1.0073587,-0.103497714,-0.1935892105102539,0.008760895
1129.7499999993013,0.058271874,-0.8153902,-0.048841804,-2.3336666,-0.028982777,1.6275609,0.7445889,0.04,0.039999772,-9.795539,0.008366082794964314,1.0377483,-0.1050758,-0.19643831253051758,0.0088977525
1129.766666665968,0.059975944,-0.8162984,-0.05027586,-2.333002,-0.029835723,1.629221,0.7433742,0.04,0.039999772,-9.791986,0.007849021814763546,1.0686748,-0.1066441,-0.19927412271499634,0.009034944
1129.7833333326346,0.061706647,-0.81722105,-0.05173234,-2.332327,-0.030702034,1.6309068,0.74214065,0.04,0.03999977,-9.788744,0.007158259861171246,1.1000764,-0.10820169,-0.20210285484790802,0.009170453
1129.7999999993012,0.063463934,-0.8181576,-0.05321119,-2.3316424,-0.03158167,1.6326185,0.740888,0.04,0.039999772,-9.784603,0.006617219187319279,1.1319305,-0.10974923,-0.20491772890090942,0.009305546
1129.816666665968,0.065247685,-0.81910855,-0.05471232,-2.3309467,-0.03247457,1.634356,0.73961645,0.04,0.039999772,-9.781121,0.005792788229882717,1.1642654,-0.11128451,-0.2077275961637497,0.009439422
1129.8333333326345,0.06705784,-0.8200734,-0.056235682,-2.330241,-0.033380695,1.6361191,0.73832625,0.04,0.03999977,-9.776587,0.005124000832438469,1.1970267,-0.11280786,-0.2105208933353424,0.009574264
1129.8499999993012,0.0688943,-0.82105243,-0.057781175,-2.3295248,-0.034299973,1.6379082,0.7370173,0.04,0.039999757,-9.77258,0.004167207516729832,1.2302784,-0.11431999,-0.2133011370897293,0.009708769
1129.8666666659678,0.07075695,-0.8220453,-0.059348717,-2.3287985,-0.035232373,1.6397228,0.73568964,0.04,0.039999753,-9.76779,0.003332391381263733,1.2639493,-0.11581854,-0.2160661369562149,0.009840951
1129.8833333326345,0.07264571,-0.8230521,-0.060938247,-2.3280623,-0.036177855,1.641563,0.73434335,0.04,0.03999975,-9.7634325,0.00221174955368042,1.2981162,-0.11730389,-0.21881753206253052,0.009971812
1129.8999999993011,0.07456043,-0.8240729,-0.06254962,-2.3273158,-0.037136346,1.6434287,0.7329786,0.04,0.03999975,-9.758285,0.0012272140011191368,1.3326668,-0.11877493,-0.22155314683914185,0.010101406
1129.9166666659678,0.07650103,-0.82510746,-0.06418277,-2.3265588,-0.03810782,1.6453193,0.7315954,0.04,0.03999975,-9.753451,-5.713384598493576e-05,1.367751,-0.12023167,-0.22427091002464294,0.0102300905
1129.9333333326344,0.07846734,-0.8261556,-0.06583756,-2.325792,-0.039092157,1.6472347,0.7301939,0.04,0.03999974,-9.747827,-0.0011960165575146675,1.4031775,-0.12167328,-0.2269701212644577,0.010358369
1129.949999999301,0.08045927,-0.8272174,-0.06751393,-2.325015,-0.040089335,1.6491749,0.728774,0.04,0.03999974,-9.74269,-0.0026632603257894516,1.4391273,-0.12309956,-0.2296556979417801,0.010484237
1129.9666666659678,0.082476646,-0.828293,-0.069211744,-2.324228,-0.041099265,1.6511403,0.7273357,0.04,0.03999974,-9.7367115,-0.0039776964113116264,1.4754196,-0.12450878,-0.23232316970825195,0.010609482
1129.9833333326344,0.08451935,-0.8293821,-0.07093083,-2.3234317,-0.04212188,1.6531303,0.72587985,0.04,0.039999727,-9.730999,-0.005626021884381771,1.5122317,-0.12590027,-0.23496805131435394,0.010733236
1129.999999999301,0.086587206,-0.83048457,-0.07267114,-2.3226254,-0.043157063,1.6551448,0.72440547,0.04,0.03999966,-9.724657,-0.007079951465129852,1.549379,-0.12727673,-0.23759578168392181,0.0108655235
1130.0166666659677,0.088680096,-0.8316003,-0.074432455,-2.3218095,-0.044204768,1.6571838,0.72291374,0.04,0.039999653,-9.718272,-0.008855309337377548,1.586972,-0.1286332,-0.24020250141620636,0.010985763
1130.0333333326344,0.090797834,-0.8327294,-0.07621473,-2.3209844,-0.04526492,1.6592468,0.72140425,0.04,0.03999965,-9.711996,-0.010807285085320473,1.6250067,-0.12997323,-0.2427895963191986,0.011104498
1130.049999999301,0.09294025,-0.83387166,-0.078017764,-2.320149,-0.04633746,1.661334,0.7198772,0.04,0.039999653,-9.704937,-0.012620218098163605,1.6633916,-0.1312947,-0.24535676836967468,0.011219282
1130.0666666659677,0.09510715,-0.83502686,-0.079841405,-2.3193035,-0.047422282,1.6634449,0.7183324,0.04,0.039999653,-9.698041,-0.014759896323084831,1.7022309,-0.13259698,-0.24789781868457794,0.011334477
1130.0833333326343,0.09729841,-0.8361951,-0.08168551,-2.3184495,-0.048519313,1.6655796,0.71677065,0.04,0.039999653,-9.690458,-0.016774190589785576,1.7413816,-0.13387871,-0.2504170835018158,0.01144598
1130.099999999301,0.099513814,-0.8373764,-0.08354995,-2.317586,-0.04962847,1.6677377,0.7151916,0.04,0.03999965,-9.683225,-0.0191656406968832,1.78102,-0.13514175,-0.25291427969932556,0.011555535
1130.1166666659676,0.10175317,-0.8385704,-0.08543454,-2.3167121,-0.050749604,1.669919,0.7135954,0.04,0.03999964,-9.67514,-0.021372709423303604,1.8209624,-0.13638416,-0.25538650155067444,0.011664519
1130.1333333326343,0.10401627,-0.8397772,-0.08733916,-2.3158295,-0.051882643,1.6721236,0.7119823,0.04,0.039999638,-9.667238,-0.023976877331733704,1.8613441,-0.1376049,-0.257831871509552,0.011771603
1130.149999999301,0.10630291,-0.8409965,-0.089263566,-2.3149374,-0.05302749,1.6743511,0.71035236,0.04,0.039999638,-9.658697,-0.026437263935804367,1.9020205,-0.13880509,-0.260252982378006,0.011874436
1130.1666666659676,0.108612895,-0.84222823,-0.091207616,-2.3140373,-0.054184042,1.6766014,0.7087058,0.04,0.039999634,-9.650285,-0.029284272342920303,1.9431425,-0.1399827,-0.2626453638076782,0.011976155
1130.1833333326342,0.11094602,-0.8434723,-0.09317113,-2.3131273,-0.055352196,1.6788745,0.7070427,0.04,0.039999634,-9.641348,-0.0319795198738575,1.9845405,-0.1411381,-0.26501691341400146,0.012075032
1130.1999999993009,0.113302074,-0.8447286,-0.09515394,-2.3122082,-0.056531854,1.6811697,0.7053633,0.04,0.039999627,-9.632349,-0.03507796674966812,2.026338,-0.14227095,-0.2673562467098236,0.012171074
1130.2166666659675,0.115680836,-0.8459971,-0.09715586,-2.31128,-0.05772288,1.6834869,0.7036677,0.04,0.039999634,-9.622687,-0.03800257295370102,2.0684283,-0.14338085,-0.26966869831085205,0.012266208
1130.2333333326342,0.118082054,-0.8472775,-0.09917668,-2.3103433,-0.05892515,1.6858262,0.7019561,0.04,0.039999627,-9.613185,-0.04134637117385864,2.110932,-0.14446737,-0.2719513177871704,0.012357932
1130.2499999993008,0.120505504,-0.84856975,-0.10121623,-2.3093984,-0.060138598,1.688187,0.70022863,0.04,0.039999623,-9.603015,-0.04454994574189186,2.153663,-0.14553003,-0.27420541644096375,0.012445804
1130.2666666659675,0.12295095,-0.84987384,-0.103274256,-2.3084445,-0.06136307,1.6905694,0.6984855,0.04,0.039999627,-9.592855,-0.048008982092142105,2.196785,-0.1465685,-0.27643463015556335,0.012531662
1130.2833333326341,0.12541816,-0.85118955,-0.105350606,-2.3074825,-0.0625984,1.6929727,0.696727,0.04,0.039999563,-9.582445,-0.051693595945835114,2.240256,-0.14758243,-0.27863046526908875,0.012625031
1130.2999999993008,0.12790689,-0.8525168,-0.107445024,-2.3065119,-0.06384449,1.6953969,0.69495314,0.04,0.039999545,-9.571426,-0.055332161486148834,2.2839258,-0.14857218,-0.2807982563972473,0.012705676
1130.3166666659674,0.13041684,-0.8538553,-0.109557346,-2.305533,-0.06510126,1.6978421,0.6931641,0.04,0.039999533,-9.560506,-0.059360962361097336,2.3279986,-0.14953649,-0.2829344868659973,0.01278313
1130.333333332634,0.13294782,-0.8552049,-0.111687325,-2.3045456,-0.06636854,1.7003077,0.69136,0.04,0.03999953,-9.548835,-0.06320838630199432,2.3722394,-0.15047559,-0.2850381135940552,0.012856061
1130.3499999993007,0.1354996,-0.85656583,-0.11383479,-2.3035502,-0.06764625,1.7027932,0.6895411,0.04,0.03999953,-9.537291,-0.06751611083745956,2.4168801,-0.151388,-0.2871100902557373,0.01292568
1130.3666666659674,0.13807182,-0.8579374,-0.1159995,-2.302547,-0.06893428,1.7052989,0.6877078,0.04,0.039999526,-9.5250025,-0.07164932042360306,2.4617107,-0.15227416,-0.28914955258369446,0.012991801
1130.383333332634,0.14066425,-0.85932016,-0.11818119,-2.3015358,-0.0702324,1.7078243,0.68586004,0.04,0.039999522,-9.512912,-0.07622735947370529,2.5068817,-0.15313484,-0.29115742444992065,0.013054703
1130.3999999993007,0.14327666,-0.8607134,-0.12037967,-2.3005166,-0.07154052,1.7103691,0.683998,0.04,0.03999952,-9.499998,-0.08064399659633636,2.5522258,-0.15396878,-0.2931300401687622,0.013115044
1130.4166666659673,0.14590868,-0.8621171,-0.12259468,-2.2994897,-0.07285855,1.7129331,0.68212205,0.04,0.039999522,-9.487168,-0.08552996814250946,2.59792,-0.1547751,-0.29506829380989075,0.013171116
1130.433333332634,0.14856012,-0.86353135,-0.12482597,-2.2984555,-0.0741863,1.7155161,0.6802323,0.04,0.039999522,-9.473718,-0.09023973345756531,2.643736,-0.15555485,-0.29697349667549133,0.01322358
1130.4499999993006,0.15123063,-0.86495566,-0.12707333,-2.2974138,-0.075523645,1.7181177,0.6783288,0.04,0.039999522,-9.460236,-0.09541261196136475,2.689919,-0.15630691,-0.2988418936729431,0.01327257
1130.4666666659673,0.15391997,-0.8663901,-0.12933648,-2.296365,-0.076870434,1.7207375,0.67641187,0.04,0.03999952,-9.446163,-0.10042104125022888,2.7361848,-0.1570306,-0.3006772994995117,0.013316613
1130.483333332634,0.1566278,-0.86783427,-0.13161527,-2.2953088,-0.07822649,1.7233753,0.6744818,0.04,0.03999952,-9.432089,-0.10590308904647827,2.7828066,-0.15772589,-0.3024786710739136,0.013357609
1130.4999999993006,0.1593539,-0.8692883,-0.13390937,-2.2942457,-0.07959168,1.7260307,0.6725388,0.04,0.039999515,-9.417305,-0.1111857146024704,2.8294816,-0.15839382,-0.3042435050010681,0.0133962985
1130.5166666659673,0.16209787,-0.87075204,-0.13621858,-2.2931752,-0.08096589,1.7287037,0.670583,0.04,0.039999515,-9.40239,-0.11681940406560898,2.8764453,-0.15903343,-0.3059731721878052,0.013428141
1130.533333332634,0.16485946,-0.87222505,-0.13854258,-2.2920983,-0.08234891,1.7313939,0.66861457,0.04,0.03999951,-9.387238,-0.12274801731109619,2.9236467,-0.15964444,-0.30766311287879944,0.013456253
1130.5499999993006,0.16763839,-0.87370735,-0.14088112,-2.291014,-0.08374065,1.7341008,0.6666338,0.04,0.03999951,-9.371561,-0.1284988820552826,2.970893,-0.160226,-0.30931851267814636,0.013481753
1130.5666666659672,0.17043428,-0.8751987,-0.14323393,-2.2899234,-0.085140906,1.7368244,0.6646409,0.04,0.039999507,-9.355697,-0.13475599884986877,3.018448,-0.16077872,-0.310934454202652,0.013500573
1130.5833333326339,0.17324688,-0.87669915,-0.14560077,-2.2888262,-0.08654953,1.739564,0.6626361,0.04,0.039999507,-9.339343,-0.14081111550331116,3.0660253,-0.16130279,-0.3125135600566864,0.013516748
1130.5999999993005,0.17607583,-0.8782081,-0.14798136,-2.2877228,-0.08796638,1.7423197,0.66061974,0.04,0.039999504,-9.322862,-0.1473768651485443,3.1139035,-0.16179693,-0.3140545189380646,0.013526462
1130.6166666659672,0.17892088,-0.87972564,-0.15037546,-2.286613,-0.089391276,1.7450911,0.6585918,0.04,0.039999492,-9.305866,-0.1537213772535324,3.161763,-0.16226254,-0.315559059381485,0.013537109
1130.6333333326338,0.1817816,-0.88125193,-0.15278283,-2.2854972,-0.09082401,1.7478776,0.6565527,0.04,0.03999944,-9.288673,-0.16057363152503967,3.2098918,-0.16269755,-0.31702306866645813,0.013547013
1130.6499999993005,0.18465771,-0.88278633,-0.15520306,-2.2843752,-0.09226447,1.7506791,0.6545027,0.04,0.039999437,-9.270945,-0.16728803515434265,3.258061,-0.16310394,-0.31844839453697205,0.013543346
1130.666666665967,0.18754886,-0.8843286,-0.15763603,-2.2832472,-0.093712516,1.7534955,0.65244186,0.04,0.03999943,-9.253081,-0.17446355521678925,3.3064117,-0.16348092,-0.31983262300491333,0.0135376565
1130.6833333326338,0.19045477,-0.8858789,-0.16008137,-2.2821133,-0.09516791,1.7563261,0.6503708,0.04,0.039999414,-9.23473,-0.18143917620182037,3.354755,-0.16382776,-0.321179062128067,0.013525942
1130.6999999993004,0.19337508,-0.887437,-0.16253878,-2.2809744,-0.09663056,1.7591707,0.6482892,0.04,0.03999942,-9.21612,-0.18895740807056427,3.4033306,-0.16414638,-0.3224817216396332,0.013506877
1130.716666665967,0.19630942,-0.8890026,-0.16500796,-2.2798293,-0.09810026,1.762029,0.64619774,0.04,0.039999414,-9.197142,-0.19624219834804535,3.4518838,-0.16443364,-0.32374855875968933,0.013486054
1130.7333333326337,0.19925748,-0.89057547,-0.1674887,-2.2786784,-0.09957686,1.7649006,0.6440966,0.04,0.039999418,-9.177821,-0.20405688881874084,3.5006104,-0.16469146,-0.32497063279151917,0.013459459
1130.7499999993004,0.20221889,-0.8921555,-0.16998066,-2.2775233,-0.10106018,1.7677853,0.64198583,0.04,0.039999407,-9.158042,-0.21164585649967194,3.5492675,-0.16492073,-0.32615089416503906,0.013427754
1130.766666665967,0.20519336,-0.8937427,-0.17248355,-2.276363,-0.10255006,1.7706823,0.6398658,0.04,0.039999407,-9.138207,-0.21960698068141937,3.5981004,-0.16511875,-0.3272949457168579,0.013389517
1130.7833333326337,0.20818049,-0.89533645,-0.17499706,-2.2751968,-0.10404629,1.7735925,0.6377367,0.04,0.039999407,-9.11789,-0.2278681993484497,3.6470113,-0.1652872,-0.32839661836624146,0.013347242
1130.7999999993003,0.2111799,-0.8969368,-0.17752093,-2.2740264,-0.105548695,1.7765145,0.63559854,0.04,0.039999403,-9.09706,-0.2359253317117691,3.6958013,-0.16542564,-0.3294515907764435,0.013301015
1130.816666665967,0.21419132,-0.89854366,-0.18005489,-2.2728512,-0.10705714,1.7794482,0.6334522,0.04,0.039999407,-9.076161,-0.24450470507144928,3.7447808,-0.16553335,-0.33046630024909973,0.013247916
1130.8333333326336,0.21721439,-0.90015674,-0.18259856,-2.2716715,-0.108571425,1.7823932,0.63129747,0.04,0.039999403,-9.054757,-0.25287505984306335,3.7936747,-0.16561276,-0.33143919706344604,0.0131898075
1130.8499999993003,0.22024868,-0.90177584,-0.18515171,-2.2704873,-0.11009134,1.7853496,0.62913465,0.04,0.0399994,-9.0331335,-0.2617532014846802,3.8426776,-0.1656618,-0.33236992359161377,0.013126629
1130.866666665967,0.2232938,-0.90340066,-0.18771398,-2.2692988,-0.111616746,1.7883149,0.6269641,0.04,0.0399994,-9.011022,-0.27041199803352356,3.8915548,-0.16568127,-0.33325523138046265,0.013058127
1130.8833333326336,0.22634943,-0.9050312,-0.19028506,-2.2681065,-0.11314742,1.791291,0.6247861,0.04,0.039999403,-8.988777,-0.27958089113235474,3.9405816,-0.16567147,-0.3341066241264343,0.012984623
1130.8999999993002,0.22941525,-0.90666735,-0.19286467,-2.2669103,-0.1146832,1.7942784,0.62260073,0.04,0.039999396,-8.966097,-0.28854236006736755,3.9894428,-0.16563232,-0.33491411805152893,0.012905672
1130.9166666659669,0.23249084,-0.9083086,-0.1954525,-2.2657104,-0.11622393,1.7972735,0.6204088,0.04,0.0399994,-8.94305,-0.2980099320411682,4.0383615,-0.16556345,-0.3356708586215973,0.012819788
1130.9333333326335,0.23557585,-0.90995497,-0.1980483,-2.2645063,-0.11776943,1.8002782,0.6182098,0.04,0.039999407,-8.919767,-0.3072561025619507,4.087193,-0.16546679,-0.3363940417766571,0.0127292015
1130.9499999993002,0.23866989,-0.91160625,-0.20065165,-2.2632992,-0.11931945,1.8032923,0.6160046,0.04,0.039999407,-8.896095,-0.3169875741004944,4.136039,-0.16534033,-0.33707180619239807,0.012633338
1130.9666666659668,0.24177262,-0.913262,-0.20326224,-2.2620883,-0.12087385,1.8063148,0.6137933,0.04,0.0399994,-8.87211,-0.32652199268341064,4.1847463,-0.16518615,-0.33770355582237244,0.01253157
1130.9833333326335,0.24488363,-0.9149224,-0.20587976,-2.2608743,-0.122432396,1.8093456,0.61157614,0.04,0.039999396,-8.847804,-0.3365269601345062,4.233467,-0.16500354,-0.33829256892204285,0.012427744
1130.9999999993001,0.24800257,-0.91658694,-0.20850398,-2.2596567,-0.12399494,1.812384,0.6093533,0.04,0.0399994,-8.823152,-0.34635791182518005,4.282041,-0.1647924,-0.33883556723594666,0.012313866
1131.0166666659668,0.2511291,-0.9182556,-0.21113454,-2.2584364,-0.12556128,1.8154299,0.6071251,0.04,0.0399994,-8.798168,-0.3564413785934448,4.3305697,-0.16455351,-0.3393341302871704,0.012197647
1131.0333333326334,0.25426272,-0.91992825,-0.21377106,-2.2572138,-0.1271313,1.8184822,0.60489154,0.04,0.0399994,-8.772948,-0.3668713867664337,4.3790827,-0.16428629,-0.33978915214538574,0.0120750405
1131.0499999993,0.25740317,-0.92160445,-0.2164133,-2.2559876,-0.12870467,1.8215406,0.60265344,0.04,0.0399994,-8.747486,-0.3770890533924103,4.427405,-0.16399007,-0.34020543098449707,0.011946638
1131.0666666659667,0.26055002,-0.9232841,-0.21906094,-2.2547598,-0.13028127,1.824606,0.6004103,0.04,0.039999396,-8.721527,-0.3877585530281067,4.475678,-0.16366757,-0.34057673811912537,0.011813257
1131.0833333326334,0.26370287,-0.92496693,-0.22171354,-2.253529,-0.1318609,1.8276769,0.59816307,0.04,0.039999396,-8.6954775,-0.39821481704711914,4.5237575,-0.1633157,-0.3409043848514557,0.01167462
1131.0999999993,0.26686126,-0.92665285,-0.22437088,-2.252296,-0.13344337,1.8307531,0.5959119,0.04,0.0399994,-8.668904,-0.40915125608444214,4.5717797,-0.16293797,-0.3411860466003418,0.011528743
1131.1166666659667,0.27002504,-0.9283417,-0.22703263,-2.251061,-0.1350285,1.8338346,0.593657,0.04,0.039999392,-8.6422,-0.4198352098464966,4.619604,-0.16253425,-0.34142470359802246,0.011378985
1131.1333333326334,0.2731937,-0.9300333,-0.22969848,-2.2498243,-0.13661608,1.8369209,0.59139824,0.04,0.039999396,-8.615137,-0.43101048469543457,4.6673665,-0.16210315,-0.34161874651908875,0.011225052
1131.1499999993,0.2763668,-0.93172735,-0.232368,-2.2485852,-0.13820586,1.8400114,0.589137,0.04,0.0399994,-8.587877,-0.4419582188129425,4.7149153,-0.16164397,-0.34176960587501526,0.01106423
1131.1666666659667,0.27954397,-0.93342346,-0.23504096,-2.2473447,-0.13979775,1.8431059,0.5868724,0.04,0.039999403,-8.56014,-0.45335689187049866,4.7623453,-0.16116248,-0.34187349677085876,0.010897331
1131.1833333326333,0.2827248,-0.93512154,-0.23771706,-2.2461028,-0.14139153,1.846204,0.58460546,0.04,0.0399994,-8.532368,-0.46449676156044006,4.809555,-0.16065337,-0.3419354557991028,0.010728093
1131.1999999993,0.285909,-0.93682146,-0.24039595,-2.2448597,-0.14298697,1.8493057,0.5823362,0.04,0.0399994,-8.504163,-0.4761028289794922,4.856663,-0.16012092,-0.3419536054134369,0.010552643
1131.2166666659666,0.28909615,-0.93852293,-0.24307719,-2.2436154,-0.14458387,1.85241,0.58006495,0.04,0.0399994,-8.475814,-0.48748061060905457,4.903497,-0.1595631,-0.3419256806373596,0.010372796
1131.2333333326333,0.29228574,-0.94022596,-0.2457605,-2.2423701,-0.14618203,1.8555163,0.5777918,0.04,0.0399994,-8.44707,-0.4993118941783905,4.950248,-0.15898114,-0.34185582399368286,0.010185482
1131.2499999993,0.29547754,-0.94193,-0.24844559,-2.241124,-0.14778131,1.8586254,0.57551706,0.04,0.039999396,-8.418221,-0.5108910799026489,4.9967294,-0.1583745,-0.34174323081970215,0.009995006
1131.2666666659666,0.2986711,-0.9436353,-0.25113213,-2.2398767,-0.14938147,1.8617355,0.57324106,0.04,0.039999396,-8.38904,-0.5227349996566772,5.043001,-0.15774316,-0.34158486127853394,0.009800467
1131.2833333326332,0.30186597,-0.9453412,-0.25381976,-2.2386289,-0.15098235,1.8648474,0.57096404,0.04,0.03999941,-8.359448,-0.5348311066627502,5.0891237,-0.15708889,-0.3413820266723633,0.009597251
1131.2999999992999,0.3050618,-0.94704777,-0.2565082,-2.237381,-0.15258373,1.8679603,0.56868666,0.04,0.039999407,-8.3298435,-0.5466801524162292,5.134957,-0.15641105,-0.34113338589668274,0.009394183
1131.3166666659665,0.30825806,-0.9487546,-0.25919724,-2.236133,-0.1541854,1.8710735,0.5664087,0.04,0.039999403,-8.299895,-0.5589561462402344,5.1806326,-0.1557121,-0.34084293246269226,0.009186043
1131.3333333326332,0.31145465,-0.9504615,-0.26188618,-2.234885,-0.15578721,1.8741868,0.5641303,0.04,0.039999403,-8.26993,-0.5709893107414246,5.2260337,-0.15499079,-0.34051191806793213,0.008970961
1131.3499999992998,0.314651,-0.9521685,-0.26457506,-2.2336369,-0.15738884,1.8772998,0.5618525,0.04,0.03999941,-8.239439,-0.5834406614303589,5.271203,-0.15424432,-0.34013789892196655,0.008753667
1131.3666666659665,0.3178467,-0.9538752,-0.26726335,-2.2323887,-0.1589902,1.8804126,0.5595751,0.04,0.03999942,-8.208972,-0.5956346392631531,5.3161173,-0.15347964,-0.3397190272808075,0.008527831
1131.3833333326331,0.32104138,-0.9555814,-0.26995087,-2.2311409,-0.16059111,1.8835241,0.5572981,0.04,0.039999418,-8.177996,-0.608187198638916,5.360782,-0.15269373,-0.33925461769104004,0.008301957
1131.3999999992998,0.32423472,-0.95728695,-0.27263698,-2.229894,-0.16219135,1.8866341,0.55502254,0.04,0.039999414,-8.147146,-0.6205263137817383,5.4051876,-0.15188615,-0.33874836564064026,0.0080719115
1131.4166666659664,0.32742625,-0.95899135,-0.27532163,-2.2286477,-0.16379064,1.8897427,0.5527476,0.04,0.03999942,-8.115892,-0.6332837343215942,5.4493546,-0.15105887,-0.33820247650146484,0.007837262
1131.433333332633,0.33061558,-0.96069473,-0.27800447,-2.2274022,-0.16538888,1.8928488,0.55047435,0.04,0.039999425,-8.084648,-0.6457563042640686,5.493191,-0.15020932,-0.3376121520996094,0.007597928
1131.4499999992997,0.33380246,-0.9623968,-0.28068504,-2.2261572,-0.16698585,1.8959526,0.54820293,0.04,0.03999943,-8.05294,-0.6585720777511597,5.5368066,-0.14934157,-0.33698177337646484,0.0073548984
1131.4666666659664,0.33698633,-0.9640972,-0.28336316,-2.224913,-0.16858137,1.8990537,0.5459336,0.039999984,0.03999943,-8.021284,-0.671195924282074,5.580086,-0.14845392,-0.3363061249256134,0.0071089882
1131.483333332633,0.34016672,-0.9657961,-0.28603825,-2.2236707,-0.1701752,1.9021513,0.54366714,0.039999977,0.039999433,-7.9891605,-0.6841009259223938,5.6230974,-0.14754847,-0.33558565378189087,0.006860669
1131.4999999992997,0.34334344,-0.9674931,-0.28871045,-2.2224298,-0.17176716,1.9052453,0.54140323,0.03999997,0.03999944,-7.957306,-0.6968483328819275,5.6658754,-0.14662668,-0.3348272740840912,0.0066085383
1131.5166666659663,0.346516,-0.96918786,-0.29137906,-2.221191,-0.17335708,1.9083353,0.53914243,0.039999947,0.039999437,-7.9250407,-0.7097142338752747,5.7083077,-0.14568771,-0.3340259790420532,0.006351884
1131.533333332633,0.34968406,-0.9708803,-0.2940438,-2.2199533,-0.17494476,1.911421,0.5368844,0.039999932,0.039999437,-7.8925567,-0.722784161567688,5.750438,-0.14473206,-0.3331855535507202,0.006092942
1131.5499999992996,0.3528472,-0.97257024,-0.29670435,-2.2187178,-0.17653008,1.9145018,0.5346301,0.03999991,0.039999448,-7.860121,-0.735659122467041,5.7922525,-0.14375758,-0.33230122923851013,0.005827134
1131.5666666659663,0.35600513,-0.97425723,-0.29936042,-2.217484,-0.17811276,1.9175773,0.5323796,0.039999902,0.039999455,-7.827332,-0.7487869262695312,5.833771,-0.14276747,-0.33137914538383484,0.0055625667
1131.583333332633,0.35915732,-0.97594124,-0.3020118,-2.2162528,-0.1796925,1.9206469,0.53013325,0.03999988,0.039999455,-7.794638,-0.761792778968811,5.874936,-0.14176223,-0.33041131496429443,0.005274792
1131.5999999992996,0.36230353,-0.9776221,-0.3046579,-2.2150235,-0.18126927,1.9237111,0.52789146,0.039999846,0.039999463,-7.7615995,-0.7747988104820251,5.9158416,-0.14074211,-0.3294140100479126,0.005022547
1131.6166666659662,0.36544314,-0.97929966,-0.3072986,-2.2137969,-0.18284284,1.9267688,0.5256541,0.0399998,0.039999437,-7.728701,-0.7879601716995239,5.9563503,-0.13970812,-0.32836654782295227,0.004731264
1131.633333332633,0.36857596,-0.98097366,-0.30993354,-2.2125726,-0.18441299,1.9298195,0.5234216,0.039999772,0.03999941,-7.695334,-0.8010843992233276,5.996573,-0.13865954,-0.32728296518325806,0.004457682
1131.6499999992996,0.37170166,-0.9826437,-0.3125624,-2.2113516,-0.18597953,1.9328636,0.5211943,0.03999973,0.03999939,-7.66226,-0.8141141533851624,6.036472,-0.13759743,-0.3261612355709076,0.004181012
1131.6666666659662,0.37481973,-0.98430973,-0.31518483,-2.2101338,-0.18754236,1.9359008,0.5189723,0.039999694,0.039999373,-7.62878,-0.8273740410804749,6.075985,-0.13652182,-0.32500046491622925,0.0039021976
1131.6833333326329,0.37792984,-0.98597175,-0.31780058,-2.2089186,-0.18910116,1.9389302,0.51675606,0.039999675,0.039999366,-7.5955667,-0.8404330611228943,6.115199,-0.13543245,-0.32380104064941406,0.0036262274
1131.6999999992995,0.38103157,-0.9876295,-0.32040915,-2.2077065,-0.19065584,1.9419507,0.5145458,0.039999653,0.039999373,-7.561794,-0.853692889213562,6.154038,-0.13433202,-0.3225604295730591,0.0033423884
1131.7166666659662,0.38412464,-0.98928237,-0.3230104,-2.2064984,-0.19220619,1.9449629,0.5123418,0.03999963,0.039999377,-7.5283775,-0.8667824268341064,6.1925664,-0.13321939,-0.3212827444076538,0.0030598624
1131.7333333326328,0.38720855,-0.9909305,-0.3256042,-2.2052934,-0.19375198,1.9479663,0.51014423,0.03999962,0.03999938,-7.4946427,-0.8800405263900757,6.2307153,-0.13209498,-0.31997284293174744,0.0027781867
1131.7499999992995,0.390283,-0.99257356,-0.32818988,-2.204092,-0.195293,1.9509608,0.5079534,0.039999597,0.03999938,-7.461081,-0.8930867910385132,6.2685227,-0.1309613,-0.31862175464630127,0.0024946593
1131.766666665966,0.3933476,-0.99421155,-0.33076724,-2.2028947,-0.19682918,1.9539453,0.5057697,0.039999563,0.039999377,-7.427362,-0.9062893986701965,6.305963,-0.12981626,-0.3172338902950287,0.0022074631
1131.7833333326328,0.396402,-0.99584424,-0.33333597,-2.2017012,-0.19836026,1.9569204,0.5035932,0.039999552,0.03999938,-7.393348,-0.9194859266281128,6.3430467,-0.12866198,-0.31581178307533264,0.0019250863
1131.7999999992994,0.39944577,-0.9974713,-0.3358958,-2.200512,-0.199886,1.9598842,0.5014243,0.03999953,0.03999939,-7.3596883,-0.9325703978538513,6.379772,-0.12749764,-0.314348965883255,0.0016391942
1131.816666665966,0.4024788,-0.9990925,-0.33844644,-2.1993272,-0.20140634,1.9628373,0.49926326,0.039999515,0.039999403,-7.325698,-0.9457583427429199,6.416139,-0.1263251,-0.31285765767097473,0.0013525913
1131.8333333326327,0.40550038,-1.0007076,-0.3409875,-2.1981466,-0.20292103,1.9657811,0.4971102,0.039999504,0.039999407,-7.29211,-0.9588117003440857,6.4521666,-0.12514342,-0.311332643032074,0.0010685748
1131.8499999992994,0.40851033,-1.0023167,-0.34351876,-2.19697,-0.20442982,1.9687133,0.49496546,0.03999949,0.039999418,-7.2578926,-0.9719258546829224,6.487691,-0.12395387,-0.3097634017467499,0.000784202
1131.866666665966,0.41150823,-1.0039197,-0.34603986,-2.1957984,-0.20593256,1.9716326,0.49282932,0.039999474,0.039999425,-7.224194,-0.9849107265472412,6.5229917,-0.122757584,-0.3081591725349426,0.0005022222
1131.8833333326327,0.41449392,-1.0055162,-0.34855062,-2.1946318,-0.20742913,1.97454,0.49070197,0.039999448,0.039999425,-7.1901298,-0.9980120062828064,6.557908,-0.121554,-0.30652719736099243,0.00021764018
1131.8999999992993,0.41746688,-1.0071057,-0.35105056,-2.19347,-0.2089193,1.9774354,0.4885837,0.039999437,0.039999433,-7.1565104,-1.0109373331069946,6.592441,-0.12034382,-0.3048613965511322,-6.38216e-05
1131.916666665966,0.4204267,-1.0086884,-0.35353953,-2.1923127,-0.21040295,1.9803181,0.48647475,0.039999414,0.039999437,-7.122431,-1.023954153060913,6.626522,-0.119127065,-0.3031611442565918,-0.00034709266
1131.9333333326326,0.42337313,-1.0102643,-0.35601717,-2.1911612,-0.21187991,1.9831874,0.48437536,0.039999403,0.03999945,-7.088751,-1.0368026494979858,6.6603155,-0.11790523,-0.30142486095428467,-0.0006265144
1131.9499999992993,0.4263057,-1.0118324,-0.35848317,-2.1900148,-0.21334986,1.9860436,0.48228583,0.039999384,0.039999448,-7.05475,-1.0497101545333862,6.693705,-0.1166779,-0.29965993762016296,-0.00090247195
1131.966666665966,0.42922428,-1.0133929,-0.3609373,-2.188874,-0.21481279,1.9888856,0.48020637,0.039999366,0.039999463,-7.0212955,-1.06253182888031,6.72672,-0.11544644,-0.2978624701499939,-0.001181436
1131.9833333326326,0.43212828,-1.0149454,-0.36337933,-2.187739,-0.2162685,1.991714,0.47813722,0.03999935,0.039999478,-6.9874225,-1.0753555297851562,6.759314,-0.114209756,-0.2960376739501953,-0.0014600836
1131.9999999992992,0.43501762,-1.0164902,-0.36580876,-2.1866095,-0.21771681,1.9945278,0.47607854,0.039999336,0.03999949,-6.9540596,-1.0880323648452759,6.791599,-0.11297023,-0.2941822111606598,-0.0017320134
1132.0166666659659,0.43789175,-1.018027,-0.3682255,-2.1854856,-0.21915753,1.9973271,0.47403064,0.03999933,0.03999949,-6.9204574,-1.1007095575332642,6.8234606,-0.11172593,-0.29229721426963806,-0.0019976625
1132.0333333326325,0.4407505,-1.0195558,-0.37062928,-2.184368,-0.22059047,2.000111,0.4719938,0.039999302,0.0399995,-6.8867044,-1.113364338874817,6.854899,-0.11047894,-0.2903802692890167,-0.0022694082
1132.0499999992992,0.44359332,-1.0210766,-0.37301975,-2.1832566,-0.22201554,2.0028799,0.46996826,0.039999284,0.039999507,-6.853514,-1.1259201765060425,6.8860817,-0.109229885,-0.28843510150909424,-0.0025369562
1132.0666666659658,0.4464202,-1.0225886,-0.37539664,-2.1821518,-0.22343248,2.0056329,0.46795413,0.039999265,0.039999504,-6.819893,-1.1383785009384155,6.916797,-0.10797933,-0.2864604592323303,-0.0027963899
1132.0833333326325,0.4492306,-1.0240916,-0.37775978,-2.1810532,-0.22484119,2.0083697,0.4659517,0.039999254,0.039999507,-6.786985,-1.1508686542510986,6.9472027,-0.106725425,-0.28446051478385925,-0.0030545136
1132.0999999992991,0.45202434,-1.0255861,-0.38010886,-2.1799612,-0.22624154,2.0110903,0.46396124,0.039999228,0.039999515,-6.7536,-1.163215160369873,6.977104,-0.105471015,-0.28243279457092285,-0.0033149149
1132.1166666659658,0.454801,-1.0270712,-0.3824435,-2.1788754,-0.22763331,2.0137944,0.46198303,0.03999921,0.03999953,-6.720825,-1.175551176071167,7.006785,-0.10421545,-0.2803778648376465,-0.0035725578
1132.1333333326324,0.45756024,-1.0285475,-0.3847635,-2.1777961,-0.22901636,2.0164814,0.46001706,0.039999206,0.03999954,-6.687605,-1.1877201795578003,7.0358973,-0.10295963,-0.27829575538635254,-0.0038208235
1132.149999999299,0.46030185,-1.0300143,-0.38706866,-2.176724,-0.23039055,2.0191507,0.4580636,0.0399992,0.039999552,-6.6549845,-1.1998887062072754,7.064805,-0.10170372,-0.2761859893798828,-0.0040654955
1132.1666666659657,0.46302545,-1.0314708,-0.38935867,-2.175659,-0.23175566,2.0218031,0.45612314,0.039999176,0.03999956,-6.622113,-1.2119561433792114,7.0932217,-0.100447126,-0.2740531861782074,-0.004310465
1132.1833333326324,0.46573082,-1.0329183,-0.39163327,-2.1746013,-0.23311158,2.0244374,0.4541956,0.03999915,0.039999567,-6.5899754,-1.224021315574646,7.1213303,-0.09919143,-0.27189862728118896,-0.004552287
1132.199999999299,0.46841756,-1.034356,-0.3938922,-2.1735506,-0.23445825,2.0270538,0.45228145,0.03999914,0.03999958,-6.557239,-1.235882043838501,7.1490135,-0.09793633,-0.26971831917762756,-0.0047890786
1132.2166666659657,0.47108546,-1.0357833,-0.39613518,-2.1725073,-0.2357954,2.0296516,0.4503807,0.039999127,0.03999958,-6.5252175,-1.2477489709854126,7.176389,-0.09668319,-0.2675134837627411,-0.0050161635
1132.2333333326324,0.47373417,-1.0372001,-0.39836213,-2.1714714,-0.23712288,2.032231,0.4484936,0.039999112,0.039999582,-6.4929247,-1.2594729661941528,7.203264,-0.09543082,-0.2652875483036041,-0.0052419896
1132.249999999299,0.47636342,-1.0386072,-0.40057275,-2.170443,-0.2384406,2.0347917,0.4466204,0.03999909,0.039999582,-6.4612894,-1.2711952924728394,7.2298827,-0.094180524,-0.2630387246608734,-0.005464248
1132.2666666659657,0.47897297,-1.0400038,-0.4027667,-2.1694229,-0.23974848,2.037333,0.44476137,0.039999068,0.0399996,-6.429485,-1.2827930450439453,7.256136,-0.092933245,-0.2607657313346863,-0.005687561
1132.2833333326323,0.48156264,-1.0413895,-0.4049438,-2.16841,-0.24104632,2.0398545,0.44291654,0.039999068,0.03999961,-6.39765,-1.2941938638687134,7.281913,-0.0916882,-0.25847327709198,-0.005898288
1132.299999999299,0.48413187,-1.0427645,-0.4071038,-2.1674051,-0.24233395,2.0423563,0.44108617,0.039999053,0.039999623,-6.36653,-1.3056883811950684,7.3074117,-0.09044537,-0.25616151094436646,-0.0061084754
1132.3166666659656,0.48668066,-1.0441285,-0.40924653,-2.1664085,-0.2436113,2.0448384,0.43927047,0.03999903,0.039999623,-6.3349743,-1.3168808221817017,7.332474,-0.08920642,-0.25382789969444275,-0.0063114464
1132.3333333326323,0.48920852,-1.0454816,-0.4113717,-2.1654196,-0.24487819,2.0473,0.4374696,0.039999012,0.039999634,-6.3043,-1.3282065391540527,7.3572416,-0.08797038,-0.2514756917953491,-0.0065119844
1132.349999999299,0.49171534,-1.0468233,-0.41347918,-2.1644392,-0.2461345,2.0497413,0.43568367,0.039998997,0.039999645,-6.273116,-1.3392003774642944,7.38156,-0.086738564,-0.24910280108451843,-0.0067050485
1132.3666666659656,0.4942008,-1.048154,-0.4155687,-2.163467,-0.24738005,2.0521615,0.433913,0.039998993,0.03999965,-6.2428284,-1.3503040075302124,7.4056196,-0.08551006,-0.24671489000320435,-0.006889572
1132.3833333326322,0.49666464,-1.0494728,-0.41764003,-2.162503,-0.2486147,2.054561,0.4321577,0.039998963,0.03999965,-6.212071,-1.361114740371704,7.42922,-0.08428671,-0.24430665373802185,-0.0070730858
1132.3999999992989,0.49910665,-1.0507798,-0.419693,-2.1615477,-0.24983841,2.056939,0.43041795,0.039998945,0.039999653,-6.1821456,-1.372032642364502,7.4525156,-0.083067775,-0.24188125133514404,-0.0072492305
1132.4166666659655,0.50152665,-1.0520753,-0.42172748,-2.1606011,-0.25105104,2.0592957,0.42869395,0.039998934,0.03999966,-6.1519475,-1.3826284408569336,7.4754047,-0.081853226,-0.23944233357906342,-0.0074193394
1132.4333333326322,0.50392455,-1.0533592,-0.4237432,-2.1596637,-0.2522525,2.0616302,0.42698586,0.039998915,0.039999668,-6.1224613,-1.393367052078247,7.4980235,-0.08064377,-0.23698583245277405,-0.007586456
1132.4499999992988,0.50629956,-1.0546304,-0.4257399,-2.1587346,-0.25344273,2.063943,0.42529383,0.039998915,0.03999969,-6.0926776,-1.4037470817565918,7.52021,-0.079439275,-0.23451533913612366,-0.0077491496
1132.4666666659655,0.5086519,-1.0558898,-0.4277175,-2.1578145,-0.25462154,2.0662336,0.42361805,0.039998904,0.039999697,-6.063678,-1.414237141609192,7.5420966,-0.07824078,-0.2320333868265152,-0.007902174
1132.4833333326321,0.5109815,-1.0571371,-0.42967564,-2.1569028,-0.2557887,2.0685022,0.42195866,0.039998885,0.0399997,-6.0343385,-1.4243944883346558,7.563558,-0.07704798,-0.2295342981815338,-0.00805027
1132.4999999992988,0.5132878,-1.0583719,-0.43161428,-2.1560009,-0.25694427,2.0707476,0.42031574,0.03999887,0.039999705,-6.0056996,-1.4346954822540283,7.584727,-0.075860575,-0.22701811790466309,-0.008190933
1132.5166666659654,0.5155706,-1.0595942,-0.43353325,-2.1551077,-0.25808805,2.0729704,0.4186896,0.039998855,0.039999712,-5.977268,-1.4448025226593018,7.605596,-0.07467876,-0.22449548542499542,-0.008328994
1132.533333332632,0.5178296,-1.060804,-0.4354323,-2.1542244,-0.25922,2.0751703,0.41708034,0.039998837,0.039999716,-5.948675,-1.4545738697052002,7.625995,-0.07350433,-0.22195859253406525,-0.008459163
1132.5499999992987,0.5200649,-1.0620011,-0.43731135,-2.15335,-0.26033992,2.0773473,0.415488,0.039998822,0.039999712,-5.9209,-1.4645754098892212,7.6462035,-0.072336376,-0.21941065788269043,-0.008581549
1132.5666666659654,0.52227634,-1.0631855,-0.43917018,-2.152485,-0.26144782,2.0795004,0.41391277,0.039998814,0.039999727,-5.892869,-1.4741531610488892,7.6659193,-0.07117491,-0.21684996783733368,-0.008699713
1132.583333332632,0.52446336,-1.0643568,-0.4410087,-2.1516292,-0.26254356,2.08163,0.41235492,0.039998796,0.039999735,-5.865573,-1.483917236328125,7.6854267,-0.07002018,-0.21427887678146362,-0.008813131
1132.5999999992987,0.5266261,-1.0655152,-0.44282663,-2.150783,-0.26362708,2.0837357,0.41081426,0.03999878,0.03999974,-5.8380885,-1.4932297468185425,7.7045074,-0.068873696,-0.21169869601726532,-0.008917374
1132.6166666659653,0.5287642,-1.0666604,-0.44462395,-2.1499467,-0.26469824,2.085818,0.4092912,0.039998766,0.03999975,-5.8113937,-1.502806305885315,7.72335,-0.06773283,-0.2091103345155716,-0.009017598
1132.633333332632,0.5308774,-1.0677925,-0.4464003,-2.1491199,-0.26575693,2.0878756,0.40778586,0.039998755,0.039999757,-5.7844667,-1.511905550956726,7.7417593,-0.06659987,-0.20651130378246307,-0.009109491
1132.6499999992986,0.53296584,-1.0689114,-0.44815594,-2.1483026,-0.26680318,2.0899088,0.4062982,0.03999875,0.03999977,-5.758295,-1.521230697631836,7.759952,-0.06547484,-0.20390619337558746,-0.009195669
1132.6666666659653,0.535029,-1.0700167,-0.44989032,-2.1474953,-0.26783675,2.0919178,0.40482846,0.039998736,0.039999772,-5.7319117,-1.5300512313842773,7.777728,-0.06435812,-0.20129385590553284,-0.009275484
1132.683333332632,0.53706706,-1.0711086,-0.4516035,-2.146698,-0.2688577,2.0939026,0.40337673,0.039998718,0.039999772,-5.706399,-1.5391944646835327,7.7952576,-0.063248664,-0.1986752152442932,-0.009348693
1132.6999999992986,0.5390799,-1.072187,-0.45329535,-2.1459107,-0.26986587,2.0958626,0.40194312,0.039998703,0.03999978,-5.6806436,-1.547808289527893,7.8123827,-0.062146872,-0.19604945182800293,-0.0094168605
1132.7166666659652,0.54106694,-1.0732516,-0.45496562,-2.1451333,-0.27086127,2.0977976,0.4005277,0.03999869,0.039999783,-5.6556506,-1.5566809177398682,7.8292828,-0.061052844,-0.19341838359832764,-0.009477392
1132.733333332632,0.54302835,-1.0743023,-0.45661432,-2.1443658,-0.27184373,2.0997071,0.39913058,0.039998673,0.039999783,-5.630472,-1.5650638341903687,7.8457937,-0.05996707,-0.190782368183136,-0.009531875
1132.7499999992986,0.5449642,-1.0753396,-0.4582413,-2.1436083,-0.27281317,2.1015916,0.39775184,0.03999867,0.039999794,-5.606148,-1.5737134218215942,7.8620563,-0.05888921,-0.188145712018013,-0.0095800245
1132.7666666659652,0.5468738,-1.0763627,-0.45984647,-2.1428611,-0.27376968,2.1034513,0.39639154,0.039998658,0.039999794,-5.581789,-1.5820395946502686,7.8779855,-0.057820123,-0.18550316989421844,-0.00962304
1132.7833333326319,0.5487572,-1.0773722,-0.46142972,-2.1421242,-0.2747132,2.1052852,0.3950498,0.039998647,0.039999805,-5.557561,-1.5900553464889526,7.8935666,-0.056758992,-0.1828559786081314,-0.0096595725
1132.7999999992985,0.55061466,-1.0783677,-0.46299103,-2.1413975,-0.27564344,2.1070938,0.3937267,0.039998624,0.0399998,-5.534127,-1.5983593463897705,7.908961,-0.05570659,-0.18020935356616974,-0.009689571
1132.8166666659652,0.5524458,-1.0793492,-0.46453032,-2.1406813,-0.2765606,2.108877,0.3924224,0.03999862,0.03999981,-5.5104933,-1.60611093044281,7.923936,-0.05466302,-0.17755889892578125,-0.009712087
1132.8333333326318,0.55425066,-1.0803167,-0.4660472,-2.139975,-0.27746436,2.1106346,0.39113694,0.039998602,0.039999817,-5.4877043,-1.614189624786377,7.938706,-0.053627905,-0.17490719258785248,-0.0097326
1132.8499999992985,0.5560289,-1.0812697,-0.4675418,-2.1392787,-0.2783549,2.112366,0.38987023,0.039998587,0.039999813,-5.4646897,-1.6217141151428223,7.9530783,-0.052601777,-0.17225287854671478,-0.009742481
1132.866666665965,0.55778056,-1.0822088,-0.46901417,-2.1385942,-0.2792322,2.1140716,0.3886225,0.039998576,0.03999982,-5.442429,-1.629514217376709,7.96723,-0.051584516,-0.16959857940673828,-0.009747055
1132.8833333326318,0.5595057,-1.0831333,-0.4704641,-2.137919,-0.2800961,2.1157513,0.3873938,0.03999857,0.039999828,-5.4203434,-1.636887550354004,7.981137,-0.050574888,-0.16695058345794678,-0.00974845
1132.8999999992984,0.56120396,-1.0840437,-0.47189152,-2.1372545,-0.28094655,2.1174052,0.3861841,0.03999856,0.039999835,-5.3986826,-1.6444411277770996,7.99466,-0.049575068,-0.16430070996284485,-0.009743049
1132.916666665965,0.5628754,-1.0849395,-0.47329646,-2.1366,-0.28178355,2.1190326,0.38499343,0.039998557,0.039999843,-5.377056,-1.651497721672058,8.007945,-0.048583824,-0.16165189445018768,-0.009729627
1132.9333333326317,0.5645202,-1.085821,-0.47467887,-2.1359563,-0.28260705,2.1206336,0.38382193,0.039998543,0.03999985,-5.3561373,-1.658840298652649,8.020963,-0.047602363,-0.15900705754756927,-0.009712476
1132.9499999992984,0.56613785,-1.0866888,-0.47603863,-2.1353233,-0.28341708,2.1222086,0.38266966,0.039998528,0.03999985,-5.335188,-1.6656630039215088,8.033685,-0.04662957,-0.15636613965034485,-0.009690461
1132.966666665965,0.56772864,-1.0875423,-0.4773757,-2.1347005,-0.2842137,2.1237578,0.38153654,0.039998516,0.039999854,-5.314899,-1.672786831855774,8.046189,-0.0456668,-0.15372592210769653,-0.0096615385
1132.9833333326317,0.5692925,-1.088381,-0.47869012,-2.1340883,-0.28499678,2.1252801,0.38042265,0.039998505,0.03999986,-5.2945085,-1.6793320178985596,8.058347,-0.04471313,-0.1510862559080124,-0.009626827
1132.9999999992983,0.5708291,-1.0892053,-0.4799818,-2.1334865,-0.2857662,2.1267767,0.379328,0.039998498,0.039999872,-5.275029,-1.6862602233886719,8.070293,-0.04376806,-0.14845584332942963,-0.009587762
1133.016666665965,0.57233894,-1.0900152,-0.4812508,-2.1328952,-0.28652206,2.1282473,0.37825274,0.03999849,0.039999876,-5.255522,-1.6927884817123413,8.081925,-0.042833276,-0.14582759141921997,-0.0095393825
1133.0333333326316,0.5738216,-1.0908102,-0.482497,-2.1323152,-0.28726435,2.129691,0.37719667,0.03999848,0.039999872,-5.2362275,-1.6990010738372803,8.093309,-0.041908007,-0.14320427179336548,-0.009486858
1133.0499999992983,0.575277,-1.0915909,-0.48372042,-2.1317453,-0.2879931,2.1311078,0.3761599,0.039998468,0.039999872,-5.2178326,-1.705629587173462,8.104486,-0.040990464,-0.1405949890613556,-0.009431681
1133.066666665965,0.5767055,-1.0923574,-0.4849212,-2.1311862,-0.28870824,2.1324985,0.37514248,0.039998464,0.039999884,-5.199138,-1.7115700244903564,8.115346,-0.040083308,-0.13799111545085907,-0.009371058
1133.0833333326316,0.5781069,-1.0931093,-0.48609897,-2.1306376,-0.2894098,2.1338627,0.37414432,0.039998453,0.03999989,-5.1812525,-1.7179239988327026,8.125994,-0.039185736,-0.1353924721479416,-0.009308689
1133.0999999992982,0.5794811,-1.0938464,-0.48725414,-2.1300995,-0.2900977,2.1352005,0.3731654,0.039998446,0.03999989,-5.1633353,-1.723673701286316,8.136345,-0.038296808,-0.1328049600124359,-0.009237881
1133.1166666659649,0.58082855,-1.0945696,-0.48838666,-2.1295717,-0.29077217,2.1365125,0.37220576,0.039998434,0.039999895,-5.146133,-1.7297742366790771,8.1464815,-0.0374181,-0.13022610545158386,-0.009164069
1133.1333333326315,0.5821488,-1.0952779,-0.48949638,-2.1290545,-0.29143304,2.1377978,0.3712654,0.039998423,0.039999895,-5.1288095,-1.735258936882019,8.156337,-0.036548853,-0.12765276432037354,-0.0090837935
1133.1499999992982,0.5834422,-1.0959717,-0.49058342,-2.128548,-0.29208046,2.1390574,0.37034416,0.039998416,0.03999989,-5.112345,-1.7411749362945557,8.165991,-0.03568883,-0.12509243190288544,-0.00899871
1133.1666666659648,0.5847086,-1.0966511,-0.4916478,-2.1280522,-0.29271436,2.14029,0.36944216,0.0399984,0.039999887,-5.095805,-1.7464773654937744,8.175372,-0.034837104,-0.1225428581237793,-0.008910713
1133.1833333326315,0.58594805,-1.0973161,-0.49268967,-2.127567,-0.29333475,2.1414967,0.36855933,0.039998394,0.0399999,-5.0799837,-1.7521768808364868,8.184561,-0.033995472,-0.12000609189271927,-0.008821198
1133.1999999992981,0.58716077,-1.0979666,-0.4937089,-2.1270921,-0.29394168,2.1426773,0.36769548,0.039998382,0.039999895,-5.064152,-1.7572425603866577,8.193496,-0.033163507,-0.11748260259628296,-0.008726518
1133.2166666659648,0.5883467,-1.0986027,-0.4947057,-2.126628,-0.2945353,2.143832,0.3668509,0.039998367,0.0399999,-5.0489917,-1.7627220153808594,8.202176,-0.032339867,-0.11497186124324799,-0.008630112
1133.2333333326314,0.58950615,-1.099225,-0.4956801,-2.126174,-0.29511553,2.1449609,0.3660252,0.039998364,0.039999902,-5.03382,-1.7675505876541138,8.210656,-0.03152705,-0.11247507482767105,-0.008526329
1133.249999999298,0.59063876,-1.0998333,-0.49663216,-2.1257303,-0.29568243,2.1460636,0.3652185,0.039998356,0.039999902,-5.0192294,-1.7727789878845215,8.218893,-0.030723315,-0.10998694598674774,-0.008420419
1133.2666666659647,0.59174496,-1.1004274,-0.49756193,-2.125297,-0.29623604,2.1471407,0.36443064,0.039998338,0.039999906,-5.004893,-1.7776716947555542,8.226943,-0.029930038,-0.1075148656964302,-0.008312932
1133.2833333326314,0.5928249,-1.1010072,-0.4984695,-2.1248744,-0.2967765,2.148192,0.36366165,0.03999833,0.039999906,-4.990729,-1.7822002172470093,8.234757,-0.02914625,-0.10505744814872742,-0.008199986
1133.299999999298,0.5938785,-1.1015728,-0.49935502,-2.1244621,-0.2973037,2.1492178,0.36291125,0.039998326,0.03999991,-4.977268,-1.7871400117874146,8.242328,-0.028371597,-0.10261701047420502,-0.008084289
1133.3166666659647,0.5949058,-1.1021239,-0.5002186,-2.1240604,-0.29781792,2.1502187,0.36217955,0.039998323,0.03999991,-4.963889,-1.7915114164352417,8.249721,-0.02760532,-0.10019543021917343,-0.00796803
1133.3333333326314,0.59590733,-1.1026616,-0.50106007,-2.123668,-0.29831898,2.1511931,0.36146635,0.03999831,0.039999906,-4.951101,-1.7962331771850586,8.256862,-0.026848674,-0.09779106825590134,-0.007846903
1133.349999999298,0.5968829,-1.1031855,-0.5018799,-2.1232855,-0.29880714,2.1521423,0.36077157,0.039998308,0.039999913,-4.9381413,-1.8003261089324951,8.263812,-0.026102336,-0.09540234506130219,-0.007725375
1133.3666666659647,0.59783274,-1.1036955,-0.50267804,-2.1229138,-0.2992824,2.1530674,0.36009517,0.039998304,0.039999913,-4.925968,-1.8048367500305176,8.270565,-0.025365673,-0.09303273260593414,-0.0076001473
1133.3833333326313,0.5987571,-1.1041914,-0.50345474,-2.1225517,-0.29974473,2.1539671,0.35943684,0.039998297,0.039999913,-4.913912,-1.8088023662567139,8.277116,-0.02463807,-0.090681292116642,-0.0074732956
1133.399999999298,0.5996559,-1.1046741,-0.5042104,-2.1221993,-0.30019444,2.1548426,0.35879678,0.039998285,0.039999913,-4.902374,-1.8131004571914673,8.283429,-0.023919888,-0.08834948390722275,-0.007344943
1133.4166666659646,0.60052955,-1.1051434,-0.50494456,-2.1218576,-0.3006315,2.1556928,0.35817468,0.039998278,0.039999925,-4.890825,-1.8167665004730225,8.289623,-0.023214279,-0.08603468537330627,-0.007213939
1133.4333333326313,0.60137796,-1.1055989,-0.50565773,-2.1215255,-0.30105603,2.1565187,0.35757044,0.039998267,0.03999993,-4.8800726,-1.8209881782531738,8.295614,-0.022516293,-0.08374644070863724,-0.007084547
1133.449999999298,0.6022016,-1.1060416,-0.50635004,-2.1212027,-0.3014681,2.1573205,0.3569839,0.039998263,0.039999932,-4.8692427,-1.8245102167129517,8.301366,-0.021828149,-0.08147987723350525,-0.006950398
1133.4666666659646,0.60300064,-1.1064706,-0.50702155,-2.1208897,-0.30186784,2.1580985,0.3564149,0.039998256,0.039999936,-4.858907,-1.8283990621566772,8.306939,-0.021151228,-0.07923251390457153,-0.0068154363
1133.4833333326312,0.6037751,-1.1068867,-0.5076725,-2.1205864,-0.30225533,2.1588526,0.35586342,0.039998252,0.03999994,-4.8487663,-1.8317838907241821,8.312315,-0.020482738,-0.07700826227664948,-0.006678342
1133.4999999992979,0.6045253,-1.1072899,-0.50830305,-2.1202922,-0.30263078,2.1595829,0.35532928,0.039998244,0.03999994,-4.839179,-1.835546612739563,8.317549,-0.019824887,-0.07480911165475845,-0.006541067
1133.5166666659645,0.6052518,-1.1076802,-0.5089135,-2.1200073,-0.30299413,2.1602902,0.35481203,0.03999824,0.03999994,-4.8296657,-1.8389277458190918,8.322551,-0.019177495,-0.07263197004795074,-0.006400175
1133.5333333326312,0.6059545,-1.1080576,-0.50950396,-2.1197326,-0.30334556,2.1609743,0.3543117,0.039998233,0.03999994,-4.8204503,-1.8420460224151611,8.327419,-0.018539136,-0.0704788789153099,-0.0062615136
1133.5499999992978,0.60663366,-1.1084224,-0.5100745,-2.1194665,-0.30368528,2.1616354,0.35382807,0.03999823,0.03999994,-4.8118944,-1.8455760478973389,8.332115,-0.017909769,-0.06835681200027466,-0.006123145
1133.5666666659645,0.6072894,-1.1087749,-0.51062566,-2.1192098,-0.30401334,2.162274,0.35336104,0.039998226,0.039999943,-4.803191,-1.8484958410263062,8.336607,-0.017290166,-0.06625790894031525,-0.005983629
1133.5833333326311,0.6079221,-1.1091149,-0.5111575,-2.118962,-0.30432978,2.16289,0.3529104,0.03999822,0.03999994,-4.7950797,-1.8517670631408691,8.340962,-0.016682187,-0.06418643146753311,-0.0058434233
1133.5999999992978,0.6085322,-1.109443,-0.5116702,-2.118723,-0.304635,2.1634836,0.35247612,0.03999822,0.039999954,-4.7871065,-1.8545548915863037,8.345153,-0.01608451,-0.06214318051934242,-0.005704925
1133.6166666659644,0.6091197,-1.109759,-0.512164,-2.1184928,-0.30492887,2.1640556,0.35205773,0.039998215,0.039999954,-4.7795715,-1.8576912879943848,8.349152,-0.015497445,-0.060129258781671524,-0.0055661746
1133.633333332631,0.60968524,-1.1100631,-0.51263916,-2.1182714,-0.30521172,2.1646056,0.35165498,0.03999822,0.03999996,-4.7721334,-1.8602924346923828,8.35304,-0.014921144,-0.05814515799283981,-0.005426671
1133.6499999992977,0.61022884,-1.1103553,-0.51309615,-2.1180582,-0.30548355,2.165135,0.35126784,0.03999821,0.03999996,-4.765232,-1.8632898330688477,8.356709,-0.014353968,-0.05619194358587265,-0.0052899104
1133.6666666659644,0.61075085,-1.1106364,-0.51353496,-2.1178534,-0.3057447,2.1656432,0.350896,0.039998207,0.03999996,-4.7583747,-1.8657138347625732,8.360251,-0.013798901,-0.05426828935742378,-0.0051514413
1133.683333332631,0.61125195,-1.1109058,-0.5139561,-2.117657,-0.30599523,2.1661305,0.35053918,0.0399982,0.039999958,-4.751891,-1.8685023784637451,8.363649,-0.013254748,-0.05237312242388725,-0.0050125304
1133.6999999992977,0.611732,-1.1111643,-0.51435965,-2.1174686,-0.30623528,2.1665976,0.35019726,0.039998192,0.039999958,-4.7457194,-1.870858907699585,8.366918,-0.012720722,-0.050515975803136826,-0.0048781093
1133.7166666659643,0.6121916,-1.1114119,-0.514746,-2.117288,-0.30646512,2.1670454,0.34987003,0.03999818,0.039999958,-4.739811,-1.8735142946243286,8.369998,-0.012198104,-0.048688482493162155,-0.004744037
1133.733333332631,0.61263126,-1.1116486,-0.5151155,-2.1171157,-0.3066851,2.167473,0.34955707,0.039998174,0.03999996,-4.7340193,-1.8756753206253052,8.372968,-0.0116873635,-0.04689257591962814,-0.0046094265
1133.7499999992976,0.61305106,-1.1118745,-0.5154684,-2.116951,-0.3068951,2.1678815,0.34925812,0.03999817,0.03999996,-4.728797,-1.8782202005386353,8.3757925,-0.011186281,-0.045135680586099625,-0.0044775386
1133.7666666659643,0.6134515,-1.1120901,-0.5158049,-2.1167939,-0.30709544,2.1682713,0.348973,0.039998163,0.03999996,-4.723641,-1.8804484605789185,8.378473,-0.010697081,-0.043413545936346054,-0.004346864
1133.783333332631,0.61383307,-1.1122953,-0.51612556,-2.1166441,-0.30728626,2.1686428,0.34870145,0.039998155,0.03999996,-4.7186213,-1.8824610710144043,8.381028,-0.010218892,-0.04172633960843086,-0.004218361
1133.7999999992976,0.61419606,-1.1124909,-0.5164306,-2.1165016,-0.30746773,2.1689959,0.34844306,0.03999815,0.03999996,-4.714159,-1.8847779035568237,8.383431,-0.009751924,-0.040078505873680115,-0.004091592
1133.8166666659642,0.61454076,-1.1126769,-0.5167206,-2.1163661,-0.30764022,2.1693316,0.34819764,0.039998148,0.03999996,-4.7095475,-1.8866121768951416,8.385757,-0.009297784,-0.03846574202179909,-0.003965329
1133.833333332631,0.6148678,-1.112853,-0.5169955,-2.1162379,-0.30780384,2.16965,0.34796482,0.039998144,0.03999996,-4.7055135,-1.8887830972671509,8.387951,-0.008856105,-0.03689267113804817,-0.003842205
1133.8499999992976,0.61517775,-1.11302,-0.51725584,-2.1161165,-0.30795875,2.1699517,0.3477443,0.039998144,0.039999966,-4.7015557,-1.8905993700027466,8.390006,-0.008424948,-0.03536086156964302,-0.0037218216
1133.8666666659642,0.6154706,-1.1131778,-0.51750207,-2.1160018,-0.30810523,2.170237,0.34753576,0.03999814,0.039999966,-4.697976,-1.892689824104309,8.391933,-0.008005077,-0.03387098386883736,-0.0036057543
1133.8833333326309,0.61574715,-1.1133265,-0.5177345,-2.1158938,-0.3082436,2.1705065,0.34733886,0.039998136,0.039999966,-4.6943755,-1.8943322896957397,8.393777,-0.007598371,-0.032421261072158813,-0.003490446
1133.8999999992975,0.61600775,-1.113467,-0.5179535,-2.1157923,-0.308374,2.1707604,0.34715328,0.039998136,0.039999966,-4.6912684,-1.8963005542755127,8.395482,-0.00720302,-0.0310162715613842,-0.0033779356
1133.9166666659642,0.6162529,-1.1135994,-0.5181595,-2.1156957,-0.30849665,2.1709988,0.3469788,0.039998133,0.039999966,-4.6881504,-1.8979021310806274,8.397114,-0.006820082,-0.02965359389781952,-0.003270059
1133.9333333326308,0.61648303,-1.1137236,-0.518353,-2.115605,-0.3086117,2.171223,0.34681505,0.03999813,0.039999966,-4.6852274,-1.899677038192749,8.398594,-0.006451964,-0.02833317220211029,-0.0031633563
1133.9499999992975,0.61669874,-1.1138402,-0.51853436,-2.1155205,-0.30871958,2.1714327,0.3466614,0.039998125,0.039999966,-4.6825485,-1.901173710823059,8.40002,-0.006097308,-0.027058767154812813,-0.003060148
1133.966666665964,0.6169007,-1.1139493,-0.5187041,-2.115442,-0.3088205,2.171629,0.34651756,0.03999812,0.039999966,-4.680177,-1.9029273986816406,8.401352,-0.0057550757,-0.025831526145339012,-0.0029609427
1133.9833333326308,0.6170893,-1.114051,-0.51886255,-2.1153677,-0.30891466,2.1718123,0.34638333,0.03999812,0.039999966,-4.677952,-1.904388666152954,8.402616,-0.0054251165,-0.02465418167412281,-0.0028672705
1133.9999999992974,0.6172649,-1.114146,-0.5190101,-2.115299,-0.30900258,2.1719832,0.34625828,0.039998118,0.039999966,-4.675776,-1.905982494354248,8.403667,-0.0051096957,-0.02351970225572586,-0.0027751608
1134.016666665964,0.6174283,-1.114234,-0.5191474,-2.115236,-0.3090842,2.172142,0.34614196,0.039998114,0.039999966,-4.6739054,-1.9074963331222534,8.404752,-0.004807716,-0.022436192259192467,-0.0026869746
1134.0333333326307,0.61758,-1.1143159,-0.51927483,-2.115176,-0.30915993,2.1722898,0.34603405,0.039998118,0.03999997,-4.672297,-1.908906102180481,8.405765,-0.004518139,-0.021409807726740837,-0.0026057847
1134.0499999992974,0.6177205,-1.1143919,-0.5193928,-2.115121,-0.30923006,2.172426,0.34593415,0.039998114,0.03999997,-4.67046,-1.9102953672409058,8.406557,-0.0042459364,-0.020421968773007393,-0.002524028
1134.066666665964,0.6178503,-1.1144621,-0.5195021,-2.1150694,-0.309295,2.172553,0.3458417,0.039998114,0.03999997,-4.6690493,-1.911629557609558,8.407453,-0.003987779,-0.019493335857987404,-0.0024486086
1134.0833333326307,0.6179702,-1.1145271,-0.51960284,-2.115022,-0.309355,2.1726694,0.34575632,0.039998107,0.039999966,-4.667711,-1.9130192995071411,8.408143,-0.003745404,-0.01861000806093216,-0.0023738325
1134.0999999992973,0.6180808,-1.1145868,-0.51969576,-2.1149778,-0.30941027,2.1727762,0.34567764,0.039998107,0.039999966,-4.6665025,-1.914297103881836,8.408857,-0.003516806,-0.017784832045435905,-0.0023046362
1134.116666665964,0.6181826,-1.1146419,-0.5197815,-2.114938,-0.30946112,2.172875,0.34560522,0.039998103,0.039999966,-4.6654873,-1.9156825542449951,8.409467,-0.0033044177,-0.017015932127833366,-0.0022408427
1134.1333333326306,0.6182762,-1.1146921,-0.51985985,-2.1149006,-0.30950794,2.1729658,0.34553853,0.039998103,0.039999966,-4.664635,-1.9169281721115112,8.410081,-0.0031076449,-0.016304846853017807,-0.0021829966
1134.1499999992973,0.61836237,-1.1147385,-0.51993227,-2.1148682,-0.309551,2.1730494,0.34547725,0.0399981,0.039999966,-4.6637936,-1.9182982444763184,8.410495,-0.0029243543,-0.015648549422621727,-0.0021274115
1134.166666665964,0.6184419,-1.114781,-0.5199987,-2.1148367,-0.30959073,2.1731265,0.34542084,0.0399981,0.039999966,-4.663258,-1.9194954633712769,8.411081,-0.0027553227,-0.015050780028104782,-0.0020809404
1134.1833333326306,0.61851496,-1.1148206,-0.52005976,-2.1148074,-0.30962712,2.1731968,0.34536898,0.0399981,0.039999966,-4.6624093,-1.9205671548843384,8.411405,-0.0025999756,-0.014495051465928555,-0.002034674
1134.1999999992972,0.6185823,-1.1148573,-0.5201163,-2.1147826,-0.30966058,2.1732626,0.34532118,0.039998095,0.039999966,-4.66165,-1.9214900732040405,8.411816,-0.0024583805,-0.013982127420604229,-0.0019930997
1134.2166666659639,0.61864424,-1.1148909,-0.5201684,-2.1147585,-0.30969146,2.173323,0.34527716,0.039998095,0.039999966,-4.6613283,-1.9225460290908813,8.412282,-0.0023271127,-0.013513131998479366,-0.001957934
1134.2333333326305,0.6187012,-1.1149215,-0.520216,-2.1147351,-0.30971992,2.173378,0.34523678,0.039998095,0.039999966,-4.6606274,-1.923243522644043,8.412572,-0.0022076005,-0.013078984804451466,-0.0019221407
1134.2499999992972,0.61875355,-1.1149501,-0.52025974,-2.1147141,-0.30974606,2.1734293,0.34519953,0.039998095,0.039999966,-4.660052,-1.9240539073944092,8.412789,-0.0020973838,-0.012678044848144054,-0.0018869814
1134.2666666659638,0.6188018,-1.1149762,-0.5203004,-2.114697,-0.3097701,2.1734767,0.34516528,0.03999809,0.039999966,-4.6595716,-1.9247881174087524,8.413112,-0.0019958774,-0.0123062739148736,-0.0018554452
1134.2833333326305,0.6188461,-1.115,-0.52033776,-2.11468,-0.3097922,2.17352,0.3451338,0.03999809,0.039999966,-4.6594505,-1.925510048866272,8.413482,-0.0019014697,-0.01197256799787283,-0.0018309256
1134.2999999992971,0.61888695,-1.1150223,-0.52037185,-2.1146638,-0.3098126,2.17356,0.34510475,0.03999809,0.039999966,-4.658952,-1.926076889038086,8.413662,-0.0018159834,-0.01166283804923296,-0.0018060195
1134.3166666659638,0.6189246,-1.1150427,-0.52040344,-2.1146479,-0.30983135,2.1735969,0.34507805,0.03999809,0.039999966,-4.658444,-1.9265886545181274,8.413849,-0.0017364544,-0.011374485678970814,-0.0017808167
1134.3333333326304,0.6189591,-1.1150612,-0.52043235,-2.1146333,-0.30984855,2.173629,0.34505352,0.03999809,0.039999966,-4.6580243,-1.9270415306091309,8.414018,-0.0016653328,-0.011104674078524113,-0.0017553389
1134.349999999297,0.618991,-1.1150792,-0.52045894,-2.114621,-0.30986446,2.173661,0.34503096,0.03999809,0.039999966,-4.6578074,-1.9275481700897217,8.414242,-0.0015993135,-0.010865574702620506,-0.001735488
1134.3666666659637,0.6190203,-1.1150945,-0.52048343,-2.1146107,-0.30987903,2.1736898,0.34501016,0.039998088,0.039999966,-4.657475,-1.9280285835266113,8.414432,-0.0015381483,-0.010634670965373516,-0.0017159232
1134.3833333326304,0.6190472,-1.1151092,-0.520506,-2.1146014,-0.30989242,2.1737144,0.34499103,0.039998088,0.039999966,-4.657527,-1.9285181760787964,8.414617,-0.001479396,-0.01043454185128212,-0.001701379
1134.399999999297,0.6190721,-1.1151233,-0.52052677,-2.114592,-0.30990475,2.1737387,0.34497342,0.039998088,0.039999966,-4.6573124,-1.9289090633392334,8.414824,-0.0014260113,-0.01025657169520855,-0.0016921263
1134.4166666659637,0.6190949,-1.115135,-0.52054584,-2.1145835,-0.3099161,2.173762,0.34495726,0.039998084,0.03999996,-4.656869,-1.9291402101516724,8.414891,-0.0013781289,-0.01008045393973589,-0.0016785066
1134.4333333326304,0.6191159,-1.1151459,-0.5205633,-2.114575,-0.30992654,2.1737823,0.3449423,0.039998088,0.039999966,-4.6568065,-1.9294981956481934,8.414943,-0.0013327899,-0.009919942356646061,-0.001663907
1134.449999999297,0.61913526,-1.1151567,-0.5205796,-2.1145663,-0.30993617,2.1737993,0.3449286,0.039998084,0.03999996,-4.656519,-1.9297370910644531,8.415065,-0.0012915096,-0.009773516096174717,-0.0016515872
1134.4666666659637,0.61915314,-1.1151669,-0.5205945,-2.1145582,-0.30994496,2.1738162,0.34491593,0.039998088,0.039999966,-4.6562595,-1.9299471378326416,8.415223,-0.0012559652,-0.009641013108193874,-0.0016411241
1134.4833333326303,0.6191694,-1.1151761,-0.5206081,-2.1145508,-0.30995318,2.173833,0.34490427,0.039998084,0.03999996,-4.6559916,-1.9301472902297974,8.415284,-0.0012234817,-0.009510805830359459,-0.0016293201
1134.499999999297,0.61918455,-1.1151837,-0.5206209,-2.114544,-0.3099607,2.1738493,0.34489357,0.039998088,0.039999966,-4.6558523,-1.9303908348083496,8.415348,-0.0011929622,-0.009388066828250885,-0.0016146387
1134.5166666659636,0.6191986,-1.1151907,-0.52063245,-2.1145382,-0.30996758,2.1738632,0.34488374,0.039998084,0.03999996,-4.655797,-1.9306000471115112,8.415389,-0.001164785,-0.009273550473153591,-0.0016005599
1134.5333333326303,0.61921126,-1.1151978,-0.52064323,-2.1145334,-0.30997404,2.1738744,0.34487468,0.039998088,0.039999966,-4.6557875,-1.930869221687317,8.415515,-0.001137151,-0.009175882674753666,-0.0015916369
1134.549999999297,0.6192232,-1.1152046,-0.52065295,-2.1145296,-0.3099798,2.1738837,0.34486637,0.039998084,0.03999996,-4.438519,-1.9340344667434692,8.288759,0.0,-0.0,0.0
1134.5666666659636,0.6192232,-1.1152046,-0.52065295,-2.1145296,-0.3099798,2.1738837,0.34486637,0.039998084,0.03999996,-4.656293,-1.9324445724487305,8.4155035,0.0,-0.0,0.0
1134.5833333326302,0.6192232,-1.1152046,-0.52065295,-2.1145296,-0.3099798,2.1738837,0.34486637,0.039998084,0.03999996,-4.656293,-1.9324445724487305,8.4155035,0.0,-0.0,0.0
1134.5999999992969,0.6192232,-1.1152046,-0.52065295,-2.1145296,-0.3099798,2.1738837,0.34486637,0.039998084,0.03999996,-4.656293,-1.9324445724487305,8.4155035,0.0,-0.0,0.0
1134.6166666659635,0.6192232,-1.1152046,-0.52065295,-2.1145296,-0.3099798,2.1738837,0.34486637,0.039998084,0.03999996,-4.656293,-1.9324445724487305,8.4155035,0.0,-0.0,0.0
1134.6333333326302,0.6192232,-1.1152046,-0.52065295,-2.1145296,-0.3099798,2.1738837,0.34486637,0.039998084,0.03999996,-4.656293,-1.9324445724487305,8.4155035,0.0,-0.0,0.0
1134.6499999992968,0.6192232,-1.1152046,-0.52065295,-2.1145296,-0.3099798,2.1738837,0.34486637,0.039998084,0.03999996,-4.656293,-1.9324445724487305,8.4155035,0.0,-0.0,0.0
1134.6666666659635,0.6192232,-1.1152046,-0.52065295,-2.1145296,-0.3099798,2.1738837,0.34486637,0.039998084,0.03999996,-4.656293,-1.9324445724487305,8.4155035,0.0,-0.0,0.0
1134.6833333326301,0.6192232,-1.1152046,-0.52065295,-2.1145296,-0.3099798,2.1738837,0.34486637,0.039998084,0.03999996,-4.656293,-1.9324445724487305,8.4155035,0.0,-0.0,0.0
1134.6999999992968,0.6192232,-1.1152046,-0.52065295,-2.1145296,-0.3099798,2.1738837,0.34486637,0.039998084,0.03999996,-4.656293,-1.9324445724487305,8.4155035,0.0,-0.0,0.0
1134.7166666659634,0.6192232,-1.1152046,-0.52065295,-2.1145296,-0.3099798,2.1738837,0.34486637,0.039998084,0.03999996,-4.656293,-1.9324445724487305,8.4155035,0.0,-0.0,0.0
1134.73333333263,0.6192232,-1.1152046,-0.52065295,-2.1145296,-0.3099798,2.1738837,0.34486637,0.039998084,0.03999996,-4.656293,-1.9324445724487305,8.4155035,0.0,-0.0,0.0
1134.7499999992967,0.6192232,-1.1152046,-0.52065295,-2.1145296,-0.3099798,2.1738837,0.34486637,0.039998084,0.03999996,-4.656293,-1.9324445724487305,8.4155035,0.0,-0.0,0.0
1134.7666666659634,0.6192232,-1.1152046,-0.52065295,-2.1145296,-0.3099798,2.1738837,0.34486637,0.039998084,0.03999996,-4.656293,-1.9324445724487305,8.4155035,0.0,-0.0,0.0
1134.78333333263,0.6192232,-1.1152046,-0.52065295,-2.1145296,-0.3099798,2.1738837,0.34486637,0.039998084,0.03999996,-4.656293,-1.9324445724487305,8.4155035,0.0,-0.0,0.0
1134.7999999992967,0.6192232,-1.1152046,-0.52065295,-2.1145296,-0.3099798,2.1738837,0.34486637,0.039998084,0.03999996,-4.656293,-1.9324445724487305,8.4155035,0.0,-0.0,0.0
1134.8166666659633,0.6192232,-1.1152046,-0.52065295,-2.1145296,-0.3099798,2.1738837,0.34486637,0.039998084,0.03999996,-4.656293,-1.9324445724487305,8.4155035,0.0,-0.0,0.0
1134.83333333263,0.6192232,-1.1152046,-0.52065295,-2.1145296,-0.3099798,2.1738837,0.34486637,0.039998084,0.03999996,-4.656293,-1.9324445724487305,8.4155035,0.0,-0.0,0.0
1134.8499999992966,0.6192232,-1.1152046,-0.52065295,-2.1145296,-0.3099798,2.1738837,0.34486637,0.039998084,0.03999996,-4.656293,-1.9324445724487305,8.4155035,0.0,-0.0,0.0
1134.8666666659633,0.6192232,-1.1152046,-0.52065295,-2.1145296,-0.3099798,2.1738837,0.34486637,0.039998084,0.03999996,-4.656293,-1.9324445724487305,8.4155035,0.0,-0.0,0.0
1134.88333333263,0.6192232,-1.1152046,-0.52065295,-2.1145296,-0.3099798,2.1738837,0.34486637,0.039998084,0.03999996,-4.656293,-1.9324445724487305,8.4155035,0.0,-0.0,0.0
1134.8999999992966,0.6192232,-1.1152046,-0.52065295,-2.1145296,-0.3099798,2.1738837,0.34486637,0.039998084,0.03999996,-4.656293,-1.9324445724487305,8.4155035,0.0,-0.0,0.0
1134.9166666659632,0.6192232,-1.1152046,-0.52065295,-2.1145296,-0.3099798,2.1738837,0.34486637,0.039998084,0.03999996,-4.656293,-1.9324445724487305,8.4155035,0.0,-0.0,0.0
1134.93333333263,0.6192232,-1.1152046,-0.52065295,-2.1145296,-0.3099798,2.1738837,0.34486637,0.039998084,0.03999996,-4.656293,-1.9324445724487305,8.4155035,0.0,-0.0,0.0
1134.9499999992966,0.6192232,-1.1152046,-0.52065295,-2.1145296,-0.3099798,2.1738837,0.34486637,0.039998084,0.03999996,-4.656293,-1.9324445724487305,8.4155035,0.0,-0.0,0.0
1134.9666666659632,0.6192232,-1.1152046,-0.52065295,-2.1145296,-0.3099798,2.1738837,0.34486637,0.039998084,0.03999996,-4.656293,-1.9324445724487305,8.4155035,0.0,-0.0,0.0
1134.9833333326299,0.6192232,-1.1152046,-0.52065295,-2.1145296,-0.3099798,2.1738837,0.34486637,0.039998084,0.03999996,-4.656293,-1.9324445724487305,8.4155035,0.0,-0.0,0.0
1134.9999999992965,0.6192232,-1.1152046,-0.52065295,-2.1145296,-0.3099798,2.1738837,0.34486637,0.039998084,0.03999996,-4.656293,-1.9324445724487305,8.4155035,0.0,-0.0,0.0
1135.0166666659632,0.6192232,-1.1152046,-0.52065295,-2.1145296,-0.3099798,2.1738837,0.34486637,0.039998084,0.03999996,-4.656293,-1.9324445724487305,8.4155035,0.0,-0.0,0.0
1135.0333333326298,0.6192232,-1.1152046,-0.52065295,-2.1145296,-0.3099798,2.1738837,0.34486637,0.039998084,0.03999996,-4.656293,-1.9324445724487305,8.4155035,0.0,-0.0,0.0
1135.0499999992965,0.6192232,-1.1152046,-0.52065295,-2.1145296,-0.3099798,2.1738837,0.34486637,0.039998084,0.03999996,-4.656293,-1.9324445724487305,8.4155035,0.0,-0.0,0.0
1135.066666665963,0.6192232,-1.1152046,-0.52065295,-2.1145296,-0.3099798,2.1738837,0.34486637,0.039998084,0.03999996,-4.656293,-1.9324445724487305,8.4155035,0.0,-0.0,0.0
1135.0833333326298,0.6192232,-1.1152046,-0.52065295,-2.1145296,-0.3099798,2.1738837,0.34486637,0.039998084,0.03999996,-4.656293,-1.9324445724487305,8.4155035,0.0,-0.0,0.0
1135.0999999992964,0.6192232,-1.1152046,-0.52065295,-2.1145296,-0.3099798,2.1738837,0.34486637,0.039998084,0.03999996,-4.656293,-1.9324445724487305,8.4155035,0.0,-0.0,0.0
1135.116666665963,0.6192232,-1.1152046,-0.52065295,-2.1145296,-0.3099798,2.1738837,0.34486637,0.039998084,0.03999996,-4.656293,-1.9324445724487305,8.4155035,0.0,-0.0,0.0
1135.1333333326297,0.6192232,-1.1152046,-0.52065295,-2.1145296,-0.3099798,2.1738837,0.34486637,0.039998084,0.03999996,-4.656293,-1.9324445724487305,8.4155035,0.0,-0.0,0.0
1135.1499999992964,0.6192232,-1.1152046,-0.52065295,-2.1145296,-0.3099798,2.1738837,0.34486637,0.039998084,0.03999996,-4.656293,-1.9324445724487305,8.4155035,0.0,-0.0,0.0
1135.166666665963,0.6192232,-1.1152046,-0.52065295,-2.1145296,-0.3099798,2.1738837,0.34486637,0.039998084,0.03999996,-4.656293,-1.9324445724487305,8.4155035,0.0,-0.0,0.0
1135.1833333326297,0.6192232,-1.1152046,-0.52065295,-2.1145296,-0.3099798,2.1738837,0.34486637,0.039998084,0.03999996,-4.656293,-1.9324445724487305,8.4155035,0.0,-0.0,0.0
1135.1999999992963,0.6192232,-1.1152046,-0.52065295,-2.1145296,-0.3099798,2.1738837,0.34486637,0.039998084,0.03999996,-4.656293,-1.9324445724487305,8.4155035,0.0,-0.0,0.0
1135.216666665963,0.6192232,-1.1152046,-0.52065295,-2.1145296,-0.3099798,2.1738837,0.34486637,0.039998084,0.03999996,-4.656293,-1.9324445724487305,8.4155035,0.0,-0.0,0.0
1135.2333333326296,0.6192232,-1.1152046,-0.52065295,-2.1145296,-0.3099798,2.1738837,0.34486637,0.039998084,0.03999996,-4.656293,-1.9324445724487305,8.4155035,0.0,-0.0,0.0
1135.2499999992963,0.6192232,-1.1152046,-0.52065295,-2.1145296,-0.3099798,2.1738837,0.34486637,0.039998084,0.03999996,-4.656293,-1.9324445724487305,8.4155035,0.0,-0.0,0.0
1135.266666665963,0.6192232,-1.1152046,-0.52065295,-2.1145296,-0.3099798,2.1738837,0.34486637,0.039998084,0.03999996,-4.656293,-1.9324445724487305,8.4155035,0.0,-0.0,0.0
1135.2833333326296,0.6192232,-1.1152046,-0.52065295,-2.1145296,-0.3099798,2.1738837,0.34486637,0.039998084,0.03999996,-4.656293,-1.9324445724487305,8.4155035,0.0,-0.0,0.0
1135.2999999992962,0.6192232,-1.1152046,-0.52065295,-2.1145296,-0.3099798,2.1738837,0.34486637,0.039998084,0.03999996,-4.656293,-1.9324445724487305,8.4155035,0.0,-0.0,0.0
1135.3166666659629,0.6192232,-1.1152046,-0.52065295,-2.1145296,-0.3099798,2.1738837,0.34486637,0.039998084,0.03999996,-4.656293,-1.9324445724487305,8.4155035,0.0,-0.0,0.0
1135.3333333326295,0.6192232,-1.1152046,-0.52065295,-2.1145296,-0.3099798,2.1738837,0.34486637,0.039998084,0.03999996,-4.656293,-1.9324445724487305,8.4155035,0.0,-0.0,0.0
1135.3499999992962,0.6192232,-1.1152046,-0.52065295,-2.1145296,-0.3099798,2.1738837,0.34486637,0.039998084,0.03999996,-4.656293,-1.9324445724487305,8.4155035,0.0,-0.0,0.0
1135.3666666659628,0.6192232,-1.1152046,-0.52065295,-2.1145296,-0.3099798,2.1738837,0.34486637,0.039998084,0.03999996,-4.656293,-1.9324445724487305,8.4155035,0.0,-0.0,0.0
1135.3833333326295,0.6192232,-1.1152046,-0.52065295,-2.1145296,-0.3099798,2.1738837,0.34486637,0.039998084,0.03999996,-4.656293,-1.9324445724487305,8.4155035,0.0,-0.0,0.0
1135.3999999992961,0.6192232,-1.1152046,-0.52065295,-2.1145296,-0.3099798,2.1738837,0.34486637,0.039998084,0.03999996,-4.656293,-1.9324445724487305,8.4155035,0.0,-0.0,0.0
1135.4166666659628,0.6192232,-1.1152046,-0.52065295,-2.1145296,-0.3099798,2.1738837,0.34486637,0.039998084,0.03999996,-4.656293,-1.9324445724487305,8.4155035,0.0,-0.0,0.0
1135.4333333326294,0.6192232,-1.1152046,-0.52065295,-2.1145296,-0.3099798,2.1738837,0.34486637,0.039998084,0.03999996,-4.656293,-1.9324445724487305,8.4155035,0.0,-0.0,0.0
1135.449999999296,0.6192232,-1.1152046,-0.52065295,-2.1145296,-0.3099798,2.1738837,0.34486637,0.039998084,0.03999996,-4.656293,-1.9324445724487305,8.4155035,0.0,-0.0,0.0
1135.4666666659627,0.6192232,-1.1152046,-0.52065295,-2.1145296,-0.3099798,2.1738837,0.34486637,0.039998084,0.03999996,-4.656293,-1.9324445724487305,8.4155035,0.0,-0.0,0.0
1135.4833333326294,0.6192232,-1.1152046,-0.52065295,-2.1145296,-0.3099798,2.1738837,0.34486637,0.039998084,0.03999996,-4.656293,-1.9324445724487305,8.4155035,0.0,-0.0,0.0
1135.499999999296,0.6192232,-1.1152046,-0.52065295,-2.1145296,-0.3099798,2.1738837,0.34486637,0.039998084,0.03999996,-4.656293,-1.9324445724487305,8.4155035,0.0,-0.0,0.0
1135.5166666659627,0.6192232,-1.1152046,-0.52065295,-2.1145296,-0.3099798,2.1738837,0.34486637,0.039998084,0.03999996,-4.656293,-1.9324445724487305,8.4155035,0.0,-0.0,0.0
1135.5333333326294,0.6192232,-1.1152046,-0.52065295,-2.1145296,-0.3099798,2.1738837,0.34486637,0.039998084,0.03999996,-4.656293,-1.9324445724487305,8.4155035,0.0,-0.0,0.0
1135.549999999296,0.6192232,-1.1152046,-0.52065295,-2.1145296,-0.3099798,2.1738837,0.34486637,0.039998084,0.03999996,-4.656293,-1.9324445724487305,8.4155035,0.0,-0.0,0.0
1135.5666666659627,0.6192232,-1.1152046,-0.52065295,-2.1145296,-0.3099798,2.1738837,0.34486637,0.039998084,0.03999996,-4.656293,-1.9324445724487305,8.4155035,0.0,-0.0,0.0
1135.5833333326293,0.6192232,-1.1152046,-0.52065295,-2.1145296,-0.3099798,2.1738837,0.34486637,0.039998084,0.03999996,-4.656293,-1.9324445724487305,8.4155035,0.0,-0.0,0.0
1135.599999999296,0.6192232,-1.1152046,-0.52065295,-2.1145296,-0.3099798,2.1738837,0.34486637,0.039998084,0.03999996,-4.656293,-1.9324445724487305,8.4155035,0.0,-0.0,0.0
1135.6166666659626,0.6192232,-1.1152046,-0.52065295,-2.1145296,-0.3099798,2.1738837,0.34486637,0.039998084,0.03999996,-4.656293,-1.9324445724487305,8.4155035,0.0,-0.0,0.0
1135.6333333326293,0.6192232,-1.1152046,-0.52065295,-2.1145296,-0.3099798,2.1738837,0.34486637,0.039998084,0.03999996,-4.656293,-1.9324445724487305,8.4155035,0.0,-0.0,0.0
1135.649999999296,0.6192232,-1.1152046,-0.52065295,-2.1145296,-0.3099798,2.1738837,0.34486637,0.039998084,0.03999996,-4.656293,-1.9324445724487305,8.4155035,0.0,-0.0,0.0
1135.6666666659626,0.6192232,-1.1152046,-0.52065295,-2.1145296,-0.3099798,2.1738837,0.34486637,0.039998084,0.03999996,-4.656293,-1.9324445724487305,8.4155035,0.0,-0.0,0.0
1135.6833333326292,0.6192232,-1.1152046,-0.52065295,-2.1145296,-0.3099798,2.1738837,0.34486637,0.039998084,0.03999996,-4.656293,-1.9324445724487305,8.4155035,0.0,-0.0,0.0
1135.6999999992959,0.6192232,-1.1152046,-0.52065295,-2.1145296,-0.3099798,2.1738837,0.34486637,0.039998084,0.03999996,-4.656293,-1.9324445724487305,8.4155035,0.0,-0.0,0.0
1135.7166666659625,0.6192232,-1.1152046,-0.52065295,-2.1145296,-0.3099798,2.1738837,0.34486637,0.039998084,0.03999996,-4.656293,-1.9324445724487305,8.4155035,0.0,-0.0,0.0
1135.7333333326292,0.6192232,-1.1152046,-0.52065295,-2.1145296,-0.3099798,2.1738837,0.34486637,0.039998084,0.03999996,-4.656293,-1.9324445724487305,8.4155035,0.0,-0.0,0.0
1135.7499999992958,0.6192232,-1.1152046,-0.52065295,-2.1145296,-0.3099798,2.1738837,0.34486637,0.039998084,0.03999996,-4.656293,-1.9324445724487305,8.4155035,0.0,-0.0,0.0
1135.7666666659625,0.6192232,-1.1152046,-0.52065295,-2.1145296,-0.3099798,2.1738837,0.34486637,0.039998084,0.03999996,-4.656293,-1.9324445724487305,8.4155035,0.0,-0.0,0.0
1135.7833333326291,0.6192232,-1.1152046,-0.52065295,-2.1145296,-0.3099798,2.1738837,0.34486637,0.039998084,0.03999996,-4.656293,-1.9324445724487305,8.4155035,0.0,-0.0,0.0
1135.7999999992958,0.6192232,-1.1152046,-0.52065295,-2.1145296,-0.3099798,2.1738837,0.34486637,0.039998084,0.03999996,-4.656293,-1.9324445724487305,8.4155035,0.0,-0.0,0.0
1135.8166666659624,0.6192232,-1.1152046,-0.52065295,-2.1145296,-0.3099798,2.1738837,0.34486637,0.039998084,0.03999996,-4.656293,-1.9324445724487305,8.4155035,0.0,-0.0,0.0
1135.833333332629,0.6192232,-1.1152046,-0.52065295,-2.1145296,-0.3099798,2.1738837,0.34486637,0.039998084,0.03999996,-4.656293,-1.9324445724487305,8.4155035,0.0,-0.0,0.0
1135.8499999992957,0.6192232,-1.1152046,-0.52065295,-2.1145296,-0.3099798,2.1738837,0.34486637,0.039998084,0.03999996,-4.656293,-1.9324445724487305,8.4155035,0.0,-0.0,0.0
1135.8666666659624,0.6192232,-1.1152046,-0.52065295,-2.1145296,-0.3099798,2.1738837,0.34486637,0.039998084,0.03999996,-4.656293,-1.9324445724487305,8.4155035,0.0,-0.0,0.0
1135.883333332629,0.6192232,-1.1152046,-0.52065295,-2.1145296,-0.3099798,2.1738837,0.34486637,0.039998084,0.03999996,-4.656293,-1.9324445724487305,8.4155035,0.0,-0.0,0.0
1135.8999999992957,0.6192232,-1.1152046,-0.52065295,-2.1145296,-0.3099798,2.1738837,0.34486637,0.039998084,0.03999996,-4.656293,-1.9324445724487305,8.4155035,0.0,-0.0,0.0
1135.9166666659623,0.6192232,-1.1152046,-0.52065295,-2.1145296,-0.3099798,2.1738837,0.34486637,0.039998084,0.03999996,-4.656293,-1.9324445724487305,8.4155035,0.0,-0.0,0.0
1135.933333332629,0.6192232,-1.1152046,-0.52065295,-2.1145296,-0.3099798,2.1738837,0.34486637,0.039998084,0.03999996,-4.656293,-1.9324445724487305,8.4155035,0.0,-0.0,0.0
1135.9499999992956,0.6192232,-1.1152046,-0.52065295,-2.1145296,-0.3099798,2.1738837,0.34486637,0.039998084,0.03999996,-4.656293,-1.9324445724487305,8.4155035,0.0,-0.0,0.0
1135.9666666659623,0.6192232,-1.1152046,-0.52065295,-2.1145296,-0.3099798,2.1738837,0.34486637,0.039998084,0.03999996,-4.656293,-1.9324445724487305,8.4155035,0.0,-0.0,0.0
1135.983333332629,0.6192232,-1.1152046,-0.52065295,-2.1145296,-0.3099798,2.1738837,0.34486637,0.039998084,0.03999996,-4.656293,-1.9324445724487305,8.4155035,0.0,-0.0,0.0
1135.9999999992956,0.6192232,-1.1152046,-0.52065295,-2.1145296,-0.3099798,2.1738837,0.34486637,0.039998084,0.03999996,-4.656293,-1.9324445724487305,8.4155035,0.0,-0.0,0.0
1136.0166666659622,0.6192232,-1.1152046,-0.52065295,-2.1145296,-0.3099798,2.1738837,0.34486637,0.039998084,0.03999996,-4.656293,-1.9324445724487305,8.4155035,0.0,-0.0,0.0
1136.033333332629,0.6192232,-1.1152046,-0.52065295,-2.1145296,-0.3099798,2.1738837,0.34486637,0.039998084,0.03999996,-4.656293,-1.9324445724487305,8.4155035,0.0,-0.0,0.0
1136.0499999992956,0.6192232,-1.1152046,-0.52065295,-2.1145296,-0.3099798,2.1738837,0.34486637,0.039998084,0.03999996,-4.656293,-1.9324445724487305,8.4155035,0.0,-0.0,0.0
1136.0666666659622,0.6192232,-1.1152046,-0.52065295,-2.1145296,-0.3099798,2.1738837,0.34486637,0.039998084,0.03999996,-4.656293,-1.9324445724487305,8.4155035,0.0,-0.0,0.0
1136.0833333326289,0.6192232,-1.1152046,-0.52065295,-2.1145296,-0.3099798,2.1738837,0.34486637,0.039998084,0.03999996,-4.656293,-1.9324445724487305,8.4155035,0.0,-0.0,0.0
1136.0999999992955,0.6192232,-1.1152046,-0.52065295,-2.1145296,-0.3099798,2.1738837,0.34486637,0.039998084,0.03999996,-4.656293,-1.9324445724487305,8.4155035,0.0,-0.0,0.0
1136.1166666659622,0.6192232,-1.1152046,-0.52065295,-2.1145296,-0.3099798,2.1738837,0.34486637,0.039998084,0.03999996,-4.656293,-1.9324445724487305,8.4155035,0.0,-0.0,0.0
1136.1333333326288,0.6192232,-1.1152046,-0.52065295,-2.1145296,-0.3099798,2.1738837,0.34486637,0.039998084,0.03999996,-4.656293,-1.9324445724487305,8.4155035,0.0,-0.0,0.0
1136.1499999992955,0.6192232,-1.1152046,-0.52065295,-2.1145296,-0.3099798,2.1738837,0.34486637,0.039998084,0.03999996,-4.656293,-1.9324445724487305,8.4155035,0.0,-0.0,0.0
