rsonawane2002/My_IMU/logs_2/traj_507/imu_400hz_507.csv
time,j1,j2,j3,j4,j5,j6,j7,gripper1,gripper2,imu_ax,imu_ay,imu_az,imu_gx,imu_gy,imu_gz
0.0,0.00016700293,-0.785875,4.0107683e-05,-2.3551247,9.29385e-05,1.570997,0.786,0.04,0.04,-9.565031,-0.001391225727275,0.07093828,-3.783543e-07,-0.0011641273740679,6.94722e-07
0.0025,0.00016700497299999996,-0.7858577740000002,4.010723405000001e-05,-2.35513919,9.294280799999995e-05,1.570996565,0.786,0.04,0.04,-9.605449099999484,-0.0010886828182303672,0.06165625030011819,-4.474081724991207e-07,-0.0013251610565909995,7.412814749994071e-07
0.005,0.00016700701599999993,-0.7858405480000005,4.010678510000001e-05,-2.35515368,9.294711599999989e-05,1.57099613,0.786,0.04,0.04,-9.645867199998971,-0.0007861399091857346,0.05237422060023638,-5.164620449982415e-07,-0.001486194739114099,7.878409499988143e-07
0.0075,0.00016700905899999993,-0.7858233220000007,4.010633615000002e-05,-2.35516817,9.295142399999984e-05,1.5709956950000001,0.786,0.04,0.04,-9.686285299998456,-0.00048359700014110186,0.04309219090035457,-5.855159174973623e-07,-0.0016472284216371986,8.344004249982214e-07
0.01,0.0001670111019999999,-0.785806096000001,4.0105887200000026e-05,-2.3551826599999997,9.295573199999978e-05,1.5709952600000001,0.786,0.04,0.04,-9.726703399997941,-0.00018105409109646906,0.033810161200472755,-6.54569789996483e-07,-0.0018082621041602982,8.809598999976285e-07
0.0125,0.00016701314499999986,-0.7857888700000011,4.010543825000003e-05,-2.355197149999999,9.296003999999972e-05,1.570994825,0.786,0.04,0.04,-9.767121499997428,0.00012148881794816374,0.02452813150059094,-7.236236624956038e-07,-0.001969295786683398,9.275193749970357e-07
0.015,0.00016701518799999983,-0.7857716440000013,4.0104989300000035e-05,-2.355211639999999,9.296434799999967e-05,1.57099439,0.786,0.04,0.04,-9.807539599996913,0.0004240317269927963,0.015246101800709129,-7.926775349947244e-07,-0.0021303294692064973,9.740788499964427e-07
0.0175,0.00016702093299999883,-0.7857548620000014,4.0101098000000965e-05,-2.355225734999999,9.296617100000027e-05,1.57099396,0.786,0.04,0.04,-9.834368700000033,0.0006243883690334029,0.008989325670018386,-1.0739710774370946e-06,-0.0022869123727882372,1.0312647949930087e-06
0.02,0.00016703408199999866,-0.7857389680000016,4.0090322000001096e-05,-2.355239039999999,9.296302400000032e-05,1.5709935400000001,0.786,0.04,0.04,-9.834019800000036,0.0006203724769878891,0.008783056680021011,-1.7797439599281075e-06,-0.0024345937184838567,1.1097036799920099e-06
0.0225,0.00016704723099999848,-0.7857230740000019,4.0079546000001234e-05,-2.3552523449999985,9.295987700000036e-05,1.57099312,0.786,0.04,0.04,-9.83367090000004,0.0006163565849423752,0.008576787690023638,-2.4855168424191204e-06,-0.002582275064179476,1.1881425649910111e-06
0.025,0.00016706037999999834,-0.7857071800000021,4.006877000000137e-05,-2.3552656499999984,9.29567300000004e-05,1.5709927000000001,0.786,0.04,0.04,-9.833322000000045,0.0006123406928968614,0.008370518700026265,-3.191289724910134e-06,-0.002729956409875096,1.2665814499900123e-06
0.0275,0.00016707352899999816,-0.7856912860000023,4.005799400000151e-05,-2.355278954999998,9.295358300000044e-05,1.57099228,0.786,0.04,0.04,-9.83297310000005,0.0006083248008513475,0.00816424971002889,-3.897062607401148e-06,-0.0028776377555707155,1.3450203349890136e-06
0.03,0.000167086677999998,-0.7856753920000024,4.004721800000165e-05,-2.355292259999998,9.295043600000048e-05,1.5709918600000001,0.786,0.04,0.04,-9.832624200000055,0.0006043089088058337,0.007957980720031517,-4.602835489892161e-06,-0.003025319101266335,1.4234592199880148e-06
0.0325,0.00016709982699999784,-0.7856594980000026,4.003644200000178e-05,-2.3553055649999974,9.294728900000053e-05,1.57099144,0.786,0.04,0.04,-9.832275300000058,0.0006002930167603197,0.007751711730034144,-5.308608372383174e-06,-0.003173000446961955,1.501898104987016e-06
0.035,0.00016713241799999246,-0.7856444400000026,4.0007542400006763e-05,-2.3553180999999976,9.293147640000395e-05,1.57099101,0.786,0.04,0.04,-9.831998900000043,0.0005931395397071248,0.007540960260037968,-6.815508099659976e-06,-0.003312069969227717,1.5906474799832604e-06
0.0375,0.00016717472999999193,-0.7856298000000028,3.996958100000725e-05,-2.3553302499999975,9.290933100000423e-05,1.5709905750000002,0.786,0.04,0.04,-9.831758750000047,0.0005844172701488909,0.007327967550040681,-8.722971249635685e-06,-0.003446833579775261,1.6845520999820647e-06
0.04,0.0001672170419999914,-0.785615160000003,3.993161960000773e-05,-2.3553423999999974,9.288718560000452e-05,1.5709901400000001,0.786,0.04,0.04,-9.831518600000049,0.000575695000590657,0.007114974840043392,-1.06304343996114e-05,-0.003581597190322805,1.778456719980869e-06
0.0425,0.00016725935399999084,-0.7856005200000031,3.9893658200008215e-05,-2.3553545499999973,9.28650402000048e-05,1.5709897050000001,0.786,0.04,0.04,-9.831278450000053,0.000566972731032423,0.006901982130046104,-1.2537897549587112e-05,-0.0037163608008703494,1.8723613399796735e-06
0.045,0.0001673016659999903,-0.7855858800000034,3.9855696800008694e-05,-2.355366699999997,9.284289480000508e-05,1.57098927,0.786,0.04,0.04,-9.831038300000055,0.0005582504614741891,0.006688989420048816,-1.4445360699562822e-05,-0.003851124411417893,1.9662659599784776e-06
0.0475,0.00016734397799998978,-0.7855712400000036,3.981773540000918e-05,-2.355378849999997,9.282074940000536e-05,1.570988835,0.786,0.04,0.04,-9.830798150000058,0.0005495281919159552,0.006475996710051528,-1.6352823849538535e-05,-0.003985888021965437,2.0601705799772824e-06
0.05,0.00016738628999998922,-0.7855566000000038,3.977977400000967e-05,-2.355390999999997,9.279860400000564e-05,1.5709884,0.786,0.04,0.04,-9.83055800000006,0.0005408059223577212,0.00626300400005424,-1.826028699951425e-05,-0.004120651632512981,2.1540751999760867e-06
0.0525,0.000167483543999974,-0.7855431000000036,3.969049745002387e-05,-2.355402129999997,9.274238940001503e-05,1.5709879800000002,0.786,0.04,0.03999999925,-9.830274050000076,0.0005285870196563122,0.006088686150046612,-2.188571904903059e-05,-0.004242419660990085,2.3862052549379305e-06
0.055,0.00016758079799997276,-0.7855296000000038,3.9601220900025007e-05,-2.3554132599999966,9.268617480001574e-05,1.57098756,0.786,0.04,0.0399999985,-9.82999010000008,0.0005163681169540128,0.005914368300048831,-2.5511151098984426e-05,-0.0043641876894638795,2.618335309934975e-06
0.0575,0.0001676780519999715,-0.7855161000000039,3.9511944350026144e-05,-2.3554243899999965,9.262996020001646e-05,1.5709871400000002,0.786,0.04,0.03999999775,-9.829706150000083,0.0005041492142517134,0.00574005045005105,-2.913658314893827e-05,-0.004485955717937674,2.8504653649320194e-06
0.06,0.0001677753059999703,-0.7855026000000042,3.942266780002728e-05,-2.3554355199999963,9.257374560001717e-05,1.57098672,0.786,0.04,0.039999997,-9.829422200000087,0.000491930311549414,0.00556573260005327,-3.27620151988921e-05,-0.004607723746411468,3.082595419929063e-06
0.0625,0.00016787255999996904,-0.7854891000000043,3.933339125002842e-05,-2.355446649999996,9.251753100001789e-05,1.5709863000000002,0.786,0.04,0.03999999625,-9.82913825000009,0.00047971140884711454,0.00539141475005549,-3.638744724884594e-05,-0.004729491774885263,3.3147254749261074e-06
0.065,0.0001679698139999678,-0.7854756000000045,3.924411470002956e-05,-2.355457779999996,9.24613164000186e-05,1.57098588,0.786,0.04,0.0399999955,-9.828854300000096,0.00046749250614481515,0.005217096900057709,-4.001287929879978e-05,-0.004851259803359058,3.5468555299231522e-06
0.0675,0.00016809628349993643,-0.7854624300000043,3.9127497450058894e-05,-2.3554685399999964,9.23862220000388e-05,1.5709854550000002,0.7859999050000002,0.04,0.039999995,-9.828565425000104,0.0004542172289854802,0.005052388450050018,-4.44059600979619e-05,-0.004968925914689448,3.749411619950698e-06
0.07,0.00016828118399993407,-0.7854499200000045,3.895619880006107e-05,-2.3554785599999963,9.227336800004023e-05,1.5709850200000002,0.7859996200000001,0.04,0.039999995,-9.828266700000107,0.00043882920290884615,0.00490689880005187,-5.0334338397886416e-05,-0.005078388191720495,3.892819779948872e-06
0.0725,0.00016846608449993172,-0.7854374100000047,3.878490015006325e-05,-2.3554885799999963,9.216051400004167e-05,1.5709845850000002,0.7859993350000002,0.04,0.039999995,-9.82796797500011,0.00042344117683221216,0.004761409150053723,-5.6262716697810905e-05,-0.00518785046875154,4.036227939947046e-06
0.075,0.00016865098499992937,-0.7854249000000048,3.861360150006543e-05,-2.3554985999999962,9.204766000004311e-05,1.5709841500000001,0.7859990500000001,0.04,0.039999995,-9.827669250000115,0.00040805315075557807,0.0046159195000555755,-6.219109499773543e-05,-0.005297312745782587,4.17963609994522e-06
0.0775,0.000168835885499927,-0.785412390000005,3.844230285006762e-05,-2.355508619999996,9.193480600004454e-05,1.5709837150000001,0.7859987650000001,0.04,0.039999995,-9.827370525000118,0.000392665124678944,0.004470429850057428,-6.811947329765995e-05,-0.005406775022813633,4.323044259943394e-06
0.08,0.00016902078599992468,-0.785399880000005,3.8271004200069796e-05,-2.355518639999996,9.182195200004599e-05,1.5709832800000003,0.7859984800000002,0.04,0.039999995,-9.827071800000121,0.0003772770986023099,0.00432494020005928,-7.404785159758446e-05,-0.00551623729984468,4.4664524199415676e-06
0.0825,0.00016920568649992233,-0.7853873700000052,3.8099705550071975e-05,-2.355528659999996,9.170909800004742e-05,1.5709828450000003,0.7859981950000001,0.04,0.039999995,-9.826773075000126,0.00036188907252567584,0.004179450550061132,-7.997622989750898e-05,-0.005625699576875726,4.6098605799397415e-06
0.085,0.0001694749879998595,-0.7853754900000052,3.784933240013078e-05,-2.355538479999996,9.154059040008857e-05,1.5709824100000003,0.7859979100000002,0.04,0.0399999955,-9.826513450000109,0.0003430491837299474,0.004025941360071058,-8.688749639666059e-05,-0.005726528540210063,4.7027429099694965e-06
0.08750000000000001,0.00016978648999984702,-0.7853639250000056,3.755942200014238e-05,-2.3555481999999954,9.134425600009643e-05,1.5709819750000003,0.7859976250000001,0.04,0.03999999625,-9.826273375000119,0.0003224833635713754,0.0038684224000773613,-9.429020699636436e-05,-0.0058230408466878,4.77036232496679e-06
0.09,0.00017009799199983457,-0.7853523600000061,3.726951160015398e-05,-2.355557919999995,9.114792160010428e-05,1.5709815400000002,0.7859973400000002,0.04,0.039999997,-9.826033300000127,0.0003019175434128035,0.003710903440083666,-0.00010169291759606809,-0.005919553153165538,4.8379817399640845e-06
0.0925,0.0001704094939998221,-0.7853407950000065,3.6979601200165585e-05,-2.3555676399999945,9.095158720011213e-05,1.5709811050000002,0.7859970550000002,0.04,0.03999999775,-9.825793225000137,0.00028135172325423146,0.0035533844800899692,-0.00010909562819577185,-0.006016065459643276,4.905601154961378e-06
0.095,0.0001707209959998096,-0.7853292300000071,3.668969080017719e-05,-2.355577359999994,9.075525280012e-05,1.5709806700000002,0.7859967700000002,0.04,0.0399999985,-9.825553150000147,0.00026078590309565943,0.0033958655200962726,-0.00011649833879547562,-0.006112577766121014,4.973220569958672e-06
0.0975,0.00017103249799979716,-0.7853176650000075,3.639978040018879e-05,-2.3555870799999936,9.055891840012785e-05,1.5709802350000002,0.7859964850000002,0.04,0.03999999925,-9.825313075000157,0.0002402200829370874,0.003238346560102576,-0.0001239010493951794,-0.006209090072598751,5.040839984955967e-06
0.1,0.00017134399999978468,-0.785306100000008,3.610987000020039e-05,-2.355596799999993,9.036258400013571e-05,1.5709798000000001,0.7859962000000003,0.04,0.04,-9.825073000000165,0.00021965426277851537,0.0030808276001088796,-0.00013130375999488315,-0.006305602379076489,5.108459399953261e-06
0.10250000000000001,0.00017182653199968666,-0.785295307500007,3.5659420450292514e-05,-2.3556055299999943,9.005749390019812e-05,1.5709793650000001,0.7859959150000002,0.04,0.03999999925,-9.824909650000105,0.0001994670558036336,0.002952249910083495,-0.00014201566649304394,-0.006393037363830012,5.458275839772838e-06
0.105,0.00017230906399970684,-0.7852845150000065,3.520897090027367e-05,-2.3556142599999945,8.975240380018535e-05,1.57097893,0.7859956300000002,0.04,0.0399999985,-9.824746300000099,0.00017927984882901363,0.0028236722200781165,-0.00015272757299349205,-0.006480472348577259,5.808092279787471e-06
0.1075,0.00017279159599972702,-0.785273722500006,3.4758521350254826e-05,-2.355622989999995,8.94473137001726e-05,1.5709784950000003,0.7859953450000002,0.04,0.03999999775,-9.824582950000092,0.00015909264185439356,0.0026950945300727373,-0.00016343947949394022,-0.006567907333324507,6.157908719802106e-06
0.11,0.0001732741279997472,-0.7852629300000057,3.4308071800235974e-05,-2.3556317199999954,8.914222360015983e-05,1.5709780600000003,0.7859950600000002,0.04,0.039999997,-9.824419600000086,0.00013890543487977348,0.0025665168400673577,-0.00017415138599438836,-0.006655342318071755,6.507725159816742e-06
0.1125,0.0001737566599997674,-0.7852521375000052,3.385762225021713e-05,-2.3556404499999957,8.883713350014707e-05,1.5709776250000003,0.7859947750000001,0.04,0.03999999625,-9.824256250000078,0.0001187182279051534,0.0024379391500619785,-0.00018486329249483652,-0.0067427773028190035,6.857541599831378e-06
0.115,0.0001742391919997876,-0.7852413450000048,3.3407172700198286e-05,-2.3556491799999963,8.85320434001343e-05,1.5709771900000002,0.7859944900000002,0.04,0.0399999955,-9.824092900000071,9.853102093053333e-05,0.002309361460056599,-0.00019557519899528468,-0.006830212287566252,7.207358039846013e-06
0.11750000000000001,0.00017479522899970713,-0.7852308005000042,3.288767615027392e-05,-2.355657584999997,8.817947700018642e-05,1.5709767500000003,0.7859941100000003,0.04,0.039999995,-9.823898100000108,7.683810546160612e-05,0.0021822057350517816,-0.00020754494149396617,-0.0069135054247140655,7.5334849998838885e-06
0.12,0.0001754982759996982,-0.7852207520000043,3.223008560028229e-05,-2.3556653399999967,8.773195800019212e-05,1.5709763,0.7859935400000003,0.04,0.039999995,-9.82364040000011,5.2133772998477514e-05,0.002057893940053365,-0.00022203035599378164,-0.00698851486664764,7.812232999880338e-06
0.1225,0.00017620132299968924,-0.7852107035000044,3.1572495050290666e-05,-2.3556730949999967,8.728443900019782e-05,1.5709758500000002,0.7859929700000002,0.04,0.039999995,-9.823382700000113,2.742944053534877e-05,0.0019335821450549477,-0.00023651577049359722,-0.007063524308581215,8.09098099987679e-06
0.125,0.00017690436999968028,-0.7852006550000046,3.0914904500299037e-05,-2.3556808499999966,8.683692000020351e-05,1.5709754000000002,0.7859924000000003,0.04,0.039999995,-9.823125000000116,2.7251080722200355e-06,0.0018092703500565304,-0.0002510011849934128,-0.00713853375051479,8.36972899987324e-06
0.1275,0.00017760741699967135,-0.7851906065000047,3.025731395030741e-05,-2.355688604999996,8.638940100020921e-05,1.5709749500000003,0.7859918300000003,0.04,0.039999995,-9.822867300000121,-2.1979224390908714e-05,0.0016849585550581133,-0.00026548659949322833,-0.007213543192448365,8.648476999869691e-06
0.13,0.0001783104639996624,-0.7851805580000047,2.9599723400315784e-05,-2.355696359999996,8.594188200021491e-05,1.5709745000000002,0.7859912600000003,0.04,0.039999995,-9.822609600000124,-4.6683556854037464e-05,0.001560646760059696,-0.0002799720139930439,-0.0072885526343819396,8.927224999866142e-06
0.1325,0.00017901351099965345,-0.7851705095000049,2.8942132850324154e-05,-2.355704114999996,8.54943630002206e-05,1.5709740500000002,0.7859906900000003,0.04,0.039999995,-9.822351900000127,-7.13878893171662e-05,0.0014363349650612788,-0.0002944574284928595,-0.007363562076315515,9.205972999862593e-06
0.135,0.00017989947999948796,-0.785160864000005,2.8112584600479612e-05,-2.355711709999996,8.492753800032819e-05,1.5709735600000003,0.7859899250000005,0.04,0.0399999955,-9.822080100000147,-9.607493410456445e-05,0.0013290502600517427,-0.000310884287990886,-0.007430120371249396,9.444048999885934e-06
0.1375,0.00018087690999944885,-0.7851514200000053,2.719705750051625e-05,-2.3557192249999956,8.430106000035326e-05,1.5709730500000003,0.7859890625000006,0.04,0.03999999625,-9.821801250000158,-0.00012075333505407812,0.0012302791000556954,-0.0003282818699901898,-0.007492453092673977,9.66178899987722e-06
0.14,0.00018185433999940974,-0.7851419760000057,2.6281530400552886e-05,-2.3557267399999953,8.367458200037834e-05,1.5709725400000003,0.7859882000000006,0.04,0.039999997,-9.821522400000168,-0.0001454317360035918,0.0011315079400596479,-0.00034567945198949357,-0.007554785814098557,9.879528999868507e-06
0.14250000000000002,0.0001828317699993706,-0.7851325320000061,2.5366003300589522e-05,-2.355734254999995,8.30481040004034e-05,1.5709720300000003,0.7859873375000006,0.04,0.03999999775,-9.82124355000018,-0.0001701101369531055,0.0010327367800636003,-0.0003630770339887974,-0.007617118535523138,1.0097268999859793e-05
0.145,0.0001838091999993315,-0.7851230880000065,2.445047620062617e-05,-2.355741769999995,8.242162600042847e-05,1.5709715200000003,0.7859864750000006,0.04,0.0399999985,-9.820964700000191,-0.0001947885379026189,0.0009339656200675539,-0.000380474615988101,-0.007679451256947718,1.0315008999851078e-05
0.1475,0.0001847866299992924,-0.7851136440000068,2.3534949100662806e-05,-2.3557492849999946,8.179514800045354e-05,1.5709710100000005,0.7859856125000007,0.04,0.03999999925,-9.820685850000201,-0.00021946693885213257,0.0008351944600715064,-0.0003978721979874048,-0.0077417839783722985,1.0532748999842364e-05
0.15,0.00018576405999925325,-0.7851042000000072,2.261942200069944e-05,-2.355756799999994,8.116867000047862e-05,1.5709705000000005,0.7859847500000007,0.04,0.04,-9.820407000000213,-0.0002441453398016462,0.000736423300075459,-0.00041526977998670864,-0.007804116699796879,1.0750488999833651e-05
0.1525,0.0001870736454989471,-0.7850952750000072,2.1391433650987297e-05,-2.3557634299999948,8.032771510067612e-05,1.5709695100000007,0.7859837135000008,0.04,0.04,-9.820274400000105,-0.0002734393317715078,0.000630288429485332,-0.00043606570798328015,-0.007857469818511834,1.114863872467989e-05
0.155,0.00018838323099889468,-0.7850863500000076,2.0163445301036435e-05,-2.3557700599999944,7.948676020070977e-05,1.5709685200000008,0.7859826770000009,0.04,0.04,-9.820141800000112,-0.00030273332374489555,0.0005241535588895791,-0.000456861635982448,-0.00791082293721993,1.1546788449663957e-05
0.1575,0.0001896928164988423,-0.7850774250000079,1.8935456951085576e-05,-2.355776689999994,7.864580530074342e-05,1.5709675300000008,0.785981640500001,0.04,0.04,-9.820009200000117,-0.00033202731571828326,0.0004180186882938263,-0.0004776575639816158,-0.007964176055928024,1.1944938174648025e-05
0.16,0.00019100240199878987,-0.7850685000000083,1.7707468601134717e-05,-2.355783319999994,7.780485040077708e-05,1.570966540000001,0.785980604000001,0.04,0.04,-9.819876600000123,-0.00036132130769167103,0.00031188381769807347,-0.0004984534919807836,-0.008017529174636119,1.2343087899632092e-05
0.1625,0.00019231198749873748,-0.7850595750000087,1.6479480251183855e-05,-2.3557899499999935,7.696389550081073e-05,1.570965550000001,0.7859795675000011,0.04,0.04,-9.819744000000128,-0.00039061529966505874,0.00020574894710232068,-0.0005192494199799515,-0.008070882293344215,1.274123762461616e-05
0.165,0.00019362157299868506,-0.785050650000009,1.5251491901232996e-05,-2.3557965799999936,7.612294060084438e-05,1.570964560000001,0.785978531000001,0.04,0.04,-9.819611400000133,-0.00041990929163844646,9.961407650656783e-05,-0.0005400453479791192,-0.00812423541205231,1.3139387349600226e-05
0.1675,0.0001950622949982529,-0.7850418585000087,1.390008120163966e-05,-2.3558031399999932,7.519730130112338e-05,1.570963565000001,0.7859773830000014,0.04,0.04,-9.819446750000235,-0.00044917146439462003,1.784312882660673e-07,-0.000562256737474309,-0.008174226991787836,1.3558015974528508e-05
0.17,0.00019676528999827767,-0.7850333340000086,1.23018258016164e-05,-2.3558095599999938,7.410229320110744e-05,1.570962560000001,0.7859760120000014,0.04,0.04,-9.819218000000232,-0.00047836999871607,-8.585876311298604e-05,-0.0005872990499746734,-0.00821749549354704,1.4017602399535195e-05
0.17250000000000001,0.00019846828499830245,-0.7850248095000085,1.0703570401593142e-05,-2.355815979999994,7.30072851010915e-05,1.570961555000001,0.7859746410000014,0.04,0.04,-9.818989250000229,-0.0005075685330375198,-0.00017189595751423815,-0.0006123413624750378,-0.008260763995306245,1.4477188824541884e-05
0.17500000000000002,0.00020017127999832722,-0.7850162850000084,9.105315001569882e-06,-2.355822399999994,7.191227700107556e-05,1.570960550000001,0.7859732700000014,0.04,0.04,-9.818760500000224,-0.0005367670673589698,-0.00025793315191549024,-0.0006373836749754022,-0.008304032497065449,1.4936775249548572e-05
0.1775,0.000201874274998352,-0.7850077605000083,7.507059601546641e-06,-2.355828819999994,7.081726890105965e-05,1.570959545000001,0.7859718990000013,0.04,0.04,-9.81853175000022,-0.0005659656016804194,-0.0003439703463167414,-0.0006624259874757664,-0.008347300998824653,1.5396361674555254e-05
0.18,0.00020357726999837677,-0.7849992360000082,5.908804201523381e-06,-2.355835239999994,6.97222608010437e-05,1.570958540000001,0.7859705280000013,0.04,0.04,-9.818303000000217,-0.0005951641360018693,-0.0004300075407179935,-0.0006874682999761308,-0.008390569500583858,1.5855948099561943e-05
0.1825,0.00020528026499840157,-0.784990711500008,4.310548801500122e-06,-2.355841659999994,6.862725270102777e-05,1.570957535000001,0.7859691570000013,0.04,0.04,-9.818074250000214,-0.0006243626703233193,-0.0005160447351192455,-0.0007125106124764953,-0.008433838002343062,1.6315534524568632e-05
0.185,0.00020728837299796414,-0.7849824030000078,2.4249983019119866e-06,-2.3558477299999945,6.733451360131122e-05,1.570956500000001,0.7859675600000016,0.04,0.04,-9.81789805000014,-0.0006549672456162308,-0.000608035539910518,-0.0007402580849725809,-0.008471059612897567,1.67688657995758e-05
0.1875,0.00020944903749793662,-0.7849742025000078,3.9580025193782243e-07,-2.3558536249999946,6.594290900132893e-05,1.5709554500000011,0.7859658500000016,0.04,0.04,-9.817748125000143,-0.0006862748413978272,-0.0007030031499093089,-0.0007693581374722103,-0.008505257777837016,1.721906949957007e-05
0.19,0.0002116097019979091,-0.784966002000008,-1.6333977980363417e-06,-2.3558595199999943,6.455130440134666e-05,1.570954400000001,0.7859641400000016,0.04,0.04,-9.817598200000145,-0.0007175824371794237,-0.0007979707599080998,-0.0007984581899718398,-0.008539455942776466,1.7669273199564337e-05
0.1925,0.0002137703664978816,-0.784957801500008,-3.662595848010505e-06,-2.355865414999994,6.315969980136437e-05,1.570953350000001,0.7859624300000017,0.04,0.04,-9.817448275000148,-0.00074889003296102,-0.0008929383699068906,-0.0008275582424714693,-0.008573654107715916,1.8119476899558605e-05
0.195,0.0002159310309978541,-0.7849496010000081,-5.69179389798467e-06,-2.355871309999994,6.176809520138209e-05,1.570952300000001,0.7859607200000016,0.04,0.04,-9.817298350000149,-0.0007801976287426164,-0.0009879059799056816,-0.0008566582949710988,-0.008607852272655364,1.8569680599552873e-05
0.1975,0.00021809169549782658,-0.7849414005000083,-7.720991947958834e-06,-2.355877204999994,6.037649060139981e-05,1.5709512500000011,0.7859590100000017,0.04,0.04,-9.81714842500015,-0.0008115052245242127,-0.0010828735899044723,-0.0008857583474707284,-0.008642050437594815,1.901988429954714e-05
0.2,0.00022025235999779909,-0.7849332000000083,-9.750189997932999e-06,-2.3558830999999936,5.898488600141753e-05,1.570950200000001,0.7859573000000017,0.04,0.04,-9.816998500000153,-0.0008428128203058091,-0.0011778411999032632,-0.0009148583999703578,-0.008676248602534265,1.947008799954141e-05
0.2025,0.00022293758199723056,-0.7849252500000082,-1.2273546997397507e-05,-2.3558884249999945,5.725530155178383e-05,1.5709486250000015,0.785955260000002,0.04,0.04,-9.816801325000204,-0.0008703119063000385,-0.0012636296949115212,-0.0009482720849655384,-0.008700026525159981,2.0136493749312694e-05
0.20500000000000002,0.00022562280399719638,-0.7849173000000083,-1.479690399736538e-05,-2.355893749999994,5.552571710180585e-05,1.5709470500000016,0.7859532200000021,0.04,0.04,-9.816604150000206,-0.0008978109922903884,-0.0013494181899104288,-0.0009816857699651129,-0.008723804447775083,2.080289949930421e-05
0.20750000000000002,0.0002283080259971622,-0.7849093500000084,-1.7320260997333253e-05,-2.355899074999994,5.379613265182787e-05,1.5709454750000016,0.7859511800000022,0.04,0.04,-9.816406975000207,-0.0009253100782807383,-0.0014352066849093366,-0.0010150994549646877,-0.008747582370390186,2.1469305249295723e-05
0.21,0.00023099324799712796,-0.7849014000000085,-1.98436179973011e-05,-2.3559043999999942,5.206654820184991e-05,1.5709439000000016,0.7859491400000022,0.04,0.04,-9.81620980000021,-0.0009528091642710878,-0.0015209951799082433,-0.0010485131399642618,-0.008771360293005287,2.2135710999287234e-05
0.2125,0.00023367846999709378,-0.7848934500000087,-2.236697499726897e-05,-2.3559097249999943,5.033696375187193e-05,1.5709423250000016,0.7859471000000022,0.04,0.04,-9.816012625000212,-0.0009803082502614377,-0.001606783674907151,-0.0010819268249638364,-0.00879513821562039,2.280211674927875e-05
0.215,0.0002363636919970596,-0.7848855000000088,-2.4890331997236842e-05,-2.355915049999994,4.8607379301893954e-05,1.5709407500000017,0.7859450600000023,0.04,0.04,-9.815815450000215,-0.0010078073362517876,-0.0016925721699060587,-0.001115340509963411,-0.008818916138235492,2.3468522499270263e-05
0.2175,0.00023924682799636768,-0.7848776000000086,-2.7600182896584942e-05,-2.3559203299999942,4.674989225234103e-05,1.5709391600000018,0.7859428400000029,0.04,0.04,-9.815625000000196,-0.0010386653826154847,-0.0017768599749099538,-0.001150371129957612,-0.008839705213887942,2.413174129927237e-05
0.22,0.00024252579199632594,-0.7848698000000087,-3.068302159654569e-05,-2.3559255199999942,4.463660000236794e-05,1.5709375400000019,0.7859402600000029,0.04,0.04,-9.815448000000197,-0.0010762413497592362,-0.0018581463999089187,-0.0011886356199571249,-0.008854516595585404,2.4788586199264006e-05
0.2225,0.0002458047559962842,-0.7848620000000088,-3.3765860296506436e-05,-2.355930709999994,4.252330775239484e-05,1.570935920000002,0.785937680000003,0.04,0.04,-9.8152710000002,-0.0011138173169029878,-0.0019394328249078838,-0.0012269001099566375,-0.008869327977282866,2.5445431099255643e-05
0.225,0.00024908371999624246,-0.7848542000000089,-3.684869899646719e-05,-2.355935899999994,4.041001550242175e-05,1.5709343000000018,0.785935100000003,0.04,0.04,-9.815094000000203,-0.0011513932840467394,-0.002020719249906849,-0.0012651645999561503,-0.008884139358980327,2.6102275999247283e-05
0.2275,0.00025236268399620067,-0.784846400000009,-3.993153769642794e-05,-2.355941089999994,3.8296723252448654e-05,1.5709326800000019,0.785932520000003,0.04,0.04,-9.814917000000204,-0.001188969251190491,-0.002102005674905814,-0.0013034290899556632,-0.008898950740677787,2.675912089923892e-05
0.23,0.00025564164799615893,-0.7848386000000092,-4.3014376396388685e-05,-2.355946279999994,3.618343100247556e-05,1.570931060000002,0.785929940000003,0.04,0.04,-9.814740000000207,-0.0012265452183342425,-0.002183292099904779,-0.001341693579955176,-0.00891376212237525,2.7415965799230555e-05
0.2325,0.0002589206119961172,-0.7848308000000093,-4.609721509634944e-05,-2.3559514699999937,3.4070138752502466e-05,1.5709294400000018,0.7859273600000031,0.04,0.04,-9.81456300000021,-0.001264121185477994,-0.0022645785249037443,-0.0013799580699546889,-0.008928573504072711,2.8072810699222192e-05
0.23500000000000001,0.0002626428099952797,-0.7848230550000093,-4.9597850195560105e-05,-2.3559563999999944,3.167026290304389e-05,1.5709274700000024,0.7859244500000037,0.04,0.04,-9.814411600000165,-0.0012988480855311907,-0.0023514739198926392,-0.001421044089949136,-0.008937362302087725,2.87750104991324e-05
0.23750000000000002,0.0002665866249952295,-0.7848153375000093,-5.3307383495512876e-05,-2.355961199999994,2.9127095253076267e-05,1.5709253250000026,0.7859213750000037,0.04,0.04,-9.814273000000167,-0.0013321504520314917,-0.0024411737998914973,-0.001463540874948595,-0.00894313980824541,2.9499887749123172e-05
0.24,0.00027053043999517923,-0.7848076200000095,-5.70169167954656e-05,-2.3559659999999942,2.6583927603108677e-05,1.5709231800000025,0.7859183000000037,0.04,0.04,-9.81413440000017,-0.0013654528185317923,-0.002530873679890354,-0.0015060376599480535,-0.008948917314403098,3.0224764999113936e-05
0.2425,0.000274474254995129,-0.7847999025000095,-6.072645009541837e-05,-2.3559707999999944,2.4040759953141056e-05,1.5709210350000027,0.7859152250000038,0.04,0.04,-9.813995800000171,-0.0013987551850320932,-0.002620573559889212,-0.0015485344449475123,-0.008954694820560785,3.0949642249104706e-05
0.245,0.0002784180699950788,-0.7847921850000097,-6.443598339537113e-05,-2.355975599999994,2.1497592303173435e-05,1.5709188900000026,0.7859121500000038,0.04,0.04,-9.813857200000173,-0.0014320575515323942,-0.00271027343988807,-0.0015910312299469713,-0.00896047232671847,3.167451949909548e-05
0.2475,0.0002823618849950286,-0.7847844675000097,-6.81455166953239e-05,-2.355980399999994,1.8954424653205817e-05,1.5709167450000028,0.7859090750000038,0.04,0.04,-9.813718600000175,-0.0014653599180326953,-0.0027999733198869276,-0.0016335280149464301,-0.008966249832876158,3.239939674908625e-05
0.25,0.00028630569999497837,-0.7847767500000099,-7.185504999527667e-05,-2.355985199999994,1.6411257003238196e-05,1.5709146000000027,0.7859060000000039,0.04,0.04,-9.813580000000176,-0.0014986622845329963,-0.0028896731998857856,-0.0016760247999458892,-0.008972027339033843,3.312427399907702e-05
0.2525,0.0002909871804938518,-0.7847690250000102,-7.626005949421486e-05,-2.3559894899999945,1.3391194173966276e-05,1.570912410000003,0.7859023640000048,0.04,0.04,-9.813416200000216,-0.001534072001185321,-0.002968608689896333,-0.0017232768399379433,-0.008969618799168013,3.3919381998955774e-05
0.255,0.00029566866099366444,-0.7847613000000104,-8.066506899403858e-05,-2.355993779999994,1.0371131344087129e-05,1.570910220000003,0.7858987280000049,0.04,0.04,-9.813252400000222,-0.001569481717840329,-0.0030475441798931743,-0.0017705288799360526,-0.00896721025929176,3.471448999892396e-05
0.2575,0.0003003501414934771,-0.7847535750000108,-8.507007849386231e-05,-2.355998069999994,7.351068514207984e-06,1.5709080300000031,0.7858950920000051,0.04,0.04,-9.813088600000228,-0.001604891434495337,-0.0031264796698900156,-0.0018177809199341616,-0.008964801719415506,3.550959799889214e-05
0.26,0.00030503162199328976,-0.7847458500000111,-8.947508799368603e-05,-2.356002359999994,4.331005684328838e-06,1.570905840000003,0.7858914560000052,0.04,0.04,-9.812924800000236,-0.001640301151150345,-0.003205415159886857,-0.0018650329599322706,-0.008962393179539252,3.630470599886032e-05
0.2625,0.0003097131024931024,-0.7847381250000114,-9.388009749350975e-05,-2.3560066499999937,1.3109428544496909e-06,1.5709036500000033,0.7858878200000053,0.04,0.04,-9.812761000000242,-0.0016757108678053531,-0.003284350649883698,-0.0019122849999303798,-0.008959984639662999,3.709981399882851e-05
0.265,0.0003143945829929151,-0.7847304000000117,-9.828510699333349e-05,-2.3560109399999933,-1.7091199754294563e-06,1.5709014600000033,0.7858841840000055,0.04,0.04,-9.812597200000248,-0.0017111205844603612,-0.0033632861398805395,-0.001959537039928489,-0.008957576099786747,3.789492199879669e-05
0.2675,0.0003193466579915666,-0.784722637500012,-0.00010294529799206205,-2.3560151799999938,-4.904725934555045e-06,1.5708990850000042,0.7858803320000065,0.03999999975,0.04,-9.812425750000287,-0.0017443071933952823,-0.003447085274856416,-0.0020083979299200475,-0.008951544109752211,3.867291154885818e-05
0.27,0.00032483992199164655,-0.7847148000000119,-0.00010811585199213731,-2.3560193199999935,-8.451418154606658e-06,1.5708963400000042,0.7858760480000065,0.039999999,0.04,-9.812239000000284,-0.0017730475868592156,-0.003540611699857777,-0.0020604765199208055,-0.008938265219350894,3.9416664198869004e-05
0.2725,0.0003303331859917265,-0.7847069625000118,-0.00011328640599221256,-2.3560234599999936,-1.1998110374658273e-05,1.570893595000004,0.7858717640000065,0.03999999825,0.04,-9.812052250000281,-0.0018017879803231486,-0.0036341381248591385,-0.0021125551099215635,-0.008924986328949575,4.0160416848879824e-05
0.275,0.00033582644999180646,-0.7846991250000117,-0.0001184569599922878,-2.356027599999994,-1.554480259470989e-05,1.570890850000004,0.7858674800000064,0.0399999975,0.04,-9.811865500000279,-0.001830528373787082,-0.0037276645498604995,-0.0021646336999223215,-0.008911707438548256,4.0904169498890645e-05
0.2775,0.0003413197139918864,-0.7846912875000116,-0.00012362751399236306,-2.356031739999994,-1.9091494814761502e-05,1.570888105000004,0.7858631960000063,0.03999999675,0.04,-9.811678750000276,-0.0018592687672510152,-0.003821190974861861,-0.002216712289923079,-0.008898428548146937,4.164792214890147e-05
0.28,0.00034681297799196633,-0.7846834500000114,-0.0001287980679924383,-2.356035879999994,-2.263818703481312e-05,1.570885360000004,0.7858589120000062,0.039999996,0.04,-9.811492000000273,-0.0018880091607149485,-0.003914717399863222,-0.002268790879923837,-0.00888514965774562,4.239167479891229e-05
0.28250000000000003,0.0003523062419920463,-0.7846756125000113,-0.00013396862199251355,-2.3560400199999942,-2.6184879254864733e-05,1.570882615000004,0.7858546280000063,0.03999999525,0.04,-9.81130525000027,-0.0019167495541788817,-0.004008243824864583,-0.002320869469924595,-0.008871870767344301,4.313542744892311e-05
0.28500000000000003,0.0003583908569907388,-0.7846676600000115,-0.00013969698299128022,-2.3560440999999943,-3.011403469401909e-05,1.5708796500000044,0.7858498750000072,0.039999994500000004,0.039999999,-9.811162600000175,-0.0019529290496722949,-0.004098477169871413,-0.002376122949917493,-0.008854013215779614,4.40982624984434e-05
0.28750000000000003,0.0003647711474906575,-0.7846596500000117,-0.00014570424749120372,-2.356048149999994,-3.4234421743966625e-05,1.5708765750000044,0.7858448875000074,0.039999993750000004,0.0399999975,-9.811042000000176,-0.001992828096204602,-0.004187063974870285,-0.002432963874916769,-0.008833866333618375,4.517063874842975e-05
0.29,0.0003711514379905761,-0.7846516400000118,-0.0001517115119911271,-2.356052199999994,-3.835480879391408e-05,1.5708735000000045,0.7858399000000074,0.039999993000000005,0.039999996,-9.810921400000177,-0.002032727142736908,-0.004275650779869155,-0.0024898047999160444,-0.008813719451457137,4.624301499841607e-05
0.2925,0.0003775317284904949,-0.7846436300000119,-0.00015771877649105063,-2.3560562499999937,-4.247519584386161e-05,1.5708704250000045,0.7858349125000075,0.039999992250000005,0.039999994500000004,-9.81080080000018,-0.002072626189269215,-0.004364237584868027,-0.0025466457249153206,-0.008793572569295898,4.731539124840241e-05
0.295,0.00038391201899041366,-0.784635620000012,-0.00016372604099097415,-2.356060299999994,-4.659558289380915e-05,1.5708673500000045,0.7858299250000075,0.0399999915,0.039999993000000005,-9.810680200000181,-0.002112525235801522,-0.004452824389866899,-0.002603486649914597,-0.00877342568713466,4.838776749838876e-05
0.2975,0.00039029230949033243,-0.7846276100000121,-0.00016973330549089764,-2.356064349999994,-5.071596994375669e-05,1.5708642750000046,0.7858249375000076,0.03999999075,0.0399999915,-9.810559600000182,-0.002152424282333829,-0.0045414111948657715,-0.002660327574913873,-0.008753278804973421,4.946014374837511e-05
0.3,0.00039667259999025115,-0.7846196000000122,-0.00017574056999082117,-2.3560683999999936,-5.4836356993704226e-05,1.5708612000000046,0.7858199500000077,0.03999999,0.03999999,-9.810439000000185,-0.002192323328866136,-0.004629997999864643,-0.0027171684999131498,-0.008733131922812184,5.053251999836146e-05
0.3025,0.00040401608248868596,-0.7846113500000127,-0.0001826565044893447,-2.356072389999994,-5.9579685192692014e-05,1.5708577500000054,0.7858142185000089,0.0399999897,0.0399999891,-9.810315100000192,-0.002227594552041573,-0.0047264449998514054,-0.0027788745699049303,-0.008705031313045343,5.16749279482399e-05
0.305,0.00041135956498859245,-0.7846031000000128,-0.00018957243898925664,-2.3560763799999935,-6.432301339263162e-05,1.5708543000000053,0.7858084870000089,0.0399999894,0.0399999882,-9.810191200000194,-0.002262865775209939,-0.004822891999850178,-0.0028405806399041445,-0.008676930703266353,5.281733589822536e-05
0.3075,0.000418703047488499,-0.7845948500000128,-0.00019648837348916858,-2.3560803699999937,-6.906634159257122e-05,1.5708508500000053,0.785802755500009,0.0399999891,0.039999987300000005,-9.810067300000195,-0.0022981369983783046,-0.004919338999848949,-0.0029022867099033588,-0.00864883009348736,5.395974384821081e-05
0.31,0.0004260465299884055,-0.784586600000013,-0.00020340430798908055,-2.3560843599999934,-7.380966979251083e-05,1.5708474000000054,0.7857970240000091,0.0399999888,0.0399999864,-9.809943400000197,-0.0023334082215466707,-0.005015785999847721,-0.0029639927799025734,-0.008620729483708367,5.510215179819627e-05
0.3125,0.000433390012488312,-0.7845783500000131,-0.0002103202424889925,-2.3560883499999936,-7.855299799245044e-05,1.5708439500000055,0.7857912925000091,0.0399999885,0.0399999855,-9.809819500000199,-0.0023686794447150368,-0.005112232999846493,-0.0030256988499017877,-0.008592628873929377,5.6244559748181724e-05
0.315,0.0004407334949882185,-0.7845701000000131,-0.00021723617698890443,-2.3560923399999933,-8.329632619239004e-05,1.5708405000000056,0.7857855610000092,0.0399999882,0.0399999846,-9.8096956000002,-0.0024039506678834024,-0.0052086799998452655,-0.003087404919901002,-0.008564528264150384,5.738696769816718e-05
0.3175,0.0004484236374864433,-0.7845617450000139,-0.00022447921098722954,-2.356096184999994,-8.826395374124152e-05,1.5708368700000066,0.7857795580000105,0.039999987800000004,0.0399999838,-9.809574350000188,-0.002437128720292413,-0.005309088634824819,-0.003150778009892129,-0.008533896040229094,5.850932984824988e-05
0.32,0.00045680709998633653,-0.784553180000014,-0.000232376443987129,-2.356099739999994,-9.368017999117257e-05,1.5708328800000066,0.7857730120000107,0.0399999872,0.039999983200000006,-9.809458400000189,-0.0024661204311523287,-0.0054174205398234395,-0.00321748513989128,-0.008498200587986457,5.9591600398236105e-05
0.3225,0.00046519056248622983,-0.784544615000014,-0.00024027367698702844,-2.3561032949999943,-9.909640624110361e-05,1.5708288900000067,0.7857664660000108,0.0399999866,0.039999982600000004,-9.809342450000191,-0.0024951121420122447,-0.00552575244482206,-0.0032841922698904308,-0.008462505135743821,6.067387094822232e-05
0.325,0.0004735740249861231,-0.7845360500000141,-0.0002481709099869279,-2.356106849999994,-0.00010451263249103465,1.5708249000000067,0.7857599200000108,0.039999986,0.039999982,-9.809226500000193,-0.0025241038528721607,-0.005634084349820681,-0.003350899399889581,-0.008426809683501187,6.175614149820855e-05
0.3275,0.0004819574874860164,-0.7845274850000142,-0.0002560681429868274,-2.356110404999994,-0.00010992885874096569,1.5708209100000068,0.7857533740000109,0.0399999854,0.0399999814,-9.809110550000193,-0.0025530955637320762,-0.005742416254819301,-0.003417606529888732,-0.00839111423125855,6.283841204819477e-05
0.33,0.0004903409499859096,-0.7845189200000144,-0.0002639653759867268,-2.3561139599999943,-0.00011534508499089674,1.5708169200000068,0.7857468280000109,0.039999984800000006,0.0399999808,-9.808994600000196,-0.002582087274591992,-0.005850748159817922,-0.003484313659887883,-0.008355418779015914,6.392068259818098e-05
0.3325,0.0004987244124858029,-0.7845103550000145,-0.00027186260898662626,-2.356117514999994,-0.00012076131124082778,1.5708129300000069,0.7857402820000111,0.039999984200000005,0.0399999802,-9.808878650000196,-0.002611078985451908,-0.005959080064816543,-0.0035510207898870336,-0.00831972332677328,6.50029531481672e-05
0.335,0.0005078527249837898,-0.7845015200000153,-0.0002804627659847267,-2.3561208899999944,-0.00012665945898952542,1.5708086000000077,0.7857331500000126,0.039999983600000004,0.0399999797,-9.8087232000003,-0.002649703458808681,-0.0060674436298150825,-0.003621012819877777,-0.008278005756514075,6.613074149803693e-05
0.3375,0.0005173534624836689,-0.7844925500000154,-0.00028941438498461276,-2.3561241749999944,-0.00013279856748944725,1.5708041000000077,0.7857257250000127,0.039999983,0.03999997925,-9.808548000000302,-0.002693144313450678,-0.006175823024813703,-0.003692647299876865,-0.008233277127223585,6.728128874802229e-05
0.34,0.0005268541999835479,-0.7844835800000155,-0.00029836600398449876,-2.3561274599999944,-0.0001389376759893691,1.5707996000000077,0.7857183000000129,0.0399999824,0.0399999788,-9.808372800000303,-0.002736585168092675,-0.006284202419812323,-0.003764281779875953,-0.008188548497933094,6.843183599800763e-05
0.3425,0.000536354937483427,-0.7844746100000156,-0.0003073176229843848,-2.3561307449999944,-0.00014507678448929094,1.5707951000000078,0.7857108750000129,0.0399999818,0.03999997835,-9.808197600000305,-0.002780026022734672,-0.006392581814810943,-0.0038359162598750407,-0.008143819868642604,6.958238324799299e-05
0.34500000000000003,0.0005458556749833059,-0.7844656400000157,-0.00031626924198427083,-2.356134029999994,-0.00015121589298921278,1.5707906000000078,0.7857034500000131,0.0399999812,0.0399999779,-9.808022400000308,-0.0028234668773766684,-0.006500961209809563,-0.003907550739874128,-0.008099091239352114,7.073293049797834e-05
0.34750000000000003,0.000555356412483185,-0.7844566700000158,-0.0003252208609841569,-2.356137314999994,-0.0001573550014891346,1.5707861000000078,0.7856960250000131,0.0399999806,0.03999997745,-9.80784720000031,-0.0028669077320186654,-0.006609340604808183,-0.0039791852198732165,-0.008054362610061623,7.188347774796368e-05
0.35000000000000003,0.000564857149983064,-0.784447700000016,-0.0003341724799840429,-2.356140599999994,-0.00016349410998905644,1.5707816000000079,0.7856886000000132,0.03999998,0.039999977,-9.807672000000313,-0.0029103485866606624,-0.006717719999806803,-0.004050819699872304,-0.008009633980771133,7.303402499794904e-05
0.3525,0.0005755526764807978,-0.7844382800000169,-0.000344251861981904,-2.3561437799999942,-0.00017040631098759018,1.570776485000009,0.785680255500015,0.03999997895,0.03999997535,-9.807540600000236,-0.0029444609069584115,-0.006836814749786183,-0.004127390094862529,-0.007957096281555708,7.438208324757976e-05
0.355,0.0005862482029806616,-0.784428860000017,-0.00035433124398177564,-2.356146959999994,-0.00017731851198750216,1.5707713700000092,0.7856719110000151,0.0399999779,0.039999973700000004,-9.807409200000238,-0.0029785732272395323,-0.0069559094997846665,-0.004203960489861554,-0.007904558582326363,7.57301414975626e-05
0.3575,0.0005969437294805255,-0.7844194400000172,-0.00036441062598164734,-2.3561501399999942,-0.00018423071298741416,1.5707662550000092,0.7856635665000151,0.03999997685,0.03999997205,-9.80727780000024,-0.0030126855475206527,-0.00707500424978315,-0.004280530884860579,-0.007852020883097017,7.707819974754543e-05
0.36,0.0006076392559803893,-0.7844100200000172,-0.000374490007981519,-2.356153319999994,-0.00019114291398732617,1.5707611400000092,0.7856552220000153,0.039999975800000004,0.0399999704,-9.80714640000024,-0.0030467978678017735,-0.007194098999781634,-0.004357101279859605,-0.0077994831838676705,7.842625799752827e-05
0.3625,0.0006183347824802531,-0.7844006000000174,-0.0003845693899813907,-2.356156499999994,-0.00019805511498723814,1.5707560250000094,0.7856468775000154,0.03999997475,0.03999996875,-9.807015000000243,-0.003080910188082894,-0.007313193749780117,-0.004433671674858629,-0.007746945484638324,7.97743162475111e-05
0.365,0.0006290303089801169,-0.7843911800000175,-0.00039464877198126233,-2.3561596799999944,-0.00020496731598715015,1.5707509100000094,0.7856385330000155,0.039999973700000004,0.0399999671,-9.806883600000244,-0.003115022508364015,-0.007432288499778601,-0.004510242069857655,-0.007694407785408978,8.112237449749394e-05
0.3675,0.0006401500154775989,-0.7843815800000187,-0.0004051285719788856,-2.3561628249999944,-0.00021215405248552056,1.5707456000000106,0.7856298495000175,0.03999997265,0.0399999656,-9.806754375000233,-0.0031498195486396856,-0.007553807399763473,-0.0045885269498470525,-0.007639448833763743,8.244943599759469e-05
0.37,0.0006521180819774466,-0.7843716200000188,-0.00041640920797874194,-2.3561658999999944,-0.00021988985998542206,1.5707399000000106,0.7856204880000176,0.0399999716,0.039999964400000004,-9.806629500000236,-0.003185986028915965,-0.007680174599761864,-0.004670240799846012,-0.007579647377246034,8.373450399757831e-05
0.3725,0.0006640861484772942,-0.784361660000019,-0.0004276898439785983,-2.3561689749999943,-0.00022762566748532357,1.5707342000000108,0.7856111265000177,0.03999997055,0.0399999632,-9.806504625000237,-0.0032221525091922446,-0.007806541799760255,-0.004751954649844972,-0.007519845920728326,8.501957199756195e-05
0.375,0.0006760542149771418,-0.7843517000000191,-0.00043897047997845467,-2.3561720499999943,-0.00023536147498522507,1.5707285000000109,0.7856017650000179,0.0399999695,0.039999962,-9.80637975000024,-0.003258318989468524,-0.007932908999758646,-0.004833668499843931,-0.007460044464210617,8.630463999754559e-05
0.3775,0.0006880222814769894,-0.7843417400000192,-0.0004502511159783111,-2.3561751249999943,-0.00024309728248512658,1.5707228000000109,0.785592403500018,0.03999996845,0.039999960800000005,-9.80625487500024,-0.0032944854697448036,-0.008059276199757038,-0.004915382349842891,-0.007400243007692909,8.758970799752923e-05
0.38,0.000699990347976837,-0.7843317800000194,-0.00046153175197816745,-2.3561781999999942,-0.0002508330899850281,1.570717100000011,0.7855830420000182,0.0399999674,0.0399999596,-9.806130000000243,-0.003330651950021083,-0.008185643399755428,-0.004997096199841851,-0.0073404415511752,8.887477599751287e-05
0.3825,0.0007119584144766847,-0.7843218200000195,-0.0004728123879780238,-2.356181274999994,-0.0002585688974849296,1.570711400000011,0.7855736805000183,0.03999996635,0.03999995840000001,-9.806005125000244,-0.0033668184302973626,-0.00831201059975382,-0.005078810049840811,-0.007280640094657492,9.015984399749651e-05
0.385,0.0007248266329736424,-0.7843114700000209,-0.0004849428559751522,-2.356184309999994,-0.000266887276982961,1.5707052900000125,0.7855636140000206,0.0399999654,0.039999957600000004,-9.80589305000021,-0.0033960072090340283,-0.008451607799710638,-0.00516376239982867,-0.007216070220006866,9.14882559973281e-05
0.3875,0.0007381449274731094,-0.7843009250000214,-0.0004974982399746497,-2.356187324999994,-0.00027549694248261644,1.5706989750000127,0.7855531950000211,0.0399999645,0.039999957,-9.805787375000214,-0.003421707136970235,-0.008597819999704787,-0.0052503339998252055,-0.007149116136268835,9.283833999727408e-05
0.39,0.0007514632219725765,-0.7842903800000217,-0.0005100536239741473,-2.3561903399999937,-0.0002841066079822719,1.570692660000013,0.7855427760000214,0.0399999636,0.0399999564,-9.805681700000218,-0.0034474070649064413,-0.008744032199698937,-0.005336905599821741,-0.007082162052530805,9.418842399722005e-05
0.3925,0.0007647815164720435,-0.7842798350000221,-0.0005226090079736449,-2.3561933549999936,-0.00029271627348192737,1.5706863450000133,0.7855323570000219,0.0399999627,0.0399999558,-9.805576025000223,-0.003473106992842648,-0.008890244399693084,-0.005423477199818277,-0.007015207968792774,9.553850799716603e-05
0.395,0.0007780998109715105,-0.7842692900000225,-0.0005351643919731424,-2.3561963699999935,-0.00030132593898158283,1.5706800300000134,0.7855219380000222,0.039999961800000004,0.0399999552,-9.805470350000226,-0.0034988069207788543,-0.009036456599687234,-0.0055100487998148125,-0.006948253885054743,9.6888591997112e-05
0.3975,0.0007914181054709776,-0.7842587450000229,-0.00054771977597264,-2.3561993849999934,-0.0003099356044812383,1.5706737150000138,0.7855115190000227,0.0399999609,0.0399999546,-9.80536467500023,-0.003524506848715061,-0.009182668799681383,-0.005596620399811348,-0.006881299801316712,9.823867599705798e-05
0.4,0.0008047363999704447,-0.7842482000000234,-0.0005602751599721376,-2.3562023999999933,-0.0003185452699808938,1.570667400000014,0.785501100000023,0.03999996,0.039999954,-9.805259000000234,-0.003550206776651268,-0.009328880999675533,-0.005683191999807884,-0.006814345717578682,9.958875999700395e-05
0.4025,0.0008194824724674908,-0.7842369950000246,-0.0005741786164693483,-2.3562053999999932,-0.0003280790119789819,1.5706604400000155,0.7854895650000254,0.039999959700000004,0.03999995295,-9.805130600000282,-0.003592764492984112,-0.009476883749673712,-0.005774742159798168,-0.006740090297698749,0.00010112969649660284
0.405,0.0008342285449677054,-0.7842257900000245,-0.0005880820729695506,-2.356208399999993,-0.0003376127539791206,1.5706534800000154,0.7854780300000253,0.0399999594,0.039999951900000004,-9.805002200000281,-0.003635322209354366,-0.009624886499675866,-0.005866292319799501,-0.006665834877802613,0.00010267063299662527
0.40750000000000003,0.00084897461746792,-0.7842145850000244,-0.000601985529469753,-2.3562113999999936,-0.00034714649597925934,1.5706465200000153,0.7854664950000251,0.0399999591,0.03999995085,-9.80487380000028,-0.0036778799257246204,-0.009772889249678021,-0.005957842479800832,-0.006591579457906478,0.0001042115694966477
0.41000000000000003,0.0008637206899681346,-0.7842033800000242,-0.0006158889859699554,-2.3562143999999936,-0.0003566802379793981,1.5706395600000151,0.7854549600000249,0.0399999588,0.039999949800000004,-9.804745400000277,-0.003720437642094875,-0.009920891999680175,-0.006049392639802165,-0.006517324038010342,0.00010575250599667011
0.41250000000000003,0.0008784667624683491,-0.784192175000024,-0.0006297924424701577,-2.3562173999999936,-0.0003662139799795368,1.570632600000015,0.7854434250000247,0.0399999585,0.03999994875,-9.804617000000276,-0.0037629953584651294,-0.010068894749682328,-0.006140942799803498,-0.006443068618114206,0.00010729344249669254
0.41500000000000004,0.0008932128349685638,-0.7841809700000238,-0.0006436958989703601,-2.3562203999999936,-0.00037574772197967554,1.570625640000015,0.7854318900000246,0.039999958200000005,0.0399999477,-9.804488600000274,-0.0038055530748353837,-0.010216897499684482,-0.006232492959804829,-0.0063688131982180705,0.00010883437899671497
0.4175,0.0009084605774654437,-0.7841695250000253,-0.0006580730664674137,-2.3562233999999935,-0.0003856062324776556,1.5706184400000163,0.7854199600000271,0.0399999581,0.039999947349999995,-9.804369400000216,-0.0038459504720918863,-0.010371161299645345,-0.0063257008447947525,-0.006292340671815625,0.00011030976699714149
0.42,0.0009247116599652367,-0.7841576000000254,-0.0006733976559672186,-2.3562263999999935,-0.00039611427997752183,1.5706107600000165,0.7854072400000273,0.0399999584,0.0399999484,-9.804268600000217,-0.003882027231079627,-0.010537947199643221,-0.006422224179793524,-0.00621143393235821,0.00011165405799712438
0.4225,0.0009409627424650298,-0.7841456750000256,-0.0006887222454670235,-2.3562293999999935,-0.000406622327477388,1.5706030800000166,0.7853945200000274,0.039999958700000005,0.039999949449999996,-9.804167800000217,-0.0039181039900673675,-0.010704733099641098,-0.006518747514792294,-0.006130527192900796,0.00011299834899710726
0.425,0.0009572138249648229,-0.7841337500000258,-0.0007040468349668284,-2.3562323999999935,-0.00041713037497725426,1.5705954000000166,0.7853818000000276,0.039999959,0.0399999505,-9.804067000000218,-0.003954180749055109,-0.010871518999638974,-0.006615270849791065,-0.006049620453443381,0.00011434263999709015
0.4275,0.000973464907464616,-0.7841218250000259,-0.0007193714244666333,-2.3562353999999934,-0.00042763842247712044,1.5705877200000167,0.7853690800000277,0.0399999593,0.039999951549999996,-9.80396620000022,-0.003990257508042849,-0.011038304899636852,-0.006711794184789836,-0.005968713713985966,0.00011568693099707303
0.43,0.000989715989964409,-0.7841099000000261,-0.0007346960139664382,-2.3562383999999934,-0.0004381464699769867,1.5705800400000167,0.7853563600000278,0.0399999596,0.03999995259999999,-9.803865400000221,-0.00402633426703059,-0.011205090799634727,-0.0068083175197886075,-0.005887806974528551,0.00011703122199705591
0.4325,0.0010059670724642021,-0.7840979750000262,-0.000750020603466243,-2.3562413999999934,-0.00044865451747685286,1.5705723600000168,0.785343640000028,0.0399999599,0.039999953649999996,-9.803764600000223,-0.00406241102601833,-0.011371876699632603,-0.006904840854787379,-0.005806900235071136,0.0001183755129970388
0.435,0.0010232726699604907,-0.7840855100000281,-0.0007663411299627382,-2.3562443999999934,-0.0004598451249744507,1.5705641200000189,0.7853301030000309,0.0399999598,0.0399999533,-9.80366195000023,-0.004095634957704992,-0.011548145999598964,-0.007004648409775235,-0.005721718492179798,0.00011993078599632053
0.4375,0.0010411055249602637,-0.7840727750000284,-0.0007831596249625241,-2.3562473999999933,-0.0004713770124743039,1.570555600000019,0.7853161575000311,0.0399999595,0.03999995225,-9.80355837500023,-0.004127432475726947,-0.01172915699959666,-0.007106098074773944,-0.00563439924755027,0.00012159154999629938
0.44,0.0010589383799600367,-0.7840600400000285,-0.0007999781199623099,-2.3562503999999933,-0.0004829088999741571,1.570547080000019,0.7853022120000313,0.039999959200000004,0.0399999512,-9.803454800000232,-0.004159229993748902,-0.011910167999594354,-0.007207547739772652,-0.005547080002920742,0.00012325231399627824
0.4425,0.0010767712349598097,-0.7840473050000287,-0.0008167966149620957,-2.3562533999999933,-0.0004944407874740103,1.5705385600000192,0.7852882665000315,0.0399999589,0.039999950150000005,-9.803351225000235,-0.0041910275117708565,-0.01209117899959205,-0.007308997404771361,-0.005459760758291214,0.0001249130779962571
0.445,0.0010946040899595826,-0.7840345700000289,-0.0008336151099618816,-2.3562563999999933,-0.0005059726749738634,1.5705300400000193,0.7852743210000317,0.0399999586,0.0399999491,-9.803247650000236,-0.004222825029792812,-0.012272189999589747,-0.007410447069770069,-0.005372441513661686,0.00012657384199623594
0.4475,0.0011124369449593556,-0.784021835000029,-0.0008504336049616675,-2.3562593999999932,-0.0005175045624737167,1.5705215200000195,0.7852603755000318,0.0399999583,0.039999948050000005,-9.803144075000237,-0.004254622547814767,-0.012453200999587442,-0.007511896734768777,-0.005285122269032157,0.00012823460599621482
0.45,0.0011302697999591284,-0.7840091000000292,-0.0008672520999614534,-2.356262399999993,-0.0005290364499735698,1.5705130000000196,0.785246430000032,0.039999958,0.039999947,-9.803040500000238,-0.004286420065836722,-0.012634211999585138,-0.007613346399767486,-0.005197803024402629,0.00012989536999619367
0.4525,0.00114976085995508,-0.7839955250000313,-0.0008856366699576299,-2.356265414999993,-0.0005416419024709488,1.5705037750000213,0.7852311960000351,0.039999958,0.039999947,-9.802960325000184,-0.004308664100193345,-0.012839694149526435,-0.00771975708975476,-0.00510444887935271,0.00013148113699634536
0.455,0.0011692519199548316,-0.7839819500000315,-0.0009040212399573959,-2.356268429999993,-0.0005542473549707883,1.5704945500000214,0.7852159620000353,0.039999958,0.039999947,-9.802880150000185,-0.0043309081345280715,-0.01304517629952382,-0.007826167779753406,-0.0050110947342889576,0.00013306690399632516
0.4575,0.0011887429799545834,-0.7839683750000317,-0.0009224058099571618,-2.356271444999993,-0.0005668528074706279,1.5704853250000215,0.7852007280000355,0.039999958,0.039999947,-9.802799975000186,-0.004353152168862799,-0.013250658449521203,-0.00793257846975205,-0.004917740589225206,0.00013465267099630498
0.46,0.0012082340399543353,-0.7839548000000318,-0.0009407903799569277,-2.3562744599999927,-0.0005794582599704674,1.5704761000000216,0.7851854940000357,0.039999958,0.039999947,-9.802719800000187,-0.004375396203197526,-0.013456140599518586,-0.008038989159750695,-0.004824386444161455,0.00013623843799628478
0.4625,0.0012277250999540871,-0.783941225000032,-0.0009591749499566937,-2.3562774749999926,-0.0005920637124703068,1.5704668750000217,0.7851702600000359,0.039999958,0.039999947,-9.802639625000188,-0.004397640237532252,-0.01366162274951597,-0.008145399849749341,-0.004731032299097704,0.00013782420499626458
0.465,0.001247216159953839,-0.7839276500000322,-0.0009775595199564596,-2.3562804899999925,-0.0006046691649701463,1.5704576500000218,0.7851550260000361,0.039999958,0.039999947,-9.802559450000189,-0.004419884271866979,-0.013867104899513354,-0.008251810539747986,-0.004637678154033952,0.0001394099719962444
0.4675,0.001267285239949462,-0.7839137750000345,-0.0009964900399523258,-2.356283499999993,-0.000617648808467313,1.5704481600000237,0.7851393365000395,0.0399999581,0.03999994715,-9.802466200000284,-0.004449311876565178,-0.014073985749500747,-0.00835987054973485,-0.004542109300620516,0.00014101383199609496
0.47000000000000003,0.0012885103599491916,-0.7838993000000346,-0.0010165124599520708,-2.356286499999993,-0.0006313768339671382,1.5704381400000238,0.7851227360000398,0.0399999584,0.0399999476,-9.802346800000285,-0.004493106622143985,-0.014283663999498077,-0.008471229199733431,-0.004442111030460334,0.00014265387799607408
0.47250000000000003,0.0013097354799489216,-0.7838848250000349,-0.0010365348799518158,-2.356289499999993,-0.0006451048594669634,1.570428120000024,0.7851061355000399,0.0399999587,0.03999994805,-9.802227400000287,-0.004536901367722793,-0.014493342249495408,-0.008582587849732015,-0.004342112760300152,0.0001442939239960532
0.47500000000000003,0.0013309605999486513,-0.783870350000035,-0.001056557299951561,-2.356292499999993,-0.0006588328849667886,1.5704181000000241,0.7850895350000402,0.039999959,0.0399999485,-9.802108000000288,-0.0045806961133016,-0.014703020499492738,-0.008693946499730596,-0.00424211449013997,0.00014593396999603234
0.47750000000000004,0.001352185719948381,-0.7838558750000352,-0.001076579719951306,-2.3562954999999928,-0.0006725609104666138,1.5704080800000244,0.7850729345000403,0.0399999593,0.039999948949999996,-9.801988600000291,-0.004624490858880408,-0.014912698749490068,-0.008805305149729178,-0.004142116219979788,0.00014757401599601146
0.48,0.0013734108399481102,-0.7838414000000353,-0.0010966021399510507,-2.3562984999999927,-0.0006862889359664388,1.5703980600000245,0.7850563340000406,0.0399999596,0.0399999494,-9.801869200000292,-0.004668285604459214,-0.015122376999487394,-0.008916663799727758,-0.004042117949819609,0.00014921406199599053
0.4825,0.00139463595994784,-0.7838269250000356,-0.0011166245599507957,-2.3563014999999927,-0.000700016961466264,1.5703880400000245,0.7850397335000409,0.0399999599,0.03999994985,-9.801749800000293,-0.004712080350038022,-0.015332055249484725,-0.00902802244972634,-0.003942119679659427,0.00015085410799596966
0.485,0.0014170670799431011,-0.7838118300000381,-0.0011377861799463198,-2.3563044999999927,-0.0007145257629631961,1.570377420000027,0.7850221760000445,0.03999996,0.0399999497,-9.801641350000255,-0.004746867529973034,-0.015558813299418769,-0.009142563399713132,-0.00383774237733576,0.00015261228599551107
0.4875,0.001440101199942808,-0.7837964250000382,-0.001159517399946043,-2.3563074999999927,-0.0007294249524630065,1.570366500000027,0.7850041400000448,0.03999996,0.03999994925,-9.801538375000256,-0.0047771509270362585,-0.015794111249415772,-0.009258695499711653,-0.003731175558906097,0.00015442952999548793
0.49,0.0014631353199425147,-0.7837810200000384,-0.0011812486199457664,-2.3563104999999926,-0.0007443241419628167,1.5703555800000273,0.784986104000045,0.03999996,0.039999948800000004,-9.801435400000257,-0.0048074343240994835,-0.016029409199412776,-0.009374827599710174,-0.003624608740476434,0.00015624677399546477
0.4925,0.0014861694399422214,-0.7837656150000386,-0.0012029798399454898,-2.3563134999999926,-0.000759223331462627,1.5703446600000275,0.7849680680000453,0.03999996,0.03999994835,-9.801332425000258,-0.004837717721162708,-0.01626470714940978,-0.009490959699708696,-0.003518041922046771,0.00015806401799544164
0.495,0.0015092035599419283,-0.7837502100000387,-0.001224711059945213,-2.3563164999999926,-0.0007741225209624374,1.5703337400000277,0.7849500320000455,0.03999996,0.0399999479,-9.801229450000259,-0.004868001118225932,-0.016500005099406783,-0.009607091799707217,-0.0034114751036171077,0.0001598812619954185
0.4975,0.001532237679941635,-0.783734805000039,-0.0012464422799449363,-2.3563194999999926,-0.0007890217104622477,1.5703228200000277,0.7849319960000457,0.03999996,0.039999947450000004,-9.80112647500026,-0.004898284515289156,-0.016735303049403787,-0.009723223899705738,-0.0033049082851874445,0.00016169850599539537
0.5,0.0015552717999413417,-0.7837194000000391,-0.0012681734999446595,-2.3563224999999925,-0.000803920899962058,1.5703119000000278,0.784913960000046,0.03999996,0.039999947,-9.801023500000262,-0.004928567912352381,-0.016970600999400794,-0.00983935599970426,-0.0031983414667577812,0.00016351574999537224
0.5025000000000001,0.001580189259935549,-0.7837029900000424,-0.0012916838999391886,-2.3563255149999924,-0.0008200396059583078,1.5703001100000307,0.7848944600000505,0.03999996,0.039999947,-9.80092322500026,-0.004959076433363547,-0.017218112849359788,-0.00996020664968741,-0.0030856315165878933,0.00016525069349551243
0.505,0.0016051067199345515,-0.7836865800000431,-0.0013151942999382472,-2.3563285299999923,-0.0008361583119576623,1.570288320000031,0.7848749600000512,0.03999996,0.039999947,-9.800822950000263,-0.004989584954375285,-0.01746562469934988,-0.010081057299682571,-0.002972921566402366,0.00016698563699544297
0.5075000000000001,0.0016300241799335547,-0.7836701700000438,-0.001338704699937307,-2.356331544999992,-0.0008522770179570177,1.5702765300000314,0.784855460000052,0.03999996,0.039999947,-9.800722675000268,-0.0050200934753870255,-0.01771313654933998,-0.010201907949677739,-0.0028602116162168337,0.00016872058049537358
0.51,0.001654941639932557,-0.7836537600000444,-0.0013622150999363656,-2.356334559999992,-0.0008683957239563723,1.570264740000032,0.7848359600000527,0.03999996,0.039999947,-9.800622400000272,-0.005050601996398764,-0.01796064839933007,-0.0103227585996729,-0.0027475016660313068,0.0001704555239953041
0.5125,0.0016798590999315595,-0.7836373500000451,-0.0013857254999354242,-2.356337574999992,-0.0008845144299557269,1.5702529500000324,0.7848164600000536,0.03999996,0.039999947,-9.800522125000276,-0.005081110517410503,-0.018208160249320163,-0.01044360924966806,-0.0026347917158457794,0.00017219046749523463
0.515,0.0017047765599305627,-0.7836209400000458,-0.001409235899934484,-2.356340589999992,-0.0009006331359550822,1.5702411600000328,0.7847969600000543,0.03999996,0.039999947,-9.80042185000028,-0.005111619038422242,-0.01845567209931026,-0.010564459899663228,-0.0025220817656602472,0.00017392541099516524
0.5175,0.0017303462699245228,-0.7836041750000491,-0.001433362529928778,-2.3563436199999916,-0.0009171741779511717,1.5702290600000357,0.7847769445000591,0.0399999603,0.03999994715,-9.800329450000214,-0.005137298814907291,-0.018714484899209637,-0.010686892299647258,-0.0024072941512415305,0.00017567469199500653
0.52,0.0017572204799249146,-0.7835867000000488,-0.0014587216199291476,-2.3563466799999917,-0.000934559891951425,1.5702163400000355,0.7847558980000587,0.039999961199999996,0.0399999476,-9.800252800000214,-0.005153321102216695,-0.018995899599213738,-0.01081248819964909,-0.0022883512083038218,0.00017745264799503245
0.5225,0.001784094689925305,-0.7835692250000486,-0.0014840807099295163,-2.3563497399999913,-0.0009519456059516777,1.5702036200000353,0.7847348515000585,0.039999962099999994,0.03999994805,-9.800176150000214,-0.005169343389526097,-0.019277314299217828,-0.010938084099650915,-0.0021694082653661187,0.0001792306039950583
0.525,0.0018109688999256967,-0.7835517500000483,-0.0015094397999298858,-2.3563527999999914,-0.000969331319951931,1.5701909000000351,0.7847138050000582,0.039999963,0.0399999485,-9.800099500000211,-0.005185365676835501,-0.01955872899922193,-0.011063679999652746,-0.00205046532242841,0.0001810085599950842
0.5275,0.0018378431099260871,-0.783534275000048,-0.0015347988899302542,-2.3563558599999914,-0.0009867170339521835,1.570178180000035,0.7846927585000579,0.0399999639,0.039999948949999996,-9.800022850000211,-0.005201387964144904,-0.01984014369922602,-0.011189275899654572,-0.0019315223794907068,0.00018278651599511005
0.53,0.0018647173199264789,-0.7835168000000478,-0.0015601579799306238,-2.3563589199999915,-0.001004102747952437,1.5701654600000348,0.7846717120000576,0.039999964799999996,0.0399999494,-9.79994620000021,-0.005217410251454307,-0.02012155839923012,-0.0113148717996564,-0.001812579436552998,0.00018456447199513597
0.5325,0.0018915915299268695,-0.7834993250000475,-0.0015855170699309922,-2.3563619799999915,-0.0010214884619526897,1.5701527400000346,0.7846506655000572,0.039999965699999994,0.03999994985,-9.799869550000208,-0.0052334325387637095,-0.02040297309923421,-0.011440467699658226,-0.001693636493615295,0.00018634242799516178
0.535,0.0019198186999217681,-0.7834810900000504,-0.001612154439926172,-2.3563651299999915,-0.001039750269949386,1.5701394100000368,0.7846285650000613,0.039999966399999996,0.0399999504,-9.799769400000303,-0.005266677681243299,-0.02068482449923654,-0.011569162699647475,-0.0015708336260751073,0.0001881468839950801
0.5375,0.0019487223499221882,-0.7834624750000501,-0.0016394309499265685,-2.3563683249999916,-0.0010584501249496579,1.5701257750000366,0.7846059375000609,0.039999967,0.039999951,-9.799657500000302,-0.005308534251413242,-0.02096689424924064,-0.011699407249649367,-0.001446100796210095,0.00018996458999510652
0.54,0.0019776259999226093,-0.7834438600000498,-0.001666707459926966,-2.3563715199999917,-0.0010771499799499303,1.5701121400000364,0.7845833100000607,0.0399999676,0.0399999516,-9.7995456000003,-0.005350390821583188,-0.02124896399924475,-0.011829651799651265,-0.001321367966345077,0.00019178229599513301
0.5425,0.0020065296499230294,-0.7834252450000495,-0.0016939839699273624,-2.3563747149999914,-0.0010958498349502022,1.5700985050000362,0.7845606825000603,0.0399999682,0.039999952199999994,-9.799433700000298,-0.005392247391753131,-0.02153103374924885,-0.011959896349653158,-0.0011966351364800644,0.00019360000199515943
0.545,0.0020354332999234503,-0.7834066300000493,-0.00172126047992776,-2.3563779099999915,-0.0011145496899504746,1.570084870000036,0.7845380550000599,0.0399999688,0.039999952799999995,-9.799321800000296,-0.005434103961923076,-0.02181310349925296,-0.012090140899655056,-0.0010719023066150465,0.00019541770799518592
0.5475,0.0020643369499238704,-0.7833880150000491,-0.0017485369899281563,-2.3563811049999916,-0.0011332495449507462,1.5700712350000359,0.7845154275000596,0.0399999694,0.039999953399999996,-9.799209900000296,-0.005475960532093019,-0.02209517324925706,-0.012220385449656949,-0.0009471694767500341,0.00019723541399521233
0.55,0.002093240599924292,-0.7833694000000487,-0.0017758134999285539,-2.3563842999999918,-0.001151949399951019,1.5700576000000357,0.7844928000000593,0.03999997,0.039999954,-9.799098000000294,-0.005517817102262964,-0.02237724299926117,-0.012350629999658847,-0.0008224366468850161,0.00019905311999523882
0.5525,0.002124245209917547,-0.7833496450000526,-0.0018050751399221825,-2.3563875549999915,-0.001172009784946652,1.570042960000039,0.7844685300000646,0.03999997045,0.0399999546,-9.799018350000212,-0.00554527677588308,-0.022695126449154633,-0.012485544499641213,-0.0006921901596622773,0.00020090413199507748
0.555,0.0021552498199163073,-0.7833298900000534,-0.001834336779921012,-2.3563908099999913,-0.0011920701699458496,1.5700283200000396,0.7844442600000655,0.0399999709,0.0399999552,-9.798938700000216,-0.0055727364494654865,-0.023013009899141918,-0.012620458999635816,-0.0005619436724250905,0.00020275514399500344
0.5575,0.002186254429915066,-0.7833101350000541,-0.0018635984199198406,-2.356394064999991,-0.0012121305549450466,1.5700136800000402,0.7844199900000665,0.03999997135,0.0399999558,-9.79885905000022,-0.005600196123047892,-0.023330893349129193,-0.012755373499630414,-0.00043169718518790964,0.00020460615599492932
0.56,0.002217259039913826,-0.7832903800000549,-0.0018928600599186702,-2.356397319999991,-0.0012321909399442442,1.5699990400000408,0.7843957200000674,0.0399999718,0.0399999564,-9.798779400000221,-0.005627655796630299,-0.023648776799116478,-0.012890287999625018,-0.000301450697950723,0.0002064571679948553
0.5625,0.0022482636499125846,-0.7832706250000557,-0.0019221216999174987,-2.3564005749999906,-0.001252251324943441,1.5699844000000414,0.7843714500000685,0.03999997225,0.039999957,-9.798699750000225,-0.005655115470212704,-0.02396666024910375,-0.013025202499619616,-0.0001712042107135421,0.0002083081799947812
0.5650000000000001,0.0022792682599113447,-0.7832508700000566,-0.0019513833399163283,-2.3564038299999903,-0.001272311709942639,1.569969760000042,0.7843471800000694,0.0399999727,0.0399999576,-9.798620100000228,-0.005682575143795111,-0.024284543699091037,-0.01316011699961422,-4.0957723476355424e-05,0.00021015919199470715
0.5675,0.0023109967749038065,-0.7832307000000609,-0.001981329074909206,-2.35640711999999,-0.0012928408349377584,1.5699547600000456,0.7843223450000752,0.0399999732,0.039999958,-9.798545050000191,-0.0057044570101113445,-0.02461152044899921,-0.01329655584959556,9.120109931835071e-05,0.00021206457949416008
0.5700000000000001,0.0023441730999024797,-0.7832097000000617,-0.002012642999907954,-2.35641047999999,-0.0013143074399368999,1.5699390400000461,0.7842963800000763,0.0399999738,0.039999958,-9.798479200000195,-0.00571518326175035,-0.024956683798985406,-0.01343604339958998,0.00022718459327778623,0.0002140787179940795
0.5725,0.002377349424901151,-0.7831887000000626,-0.0020439569249067003,-2.35641383999999,-0.0013357740449360402,1.5699233200000469,0.7842704150000773,0.0399999744,0.039999958,-9.798413350000196,-0.005725909513389356,-0.025301847148971587,-0.013575530949584396,0.00036316808723721575,0.00021609285649399888
0.5750000000000001,0.0024105257498998243,-0.7831677000000634,-0.002075270849905448,-2.35641719999999,-0.0013572406499351816,1.5699076000000474,0.7842444500000784,0.039999975,0.039999958,-9.7983475000002,-0.005736635765028362,-0.025647010498957783,-0.013715018499578818,0.0004991515811966513,0.00021810699499391831
0.5775,0.0024437020748984957,-0.7831467000000643,-0.002106584774904194,-2.3564205599999895,-0.0013787072549343222,1.569891880000048,0.7842184850000794,0.0399999756,0.039999958,-9.798281650000202,-0.005747362016667368,-0.02599217384894396,-0.013854506049573233,0.0006351350751560808,0.00022012113349383766
0.58,0.0024768783998971675,-0.7831257000000651,-0.0021378986999029403,-2.3564239199999895,-0.0014001738599334628,1.5698761600000486,0.7841925200000804,0.039999976199999995,0.039999958,-9.798215800000204,-0.005758088268306373,-0.026337337198930142,-0.013993993599567649,0.0007711185691155103,0.000222135271993757
0.5825,0.0025100547248958407,-0.7831047000000659,-0.002169212624901688,-2.3564272799999895,-0.0014216404649326042,1.5698604400000493,0.7841665550000815,0.039999976799999996,0.039999958,-9.798149950000207,-0.005768814519945379,-0.026682500548916337,-0.01413348114956207,0.0009071020630749458,0.00022414941049367647
0.585,0.0025447251998886745,-0.7830828100000702,-0.002201938379894917,-2.3564307599999887,-0.0014440747299279632,1.5698440300000525,0.7841393960000872,0.039999977,0.039999958,-9.798059900000322,-0.0057993113993329,-0.02703263199889165,-0.01427592309954763,0.0010464093818088416,0.00022609246099400426
0.5875,0.002580142749889191,-0.7830604750000699,-0.002235370049895404,-2.356434299999989,-0.0014669928249282972,1.5698272750000524,0.7841116400000868,0.039999977,0.039999958,-9.79795775000032,-0.005839693592734933,-0.02738524749889679,-0.014419842249549727,0.0011873786129535562,0.00022799996749403207
0.59,0.0026155602998897054,-0.7830381400000695,-0.00226880171989589,-2.356437839999989,-0.0014899109199286303,1.569810520000052,0.7840838840000864,0.039999977,0.039999958,-9.797855600000318,-0.005880075786136965,-0.02773786299890191,-0.014563761399551818,0.0013283478440982645,0.00022990747399405977
0.5925,0.0026509778498902217,-0.7830158050000693,-0.002302233389896377,-2.356441379999989,-0.0015128290149289644,1.569793765000052,0.7840561280000861,0.039999977,0.039999958,-9.797753450000316,-0.005920457979538999,-0.02809047849890705,-0.014707680549553915,0.0014693170752429793,0.0002318149804940876
0.595,0.0026863953998907363,-0.7829934700000689,-0.002335665059896863,-2.3564449199999893,-0.0015357471099292973,1.5697770100000517,0.7840283720000856,0.039999977,0.039999958,-9.797651300000314,-0.005960840172941031,-0.028443093998912174,-0.014851599699556007,0.0016102863063876876,0.0002337224869941153
0.5975,0.0027218129498912526,-0.7829711350000685,-0.00236909672989735,-2.356448459999989,-0.0015586652049296313,1.5697602550000513,0.7840006160000852,0.039999977,0.039999958,-9.797549150000314,-0.006001222366343064,-0.028795709498917313,-0.014995518849558104,0.0017512555375324022,0.0002356299934941431
0.6,0.002757230499891767,-0.7829488000000683,-0.0024025283998978355,-2.3564519999999893,-0.0015815832999299642,1.5697435000000513,0.7839728600000848,0.039999977,0.039999958,-9.797447000000313,-0.006041604559745096,-0.029148324998922438,-0.015139437999560195,0.0018922247686771108,0.00023753749999417083
0.6025,0.00279495755488423,-0.7829251960000725,-0.002438142689890713,-2.3564558249999883,-0.0016059971649250832,1.5697256800000547,0.7839433310000906,0.039999977449999995,0.0399999583,-9.797378150000212,-0.006065609771684578,-0.029540361248796988,-0.015287723949544967,0.0020380498196644883,0.00023946763249407715
0.605,0.0028326846098837488,-0.7829015920000727,-0.002473756979890259,-2.356459649999988,-0.0016304110299247717,1.569707860000055,0.783913802000091,0.0399999779,0.0399999586,-9.797309300000212,-0.0060896149835740114,-0.02993239749879199,-0.015436009899543076,0.0021838748706666986,0.00024139776499405253
0.6075,0.0028704116648832693,-0.782877988000073,-0.0025093712698898065,-2.356463474999988,-0.0016548248949244614,1.569690040000055,0.7838842730000913,0.03999997835,0.0399999589,-9.797240450000213,-0.006113620195463446,-0.030324433748787006,-0.01558429584954119,0.002329699921668915,0.000243327897494028
0.61,0.002908138719882788,-0.7828543840000733,-0.002544985559889352,-2.3564672999999883,-0.00167923875992415,1.5696722200000555,0.7838547440000918,0.039999978799999995,0.0399999592,-9.797171600000214,-0.00613762540735288,-0.030716469998782008,-0.0157325817995393,0.0024755249726711253,0.00024525802999400336
0.6125,0.0029458657748823087,-0.7828307800000737,-0.0025805998498888995,-2.356471124999988,-0.0017036526249238398,1.5696544000000556,0.7838252150000922,0.03999997925,0.0399999595,-9.797102750000215,-0.006161630619242314,-0.031108506248777024,-0.015880867749537415,0.0026213500236733417,0.00024718816249397885
0.615,0.0029835928298818275,-0.782807176000074,-0.0026162141398884454,-2.356474949999988,-0.0017280664899235283,1.5696365800000558,0.7837956860000925,0.039999979699999993,0.0399999598,-9.797033900000216,-0.006185635831131749,-0.03150054249877202,-0.016029153699535524,0.002767175074675552,0.00024911829499395423
0.6175,0.0030221121848738723,-0.7827831030000787,-0.0026525772598809273,-2.3564788099999876,-0.0017529934799183767,1.5696183850000596,0.7837655350000987,0.03999998,0.0399999599,-9.796967150000198,-0.006208710023135193,-0.031898501148711164,-0.0161789173495197,0.0029145415518357053,0.0002510963274934778
0.62,0.003062216139873361,-0.782758092000079,-0.0026904380398804443,-2.3564827399999877,-0.0017789467199180457,1.56959944000006,0.7837341400000991,0.03999998,0.0399999596,-9.796904600000198,-0.006229922175340337,-0.03230830459870594,-0.01633163639951775,0.003064990881355296,0.0002531701599934513
0.6225,0.0031023200948728513,-0.7827330810000793,-0.002728298819879963,-2.356486669999988,-0.0018048999599177158,1.5695804950000602,0.7837027450000995,0.03999998,0.039999959300000006,-9.7968420500002,-0.006251134327545482,-0.032718108048700734,-0.01648435544951581,0.003215440210874894,0.00025524399249342495
0.625,0.0031424240498723398,-0.7827080700000796,-0.0027661595998794805,-2.3564905999999874,-0.0018308531999173849,1.5695615500000604,0.7836713500000999,0.03999998,0.039999959,-9.7967795000002,-0.006272346479750627,-0.033127911498695504,-0.01663707449951386,0.0033658895403944847,0.00025731782499339854
0.6275000000000001,0.0031825280048718304,-0.78268305900008,-0.0028040203798789993,-2.3564945299999875,-0.001856806439917055,1.5695426050000607,0.7836399550001003,0.03999998,0.039999958700000005,-9.7967169500002,-0.006293558631955772,-0.033537714948690296,-0.01678979354951192,0.0035163388699140825,0.0002593916574933722
0.63,0.003222631959871319,-0.7826580480000802,-0.0028418811598785163,-2.3564984599999876,-0.001882759679916724,1.5695236600000608,0.7836085600001007,0.03999998,0.0399999584,-9.7966544000002,-0.006314770784160917,-0.03394751839868507,-0.01694251259950997,0.003666788199433674,0.0002614654899933457
0.6325000000000001,0.003262735914870809,-0.7826330370000806,-0.002879741939878035,-2.3565023899999877,-0.001908712919916394,1.5695047150000612,0.7835771650001011,0.03999998,0.0399999581,-9.796591850000201,-0.006335982936366062,-0.03435732184867986,-0.01709523164950803,0.0038172375289532716,0.00026353932249331935
0.635,0.0033044686498623957,-0.7826070950000854,-0.0029191420298700847,-2.356506349999987,-0.0019357210699109454,1.5694849900000651,0.7835444900001077,0.039999980399999996,0.0399999582,-9.796538900000156,-0.006346413027478803,-0.0347982363985237,-0.017250837199492077,0.003971108514312333,0.00026553427999367554
0.6375000000000001,0.0033470157748618553,-0.7825806875000857,-0.002959311774869574,-2.356510324999987,-0.0019632566749105953,1.5694648750000653,0.7835111750001081,0.039999981,0.0399999585,-9.796490750000157,-0.006351452087967089,-0.035254706498517904,-0.017407885999490082,0.004126690327615971,0.0002674897999936507
0.64,0.0033895628998613127,-0.7825542800000861,-0.002999481519869062,-2.3565142999999873,-0.001990792279910244,1.5694447600000656,0.7834778600001086,0.0399999816,0.0399999588,-9.796442600000157,-0.006356491148455374,-0.03571117659851208,-0.017564934799488077,0.004282272140919602,0.0002694453199936257
0.6425,0.0034321100248607696,-0.7825278725000864,-0.0030396512648685494,-2.356518274999987,-0.002018327884909893,1.5694246450000657,0.783444545000109,0.0399999822,0.0399999591,-9.796394450000157,-0.00636153020894366,-0.03616764669850626,-0.017721983599486076,0.004437853954223233,0.0002714008399936008
0.645,0.003474657149860229,-0.7825014650000867,-0.003079821009868039,-2.356522249999987,-0.002045863489909543,1.569404530000066,0.7834112300001094,0.0399999828,0.0399999594,-9.796346300000158,-0.006366569269431946,-0.03662411679850046,-0.01787903239948408,0.00459343576752687,0.00027335635999357595
0.6475,0.0035172042748596866,-0.7824750575000871,-0.0031199907548675266,-2.3565262249999868,-0.0020733990949091917,1.5693844150000662,0.7833779150001098,0.0399999834,0.0399999597,-9.79629815000016,-0.006371608329920232,-0.03708058689849463,-0.018036081199482076,0.004749017580830501,0.000275311879993551
0.65,0.0035597513998591457,-0.7824486500000873,-0.0031601604998670162,-2.3565301999999866,-0.002100934699908842,1.5693643000000665,0.7833446000001102,0.039999984,0.03999996,-9.79625000000016,-0.006376647390408518,-0.03753705699848883,-0.01819312999948008,0.0049045993941341385,0.0002772673999935262
0.6525,0.0036048064798502684,-0.7824208025000925,-0.003202700754858626,-2.3565342199999866,-0.0021300947449030922,1.5693430450000705,0.7833093350001171,0.039999984,0.03999996,-9.796136450000377,-0.006412997189788413,-0.03799212564848767,-0.01835431864946432,0.005065301223123904,0.0002792338549934649
0.655,0.0036498615598496956,-0.7823929550000929,-0.003245241009858085,-2.3565382399999866,-0.0021592547899027216,1.5693217900000709,0.7832740700001176,0.039999984,0.03999996,-9.796022900000379,-0.006449346989271966,-0.03844719429848188,-0.01851550729946227,0.005226003052130626,0.0002812003099934399
0.6575,0.0036949166398491206,-0.7823651075000932,-0.0032877812648575426,-2.3565422599999866,-0.0021884148349023496,1.569300535000071,0.7832388050001181,0.039999984,0.03999996,-9.79590935000038,-0.006485696788755518,-0.03890226294847608,-0.018676695949460215,0.005386704881137342,0.0002831667649934148
0.66,0.0037399717198485483,-0.7823372600000936,-0.003330321519857002,-2.3565462799999866,-0.002217574879901979,1.5692792800000714,0.7832035400001185,0.039999984,0.03999996,-9.795795800000382,-0.006522046588239071,-0.039357331598470296,-0.018837884599458166,0.005547406710144065,0.0002851332199933898
0.6625,0.0037850267998479734,-0.782309412500094,-0.0033728617748564594,-2.3565502999999866,-0.002246734924901607,1.5692580250000716,0.783168275000119,0.039999984,0.03999996,-9.795682250000384,-0.006558396387722622,-0.03981240024846449,-0.018999073249456114,0.0057081085391507795,0.0002870996749933647
0.665,0.0038300818798474006,-0.7822815650000944,-0.0034154020298559186,-2.3565543199999865,-0.0022758949699012362,1.569236770000072,0.7831330100001195,0.039999984,0.03999996,-9.795568700000386,-0.006594746187206175,-0.04026746889845871,-0.019160261899454065,0.005868810368157502,0.00028906612999333976
0.6675,0.0038759941448380836,-0.7822532180000998,-0.0034587525248471122,-2.356558349999986,-0.0023056102598952018,1.5692151050000764,0.7830970700001267,0.039999984,0.03999996,-9.795461350000323,-0.006625112146076592,-0.04073543509832136,-0.019322824749437993,0.0060313773335823094,0.0002910334449933059
0.67,0.0039236207798374785,-0.7822238720001001,-0.0035037234998465407,-2.3565623999999863,-0.0023364360398948096,1.5691926200000768,0.7830597800001272,0.039999984,0.03999996,-9.795366400000324,-0.0066435104235378776,-0.041229196398315085,-0.019488135999435892,0.006197674571900306,0.00029300247999328085
0.6725,0.003971247414836871,-0.7821945260001005,-0.003548694474845967,-2.356566449999986,-0.0023672618198944165,1.569170135000077,0.7830224900001277,0.039999984,0.03999996,-9.795271450000325,-0.006661908700999163,-0.041722957698308784,-0.019653447249433784,0.006363971810218295,0.00029497151499325577
0.675,0.004018874049836266,-0.7821651800001009,-0.0035936654498453955,-2.356570499999986,-0.0023980875998940248,1.5691476500000774,0.7829852000001282,0.039999984,0.03999996,-9.795176500000327,-0.006680306978460449,-0.04221671899830251,-0.019818758499431682,0.006530269048536291,0.00029694054999323074
0.6775,0.0040665006848356585,-0.7821358340001012,-0.003638636424844822,-2.3565745499999857,-0.0024289133798936317,1.5691251650000775,0.7829479100001286,0.039999984,0.03999996,-9.795081550000328,-0.0066987052559217344,-0.042710480298296216,-0.019984069749429574,0.006696566286854281,0.0002989095849932056
0.68,0.004114127319835053,-0.7821064880001016,-0.0036836073998442504,-2.356578599999986,-0.00245973915989324,1.5691026800000778,0.7829106200001291,0.039999984,0.03999996,-9.794986600000328,-0.00671710353338302,-0.043204241598289936,-0.020149380999427473,0.0068628635251722775,0.0003008786199931806
0.6825,0.004161753954834446,-0.782077142000102,-0.0037285783748436767,-2.356582649999986,-0.0024905649398928465,1.5690801950000781,0.7828733300001296,0.039999984,0.03999996,-9.79489165000033,-0.006735501810844305,-0.04369800289828364,-0.02031469224942536,0.007029160763490266,0.0003028476549931555
0.685,0.00421113680982465,-0.7820467640001078,-0.0037752092298344187,-2.356586819999985,-0.002522528049886503,1.5690569100000826,0.7828346600001372,0.0399999844,0.03999996,-9.794804400000292,-0.006752627948241459,-0.04421112019817607,-0.020482708099409108,0.007198921497312877,0.0003049017899926851
0.6875,0.004261397774824009,-0.7820158700001082,-0.003822670024833813,-2.356591049999985,-0.002555059824886088,1.569033225000083,0.7827953000001378,0.039999985,0.03999996,-9.794721000000292,-0.006769118015596584,-0.04473391549816941,-0.02065207624940695,0.00737041397891491,0.00030699847499265833
0.6900000000000001,0.0043116587398233696,-0.7819849760001086,-0.0038701308198332103,-2.356595279999985,-0.0025875915998856748,1.5690095400000832,0.7827559400001383,0.039999985599999996,0.03999996,-9.794637600000293,-0.006785608082951709,-0.045256710798162764,-0.020821444399404795,0.00754190646051695,0.00030909515999263167
0.6925,0.0043619197048227285,-0.781954082000109,-0.003917591614832605,-2.356599509999985,-0.00262012337488526,1.5689858550000835,0.7827165800001388,0.0399999862,0.03999996,-9.794554200000293,-0.006802098150306834,-0.04577950609815609,-0.020990812549402636,0.0077133989421189824,0.00031119184499260496
0.6950000000000001,0.00441218066982209,-0.7819231880001094,-0.003965052409832002,-2.3566037399999846,-0.002652655149884846,1.5689621700000838,0.7826772200001393,0.0399999868,0.03999996,-9.794470800000296,-0.006818588217661959,-0.04630230139814945,-0.021160180699400483,0.007884891423721023,0.0003132885299925783
0.6975,0.004462441634821448,-0.7818922940001097,-0.004012513204831396,-2.3566079699999847,-0.002685186924884431,1.568938485000084,0.7826378600001398,0.0399999874,0.03999996,-9.794387400000296,-0.006835078285017084,-0.04682509669814278,-0.021329548849398323,0.008056383905323056,0.00031538521499255154
0.7000000000000001,0.00451270259982081,-0.7818614000001102,-0.004059973999830793,-2.3566121999999847,-0.002717718699884018,1.5689148000000843,0.7825985000001403,0.039999988,0.03999996,-9.794304000000297,-0.006851568352372209,-0.04734789199813614,-0.02149891699939617,0.008227876386925096,0.0003174818999925249
0.7025,0.004565658809810525,-0.7818289310001162,-0.004109982754821071,-2.356616639999984,-0.002751996429877356,1.5688897800000894,0.7825570325001483,0.039999988,0.03999996,-9.794262600000149,-0.006848532217565553,-0.04791409744797415,-0.021672237649379866,0.00840411861364067,0.00031944241799298535
0.705,0.0046186150198098495,-0.7817964620001167,-0.004159991509820433,-2.356621079999984,-0.0027862741598769186,1.5688647600000898,0.7825155650001488,0.039999988,0.03999996,-9.794221200000148,-0.006845496082689282,-0.048480302897966926,-0.021845558299377656,0.008580360840373176,0.00032140293599296037
0.7075,0.004671571229809177,-0.781763993000117,-0.004210000264819797,-2.3566255199999837,-0.002820551889876483,1.5688397400000902,0.7824740975001494,0.039999988,0.03999996,-9.79417980000015,-0.00684245994781301,-0.04904650834795973,-0.022018878949375455,0.008756603067105692,0.00032336345399293544
0.71,0.004724527439808501,-0.7817315240001174,-0.00426000901981916,-2.356629959999984,-0.002854829619876046,1.5688147200000904,0.78243263000015,0.039999988,0.03999996,-9.79413840000015,-0.006839423812936739,-0.049612713797952505,-0.022192199599373245,0.008932845293838199,0.00032532397199291045
0.7125,0.004777483649807828,-0.7816990550001178,-0.004310017774818525,-2.3566343999999835,-0.0028891073498756104,1.5687897000000908,0.7823911625001505,0.039999988,0.03999996,-9.794097000000152,-0.006836387678060467,-0.05017891924794531,-0.02236552024937104,0.009109087520570713,0.0003272844899928855
0.715,0.004830439859807153,-0.7816665860001182,-0.004360026529817886,-2.3566388399999836,-0.002923385079875173,1.5687646800000912,0.782349695000151,0.039999988,0.03999996,-9.794055600000151,-0.006833351543184196,-0.05074512469793809,-0.02253884089936883,0.009285329747303221,0.00032924500799286053
0.7175,0.004884314464796411,-0.7816335780001246,-0.004410903339807734,-2.3566433849999826,-0.002958257619868217,1.5687392300000962,0.7823075075001594,0.039999988,0.0399999599,-9.79399625000035,-0.006841595051697525,-0.051311846047925234,-0.02271344399935257,0.009462895895627167,0.0003312423699924317
0.72,0.0049400258597957014,-0.7815994920001249,-0.004463516259807063,-2.3566481399999826,-0.002994319779867757,1.5687129200000964,0.78226388000016,0.039999988,0.0399999596,-9.79390100000035,-0.006872397847360603,-0.05187959919791799,-0.02289061199935031,0.009643109887177459,0.00033331341999240523
0.7225,0.004995737254794993,-0.7815654060001254,-0.004516129179806394,-2.356652894999982,-0.0030303819398672985,1.568686610000097,0.7822202525001606,0.039999988,0.039999959300000006,-9.79380575000035,-0.006903200643023681,-0.05244735234791078,-0.023067779999348056,0.009823323878727759,0.00033538446999237893
0.725,0.005051448649794283,-0.7815313200001258,-0.004568742099805723,-2.356657649999982,-0.0030664440998668385,1.5686603000000972,0.7821766250001612,0.039999988,0.039999959,-9.793710500000351,-0.006934003438686758,-0.05301510549790354,-0.023244947999345796,0.010003537870278049,0.0003374555199923525
0.7275,0.005107160044793575,-0.7814972340001263,-0.004621355019805055,-2.356662404999982,-0.0031025062598663803,1.5686339900000974,0.7821329975001616,0.039999988,0.039999958700000005,-9.793615250000354,-0.006964806234349837,-0.053582858647896324,-0.023422115999343546,0.01018375186182835,0.0003395265699923262
0.73,0.005162871439792864,-0.7814631480001267,-0.004673967939804384,-2.356667159999982,-0.0031385684198659202,1.5686076800000979,0.7820893700001622,0.039999988,0.0399999584,-9.793520000000354,-0.006995609030012914,-0.05415061179788908,-0.023599283999341285,0.010363965853378641,0.0003415976199922998
0.7325,0.005218582834792156,-0.7814290620001272,-0.004726580859803715,-2.356671914999982,-0.003174630579865462,1.5685813700000981,0.7820457425001628,0.039999988,0.0399999581,-9.793424750000355,-0.007026411825675993,-0.05471836494788186,-0.023776451999339032,0.01054417984492894,0.00034366866999227346
0.735,0.005276169869780913,-0.7813938700001338,-0.004780967119793087,-2.3566768499999813,-0.0032119078598581785,1.5685541700001036,0.7820006450001716,0.039999988199999996,0.0399999582,-9.793357800000198,-0.007045192876782805,-0.05531625739770538,-0.023956170199322453,0.010727001819070287,0.00034564027599280546
0.7375,0.005334694724780169,-0.7813581250001342,-0.004836240049792384,-2.356681874999981,-0.003249792699857697,1.568526525000104,0.7819548125001722,0.0399999885,0.0399999585,-9.793305000000199,-0.007057963055510458,-0.055929219497697594,-0.02413716349932015,0.010911127784529087,0.000347562159992781
0.74,0.005393219579779423,-0.7813223800001347,-0.004891512979791679,-2.356686899999981,-0.003287677539857214,1.5684988800001043,0.7819089800001728,0.0399999888,0.0399999588,-9.793252200000198,-0.00707073323423811,-0.056542181597689777,-0.024318156799317845,0.011095253749987878,0.00034948404399275654
0.7425,0.005451744434778679,-0.7812866350001352,-0.0049467859097909765,-2.356691924999981,-0.0033255623798567327,1.5684712350001047,0.7818631475001734,0.0399999891,0.0399999591,-9.7931994000002,-0.007083503412965763,-0.05715514369768199,-0.024499150099315543,0.011279379715446678,0.0003514059279927321
0.745,0.0055102692897779325,-0.7812508900001356,-0.005002058839790272,-2.356696949999981,-0.0033634472198562494,1.568443590000105,0.7818173150001739,0.0399999894,0.0399999594,-9.7931466000002,-0.007096273591693415,-0.05776810579767417,-0.024680143399313237,0.01146350568090547,0.00035332781199270757
0.7475,0.005568794144777189,-0.7812151450001361,-0.00505733176978957,-2.356701974999981,-0.003401332059855768,1.5684159450001054,0.7817714825001746,0.039999989699999995,0.0399999597,-9.793093800000202,-0.007109043770421068,-0.05838106789766638,-0.024861136699310935,0.01164763164636427,0.00035524969599268316
0.75,0.005627318999776442,-0.7811794000001365,-0.005112604699788865,-2.356706999999981,-0.0034392168998552846,1.5683883000001058,0.7817256500001751,0.03999999,0.03999996,-9.793041000000203,-0.00712181394914872,-0.05899402999765856,-0.025042129999308625,0.011831757611823061,0.00035717157999265865
0.7525000000000001,0.005688714659764696,-0.7811419450001436,-0.005170591894777759,-2.3567121599999803,-0.003478961364847676,1.5683593050001112,0.7816775570001844,0.03999999,0.03999996,-9.792990450000195,-0.007132203667384771,-0.059640707597521554,-0.02522679859929224,0.012019398528363359,0.000359063505992749
0.755,0.0057501103197639125,-0.781104490000144,-0.00522857908977702,-2.3567173199999805,-0.003518705829847169,1.5683303100001116,0.781629464000185,0.03999999,0.03999996,-9.792939900000196,-0.007142593385611728,-0.0602873851975133,-0.025411467199289887,0.012207039444917077,0.0003609554319927249
0.7575000000000001,0.005811505979763132,-0.7810670350001445,-0.005286566284776283,-2.35672247999998,-0.003558450294846664,1.568301315000112,0.7815813710001855,0.03999999,0.03999996,-9.792889350000195,-0.007152983103838686,-0.06093406279750509,-0.025596135799287538,0.012394680361470801,0.0003628473579927009
0.76,0.00587290163976235,-0.7810295800001449,-0.005344553479775542,-2.3567276399999804,-0.003598194759846157,1.5682723200001123,0.7815332780001861,0.03999999,0.03999996,-9.792838800000196,-0.007163372822065643,-0.061580740397496836,-0.025780804399285182,0.012582321278024517,0.00036473928399267675
0.7625000000000001,0.005934297299761569,-0.7809921250001454,-0.005402540674774805,-2.35673279999998,-0.003637939224845652,1.5682433250001127,0.7814851850001867,0.03999999,0.03999996,-9.792788250000196,-0.007173762540292601,-0.06222741799748862,-0.025965472999282837,0.012769962194578243,0.0003666312099926527
0.765,0.005995692959760786,-0.7809546700001458,-0.005460527869774066,-2.3567379599999803,-0.0036776836898451447,1.568214330000113,0.7814370920001873,0.03999999,0.03999996,-9.792737700000197,-0.007184152258519558,-0.06287409559748036,-0.02615014159928048,0.01295760311113196,0.00036852313599262856
0.7675000000000001,0.006058064169748565,-0.7809166250001532,-0.0055194373497625135,-2.35674313999998,-0.0037180600848372293,1.5681848850001185,0.7813882365001968,0.03999999,0.0399999599,-9.79269115000015,-0.007186956657145059,-0.06353778429727266,-0.026336015099264004,0.013146741966897134,0.00037044582649224374
0.77,0.006122386479747745,-0.7808774000001538,-0.0055801913997617384,-2.3567483599999797,-0.003759700339836698,1.5681545400001191,0.7813378560001976,0.03999999,0.0399999596,-9.792652600000151,-0.007174590416301077,-0.06423549519726376,-0.0265242983992616,0.013338876701137838,0.0003724300459922184
0.7725,0.006186708789746924,-0.7808381750001543,-0.005640945449760963,-2.3567535799999795,-0.003801340594836167,1.5681241950001195,0.7812874755001982,0.03999999,0.039999959300000006,-9.792614050000152,-0.007162224175457095,-0.06493320609725486,-0.026712581699259202,0.013531011435378543,0.0003744142654921931
0.775,0.006251031099746107,-0.7807989500001549,-0.005701699499760192,-2.3567587999999797,-0.003842980849835638,1.5680938500001198,0.7812370950001989,0.03999999,0.039999959,-9.792575500000153,-0.007149857934613112,-0.06563091699724599,-0.02690086499925681,0.013723146169619256,0.0003763984849921679
0.7775,0.006315353409745286,-0.7807597250001553,-0.005762453549759417,-2.3567640199999795,-0.0038846211048351067,1.5680635050001202,0.7811867145001995,0.03999999,0.039999958700000005,-9.792536950000152,-0.00713749169376913,-0.06632862789723709,-0.027089148299254406,0.013915280903859961,0.0003783827044921426
0.78,0.006379675719744469,-0.7807205000001558,-0.005823207599758645,-2.3567692399999793,-0.003926261359834577,1.5680331600001205,0.7811363340002002,0.03999999,0.0399999584,-9.792498400000152,-0.007125125452925147,-0.06702633879722823,-0.027277431599252014,0.014107415638100673,0.00038036692399211734
0.7825,0.006443998029743649,-0.7806812750001564,-0.00588396164975787,-2.356774459999979,-0.003967901614834046,1.568002815000121,0.7810859535002008,0.03999999,0.0399999581,-9.792459850000153,-0.007112759212081165,-0.06772404969721933,-0.02746571489924961,0.014299550372341378,0.00038235114349209203
0.785,0.006510307719730913,-0.7806408830001639,-0.0059465949397458275,-2.356779759999979,-0.004010829329825796,1.5679714900001271,0.7810340240002107,0.0399999905,0.0399999582,-9.79237030000046,-0.007126689236502788,-0.06842308499720251,-0.02765636109923305,0.014494703429896059,0.0003842294679927019
0.7875,0.006577611099730054,-0.7805999075001644,-0.006010167849745017,-2.356785099999979,-0.00405440077482524,1.5679396750001275,0.7809813200002115,0.03999999125,0.0399999585,-9.79225525000046,-0.007153767393793268,-0.0691227824971936,-0.0278481887492306,0.014691365649134812,0.0003860548449926786
0.79,0.006644914479729199,-0.7805589320001649,-0.006073740759744209,-2.3567904399999784,-0.004097972219824686,1.5679078600001282,0.7809286160002121,0.039999992,0.0399999588,-9.792140200000462,-0.007180845551083749,-0.0698224799971847,-0.028040016399228165,0.01488802786837357,0.00038788022199265544
0.7925,0.00671221785972834,-0.7805179565001654,-0.006137313669743398,-2.3567957799999784,-0.004141543664824131,1.5678760450001286,0.7808759120002128,0.03999999275,0.0399999591,-9.792025150000464,-0.007207923708374228,-0.07052217749717578,-0.028231844049225716,0.015084690087612323,0.00038970559899263214
0.795,0.006779521239727485,-0.7804769810001659,-0.00620088657974259,-2.3568011199999783,-0.004185115109823577,1.567844230000129,0.7808232080002134,0.0399999935,0.0399999594,-9.791910100000464,-0.007235001865664709,-0.07122187499716688,-0.02842367169922328,0.015281352306851084,0.00039153097599260896
0.7975,0.006846824619726626,-0.7804360055001665,-0.006264459489741779,-2.3568064599999783,-0.0042286865548230215,1.5678124150001294,0.7807705040002141,0.03999999425,0.0399999597,-9.791795050000466,-0.007262080022955189,-0.07192157249715796,-0.028615499349220832,0.015478014526089835,0.00039335635299258566
0.8,0.006914127999725772,-0.780395030000167,-0.006328032399740971,-2.3568117999999783,-0.004272257999822468,1.5677806000001298,0.7807178000002147,0.039999995,0.03999996,-9.791680000000468,-0.0072891581802456695,-0.07262126999714907,-0.028807326999218397,0.015674676745328596,0.0003951817299925625
0.8025,0.006984465699710592,-0.7803522605001759,-0.006394473789726623,-2.356817439999977,-0.004317795299812634,1.5677473750001367,0.7806627200002266,0.039999995,0.03999996,-9.791598100000337,-0.007293497072514897,-0.07336422599694306,-0.029002680999196204,0.015875727868742927,0.00039695838849268983
0.805,0.007054803399707778,-0.7803094910001777,-0.006460915179723966,-2.3568230799999768,-0.004363332599810813,1.5677141500001381,0.7806076400002289,0.039999995,0.03999996,-9.79151620000034,-0.007297835964691473,-0.07410718199691335,-0.029198034999188393,0.01607677899217515,0.0003987350469926188
0.8075,0.007125141099704962,-0.7802667215001794,-0.0065273565697213055,-2.3568287199999762,-0.00440886989980899,1.5676809250001393,0.7805525600002311,0.039999995,0.03999996,-9.791434300000343,-0.00730217485686805,-0.0748501379968836,-0.02939338899918057,0.016277830115607368,0.00040051170549254767
0.81,0.007195478799702149,-0.7802239520001811,-0.0065937979597186485,-2.356834359999976,-0.004454407199807169,1.5676477000001408,0.7804974800002332,0.039999995,0.03999996,-9.791352400000346,-0.007306513749044626,-0.07559309399685389,-0.029588742999172756,0.01647888123903959,0.0004022883639924766
0.8125,0.007265816499699333,-0.7801811825001829,-0.006660239349715988,-2.356839999999976,-0.004499944499805345,1.567614475000142,0.7804424000002355,0.039999995,0.03999996,-9.79127050000035,-0.0073108526412212025,-0.07633604999682414,-0.029784096999164934,0.016679932362471808,0.00040406502249240545
0.8150000000000001,0.00733615419969652,-0.7801384130001846,-0.006726680739713331,-2.356845639999976,-0.004545481799803524,1.5675812500001434,0.7803873200002377,0.039999995,0.03999996,-9.791188600000353,-0.0073151915333977795,-0.07707900599679442,-0.029979450999157123,0.01688098348590403,0.0004058416809923344
0.8175,0.0074075205496816005,-0.7800950250001936,-0.006794094799699226,-2.3568514499999735,-0.004591685369793861,1.5675475500001503,0.7803314235002495,0.03999999525,0.03999996,-9.791132550000018,-0.007311682263472504,-0.07783982399654582,-0.03017594284913805,0.017083110193767334,0.0004076446769919529
0.8200000000000001,0.007480944199682671,-0.7800504000001929,-0.006863454199700236,-2.3568575999999735,-0.004639221479794555,1.5675129000001498,0.7802738940002486,0.039999996,0.03999996,-9.791128200000019,-0.007292476669036885,-0.07863636599655742,-0.030374710399140945,0.017287388070534853,0.00040950034799198
0.8225,0.007554367849683738,-0.7800057750001922,-0.006932813599701244,-2.356863749999974,-0.004686757589795245,1.5674782500001492,0.7802163645002478,0.03999999675,0.03999996,-9.791123850000018,-0.007273271074601266,-0.07943290799656899,-0.030573477949143835,0.01749166594730236,0.00041135601899200695
