rsonawane2002/My_IMU/logs_2/traj_424/imu_400hz_424.csv
time,j1,j2,j3,j4,j5,j6,j7,gripper1,gripper2,imu_ax,imu_ay,imu_az,imu_gx,imu_gy,imu_gz
0.0,0.00016700293,-0.785875,4.0107683e-05,-2.3551247,9.29385e-05,1.570997,0.786,0.04,0.04,-9.457348,0.0015416614478453,0.12337242,-1.552121e-07,-0.0011641273740679,7.0184745e-07
0.0025,0.00016700415100000002,-0.7858577739999998,4.010895605000002e-05,-2.3551391900000005,9.294382575000008e-05,1.570996565,0.786,0.04,0.04,-9.513895450000822,0.0014070533215979062,0.10623486637475062,-2.4530738600131106e-07,-0.0013253701152303313,7.359302175004959e-07
0.005,0.00016700537200000002,-0.7858405479999995,4.011022910000004e-05,-2.355153680000001,9.294915150000016e-05,1.57099613,0.786,0.04,0.04,-9.570442900001646,0.0012724451953505123,0.08909731274950122,-3.3540267200262215e-07,-0.0014866128563927627,7.700129850009919e-07
0.0075,0.00016700659300000005,-0.7858233219999993,4.011150215000006e-05,-2.3551681700000007,9.295447725000024e-05,1.570995695,0.786,0.04,0.04,-9.626990350002469,0.0011378370691031187,0.07195975912425184,-4.254979580039332e-07,-0.001647855597555194,8.040957525014879e-07
0.01,0.00016700781400000008,-0.7858060959999991,4.0112775200000076e-05,-2.355182660000001,9.295980300000032e-05,1.57099526,0.786,0.04,0.04,-9.683537800003291,0.0010032289428557248,0.05482220549900246,-5.155932440052443e-07,-0.0018090983387176254,8.381785200019838e-07
0.0125,0.00016700903500000008,-0.7857888699999988,4.0114048250000094e-05,-2.3551971500000013,9.29651287500004e-05,1.570994825,0.786,0.04,0.04,-9.740085250004114,0.0008686208166083309,0.03768465187375307,-6.056885300065554e-07,-0.001970341079880057,8.722612875024798e-07
0.015,0.0001670102560000001,-0.7857716439999985,4.011532130000011e-05,-2.3552116400000016,9.297045450000047e-05,1.57099439,0.786,0.04,0.04,-9.796632700004938,0.0007340126903609373,0.02054709824850369,-6.957838160078664e-07,-0.002131583821042488,9.063440550029758e-07
0.0175,0.00016701330850000056,-0.7857548669999987,4.0117108800000234e-05,-2.355225735000001,9.297563555000041e-05,1.57099396,0.786,0.04,0.04,-9.83424662499998,0.0006466003105747991,0.009043033209980162,-9.609869880514947e-07,-0.002288840909035261,9.290864100000052e-07
0.02,0.0001670200240000003,-0.7857389879999993,4.011992520000012e-05,-2.3552390400000007,9.298052720000022e-05,1.5709935400000001,0.786,0.04,0.04,-9.83399349999999,0.0006535794236699647,0.00880594533998965,-1.5764059320268668e-06,-0.002438126690692197,9.291479400000027e-07
0.0225,0.00016702673950000002,-0.785723109,4.012274160000001e-05,-2.3552523450000002,9.298541885000002e-05,1.57099312,0.786,0.04,0.04,-9.833740375,0.0006605585367651304,0.008568857469999138,-2.1918248760022387e-06,-0.0025874124723491328,9.292094700000002e-07
0.025,0.00016703345499999975,-0.7857072300000006,4.01255579999999e-05,-2.3552656499999993,9.299031049999982e-05,1.5709927000000001,0.786,0.04,0.04,-9.83348725000001,0.0006675376498602962,0.008331769600008625,-2.8072438199776114e-06,-0.002736698254006069,9.292709999999978e-07
0.0275,0.00016704017049999948,-0.7856913510000012,4.0128374399999785e-05,-2.355278954999999,9.299520214999963e-05,1.57099228,0.786,0.04,0.04,-9.83323412500002,0.0006745167629554618,0.008094681730018113,-3.422662763952983e-06,-0.002885984035663005,9.293325299999953e-07
0.03,0.0001670468859999992,-0.7856754720000019,4.013119079999967e-05,-2.3552922599999984,9.300009379999944e-05,1.5709918600000001,0.786,0.04,0.04,-9.832981000000029,0.0006814958760506275,0.0078575938600276,-4.038081707928356e-06,-0.0030352698173199406,9.293940599999928e-07
0.0325,0.00016705360149999894,-0.7856595930000025,4.013400719999956e-05,-2.355305564999998,9.300498544999924e-05,1.57099144,0.786,0.04,0.04,-9.832727875000039,0.0006884749891457933,0.007620505990037088,-4.653500651903729e-06,-0.0031845555989768767,9.294555899999904e-07
0.035,0.00016707013699999656,-0.7856445730000023,4.013965339999887e-05,-2.355318099999998,9.300961539999929e-05,1.57099101,0.786,0.04,0.04,-9.832468950000042,0.0006999487115513537,0.007410132980031536,-5.901857869749518e-06,-0.0033272692933454715,8.542055970180728e-07
0.0375,0.00016709158249999688,-0.7856299825000022,4.014671449999897e-05,-2.355330249999998,9.301411449999934e-05,1.5709905750000002,0.786,0.04,0.04,-9.832207125000037,0.0007136697386138283,0.00721311740002867,-7.466684224772287e-06,-0.0034666969440673855,7.4129984251643e-07
0.04,0.0001671130279999972,-0.785615392000002,4.0153775599999075e-05,-2.3553423999999983,9.30186135999994e-05,1.5709901400000001,0.786,0.04,0.04,-9.831945300000035,0.000727390765676303,0.007016101820025803,-9.03151057979506e-06,-0.0036061245947892995,6.28394088014787e-07
0.0425,0.0001671344734999975,-0.7856008015000017,4.0160836699999177e-05,-2.3553545499999986,9.302311269999947e-05,1.5709897050000001,0.786,0.04,0.04,-9.83168347500003,0.0007411117927387778,0.006819086240022936,-1.0596336934817833e-05,-0.0037455522455112134,5.154883335131439e-07
0.045,0.0001671559189999978,-0.7855862110000015,4.016789779999928e-05,-2.355366699999999,9.302761179999954e-05,1.57098927,0.786,0.04,0.04,-9.831421650000026,0.0007548328198012524,0.006622070660020069,-1.21611632898406e-05,-0.003884979896233127,4.025825790115011e-07
0.0475,0.00016717736449999813,-0.7855716205000013,4.017495889999938e-05,-2.355378849999999,9.30321108999996e-05,1.570988835,0.786,0.04,0.04,-9.831159825000022,0.0007685538468637271,0.006425055080017202,-1.3725989644863374e-05,-0.004024407546955041,2.89676824509858e-07
0.05,0.00016719880999999844,-0.7855570300000011,4.018201999999948e-05,-2.355390999999999,9.303660999999967e-05,1.5709884,0.786,0.04,0.04,-9.830898000000019,0.0007822748739262017,0.006228039500014335,-1.5290815999886145e-05,-0.004163835197676955,1.7677107000821498e-07
0.0525,0.0001672483594999978,-0.7855436155000006,4.019723044999932e-05,-2.3554021299999994,9.304078149999981e-05,1.5709879800000002,0.786,0.04,0.04,-9.830698650000008,0.0008023709582621195,0.006034630085008619,-1.8337541599864218e-05,-0.004294389765703771,-9.591695548784738e-08
0.055,0.0001672979089999992,-0.7855302010000003,4.021244089999975e-05,-2.3554132599999997,9.304495299999993e-05,1.57098756,0.786,0.04,0.04,-9.830499300000003,0.000822467042598501,0.005841220670003166,-2.138426719995012e-05,-0.004424944333729942,-3.6860498099553584e-07
0.0575,0.0001673474585000006,-0.7855167864999999,4.0227651350000174e-05,-2.35542439,9.304912450000005e-05,1.57098714,0.786,0.04,0.04,-9.830299949999997,0.0008425631269348827,0.005647811254997713,-2.4430992800036024e-05,-0.004555498901756113,-6.412930065032243e-07
0.06,0.00016739700800000198,-0.7855033719999995,4.02428618000006e-05,-2.3554355200000003,9.305329600000016e-05,1.57098672,0.786,0.04,0.04,-9.83010059999999,0.0008626592112712643,0.00545440183999226,-2.7477718400121917e-05,-0.004686053469782284,-9.139810320109122e-07
0.0625,0.00016744655750000338,-0.7854899574999992,4.025807225000103e-05,-2.3554466500000006,9.305746750000029e-05,1.5709863,0.786,0.04,0.04,-9.829901249999986,0.0008827552956076458,0.005260992424986807,-3.0524444000207824e-05,-0.004816608037808455,-1.1866690575186007e-06
0.065,0.0001674961070000048,-0.7854765429999987,4.027328270000146e-05,-2.355457780000001,9.306163900000041e-05,1.57098588,0.786,0.04,0.04,-9.82970189999998,0.0009028513799440275,0.005067583009981354,-3.3571169600293723e-05,-0.004947162605834626,-1.4593570830262892e-06
0.0675,0.00016756071350000965,-0.7854634999999988,4.029286245000288e-05,-2.355468540000001,9.306580150000042e-05,1.5709856,0.786,0.04,0.04,-9.829500599999978,0.0009245902299905842,0.004883173014983048,-3.7238634250500046e-05,-0.005075337085885412,-1.7996518950484378e-06
0.07,0.00016765543400000586,-0.7854511999999992,4.032118080000175e-05,-2.3554785600000003,9.306994600000026e-05,1.5709856,0.786,0.04,0.04,-9.829295399999987,0.0009496146114557878,0.004716761859989708,-4.214757700030361e-05,-0.005198751389987893,-2.2751602800294096e-06
0.0725,0.00016775015450000208,-0.7854388999999997,4.034949915000062e-05,-2.3554885800000003,9.30740905000001e-05,1.5709856,0.786,0.04,0.04,-9.829090199999994,0.0009746389929209912,0.004550350704996368,-4.705651975010714e-05,-0.005322165694090374,-2.7506686650103786e-06
0.075,0.00016784487499999827,-0.7854266000000003,4.037781749999948e-05,-2.3554985999999998,9.307823499999992e-05,1.5709856,0.786,0.04,0.04,-9.828885000000003,0.0009996633743861948,0.004383939550003027,-5.19654624999107e-05,-0.0054455799981928555,-3.22617704999135e-06
0.0775,0.00016793959549999448,-0.7854143000000008,4.040613584999835e-05,-2.3555086199999993,9.308237949999976e-05,1.5709856,0.786,0.04,0.04,-9.828679800000012,0.0010246877558513984,0.004217528395009686,-5.6874405249714263e-05,-0.005568994302295337,-3.7016854349723218e-06
0.08,0.0001680343159999907,-0.7854020000000013,4.043445419999722e-05,-2.355518639999999,9.30865239999996e-05,1.5709856,0.786,0.04,0.04,-9.82847460000002,0.001049712137316602,0.004051117240016345,-6.178334799951782e-05,-0.005692408606397818,-4.177193819953293e-06
0.0825,0.0001681290364999869,-0.7853897000000017,4.046277254999609e-05,-2.3555286599999987,9.309066849999942e-05,1.5709856,0.786,0.04,0.04,-9.828269400000028,0.0010747365187818057,0.003884706085023005,-6.669229074932138e-05,-0.005815822910500299,-4.652702204934266e-06
0.085,0.00016826745999997726,-0.7853780970000016,4.050378379999328e-05,-2.3555380999999986,9.309581299999919e-05,1.57098566,0.786,0.04,0.0399999995,-9.828095100000022,0.001103860756843497,0.003715259420024256,-7.307855249898913e-05,-0.0059338795486673,-5.213481699914388e-06
0.08750000000000001,0.0001684277349999796,-0.7853668425000014,4.055114149999397e-05,-2.355547249999999,9.310145749999929e-05,1.57098575,0.786,0.04,0.03999999875,-9.82793625000002,0.0011350349232048308,0.0035442950000217684,-8.020347374909282e-05,-0.006049257353864735,-5.81689674992317e-06
0.09,0.00016858800999998191,-0.7853555880000013,4.059849919999466e-05,-2.355556399999999,9.310710199999936e-05,1.57098584,0.786,0.04,0.039999998,-9.827777400000018,0.0011662090895661642,0.003373330580019281,-8.732839499919645e-05,-0.006164635159062168,-6.420311799931948e-06
0.0925,0.00016874828499998426,-0.7853443335000011,4.0645856899995345e-05,-2.3555655499999992,9.311274649999944e-05,1.57098593,0.786,0.04,0.03999999725,-9.827618550000016,0.001197383255927498,0.003202366160016793,-9.445331624930014e-05,-0.006280012964259602,-7.02372684994073e-06
0.095,0.0001689085599999866,-0.7853330790000009,4.0693214599996036e-05,-2.355574699999999,9.311839099999953e-05,1.57098602,0.786,0.04,0.0399999965,-9.827459700000013,0.0012285574222888314,0.003031401740014305,-0.00010157823749940383,-0.006395390769457036,-7.627141899949511e-06
0.0975,0.00016906883499998894,-0.7853218245000008,4.0740572299996726e-05,-2.355583849999999,9.312403549999961e-05,1.57098611,0.786,0.04,0.03999999575,-9.827300850000011,0.0012597315886501651,0.002860437320011817,-0.00010870315874950752,-0.00651076857465447,-8.230556949958292e-06
0.1,0.00016922910999999125,-0.7853105700000007,4.0787929999997417e-05,-2.3555929999999994,9.312967999999969e-05,1.5709862,0.786,0.04,0.039999995,-9.82714200000001,0.0012909057550114988,0.0026894729000093293,-0.00011582807999961121,-0.006626146379851904,-8.833971999967075e-06
0.10250000000000001,0.00016947835899998665,-0.7853002995000006,4.086112444999607e-05,-2.3556016099999995,9.31353694999997e-05,1.57098632,0.7859997150000001,0.04,0.039999995,-9.826996800000009,0.0013234130805340556,0.0025545333350072406,-0.00012558116999947667,-0.006736971903586353,-9.83217114994644e-06
0.105,0.00016972760799998686,-0.7852900290000006,4.093431889999614e-05,-2.3556102199999995,9.31410589999997e-05,1.57098644,0.78599943,0.04,0.039999995,-9.826851600000008,0.001355920406056685,0.0024195937700071182,-0.0001353342599994855,-0.006847797427320553,-1.0830370299947343e-05
0.1075,0.00016997685699998708,-0.7852797585000005,4.100751334999621e-05,-2.3556188299999996,9.314674849999971e-05,1.57098656,0.785999145,0.04,0.039999995,-9.826706400000008,0.0013884277315793147,0.0022846542050069954,-0.00014508734999949438,-0.006958622951054754,-1.1828569449948251e-05
0.11,0.00017022610599998732,-0.7852694880000006,4.108070779999627e-05,-2.3556274399999997,9.31524379999997e-05,1.57098668,0.7859988600000001,0.04,0.039999995,-9.826561200000008,0.0014209350571019444,0.0021497146400068726,-0.00015484043999950325,-0.007069448474788955,-1.282676859994916e-05
0.1125,0.00017047535499998753,-0.7852592175000006,4.115390224999634e-05,-2.3556360499999998,9.315812749999971e-05,1.5709868,0.785998575,0.04,0.039999995,-9.826416000000007,0.0014534423826245738,0.00201477507500675,-0.00016459352999951215,-0.0071802739985231566,-1.382496774995007e-05
0.115,0.00017072460399998775,-0.7852489470000006,4.122709669999641e-05,-2.3556446599999994,9.316381699999972e-05,1.57098692,0.7859982900000001,0.04,0.039999995,-9.826270800000007,0.0014859497081472035,0.001879835510006627,-0.00017434661999952102,-0.007291099522257357,-1.4823166899950978e-05
0.11750000000000001,0.00017101218599998078,-0.7852389800000006,4.131143404999438e-05,-2.3556529299999998,9.316902449999978e-05,1.5709870449999999,0.785998005,0.04,0.03999999525,-9.826158700000002,0.0015203661983812181,0.0017457183275069877,-0.00018463941399940014,-0.0074013484874682605,-1.5960911149925264e-05
0.12,0.00017137643399997614,-0.7852296200000006,4.141805719999302e-05,-2.3556605199999994,9.317326799999973e-05,1.57098718,0.78599772,0.04,0.039999996,-9.826112800000002,0.0015586010180388362,0.001613245910008675,-0.00019601161599925527,-0.007510444335632315,-1.7377745599907217e-05
0.1225,0.0001717406819999715,-0.7852202600000008,4.152468034999166e-05,-2.3556681099999994,9.317751149999967e-05,1.570987315,0.7859974350000001,0.04,0.03999999675,-9.826066900000004,0.0015968358376964543,0.0014807734925103618,-0.00020738381799911048,-0.0076195401837963715,-1.879458004988918e-05
0.125,0.00017210492999996687,-0.7852109000000009,4.1631303499990305e-05,-2.355675699999999,9.318175499999961e-05,1.5709874499999998,0.78599715,0.04,0.0399999975,-9.826021000000004,0.0016350706573540726,0.0013483010750120483,-0.0002187560199989657,-0.007728636031960427,-2.021141449987114e-05
0.1275,0.00017246917799996223,-0.785201540000001,4.173792664998894e-05,-2.355683289999999,9.318599849999956e-05,1.570987585,0.7859968650000001,0.04,0.03999999825,-9.825975100000004,0.0016733054770116907,0.0012158286575137348,-0.0002301282219988209,-0.007837731880124483,-2.16282489498531e-05
0.13,0.0001728334259999576,-0.7851921800000011,4.184454979998759e-05,-2.355690879999999,9.31902419999995e-05,1.57098772,0.7859965800000001,0.04,0.039999999,-9.825929200000004,0.001711540296669309,0.0010833562400154215,-0.0002415004239986761,-0.007946827728288539,-2.3045083399835063e-05
0.1325,0.00017319767399995295,-0.7851828200000013,4.1951172949986233e-05,-2.3556984699999988,9.319448549999946e-05,1.570987855,0.7859962950000001,0.04,0.03999999975,-9.825883300000006,0.0017497751163269271,0.0009508838225171082,-0.00025287262599853135,-0.008055923576452595,-2.4461917849817026e-05
0.135,0.00017365750099993722,-0.7851740700000011,4.208555999998166e-05,-2.355705429999999,9.319989399999926e-05,1.570988,0.7859960100000001,0.04,0.0399999995,-9.825785900000016,0.0017900120466896392,0.0008320868520138479,-0.0002664206239981897,-0.008163189608590506,-2.5942906399812855e-05
0.1375,0.0001741651174999446,-0.785165625000001,4.223382899998382e-05,-2.355712074999999,9.320588499999935e-05,1.57098815,0.785995725,0.04,0.03999999875,-9.825662750000014,0.0018312500324054995,0.0007201276050122186,-0.0002810565199984027,-0.008269540732714792,-2.7455971999834875e-05
0.14,0.00017467273399995198,-0.7851571800000008,4.2382097999985976e-05,-2.355718719999999,9.321187599999944e-05,1.5709883,0.7859954400000001,0.04,0.039999998,-9.825539600000011,0.0018724880181213595,0.0006081683580105893,-0.0002956924159986157,-0.00837589185683908,-2.8969037599856893e-05
0.14250000000000002,0.00017518035049995936,-0.7851487350000007,4.253036699998813e-05,-2.3557253649999996,9.321786699999952e-05,1.57098845,0.7859951550000001,0.04,0.03999999725,-9.82541645000001,0.0019137260038372197,0.00049620911100896,-0.0003103283119988287,-0.008482242980963369,-3.0482103199878914e-05
0.145,0.00017568796699996675,-0.7851402900000006,4.267863599999029e-05,-2.3557320099999997,9.32238579999996e-05,1.5709886,0.78599487,0.04,0.0399999965,-9.825293300000007,0.0019549639895530793,0.00038424986400733196,-0.00032496420799904156,-0.008588594105087655,-3.199516879990092e-05
0.1475,0.00017619558349997414,-0.7851318450000004,4.2826904999992446e-05,-2.3557386549999997,9.32298489999997e-05,1.57098875,0.7859945850000001,0.04,0.03999999575,-9.825170150000005,0.0019962019752689394,0.0002722906170057026,-0.00033960010399925454,-0.008694945229211944,-3.350823439992294e-05
0.15,0.00017670319999998153,-0.7851234000000004,4.29751739999946e-05,-2.3557452999999997,9.323583999999979e-05,1.5709889,0.7859943,0.04,0.039999995,-9.825047000000005,0.0020374399609848,0.00016033137000407327,-0.0003542359999994675,-0.008801296353336232,-3.502129999994495e-05
0.1525,0.00017738470399997582,-0.7851158100000003,4.317398339999294e-05,-2.3557516,9.324090699999983e-05,1.57098959,0.785994015,0.04,0.03999999575,-9.824958050000003,0.0020800267695433392,6.249562950347038e-05,-0.0003724034644993556,-0.008905865345146471,-3.712516009992538e-05
0.155,0.00017806620799997643,-0.7851082200000002,4.3372792799993126e-05,-2.3557579,9.324597399999983e-05,1.57099028,0.7859937300000001,0.04,0.0399999965,-9.824869100000003,0.002122613578101928,-3.5340110996618686e-05,-0.00039057092899937214,-0.009010434336956646,-3.922902019992729e-05
0.1575,0.00017874771199997706,-0.7851006300000003,4.357160219999331e-05,-2.3557642,9.325104099999983e-05,1.57099097,0.785993445,0.04,0.03999999725,-9.824780150000002,0.002165200386660517,-0.00013317585149670778,-0.00040873839349938863,-0.009115003328766821,-4.133288029992921e-05
0.16,0.0001794292159999777,-0.7850930400000002,4.377041159999349e-05,-2.3557704999999998,9.325610799999983e-05,1.5709916599999998,0.7859931600000001,0.04,0.039999998,-9.824691200000002,0.0022077871952191058,-0.00023101159199679687,-0.0004269058579994052,-0.009219572320576996,-4.343674039993112e-05
0.1625,0.0001801107199999783,-0.7850854500000003,4.396922099999367e-05,-2.3557767999999997,9.326117499999983e-05,1.5709923499999998,0.785992875,0.04,0.03999999875,-9.824602250000002,0.0022503740037776946,-0.0003288473324968859,-0.00044507332249942174,-0.009324141312387173,-4.554060049993304e-05
0.165,0.00018079222399997892,-0.7850778600000002,4.416803039999385e-05,-2.3557830999999996,9.326624199999984e-05,1.5709930399999998,0.78599259,0.04,0.0399999995,-9.824513300000001,0.002292960812336283,-0.00042668307299697497,-0.00046324078699943824,-0.009428710304197348,-4.764446059993495e-05
0.1675,0.0001815424644999693,-0.7850705400000002,4.438680739999106e-05,-2.3557890649999997,9.32715484999998e-05,1.5709937399999998,0.7859922085000001,0.04,0.04,-9.82445905,0.0023377820267324015,-0.0005262169149964431,-0.00048266932049924143,-0.009533176152031923,-4.9833525799918466e-05
0.17,0.000182430177999958,-0.7850637600000003,4.464551959998776e-05,-2.3557943599999995,9.327733399999972e-05,1.5709944599999999,0.785991634,0.04,0.04,-9.8244742,0.002387072052804189,-0.0006291469599951326,-0.0005046199919989619,-0.00963743571191527,-5.219300119988842e-05
0.17250000000000001,0.0001833178914999467,-0.7850569800000005,4.490423179998447e-05,-2.3557996549999998,9.328311949999965e-05,1.57099518,0.7859910595,0.04,0.04,-9.824489349999999,0.0024363620788759766,-0.000732077004993822,-0.0005265706634986825,-0.009741695271798618,-5.4552476599858383e-05
0.17500000000000002,0.0001842056049999354,-0.7850502000000005,4.516294399998118e-05,-2.3558049499999996,9.328890499999957e-05,1.5709959,0.785990485,0.04,0.04,-9.824504499999998,0.002485652104947764,-0.0008350070499925115,-0.000548521334998403,-0.009845954831681965,-5.691195199982834e-05
0.1775,0.0001850933184999241,-0.7850434200000006,4.542165619997788e-05,-2.355810245,9.32946904999995e-05,1.57099662,0.7859899105000001,0.04,0.04,-9.82451965,0.0025349421310195508,-0.0009379370949911998,-0.0005704720064981233,-0.009950214391565312,-5.9271427399798274e-05
0.18,0.0001859810319999128,-0.7850366400000007,4.5680368399974585e-05,-2.3558155399999996,9.330047599999943e-05,1.57099734,0.7859893360000001,0.04,0.04,-9.824534799999999,0.0025842321570913383,-0.0010408671399898893,-0.0005924226779978438,-0.010054473951448659,-6.163090279976823e-05
0.1825,0.0001868687454999015,-0.7850298600000007,4.593908059997129e-05,-2.3558208349999994,9.330626149999935e-05,1.57099806,0.7859887615000001,0.04,0.04,-9.824549949999998,0.002633522183163126,-0.001143797184988579,-0.0006143733494975643,-0.010158733511332006,-6.399037819973818e-05
0.185,0.000187916570999881,-0.7850236150000006,4.6244310199965344e-05,-2.3558256199999996,9.331204099999939e-05,1.57099912,0.785988188,0.04,0.04,-9.824503700000008,0.0026802789419840605,-0.0012243507899926816,-0.0006381800959973904,-0.010262890160072766,-6.669666299969619e-05
0.1875,0.00018904445249989742,-0.7850176375000005,4.6572798499970125e-05,-2.3558301499999996,9.331781749999947e-05,1.5710003499999998,0.785987615,0.04,0.04,-9.824426750000008,0.002725769067178913,-0.0012937161749936913,-0.0006629148799977504,-0.010366995353242207,-6.957635249973808e-05
0.19,0.00019017233399991383,-0.7850116600000004,4.6901286799974906e-05,-2.3558346799999996,9.332359399999955e-05,1.57100158,0.785987042,0.04,0.04,-9.824349800000006,0.002771259192373765,-0.0013630815599947007,-0.0006876496639981103,-0.010471100546411646,-7.245604199978e-05
0.1925,0.00019130021549993025,-0.7850056825000004,4.722977509997969e-05,-2.35583921,9.332937049999964e-05,1.57100281,0.785986469,0.04,0.04,-9.824272850000005,0.0028167493175686167,-0.0014324469449957101,-0.0007123844479984703,-0.010575205739581086,-7.533573149982191e-05
0.195,0.00019242809699994667,-0.7849997050000003,4.755826339998446e-05,-2.35584374,9.333514699999972e-05,1.57100404,0.785985896,0.04,0.04,-9.824195900000005,0.0028622394427634686,-0.0015018123299967196,-0.0007371192319988303,-0.010679310932750527,-7.821542099986382e-05
0.1975,0.00019355597849996306,-0.7849937275000002,4.7886751699989244e-05,-2.35584827,9.334092349999982e-05,1.57100527,0.785985323,0.04,0.04,-9.824118950000003,0.0029077295679583205,-0.001571177714997729,-0.0007618540159991902,-0.010783416125919966,-8.109511049990572e-05
0.2,0.00019468385999997948,-0.7849877500000001,4.8215239999994025e-05,-2.3558528,9.33466999999999e-05,1.5710065,0.78598475,0.04,0.04,-9.824042000000002,0.002953219693153173,-0.0016405430999987384,-0.0007865887999995502,-0.010887521319089407,-8.397479999994763e-05
0.2025,0.00019608724349997575,-0.7849825525,4.8623766499992944e-05,-2.355856805,9.33534229999999e-05,1.57100779,0.7859838920000001,0.04,0.04,-9.82402955,0.00300618252949688,-0.0017118350699987684,-0.0008156024899994988,-0.010991171933708764,-8.713854749994534e-05
0.20500000000000002,0.00019749062699997704,-0.7849773550000001,4.9032292999993314e-05,-2.35586081,9.336014599999989e-05,1.57100908,0.785983034,0.04,0.04,-9.8240171,0.0030591453658407233,-0.0017831270399988335,-0.0008446161799995252,-0.011094822548328113,-9.030229499994822e-05
0.20750000000000002,0.0001988940104999783,-0.7849721575,4.9440819499993684e-05,-2.355864815,9.33668689999999e-05,1.57101037,0.785982176,0.04,0.04,-9.824004650000001,0.0031121082021845665,-0.0018544190099988984,-0.0008736298699995516,-0.011198473162947463,-9.346604249995111e-05
0.21,0.00020029739399997958,-0.78496696,4.9849345999994054e-05,-2.35586882,9.33735919999999e-05,1.5710116600000001,0.785981318,0.04,0.04,-9.823992200000001,0.003165071038528409,-0.0019257109799989624,-0.0009026435599995777,-0.01130212377756681,-9.662978999995395e-05
0.2125,0.00020170077749998084,-0.7849617625,5.025787249999442e-05,-2.355872825,9.338031499999991e-05,1.57101295,0.78598046,0.04,0.04,-9.823979750000001,0.0032180338748722523,-0.0019970029499990273,-0.0009316572499996041,-0.01140577439218616,-9.979353749995683e-05
0.215,0.00020310416099998213,-0.784956565,5.066639899999479e-05,-2.3558768299999997,9.338703799999991e-05,1.57101424,0.785979602,0.04,0.04,-9.8239673,0.0032709967112160955,-0.002068294919999092,-0.0009606709399996305,-0.01150942500680551,-0.00010295728499995972
0.2175,0.00020461157699997191,-0.7849516225000001,5.1105145699991825e-05,-2.355880505,9.339446999999985e-05,1.5710157150000001,0.7859786835,0.04,0.04,-9.823960925,0.0033223775331853406,-0.0021286617549993695,-0.0009907553949994724,-0.011614154512060895,-0.00010622386249994316
0.22,0.00020632705799995008,-0.7849471900000001,5.160433279998547e-05,-2.35588352,9.340331999999974e-05,1.57101756,0.785977644,0.04,0.04,-9.8239667,0.0033705943264052164,-0.002167178319998879,-0.001022981379999062,-0.01172104179858847,-0.00010969609999989895
0.2225,0.00020804253899992824,-0.7849427575000002,5.210351989997911e-05,-2.355886535,9.341216999999963e-05,1.571019405,0.7859766045000001,0.04,0.04,-9.823972475,0.0034188111196250927,-0.0022056948849983886,-0.0010552073649986518,-0.011827929085116044,-0.00011316833749985474
0.225,0.00020975801999990637,-0.7849383250000003,5.260270699997276e-05,-2.3558895499999997,9.342101999999951e-05,1.57102125,0.7859755650000001,0.04,0.04,-9.82397825,0.003467027912844969,-0.002244211449997898,-0.0010874333499982414,-0.011934816371643618,-0.00011664057499981054
0.2275,0.00021147350099988454,-0.7849338925000003,5.3101894099966406e-05,-2.3558925649999995,9.34298699999994e-05,1.571023095,0.7859745255,0.04,0.04,-9.823984025,0.003515244706064845,-0.0022827280149974078,-0.0011196593349978312,-0.012041703658171192,-0.00012011281249976632
0.23,0.0002131889819998627,-0.7849294600000004,5.360108119996005e-05,-2.3558955799999994,9.34387199999993e-05,1.5710249399999998,0.785973486,0.04,0.04,-9.8239898,0.003563461499284721,-0.0023212445799969173,-0.0011518853199974208,-0.012148590944698766,-0.0001235850499997221
0.2325,0.00021490446299984086,-0.7849250275000005,5.410026829995369e-05,-2.3558985949999998,9.344756999999919e-05,1.5710267849999997,0.7859724465000001,0.04,0.04,-9.823995575,0.003611678292504597,-0.002359761144996427,-0.0011841113049970106,-0.01225547823122634,-0.0001270572874996779
0.23500000000000001,0.00021685309499981968,-0.7849211010000003,5.466718259994755e-05,-2.3559013099999997,9.345647599999922e-05,1.5710288699999997,0.78597134,0.04,0.04,-9.823983950000002,0.0036641456652384036,-0.002401249639996248,-0.0012189383799968458,-0.0123621196485962,-0.00013098397299963734
0.23750000000000002,0.00021891830249984973,-0.7849174275000003,5.5267960499956295e-05,-2.3559038749999996,9.346540999999935e-05,1.5710310749999998,0.7859702000000001,0.04,0.04,-9.823963625000003,0.003718738327730103,-0.0024442240999968732,-0.0012550659999973715,-0.01246863813138715,-0.0001351378824996978
0.24,0.00022098350999987977,-0.7849137540000002,5.586873839996503e-05,-2.3559064399999996,9.347434399999949e-05,1.57103328,0.78596906,0.04,0.04,-9.823943300000002,0.003773330990221802,-0.0024871985599974984,-0.001291193619997897,-0.0125751566141781,-0.0001392917919997582
0.2425,0.00022304871749990982,-0.7849100805000001,5.6469516299973766e-05,-2.3559090049999996,9.34832779999996e-05,1.571035485,0.78596792,0.04,0.04,-9.823922975000002,0.0038279236527135017,-0.0025301730199981235,-0.0013273212399984226,-0.012681675096969049,-0.00014344570149981865
0.245,0.00022511392499993988,-0.7849064070000001,5.707029419998251e-05,-2.35591157,9.349221199999974e-05,1.57103769,0.78596678,0.04,0.04,-9.82390265,0.0038825163152052013,-0.002573147479998749,-0.0013634488599989485,-0.012788193579759998,-0.0001475996109998791
0.2475,0.00022717913249996994,-0.7849027335000001,5.767107209999126e-05,-2.355914135,9.350114599999986e-05,1.571039895,0.78596564,0.04,0.04,-9.823882325000001,0.003937108977696901,-0.0026161219399993742,-0.0013995764799994742,-0.01289471206255095,-0.00015175352049993956
0.25,0.00022924434,-0.78489906,5.827185e-05,-2.3559167,9.351008e-05,1.5710421,0.7859645,0.04,0.04,-9.823862,0.0039917016401886,-0.0026590964,-0.0014357041,-0.0130012305453419,-0.00015590743
0.2525,0.00023169775950000222,-0.7848961365,5.8985403000000645e-05,-2.3559185,9.35203925e-05,1.57104453,0.7859630675,0.04,0.04,-9.823901450000001,0.00404092059470709,-0.002671244435000011,-0.001476286165000037,-0.013111643539741666,-0.0001603829995000041
0.255,0.00023415117900000448,-0.7848932129999999,5.96989560000013e-05,-2.3559203,9.353070500000001e-05,1.57104696,0.7859616349999999,0.04,0.04,-9.8239409,0.0040901395492255795,-0.002683392470000022,-0.0015168682300000739,-0.01322205653414143,-0.00016485856900000815
0.2575,0.0002366045985000067,-0.7848902895,6.041250900000195e-05,-2.3559221,9.354101750000003e-05,1.57104939,0.7859602025,0.04,0.04,-9.823980350000001,0.004139358503744069,-0.0026955405050000333,-0.0015574502950001109,-0.013332469528541196,-0.00016933413850001223
0.26,0.00023905801800000895,-0.784887366,6.11260620000026e-05,-2.3559239,9.355133000000004e-05,1.57105182,0.78595877,0.04,0.04,-9.8240198,0.00418857745826256,-0.002707688540000044,-0.0015980323600001478,-0.013442882522940963,-0.00017380970800001628
0.2625,0.00024151143750001118,-0.7848844425,6.183961500000325e-05,-2.3559257000000002,9.356164250000004e-05,1.57105425,0.7859573375,0.04,0.04,-9.824059250000001,0.004237796412781049,-0.002719836575000055,-0.0016386144250001848,-0.013553295517340727,-0.00017828527750002036
0.265,0.00024396485700001343,-0.7848815189999999,6.255316800000389e-05,-2.3559275000000004,9.357195500000005e-05,1.57105668,0.785955905,0.04,0.04,-9.8240987,0.004287015367299539,-0.0027319846100000663,-0.0016791964900002218,-0.013663708511740494,-0.00018276084700002444
0.2675,0.00024656075249999217,-0.7848788415,6.330810499999772e-05,-2.355929015,9.358287499999996e-05,1.5710593,0.7859543775000001,0.03999999975,0.04,-9.824138175,0.004338829964399139,-0.0027405163349999966,-0.0017210197999998796,-0.01377528728917202,-0.00018738929699998655
0.27,0.0002494415999999162,-0.784876656,6.414580999997562e-05,-2.35592996,9.359500999999965e-05,1.5710623,0.7859526600000001,0.039999999,0.04,-9.8241777,0.004395835846660821,-0.002741815439999962,-0.001765325599998711,-0.013889197632667006,-0.00019232350799985642
0.2725,0.0002523224474998402,-0.7848744705000001,6.498351499995353e-05,-2.355930905,9.360714499999933e-05,1.5710652999999999,0.7859509425000001,0.03999999825,0.04,-9.824217224999998,0.004452841728922503,-0.002743114544999928,-0.0018096313999975424,-0.014003107976161992,-0.0001972577189997263
0.275,0.0002552032949997642,-0.7848722850000002,6.582121999993143e-05,-2.35593185,9.3619279999999e-05,1.5710682999999996,0.7859492250000002,0.0399999975,0.04,-9.824256749999996,0.004509847611184184,-0.0027444136499998936,-0.0018539371999963738,-0.014117018319656978,-0.00020219192999959616
0.2775,0.0002580841424996882,-0.7848700995000002,6.665892499990935e-05,-2.355932795,9.363141499999869e-05,1.5710712999999996,0.7859475075000002,0.03999999675,0.04,-9.824296274999995,0.004566853493445866,-0.0027457127549998595,-0.0018982429999952054,-0.014230928663151962,-0.00020712614099946603
0.28,0.00026096498999961227,-0.7848679140000003,6.749662999988725e-05,-2.35593374,9.364354999999837e-05,1.5710742999999996,0.7859457900000002,0.039999996,0.04,-9.824335799999995,0.004623859375707548,-0.002747011859999825,-0.0019425487999940368,-0.014344839006646948,-0.0002120603519993359
0.28250000000000003,0.00026384583749953627,-0.7848657285000004,6.833433499986516e-05,-2.355934685,9.365568499999805e-05,1.5710772999999993,0.7859440725000003,0.03999999525,0.04,-9.824375324999993,0.004680865257969229,-0.002748310964999791,-0.0019868545999928685,-0.014458749350141934,-0.00021699456299920577
0.28500000000000003,0.0002670381999994641,-0.7848640540000003,6.92625169998442e-05,-2.3559352700000002,9.36685189999979e-05,1.5710806799999995,0.7859421660000003,0.039999994500000004,0.04,-9.82438945,0.004731575166798927,-0.002739155800002302,-0.002033807789992273,-0.014574214722942494,-0.0002223217799991159
0.28750000000000003,0.00027038631999951285,-0.7848626350000002,7.023593749985836e-05,-2.355935675,9.368170249999809e-05,1.5710842499999995,0.7859401650000003,0.039999993750000004,0.04,-9.824390874999999,0.004779137088910229,-0.002724773500002093,-0.0020820846749929757,-0.014690457610396437,-0.00022784549999919627
0.29,0.0002737344399995615,-0.7848612160000003,7.12093579998725e-05,-2.35593608,9.369488599999828e-05,1.5710878199999996,0.7859381640000003,0.039999993000000005,0.04,-9.8243923,0.00482669901102153,-0.002710391200001884,-0.002130361559993677,-0.014806700497850376,-0.00023336921999927654
0.2925,0.0002770825599996102,-0.7848597970000002,7.218277849988667e-05,-2.355936485,9.370806949999847e-05,1.5710913899999996,0.7859361630000002,0.03999999225,0.04,-9.824393725,0.004874260933132833,-0.0026960089000016745,-0.0021786384449943796,-0.014922943385304317,-0.0002388929399993569
0.295,0.00028043067999965893,-0.7848583780000001,7.315619899990084e-05,-2.35593689,9.372125299999866e-05,1.5710949599999997,0.7859341620000002,0.0399999915,0.04,-9.82439515,0.004921822855244135,-0.002681626600001465,-0.002226915329995082,-0.015039186272758258,-0.0002444166599994373
0.2975,0.0002837787999997077,-0.7848569590000002,7.412961949991501e-05,-2.355937295,9.373443649999885e-05,1.5710985299999998,0.7859321610000002,0.03999999075,0.04,-9.824396575,0.004969384777355437,-0.002667244300001256,-0.0022751922149957847,-0.015155429160212201,-0.0002499403799995177
0.3,0.0002871269199997564,-0.7848555400000001,7.510303999992918e-05,-2.3559377,9.374761999999904e-05,1.5711020999999998,0.7859301600000002,0.03999999,0.04,-9.824398,0.005016946699466739,-0.0026528620000010467,-0.002323469099996487,-0.015271672047666142,-0.00025546409999959807
0.3025,0.0002909825694997756,-0.784854844,7.622387899993476e-05,-2.355937205,9.376264699999912e-05,1.571106255,0.7859278710000002,0.0399999897,0.03999999925,-9.824471949999996,0.005075874272730415,-0.002625463210001595,-0.002375790029996954,-0.015391770610578769,-0.0002613271724996587
0.305,0.0002948382189998317,-0.7848541480000001,7.734471799995106e-05,-2.3559367100000004,9.377767399999935e-05,1.57111041,0.7859255820000002,0.0399999894,0.0399999985,-9.824545899999997,0.005134801845994918,-0.0025980644200011963,-0.0024281109599977157,-0.015511869173491677,-0.000267190244999744
0.3075,0.0002986938684998878,-0.784853452,7.846555699996738e-05,-2.3559362150000003,9.379270099999956e-05,1.571114565,0.7859232930000001,0.0399999891,0.03999999775,-9.824619849999998,0.00519372941925942,-0.0025706656300007974,-0.002480431889998477,-0.015631967736404587,-0.00027305331749982937
0.31,0.0003025495179999439,-0.784852756,7.958639599998369e-05,-2.35593572,9.380772799999978e-05,1.57111872,0.7859210040000001,0.0399999888,0.039999997,-9.824693799999999,0.005252656992523923,-0.002543266840000399,-0.0025327528199992387,-0.015752066299317493,-0.00027891638999991467
0.3125,0.0003064051675,-0.7848520600000001,8.0707235e-05,-2.355935225,9.3822755e-05,1.571122875,0.785918715,0.0399999885,0.03999999625,-9.82476775,0.005311584565788425,-0.00251586805,-0.00258507375,-0.0158721648622304,-0.00028477946250000003
0.315,0.0003102608170000561,-0.784851364,8.182807400001631e-05,-2.35593473,9.383778200000021e-05,1.57112703,0.7859164259999999,0.0399999882,0.0399999955,-9.8248417,0.005370512139052928,-0.0024884692599996014,-0.0026373946800007614,-0.01599226342514331,-0.00029064253500008533
0.3175,0.0003142992010000681,-0.784850915,8.30019920000198e-05,-2.35593397,9.385343000000026e-05,1.571131375,0.7859140414999999,0.0399999876,0.039999994750000004,-9.824897499999999,0.005424929410219812,-0.0024530944299992062,-0.002691140215000875,-0.016113528143616433,-0.00029670548350009996
0.32,0.00031870305399995196,-0.78485096,8.428206799998603e-05,-2.35593268,9.387031999999981e-05,1.5711361,0.785911466,0.0399999864,0.039999994000000004,-9.824917,0.005470326077192445,-0.00240176752000056,-0.0027477349599993824,-0.016237125173209733,-0.0003031681839999295
0.3225,0.0003231069069998358,-0.784851005,8.556214399995227e-05,-2.3559313900000003,9.388720999999937e-05,1.5711408249999999,0.7859088905,0.0399999852,0.039999993250000004,-9.824936499999998,0.0055157227441650775,-0.0023504406100019136,-0.00280432970499789,-0.016360722202803032,-0.00030963088449975905
0.325,0.0003275107599997196,-0.78485105,8.68422199999185e-05,-2.3559301,9.390409999999892e-05,1.5711455499999998,0.7859063150000001,0.039999984,0.039999992500000005,-9.824955999999998,0.0055611194111377105,-0.0022991137000032674,-0.0028609244499963973,-0.016484319232396332,-0.0003160935849995886
0.3275,0.0003319146129996035,-0.7848510949999999,8.812229599988474e-05,-2.3559288100000004,9.392098999999848e-05,1.5711502749999995,0.7859037395000001,0.0399999828,0.03999999175,-9.824975499999997,0.005606516078110343,-0.002247786790004621,-0.0029175191949949047,-0.01660791626198963,-0.00032255628549941815
0.33,0.0003363184659994873,-0.78485114,8.940237199985098e-05,-2.3559275200000003,9.393787999999803e-05,1.5711549999999994,0.7859011640000003,0.0399999816,0.039999991,-9.824994999999998,0.005651912745082976,-0.0021964598800059748,-0.0029741139399934117,-0.01673151329158293,-0.0003290189859992477
0.3325,0.0003407223189993712,-0.784851185,9.068244799981723e-05,-2.35592623,9.395476999999759e-05,1.5711597249999993,0.7858985885000004,0.039999980399999996,0.03999999025,-9.825014499999996,0.005697309412055608,-0.0021451329700073285,-0.003030708684991919,-0.016855110321176234,-0.0003354816864990772
0.335,0.0003455189069992916,-0.7848517659999998,9.20765994997941e-05,-2.3559244400000003,9.397311199999729e-05,1.5711648499999993,0.7858957970000003,0.039999979299999995,0.0399999894,-9.82506499999999,0.005751354480153909,-0.0020839871900093713,-0.0030902188399913504,-0.016981478035431805,-0.0003421736849990343
0.3375,0.00035051186249936427,-0.7848526149999999,9.352778874981523e-05,-2.3559224000000003,9.399217999999758e-05,1.5711701749999993,0.7858928975000004,0.03999997825,0.0399999885,-9.825130999999992,0.005809723748817993,-0.00201793197500841,-0.0031511866999922376,-0.01710923109201946,-0.00034898033249913335
0.34,0.00035550481799943693,-0.7848534639999999,9.497897799983635e-05,-2.3559203600000003,9.401124799999785e-05,1.5711754999999994,0.7858899980000003,0.0399999772,0.0399999876,-9.825196999999992,0.005868093017482078,-0.0019518767600074489,-0.003212154559993125,-0.017236984148607113,-0.00035578697999923245
0.3425,0.0003604977734995096,-0.7848543129999999,9.643016724985747e-05,-2.3559183200000002,9.403031599999813e-05,1.5711808249999994,0.7858870985000003,0.03999997615,0.039999986700000004,-9.825262999999994,0.005926462286146162,-0.0018858215450064876,-0.003273122419994012,-0.01736473720519477,-0.0003625936274993315
0.34500000000000003,0.00036549072899958227,-0.7848551619999999,9.788135649987859e-05,-2.35591628,9.40493839999984e-05,1.5711861499999995,0.7858841990000002,0.0399999751,0.0399999858,-9.825328999999995,0.005984831554810247,-0.0018197663300055264,-0.0033340902799948993,-0.01749249026178242,-0.00036940027499943054
0.34750000000000003,0.00037048368449965494,-0.7848560109999999,9.933254574989972e-05,-2.35591424,9.406845199999869e-05,1.5711914749999998,0.7858812995000002,0.03999997405,0.0399999849,-9.825394999999997,0.006043200823474331,-0.0017537111150045651,-0.0033950581399957865,-0.017620243318370078,-0.00037620692249952964
0.35000000000000003,0.0003754766399997276,-0.78485686,0.00010078373499992083,-2.3559122,9.408751999999896e-05,1.5711967999999998,0.7858784000000001,0.039999973,0.039999984,-9.825460999999997,0.0061015700921384156,-0.0016876559000036037,-0.0034560259999966737,-0.01774799637495773,-0.0003830135699996287
0.3525,0.00038109977399977495,-0.7848584769999999,0.0001024179617499346,-2.355909335,9.410880409999915e-05,1.5712029349999999,0.7858751210000001,0.03999997255,0.0399999834,-9.825509299999998,0.006145726656539428,-0.001591945355003831,-0.003521338294997386,-0.017880406975740837,-0.00039029350649970866
0.355,0.00038672290799985677,-0.7848600939999999,0.00010405218849995837,-2.3559064700000003,9.413008819999946e-05,1.5712090699999999,0.785871842,0.0399999721,0.0399999828,-9.8255576,0.006189883220939665,-0.001496234810002438,-0.0035866505899983365,-0.018012817576524197,-0.0003975734429998146
0.3575,0.0003923460419999386,-0.784861711,0.00010568641524998215,-2.355903605,9.415137229999976e-05,1.571215205,0.7858685630000001,0.03999997165,0.0399999822,-9.8256059,0.006234039785339903,-0.0014005242650010452,-0.003651962884999287,-0.01814522817730756,-0.0004048533794999205
0.36,0.0003979691760000204,-0.784863328,0.00010732064200000594,-2.35590074,9.417265640000007e-05,1.5712213400000001,0.785865284,0.039999971200000005,0.0399999816,-9.8256542,0.00627819634974014,-0.0013048137199996523,-0.0037172751800002373,-0.01827763877809092,-0.00041213331600002646
0.3625,0.0004035923100001023,-0.784864945,0.00010895486875002972,-2.3558978749999997,9.419394050000039e-05,1.5712274750000002,0.7858620049999999,0.03999997075,0.039999981,-9.8257025,0.006322352914140378,-0.0012091031749982594,-0.0037825874750011877,-0.018410049378874284,-0.0004194132525001324
0.365,0.0004092154440001841,-0.784866562,0.0001105890955000535,-2.35589501,9.42152246000007e-05,1.5712336100000002,0.785858726,0.0399999703,0.039999980399999996,-9.825750800000002,0.006366509478540615,-0.0011133926299968667,-0.003847899770002138,-0.018542459979657644,-0.00042669318900023833
0.3675,0.00041506234750026907,-0.7848684380000001,0.00011228831650007819,-2.3558918399999995,9.4237306300001e-05,1.5712399950000002,0.7858553179999999,0.0399999698,0.03999997985,-9.825810000000002,0.006414676294664397,-0.0010145749859955106,-0.003914592265002969,-0.01867626179010255,-0.0004341313190003315
0.37,0.0004213567900002748,-0.7848708320000001,0.00011411752600007984,-2.35588806,9.426098320000102e-05,1.5712468800000003,0.7858516519999998,0.0399999692,0.039999979399999996,-9.825891000000004,0.006470863614233733,-0.000909543143995415,-0.003984045160003032,-0.018812846019870003,-0.00044188583600033855
0.3725,0.0004276512325002805,-0.7848732260000001,0.00011594673550008151,-2.3558842799999997,9.428466010000105e-05,1.5712537650000002,0.7858479859999998,0.0399999686,0.03999997895,-9.825972000000004,0.006527050933803069,-0.0008045113019953193,-0.004053498055003095,-0.018949430249637456,-0.0004496403530003456
0.375,0.0004339456750002862,-0.7848756200000001,0.00011777594500008318,-2.3558804999999996,9.430833700000107e-05,1.5712606500000001,0.7858443199999998,0.039999968,0.0399999785,-9.826053000000003,0.0065832382533724055,-0.0006994794599952238,-0.004122950950003159,-0.01908601447940491,-0.00045739487000035265
0.3775,0.00044024011750029194,-0.7848780140000001,0.00011960515450008485,-2.3558767199999995,9.43320139000011e-05,1.5712675350000003,0.7858406539999999,0.0399999674,0.039999978049999996,-9.826134000000003,0.006639425572941742,-0.0005944476179951282,-0.004192403845003222,-0.019222598709172364,-0.0004651493870003597
0.38,0.0004465345600002977,-0.7848804080000001,0.0001214343640000865,-2.35587294,9.435569080000112e-05,1.5712744200000002,0.7858369879999999,0.0399999668,0.0399999776,-9.826215000000005,0.006695612892511077,-0.0004894157759950325,-0.004261856740003285,-0.01935918293893982,-0.00047290390400036675
0.3825,0.00045282900250030343,-0.7848828020000002,0.00012326357350008816,-2.3558691599999997,9.437936770000113e-05,1.5712813050000003,0.7858333219999999,0.0399999662,0.03999997715,-9.826296000000005,0.006751800212080414,-0.0003843839339949369,-0.004331309635003349,-0.019495767168707274,-0.0004806584210003738
0.385,0.0004595983910002804,-0.7848857360000001,0.00012523073200008147,-2.3558648899999994,9.440468800000105e-05,1.57128868,0.7858293699999999,0.0399999654,0.039999977,-9.826343600000001,0.00679750349372778,-0.0002596670479946148,-0.004403634110002952,-0.01963507197797861,-0.0004888137390003344
0.3875,0.0004666052525001912,-0.7848889400000001,0.00012726686500005556,-2.355860375,9.443083000000071e-05,1.5712963000000002,0.7858252749999999,0.0399999645,0.039999977,-9.826374500000002,0.006837964756415305,-0.00012510763999632797,-0.004477394375002013,-0.019775737077001587,-0.000497169457500228
0.39,0.000473612114000102,-0.7848921440000001,0.00012930299800002965,-2.3558558599999997,9.445697200000038e-05,1.57130392,0.7858211799999999,0.0399999636,0.039999977,-9.8264054,0.006878426019102829,9.45176800195885e-06,-0.004551154640001074,-0.019916402176024566,-0.0005055251760001216
0.3925,0.00048061897550001284,-0.784895348,0.00013133913100000372,-2.355851345,9.448311400000004e-05,1.57131154,0.785817085,0.0399999627,0.039999977,-9.826436300000001,0.0069188872817903535,0.00014401117600024567,-0.004624914905000135,-0.020057067275047545,-0.0005138808945000153
0.395,0.00048762583699992363,-0.7848985519999999,0.0001333752639999778,-2.35584683,9.450925599999971e-05,1.5713191599999998,0.78581299,0.0399999618,0.039999977,-9.8264672,0.006959348544477878,0.00027857058399853243,-0.0046986751699991955,-0.020197732374070524,-0.0005222366129999089
0.3975,0.0004946326984998344,-0.7849017559999999,0.00013541139699995187,-2.3558423150000003,9.453539799999939e-05,1.57132678,0.7858088950000001,0.0399999609,0.039999977,-9.8264981,0.006999809807165403,0.0004131299919968192,-0.004772435434998256,-0.020338397473093503,-0.0005305923314998025
0.4,0.0005016395599997452,-0.7849049599999999,0.00013744752999992596,-2.3558378,9.456153999999905e-05,1.5713343999999998,0.7858048000000001,0.03999996,0.039999977,-9.826528999999999,0.007040271069852928,0.0005476893999951061,-0.004846195699997317,-0.020479062572116482,-0.0005389480499996961
0.4025,0.0005093998609998307,-0.7849089859999999,0.0001397025324999508,-2.3558323700000003,9.459043239999937e-05,1.5713428749999998,0.7858002955000001,0.039999959700000004,0.0399999764,-9.826620949999999,0.00708723508287109,0.0007039642599965904,-0.004924089769998301,-0.020625515095886355,-0.0005476466669998103
0.405,0.0005171601619999436,-0.784913012,0.00014195753499998361,-2.35582694,9.461932479999979e-05,1.57135135,0.785795791,0.0399999594,0.0399999758,-9.8267129,0.007134199095889489,0.0008602391199988646,-0.005001983839999434,-0.020771967619656436,-0.0005563452839999368
0.40750000000000003,0.0005249204630000566,-0.784917038,0.00014421253750001645,-2.35582151,9.46482172000002e-05,1.571359825,0.7857912865,0.0399999591,0.0399999752,-9.826804850000002,0.007181163108907887,0.001016513980001139,-0.005079877910000568,-0.020918420143426517,-0.0005650439010000634
0.41000000000000003,0.0005326807640001696,-0.7849210640000001,0.00014646754000004927,-2.35581608,9.467710960000063e-05,1.5713683,0.7857867819999999,0.0399999588,0.0399999746,-9.826896800000002,0.007228127121926286,0.001172788840003413,-0.0051577719800017015,-0.0210648726671966,-0.00057374251800019
0.41250000000000003,0.0005404410650002824,-0.7849250900000001,0.00014872254250008208,-2.35581065,9.470600200000105e-05,1.5713767750000003,0.7857822774999998,0.0399999585,0.039999974,-9.826988750000003,0.007275091134944685,0.0013290637000056874,-0.005235666050002835,-0.02121132519096668,-0.0005824411350003166
0.41500000000000004,0.0005482013660003954,-0.7849291160000001,0.0001509775450001149,-2.3558052199999997,9.473489440000147e-05,1.5713852500000003,0.7857777729999997,0.039999958200000005,0.0399999734,-9.827080700000005,0.007322055147963083,0.0014853385600079616,-0.005313560120003969,-0.02135777771473676,-0.0005911397520004432
0.4175,0.0005562264550004823,-0.7849334200000002,0.00015330945800014017,-2.3557994899999994,9.476473120000178e-05,1.5713940100000006,0.7857731039999997,0.0399999578,0.03999997285,-9.827171550000005,0.007371065253394769,0.001648306410009943,-0.0053928977400046355,-0.02150583276525992,-0.0005999935070005167
0.42,0.0005647811200003734,-0.7849382800000002,0.00015579519200010852,-2.3557931599999997,9.479645680000138e-05,1.5714033400000003,0.7857681059999997,0.0399999572,0.0399999724,-9.827260200000005,0.007424167543651918,0.0018246602400076978,-0.005475122460003589,-0.021657092869288363,-0.0006091575380004
0.4225,0.0005733357850002645,-0.7849431400000001,0.00015828092600007687,-2.35578683,9.482818240000098e-05,1.5714126700000002,0.7857631079999998,0.0399999566,0.039999971950000004,-9.827348850000003,0.007477269833909067,0.0020010140700054526,-0.005557347180002542,-0.021808352973316805,-0.0006183215690002833
0.425,0.0005818904500001556,-0.7849480000000001,0.00016076666000004522,-2.3557805,9.485990800000058e-05,1.571422,0.7857581099999998,0.039999955999999996,0.0399999715,-9.827437500000002,0.007530372124166216,0.0021773679000032073,-0.005639571900001495,-0.02195961307734525,-0.0006274856000001666
0.4275,0.0005904451150000466,-0.78495286,0.00016325239400001357,-2.35577417,9.489163360000017e-05,1.57143133,0.785753112,0.0399999554,0.03999997105,-9.82752615,0.007583474414423364,0.002353721730000962,-0.005721796620000448,-0.022110873181373693,-0.0006366496310000499
0.43,0.0005989997799999377,-0.78495772,0.00016573812799998192,-2.3557678400000004,9.492335919999977e-05,1.57144066,0.785748114,0.0399999548,0.039999970600000004,-9.8276148,0.0076365767046805135,0.0025300755599987164,-0.005804021339999401,-0.02226213328540214,-0.0006458136619999332
0.4325,0.0006075544449998288,-0.7849625799999999,0.00016822386199995027,-2.3557615100000002,9.495508479999937e-05,1.5714499899999999,0.785743116,0.0399999542,0.03999997015,-9.827703449999998,0.007689678994937662,0.002706429389996471,-0.005886246059998354,-0.022413393389430582,-0.0006549776929998165
0.435,0.0006166657999999487,-0.7849680099999999,0.00017087128799998512,-2.35575453,9.498873899999982e-05,1.57145993,0.78573779,0.0399999536,0.03999997,-9.82777115,0.007729704771190697,0.0029036478999988668,-0.005971210919999528,-0.022568121366201965,-0.0006645366159999467
0.4375,0.0006260555000002135,-0.7849737250000002,0.00017359956000006203,-2.355747225,9.50233575000008e-05,1.5714701750000002,0.7857322999999998,0.039999953,0.03999997,-9.827828375000001,0.007763192290440962,0.0031112987500047217,-0.006057545850001963,-0.022724583279345005,-0.0006742929850002219
0.44,0.0006354452000004782,-0.7849794400000003,0.00017632783200013897,-2.3557399199999995,9.505797600000177e-05,1.5714804200000005,0.7857268099999997,0.0399999524,0.03999997,-9.827885600000004,0.0077966798096912255,0.0033189496000105767,-0.006143880780004397,-0.02288104519248805,-0.0006840493540004969
0.4425,0.000644834900000743,-0.7849851550000004,0.00017905610400021588,-2.3557326149999995,9.509259450000274e-05,1.571490665000001,0.7857213199999995,0.039999951799999996,0.03999997,-9.827942825000004,0.00783016732894149,0.003526600450016431,-0.006230215710006832,-0.02303750710563109,-0.000693805723000772
0.445,0.0006542246000010078,-0.7849908700000007,0.00018178437600029282,-2.355725309999999,9.512721300000372e-05,1.571500910000001,0.7857158299999994,0.0399999512,0.03999997,-9.828000050000005,0.007863654848191754,0.0037342513000222857,-0.006316550640009266,-0.02319396901877413,-0.0007035620920010471
0.4475,0.0006636143000012725,-0.7849965850000008,0.00018451264800036974,-2.355718004999999,9.516183150000469e-05,1.5715111550000014,0.7857103399999993,0.0399999506,0.03999997,-9.828057275000008,0.007897142367442019,0.003941902150028141,-0.0064028855700117,-0.023350430931917174,-0.0007133184610013222
0.45,0.0006730040000016806,-0.7850023000000012,0.0001872409200004883,-2.3557106999999986,9.51964500000062e-05,1.5715214000000017,0.785704849999999,0.03999995,0.03999997,-9.828114500000014,0.007930629886695172,0.004149553000036967,-0.006489220500014804,-0.023506892845061026,-0.0007230748300016515
0.4525,0.0006832691795015499,-0.785008870000001,0.00019022348850045032,-2.3557024949999987,9.523426950000572e-05,1.5715326500000018,0.7856988724999991,0.03999994895,0.039999968500000004,-9.828206375000013,0.007981766760356985,0.004375356640034092,-0.0065796468750136524,-0.023668323271000907,-0.000733162145501523
0.455,0.0006935343590014192,-0.7850154400000009,0.00019320605700041236,-2.355694289999999,9.527208900000523e-05,1.5715439000000015,0.7856928949999992,0.0399999479,0.039999967000000004,-9.828298250000012,0.0080329036340188,0.004601160280031218,-0.0066700732500125015,-0.02382975369694079,-0.0007432494610013946
0.4575,0.0007037995385012884,-0.7850220100000008,0.00019618862550037437,-2.355686084999999,9.530990850000475e-05,1.5715551500000013,0.7856869174999992,0.03999994685,0.039999965500000005,-9.828390125000011,0.008084040507680613,0.004826963920028343,-0.0067604996250113505,-0.023991184122880666,-0.0007533367765012661
0.46,0.0007140647180011578,-0.7850285800000008,0.0001991711940003364,-2.355677879999999,9.534772800000427e-05,1.5715664000000014,0.7856809399999993,0.0399999458,0.039999964,-9.82848200000001,0.008135177381342429,0.0050527675600254675,-0.006850926000010199,-0.024152614548820547,-0.0007634240920011377
0.4625,0.0007243298975010271,-0.7850351500000007,0.00020215376250029842,-2.3556696749999992,9.538554750000378e-05,1.5715776500000012,0.7856749624999994,0.03999994475,0.0399999625,-9.828573875000009,0.008186314255004242,0.005278571200022592,-0.006941352375009048,-0.02431404497476043,-0.0007735114075010092
0.465,0.0007345950770008964,-0.7850417200000005,0.00020513633100026045,-2.3556614699999994,9.54233670000033e-05,1.571588900000001,0.7856689849999994,0.039999943700000005,0.039999961,-9.828665750000008,0.008237451128666055,0.005504374840019718,-0.007031778750007896,-0.024475475400700306,-0.0007835987230008809
0.4675,0.000745165438500834,-0.7850486035000005,0.0002082075505002423,-2.3556529299999993,9.546227230000306e-05,1.571600475000001,0.7856628249999995,0.03999994265,0.039999959700000004,-9.828750500000005,0.00828097569756416,0.005740671180019191,-0.00712361573500706,-0.02463872488589334,-0.000793836195000786
0.47000000000000003,0.0007563461640006916,-0.7850561140000004,0.00021145607200020094,-2.3556437199999998,9.550334920000254e-05,1.5716127000000009,0.7856562999999995,0.039999941600000005,0.0399999588,-9.828821000000005,0.00830927565694025,0.005997952920015915,-0.007218273940005855,-0.024805612489591383,-0.0008043739800006519
0.47250000000000003,0.0007675268895005492,-0.7850636245000003,0.00021470459350015958,-2.35563451,9.554442610000201e-05,1.5716249250000007,0.7856497749999997,0.03999994055,0.0399999579,-9.828891500000005,0.00833757561631634,0.006255234660012639,-0.00731293214500465,-0.02497250009328943,-0.0008149117650005177
0.47500000000000003,0.000778707615000407,-0.7850711350000003,0.00021795311500011824,-2.3556253,9.558550300000149e-05,1.5716371500000006,0.7856432499999997,0.0399999395,0.039999956999999996,-9.828962000000002,0.00836587557569243,0.006512516400009364,-0.007407590350003445,-0.025139387696987474,-0.0008254495500003835
0.47750000000000004,0.0007898883405002646,-0.7850786455000002,0.00022120163650007687,-2.35561609,9.562657990000097e-05,1.5716493750000002,0.7856367249999998,0.03999993845,0.0399999561,-9.829032500000002,0.00839417553506852,0.006769798140006087,-0.00750224855500224,-0.025306275300685518,-0.0008359873350002493
0.48,0.0008010690660001219,-0.7850861560000001,0.00022445015800003543,-2.35560688,9.566765680000045e-05,1.5716616,0.7856302,0.0399999374,0.0399999552,-9.829103000000002,0.008422475494444609,0.007027079880002806,-0.007596906760001032,-0.02547316290438356,-0.000846525120000115
0.4825,0.0008122497914999795,-0.7850936665,0.0002276986794999941,-2.35559767,9.570873369999992e-05,1.571673825,0.785623675,0.03999993635,0.039999954299999994,-9.829173500000001,0.008450775453820699,0.0072843616199995305,-0.007691564964999827,-0.025640050508081606,-0.0008570629049999808
0.485,0.000824067396000044,-0.785101783,0.00023113218100001282,-2.35558781,9.575202440000016e-05,1.57168671,0.78561679,0.0399999354,0.0399999536,-9.8292617,0.008491036109626388,0.007559864780001034,-0.007788948830000358,-0.025810412876308586,-0.0008679843370000403
0.4875,0.0008362034400002207,-0.7851102025000002,0.00023465817250006412,-2.3555776249999996,9.579642200000081e-05,1.5716999250000003,0.7856097249999998,0.0399999345,0.039999953,-9.829358750000003,0.00853727711364704,0.007844478650005177,-0.007887695525001796,-0.02598251262680008,-0.0008790975925002021
0.49,0.0008483394840003973,-0.7851186220000003,0.00023818416400011544,-2.3555674399999997,9.584081960000145e-05,1.5717131400000004,0.7856026599999998,0.0399999336,0.0399999524,-9.829455800000003,0.008583518117667693,0.008129092520009318,-0.007986442220003232,-0.026154612377291574,-0.0008902108480003638
0.4925,0.0008604755280005739,-0.7851270415000005,0.00024171015550016677,-2.3555572549999995,9.58852172000021e-05,1.5717263550000007,0.7855955949999996,0.039999932700000004,0.039999951799999996,-9.829552850000004,0.008629759121688348,0.008413706390013459,-0.00808518891500467,-0.02632671212778307,-0.0009013241035005255
0.495,0.0008726115720007505,-0.7851354610000005,0.00024523614700021806,-2.355547069999999,9.592961480000275e-05,1.5717395700000008,0.7855885299999995,0.0399999318,0.0399999512,-9.829649900000005,0.008676000125709,0.008698320260017602,-0.008183935610006106,-0.026498811878274565,-0.0009124373590006872
0.4975,0.0008847476160009271,-0.7851438805000006,0.0002487621385002694,-2.3555368849999994,9.597401240000339e-05,1.571752785000001,0.7855814649999995,0.0399999309,0.0399999506,-9.829746950000008,0.008722241129729653,0.008982934130021745,-0.008282682305007543,-0.02667091162876606,-0.000923550614500849
0.5,0.0008968836600011942,-0.7851523000000009,0.00025228813000034695,-2.355526699999999,9.601841000000437e-05,1.5717660000000013,0.7855743999999993,0.03999993,0.03999995,-9.829844000000005,0.008768482133748274,0.009267548000028802,-0.00838142900000935,-0.026843011379258076,-0.000934663870001039
0.5025000000000001,0.0009100143360012065,-0.7851616360000009,0.0002561030515003505,-2.3555154349999987,9.606640250000441e-05,1.5717803250000013,0.7855667439999993,0.03999992805,0.0399999485,-9.829911350000005,0.008792383549737102,0.009584234450029098,-0.008484231350009445,-0.02702083904297789,-0.0009460878745010497
0.505,0.0009231450120012182,-0.7851709720000009,0.0002599179730003539,-2.355504169999999,9.611439500000445e-05,1.5717946500000013,0.7855590879999993,0.0399999261,0.039999947,-9.829978700000005,0.008816284965725927,0.00990092090002938,-0.008587033700009536,-0.0271986667066977,-0.0009575118790010597
0.5075000000000001,0.0009362756880012304,-0.7851803080000009,0.0002637328945003575,-2.355492904999999,9.61623875000045e-05,1.5718089750000013,0.7855514319999993,0.039999924150000005,0.0399999455,-9.830046050000005,0.008840186381714755,0.010217607350029674,-0.008689836050009633,-0.027376494370417514,-0.0009689358835010705
0.51,0.0009494063640012421,-0.7851896440000009,0.00026754781600036085,-2.355481639999999,9.621038000000454e-05,1.5718233000000015,0.7855437759999992,0.0399999222,0.039999943999999996,-9.830113400000005,0.008864087797703582,0.010534293800029956,-0.008792638400009723,-0.027554322034137324,-0.0009803598880010805
0.5125,0.0009625370400012537,-0.7851989800000009,0.00027136273750036425,-2.355470374999999,9.625837250000458e-05,1.5718376250000015,0.7855361199999993,0.03999992025,0.039999942499999996,-9.830180750000006,0.008887989213692408,0.010850980250030236,-0.008895440750009816,-0.02773214969785713,-0.0009917838925010908
0.515,0.000975667716001266,-0.785208316000001,0.0002751776590003678,-2.3554591099999986,9.630636500000462e-05,1.5718519500000014,0.7855284639999993,0.0399999183,0.039999941,-9.830248100000006,0.008911890629681235,0.011167666700030532,-0.008998243100009911,-0.027909977361576944,-0.0010032078970011013
0.5175,0.0009891428950013139,-0.785217976500001,0.0002790926580003817,-2.3554474699999988,9.635557750000479e-05,1.5718666500000014,0.7855206089999992,0.039999917,0.03999994,-9.830327850000009,0.008941903151575633,0.011490798600031165,-0.009102387400009907,-0.02808960005642676,-0.0010147756950010995
0.52,0.0010033070800011337,-0.7852282860000008,0.0002832078120003294,-2.355435079999999,9.640723000000414e-05,1.5718821000000012,0.7855123559999994,0.039999917,0.03999994,-9.830432400000008,0.00898413788527584,0.011826821400026895,-0.00920921560000855,-0.028272812813535025,-0.0010266310800009489
0.5225,0.001017471265000953,-0.7852385955000007,0.0002873229660002769,-2.3554226899999993,9.645888250000347e-05,1.571897550000001,0.7855041029999994,0.039999917,0.03999994,-9.830536950000006,0.009026372618976047,0.01216284420002261,-0.009316043800007189,-0.028456025570643282,-0.0010384864650007978
0.525,0.0010316354500007731,-0.7852489050000006,0.0002914381200002246,-2.355410299999999,9.651053500000282e-05,1.5719130000000008,0.7854958499999996,0.039999917,0.03999994,-9.830641500000006,0.009068607352676256,0.01249886700001834,-0.009422872000005831,-0.02863923832775155,-0.001050341850000647
0.5275,0.0010457996350005923,-0.7852592145000005,0.0002955532740001721,-2.3553979099999993,9.656218750000217e-05,1.5719284500000006,0.7854875969999996,0.039999917,0.03999994,-9.830746050000004,0.00911084208637646,0.012834889800014054,-0.009529700200004468,-0.02882245108485981,-0.0010621972350004958
0.53,0.0010599638200004123,-0.7852695240000003,0.0002996684280001198,-2.3553855199999996,9.66138400000015e-05,1.5719439000000004,0.7854793439999997,0.039999917,0.03999994,-9.830850600000003,0.00915307682007667,0.013170912600009783,-0.00963652840000311,-0.029005663841968073,-0.0010740526200003452
0.5325,0.0010741280050002317,-0.7852798335000002,0.0003037835820000673,-2.35537313,9.666549250000085e-05,1.5719593500000002,0.7854710909999999,0.039999917,0.03999994,-9.830955150000001,0.009195311553776876,0.013506935400005497,-0.009743356600001748,-0.029188876599076333,-0.0010859080050001938
0.535,0.0010890068500003327,-0.7852907930000003,0.00030810633000009663,-2.3553600199999996,9.671963300000122e-05,1.5719755900000003,0.7854624259999998,0.039999917,0.0399999403,-9.83102565,0.009220332000404879,0.013870335200008235,-0.00985282050000242,-0.029375396482650497,-0.001098130490000271
0.5375,0.0011042430250005541,-0.7853020775000004,0.000312532875000161,-2.3553465499999997,9.677501750000201e-05,1.5719922250000005,0.7854535549999997,0.039999917,0.03999994075,-9.831079125000002,0.009236745303497247,0.014247423500013715,-0.00996360225000403,-0.02956356992945752,-0.0011105365250004512
0.54,0.0011194792000007762,-0.7853133620000006,0.0003169594200002255,-2.3553330799999994,9.683040200000282e-05,1.5720088600000008,0.7854446839999996,0.039999917,0.0399999412,-9.831132600000004,0.009253158606589616,0.01462451180001921,-0.010074384000005644,-0.029751743376264544,-0.001122942560000632
0.5425,0.0011347153750009976,-0.7853246465000007,0.00032138596500028984,-2.355319609999999,9.688578650000362e-05,1.572025495000001,0.7854358129999994,0.039999917,0.03999994165,-9.831186075000003,0.009269571909681985,0.01500160010002469,-0.010185165750007254,-0.029939916823071566,-0.0011353485950008123
0.545,0.0011499515500012197,-0.7853359310000009,0.0003258125100003543,-2.355306139999999,9.694117100000443e-05,1.5720421300000011,0.7854269419999993,0.039999917,0.039999942100000005,-9.831239550000005,0.009285985212774354,0.015378688400030186,-0.010295947500008869,-0.03012809026987859,-0.001147754630000993
0.5475,0.001165187725001441,-0.7853472155000011,0.0003302390550004187,-2.3552926699999985,9.699655550000524e-05,1.5720587650000015,0.7854180709999992,0.039999917,0.03999994255,-9.831293025000006,0.009302398515866723,0.015755776700035664,-0.010406729250010478,-0.030316263716685613,-0.0011601606650011734
0.55,0.0011804239000017844,-0.7853585000000013,0.00033466560000051834,-2.3552791999999982,9.705194000000648e-05,1.572075400000002,0.785409199999999,0.039999917,0.039999943,-9.831346500000013,0.009318811818961428,0.016132865000043697,-0.010517511000012525,-0.03050443716349324,-0.0011725667000013853
0.5525,0.0011967698800017987,-0.7853708000000014,0.0003394145220005226,-2.3552646199999985,9.711133550000653e-05,1.572093295000002,0.785399689999999,0.039999917450000005,0.039999943600000004,-9.831455775000013,0.009356641303752022,0.016533190850044052,-0.010632249150012627,-0.03069810802119114,-0.0011852579300013965
0.555,0.001213115860001814,-0.7853831000000013,0.000344163444000527,-2.3552500399999983,9.717073100000659e-05,1.572111190000002,0.7853901799999989,0.0399999179,0.039999944200000005,-9.831565050000012,0.009394470788542619,0.016933516700044428,-0.010746987300012733,-0.030891778878889053,-0.0011979491600014084
0.5575,0.0012294618400018286,-0.7853954000000013,0.0003489123660005312,-2.3552354599999985,9.723012650000664e-05,1.572129085000002,0.7853806699999989,0.039999918350000004,0.0399999448,-9.831674325000012,0.009432300273333211,0.017333842550044783,-0.010861725450012835,-0.031085449736586956,-0.0012106403900014196
0.56,0.0012458078200018438,-0.7854077000000014,0.00035366128800053565,-2.3552208799999983,9.72895220000067e-05,1.572146980000002,0.785371159999999,0.0399999188,0.0399999454,-9.831783600000012,0.009470129758123808,0.017734168400045155,-0.010976463600012943,-0.031279120594284865,-0.0012233316200014315
0.5625,0.0012621538000018584,-0.7854200000000013,0.0003584102100005399,-2.3552062999999985,9.734891750000675e-05,1.5721648750000021,0.7853616499999989,0.03999991925,0.039999946,-9.831892875000012,0.0095079592429144,0.01813449425004551,-0.011091201750013045,-0.03147279145198277,-0.001236022850001443
0.5650000000000001,0.0012784997800018736,-0.7854323000000014,0.0003631591320005443,-2.3551917199999983,9.740831300000681e-05,1.5721827700000022,0.7853521399999989,0.039999919700000004,0.0399999466,-9.832002150000012,0.009545788727704996,0.018534820100045885,-0.011205939900013152,-0.03166646230968068,-0.0012487140800014548
0.5675,0.001295228195001941,-0.7854449400000014,0.0003680191530005639,-2.3551767499999983,9.746903650000704e-05,1.5722010750000022,0.7853424049999989,0.03999992025,0.03999994735,-9.832095350000007,0.009574151225389047,0.01894767840004859,-0.011321958100013157,-0.03186181839557703,-0.0012615830800014674
0.5700000000000001,0.001312721480001719,-0.7854582600000013,0.00037310137200049934,-2.3551609999999985,9.753241600000623e-05,1.5722202000000018,0.785332219999999,0.039999921,0.0399999484,-9.832156400000006,0.009583579748869827,0.019385601600043025,-0.01144053640001165,-0.03206054493786853,-0.0012748076200012994
0.5725,0.0013302147650014957,-0.7854715800000012,0.0003781835910004345,-2.3551452499999987,9.759579550000542e-05,1.5722393250000017,0.7853220349999991,0.03999992175,0.03999994945,-9.832217450000005,0.009593008272350607,0.01982352480003744,-0.011559114700010139,-0.032259271480160015,-0.0012880321600011308
0.5750000000000001,0.0013477080500012733,-0.7854849000000009,0.00038326581000036993,-2.355129499999999,9.765917500000461e-05,1.5722584500000014,0.7853118499999993,0.0399999225,0.0399999505,-9.832278500000005,0.009602436795831388,0.020261448000031875,-0.011677693000008631,-0.032457998022451515,-0.0013012567000009626
0.5775,0.0013652013350010503,-0.7854982200000008,0.0003883480290003051,-2.3551137499999992,9.77225545000038e-05,1.572277575000001,0.7853016649999993,0.03999992325,0.039999951549999996,-9.832339550000004,0.009611865319312166,0.02069937120002629,-0.011796271300007119,-0.03265672456474301,-0.001314481240000794
0.58,0.0013826946200008272,-0.7855115400000006,0.0003934302480002403,-2.3550979999999995,9.778593400000299e-05,1.5722967000000008,0.7852914799999995,0.039999924,0.0399999526,-9.832400600000003,0.009621293842792946,0.021137294400020705,-0.011914849600005606,-0.03285545110703449,-0.0013277057800006253
0.5825,0.0014001879050006048,-0.7855248600000004,0.0003985124670001757,-2.3550822499999997,9.78493135000022e-05,1.5723158250000007,0.7852812949999997,0.03999992475,0.039999953649999996,-9.832461650000003,0.009630722366273726,0.02157521760001514,-0.0120334279000041,-0.03305417764932599,-0.001340930320000457
0.585,0.0014184705000007472,-0.7855388900000005,0.0004038239920002171,-2.3550657299999993,9.791554160000271e-05,1.5723358200000006,0.7852706459999995,0.0399999261,0.0399999552,-9.832558800000005,0.009655714500696772,0.022034128300018777,-0.012154539600004895,-0.03325668536127426,-0.0013543320600005397
0.5875,0.0014371477500010196,-0.7855532750000008,0.0004092501700002962,-2.355048824999999,9.79831940000037e-05,1.572356250000001,0.7852597649999994,0.03999992775,0.039999956999999996,-9.832674000000006,0.00968848844058989,0.02250353275002562,-0.01227691800000668,-0.03346108365805068,-0.0013678224000007362
0.59,0.0014558250000012909,-0.785567660000001,0.000414676348000375,-2.3550319199999987,9.805084640000467e-05,1.5723766800000014,0.7852488839999993,0.0399999294,0.0399999588,-9.832789200000008,0.009721262380483006,0.02297293720003244,-0.012399296400008458,-0.03366548195482708,-0.0013813127400009323
0.5925,0.001474502250001563,-0.7855820450000012,0.0004201025260004541,-2.3550150149999984,9.811849880000566e-05,1.5723971100000016,0.785238002999999,0.03999993105,0.039999960599999995,-9.83290440000001,0.009754036320376124,0.02344234165003928,-0.012521674800010242,-0.0338698802516035,-0.001394803080001129
0.595,0.0014931795000018345,-0.7855964300000015,0.00042552870400053294,-2.354998109999998,9.818615120000664e-05,1.572417540000002,0.7852271219999989,0.0399999327,0.0399999624,-9.83301960000001,0.00978681026026924,0.0239117461000461,-0.01264405320001202,-0.034074278548379903,-0.001408293420001325
0.5975,0.0015118567500021067,-0.7856108150000016,0.000430954882000612,-2.354981204999998,9.825380360000763e-05,1.5724379700000022,0.7852162409999988,0.03999993435,0.039999964199999995,-9.833134800000012,0.009819584200162356,0.024381150550052945,-0.012766431600013804,-0.034278676845156314,-0.0014217837600015216
0.6,0.0015305340000025334,-0.785625200000002,0.000436381060000736,-2.3549642999999976,9.832145600000915e-05,1.5724584000000026,0.7852053599999985,0.039999936,0.039999966,-9.833250000000007,0.009852358140051526,0.024850555000064743,-0.01288881000001605,-0.03448307514193336,-0.001435274100001783
0.6025,0.0015504315900022804,-0.7856406650000018,0.0004421617270006625,-2.3549461649999976,9.839332100000824e-05,1.5724801650000024,0.7851937709999987,0.0399999381,0.0399999687,-9.833301750000006,0.009854133846238405,0.02535906475005828,-0.013014863700014447,-0.034692523255968215,-0.001449277140001605
0.605,0.0015703291800020268,-0.7856561300000016,0.0004479423940005888,-2.354928029999998,9.846518600000732e-05,1.5725019300000023,0.7851821819999988,0.0399999402,0.0399999714,-9.833353500000005,0.009855909552425282,0.025867574500051796,-0.013140917400012839,-0.03490197137000306,-0.0014632801800014265
0.6075,0.0015902267700017739,-0.7856715950000014,0.0004537230610005153,-2.3549098949999983,9.85370510000064e-05,1.5725236950000019,0.7851705929999989,0.0399999423,0.0399999741,-9.833405250000006,0.00985768525861216,0.026376084250045333,-0.013266971100011238,-0.03511141948403792,-0.0014772832200012484
0.61,0.00161012436000152,-0.7856870600000012,0.0004595037280004416,-2.3548917599999983,9.860891600000549e-05,1.5725454600000017,0.785159003999999,0.0399999444,0.0399999768,-9.833457000000005,0.009859460964799036,0.02688459400003885,-0.01339302480000963,-0.03532086759807276,-0.0014912862600010698
0.6125,0.0016300219500012673,-0.785702525000001,0.00046528439500036813,-2.354873624999999,9.868078100000457e-05,1.5725672250000013,0.7851474149999993,0.0399999465,0.039999979500000005,-9.833508750000004,0.009861236670985913,0.027393103750032385,-0.013519078500008028,-0.035530315712107616,-0.001505289300000892
0.615,0.0016499195400010134,-0.7857179900000009,0.0004710650620002944,-2.354855489999999,9.875264600000366e-05,1.5725889900000012,0.7851358259999994,0.0399999486,0.0399999822,-9.833560500000003,0.00986301237717279,0.027901613500025898,-0.01364513220000642,-0.03573976382614246,-0.0015192923400007133
0.6175,0.0016702357900009047,-0.7857338180000007,0.0004769673530002628,-2.354836914999999,9.882601170000326e-05,1.5726112150000011,0.7851239949999995,0.0399999502,0.039999984200000005,-9.833633300000006,0.009872971894220641,0.028419788650022988,-0.013772411850005549,-0.03595101535321198,-0.0015333770650006093
0.62,0.0016913893600009236,-0.7857503720000008,0.0004831128920002683,-2.354817459999999,9.890237880000334e-05,1.572634360000001,0.7851116799999994,0.039999950799999996,0.0399999848,-9.833748200000006,0.00989929903298731,0.028957294600023466,-0.013902143400005663,-0.03616587370635014,-0.001547625160000622
0.6225,0.0017125429300009433,-0.7857669260000008,0.000489258431000274,-2.3547980049999993,9.897874590000341e-05,1.5726575050000011,0.7850993649999994,0.0399999514,0.0399999854,-9.833863100000006,0.009925626171753979,0.029494800550023965,-0.014031874950005784,-0.03638073205948831,-0.0015618732550006353
0.625,0.001733696500000962,-0.7857834800000008,0.0004954039700002795,-2.3547785499999994,9.905511300000347e-05,1.572680650000001,0.7850870499999995,0.039999952,0.039999986,-9.833978000000005,0.009951953310520647,0.030032306500024444,-0.0141616065000059,-0.03659559041262647,-0.001576121350000648
0.6275000000000001,0.0017548500700009816,-0.7858000340000008,0.0005015495090002852,-2.354759094999999,9.913148010000355e-05,1.5727037950000011,0.7850747349999995,0.0399999526,0.0399999866,-9.834092900000005,0.009978280449287317,0.030569812450024946,-0.01429133805000602,-0.03681044876576464,-0.0015903694450006612
0.63,0.0017760036400010005,-0.7858165880000008,0.0005076950480002907,-2.354739639999999,9.920784720000362e-05,1.572726940000001,0.7850624199999995,0.0399999532,0.0399999872,-9.834207800000005,0.010004607588053984,0.031107318400025424,-0.014421069600006135,-0.037025307118902805,-0.0016046175400006738
0.6325000000000001,0.0017971572100010202,-0.7858331420000009,0.0005138405870002964,-2.3547201849999992,9.928421430000368e-05,1.5727500850000011,0.7850501049999994,0.039999953799999995,0.0399999878,-9.834322700000005,0.010030934726820654,0.03164482435002593,-0.014550801150006256,-0.037240165472040974,-0.0016188656350006872
0.635,0.0018191713800013065,-0.785850420000001,0.0005202361200003795,-2.3546998899999987,9.936476700000482e-05,1.5727741700000015,0.7850372899999992,0.0399999546,0.0399999882,-9.834391800000002,0.01003765389323215,0.032210181900033726,-0.014682955800007762,-0.03745822645725096,-0.0016332548600008416
0.6375000000000001,0.0018416158500016335,-0.7858680600000013,0.0005267566500004746,-2.3546791749999985,9.944741250000602e-05,1.5727987250000017,0.785024224999999,0.039999955499999996,0.0399999885,-9.834438000000002,0.0100345690734682,0.032789465250042164,-0.014816322000009707,-0.037677888758496515,-0.0016477146500010523
0.64,0.0018640603200019597,-0.7858857000000016,0.0005332771800005693,-2.3546584599999982,9.953005800000721e-05,1.5728232800000022,0.7850111599999989,0.0399999564,0.0399999888,-9.834484200000004,0.01003148425370425,0.03336874860005058,-0.014949688200011645,-0.03789755105974206,-0.0016621744400012626
0.6425,0.0018865047900022858,-0.7859033400000018,0.0005397977100006641,-2.354637744999998,9.961270350000842e-05,1.5728478350000026,0.7849980949999987,0.0399999573,0.0399999891,-9.834530400000004,0.0100283994339403,0.033948031950059,-0.015083054400013583,-0.038117213360987605,-0.0016766342300014727
0.645,0.001908949260002613,-0.785920980000002,0.0005463182400007591,-2.354617029999998,9.969534900000962e-05,1.572872390000003,0.7849850299999985,0.0399999582,0.0399999894,-9.834576600000005,0.01002531461417635,0.034527315300067446,-0.015216420600015526,-0.038336875662233164,-0.0016910940200016834
0.6475,0.0019313937300029392,-0.7859386200000023,0.0005528387700008539,-2.354596314999997,9.977799450001083e-05,1.5728969450000032,0.7849719649999983,0.0399999591,0.0399999897,-9.834622800000005,0.010022229794412401,0.035106598650075864,-0.015349786800017464,-0.03855653796347871,-0.0017055538100018935
0.65,0.001953838200003459,-0.7859562600000027,0.000559359300001005,-2.354575599999997,9.986064000001283e-05,1.5729215000000039,0.784958899999998,0.03999996,0.03999999,-9.834669000000012,0.010019144974649466,0.035685882000088875,-0.01548315300001993,-0.03877620026472504,-0.0017200136000021795
0.6525,0.001977607980003156,-0.7859750760000025,0.0005662648305009169,-2.354553639999997,9.99487890000117e-05,1.5729475250000036,0.7849450594999982,0.0399999615,0.0399999915,-9.834753750000012,0.010023029008880717,0.03629657745008109,-0.015620105400018182,-0.03900115322324639,-0.0017349897050019884
0.655,0.002001377760002854,-0.7859938920000022,0.0005731703610008292,-2.3545316799999974,0.00010003693800001058,1.572973550000003,0.7849312189999984,0.039999963,0.039999993,-9.83483850000001,0.010026913043111967,0.036907272900073326,-0.015757057800016443,-0.03922610618176776,-0.001749965810001798
0.6575,0.0020251475400025506,-0.786012708000002,0.0005800758915007411,-2.3545097199999976,0.00010012508700000946,1.5729995750000028,0.7849173784999985,0.0399999645,0.0399999945,-9.834923250000008,0.010030797077343216,0.03751796835006554,-0.015894010200014696,-0.03945105914028912,-0.0017649419150016072
0.66,0.0020489173200022486,-0.7860315240000018,0.0005869814220006533,-2.3544877599999983,0.00010021323600000834,1.5730256000000025,0.7849035379999987,0.039999966000000005,0.039999996,-9.835008000000007,0.010034681111574467,0.03812866380005777,-0.016030962600012955,-0.03967601209881048,-0.0017799180200014167
0.6625,0.0020726871000019452,-0.7860503400000015,0.0005938869525005651,-2.3544657999999985,0.00010030138500000722,1.5730516250000022,0.7848896974999989,0.039999967500000004,0.0399999975,-9.835092750000006,0.010038565145805717,0.03873935925004998,-0.016167915000011208,-0.03990096505733184,-0.0017948941250012257
0.665,0.002096456880001643,-0.7860691560000013,0.0006007924830004775,-2.3544438399999987,0.0001003895340000061,1.5730776500000017,0.7848758569999991,0.039999969,0.039999999,-9.835177500000006,0.010042449180036968,0.03935005470004222,-0.016304867400009467,-0.040125918015853204,-0.0018098702300010355
0.6675,0.0021206796550014167,-0.7860883625000011,0.0006078296115004116,-2.354421454999999,0.00010048075650000549,1.5731041700000015,0.7848617534999992,0.03999997015,0.0399999995,-9.835273150000006,0.010051233461127648,0.039974600250036775,-0.016442960850007914,-0.04035265613348588,-0.0018248435850008438
0.67,0.002145808420001097,-0.7861083500000009,0.0006151299360003188,-2.3543982199999993,0.00010057812600000425,1.573131680000001,0.7848471239999993,0.039999970600000004,0.039999998,-9.835390600000006,0.010069818235934511,0.040626846000028485,-0.01658333640000613,-0.04058296456934024,-0.0018398114400006538
0.6725,0.002170937185000777,-0.7861283375000006,0.0006224302605002257,-2.3543749849999993,0.00010067549550000302,1.5731591900000008,0.7848324944999996,0.03999997105,0.0399999965,-9.835508050000003,0.010088403010741374,0.04127909175002017,-0.016723711950004338,-0.040813273005194585,-0.0018547792950004628
0.675,0.0021960659500004577,-0.7861483250000003,0.000629730585000133,-2.3543517499999997,0.00010077286500000178,1.5731867000000004,0.7848178649999997,0.0399999715,0.039999994999999997,-9.835625500000003,0.010106987785548239,0.04193133750001188,-0.016864087500002557,-0.04104358144104894,-0.0018697471500002726
0.6775,0.002221194715000137,-0.7861683125000001,0.0006370309095000399,-2.354328515,0.00010087023450000053,1.5732142100000002,0.7848032355,0.039999971950000004,0.0399999935,-9.83574295,0.0101255725603551,0.042583583250003554,-0.017004463050000765,-0.04127388987690329,-0.0018847150050000816
0.68,0.002246323479999818,-0.7861882999999998,0.0006443312339999471,-2.35430528,0.00010096760399999929,1.5732417199999997,0.7847886060000001,0.0399999724,0.039999992,-9.8358604,0.010144157335161965,0.043235828999995264,-0.01714483859999898,-0.041504198312757645,-0.0018996828599998914
0.6825,0.002271452244999497,-0.7862082874999996,0.000651631558499854,-2.3542820450000006,0.00010106497349999805,1.5732692299999995,0.7847739765000002,0.03999997285,0.0399999905,-9.835977849999997,0.010162742109968828,0.04388807474998695,-0.017285214149997192,-0.041734506748611996,-0.0019146507149997005
0.685,0.0022975089899998557,-0.7862290699999999,0.0006592015049999581,-2.35425794,0.00010116487999999945,1.57329774,0.784758814,0.039999973,0.0399999905,-9.836050199999999,0.01015524100512272,0.044568183599996224,-0.017427891799999217,-0.04196803160011631,-0.0019301589599999142
0.6875,0.002324029725000603,-0.7862502500000005,0.0006669062625001752,-2.3542333999999996,0.0001012660550000023,1.5733267500000006,0.7847433849999996,0.039999973,0.03999999125,-9.836100000000002,0.010134696960448707,0.04526222400001578,-0.01757172050000327,-0.04220316465944577,-0.0019459374000003588
0.6900000000000001,0.002350550460001351,-0.7862714300000011,0.0006746110200003926,-2.354208859999999,0.00010136723000000516,1.5733557600000014,0.7847279559999992,0.039999973,0.039999992,-9.836149800000003,0.010114152915774693,0.04595626440003536,-0.01771554920000733,-0.04243829771877524,-0.001961715840000804
0.6925,0.0023770711950020984,-0.7862926100000017,0.0006823157775006096,-2.354184319999998,0.000101468405000008,1.5733847700000023,0.7847125269999987,0.039999973,0.039999992750000005,-9.836199600000004,0.010093608871100678,0.046650304800054915,-0.01785937790001138,-0.0426734307781047,-0.0019774942800012485
0.6950000000000001,0.002403591930002847,-0.7863137900000022,0.000690020535000827,-2.3541597799999976,0.00010156958000001086,1.5734137800000032,0.7846970979999983,0.039999973,0.039999993500000004,-9.836249400000005,0.010073064826426665,0.0473443452000745,-0.01800320660001544,-0.04290856383743417,-0.0019932727200016936
0.6975,0.0024301126650035938,-0.7863349700000029,0.0006977252925010441,-2.3541352399999966,0.0001016707550000137,1.573442790000004,0.7846816689999979,0.039999973,0.039999994250000004,-9.836299200000006,0.010052520781752651,0.04803838560009406,-0.01814703530001949,-0.043143696896763624,-0.0020090511600021383
0.7000000000000001,0.0024566334000045756,-0.7863561500000037,0.0007054300500013293,-2.3541106999999957,0.00010177193000001738,1.5734718000000052,0.7846662399999973,0.039999973,0.039999995,-9.83634900000002,0.010031976737083685,0.04873242600011933,-0.018290864000024103,-0.043378829956094024,-0.002024829600002614
0.7025,0.002484578490004219,-0.7863785375000034,0.0007135486425012258,-2.3540846449999964,0.00010187811875001604,1.5735023250000046,0.7846499679999975,0.039999973,0.039999995,-9.83647320000002,0.010042270692066894,0.04946122965011004,-0.018438064250022226,-0.04361960794780305,-0.0020407959450024107
0.705,0.0025125235800038627,-0.7864009250000031,0.0007216672350011221,-2.3540585899999966,0.00010198430750001467,1.5735328500000043,0.7846336959999978,0.039999973,0.039999995,-9.836597400000018,0.010052564647050103,0.050190033300100745,-0.01858526450002035,-0.04386038593951208,-0.002056762290002207
0.7075,0.0025404686700035077,-0.7864233125000029,0.000729785827501019,-2.354032534999997,0.00010209049625001332,1.573563375000004,0.7846174239999979,0.039999973,0.039999995,-9.836721600000017,0.010062858602033311,0.05091883695009148,-0.018732464750018475,-0.04410116393122112,-0.002072728635002004
0.71,0.002568413760003151,-0.7864457000000026,0.0007379044200009154,-2.354006479999997,0.00010219668500001198,1.5735939000000037,0.7846011519999981,0.039999973,0.039999995,-9.836845800000015,0.01007315255701652,0.05164764060008219,-0.018879665000016598,-0.04434194192293015,-0.0020886949800018005
0.7125,0.002596358850002796,-0.7864680875000023,0.0007460230125008123,-2.3539804249999974,0.00010230287375001063,1.573624425000003,0.7845848799999984,0.039999973,0.039999995,-9.836970000000013,0.01008344651199973,0.05237644425007292,-0.019026865250014728,-0.04458271991463919,-0.0021046613250015975
0.715,0.0026243039400024397,-0.786490475000002,0.0007541416050007087,-2.353954369999998,0.00010240906250000928,1.5736549500000028,0.7845686079999986,0.039999973,0.039999995,-9.837094200000012,0.010093740466982939,0.05310524790006362,-0.01917406550001285,-0.04482349790634822,-0.0021206276700013937
0.7175,0.0026527344100024603,-0.786513275000002,0.0007624012035007148,-2.3539278399999977,0.00010251708025000935,1.5736860150000027,0.7845520589999986,0.039999973,0.039999995,-9.837184550000002,0.010091821476814835,0.05384912115006477,-0.019322317300012583,-0.04506567008795399,-0.0021366939400013613
0.72,0.0026821356400028875,-0.7865369000000023,0.0007709428140008389,-2.3539003599999972,0.00010262875600001097,1.5737181600000032,0.7845349559999983,0.039999973,0.039999995,-9.837207200000002,0.010065476596352773,0.05462313360007602,-0.01947267220001477,-0.04531063064935224,-0.0021529600600015976
0.7225,0.0027115368700033164,-0.7865605250000027,0.0007794844245009633,-2.353872879999997,0.0001027404317500126,1.5737503050000037,0.7845178529999981,0.039999973,0.039999995,-9.837229850000003,0.010039131715890708,0.055397146050087304,-0.019623027100016958,-0.04555559121075049,-0.0021692261800018344
0.725,0.0027409381000037436,-0.786584150000003,0.0007880260350010875,-2.3538453999999964,0.00010285210750001422,1.5737824500000042,0.7845007499999977,0.039999973,0.039999995,-9.837252500000004,0.010012786835428646,0.05617115850009855,-0.019773382000019143,-0.04580055177214874,-0.0021854923000020707
0.7275,0.002770339330004172,-0.7866077750000033,0.000796567645501212,-2.353817919999996,0.00010296378325001584,1.5738145950000046,0.7844836469999975,0.039999973,0.039999995,-9.837275150000004,0.009986441954966582,0.056945170950109834,-0.019923736900021336,-0.046045512333547,-0.002201758420002308
0.73,0.0027997405600045993,-0.7866314000000038,0.000805109256001336,-2.3537904399999956,0.00010307545900001746,1.5738467400000051,0.7844665439999973,0.039999973,0.039999995,-9.837297800000004,0.009960097074504518,0.05771918340012108,-0.020074091800023522,-0.04629047289494524,-0.0022180245400025443
0.7325,0.002829141790005028,-0.7866550250000041,0.0008136508665014606,-2.353762959999995,0.0001031871347500191,1.5738788850000056,0.784449440999997,0.039999973,0.039999995,-9.837320450000004,0.009933752194042455,0.05849319585013236,-0.02022444670002571,-0.0465354334563435,-0.0022342906600027815
0.735,0.002859534350005731,-0.7866794900000047,0.0008224805080016648,-2.3537345399999943,0.00010330275800002182,1.5739121300000063,0.7844317589999966,0.039999973,0.039999995,-9.837399900000019,0.009925961773842836,0.059290883000150195,-0.02037700930002851,-0.04678352735941265,-0.0022507494800030714
0.7375,0.0028904225750061813,-0.786704375000005,0.0008314541650017957,-2.353705649999994,0.00010342035500002353,1.5739459250000067,0.7844137874999964,0.039999973,0.039999995,-9.837507750000022,0.009927448583767097,0.06010040750016199,-0.02053067575003075,-0.04703318793331604,-0.002267304650003313
0.74,0.00292131080000663,-0.7867292600000054,0.0008404278220019261,-2.3536767599999937,0.00010353795200002523,1.5739797200000072,0.7843958159999961,0.039999973,0.039999995,-9.837615600000023,0.009928935393691359,0.06090993200017376,-0.020684342200032985,-0.04728284850721941,-0.002283859820003553
0.7425,0.00295219902500708,-0.7867541450000057,0.0008494014790020568,-2.3536478699999934,0.00010365554900002695,1.5740135150000079,0.7843778444999958,0.039999973,0.039999995,-9.837723450000023,0.00993042220361562,0.06171945650018555,-0.020838008650035225,-0.04753250908112279,-0.0023004149900037944
0.745,0.0029830872500075287,-0.786779030000006,0.0008583751360021872,-2.353618979999993,0.00010377314600002866,1.5740473100000083,0.7843598729999957,0.039999973,0.039999995,-9.837831300000026,0.009931909013539884,0.06252898100019731,-0.020991675100037455,-0.047782169655026165,-0.002316970160004035
0.7475,0.003013975475007979,-0.7868039150000065,0.000867348793002318,-2.3535900899999924,0.00010389074300003037,1.5740811050000088,0.7843419014999954,0.039999973,0.039999995,-9.837939150000027,0.009933395823464145,0.06333850550020911,-0.021145341550039696,-0.048031830228929547,-0.0023335253300042764
0.75,0.0030448637000088418,-0.7868288000000071,0.0008763224500025686,-2.3535611999999917,0.0001040083400000343,1.5741149000000099,0.7843239299999949,0.039999973,0.039999995,-9.83804700000001,0.009934882633378949,0.06414803000023468,-0.021299008000042776,-0.048281490802834164,-0.0023500805000045283
0.7525000000000001,0.00307726925000843,-0.7868549540000068,0.000885736922502449,-2.3535308999999924,0.00010413405290003269,1.5741503450000094,0.7843050704999951,0.039999973,0.03999999395,-9.83808645000001,0.009901706082737716,0.06500816210022375,-0.021455777800040782,-0.048535703867739914,-0.0023666776850043173
0.755,0.0031096748000080166,-0.7868811080000064,0.000895151395002329,-2.3535005999999927,0.0001042597658000311,1.574185790000009,0.7842862109999953,0.039999973,0.0399999929,-9.838125900000009,0.009868529532096482,0.06586829420021278,-0.021612547600038782,-0.04878991693264566,-0.0023832748700041055
0.7575000000000001,0.0031420803500076047,-0.7869072620000062,0.0009045658675022093,-2.353470299999993,0.0001043854787000295,1.5742212350000084,0.7842673514999956,0.039999973,0.03999999185,-9.83816535000001,0.009835352981455249,0.06672842630020184,-0.021769317400036788,-0.049044129997551415,-0.0023998720550038946
0.76,0.0031744859000071915,-0.7869334160000058,0.0009139803400020892,-2.3534399999999933,0.00010451119160002789,1.574256680000008,0.7842484919999958,0.039999973,0.0399999908,-9.838204800000009,0.009802176430814017,0.06758855840019087,-0.02192608720003479,-0.04929834306245715,-0.0024164692400036832
0.7625000000000001,0.0032068914500067796,-0.7869595700000055,0.0009233948125019696,-2.3534096999999936,0.0001046369045000263,1.5742921250000075,0.784229632499996,0.039999973,0.03999998975,-9.838244250000008,0.009768999880172784,0.06844869050017995,-0.022082857000032798,-0.04955255612736291,-0.0024330664250034723
0.765,0.0032392970000063664,-0.7869857240000052,0.0009328092850018495,-2.353379399999994,0.0001047626174000247,1.574327570000007,0.7842107729999963,0.039999973,0.0399999887,-9.838283700000007,0.009735823329531552,0.06930882260016898,-0.022239626800030797,-0.04980676919226865,-0.0024496636100032605
0.7675000000000001,0.003272218145006393,-0.7870123170000052,0.0009423735650018573,-2.3533485899999937,0.00010488928100002421,1.574363575000007,0.7841916149999962,0.039999973,0.03999998835,-9.838349250000022,0.009710355661807512,0.07018058350016852,-0.02239741270003009,-0.050062710233081474,-0.002466506665003264
0.77,0.0033061704800064233,-0.7870397880000052,0.000952237460001866,-2.353316759999994,0.00010501784600002432,1.5744007000000069,0.7841718599999963,0.039999973,0.0399999894,-9.838467000000023,0.009700305759904819,0.07107560200016932,-0.022557230800030234,-0.050322107225705515,-0.0024838414600032795
0.7725,0.0033401228150064534,-0.7870672590000053,0.0009621013550018748,-2.353284929999994,0.00010514641100002443,1.574437825000007,0.7841521049999962,0.039999973,0.03999999045,-9.838584750000022,0.009690255858002124,0.07197062050017011,-0.022717048900030377,-0.05058150421832955,-0.002501176255003295
0.775,0.003374075150006485,-0.7870947300000053,0.0009719652500018841,-2.3532530999999937,0.00010527497600002456,1.574474950000007,0.7841323499999963,0.039999973,0.039999991500000005,-9.838702500000023,0.00968020595609943,0.07286563900017094,-0.022876867000030523,-0.050840901210953596,-0.002518511050003311
0.7775,0.003408027485006515,-0.7871222010000053,0.000981829145001893,-2.353221269999994,0.00010540354100002467,1.574512075000007,0.7841125949999962,0.039999973,0.03999999255,-9.838820250000023,0.009670156054196737,0.07376065750017174,-0.023036685100030665,-0.05110029820357763,-0.0025358458450033265
0.78,0.003441979820006547,-0.7871496720000053,0.000991693040001902,-2.3531894399999937,0.00010553210600002479,1.574549200000007,0.7840928399999961,0.039999973,0.039999993600000006,-9.838938000000024,0.009660106152294042,0.07465567600017257,-0.023196503200030815,-0.05135969519620168,-0.002553180640003343
0.7825,0.003475932155006577,-0.7871771430000053,0.0010015569350019108,-2.3531576099999936,0.0001056606710000249,1.5745863250000072,0.7840730849999962,0.039999973,0.03999999465,-9.839055750000023,0.009650056250391349,0.07555069450017338,-0.023356321300030958,-0.05161909218882571,-0.002570515435003358
0.785,0.0035109349700072384,-0.7872054950000059,0.001011726070002103,-2.353124759999993,0.00010579207740002707,1.5746245900000078,0.7840527199999958,0.0399999734,0.0399999955,-9.839112100000005,0.009618212468913333,0.07648071260019304,-0.023518116600033164,-0.051881186664158065,-0.002587928690003556
0.7875,0.0035464630250077547,-0.7872342875000062,0.001022047825002253,-2.3530913999999927,0.00010592490450002899,1.5746634250000084,0.7840320499999955,0.039999974,0.03999999625,-9.839137750000006,0.009575471747657171,0.07742823050020681,-0.02368090050003553,-0.052144629880843375,-0.0026053811750038096
0.79,0.0035819910800082727,-0.7872630800000067,0.0010323695800024035,-2.353058039999992,0.00010605773160003093,1.5747022600000091,0.7840113799999952,0.0399999746,0.039999997,-9.839163400000006,0.009532731026401007,0.07837574840022062,-0.023843684400037903,-0.0524080730975287,-0.0026228336600040638
0.7925,0.003617519135008789,-0.7872918725000071,0.0010426913350025534,-2.353024679999992,0.00010619055870003285,1.5747410950000096,0.7839907099999949,0.0399999752,0.03999999775,-9.839189050000007,0.009489990305144847,0.0793232663002344,-0.02400646830004027,-0.05267151631421402,-0.0026402861450043175
0.795,0.0036530471900093064,-0.7873206650000075,0.0010530130900027039,-2.3529913199999912,0.00010632338580003479,1.5747799300000103,0.7839700399999946,0.0399999758,0.0399999985,-9.839214700000007,0.009447249583888684,0.0802707842002482,-0.02416925220004264,-0.05293495953089934,-0.0026577386300045717
0.7975,0.0036885752450098227,-0.787349457500008,0.001063334845002854,-2.352957959999991,0.00010645621290003672,1.5748187650000107,0.7839493699999943,0.0399999764,0.03999999925,-9.839240350000008,0.009404508862632523,0.08121830210026197,-0.02433203610004501,-0.05319840274758465,-0.0026751911150048255
0.8,0.0037241033000108073,-0.7873782500000087,0.00107365660000314,-2.35292459999999,0.00010658904000004202,1.5748576000000118,0.7839286999999937,0.039999977,0.04,-9.839266000000029,0.009361768141385346,0.08216582000028691,-0.024494820000048236,-0.05346184596427129,-0.0026926436000049747
0.8025,0.003761235155010334,-0.7874083625000083,0.0010844442850030023,-2.3528897249999905,0.00010673341500004017,1.5748981600000114,0.7839070849999941,0.03999997745,0.0399999985,-9.839364250000028,0.009349902579557482,0.08315158475027434,-0.024660547500046124,-0.05372978858657183,-0.002709736010004757
0.805,0.003798367010009862,-0.787438475000008,0.0010952319700028653,-2.352854849999991,0.00010687779000003834,1.574938720000011,0.7838854699999943,0.0399999779,0.039999997,-9.839462500000026,0.009338037017729619,0.0841373495002618,-0.024826275000044015,-0.0539977312088724,-0.0027268284200045395
0.8075,0.0038354988650093885,-0.7874685875000076,0.0011060196550027276,-2.352819974999991,0.0001070221650000365,1.5749792800000104,0.7838638549999946,0.03999997835,0.039999995499999996,-9.839560750000025,0.009326171455901755,0.08512311425024924,-0.024992002500041903,-0.05426567383117294,-0.0027439208300043217
0.81,0.0038726307200089164,-0.7874987000000072,0.0011168073400025906,-2.3527850999999917,0.00010716654000003466,1.5750198400000097,0.7838422399999948,0.039999978799999995,0.039999994,-9.839659000000024,0.009314305894073891,0.08610887900023671,-0.025157730000039798,-0.0545336164534735,-0.0027610132400041044
0.8125,0.0039097625750084426,-0.7875288125000068,0.001127595025002453,-2.3527502249999923,0.00010731091500003283,1.5750604000000092,0.7838206249999952,0.03999997925,0.0399999925,-9.839757250000023,0.009302440332246028,0.08709464375022413,-0.025323457500037682,-0.054801559075774046,-0.0027781056500038866
0.8150000000000001,0.0039468944300079705,-0.7875589250000065,0.001138382710002316,-2.3527153499999924,0.000107455290000031,1.5751009600000088,0.7837990099999954,0.0399999797,0.039999991,-9.839855500000022,0.009290574770418163,0.08808040850021161,-0.025489185000035577,-0.05506950169807461,-0.002795198060003669
0.8175,0.003984569975008003,-0.7875894935000065,0.001149328365002325,-2.3526799449999927,0.00010760067450003043,1.5751421300000088,0.7837770824999954,0.03999998,0.0399999905,-9.839932825000007,0.00926315891555226,0.08908269105021374,-0.025655826400034783,-0.055338973179515805,-0.002812604100003723
0.8200000000000001,0.004023332900008039,-0.7876209740000065,0.0011605899600023355,-2.3526434799999927,0.00010774807800003057,1.575184520000009,0.7837545299999954,0.03999998,0.039999992,-9.839968300000008,0.009204642474639124,0.0901180092002147,-0.02582429560003494,-0.05561150237923548,-0.0028306374000037398
0.8225,0.004062095825008073,-0.7876524545000065,0.0011718515550023455,-2.3526070149999923,0.0001078954815000307,1.575226910000009,0.7837319774999953,0.03999998,0.0399999935,-9.840003775000008,0.009146126033725992,0.09115332735021563,-0.02599276480003509,-0.05588403157895514,-0.002848670700003756
0.8250000000000001,0.004100858750008109,-0.7876839350000066,0.001183113150002356,-2.3525705499999923,0.00010804288500003084,1.5752693000000089,0.7837094249999953,0.03999998,0.039999995,-9.840039250000007,0.009087609592812858,0.0921886455002166,-0.026161234000035245,-0.05615656077867481,-0.002866704000003773
0.8275,0.004139621675008144,-0.7877154155000066,0.001194374745002366,-2.3525340849999923,0.00010819028850003097,1.575311690000009,0.7836868724999952,0.03999998,0.0399999965,-9.840074725000008,0.009029093151899726,0.09322396365021753,-0.026329703200035394,-0.05642908997839448,-0.002884737300003789
0.8300000000000001,0.00417838460000818,-0.7877468960000066,0.0012056363400023765,-2.3524976199999923,0.0001083376920000311,1.575354080000009,0.7836643199999952,0.03999998,0.039999998,-9.840110200000007,0.00897057671098659,0.09425928180021849,-0.02649817240003555,-0.05670161917811415,-0.0029027706000038056
0.8325,0.004217147525008214,-0.7877783765000066,0.0012168979350023865,-2.3524611549999923,0.00010848509550003124,1.5753964700000092,0.7836417674999953,0.03999998,0.0399999995,-9.840145675000008,0.008912060270073458,0.09529459995021941,-0.0266666416000357,-0.056974148377833815,-0.002920803900003822
0.835,0.004257015810008969,-0.7878107860000073,0.0012284807100026059,-2.3524236999999917,0.00010863741840003436,1.57544008000001,0.7836185649999947,0.03999998,0.0399999995,-9.84021795000002,0.008877661731089092,0.09635662990023863,-0.026836982200038006,-0.057249211147488786,-0.0029387324400039667
0.8375,0.004297436775009558,-0.7878436600000077,0.001240224075002777,-2.352385749999991,0.00010879220100003661,1.5754843000000105,0.7835950374999944,0.03999998,0.03999999875,-9.840308625000022,0.008855322143057592,0.09743201575025431,-0.027008258500040502,-0.05752554070211022,-0.0029566086000042276
0.84,0.004337857740010146,-0.7878765340000082,0.0012519674400029476,-2.3523477999999907,0.00010894698360003886,1.575528520000011,0.783571509999994,0.03999998,0.039999998,-9.840399300000023,0.008832982555026092,0.09850740160026994,-0.027179534800042992,-0.05780187025673164,-0.002974484760004487
0.8425,0.004378278705010735,-0.7879094080000087,0.0012637108050031188,-2.35230984999999,0.00010910176620004111,1.5755727400000117,0.7835479824999937,0.03999998,0.03999999725,-9.840489975000024,0.008810642966994593,0.0995827874502856,-0.02735081110004549,-0.05807819981135307,-0.0029923609200047476
0.845,0.004418699670011322,-0.7879422820000092,0.0012754541700032895,-2.3522718999999896,0.00010925654880004336,1.5756169600000123,0.7835244549999933,0.03999998,0.0399999965,-9.840580650000025,0.008788303378963093,0.10065817330030123,-0.027522087400047975,-0.05835452936597449,-0.003010237080005007
0.8475,0.0044591206350119116,-0.7879751560000097,0.0012871975350034607,-2.352233949999989,0.00010941133140004562,1.5756611800000129,0.783500927499993,0.03999998,0.03999999575,-9.840671325000027,0.008765963790931593,0.1017335591503169,-0.02769336370005047,-0.05863085892059593,-0.003028113240005268
0.85,0.0044995416000130194,-0.7880080300000105,0.0012989409000037826,-2.3521959999999877,0.00010956611400005054,1.5757054000000141,0.7834773999999924,0.03999998,0.039999995,-9.84076200000001,0.008743624202887277,0.10280894500034966,-0.02786464000005379,-0.058907188475218704,-0.00304598940000555
