rsonawane2002/My_IMU/logs_2/traj_352/imu_352.csv
time,j1,j2,j3,j4,j5,j6,j7,gripper1,gripper2,imu_ax,imu_ay,imu_az,imu_gx,imu_gy,imu_gz
1117.0833333326461,0.00016700293,-0.785875,4.0107683e-05,-2.3551247,9.29385e-05,1.570997,0.786,0.04,0.04,-9.50623,-0.014130066148936749,0.09584415,3.101632e-07,-0.0011641274904832244,3.7721418e-07
1117.0999999993128,0.00016701563,-0.78576016,4.012072e-05,-2.3552213,9.2983624e-05,1.5709941,0.786,0.04,0.04,-9.83451,0.0006679398939013481,0.009050422,-6.946366e-07,-0.0022387623321264982,1.2995512e-06
1117.1166666659794,0.00016709724,-0.7856543,4.01755e-05,-2.35531,9.309215e-05,1.5709913,0.786,0.04,0.04,-9.832357,0.0007967936689965427,0.00754438,-3.2163564e-06,-0.0032290956005454063,3.8493026e-06
1117.133333332646,0.00016736431,-0.78555703,4.034204e-05,-2.355391,9.337529e-05,1.5709884,0.786,0.04,0.04,-9.830646,0.0010661003179848194,0.0060330764,-1.0436591e-05,-0.00414119940251112,9.813136e-06
1117.1499999993127,0.00016798612,-0.7854678,4.072115e-05,-2.3554654,9.399019e-05,1.5709856,0.786,0.04,0.04,-9.828748,0.0014495953219011426,0.004710467,-2.3343864e-05,-0.004981964826583862,2.0680767e-05
1117.1666666659794,0.00016917895,-0.7853863,4.1440984e-05,-2.3555334,9.515705e-05,1.5709827,0.7860019,0.04,0.03999999,-9.827217,0.0019551324658095837,0.0033509466,-4.3313303e-05,-0.005755724385380745,3.9307623e-05
1117.183333332646,0.00017120242,-0.78531224,4.2655323e-05,-2.3555987,9.707479e-05,1.5709798,0.7860038,0.04,0.04,-9.825521,0.002512612845748663,0.0021537244,-8.010686e-05,-0.006467889063060284,6.225454e-05
1117.1999999993127,0.00017435334,-0.7852453,4.4539374e-05,-2.3556578,0.00010003124,1.5709797,0.78600574,0.04,0.04,-9.824516,0.0032102232798933983,0.00091523817,-0.00012502243,-0.007135939784348011,9.451468e-05
1117.2166666659793,0.00017896257,-0.7851854,4.7288333e-05,-2.3557155,0.00010433988,1.5709797,0.78600955,0.04,0.04,-9.8227825,0.003952352795749903,-0.00024899002,-0.00017834398,-0.007734116166830063,0.00013790437
1117.233333332646,0.00018539157,-0.7851321,5.111537e-05,-2.3557692,0.0001103192,1.5709801,0.7860153,0.039999995,0.04,-9.821954,0.0047942823730409145,-0.0013632448,-0.000249108,-0.00829755887389183,0.00018999568
1117.2499999993126,0.000194028,-0.78508556,5.6248966e-05,-2.3558204,0.00011832962,1.5709805,0.78602195,0.03999999,0.04,-9.820539,0.005658680573105812,-0.0023750472,-0.00033701546,-0.00881324615329504,0.00025316453
1117.2666666659793,0.0002052834,-0.78504574,6.293147e-05,-2.355871,0.000128748,1.5709811,0.7860309,0.039999988,0.039999995,-9.819519,0.006617150269448757,-0.003363962,-0.0004368459,-0.009293865412473679,0.0003289545
1117.283333332646,0.0002195898,-0.78501266,7.141738e-05,-2.355921,0.00014196814,1.5709817,0.78604233,0.039999984,0.03999999,-9.818656,0.007679073140025139,-0.0043549826,-0.00055411673,-0.009743573144078255,0.00041709995
1117.2999999993126,0.00023739727,-0.78498644,8.197169e-05,-2.355971,0.00015840062,1.5709823,0.78605574,0.039999984,0.039999995,-9.817733,0.008695640601217747,-0.005234873,-0.00068892195,-0.010166389867663383,0.00051724963
1117.3166666659793,0.0002591714,-0.7849671,9.486846e-05,-2.3560212,0.000178471,1.5709832,0.78607285,0.039999977,0.039999988,-9.816959,0.009881410747766495,-0.0061530923,-0.00083811337,-0.010565009899437428,0.00063155784
1117.333333332646,0.0002853908,-0.78495485,0.0001103897,-2.3560717,0.00020261567,1.570984,0.7860932,0.039999973,0.039999984,-9.816028,0.010983728803694248,-0.0069720466,-0.0010082668,-0.010936491191387177,0.0007595552
1117.3499999993126,0.0003165459,-0.7849497,0.00012882378,-2.356123,0.00023128174,1.5709848,0.78611726,0.039999966,0.039999977,-9.815259,0.012278472073376179,-0.007826895,-0.0011958953,-0.011285833083093166,0.0009015545
1117.3666666659792,0.00035313584,-0.7849521,0.00015046456,-2.3561778,0.00026492408,1.5709858,0.78614545,0.03999996,0.039999977,-9.814423,0.01344904862344265,-0.008561083,-0.0014022959,-0.01161431334912777,0.0010569686
1117.3833333326459,0.00039566786,-0.78496236,0.00017561064,-2.3562357,0.00030400604,1.5709867,0.78617847,0.03999996,0.039999977,-9.813941,0.014848871156573296,-0.009358888,-0.0016272566,-0.011931662447750568,0.001227718
1117.3999999993125,0.00044465472,-0.78498065,0.00020456397,-2.3562946,0.00034899433,1.5709877,0.7862163,0.03999996,0.03999998,-9.813331,0.016086362302303314,-0.010002848,-0.0018729056,-0.012236544862389565,0.0014122728
1117.4166666659792,0.0005006141,-0.7850073,0.00023762928,-2.35636,0.0004003613,1.570992,0.78625953,0.03999996,0.039999984,-9.812411,0.017583204433321953,-0.01074674,-0.0021371346,-0.01251665037125349,0.0016116112
1117.4333333326458,0.000564067,-0.78504246,0.000275113,-2.3564272,0.00045858242,1.5709964,0.7863086,0.03999996,0.039999984,-9.812085,0.018899288028478622,-0.011389334,-0.0024210077,-0.012782295234501362,0.0018266956
1117.4499999993125,0.0006355361,-0.78508645,0.000317323,-2.3565009,0.0005241335,1.571001,0.78636384,0.039999966,0.03999999,-9.811272,0.020486973226070404,-0.012048851,-0.002724682,-0.013028397224843502,0.002055858
1117.4666666659791,0.0007155451,-0.7851397,0.00036456742,-2.3565814,0.00059750385,1.5710057,0.78642565,0.03999997,0.039999995,-9.810904,0.021863240748643875,-0.012551124,-0.0030482132,-0.013270881026983261,0.0023008033
1117.4833333326458,0.0008046179,-0.78520256,0.00041715472,-2.3566666,0.00067914824,1.5710105,0.78649443,0.03999997,0.04,-9.81064,0.02354312129318714,-0.013155699,-0.003391296,-0.013514181599020958,0.0025589855
1117.4999999993124,0.00090327655,-0.7852754,0.00047539218,-2.3567572,0.0007695795,1.5710152,0.7865706,0.03999997,0.039999995,-9.80998,0.02500111237168312,-0.013597154,-0.0037541178,-0.013744322583079338,0.0028353783
1117.516666665979,0.0010120424,-0.7853585,0.0005395868,-2.3568552,0.00086923834,1.5710202,0.78665465,0.039999966,0.04,-9.809407,0.026604577898979187,-0.014060572,-0.004136197,-0.01396484300494194,0.0031233458
1117.5333333326457,0.0011314328,-0.7854522,0.0006100435,-2.3569608,0.0009786043,1.5710285,0.7867469,0.03999996,0.04,-9.809053,0.028451276943087578,-0.014581411,-0.004538143,-0.014183559454977512,0.0034269092
1117.5499999993124,0.0012619634,-0.785557,0.00068706536,-2.3570743,0.0010981259,1.5710369,0.7868477,0.039999958,0.04,-9.808574,0.029977424070239067,-0.014983564,-0.004959609,-0.014384256675839424,0.0037435452
1117.566666665979,0.0014041439,-0.7856731,0.00077095296,-2.357196,0.0012282999,1.5710455,0.7869575,0.03999995,0.04,-9.808186,0.031931072473526,-0.015418696,-0.0053997645,-0.014582189731299877,0.004076412
1117.5833333326457,0.0015584808,-0.7858008,0.00086200435,-2.3573294,0.0013695799,1.5710541,0.7870766,0.039999947,0.04,-9.807792,0.03353488817811012,-0.015671136,-0.0058589545,-0.014776898548007011,0.0044236826
1117.5999999993123,0.0017254746,-0.78594077,0.00096051453,-2.357472,0.0015224199,1.5710629,0.78720546,0.03999994,0.04,-9.807802,0.03558839485049248,-0.01606578,-0.0063365125,-0.01498510129749775,0.004785201
1117.616666665979,0.0019056207,-0.7860932,0.0010667751,-2.357623,0.0016872924,1.571075,0.78734446,0.03999994,0.039999995,-9.807463,0.03728077933192253,-0.016277555,-0.006832455,-0.015191498212516308,0.005162437
1117.6333333326456,0.002099409,-0.7862586,0.001181074,-2.3577838,0.0018646183,1.5710872,0.7874939,0.039999932,0.039999995,-9.806873,0.03942634537816048,-0.016700156,-0.007346806,-0.015377611853182316,0.0055510807
1117.6499999993123,0.0023073207,-0.78643715,0.0013036954,-2.3579574,0.0020548445,1.5710996,0.78765434,0.039999932,0.04,-9.806505,0.04119407758116722,-0.016800096,-0.007878432,-0.015560861676931381,0.005954196
1117.666666665979,0.0025298337,-0.78662926,0.0014349204,-2.35814,0.0022584002,1.5711122,0.78782594,0.03999993,0.04,-9.806449,0.043466076254844666,-0.017079163,-0.008428431,-0.01575479283928871,0.006369992
1117.6833333326456,0.0027674162,-0.7868355,0.0015750247,-2.358336,0.0024757115,1.5711278,0.78800905,0.039999917,0.04,-9.805953,0.04532373696565628,-0.017139012,-0.008995055,-0.01594276912510395,0.0067989985
1117.6999999993122,0.0030205292,-0.78705597,0.0017242797,-2.3585427,0.0027072013,1.5711439,0.7882043,0.03999991,0.04,-9.805786,0.04771757498383522,-0.017411672,-0.009578152,-0.01612589880824089,0.0072411126
1117.716666665979,0.0032896255,-0.78729117,0.0018829535,-2.3587627,0.0029532688,1.5711601,0.78841174,0.0399999,0.03999999,-9.805429,0.049665383994579315,-0.017404126,-0.010178978,-0.01630615070462227,0.0076960144
1117.7333333326455,0.0035751513,-0.7875417,0.0020513078,-2.3589947,0.0032143665,1.5711765,0.7886319,0.039999895,0.03999999,-9.805241,0.052202895283699036,-0.017546603,-0.010795305,-0.01649308018386364,0.008165367
1117.7499999993122,0.003877545,-0.7878073,0.0022296014,-2.3592398,0.0034908447,1.5711964,0.7888651,0.03999989,0.04,-9.804909,0.05422395467758179,-0.01743924,-0.011427913,-0.016677945852279663,0.008643259
1117.7666666659788,0.0041972357,-0.788089,0.0024180864,-2.3594987,0.0037831382,1.5712165,0.7891115,0.03999989,0.04,-9.804602,0.05663037300109863,-0.01752902,-0.012075842,-0.016851499676704407,0.009137668
1117.7833333326455,0.0045346427,-0.78838664,0.0026170108,-2.359771,0.004091605,1.5712366,0.7893716,0.039999887,0.04,-9.804365,0.059330880641937256,-0.017553248,-0.012738891,-0.017029812559485435,0.009640941
1117.7999999993121,0.004890179,-0.7887008,0.002826618,-2.3600576,0.0044166353,1.5712588,0.7896457,0.039999884,0.04,-9.804139,0.06155838817358017,-0.017351901,-0.013416855,-0.01721075549721718,0.010157592
1117.8166666659788,0.005264248,-0.7890318,0.003047145,-2.360359,0.004758576,1.5712825,0.7899341,0.039999872,0.04,-9.803824,0.06439720839262009,-0.017387904,-0.014109172,-0.017386717721819878,0.010682891
1117.8333333326455,0.005657245,-0.7893801,0.0032788238,-2.3606753,0.0051177875,1.5713063,0.79023695,0.03999986,0.04,-9.803637,0.06672926247119904,-0.017128095,-0.014815664,-0.017561279237270355,0.011218884
1117.849999999312,0.006069553,-0.7897456,0.003521883,-2.361007,0.0054946295,1.5713317,0.79055464,0.03999985,0.039999995,-9.803395,0.06973559409379959,-0.01704717,-0.015535197,-0.017740342766046524,0.011766481
1117.8666666659788,0.00650155,-0.790129,0.0037765424,-2.361354,0.005889427,1.5713593,0.79088753,0.03999984,0.04,-9.803237,0.07217848300933838,-0.01674197,-0.016267834,-0.01791856437921524,0.012322772
1117.8833333326454,0.0069536017,-0.79053056,0.004043019,-2.3617172,0.006302543,1.5713869,0.7912359,0.03999984,0.04,-9.802928,0.07534372806549072,-0.016639391,-0.01701328,-0.018091784790158272,0.01289166
1117.899999999312,0.0074260687,-0.7909506,0.004321524,-2.3620963,0.006734297,1.571416,0.7916002,0.039999835,0.04,-9.802758,0.07791894674301147,-0.016210616,-0.017771492,-0.018268197774887085,0.0134693105
1117.9166666659787,0.007919297,-0.79138935,0.0046122633,-2.3624916,0.00718504,1.5714473,0.79198015,0.039999828,0.03999999,-9.802468,0.08124275505542755,-0.016027149,-0.018542245,-0.018443234264850616,0.014059701
1117.9333333326454,0.00843363,-0.79184705,0.004915438,-2.3629036,0.0076550376,1.5714788,0.7923765,0.039999824,0.04,-9.802243,0.08394117653369904,-0.015570601,-0.019322757,-0.018612422049045563,0.014655169
1117.949999999312,0.008969393,-0.79232395,0.0052312417,-2.3633323,0.008144589,1.571512,0.7927893,0.039999817,0.04,-9.801988,0.08739778399467468,-0.015300948,-0.020115387,-0.01878443732857704,0.01525892
1117.9666666659787,0.009526906,-0.79282045,0.005559861,-2.3637779,0.008654011,1.5715472,0.7932188,0.039999817,0.04,-9.801761,0.09027250111103058,-0.014764008,-0.020918055,-0.018953243270516396,0.015873084
1117.9833333326453,0.010106483,-0.79333675,0.0059014796,-2.3642418,0.009183589,1.5715827,0.7936654,0.039999817,0.04,-9.801431,0.0939006432890892,-0.014458212,-0.021730913,-0.019116153940558434,0.016496418
1117.999999999312,0.010708422,-0.793873,0.0062562763,-2.364723,0.009733604,1.5716202,0.7941291,0.039999817,0.04,-9.801392,0.09690392762422562,-0.013802785,-0.022554012,-0.019286176189780235,0.017127132
1118.0166666659786,0.011333018,-0.7944298,0.006624425,-2.3652227,0.010304301,1.5716593,0.7946102,0.03999981,0.04,-9.801111,0.10033261775970459,-0.0133078825,-0.023385603,-0.01945078745484352,0.017763762
1118.0333333326453,0.011980555,-0.7950071,0.007006091,-2.36574,0.010895944,1.5716988,0.7951089,0.039999805,0.04,-9.800866,0.10421498119831085,-0.012897745,-0.024226254,-0.019613774493336678,0.018408382
1118.049999999312,0.012651306,-0.7956053,0.0074014366,-2.366276,0.011508786,1.5717405,0.79562557,0.0399998,0.04,-9.8006315,0.10744810104370117,-0.01213399,-0.02507504,-0.019776923581957817,0.019059809
1118.0666666659786,0.013345537,-0.7962247,0.0078106173,-2.3668306,0.0121430615,1.5717835,0.79616034,0.039999794,0.04,-9.8003435,0.11149334162473679,-0.0116867935,-0.025931701,-0.019935274496674538,0.01971701
1118.0833333326452,0.014063502,-0.7968648,0.008233783,-2.3674042,0.012798993,1.5718281,0.79671335,0.03999979,0.04,-9.800175,0.1148863285779953,-0.010863035,-0.02679643,-0.02009105309844017,0.020379744
1118.0999999993119,0.014805443,-0.7975266,0.008671079,-2.3679965,0.013476834,1.5718744,0.7972848,0.03999978,0.04,-9.799924,0.11912136524915695,-0.010373971,-0.027667895,-0.020247016102075577,0.021050738
1118.1166666659785,0.015571604,-0.79821014,0.009122643,-2.3686087,0.014176769,1.5719215,0.7978749,0.039999776,0.04,-9.799679,0.1226663589477539,-0.009475836,-0.028545946,-0.020396744832396507,0.021724837
1118.1333333326452,0.0163622,-0.79891545,0.009588613,-2.3692398,0.014899044,1.5719706,0.79848385,0.039999772,0.04,-9.7994585,0.1270880252122879,-0.008866547,-0.029430417,-0.020548969507217407,0.022407496
1118.1499999993118,0.017177464,-0.799643,0.010069117,-2.369891,0.015643803,1.5720214,0.7991118,0.03999976,0.04,-9.7992325,0.13078895211219788,-0.0079348935,-0.030320367,-0.02069471962749958,0.023090152
1118.1666666659785,0.018017597,-0.80039257,0.010564272,-2.3705616,0.016411277,1.5720736,0.7997588,0.039999753,0.04,-9.798923,0.13538417220115662,-0.00728539,-0.031215748,-0.020836571231484413,0.023780776
1118.1833333326451,0.018882802,-0.80116475,0.011074204,-2.371252,0.017201606,1.5721273,0.8004252,0.039999742,0.04,-9.798759,0.1392701417207718,-0.0062716864,-0.032115486,-0.020976396277546883,0.024472587
1118.1999999993118,0.019773267,-0.8019596,0.011599021,-2.371963,0.018015016,1.5721824,0.8011109,0.03999974,0.04,-9.798376,0.14405199885368347,-0.0055487063,-0.03302004,-0.02111072652041912,0.025172325
1118.2166666659784,0.02068917,-0.8027771,0.01213883,-2.3726943,0.018851647,1.5722393,0.8018163,0.039999727,0.04,-9.798252,0.14811745285987854,-0.0044496115,-0.03392808,-0.021243233233690262,0.025873225
1118.233333332645,0.021630684,-0.8036175,0.012693734,-2.3734457,0.019711643,1.5722977,0.80254203,0.03999972,0.04,-9.797927,0.15305975079536438,-0.003695093,-0.034839883,-0.021372226998209953,0.026576927
1118.2499999993117,0.022597976,-0.80448085,0.013263827,-2.374217,0.020595191,1.5723578,0.8032869,0.03999971,0.04,-9.797718,0.15733081102371216,-0.0025429893,-0.03575781,-0.02149628847837448,0.027286807
1118.2666666659784,0.023591202,-0.8053674,0.013849204,-2.3750098,0.02150241,1.5724194,0.80405164,0.0399997,0.04,-9.797336,0.16205257177352905,-0.0015379842,-0.036675006,-0.021611018106341362,0.02799687
1118.283333332645,0.02461051,-0.8062774,0.0144499475,-2.375823,0.022433411,1.572483,0.8048365,0.039999686,0.04,-9.797113,0.1672760248184204,-0.00068083964,-0.037594058,-0.02172711119055748,0.028708635
1118.2999999993117,0.025656031,-0.8072107,0.01506614,-2.3766577,0.023388347,1.5725478,0.8056416,0.039999675,0.04,-9.7968645,0.17180803418159485,0.0005692672,-0.038514774,-0.02183423936367035,0.029423313
1118.3166666659783,0.026727892,-0.8081677,0.015697856,-2.3775132,0.02436734,1.5726146,0.80646706,0.039999664,0.04,-9.796552,0.1772216111421585,0.0014733057,-0.039437048,-0.02194063365459442,0.030140482
1118.333333332645,0.027826214,-0.8091482,0.01634516,-2.378389,0.025370486,1.5726827,0.80731285,0.039999656,0.04,-9.796334,0.18193373084068298,0.0027876813,-0.04036084,-0.022038893774151802,0.030859016
1118.3499999993116,0.028951112,-0.8101524,0.01700813,-2.379286,0.026397895,1.5727522,0.808179,0.039999653,0.04,-9.795834,0.18753080070018768,0.0037392005,-0.041284703,-0.022129636257886887,0.03157887
1118.3666666659783,0.03010269,-0.81118053,0.017686822,-2.3802047,0.027449664,1.5728239,0.80906576,0.039999653,0.04,-9.795673,0.19242815673351288,0.005117541,-0.042208143,-0.022216828539967537,0.03229895
1118.383333332645,0.03128104,-0.8122327,0.018381292,-2.381145,0.028525911,1.5728968,0.80997306,0.03999964,0.04,-9.795285,0.19822639226913452,0.006115701,-0.04313153,-0.022297101095318794,0.033021916
1118.3999999993116,0.032486252,-0.81330866,0.019091588,-2.3821068,0.029626666,1.5729718,0.81090117,0.039999634,0.04,-9.795122,0.20329561829566956,0.007560158,-0.044053696,-0.022374382242560387,0.033742134
1118.4166666659783,0.03371839,-0.8144087,0.019817753,-2.3830898,0.03075202,1.5730481,0.8118499,0.039999627,0.04,-9.794715,0.20927491784095764,0.008587839,-0.044974998,-0.022444400936365128,0.034463886
1118.433333332645,0.034977537,-0.81553286,0.020559836,-2.3840945,0.03190202,1.5731266,0.8128195,0.03999962,0.04,-9.794464,0.21454724669456482,0.010081744,-0.045894466,-0.022508811205625534,0.035183787
1118.4499999993116,0.03626374,-0.8166812,0.021317871,-2.3851204,0.03307673,1.5732063,0.8138098,0.039999615,0.04,-9.794041,0.2207014411687851,0.011152927,-0.04681186,-0.02256506308913231,0.035903703
1118.4666666659782,0.037577067,-0.81785387,0.02209188,-2.386168,0.03427622,1.5732878,0.81482095,0.039999608,0.04,-9.793766,0.22616663575172424,0.0126940925,-0.04772637,-0.022614501416683197,0.036622606
1118.4833333326449,0.038917556,-0.8190509,0.022881895,-2.3872368,0.03550051,1.5733712,0.8158531,0.039999604,0.04,-9.79332,0.23251089453697205,0.013844062,-0.048637453,-0.022656556218862534,0.03734006
1118.4999999993115,0.040285245,-0.8202721,0.023687942,-2.3883271,0.03674962,1.5734557,0.8169063,0.039999604,0.04,-9.792998,0.23816876113414764,0.015420811,-0.049545802,-0.022687878459692,0.038056612
1118.5166666659782,0.04168015,-0.82151765,0.024510035,-2.3894396,0.038023606,1.5735425,0.81798047,0.039999593,0.04,-9.792671,0.24430599808692932,0.01681704,-0.050450698,-0.022715384140610695,0.03877061
1118.5333333326448,0.04310231,-0.8227876,0.025348183,-2.3905733,0.03932247,1.5736305,0.81907547,0.039999582,0.04,-9.792191,0.25091931223869324,0.0180103,-0.05135173,-0.022732993587851524,0.039482318
1118.5499999993115,0.044551726,-0.8240817,0.0262024,-2.391729,0.04064623,1.5737206,0.8201915,0.039999582,0.04,-9.791877,0.25686222314834595,0.019667728,-0.052247323,-0.022742677479982376,0.04019228
1118.5666666659781,0.046028428,-0.82540023,0.027072687,-2.3929071,0.041994903,1.5738121,0.82132846,0.03999957,0.04,-9.791473,0.2636607885360718,0.020881532,-0.053138107,-0.02274634875357151,0.040898774
1118.5833333326448,0.04753238,-0.8267432,0.027959036,-2.3941066,0.043368462,1.5739055,0.82248646,0.039999567,0.04,-9.791239,0.26979923248291016,0.022577235,-0.05402361,-0.022744644433259964,0.041602936
1118.5999999993114,0.049063575,-0.8281102,0.028861446,-2.3953276,0.04476691,1.5740005,0.8236655,0.039999567,0.04,-9.7906685,0.2767726182937622,0.0238408,-0.054903235,-0.02273239940404892,0.042302907
1118.616666665978,0.050622012,-0.829502,0.029779907,-2.3965707,0.046190258,1.5740973,0.8248654,0.039999556,0.04,-9.790389,0.2830946445465088,0.025535947,-0.055777285,-0.02271282486617565,0.04299933
1118.6333333326447,0.052207656,-0.83091795,0.030714408,-2.3978355,0.047638424,1.574196,0.8260862,0.039999556,0.04,-9.78988,0.2902512550354004,0.02684961,-0.056644052,-0.02268449403345585,0.043692548
1118.6499999993114,0.053820483,-0.83235824,0.03166493,-2.399122,0.049111415,1.5742959,0.827328,0.03999955,0.04,-9.789574,0.2967613637447357,0.028586557,-0.057504248,-0.022646458819508553,0.04438075
1118.666666665978,0.05546045,-0.8338228,0.03263144,-2.4004297,0.05060921,1.5743978,0.8285907,0.039999545,0.04,-9.789045,0.3040876090526581,0.029923618,-0.05835722,-0.022602956742048264,0.045065578
1118.6833333326447,0.05712752,-0.8353113,0.033613905,-2.4017591,0.052131735,1.574501,0.8298743,0.03999954,0.04,-9.788673,0.3107771575450897,0.03168821,-0.059202213,-0.022547340020537376,0.045744658
1118.6999999993113,0.05882162,-0.8368241,0.034612317,-2.40311,0.05367897,1.5746062,0.83117867,0.039999533,0.04,-9.788144,0.3182699382305145,0.033013973,-0.060039822,-0.022486019879579544,0.046418883
1118.716666665978,0.060542703,-0.83836085,0.035626613,-2.404483,0.055250835,1.574713,0.83250374,0.039999526,0.04,-9.787756,0.3251563012599945,0.034819856,-0.060868762,-0.02241247147321701,0.047088712
1118.7333333326446,0.062290687,-0.8399217,0.036656786,-2.405877,0.05684727,1.5748216,0.83384955,0.039999522,0.04,-9.787313,0.3328254520893097,0.03616185,-0.061689034,-0.02233586460351944,0.04775223
1118.7499999993113,0.06406552,-0.84150666,0.03770276,-2.4072926,0.05846823,1.5749319,0.8352161,0.039999522,0.04,-9.786864,0.3398842513561249,0.037976835,-0.06250028,-0.02224547788500786,0.048410818
1118.766666665978,0.06586709,-0.8431156,0.038764503,-2.4087293,0.060113624,1.5750437,0.83660316,0.039999515,0.04,-9.786436,0.3473806381225586,0.03958544,-0.0633024,-0.022147161886096,0.049063463
1118.7833333326446,0.067695335,-0.8447482,0.039841965,-2.4101872,0.061783366,1.5751573,0.83801067,0.039999504,0.04,-9.785751,0.35528847575187683,0.040963642,-0.06409419,-0.022038215771317482,0.04970885
1118.7999999993112,0.069550134,-0.8464047,0.04093507,-2.4116666,0.06347734,1.5752724,0.8394386,0.03999951,0.04,-9.785413,0.36262062191963196,0.04279214,-0.06487584,-0.021920431405305862,0.05034894
1118.816666665978,0.071431406,-0.8480847,0.042043768,-2.4131668,0.065195516,1.5753893,0.8408869,0.039999504,0.04,-9.784814,0.3706905245780945,0.04418689,-0.06564711,-0.02179550752043724,0.05098165
1118.8333333326445,0.073339045,-0.8497883,0.04316801,-2.4146883,0.066937774,1.5755075,0.8423556,0.0399995,0.04,-9.784405,0.3782000243663788,0.04602909,-0.06640749,-0.021659551188349724,0.051607892
1118.8499999993112,0.0752729,-0.85151535,0.044307712,-2.4162307,0.068703994,1.5756274,0.8438444,0.0399995,0.04,-9.783784,0.38642585277557373,0.047416992,-0.067157455,-0.021516883745789528,0.052227072
1118.8666666659778,0.07723289,-0.8532659,0.045462795,-2.4177938,0.07049408,1.575749,0.8453537,0.039999496,0.04,-9.783396,0.3940950036048889,0.049268555,-0.06789588,-0.021364416927099228,0.052837495
1118.8833333326445,0.07921887,-0.85503954,0.0466332,-2.419377,0.07230793,1.5758723,0.8468829,0.039999504,0.04,-9.782658,0.4024796485900879,0.05065416,-0.0686243,-0.021200289949774742,0.05344144
1118.8999999993111,0.081230715,-0.85683626,0.047818847,-2.420981,0.07414537,1.5759972,0.8484319,0.039999504,0.04,-9.782221,0.41032761335372925,0.052502114,-0.06934004,-0.021025143563747406,0.0540387
1118.9166666659778,0.08326827,-0.8586559,0.04901965,-2.4226067,0.07600634,1.5761237,0.85000056,0.039999507,0.04,-9.781526,0.4188327193260193,0.05388356,-0.07004301,-0.02084159292280674,0.054624625
1118.9333333326445,0.085331395,-0.8604984,0.050235525,-2.4242518,0.07789066,1.5762519,0.8515891,0.039999507,0.04,-9.781296,0.42687439918518066,0.05573391,-0.07073358,-0.020655086264014244,0.055204682
1118.949999999311,0.087419935,-0.8623636,0.051466372,-2.4259171,0.07979819,1.5763812,0.8531972,0.039999507,0.04,-9.780406,0.43552663922309875,0.057092834,-0.071412034,-0.020453067496418953,0.055775743
1118.9666666659778,0.08953375,-0.8642514,0.05271211,-2.4276028,0.08172883,1.5765126,0.8548248,0.039999504,0.04,-9.780043,0.4437202215194702,0.058948286,-0.07207733,-0.02024616301059723,0.056339726
1118.9833333326444,0.09167266,-0.8661616,0.05397262,-2.4293082,0.083682396,1.5766453,0.8564716,0.0399995,0.04,-9.779258,0.4525068402290344,0.060282696,-0.07272931,-0.02002648450434208,0.05689403
1118.999999999311,0.09383648,-0.868094,0.055247825,-2.4310336,0.0856587,1.5767796,0.8581376,0.039999504,0.04,-9.778814,0.460843563079834,0.062132996,-0.073367715,-0.019798533990979195,0.057438467
1119.0166666659777,0.09602505,-0.8700485,0.056537613,-2.4327793,0.08765762,1.5769156,0.8598227,0.039999492,0.04,-9.778241,0.4695286154747009,0.06370422,-0.07399203,-0.0195623692125082,0.057974808
1119.0333333326444,0.0982382,-0.872025,0.05784187,-2.434544,0.08967896,1.577053,0.8615266,0.039999485,0.04,-9.777508,0.4785260558128357,0.06502922,-0.07460285,-0.019318314269185066,0.058501124
1119.049999999311,0.10047573,-0.8740233,0.0591605,-2.4363284,0.09172258,1.5771918,0.8632494,0.039999485,0.04,-9.777024,0.4870949983596802,0.066832185,-0.07519873,-0.019065186381340027,0.059018735
1119.0666666659777,0.10273742,-0.8760432,0.0604934,-2.438132,0.093788296,1.577332,0.86499083,0.03999948,0.04,-9.776198,0.49621260166168213,0.06813854,-0.07578082,-0.01880234107375145,0.05952669
1119.0833333326443,0.10502311,-0.87808454,0.06184042,-2.4399552,0.09587593,1.5774739,0.8667507,0.039999485,0.04,-9.775755,0.5049305558204651,0.06992392,-0.07634796,-0.018532438203692436,0.060024954
1119.099999999311,0.107332565,-0.88014704,0.06320145,-2.4417968,0.0979853,1.5776174,0.8685289,0.03999948,0.04,-9.775011,0.5141803026199341,0.07119286,-0.07690045,-0.018255535513162613,0.060513325
1119.1166666659776,0.10966561,-0.8822306,0.064576365,-2.4436572,0.10011619,1.5777621,0.8703253,0.039999478,0.04,-9.774411,0.5230361223220825,0.07293551,-0.077437714,-0.017965950071811676,0.060991365
1119.1333333326443,0.11202202,-0.8843349,0.065965064,-2.4455361,0.10226844,1.5779085,0.8721397,0.03999947,0.04,-9.773633,0.5323895215988159,0.074183114,-0.077960156,-0.01767076551914215,0.061459206
1119.149999999311,0.114401564,-0.8864603,0.06736737,-2.4474337,0.10444185,1.5780561,0.8739719,0.03999947,0.04,-9.773123,0.5413839817047119,0.0758851,-0.07846666,-0.01736660860478878,0.061916824
1119.1666666659776,0.11680403,-0.88860583,0.06878319,-2.4493496,0.106636174,1.5782052,0.87582153,0.039999478,0.04,-9.772232,0.5508566498756409,0.07712617,-0.07895763,-0.017052672803401947,0.062363606
1119.1833333326442,0.119229175,-0.8907716,0.070212394,-2.4512842,0.10885128,1.5783559,0.87768865,0.039999474,0.04,-9.77179,0.5600004196166992,0.078782395,-0.079431914,-0.016733957454562187,0.06280086
1119.1999999993109,0.12167679,-0.8929577,0.0716548,-2.4532359,0.11108685,1.5785075,0.8795732,0.039999466,0.04,-9.7709875,0.569562554359436,0.07994777,-0.07989015,-0.016409192234277725,0.063226655
1119.2166666659775,0.124146596,-0.8951634,0.073110305,-2.4552057,0.11334273,1.578661,0.88147473,0.039999463,0.04,-9.770335,0.5788178443908691,0.08159809,-0.08033295,-0.01607404090464115,0.06364075
1119.2333333326442,0.12663835,-0.89738894,0.07457873,-2.457193,0.11561867,1.5788157,0.88339317,0.039999463,0.04,-9.769507,0.5884932279586792,0.08270088,-0.08075874,-0.015731563791632652,0.06404542
1119.2499999993108,0.12915184,-0.89963365,0.07605996,-2.459197,0.11791447,1.5789716,0.8853284,0.039999466,0.04,-9.768982,0.5978829860687256,0.08430614,-0.08116808,-0.015382700599730015,0.064439304
1119.2666666659775,0.13168678,-0.90189767,0.07755386,-2.4612186,0.120229885,1.5791292,0.88728017,0.03999946,0.04,-9.768188,0.6074820756912231,0.08562069,-0.0815613,-0.01502513512969017,0.064820915
1119.2833333326441,0.13424294,-0.9041807,0.07906024,-2.4632576,0.12256466,1.5792878,0.8892483,0.039999463,0.04,-9.767307,0.6172749400138855,0.086677015,-0.08193729,-0.014660162851214409,0.065190636
1119.2999999993108,0.13682005,-0.9064824,0.08057895,-2.4653127,0.124918595,1.5794476,0.89123267,0.03999946,0.04,-9.7668085,0.626863956451416,0.08820385,-0.082297355,-0.014292039908468723,0.065551735
1119.3166666659774,0.13941778,-0.90880245,0.082109846,-2.4673839,0.12729141,1.579609,0.8932327,0.03999946,0.04,-9.765858,0.6367295980453491,0.089194015,-0.08264045,-0.013915960676968098,0.0658989
1119.333333332644,0.14203595,-0.91114104,0.08365276,-2.4694724,0.12968294,1.5797714,0.89524853,0.039999455,0.04,-9.7651825,0.6464118957519531,0.090635754,-0.082965285,-0.013529895804822445,0.06623604
1119.3499999993107,0.14467426,-0.91349745,0.085207514,-2.4715767,0.13209277,1.5799352,0.89727986,0.039999448,0.04,-9.764402,0.6563818454742432,0.09161869,-0.08327371,-0.01314383652061224,0.06656094
1119.3666666659774,0.1473324,-0.91587156,0.086774,-2.473697,0.13452075,1.5801004,0.8993266,0.039999448,0.04,-9.7637615,0.6661573648452759,0.09298925,-0.083564706,-0.012749478220939636,0.06687393
1119.383333332644,0.15001011,-0.91826326,0.088352,-2.4758325,0.13696663,1.5802666,0.90138847,0.039999448,0.04,-9.762849,0.67620450258255,0.09387605,-0.083839424,-0.01235002838075161,0.067176856
1119.3999999993107,0.15270711,-0.9206721,0.08994137,-2.477984,0.13943014,1.5804341,0.9034651,0.03999944,0.04,-9.762187,0.6860858201980591,0.09521295,-0.084096156,-0.011943904682993889,0.0674681
1119.4166666659773,0.15542306,-0.923098,0.09154191,-2.4801505,0.14191103,1.5806029,0.90555644,0.03999945,0.04,-9.761308,0.6961871981620789,0.096035495,-0.084335595,-0.011535088531672955,0.067746945
1119.433333332644,0.15815774,-0.9255406,0.09315346,-2.4823318,0.14440899,1.5807725,0.90766203,0.039999448,0.04,-9.760674,0.7061727046966553,0.09729657,-0.08455816,-0.011119887232780457,0.068014644
1119.4499999993106,0.16091077,-0.9279996,0.09477583,-2.4845273,0.14692375,1.5809433,0.9097818,0.039999444,0.04,-9.7597,0.716330885887146,0.098068535,-0.08476234,-0.010701274499297142,0.06827102
1119.4666666659773,0.16368183,-0.93047476,0.096408874,-2.4867373,0.14945504,1.5811155,0.9119154,0.039999444,0.04,-9.759012,0.7264031171798706,0.09924955,-0.084949024,-0.010276141576468945,0.06851525
1119.483333332644,0.16647077,-0.9329659,0.09805236,-2.4889612,0.15200262,1.5812886,0.91406304,0.039999444,0.04,-9.758007,0.7366195917129517,0.09994837,-0.085117504,-0.009844997897744179,0.068747796
1119.4999999993106,0.16927713,-0.93547237,0.09970615,-2.4911995,0.15456606,1.5814625,0.9162239,0.039999444,0.04,-9.757356,0.7467576861381531,0.10106269,-0.0852696,-0.009410187602043152,0.06896676
1119.5166666659773,0.17210068,-0.93799454,0.10137003,-2.4934509,0.15714526,1.581638,0.91839784,0.03999944,0.04,-9.756587,0.7570157647132874,0.10190655,-0.08540324,-0.00897443201392889,0.06917621
1119.533333332644,0.17494103,-0.9405316,0.103043824,-2.4957159,0.15973993,1.5818143,0.920585,0.03999944,0.04,-9.755512,0.7673041820526123,0.10251686,-0.085518554,-0.008530020713806152,0.06937406
1119.5499999993106,0.17779787,-0.94308347,0.10472734,-2.4979944,0.1623496,1.5819914,0.9227848,0.039999444,0.04,-9.754856,0.7775527238845825,0.10350518,-0.08561707,-0.008083933033049107,0.06955681
1119.5666666659772,0.18067089,-0.9456498,0.10642041,-2.5002854,0.16497411,1.5821698,0.9249969,0.039999448,0.04,-9.753919,0.7879254221916199,0.104031496,-0.085698515,-0.0076376707293093204,0.06973159
1119.5833333326439,0.18355976,-0.94823027,0.1081228,-2.5025887,0.16761309,1.5823493,0.9272212,0.039999448,0.04,-9.7532,0.7982487082481384,0.10493642,-0.08576118,-0.007186494767665863,0.06989283
1119.5999999993105,0.18646416,-0.9508247,0.10983436,-2.5049052,0.17026632,1.5825295,0.929458,0.039999444,0.04,-9.752123,0.8086307644844055,0.105383664,-0.08580602,-0.006729891058057547,0.07004378
1119.6166666659772,0.18938373,-0.9534327,0.11155485,-2.5072331,0.17293333,1.5827105,0.9317065,0.039999444,0.04,-9.751531,0.819032609462738,0.106207736,-0.08583627,-0.0062746647745370865,0.07018177
1119.6333333326438,0.19231817,-0.95605385,0.11328409,-2.5095735,0.17561403,1.5828927,0.9339658,0.03999944,0.04,-9.75045,0.8294437527656555,0.10658067,-0.08584879,-0.005816684104502201,0.07030992
1119.6499999993105,0.1952672,-0.9586881,0.11502191,-2.511925,0.17830797,1.5830758,0.93623644,0.039999444,0.04,-9.749815,0.8399114608764648,0.10730933,-0.085841306,-0.005358364433050156,0.070425
1119.6666666659771,0.19823031,-0.96133494,0.11676805,-2.5142882,0.18101487,1.5832597,0.9385182,0.039999444,0.04,-9.74873,0.8503342270851135,0.10760413,-0.08581648,-0.004896237049251795,0.070529364
1119.6833333326438,0.20120725,-0.9639941,0.11852233,-2.5166621,0.18373443,1.5834444,0.94081044,0.039999448,0.04,-9.748087,0.8608698844909668,0.10823674,-0.085776135,-0.004435468465089798,0.07062327
1119.6999999993104,0.20419765,-0.96666545,0.12028457,-2.519047,0.18646634,1.5836301,0.9431131,0.039999444,0.04,-9.746998,0.8713206052780151,0.10844299,-0.085717425,-0.003972333390265703,0.07070541
1119.716666665977,0.20720115,-0.96934855,0.12205453,-2.5214424,0.18921025,1.5838166,0.94542575,0.039999448,0.04,-9.746287,0.8818777203559875,0.1089873,-0.085641995,-0.0035079445224255323,0.07077496
1119.7333333326437,0.2102175,-0.972043,0.123831995,-2.5238485,0.19196583,1.5840039,0.9477483,0.039999455,0.04,-9.7452755,0.8923669457435608,0.10911831,-0.0855496,-0.0030439153779298067,0.070834
1119.7499999993104,0.2132462,-0.97474855,0.12561677,-2.526264,0.19473276,1.5841918,0.9500805,0.039999448,0.04,-9.744625,0.9029848575592041,0.10956098,-0.08544033,-0.0025829491205513477,0.07088249
1119.766666665977,0.21628699,-0.97746485,0.12740862,-2.528689,0.19751072,1.5843806,0.9524221,0.039999444,0.04,-9.743638,0.913537859916687,0.109780364,-0.085314706,-0.0021191565319895744,0.0709196
1119.7833333326437,0.2193395,-0.9801917,0.12920742,-2.5311232,0.20029943,1.5845703,0.9547726,0.039999444,0.04,-9.74259,0.9240275621414185,0.1097638,-0.08517265,-0.0016554339090362191,0.0709457
1119.7999999993103,0.22240329,-0.9829285,0.13101287,-2.533567,0.20309848,1.5847605,0.9571319,0.03999945,0.04,-9.7418375,0.9346867799758911,0.11008131,-0.08501346,-0.0011911150068044662,0.07096163
1119.816666665977,0.22547808,-0.98567533,0.13282481,-2.5360198,0.20590754,1.5849513,0.95949966,0.039999448,0.04,-9.740857,0.9451931715011597,0.109969065,-0.084839255,-0.0007314322865568101,0.07096624
1119.8333333326436,0.22856346,-0.98843163,0.13464296,-2.5384805,0.20872639,1.5851426,0.9618755,0.039999455,0.04,-9.740131,0.9558963179588318,0.110188924,-0.08464824,-0.0002734012668952346,0.070960924
1119.8499999993103,0.23165905,-0.99119693,0.13646713,-2.5409493,0.2115546,1.5853347,0.96425915,0.039999455,0.04,-9.739014,0.9663835763931274,0.11000639,-0.08444102,0.0001842451747506857,0.07094487
1119.866666665977,0.23476449,-0.9939712,0.13829716,-2.543426,0.21439183,1.5855275,0.96665055,0.039999463,0.04,-9.738242,0.977095365524292,0.1100792,-0.08421708,0.0006412264192476869,0.07091772
1119.8833333326436,0.23787941,-0.99675405,0.14013271,-2.5459104,0.21723774,1.585721,0.9690493,0.039999455,0.04,-9.737157,0.9875835180282593,0.109818116,-0.08397816,0.0010977797210216522,0.07088106
1119.8999999993102,0.24100347,-0.9995449,0.14197364,-2.5484018,0.22009192,1.585915,0.97145504,0.039999455,0.04,-9.736418,0.998332679271698,0.10980828,-0.083724014,0.0015518306754529476,0.07083351
1119.916666665977,0.24413626,-1.0023435,0.1438197,-2.5509005,0.22295418,1.5861095,0.9738676,0.039999463,0.04,-9.735339,1.0088070631027222,0.10945912,-0.0834544,0.0020033596083521843,0.07077601
1119.9333333326435,0.2472774,-1.0051495,0.14567068,-2.553406,0.22582409,1.5863047,0.9762865,0.03999947,0.04,-9.734611,1.0195668935775757,0.109325916,-0.083170295,0.002450478496029973,0.07070908
1119.9499999993102,0.2504265,-1.0079628,0.14752637,-2.5559173,0.22870131,1.5865,0.97871166,0.03999947,0.04,-9.733567,1.0300298929214478,0.10886168,-0.08287073,0.0028938227333128452,0.07063198
1119.9666666659768,0.25358316,-1.010783,0.14938653,-2.5584352,0.23158546,1.5866959,0.98114264,0.03999947,0.04,-9.732699,1.0407910346984863,0.10866172,-0.08255689,0.0033365697599947453,0.07054569
1119.9833333326435,0.2567471,-1.0136092,0.15125097,-2.5609584,0.23447625,1.5868924,0.98357916,0.03999947,0.04,-9.731692,1.0512540340423584,0.10812971,-0.08222883,0.003774004988372326,0.070450105
1119.9999999993101,0.25991783,-1.0164422,0.15311944,-2.5634873,0.23737328,1.5870894,0.986021,0.039999463,0.04,-9.730897,1.0620076656341553,0.10776638,-0.08188502,0.0042074634693562984,0.0703444
1120.0166666659768,0.26309508,-1.0192806,0.15499166,-2.5660212,0.2402762,1.5872867,0.98846763,0.03999947,0.04,-9.729909,1.0726059675216675,0.107292786,-0.08152752,0.004641701467335224,0.07022925
1120.0333333326435,0.26627833,-1.022124,0.15686744,-2.5685601,0.24318472,1.5874845,0.9909191,0.03999948,0.04,-9.728869,1.0830161571502686,0.106615365,-0.08115558,0.0050694565288722515,0.07010562
1120.04999999931,0.2694672,-1.024973,0.15874654,-2.5711036,0.24609843,1.5876825,0.99337476,0.039999485,0.04,-9.72811,1.0937974452972412,0.10608404,-0.080771305,0.0054906499572098255,0.06997329
1120.0666666659768,0.2726613,-1.0278274,0.16062872,-2.5736513,0.24901702,1.5878808,0.99583465,0.03999948,0.04,-9.727038,1.1041946411132812,0.105363265,-0.08037241,0.00590848783031106,0.06983205
1120.0833333326434,0.27586037,-1.0306861,0.16251384,-2.5762026,0.25194,1.5880793,0.9982982,0.039999478,0.04,-9.726171,1.1149532794952393,0.10479887,-0.07996124,0.006324514281004667,0.06968109
1120.09999999931,0.27906382,-1.0335481,0.16440159,-2.578758,0.2548672,1.5882782,1.0007652,0.039999478,0.04,-9.725071,1.1252741813659668,0.10397337,-0.07953637,0.00673684012144804,0.06952017
1120.1166666659767,0.2822714,-1.0364132,0.16629173,-2.581316,0.25779805,1.5884773,1.0032357,0.039999474,0.04,-9.724392,1.1360722780227661,0.10318927,-0.07909941,0.007136799395084381,0.069353916
1120.1333333326434,0.2854827,-1.0392818,0.16818401,-2.583877,0.26073244,1.5886766,1.0057088,0.03999947,0.04,-9.723255,1.1463559865951538,0.102225,-0.078651406,0.007533540483564138,0.06917804
1120.14999999931,0.2886974,-1.0421543,0.1700783,-2.586441,0.2636699,1.5888762,1.0081846,0.03999947,0.04,-9.722419,1.1570886373519897,0.10141499,-0.07819004,0.007925288751721382,0.06899378
1120.1666666659767,0.29191485,-1.0450284,0.1719743,-2.589007,0.2666099,1.589076,1.0106627,0.03999947,0.04,-9.72132,1.1673588752746582,0.10044676,-0.07771611,0.00831546913832426,0.068800695
1120.1833333326433,0.29513496,-1.0479057,0.17387179,-2.5915754,0.2695522,1.5892761,1.0131425,0.039999474,0.04,-9.720544,1.1781028509140015,0.09943372,-0.07723197,0.008695024996995926,0.06860415
1120.19999999931,0.29835707,-1.0507842,0.17577057,-2.594146,0.27249652,1.5894762,1.0156239,0.039999474,0.04,-9.719468,1.1883264780044556,0.098387524,-0.076735154,0.009071926586329937,0.068397835
1120.2166666659766,0.30158103,-1.0536641,0.17767029,-2.5967176,0.27544254,1.5896764,1.0181068,0.039999474,0.04,-9.718733,1.1990290880203247,0.09730279,-0.07622851,0.009437423199415207,0.068184294
1120.2333333326433,0.3048063,-1.0565464,0.17957081,-2.59929,0.27838975,1.5898767,1.0205908,0.03999947,0.04,-9.717622,1.2091963291168213,0.09608747,-0.07571064,0.009797229431569576,0.067962736
1120.24999999931,0.3080325,-1.0594296,0.18147188,-2.601863,0.28133774,1.5900769,1.0230755,0.03999948,0.04,-9.716658,1.2198443412780762,0.095017895,-0.07518181,0.01015728060156107,0.06773314
1120.2666666659766,0.31125915,-1.0623131,0.18337327,-2.6044362,0.2842864,1.5902772,1.0255606,0.039999478,0.04,-9.715696,1.2302405834197998,0.09377736,-0.07464182,0.010511009953916073,0.067498386
1120.2833333326432,0.31448606,-1.0651969,0.18527474,-2.6070096,0.28723523,1.5904775,1.0280458,0.03999948,0.04,-9.714655,1.2403539419174194,0.092440344,-0.07409324,0.010856705717742443,0.067256406
1120.2999999993099,0.31771266,-1.0680791,0.18717605,-2.6095831,0.2901838,1.5906777,1.0305309,0.03999949,0.04,-9.713745,1.2509454488754272,0.09115886,-0.07353349,0.011197579093277454,0.06700727
1120.3166666659765,0.32093862,-1.070961,0.18907699,-2.6121562,0.2931318,1.590878,1.0330156,0.039999485,0.04,-9.712836,1.261020541191101,0.08966819,-0.072966754,0.011523858644068241,0.0667532
1120.3333333326432,0.3241635,-1.0738429,0.1909773,-2.614729,0.29607883,1.5910783,1.0354992,0.03999949,0.04,-9.711951,1.2715884447097778,0.088258445,-0.072391234,0.011843414977192879,0.06649283
1120.3499999993098,0.327387,-1.0767224,0.19287679,-2.617301,0.29902464,1.5912784,1.0379816,0.0399995,0.04,-9.710936,1.2816061973571777,0.08681845,-0.07180546,0.012157930061221123,0.066226624
1120.3666666659765,0.33060867,-1.0796014,0.19477524,-2.619871,0.30196875,1.5914786,1.040463,0.0399995,0.04,-9.71015,1.2921228408813477,0.08523105,-0.07121215,0.012458530254662037,0.06595485
1120.3833333326431,0.33382806,-1.0824777,0.19667234,-2.622439,0.3049109,1.5916786,1.0429425,0.039999507,0.04,-9.708977,1.3020422458648682,0.083728164,-0.07061026,0.012759828008711338,0.06567664
1120.3999999993098,0.3370449,-1.0853516,0.19856791,-2.6250048,0.30785066,1.5918784,1.0454202,0.039999507,0.04,-9.708103,1.3125163316726685,0.08205645,-0.07000131,0.01305085327476263,0.06539337
1120.4166666659764,0.34025866,-1.0882238,0.20046173,-2.6275685,0.3107877,1.592078,1.0478954,0.03999951,0.04,-9.707077,1.3223730325698853,0.08040408,-0.06938425,0.013333579525351524,0.065104105
1120.433333332643,0.34346896,-1.0910931,0.20235348,-2.630129,0.3137217,1.5922773,1.0503681,0.03999952,0.04,-9.70614,1.3327969312667847,0.07874673,-0.06876018,0.013612241484224796,0.064809054
1120.4499999993097,0.34667546,-1.0939589,0.20424299,-2.632687,0.3166522,1.5924764,1.0528377,0.039999522,0.04,-9.705081,1.3426125049591064,0.0770347,-0.06812926,0.013883968815207481,0.06450852
1120.4666666659764,0.34987777,-1.0968202,0.2061301,-2.6352422,0.31957898,1.5926751,1.0553044,0.03999952,0.04,-9.704171,1.352972149848938,0.07522628,-0.06749077,0.014147590845823288,0.06420362
1120.483333332643,0.35307547,-1.099677,0.20801449,-2.637793,0.32250148,1.5928735,1.0577675,0.039999522,0.04,-9.703295,1.3627166748046875,0.07337327,-0.06684889,0.014396236278116703,0.06389432
1120.4999999993097,0.35626826,-1.1025295,0.20989586,-2.6403406,0.3254195,1.5930716,1.0602268,0.039999533,0.04,-9.702317,1.3729946613311768,0.071436614,-0.06620045,0.01463740598410368,0.06358048
1120.5166666659763,0.3594556,-1.1053779,0.21177407,-2.6428828,0.32833263,1.5932695,1.0626819,0.039999533,0.04,-9.701413,1.382987141609192,0.069508575,-0.06554674,0.014867763966321945,0.06326293
1120.533333332643,0.36263713,-1.1082206,0.21364892,-2.6454208,0.33124056,1.593467,1.0651325,0.039999533,0.04,-9.70023,1.3925776481628418,0.06763843,-0.064886436,0.01509927213191986,0.06293832
1120.5499999993096,0.36581257,-1.1110581,0.21552016,-2.6479537,0.33414277,1.5936643,1.0675782,0.039999545,0.04,-9.699381,1.402782678604126,0.06555229,-0.06422145,0.015316956676542759,0.06261033
1120.5666666659763,0.36898148,-1.1138896,0.21738748,-2.6504815,0.33703908,1.5938611,1.0700192,0.03999955,0.04,-9.698318,1.4123342037200928,0.06358415,-0.06355004,0.01553067285567522,0.06227788
1120.583333332643,0.3721435,-1.1167151,0.21925071,-2.6530035,0.3399291,1.5940574,1.0724548,0.039999556,0.04,-9.697378,1.4224498271942139,0.061441127,-0.06287599,0.015734240412712097,0.06194209
1120.5999999993096,0.37529817,-1.1195335,0.22110966,-2.6555202,0.3428125,1.5942534,1.0748848,0.039999552,0.04,-9.696369,1.431931495666504,0.059403565,-0.062197044,0.015929993242025375,0.061601397
1120.6166666659763,0.37844518,-1.1223457,0.22296408,-2.6580305,0.34568888,1.5944488,1.0773085,0.03999956,0.04,-9.695486,1.4419916868209839,0.057135526,-0.0615155,0.016114206984639168,0.061257713
1120.633333332643,0.38158405,-1.1251506,0.22481377,-2.6605344,0.34855792,1.5946437,1.0797262,0.03999956,0.04,-9.694409,1.4513758420944214,0.055061497,-0.06082823,0.016293685883283615,0.060910095
1120.6499999993096,0.3847145,-1.1279478,0.22665854,-2.6630318,0.35141933,1.5948381,1.0821376,0.03999957,0.04,-9.693473,1.4613492488861084,0.052745182,-0.06013849,0.0164635069668293,0.060558792
1120.6666666659762,0.38783613,-1.1307373,0.22849801,-2.6655219,0.35427263,1.595032,1.0845422,0.039999567,0.04,-9.692493,1.4706617593765259,0.05057017,-0.05944705,0.016625147312879562,0.0602048
1120.6833333326429,0.39094856,-1.1335187,0.23033206,-2.6680048,0.35711753,1.5952251,1.0869395,0.03999957,0.04,-9.691482,1.4805383682250977,0.048179045,-0.058752578,0.016779154539108276,0.059846263
1120.6999999993095,0.39405143,-1.1362916,0.23216046,-2.67048,0.35995376,1.5954179,1.0893294,0.039999574,0.04,-9.6905,1.4897758960723877,0.045961652,-0.058054533,0.016924474388360977,0.05948483
1120.7166666659762,0.39714426,-1.1390555,0.23398304,-2.6729472,0.36278084,1.59561,1.0917119,0.03999959,0.04,-9.689516,1.4995769262313843,0.04348942,-0.057354964,0.01706198789179325,0.059120618
1120.7333333326428,0.4002268,-1.1418102,0.23579952,-2.6754057,0.36559856,1.5958012,1.0940864,0.039999586,0.04,-9.688539,1.508705496788025,0.04118683,-0.056654964,0.01719103381037712,0.058753125
1120.7499999993095,0.4032986,-1.1445553,0.23760971,-2.677856,0.3684065,1.595992,1.0964527,0.039999586,0.04,-9.687491,1.5183964967727661,0.038662016,-0.055952355,0.017312338575720787,0.05838229
1120.7666666659761,0.40635934,-1.1472903,0.23941341,-2.680298,0.37120444,1.5961819,1.0988104,0.03999959,0.04,-9.686505,1.5277730226516724,0.036203217,-0.055249814,0.01742619462311268,0.058009543
1120.7833333326428,0.4094088,-1.1500154,0.24121036,-2.682731,0.37399182,1.5963712,1.1011595,0.039999597,0.04,-9.685644,1.5367839336395264,0.033809002,-0.05454637,0.01752641797065735,0.05763428
1120.7999999993094,0.41244638,-1.15273,0.24300033,-2.6851542,0.37676853,1.5965599,1.1034995,0.0399996,0.04,-9.6846,1.5463591814041138,0.031168304,-0.0538421,0.017620421946048737,0.057257276
1120.816666665976,0.41547173,-1.1554335,0.24478315,-2.6875675,0.37953418,1.596748,1.1058302,0.039999604,0.04,-9.683596,1.555253267288208,0.028747305,-0.053138126,0.017708614468574524,0.056875985
1120.8333333326427,0.4184846,-1.158126,0.2465586,-2.6899714,0.38228837,1.5969349,1.1081508,0.03999961,0.04,-9.682545,1.5647097826004028,0.02601907,-0.052434027,0.017788831144571304,0.056491945
1120.8499999993094,0.4214845,-1.1608071,0.24832647,-2.6923647,0.38503084,1.5971212,1.1104617,0.03999961,0.04,-9.68166,1.5735515356063843,0.02355091,-0.05172936,0.017857715487480164,0.05610779
1120.866666665976,0.42447138,-1.1634766,0.25008652,-2.6947472,0.38776127,1.5973067,1.1127627,0.03999961,0.04,-9.680575,1.5829167366027832,0.020777551,-0.051025737,0.017920712009072304,0.05571978
1120.8833333326427,0.42744473,-1.1661339,0.25183862,-2.6971195,0.39047927,1.5974914,1.1150533,0.03999962,0.04,-9.679568,1.5916051864624023,0.018288653,-0.05032236,0.017977923154830933,0.05532962
1120.8999999993093,0.43040395,-1.1687784,0.25358248,-2.69948,0.39318457,1.5976752,1.1173327,0.03999962,0.04,-9.678591,1.6008892059326172,0.015446067,-0.04962064,0.018024953082203865,0.05493766
1120.916666665976,0.43334892,-1.1714104,0.25531796,-2.7018294,0.39587697,1.5978581,1.1196015,0.039999627,0.04,-9.677592,1.6094857454299927,0.012872607,-0.048919093,0.01806471310555935,0.05454296
1120.9333333326426,0.4362793,-1.1740294,0.25704488,-2.704167,0.398556,1.5980402,1.1218588,0.039999623,0.04,-9.676568,1.6186580657958984,0.009991006,-0.048220545,0.01809612102806568,0.05414732
1120.9499999993093,0.43919468,-1.1766349,0.2587629,-2.706493,0.40122145,1.5982214,1.1241047,0.039999634,0.04,-9.67557,1.6271365880966187,0.007405525,-0.047522105,0.018122125416994095,0.053748693
1120.966666665976,0.44209483,-1.1792269,0.260472,-2.7088072,0.40387285,1.5984013,1.126339,0.039999638,0.04,-9.674544,1.6362181901931763,0.0044572987,-0.046827305,0.018138296902179718,0.05334856
1120.9833333326426,0.44497934,-1.1818051,0.26217186,-2.711108,0.40650994,1.5985804,1.1285613,0.039999645,0.04,-9.673707,1.6446473598480225,0.0018337052,-0.04613552,0.0181424543261528,0.052948326
1120.9999999993092,0.4478479,-1.184369,0.26386228,-2.713396,0.40913254,1.5987587,1.1307712,0.03999964,0.04,-9.672465,1.6535295248031616,-0.0011292938,-0.04544486,0.01814620941877365,0.052544698
1121.016666665976,0.45070028,-1.1869179,0.26554316,-2.7156725,0.41174027,1.598936,1.1329687,0.03999965,0.04,-9.671443,1.6621137857437134,-0.0039791428,-0.044756643,0.018143221735954285,0.05213909
1121.0333333326425,0.45353594,-1.1894523,0.26721424,-2.7179353,0.41433287,1.5991119,1.135153,0.039999653,0.04,-9.670721,1.6704100370407104,-0.0066857245,-0.044073734,0.01812427118420601,0.051733848
1121.0499999993092,0.4563548,-1.1919715,0.26887536,-2.7201843,0.41691002,1.5992869,1.1373246,0.039999653,0.04,-9.669573,1.6791664361953735,-0.009720011,-0.04339251,0.018100453540682793,0.051328287
1121.0666666659758,0.45915636,-1.1944757,0.2705264,-2.7224193,0.41947153,1.5994611,1.1394829,0.039999653,0.04,-9.668583,1.6872591972351074,-0.0124090575,-0.042713936,0.018071701750159264,0.05092017
1121.0833333326425,0.46194035,-1.1969638,0.2721671,-2.72464,0.42201692,1.5996342,1.1416278,0.039999653,0.04,-9.667469,1.6958926916122437,-0.015490251,-0.042038973,0.018037384375929832,0.050510403
1121.0999999993091,0.46470642,-1.1994362,0.2737972,-2.7268465,0.42454597,1.5998058,1.1437589,0.03999966,0.04,-9.666508,1.7038774490356445,-0.01822477,-0.041368105,0.01799674704670906,0.050098058
1121.1166666659758,0.46745428,-1.2018923,0.27541667,-2.7290385,0.42705852,1.5999765,1.145876,0.039999656,0.04,-9.665391,1.7124000787734985,-0.021321917,-0.040700596,0.017948878929018974,0.049683902
1121.1333333326425,0.47018382,-1.204332,0.27702522,-2.7312162,0.42955413,1.600146,1.1479789,0.039999664,0.04,-9.664519,1.720300316810608,-0.02407195,-0.04003876,0.017892960458993912,0.04926792
1121.149999999309,0.4728945,-1.2067548,0.27862272,-2.7333791,0.43203267,1.6003143,1.1500673,0.039999668,0.04,-9.663404,1.7286986112594604,-0.027206048,-0.039379563,0.017830396071076393,0.04885153
1121.1666666659758,0.4755861,-1.2091606,0.28020892,-2.7355268,0.43449384,1.6004814,1.152141,0.039999668,0.04,-9.662555,1.7365002632141113,-0.02997776,-0.038726833,0.0177582036703825,0.048435073
1121.1833333326424,0.47825834,-1.2115492,0.28178382,-2.737659,0.4369373,1.6006476,1.1541998,0.03999968,0.04,-9.661424,1.7447563409805298,-0.03316647,-0.038078457,0.01768021285533905,0.0480165
1121.199999999309,0.4809109,-1.2139201,0.28334707,-2.7397754,0.43936282,1.6008122,1.1562436,0.03999968,0.04,-9.660474,1.7523916959762573,-0.035920784,-0.037434366,0.01759837381541729,0.04759582
1121.2166666659757,0.4835436,-1.2162733,0.28489858,-2.741876,0.44177017,1.6009755,1.158272,0.039999682,0.04,-9.659383,1.7605466842651367,-0.039126776,-0.03679644,0.01750759407877922,0.047174927
1121.2333333326424,0.48615605,-1.2186083,0.2864383,-2.7439601,0.444159,1.6011379,1.160285,0.039999682,0.04,-9.658447,1.7680541276931763,-0.04189278,-0.036162592,0.01741107925772667,0.046752386
1121.249999999309,0.488748,-1.220925,0.28796574,-2.7460277,0.44652912,1.6012988,1.1622822,0.039999694,0.04,-9.657326,1.7760589122772217,-0.045126416,-0.03553473,0.017309188842773438,0.04633016
1121.2666666659757,0.49131918,-1.2232233,0.28948107,-2.7480795,0.44888029,1.6014583,1.1642632,0.039999694,0.04,-9.656268,1.783715009689331,-0.04812268,-0.03491223,0.017201898619532585,0.045905862
1121.2833333326423,0.4938693,-1.2255026,0.29098395,-2.7501142,0.45121232,1.6016169,1.1662282,0.039999697,0.04,-9.655449,1.7910829782485962,-0.050893806,-0.03429514,0.017086252570152283,0.04548119
1121.299999999309,0.49639815,-1.2277629,0.29247436,-2.752132,0.45352492,1.6017739,1.1681765,0.03999971,0.04,-9.65426,1.798852801322937,-0.054158106,-0.03368408,0.01696646399796009,0.04505388
1121.3166666659756,0.49890545,-1.230004,0.29395217,-2.7541325,0.4558178,1.6019294,1.1701086,0.039999705,0.04,-9.653412,1.80608332157135,-0.056927554,-0.033078216,0.01683947816491127,0.04462667
1121.3333333326423,0.501391,-1.2322259,0.29541713,-2.7561162,0.4580908,1.6020842,1.1720235,0.039999712,0.04,-9.652259,1.8137140274047852,-0.060175933,-0.032479107,0.016706019639968872,0.044198424
1121.349999999309,0.5038544,-1.2344278,0.29686904,-2.7580817,0.46034372,1.602237,1.1739218,0.03999972,0.04,-9.651417,1.8208380937576294,-0.06295511,-0.03188557,0.016569307073950768,0.043769944
1121.3666666659756,0.5062954,-1.2366103,0.2983078,-2.7600298,0.46257615,1.6023886,1.1758026,0.039999723,0.04,-9.650228,1.828319787979126,-0.06620462,-0.03129928,0.01642552763223648,0.04333977
1121.3833333326422,0.50871396,-1.2387723,0.29973334,-2.7619603,0.46478802,1.602539,1.1776662,0.039999723,0.04,-9.649361,1.835300087928772,-0.068971515,-0.030718803,0.016277721151709557,0.042909306
1121.3999999993089,0.5111099,-1.240914,0.3011454,-2.763872,0.4669791,1.6026877,1.1795123,0.039999723,0.04,-9.648257,1.8426611423492432,-0.07223523,-0.030145425,0.016122758388519287,0.042478405
1121.4166666659755,0.5134828,-1.2430352,0.30254388,-2.7657652,0.46914923,1.6028353,1.1813408,0.039999727,0.04,-9.647343,1.849462628364563,-0.07498116,-0.029576877,0.015964215621352196,0.04204596
1121.4333333326422,0.51583236,-1.2451354,0.30392876,-2.76764,0.4712982,1.6029812,1.1831516,0.039999727,0.04,-9.646138,1.856657862663269,-0.07821943,-0.029015465,0.015802672132849693,0.041611116
1121.4499999993088,0.51815856,-1.2472149,0.30529982,-2.7694962,0.47342566,1.6031258,1.1849442,0.039999727,0.04,-9.6453495,1.86337149143219,-0.080988616,-0.028462958,0.015632476657629013,0.041177228
1121.4666666659755,0.52046114,-1.2492733,0.30665693,-2.7713332,0.47553155,1.603269,1.1867185,0.03999974,0.04,-9.644123,1.8704133033752441,-0.08420381,-0.027914925,0.015461436472833157,0.040742174
1121.4833333326421,0.52273977,-1.2513106,0.30800006,-2.7731516,0.47761557,1.6034105,1.1884743,0.03999974,0.04,-9.643284,1.8769575357437134,-0.08694062,-0.027373172,0.015285051427781582,0.04030566
1121.4999999993088,0.5249944,-1.2533262,0.30932894,-2.7749503,0.47967765,1.6035507,1.1902118,0.03999974,0.04,-9.642154,1.8839075565338135,-0.090145186,-0.026838774,0.015103681944310665,0.039870054
1121.5166666659754,0.52722526,-1.2553201,0.31064352,-2.77673,0.4817176,1.6036892,1.1919307,0.039999753,0.04,-9.641091,1.8904860019683838,-0.09311659,-0.026311457,0.014919410459697247,0.03943017
1121.533333332642,0.5294314,-1.2572919,0.3119437,-2.7784903,0.48373523,1.6038263,1.1936306,0.03999975,0.04,-9.640319,1.8968479633331299,-0.095796265,-0.025789121,0.014727866277098656,0.038993765
1121.5499999993087,0.5316127,-1.2592419,0.31322938,-2.7802305,0.48573035,1.6039618,1.1953115,0.039999757,0.04,-9.63917,1.9035340547561646,-0.09901828,-0.025275486,0.014531333930790424,0.03855429
1121.5666666659754,0.5337692,-1.2611698,0.31450042,-2.7819514,0.48770282,1.6040958,1.1969728,0.039999757,0.04,-9.638282,1.9097251892089844,-0.10168513,-0.024768878,0.014333204366266727,0.038114417
1121.583333332642,0.5359007,-1.2630754,0.31575677,-2.783652,0.48965248,1.6042283,1.1986153,0.039999757,0.04,-9.637164,1.9162788391113281,-0.104859084,-0.024267115,0.014129848219454288,0.037674118
1121.5999999993087,0.5380071,-1.2649584,0.31699827,-2.785333,0.491579,1.604359,1.2002387,0.039999757,0.04,-9.636312,1.9223170280456543,-0.10751228,-0.023774214,0.013923648744821548,0.037232526
1121.6166666659753,0.54008806,-1.266819,0.31822488,-2.7869933,0.49348238,1.6044883,1.2018425,0.03999976,0.04,-9.635222,1.9287240505218506,-0.11066041,-0.02329024,0.01371089182794094,0.036792397
1121.633333332642,0.5421435,-1.2686566,0.31943643,-2.7886333,0.49536255,1.6046158,1.2034261,0.039999764,0.04,-9.634327,1.9345992803573608,-0.11326507,-0.02281225,0.013498193584382534,0.036349528
1121.6499999993086,0.5441733,-1.2704712,0.32063285,-2.7902524,0.4972193,1.604742,1.2049904,0.039999764,0.04,-9.633196,1.9408323764801025,-0.11639498,-0.022339415,0.013279853388667107,0.035907004
1121.6666666659753,0.5461773,-1.2722628,0.3218142,-2.7918515,0.49905244,1.6048666,1.206535,0.03999977,0.04,-9.6323595,1.946579098701477,-0.11898737,-0.021874705,0.013060055673122406,0.035463322
1121.683333332642,0.5481554,-1.2740315,0.32298017,-2.7934308,0.5008618,1.6049896,1.2080593,0.039999776,0.04,-9.631243,1.9526482820510864,-0.12207355,-0.021419145,0.012836094945669174,0.035019994
1121.6999999993086,0.5501076,-1.2757767,0.32413074,-2.794988,0.5026475,1.605111,1.2095644,0.039999776,0.04,-9.630554,1.9583375453948975,-0.124638215,-0.020971507,0.012606142088770866,0.034577686
1121.7166666659753,0.5520335,-1.2774985,0.32526594,-2.7965243,0.5044092,1.6052306,1.2110482,0.03999978,0.04,-9.629251,1.9641292095184326,-0.12765186,-0.020530643,0.012376920320093632,0.03413167
1121.733333332642,0.55393326,-1.279197,0.3263857,-2.79804,0.5061469,1.6053487,1.2125114,0.039999783,0.04,-9.628488,1.9696261882781982,-0.13018084,-0.020093203,0.012143857777118683,0.033686787
1121.7499999993086,0.5558066,-1.2808719,0.32748985,-2.7995346,0.5078605,1.6054649,1.2139552,0.039999787,0.04,-9.627377,1.9753673076629639,-0.13317895,-0.019660098,0.011908167041838169,0.03324186
1121.7666666659752,0.55765307,-1.2825228,0.3285784,-2.801008,0.5095497,1.6055795,1.215378,0.039999794,0.04,-9.626436,1.9808597564697266,-0.13590154,-0.019239396,0.011668326333165169,0.032796744
1121.7833333326419,0.55947304,-1.2841502,0.3296513,-2.8024607,0.51121455,1.6056926,1.2167807,0.039999794,0.04,-9.625666,1.9861152172088623,-0.13838825,-0.018824866,0.011425982229411602,0.032352198
1121.7999999993085,0.5612662,-1.2857535,0.33070838,-2.803892,0.5128552,1.605804,1.2181629,0.039999794,0.04,-9.6245775,1.991623878479004,-0.14132105,-0.018418353,0.011180534958839417,0.031908102
1121.8166666659752,0.56303275,-1.2873331,0.33174965,-2.8053017,0.5144713,1.6059139,1.2195243,0.039999798,0.04,-9.623817,1.9967041015625,-0.14375727,-0.018020919,0.010931587778031826,0.03146228
1121.8333333326418,0.5647723,-1.2888886,0.33277506,-2.8066897,0.5160628,1.6060216,1.2208648,0.0399998,0.04,-9.622658,2.0020110607147217,-0.14663151,-0.017627243,0.010682615451514721,0.031015968
1121.8499999993085,0.5664849,-1.2904197,0.33378464,-2.8080564,0.5176294,1.6061283,1.2221847,0.0399998,0.04,-9.621927,2.0069713592529297,-0.1490029,-0.01724131,0.010429763235151768,0.030570943
1121.8666666659751,0.5681704,-1.2919267,0.33477828,-2.8094013,0.5191711,1.6062326,1.2234837,0.0399998,0.04,-9.6207905,2.012101888656616,-0.1518809,-0.016862247,0.010176656767725945,0.030124571
1121.8833333326418,0.56982887,-1.2934095,0.33575594,-2.8107247,0.5206885,1.6063358,1.224762,0.039999805,0.04,-9.620085,2.0169270038604736,-0.15417705,-0.016490428,0.009919361211359501,0.029682675
1121.8999999993084,0.57146025,-1.2948687,0.33671767,-2.8120265,0.5221808,1.6064368,1.2260191,0.039999805,0.04,-9.618984,2.021907091140747,-0.15700337,-0.016126134,0.009660647250711918,0.029237451
1121.916666665975,0.5730645,-1.2963022,0.33766335,-2.8133068,0.5236485,1.6065365,1.2272555,0.039999805,0.04,-9.618206,2.0265347957611084,-0.15920639,-0.015765859,0.009403268806636333,0.02879252
1121.9333333326417,0.5746414,-1.2977121,0.338593,-2.8145647,0.5250912,1.6066346,1.2284708,0.039999813,0.04,-9.617224,2.0313608646392822,-0.16204512,-0.015415128,0.009136480279266834,0.028349109
1121.9499999993084,0.57619095,-1.2990978,0.33950645,-2.8158014,0.5265091,1.6067308,1.2296653,0.039999813,0.04,-9.6164055,2.0358269214630127,-0.16422518,-0.015069454,0.008875105530023575,0.027905079
1121.966666665975,0.5777135,-1.300459,0.3404038,-2.8170161,0.527902,1.6068256,1.2308385,0.039999817,0.04,-9.615356,2.0405240058898926,-0.16692182,-0.014732097,0.008610334247350693,0.027460432
1121.9833333326417,0.57920873,-1.3017961,0.34128517,-2.8182092,0.52926975,1.6069183,1.2319907,0.039999817,0.04,-9.614648,2.044830322265625,-0.16906986,-0.01439922,0.008344560861587524,0.027016103
1121.9999999993083,0.58067644,-1.3031083,0.34215042,-2.8193805,0.53061265,1.6070098,1.2331219,0.039999824,0.04,-9.613583,2.049349069595337,-0.17169562,-0.014072159,0.008077912032604218,0.02657461
1122.016666665975,0.5821167,-1.3043964,0.34299955,-2.8205297,0.5319306,1.607099,1.234232,0.039999824,0.04,-9.612714,2.053636074066162,-0.17409167,-0.013753273,0.007810279261320829,0.026132533
1122.0333333326416,0.5835298,-1.3056602,0.34383258,-2.8216572,0.53322345,1.607187,1.2353212,0.039999828,0.04,-9.612003,2.0577304363250732,-0.17613953,-0.01344016,0.00754102086648345,0.025690584
1122.0499999993083,0.58491564,-1.3068995,0.34464958,-2.8227627,0.5344914,1.6072731,1.2363893,0.039999824,0.04,-9.610919,2.061990261077881,-0.17869511,-0.013133986,0.007274577394127846,0.025250396
1122.066666665975,0.5862741,-1.3081144,0.34545043,-2.8238478,0.53573436,1.6073576,1.2374364,0.039999824,0.04,-9.610271,2.065912961959839,-0.1806981,-0.012832631,0.007004207465797663,0.024809835
1122.0833333326416,0.5876052,-1.309305,0.34623533,-2.82491,0.53695244,1.6074404,1.2384624,0.039999824,0.04,-9.609357,2.0700953006744385,-0.18324238,-0.012541354,0.006730523891746998,0.024373496
1122.0999999993082,0.58890915,-1.310471,0.3470041,-2.8259504,0.53814554,1.6075213,1.2394676,0.039999828,0.04,-9.6085825,2.0738108158111572,-0.18517524,-0.012253241,0.0064601050689816475,0.023935592
1122.116666665975,0.59018594,-1.3116127,0.34775683,-2.8269699,0.5393141,1.6076007,1.2404518,0.039999828,0.04,-9.607556,2.0777461528778076,-0.18760464,-0.0119718835,0.006187943276017904,0.023500258
1122.1333333326415,0.59143555,-1.3127304,0.34849355,-2.8279674,0.5404578,1.6076784,1.2414149,0.039999824,0.04,-9.606978,2.081397533416748,-0.18954192,-0.011697157,0.005913228262215853,0.023065047
1122.1499999993082,0.5926581,-1.3138238,0.3492144,-2.8289435,0.5415765,1.6077543,1.2423574,0.03999983,0.04,-9.605934,2.0851666927337646,-0.19188781,-0.011427271,0.005639561451971531,0.022630828
1122.1666666659748,0.59385383,-1.3148932,0.34991938,-2.8298979,0.54267067,1.6078287,1.243279,0.03999983,0.04,-9.605344,2.088667392730713,-0.19375063,-0.0111645935,0.005364395212382078,0.02220055
1122.1833333326415,0.5950226,-1.3159386,0.35060853,-2.8308303,0.5437403,1.6079013,1.2441798,0.039999835,0.04,-9.604282,2.0922367572784424,-0.19603516,-0.0109058255,0.005092110019177198,0.021770556
1122.1999999993081,0.5961646,-1.31696,0.3512819,-2.831741,0.5447853,1.6079721,1.24506,0.039999835,0.04,-9.603632,2.0955557823181152,-0.19780685,-0.010651726,0.004820240195840597,0.021342386
1122.2166666659748,0.59727985,-1.3179575,0.3519395,-2.8326309,0.5458059,1.6080414,1.2459196,0.03999984,0.04,-9.602594,2.0989625453948975,-0.2000202,-0.010401751,0.004549710545688868,0.020914543
1122.2333333326415,0.59836847,-1.3189311,0.35258138,-2.8335,0.5468021,1.608109,1.2467588,0.039999843,0.04,-9.602041,2.1021816730499268,-0.20176004,-0.0101585565,0.004278885666280985,0.020489378
1122.249999999308,0.59943056,-1.3198811,0.35320765,-2.834348,0.54777426,1.6081749,1.2475775,0.03999985,0.04,-9.601127,2.105501413345337,-0.203947,-0.009922271,0.004005774389952421,0.020068191
1122.2666666659748,0.6004663,-1.3208076,0.35381833,-2.8351746,0.5487222,1.6082394,1.248376,0.03999985,0.04,-9.600362,2.108635902404785,-0.20585184,-0.009692047,0.0037335576489567757,0.019649986
1122.2833333326414,0.6014758,-1.3217105,0.3544137,-2.8359802,0.54964614,1.6083022,1.2491542,0.039999846,0.04,-9.599694,2.1115329265594482,-0.2074803,-0.009465183,0.0034637772478163242,0.019229198
1122.299999999308,0.60245913,-1.3225902,0.35499355,-2.836765,0.55054617,1.6083633,1.2499121,0.039999846,0.04,-9.598784,2.1146018505096436,-0.20954919,-0.009243602,0.003194305580109358,0.018813558
1122.3166666659747,0.6034166,-1.3234465,0.3555582,-2.8375294,0.5514225,1.6084225,1.2506503,0.03999985,0.04,-9.598199,2.117422580718994,-0.21112476,-0.009026751,0.0029259114526212215,0.018401084
1122.3333333326414,0.60434824,-1.3242797,0.35610756,-2.838273,0.55227536,1.6084807,1.2513685,0.039999843,0.04,-9.597296,2.120316982269287,-0.21313098,-0.0088154655,0.0026558800600469112,0.017991545
1122.349999999308,0.60525423,-1.32509,0.35664183,-2.838996,0.5531048,1.608537,1.252067,0.03999985,0.04,-9.596686,2.122962713241577,-0.21466544,-0.008609008,0.0023902871180325747,0.017583074
1122.3666666659747,0.60613483,-1.3258778,0.35716107,-2.8396983,0.5539108,1.6085918,1.2527459,0.039999858,0.04,-9.595751,2.125699043273926,-0.2165756,-0.008406957,0.002124660648405552,0.017176472
1122.3833333326413,0.6069901,-1.3266429,0.35766545,-2.8403814,0.5546938,1.6086451,1.2534051,0.039999858,0.04,-9.595175,2.128230571746826,-0.2180409,-0.008208861,0.0018628753023222089,0.016774993
1122.399999999308,0.60782015,-1.3273855,0.35815504,-2.841044,0.5554537,1.6086963,1.2540451,0.03999986,0.04,-9.594355,2.1308605670928955,-0.21993205,-0.0080160145,0.0015991710824891925,0.016375776
1122.4166666659746,0.6086254,-1.3281062,0.35862997,-2.8416865,0.55619085,1.6087469,1.2546657,0.039999858,0.04,-9.593745,2.13322377204895,-0.22132128,-0.007828327,0.001338664093054831,0.015981393
1122.4333333326413,0.6094061,-1.328804,0.35909024,-2.84231,0.55690545,1.608795,1.2552674,0.039999858,0.04,-9.592819,2.1356494426727295,-0.22312014,-0.007642495,0.0010837503941729665,0.015587105
1122.449999999308,0.61016226,-1.3294806,0.35953626,-2.8429132,0.5575976,1.6088423,1.2558504,0.039999858,0.04,-9.592402,2.1379499435424805,-0.22450209,-0.007462999,0.0008215756970457733,0.015201434
1122.4666666659746,0.61089456,-1.3301356,0.3599679,-2.8434968,0.55826753,1.6088879,1.2564149,0.039999858,0.04,-9.591415,2.1402010917663574,-0.2262167,-0.007287605,0.0005690036341547966,0.014815305
1122.4833333326412,0.6116026,-1.3307692,0.3603856,-2.844062,0.5589157,1.6089314,1.2569609,0.039999858,0.04,-9.590846,2.142277956008911,-0.2274827,-0.00711359,0.00031883642077445984,0.014432756
1122.4999999993079,0.6122868,-1.3313814,0.36078903,-2.844608,0.55954206,1.6089746,1.2574885,0.039999858,0.04,-9.590084,2.1445071697235107,-0.22916974,-0.006947446,6.70396548230201e-05,0.01405837
1122.5166666659745,0.6129476,-1.3319728,0.36117873,-2.845136,0.560147,1.6090152,1.2579981,0.03999986,0.04,-9.58931,2.146510362625122,-0.23063597,-0.0067839557,-0.00017722623306326568,0.013683617
1122.5333333326412,0.6135852,-1.3325435,0.3615548,-2.8456447,0.56073076,1.6090548,1.2584895,0.039999858,0.04,-9.588905,2.1484928131103516,-0.23185912,-0.006626911,-0.0004253074584994465,0.013319357
1122.5499999993078,0.61419994,-1.3330935,0.3619174,-2.8461356,0.56129354,1.6090933,1.2589633,0.039999858,0.04,-9.587961,2.1503703594207764,-0.2334177,-0.0064699003,-0.0006672936724498868,0.012952916
1122.5666666659745,0.61479205,-1.3336234,0.36226663,-2.8466082,0.5618357,1.6091294,1.2594199,0.03999986,0.04,-9.587507,2.152195453643799,-0.23461096,-0.0063187173,-0.0009065155172720551,0.012594536
1122.5833333326411,0.61536187,-1.3341333,0.36260274,-2.847063,0.5623575,1.6091652,1.2598593,0.039999865,0.04,-9.586666,2.154024362564087,-0.236108,-0.0061710607,-0.0011458097724243999,0.012242893
1122.5999999993078,0.61590964,-1.3346235,0.3629259,-2.8474998,0.5628591,1.6091994,1.2602817,0.03999986,0.04,-9.586139,2.1556570529937744,-0.23725513,-0.006027546,-0.0013791290111839771,0.011893492
1122.6166666659744,0.61643577,-1.3350947,0.36323625,-2.8479197,0.5633409,1.6092315,1.2606874,0.03999987,0.04,-9.585273,2.157337188720703,-0.23869334,-0.005886002,-0.0016080185305327177,0.011547275
1122.633333332641,0.6169406,-1.3355464,0.36353403,-2.8483229,0.56380314,1.6092634,1.2610767,0.039999872,0.04,-9.584798,2.1589157581329346,-0.23975095,-0.005748669,-0.0018357628723606467,0.01121035
1122.6499999993077,0.6174245,-1.3359792,0.36381942,-2.8487089,0.5642463,1.6092936,1.2614497,0.039999876,0.04,-9.584047,2.1604983806610107,-0.24121635,-0.005616876,-0.0020594042725861073,0.010876454
1122.6666666659744,0.6178876,-1.3363935,0.36409268,-2.8490787,0.5646703,1.6093217,1.2618068,0.039999876,0.04,-9.583499,2.1619009971618652,-0.24222024,-0.0054872246,-0.002280285581946373,0.010548879
1122.683333332641,0.6183305,-1.33679,0.36435392,-2.8494322,0.56507593,1.6093496,1.2621484,0.039999876,0.04,-9.582759,2.1633846759796143,-0.24358179,-0.005361954,-0.0025010735262185335,0.010229189
1122.6999999993077,0.6187533,-1.3371686,0.3646035,-2.8497698,0.5654634,1.6093762,1.2624747,0.03999988,0.04,-9.582206,2.164673328399658,-0.24458073,-0.0052394224,-0.002712969435378909,0.009912214
1122.7166666659743,0.6191567,-1.3375299,0.36484146,-2.8500917,0.565833,1.6094005,1.262786,0.03999988,0.04,-9.581397,2.166011333465576,-0.24587888,-0.0051207826,-0.0029203242156654596,0.009600688
1122.733333332641,0.61954087,-1.337874,0.36506817,-2.850398,0.56618506,1.6094247,1.2630826,0.039999876,0.04,-9.580931,2.1672444343566895,-0.24681343,-0.0050067445,-0.0031282391864806414,0.009298676
1122.7499999993076,0.6199063,-1.3382014,0.3652839,-2.8506896,0.56652,1.6094482,1.2633647,0.03999988,0.04,-9.58008,2.168431520462036,-0.24807976,-0.0048950547,-0.0033261070493608713,0.00899859
1122.7666666659743,0.6202537,-1.3385124,0.36548883,-2.8509667,0.5668381,1.6094689,1.2636324,0.039999887,0.04,-9.5794525,2.1695876121520996,-0.24916774,-0.00478617,-0.0035181448329240084,0.008706167
1122.783333332641,0.62058306,-1.3388075,0.36568326,-2.8512292,0.56714,1.6094893,1.2638861,0.039999876,0.04,-9.579005,2.1706695556640625,-0.2500276,-0.0046792203,-0.0037134012673050165,0.00842458
1122.7999999993076,0.62089515,-1.3390869,0.3658674,-2.8514786,0.56742585,1.6095093,1.2641269,0.03999988,0.04,-9.578183,2.1717095375061035,-0.25121838,-0.0045744637,-0.003899572417140007,0.008145697
1122.8166666659743,0.6211901,-1.3393512,0.3660415,-2.8517141,0.5676961,1.6095278,1.2643543,0.03999988,0.04,-9.577764,2.172726631164551,-0.2521454,-0.004476966,-0.004081824328750372,0.0078754425
1122.833333332641,0.62146854,-1.3396007,0.36620584,-2.8519366,0.56795126,1.6095445,1.2645693,0.039999884,0.04,-9.576969,2.1737022399902344,-0.25326195,-0.00438075,-0.004258427303284407,0.0076136244
1122.8499999993076,0.621731,-1.339836,0.36636072,-2.8521461,0.5681918,1.609561,1.2647713,0.039999884,0.04,-9.5764675,2.1745715141296387,-0.25410646,-0.0042891023,-0.00443388894200325,0.007359991
1122.8666666659742,0.6219778,-1.3400573,0.36650643,-2.8523426,0.568418,1.6095768,1.2649617,0.039999887,0.04,-9.575692,2.1754560470581055,-0.25521028,-0.0041986327,-0.004601214546710253,0.0071101394
1122.8833333326409,0.6222095,-1.340265,0.3666433,-2.8525288,0.56863046,1.6095911,1.2651405,0.039999887,0.04,-9.575084,2.176212787628174,-0.25604057,-0.0041109594,-0.0047587621957063675,0.0068691983
1122.8999999993075,0.6224267,-1.34046,0.3667716,-2.8527014,0.5688297,1.609604,1.2653084,0.03999989,0.04,-9.574553,2.177130699157715,-0.2571518,-0.004031577,-0.004919635131955147,0.006640464
1122.9166666659742,0.62262994,-1.3406422,0.36689162,-2.8528645,0.5690161,1.6096166,1.2654653,0.039999884,0.04,-9.573831,2.1777379512786865,-0.25789586,-0.003951915,-0.005071126390248537,0.006417822
1122.9333333326408,0.62281966,-1.3408123,0.36700368,-2.8530154,0.56919,1.6096289,1.2656115,0.03999989,0.04,-9.5732155,2.178527593612671,-0.25898317,-0.0038772898,-0.0052191647700965405,0.0062022964
1122.9499999993075,0.6229965,-1.3409709,0.3671081,-2.853156,0.56935227,1.6096407,1.265748,0.039999884,0.04,-9.572547,2.1791274547576904,-0.25977784,-0.0038032273,-0.005354894790798426,0.005996687
1122.9666666659741,0.6231607,-1.3411181,0.36720514,-2.8532882,0.5695031,1.6096499,1.265875,0.03999988,0.04,-9.571783,2.1797549724578857,-0.2607678,-0.0037327788,-0.005484082270413637,0.005795634
1122.9833333326408,0.62331325,-1.3412548,0.3672952,-2.853412,0.56964314,1.6096588,1.2659926,0.03999988,0.04,-9.571421,2.180459976196289,-0.26159024,-0.003670434,-0.005620077718049288,0.0056105834
1122.9999999993074,0.6234547,-1.3413818,0.36737865,-2.8535225,0.5697728,1.6096677,1.2661017,0.039999884,0.04,-9.57081,2.1811108589172363,-0.26263997,-0.003613607,-0.005751896649599075,0.0054361047
1123.016666665974,0.6235853,-1.3414989,0.36745575,-2.853625,0.5698927,1.6096761,1.2662027,0.039999887,0.04,-9.569644,2.181373357772827,-0.26336622,-0.0035477565,-0.005858369637280703,0.0052613458
1123.0333333326407,0.62370586,-1.3416071,0.36752695,-2.85372,0.57000333,1.6096842,1.2662959,0.039999884,0.04,-9.569125,2.18192195892334,-0.26420042,-0.0034895362,-0.005961286835372448,0.0050978567
1123.0499999993074,0.6238171,-1.3417069,0.36759263,-2.8538072,0.5701053,1.6096921,1.266382,0.03999989,0.04,-9.568395,2.1824421882629395,-0.2651395,-0.003434588,-0.006055684760212898,0.0049426476
1123.066666665974,0.62391925,-1.3417985,0.3676531,-2.8538892,0.57019925,1.6096973,1.2664609,0.039999887,0.04,-9.567778,2.1829001903533936,-0.2659135,-0.0033832276,-0.006141845136880875,0.0047980314
1123.0833333326407,0.62401336,-1.341883,0.36770874,-2.8539667,0.5702858,1.6097025,1.2665331,0.039999895,0.04,-9.567308,2.183511734008789,-0.2668941,-0.0033402108,-0.006237087305635214,0.0046704514
1123.0999999993073,0.62409997,-1.3419609,0.36775982,-2.8540368,0.5703652,1.6097076,1.2666001,0.039999887,0.04,-9.566892,2.1840262413024902,-0.2677715,-0.00330304,-0.006329928524792194,0.004556769
1123.116666665974,0.6241796,-1.3420324,0.3678069,-2.8540998,0.5704383,1.6097125,1.2666616,0.039999895,0.04,-9.56602,2.1843326091766357,-0.26860648,-0.0032680973,-0.006408299785107374,0.0044476897
1123.1333333326406,0.6242529,-1.3420984,0.36785018,-2.8541582,0.57050556,1.6097171,1.2667183,0.03999989,0.04,-9.565317,2.184579849243164,-0.26925603,-0.0032318826,-0.006474992260336876,0.0043456433
1123.1499999993073,0.62432045,-1.3421589,0.36789012,-2.854213,0.57056725,1.6097218,1.2667705,0.03999989,0.04,-9.564788,2.1849465370178223,-0.26999125,-0.0031996998,-0.006537306122481823,0.0042508165
1123.166666665974,0.6243825,-1.342215,0.36792672,-2.854261,0.57062465,1.6097262,1.2668183,0.039999895,0.04,-9.564465,2.185309410095215,-0.27061653,-0.003172996,-0.006596715655177832,0.004167058
1123.1833333326406,0.6244393,-1.3422664,0.36796042,-2.854308,0.5706767,1.6097305,1.2668623,0.039999887,0.04,-9.563657,2.1854400634765625,-0.27112797,-0.0031413478,-0.006641899701207876,0.004082471
1123.1999999993072,0.62449193,-1.3423138,0.36799148,-2.8543487,0.57072467,1.6097345,1.2669028,0.039999887,0.04,-9.563607,2.1858911514282227,-0.2717369,-0.0031207288,-0.006691366899758577,0.0040101474
1123.216666665974,0.6245403,-1.3423573,0.36802024,-2.8543882,0.57076883,1.6097385,1.2669407,0.039999887,0.04,-9.562916,2.1859641075134277,-0.27214795,-0.0030942038,-0.006728452630341053,0.0039399783
1123.2333333326405,0.62458485,-1.3423975,0.36804655,-2.8544235,0.5708097,1.60974,1.2669753,0.039999887,0.04,-9.56284,2.1863081455230713,-0.27262414,-0.0030778055,-0.0067685856483876705,0.0038805068
1123.2499999993072,0.62462574,-1.3424343,0.36807075,-2.8544555,0.5708477,1.6097413,1.2670064,0.039999887,0.04,-9.562394,2.1864559650421143,-0.27297896,-0.00305857,-0.006810304243117571,0.0038253784
1123.2666666659738,0.62466353,-1.3424681,0.368093,-2.8544872,0.5708822,1.6097426,1.2670357,0.03999989,0.04,-9.562047,2.186605453491211,-0.27335393,-0.003036975,-0.006848679389804602,0.0037727775
1123.2833333326405,0.62469804,-1.3424994,0.36811346,-2.8545144,0.5709142,1.609744,1.2670627,0.03999989,0.04,-9.562059,2.1869137287139893,-0.27376592,-0.0030253127,-0.006890987046062946,0.0037302864
1123.2999999993071,0.62473005,-1.3425281,0.3681323,-2.8545387,0.57094353,1.6097453,1.2670869,0.03999989,0.04,-9.561536,2.186932325363159,-0.27406982,-0.003010586,-0.0069226413033902645,0.0036849638
1123.3166666659738,0.6247593,-1.3425545,0.36814976,-2.8545628,0.5709706,1.6097466,1.26711,0.03999989,0.04,-9.561251,2.187033176422119,-0.27431056,-0.0029914163,-0.006948734633624554,0.0036439057
1123.3333333326404,0.624786,-1.3425786,0.36816567,-2.8545854,0.57099533,1.6097479,1.2671304,0.03999989,0.04,-9.561227,2.1872730255126953,-0.2746791,-0.0029827955,-0.006978512741625309,0.0036088468
1123.349999999307,0.6248106,-1.3426012,0.36818042,-2.854605,0.5710181,1.6097492,1.2671497,0.03999989,0.04,-9.561082,2.187427043914795,-0.2749557,-0.0029732105,-0.007006922736763954,0.003577274
1123.3666666659738,0.62483317,-1.3426217,0.36819392,-2.8546224,0.5710391,1.6097505,1.2671679,0.03999989,0.04,-9.560723,2.187450408935547,-0.27515128,-0.002963343,-0.0070269969291985035,0.0035455439
1123.3833333326404,0.62485385,-1.3426408,0.36820635,-2.854639,0.5710585,1.6097518,1.2671834,0.03999989,0.04,-9.5605135,2.1875076293945312,-0.2753397,-0.002955368,-0.007044346537441015,0.0035143225
1123.399999999307,0.6248731,-1.342658,0.3682178,-2.8546555,0.5710764,1.6097531,1.2671986,0.039999887,0.04,-9.560416,2.18766450881958,-0.27556026,-0.0029440129,-0.0070609599351882935,0.0034879209
1123.4166666659737,0.6248912,-1.3426738,0.36822835,-2.8546708,0.5710928,1.6097543,1.2672131,0.03999989,0.04,-9.560425,2.1877968311309814,-0.2757634,-0.0029396662,-0.007081340532749891,0.0034638315
1123.4333333326404,0.62490773,-1.3426888,0.36823803,-2.8546836,0.5711079,1.6097554,1.2672248,0.03999989,0.04,-9.560301,2.1878676414489746,-0.2759368,-0.0029370876,-0.0071014040149748325,0.0034432912
1123.449999999307,0.62492263,-1.3427023,0.36824694,-2.8546953,0.57112193,1.6097565,1.2672365,0.03999989,0.04,-9.560021,2.1878719329833984,-0.27602375,-0.0029242425,-0.007113590370863676,0.0034209753
1123.4666666659737,0.6249369,-1.3427142,0.36825517,-2.8547058,0.5711346,1.6097574,1.2672478,0.03999989,0.04,-9.5599,2.1879348754882812,-0.27620083,-0.002917926,-0.0071253483183681965,0.0034001993
1123.4833333326403,0.6249496,-1.3427259,0.36826265,-2.854715,0.5711465,1.6097583,1.2672584,0.03999989,0.04,-9.559814,2.18796968460083,-0.2763067,-0.002912166,-0.007137306034564972,0.0033830921
1123.499999999307,0.6249611,-1.3427367,0.3682696,-2.8547242,0.5711572,1.6097591,1.2672663,0.03999989,0.04,-9.379699,2.1382265090942383,-0.23327667,0.0,-0.0,0.0
1123.5166666659736,0.6249611,-1.3427367,0.3682696,-2.8547242,0.5711572,1.6097591,1.2672663,0.03999989,0.04,-9.558777,2.188347339630127,-0.27754948,0.0,-0.0,0.0
1123.5333333326403,0.6249611,-1.3427367,0.3682696,-2.8547242,0.5711572,1.6097591,1.2672663,0.03999989,0.04,-9.558777,2.188347339630127,-0.27754948,0.0,-0.0,0.0
1123.549999999307,0.6249611,-1.3427367,0.3682696,-2.8547242,0.5711572,1.6097591,1.2672663,0.03999989,0.04,-9.558777,2.188347339630127,-0.27754948,0.0,-0.0,0.0
1123.5666666659736,0.6249611,-1.3427367,0.3682696,-2.8547242,0.5711572,1.6097591,1.2672663,0.03999989,0.04,-9.558777,2.188347339630127,-0.27754948,0.0,-0.0,0.0
1123.5833333326402,0.6249611,-1.3427367,0.3682696,-2.8547242,0.5711572,1.6097591,1.2672663,0.03999989,0.04,-9.558777,2.188347339630127,-0.27754948,0.0,-0.0,0.0
1123.5999999993069,0.6249611,-1.3427367,0.3682696,-2.8547242,0.5711572,1.6097591,1.2672663,0.03999989,0.04,-9.558777,2.188347339630127,-0.27754948,0.0,-0.0,0.0
1123.6166666659735,0.6249611,-1.3427367,0.3682696,-2.8547242,0.5711572,1.6097591,1.2672663,0.03999989,0.04,-9.558777,2.188347339630127,-0.27754948,0.0,-0.0,0.0
1123.6333333326402,0.6249611,-1.3427367,0.3682696,-2.8547242,0.5711572,1.6097591,1.2672663,0.03999989,0.04,-9.558777,2.188347339630127,-0.27754948,0.0,-0.0,0.0
1123.6499999993068,0.6249611,-1.3427367,0.3682696,-2.8547242,0.5711572,1.6097591,1.2672663,0.03999989,0.04,-9.558777,2.188347339630127,-0.27754948,0.0,-0.0,0.0
1123.6666666659735,0.6249611,-1.3427367,0.3682696,-2.8547242,0.5711572,1.6097591,1.2672663,0.03999989,0.04,-9.558777,2.188347339630127,-0.27754948,0.0,-0.0,0.0
1123.6833333326401,0.6249611,-1.3427367,0.3682696,-2.8547242,0.5711572,1.6097591,1.2672663,0.03999989,0.04,-9.558777,2.188347339630127,-0.27754948,0.0,-0.0,0.0
1123.6999999993068,0.6249611,-1.3427367,0.3682696,-2.8547242,0.5711572,1.6097591,1.2672663,0.03999989,0.04,-9.558777,2.188347339630127,-0.27754948,0.0,-0.0,0.0
1123.7166666659734,0.6249611,-1.3427367,0.3682696,-2.8547242,0.5711572,1.6097591,1.2672663,0.03999989,0.04,-9.558777,2.188347339630127,-0.27754948,0.0,-0.0,0.0
1123.73333333264,0.6249611,-1.3427367,0.3682696,-2.8547242,0.5711572,1.6097591,1.2672663,0.03999989,0.04,-9.558777,2.188347339630127,-0.27754948,0.0,-0.0,0.0
1123.7499999993067,0.6249611,-1.3427367,0.3682696,-2.8547242,0.5711572,1.6097591,1.2672663,0.03999989,0.04,-9.558777,2.188347339630127,-0.27754948,0.0,-0.0,0.0
1123.7666666659734,0.6249611,-1.3427367,0.3682696,-2.8547242,0.5711572,1.6097591,1.2672663,0.03999989,0.04,-9.558777,2.188347339630127,-0.27754948,0.0,-0.0,0.0
1123.78333333264,0.6249611,-1.3427367,0.3682696,-2.8547242,0.5711572,1.6097591,1.2672663,0.03999989,0.04,-9.558777,2.188347339630127,-0.27754948,0.0,-0.0,0.0
1123.7999999993067,0.6249611,-1.3427367,0.3682696,-2.8547242,0.5711572,1.6097591,1.2672663,0.03999989,0.04,-9.558777,2.188347339630127,-0.27754948,0.0,-0.0,0.0
1123.8166666659733,0.6249611,-1.3427367,0.3682696,-2.8547242,0.5711572,1.6097591,1.2672663,0.03999989,0.04,-9.558777,2.188347339630127,-0.27754948,0.0,-0.0,0.0
1123.83333333264,0.6249611,-1.3427367,0.3682696,-2.8547242,0.5711572,1.6097591,1.2672663,0.03999989,0.04,-9.558777,2.188347339630127,-0.27754948,0.0,-0.0,0.0
1123.8499999993066,0.6249611,-1.3427367,0.3682696,-2.8547242,0.5711572,1.6097591,1.2672663,0.03999989,0.04,-9.558777,2.188347339630127,-0.27754948,0.0,-0.0,0.0
1123.8666666659733,0.6249611,-1.3427367,0.3682696,-2.8547242,0.5711572,1.6097591,1.2672663,0.03999989,0.04,-9.558777,2.188347339630127,-0.27754948,0.0,-0.0,0.0
1123.88333333264,0.6249611,-1.3427367,0.3682696,-2.8547242,0.5711572,1.6097591,1.2672663,0.03999989,0.04,-9.558777,2.188347339630127,-0.27754948,0.0,-0.0,0.0
1123.8999999993066,0.6249611,-1.3427367,0.3682696,-2.8547242,0.5711572,1.6097591,1.2672663,0.03999989,0.04,-9.558777,2.188347339630127,-0.27754948,0.0,-0.0,0.0
1123.9166666659733,0.6249611,-1.3427367,0.3682696,-2.8547242,0.5711572,1.6097591,1.2672663,0.03999989,0.04,-9.558777,2.188347339630127,-0.27754948,0.0,-0.0,0.0
1123.93333333264,0.6249611,-1.3427367,0.3682696,-2.8547242,0.5711572,1.6097591,1.2672663,0.03999989,0.04,-9.558777,2.188347339630127,-0.27754948,0.0,-0.0,0.0
1123.9499999993066,0.6249611,-1.3427367,0.3682696,-2.8547242,0.5711572,1.6097591,1.2672663,0.03999989,0.04,-9.558777,2.188347339630127,-0.27754948,0.0,-0.0,0.0
1123.9666666659732,0.6249611,-1.3427367,0.3682696,-2.8547242,0.5711572,1.6097591,1.2672663,0.03999989,0.04,-9.558777,2.188347339630127,-0.27754948,0.0,-0.0,0.0
1123.9833333326399,0.6249611,-1.3427367,0.3682696,-2.8547242,0.5711572,1.6097591,1.2672663,0.03999989,0.04,-9.558777,2.188347339630127,-0.27754948,0.0,-0.0,0.0
1123.9999999993065,0.6249611,-1.3427367,0.3682696,-2.8547242,0.5711572,1.6097591,1.2672663,0.03999989,0.04,-9.558777,2.188347339630127,-0.27754948,0.0,-0.0,0.0
1124.0166666659732,0.6249611,-1.3427367,0.3682696,-2.8547242,0.5711572,1.6097591,1.2672663,0.03999989,0.04,-9.558777,2.188347339630127,-0.27754948,0.0,-0.0,0.0
1124.0333333326398,0.6249611,-1.3427367,0.3682696,-2.8547242,0.5711572,1.6097591,1.2672663,0.03999989,0.04,-9.558777,2.188347339630127,-0.27754948,0.0,-0.0,0.0
1124.0499999993065,0.6249611,-1.3427367,0.3682696,-2.8547242,0.5711572,1.6097591,1.2672663,0.03999989,0.04,-9.558777,2.188347339630127,-0.27754948,0.0,-0.0,0.0
1124.0666666659731,0.6249611,-1.3427367,0.3682696,-2.8547242,0.5711572,1.6097591,1.2672663,0.03999989,0.04,-9.558777,2.188347339630127,-0.27754948,0.0,-0.0,0.0
1124.0833333326398,0.6249611,-1.3427367,0.3682696,-2.8547242,0.5711572,1.6097591,1.2672663,0.03999989,0.04,-9.558777,2.188347339630127,-0.27754948,0.0,-0.0,0.0
1124.0999999993064,0.6249611,-1.3427367,0.3682696,-2.8547242,0.5711572,1.6097591,1.2672663,0.03999989,0.04,-9.558777,2.188347339630127,-0.27754948,0.0,-0.0,0.0
1124.116666665973,0.6249611,-1.3427367,0.3682696,-2.8547242,0.5711572,1.6097591,1.2672663,0.03999989,0.04,-9.558777,2.188347339630127,-0.27754948,0.0,-0.0,0.0
1124.1333333326397,0.6249611,-1.3427367,0.3682696,-2.8547242,0.5711572,1.6097591,1.2672663,0.03999989,0.04,-9.558777,2.188347339630127,-0.27754948,0.0,-0.0,0.0
1124.1499999993064,0.6249611,-1.3427367,0.3682696,-2.8547242,0.5711572,1.6097591,1.2672663,0.03999989,0.04,-9.558777,2.188347339630127,-0.27754948,0.0,-0.0,0.0
1124.166666665973,0.6249611,-1.3427367,0.3682696,-2.8547242,0.5711572,1.6097591,1.2672663,0.03999989,0.04,-9.558777,2.188347339630127,-0.27754948,0.0,-0.0,0.0
1124.1833333326397,0.6249611,-1.3427367,0.3682696,-2.8547242,0.5711572,1.6097591,1.2672663,0.03999989,0.04,-9.558777,2.188347339630127,-0.27754948,0.0,-0.0,0.0
1124.1999999993063,0.6249611,-1.3427367,0.3682696,-2.8547242,0.5711572,1.6097591,1.2672663,0.03999989,0.04,-9.558777,2.188347339630127,-0.27754948,0.0,-0.0,0.0
1124.216666665973,0.6249611,-1.3427367,0.3682696,-2.8547242,0.5711572,1.6097591,1.2672663,0.03999989,0.04,-9.558777,2.188347339630127,-0.27754948,0.0,-0.0,0.0
1124.2333333326396,0.6249611,-1.3427367,0.3682696,-2.8547242,0.5711572,1.6097591,1.2672663,0.03999989,0.04,-9.558777,2.188347339630127,-0.27754948,0.0,-0.0,0.0
1124.2499999993063,0.6249611,-1.3427367,0.3682696,-2.8547242,0.5711572,1.6097591,1.2672663,0.03999989,0.04,-9.558777,2.188347339630127,-0.27754948,0.0,-0.0,0.0
1124.266666665973,0.6249611,-1.3427367,0.3682696,-2.8547242,0.5711572,1.6097591,1.2672663,0.03999989,0.04,-9.558777,2.188347339630127,-0.27754948,0.0,-0.0,0.0
1124.2833333326396,0.6249611,-1.3427367,0.3682696,-2.8547242,0.5711572,1.6097591,1.2672663,0.03999989,0.04,-9.558777,2.188347339630127,-0.27754948,0.0,-0.0,0.0
1124.2999999993062,0.6249611,-1.3427367,0.3682696,-2.8547242,0.5711572,1.6097591,1.2672663,0.03999989,0.04,-9.558777,2.188347339630127,-0.27754948,0.0,-0.0,0.0
1124.316666665973,0.6249611,-1.3427367,0.3682696,-2.8547242,0.5711572,1.6097591,1.2672663,0.03999989,0.04,-9.558777,2.188347339630127,-0.27754948,0.0,-0.0,0.0
1124.3333333326395,0.6249611,-1.3427367,0.3682696,-2.8547242,0.5711572,1.6097591,1.2672663,0.03999989,0.04,-9.558777,2.188347339630127,-0.27754948,0.0,-0.0,0.0
1124.3499999993062,0.6249611,-1.3427367,0.3682696,-2.8547242,0.5711572,1.6097591,1.2672663,0.03999989,0.04,-9.558777,2.188347339630127,-0.27754948,0.0,-0.0,0.0
1124.3666666659728,0.6249611,-1.3427367,0.3682696,-2.8547242,0.5711572,1.6097591,1.2672663,0.03999989,0.04,-9.558777,2.188347339630127,-0.27754948,0.0,-0.0,0.0
1124.3833333326395,0.6249611,-1.3427367,0.3682696,-2.8547242,0.5711572,1.6097591,1.2672663,0.03999989,0.04,-9.558777,2.188347339630127,-0.27754948,0.0,-0.0,0.0
1124.3999999993061,0.6249611,-1.3427367,0.3682696,-2.8547242,0.5711572,1.6097591,1.2672663,0.03999989,0.04,-9.558777,2.188347339630127,-0.27754948,0.0,-0.0,0.0
1124.4166666659728,0.6249611,-1.3427367,0.3682696,-2.8547242,0.5711572,1.6097591,1.2672663,0.03999989,0.04,-9.558777,2.188347339630127,-0.27754948,0.0,-0.0,0.0
1124.4333333326394,0.6249611,-1.3427367,0.3682696,-2.8547242,0.5711572,1.6097591,1.2672663,0.03999989,0.04,-9.558777,2.188347339630127,-0.27754948,0.0,-0.0,0.0
1124.449999999306,0.6249611,-1.3427367,0.3682696,-2.8547242,0.5711572,1.6097591,1.2672663,0.03999989,0.04,-9.558777,2.188347339630127,-0.27754948,0.0,-0.0,0.0
1124.4666666659728,0.6249611,-1.3427367,0.3682696,-2.8547242,0.5711572,1.6097591,1.2672663,0.03999989,0.04,-9.558777,2.188347339630127,-0.27754948,0.0,-0.0,0.0
1124.4833333326394,0.6249611,-1.3427367,0.3682696,-2.8547242,0.5711572,1.6097591,1.2672663,0.03999989,0.04,-9.558777,2.188347339630127,-0.27754948,0.0,-0.0,0.0
1124.499999999306,0.6249611,-1.3427367,0.3682696,-2.8547242,0.5711572,1.6097591,1.2672663,0.03999989,0.04,-9.558777,2.188347339630127,-0.27754948,0.0,-0.0,0.0
1124.5166666659727,0.6249611,-1.3427367,0.3682696,-2.8547242,0.5711572,1.6097591,1.2672663,0.03999989,0.04,-9.558777,2.188347339630127,-0.27754948,0.0,-0.0,0.0
1124.5333333326394,0.6249611,-1.3427367,0.3682696,-2.8547242,0.5711572,1.6097591,1.2672663,0.03999989,0.04,-9.558777,2.188347339630127,-0.27754948,0.0,-0.0,0.0
1124.549999999306,0.6249611,-1.3427367,0.3682696,-2.8547242,0.5711572,1.6097591,1.2672663,0.03999989,0.04,-9.558777,2.188347339630127,-0.27754948,0.0,-0.0,0.0
1124.5666666659727,0.6249611,-1.3427367,0.3682696,-2.8547242,0.5711572,1.6097591,1.2672663,0.03999989,0.04,-9.558777,2.188347339630127,-0.27754948,0.0,-0.0,0.0
1124.5833333326393,0.6249611,-1.3427367,0.3682696,-2.8547242,0.5711572,1.6097591,1.2672663,0.03999989,0.04,-9.558777,2.188347339630127,-0.27754948,0.0,-0.0,0.0
1124.599999999306,0.6249611,-1.3427367,0.3682696,-2.8547242,0.5711572,1.6097591,1.2672663,0.03999989,0.04,-9.558777,2.188347339630127,-0.27754948,0.0,-0.0,0.0
1124.6166666659726,0.6249611,-1.3427367,0.3682696,-2.8547242,0.5711572,1.6097591,1.2672663,0.03999989,0.04,-9.558777,2.188347339630127,-0.27754948,0.0,-0.0,0.0
1124.6333333326393,0.6249611,-1.3427367,0.3682696,-2.8547242,0.5711572,1.6097591,1.2672663,0.03999989,0.04,-9.558777,2.188347339630127,-0.27754948,0.0,-0.0,0.0
1124.649999999306,0.6249611,-1.3427367,0.3682696,-2.8547242,0.5711572,1.6097591,1.2672663,0.03999989,0.04,-9.558777,2.188347339630127,-0.27754948,0.0,-0.0,0.0
1124.6666666659726,0.6249611,-1.3427367,0.3682696,-2.8547242,0.5711572,1.6097591,1.2672663,0.03999989,0.04,-9.558777,2.188347339630127,-0.27754948,0.0,-0.0,0.0
1124.6833333326392,0.6249611,-1.3427367,0.3682696,-2.8547242,0.5711572,1.6097591,1.2672663,0.03999989,0.04,-9.558777,2.188347339630127,-0.27754948,0.0,-0.0,0.0
1124.6999999993059,0.6249611,-1.3427367,0.3682696,-2.8547242,0.5711572,1.6097591,1.2672663,0.03999989,0.04,-9.558777,2.188347339630127,-0.27754948,0.0,-0.0,0.0
1124.7166666659725,0.6249611,-1.3427367,0.3682696,-2.8547242,0.5711572,1.6097591,1.2672663,0.03999989,0.04,-9.558777,2.188347339630127,-0.27754948,0.0,-0.0,0.0
1124.7333333326392,0.6249611,-1.3427367,0.3682696,-2.8547242,0.5711572,1.6097591,1.2672663,0.03999989,0.04,-9.558777,2.188347339630127,-0.27754948,0.0,-0.0,0.0
1124.7499999993058,0.6249611,-1.3427367,0.3682696,-2.8547242,0.5711572,1.6097591,1.2672663,0.03999989,0.04,-9.558777,2.188347339630127,-0.27754948,0.0,-0.0,0.0
1124.7666666659725,0.6249611,-1.3427367,0.3682696,-2.8547242,0.5711572,1.6097591,1.2672663,0.03999989,0.04,-9.558777,2.188347339630127,-0.27754948,0.0,-0.0,0.0
1124.7833333326391,0.6249611,-1.3427367,0.3682696,-2.8547242,0.5711572,1.6097591,1.2672663,0.03999989,0.04,-9.558777,2.188347339630127,-0.27754948,0.0,-0.0,0.0
1124.7999999993058,0.6249611,-1.3427367,0.3682696,-2.8547242,0.5711572,1.6097591,1.2672663,0.03999989,0.04,-9.558777,2.188347339630127,-0.27754948,0.0,-0.0,0.0
1124.8166666659724,0.6249611,-1.3427367,0.3682696,-2.8547242,0.5711572,1.6097591,1.2672663,0.03999989,0.04,-9.558777,2.188347339630127,-0.27754948,0.0,-0.0,0.0
1124.833333332639,0.6249611,-1.3427367,0.3682696,-2.8547242,0.5711572,1.6097591,1.2672663,0.03999989,0.04,-9.558777,2.188347339630127,-0.27754948,0.0,-0.0,0.0
1124.8499999993057,0.6249611,-1.3427367,0.3682696,-2.8547242,0.5711572,1.6097591,1.2672663,0.03999989,0.04,-9.558777,2.188347339630127,-0.27754948,0.0,-0.0,0.0
1124.8666666659724,0.6249611,-1.3427367,0.3682696,-2.8547242,0.5711572,1.6097591,1.2672663,0.03999989,0.04,-9.558777,2.188347339630127,-0.27754948,0.0,-0.0,0.0
1124.883333332639,0.6249611,-1.3427367,0.3682696,-2.8547242,0.5711572,1.6097591,1.2672663,0.03999989,0.04,-9.558777,2.188347339630127,-0.27754948,0.0,-0.0,0.0
1124.8999999993057,0.6249611,-1.3427367,0.3682696,-2.8547242,0.5711572,1.6097591,1.2672663,0.03999989,0.04,-9.558777,2.188347339630127,-0.27754948,0.0,-0.0,0.0
1124.9166666659723,0.6249611,-1.3427367,0.3682696,-2.8547242,0.5711572,1.6097591,1.2672663,0.03999989,0.04,-9.558777,2.188347339630127,-0.27754948,0.0,-0.0,0.0
1124.933333332639,0.6249611,-1.3427367,0.3682696,-2.8547242,0.5711572,1.6097591,1.2672663,0.03999989,0.04,-9.558777,2.188347339630127,-0.27754948,0.0,-0.0,0.0
1124.9499999993056,0.6249611,-1.3427367,0.3682696,-2.8547242,0.5711572,1.6097591,1.2672663,0.03999989,0.04,-9.558777,2.188347339630127,-0.27754948,0.0,-0.0,0.0
1124.9666666659723,0.6249611,-1.3427367,0.3682696,-2.8547242,0.5711572,1.6097591,1.2672663,0.03999989,0.04,-9.558777,2.188347339630127,-0.27754948,0.0,-0.0,0.0
1124.983333332639,0.6249611,-1.3427367,0.3682696,-2.8547242,0.5711572,1.6097591,1.2672663,0.03999989,0.04,-9.558777,2.188347339630127,-0.27754948,0.0,-0.0,0.0
1124.9999999993056,0.6249611,-1.3427367,0.3682696,-2.8547242,0.5711572,1.6097591,1.2672663,0.03999989,0.04,-9.558777,2.188347339630127,-0.27754948,0.0,-0.0,0.0
1125.0166666659723,0.6249611,-1.3427367,0.3682696,-2.8547242,0.5711572,1.6097591,1.2672663,0.03999989,0.04,-9.558777,2.188347339630127,-0.27754948,0.0,-0.0,0.0
1125.033333332639,0.6249611,-1.3427367,0.3682696,-2.8547242,0.5711572,1.6097591,1.2672663,0.03999989,0.04,-9.558777,2.188347339630127,-0.27754948,0.0,-0.0,0.0
1125.0499999993056,0.6249611,-1.3427367,0.3682696,-2.8547242,0.5711572,1.6097591,1.2672663,0.03999989,0.04,-9.558777,2.188347339630127,-0.27754948,0.0,-0.0,0.0
1125.0666666659722,0.6249611,-1.3427367,0.3682696,-2.8547242,0.5711572,1.6097591,1.2672663,0.03999989,0.04,-9.558777,2.188347339630127,-0.27754948,0.0,-0.0,0.0
1125.0833333326389,0.6249611,-1.3427367,0.3682696,-2.8547242,0.5711572,1.6097591,1.2672663,0.03999989,0.04,-9.558777,2.188347339630127,-0.27754948,0.0,-0.0,0.0
1125.0999999993055,0.6249611,-1.3427367,0.3682696,-2.8547242,0.5711572,1.6097591,1.2672663,0.03999989,0.04,-9.558777,2.188347339630127,-0.27754948,0.0,-0.0,0.0
