rsonawane2002/My_IMU/logs_2/traj_274/clean_274.csv
time,j1,j2,j3,j4,j5,j6,j7,gripper1,gripper2,imu_ax,imu_ay,imu_az,imu_gx,imu_gy,imu_gz,quat_x,quat_y,quat_z,quat_w
255.18333333342855,0.00016700293,-0.785875,4.0107683e-05,-2.3551247,9.29385e-05,1.570997,0.786,0.04,0.04,0.0,-0.0,0.0,2.875329272945135e-08,-0.0011641195053377316,4.421952117202833e-08,0.9999995971961153,0.00020320632366974898,0.0008736418299892524,3.263050917662294e-05
255.20000000009523,0.00016700447,-0.78576016,4.0123974e-05,-2.3552213,9.29799e-05,1.5709941,0.786,0.04,0.04,-0.2919984605147752,-4.931145761321752e-05,0.02012840527314541,-2.005206890960291e-08,-0.0022387072939504837,4.2387288354264403e-08,0.9999996850593308,0.00020320453405204625,0.000766502518756317,3.2604377823627055e-05
255.2166666667619,0.00016699736,-0.7856543,4.0204366e-05,-2.35531,9.3059236e-05,1.5709913,0.786,0.04,0.04,0.023328721857884815,-9.473105756334105e-05,-0.001670455926383596,-7.505762717470327e-07,-0.003231334927033236,-2.0835704932205456e-07,0.9999997558508572,0.00020318400841549372,0.0006677972537060336,3.257779162026788e-05
255.2333333334286,0.0001669703,-0.78555703,4.045539e-05,-2.355391,9.3243856e-05,1.5709884,0.786,0.04,0.04,0.022460737476914794,-0.00025845630327590613,-0.0015249506547521108,-2.674934635573221e-06,-0.004149794848265047,-9.399419496324199e-07,0.9999998122640658,0.0002031127111278575,0.0005771982116027139,3.254664883339969e-05
255.25000000009527,0.00016690875,-0.7854678,4.1029987e-05,-2.3554652,9.363171e-05,1.5709856,0.786,0.04,0.04,0.020650690896295565,-0.0004961463267422574,-0.001526785329364344,-6.116354105675721e-06,-0.005001394541473046,-2.345606790597981e-06,0.9999998568212789,0.00020294385650622326,0.0004940795448387886,3.250563232367983e-05
255.26666666676195,0.00016679504,-0.78538626,4.2122756e-05,-2.355532,9.434633e-05,1.5709827,0.786,0.04,0.04,0.0210646802219161,-0.0007988577883173719,-0.0010995518319845132,-1.122803296289553e-05,-0.005791678939491683,-4.628838054498265e-06,0.9999998913751685,0.00020261743493596587,0.0004185008583096526,3.244777062228366e-05
255.28333333342863,0.0001666091,-0.785312,4.3965654e-05,-2.3555968,9.553359e-05,1.5709798,0.786,0.04,0.04,0.01128254060758227,-0.0011588197162498118,-0.0033053022730822335,-1.8280602457137693e-05,-0.006526073901199684,-7.947009905741724e-06,0.9999999186796688,0.0002020616352724095,0.00034751172209261807,3.236285561674109e-05
255.3000000000953,0.00016632833,-0.7852449,4.6824287e-05,-2.355655,9.737027e-05,1.570977,0.7860019,0.04,0.039999995,0.019254516874300798,-0.0015801662579981732,-0.0010984351108689339,-2.6851531770717295e-05,-0.007230320527668969,-1.16800313459606e-05,0.9999999388801223,0.0002021473580085192,0.0002834366825211814,3.2246615072449796e-05
255.316666666762,0.00016592826,-0.78518426,5.099438e-05,-2.355707,0.00010002429,1.5709741,0.7860038,0.04,0.04,0.01771849663050329,-0.0020277134807207575,-0.0009323371027214478,-4.570726162929119e-05,-0.007886758311608346,-1.830009839091511e-05,0.9999999536457085,0.00020182863516087936,0.00022570952682724268,3.207791514069678e-05
255.33333333342867,0.00016538204,-0.7851305,5.679799e-05,-2.355757,0.00010370886,1.5709713,0.78600574,0.04,0.04,0.010819870384648489,-0.0025368030068873668,-0.0030505058397301,-6.594511193271324e-05,-0.008501531809314304,-2.5544278651731963e-05,0.999999964436739,0.00020100515443064487,0.0001723632940244391,3.184875866043519e-05
255.35000000009535,0.00016466145,-0.78508323,6.458073e-05,-2.3558016,0.000108650296,1.5709684,0.78600955,0.04,0.039999995,0.016501765790022382,-0.003083194636365605,-0.001241810026408885,-8.705189025282029e-05,-0.009097183137397926,-3.3554071921644026e-05,0.9999999715842437,0.0002005223967087973,0.00012500726799503513,3.155096401640219e-05
255.36666666676203,0.00016373703,-0.7850424,7.470956e-05,-2.3558445,0.000115060815,1.5709655,0.78601336,0.04,0.04,0.009952767095078308,-0.003641661286945554,-0.0029127133932771443,-0.00011745753675729064,-0.009659710119163835,-4.475615844599766e-05,0.9999999763141247,0.00019931184370749943,8.170431804854883e-05,3.115996650608464e-05
255.3833333334287,0.00016257765,-0.78500813,8.756927e-05,-2.3558848,0.00012318451,1.5709627,0.7860191,0.04,0.04,0.01170480389531825,-0.004243846635356233,-0.002549939468776685,-0.00014795006900047964,-0.010208187808942016,-5.81851991184112e-05,0.9999999789628687,0.0001982066758709008,4.299083504799125e-05,3.0662091666233434e-05
255.4000000000954,0.00016115089,-0.7849804,0.00010356035,-2.3559203,0.0001332821,1.5709598,0.78602666,0.039999995,0.04,0.015350541729741707,-0.00487585817293982,-0.001584976254043191,-0.00018651057150785892,-0.010740470086464636,-7.223115805484457e-05,0.9999999800845317,0.00019705163191272102,9.939672740449886e-06,3.0046521906839133e-05
255.41666666676207,0.00015942374,-0.78495926,0.0001230975,-2.3559551,0.00014561418,1.570957,0.78603476,0.03999999,0.04,0.008462635278538855,-0.005522551949024807,-0.003399748149801596,-0.00023225768142315562,-0.011248566434339724,-8.793929757658933e-05,0.9999999803567857,0.00019506118229931004,-1.947574763660853e-05,2.9296053352880055e-05
255.43333333342875,0.00015736207,-0.7849449,0.00014660685,-2.3559883,0.00016044901,1.5709541,0.7860444,0.039999988,0.039999995,0.010346144194572915,-0.006188177098027641,-0.0031055401912061242,-0.0002787602906596443,-0.011753235478519097,-0.00010545133914944161,0.9999999800506505,0.00019260838645009058,-4.4659450725530074e-05,2.839439352028422e-05
255.45000000009543,0.00015493127,-0.7849373,0.00017452457,-2.356018,0.00017806058,1.5709512,0.78605616,0.039999984,0.039999995,0.01318124116216346,-0.006869787484856856,-0.0023554665532055097,-0.00032939105151556217,-0.0122490817332748,-0.00012573912650781652,0.9999999795119783,0.0001898244975627771,-6.477705267475316e-05,2.73246494889321e-05
255.4666666667621,0.00015209593,-0.7849369,0.00020729523,-2.3560457,0.00019872971,1.5709484,0.78607017,0.03999998,0.03999999,0.011549961491219563,-0.007564701636239211,-0.0030915896578775914,-0.00038663688032006705,-0.012732674138444965,-0.00014712358038043672,0.9999999790195845,0.00018665956978936875,-8.024588393907564e-05,2.6069786081029947e-05
255.4833333334288,0.00014882018,-0.78494376,0.00024537003,-2.356073,0.00022273975,1.5709455,0.7860867,0.039999977,0.039999988,0.008844821444253803,-0.008268421996477,-0.003907440849881816,-0.00044990810349896,-0.013208046079290714,-0.0001704894749025613,0.9999999787185201,0.00018309144874339045,-9.184092951677156e-05,2.461147340640966e-05
255.50000000009547,0.0001450679,-0.784958,0.00028920564,-2.3560996,0.0002503777,1.5709425,0.7861057,0.03999997,0.039999984,0.008937521508278756,-0.008981520663512545,-0.004063878116622455,-0.0005193957795750282,-0.013684991640820968,-0.00019672222322066383,0.9999999787643835,0.00017897685438156473,-9.956234254132195e-05,2.2931597984448198e-05
255.51666666676215,0.00014080254,-0.78498006,0.0003392625,-2.3561263,0.00028193442,1.5709395,0.78612715,0.03999996,0.039999977,0.00862456575876358,-0.009701207099370125,-0.004425687077014295,-0.000594962023130668,-0.014165059679617772,-0.00022412306781784542,0.999999979272811,0.0001741416616354507,-0.00010338051093288068,2.101259477170003e-05
255.53333333342883,0.00013598734,-0.78501004,0.00039600415,-2.3561509,0.00031770108,1.5709363,0.78615147,0.039999947,0.03999996,0.012324821863085589,-0.01042591681397196,-0.003708934688373411,-0.0006747848748817785,-0.014648937480035894,-0.0002535587704293515,0.9999999803705302,0.00016864886135905787,-0.0001022823940046749,1.8836473497015977e-05
255.5500000000955,0.00013058557,-0.7850482,0.00045989596,-2.3561742,0.00035797065,1.5709325,0.7861789,0.039999936,0.03999995,0.010852264211469453,-0.011152617069597796,-0.004539939321479558,-0.0007600144423922548,-0.015129335901787479,-0.00028504781265737897,0.9999999819816661,0.00016247171620563963,-9.680471832259345e-05,1.6384607957336466e-05
255.5666666667622,0.0001245604,-0.7850949,0.0005314042,-2.3561969,0.00040303572,1.5709258,0.78620964,0.039999932,0.03999995,0.009783058098022934,-0.01187928404217708,-0.006680231797129288,-0.0008509458760551792,-0.015612295934498113,-0.0003194582188259551,0.9999999839222495,0.000155583203049382,-8.811011418406777e-05,1.363728344102546e-05
255.58333333342887,0.00011787491,-0.78515035,0.0006109945,-2.3562193,0.00045319018,1.5709192,0.7862437,0.039999932,0.039999954,0.010007128622357975,-0.012607527098871859,-0.004832268294907571,-0.00094783931825492,-0.016111187518921388,-0.0003559293783707519,0.9999999862119573,0.00014780769105113064,-7.494728565502111e-05,1.0577149595859746e-05
255.60000000009555,0.00011049227,-0.78521496,0.0006991328,-2.3562415,0.0005087272,1.5709125,0.78628135,0.039999932,0.039999954,0.010530097878458378,-0.013335202782271665,-0.005105649091108333,-0.0010492804047564702,-0.016614455683371172,-0.00039360657100494115,0.9999999886599734,0.0001391779012145952,-5.707828894165449e-05,7.185660059871534e-06
255.61666666676223,0.00010237597,-0.7852891,0.000796282,-2.3562636,0.0005699373,1.5709057,0.78632295,0.03999994,0.039999966,0.010477788396312526,-0.014057304509542444,-0.005508127452347189,-0.0011560154820057641,-0.017122906496288517,-0.00043420455302448134,0.9999999909880659,0.00012969774521317948,-3.450367532213999e-05,3.443711260175024e-06
255.6333333334289,9.348939e-05,-0.785373,0.0009029034,-2.356286,0.0006371117,1.5708987,0.7863686,0.039999932,0.039999958,0.010227148339003733,-0.014777649101548537,-0.005810166568864794,-0.0012684988940906438,-0.01763773884043884,-0.0004760135860490209,0.9999999928588803,0.00011928246923973439,-7.313489468764784e-06,-6.668599763165338e-07
255.6500000000956,8.379646e-05,-0.7854671,0.0010194553,-2.3563087,0.0007105376,1.5708909,0.7864185,0.039999932,0.03999996,0.010662627500135358,-0.015492038169253805,-0.006475076015166614,-0.0013863296393298394,-0.018160019172665194,-0.000520733513461138,0.9999999938671984,0.00010787782416915336,2.452133888737215e-05,-5.165506113601639e-06
255.66666666676227,7.326124e-05,-0.7855715,0.0011463923,-2.3563316,0.00079050154,1.5708804,0.7864728,0.039999932,0.039999966,0.01007920616549196,-0.016200643041675577,-0.00802580092824634,-0.0015093724212014207,-0.01869233281061971,-0.0005675161602818257,0.9999999935947672,9.543086167091851e-05,6.001649690237485e-05,-1.0071572455864235e-05
255.68333333342895,6.1847975e-05,-0.7856868,0.001284165,-2.3563554,0.0008772874,1.5708699,0.7865318,0.03999993,0.03999996,0.010317025745520958,-0.016903844280034483,-0.006614655114844936,-0.0016374564809446056,-0.01924413517295507,-0.0006154815170194223,0.9999999914781253,8.194998654894708e-05,0.00010045253555039244,-1.5402500559645067e-05
255.70000000009563,4.95216e-05,-0.78581315,0.0014332191,-2.3563807,0.00097117474,1.5708593,0.7865956,0.039999932,0.03999997,0.009723257171811994,-0.01759744183713885,-0.007060749660947607,-0.0017712256375404939,-0.019805311806273426,-0.0006663438270309938,0.9999999869024776,6.732572719401201e-05,0.0001456495700724703,-2.1177673614912996e-05
255.7166666667623,3.6247096e-05,-0.78595096,0.0015939958,-2.3564074,0.0010724416,1.5708483,0.78666437,0.039999936,0.039999977,0.010032479019939089,-0.01828494964899611,-0.007450549865262168,-0.0019096628960181116,-0.020377988948180197,-0.0007192468598937636,0.9999999791534386,5.1539543094312756e-05,0.00019566600286894295,-2.741556123487478e-05
255.733333333429,2.1989972e-05,-0.78610045,0.0017669309,-2.356434,0.001181362,1.5708357,0.78673834,0.03999994,0.03999998,0.012299520653358265,-0.01896600446560849,-0.007933345884025833,-0.0020531170745233876,-0.02096388651566709,-0.0007733106695147008,0.9999999674007111,3.454402672063467e-05,0.0002506793038364393,-3.4134640354230764e-05
255.75000000009567,6.7163833e-06,-0.78626204,0.0019524541,-2.356461,0.0012982058,1.5708214,0.78681767,0.03999995,0.039999995,0.012342263599340875,-0.019635152359470057,-0.008289208981016039,-0.002201357282581585,-0.021560983264232496,-0.0008302593350299941,0.9999999507208863,1.6294341003921457e-05,0.00031077738580409113,-4.135378763307703e-05
255.76666666676235,-9.607338e-06,-0.7864361,0.0021509898,-2.3564882,0.0014232398,1.570807,0.7869026,0.039999947,0.039999995,0.013214708680320264,-0.020297993626015153,-0.007351607135253069,-0.002354417813731597,-0.022172446094997054,-0.0008892054155803502,0.9999999277584384,-3.2228482142558303e-06,0.00037691226812943334,-4.909046208416411e-05
255.78333333342903,-2.7014292e-05,-0.7866229,0.0023629556,-2.3565164,0.001556727,1.570792,0.7869932,0.039999947,0.04,0.012161472060001621,-0.02094585569675886,-0.008211217076081745,-0.00251231853448528,-0.022788153098643685,-0.0009501563594060975,0.9999998974273975,-2.4107433333576858e-05,0.0004486350875698923,-5.736361491649229e-05
255.8000000000957,-4.553716e-05,-0.7868228,0.002588761,-2.3565452,0.0016989487,1.5707752,0.7870898,0.039999947,0.03999999,0.012565890556892612,-0.021600206369593034,-0.00921255003722976,-0.002674539567559221,-0.02341353535325103,-0.0010106622517312563,0.9999998585860833,-4.630829105029007e-05,0.0005256457996979559,-6.618042683126228e-05
255.8166666667624,-6.5207656e-05,-0.7870362,0.0028288113,-2.3565753,0.0018501393,1.5707569,0.78719246,0.03999995,0.039999995,0.012244725617249763,-0.02221417753037868,-0.009380454282337247,-0.0028416317379629788,-0.02405363564768907,-0.00107494113399631,0.9999998098286509,-6.995132586283946e-05,0.0006080614257304968,-7.556967995208993e-05
255.83333333342907,-8.6057174e-05,-0.78726333,0.0030835029,-2.3566082,0.0020105348,1.5707384,0.78730136,0.03999995,0.04,0.010094924072867606,-0.022814372187190783,-0.009425751830249851,-0.003013013561966313,-0.024707834986443248,-0.0011427530329376975,0.999999749761783,-9.503890490307591e-05,0.0006957901778962322,-8.55570359003147e-05
255.85000000009575,-0.00010811696,-0.78750455,0.0033532255,-2.3566427,0.0021804066,1.5707191,0.7874167,0.03999995,0.04,0.012238200050362913,-0.02344259848296292,-0.009528281888493417,-0.0031887289637942753,-0.025377894411242555,-0.0012101987204652994,0.9999996765054674,-0.00012160339988638797,0.0007892764550125245,-9.614702922124951e-05
255.86666666676243,-0.0001314171,-0.78776014,0.003638362,-2.3566778,0.0023599844,1.5706972,0.7875386,0.03999995,0.04,0.01400033421894431,-0.024031479772307178,-0.010521817727493499,-0.0033687568909462184,-0.026060181083855233,-0.0012804614940961322,0.9999995884313041,-0.00014970531863574607,0.0008883684216274582,-0.00010736427428084951
255.8833333334291,-0.00015598701,-0.7880303,0.0039392877,-2.3567135,0.00254948,1.570675,0.7876672,0.039999947,0.04,0.014590016504545389,-0.024599714209114446,-0.009014337973067832,-0.003552782099271649,-0.02675803805758703,-0.001355019803509168,0.9999994825324188,-0.00017937171308624283,0.0009942551351214996,-0.00011923677894079127
255.9000000000958,-0.00018185635,-0.7883156,0.00425637,-2.3567502,0.002749159,1.5706521,0.78780276,0.03999994,0.039999995,0.01453088635956501,-0.025193405049006266,-0.00977495479519419,-0.003740782057699935,-0.027460457133473132,-0.0014283859486422957,0.9999993566182421,-0.0002106264438667959,0.0011068140449886975,-0.00013176597761088626
255.91666666676247,-0.0002090531,-0.7886161,0.004589968,-2.3567898,0.0029592116,1.5706272,0.78794533,0.03999993,0.039999995,0.01103699902591515,-0.02570803181327349,-0.011729739107013692,-0.003932414992800712,-0.028169428263206182,-0.0015068888160308918,0.9999992101110288,-0.00024351813343033533,0.0012245217358613108,-0.00014499225990194633
255.93333333342915,-0.0002376052,-0.78893244,0.004940431,-2.3568323,0.0031798529,1.5706012,0.7880951,0.03999992,0.04,0.01189864400348295,-0.026245327068485785,-0.011354888621561976,-0.004127954631155442,-0.028899214089212737,-0.0015881850141034274,0.9999990399962609,-0.0002780646861825679,0.0013481194718573835,-0.0001589354475143209
255.95000000009583,-0.00026754045,-0.78926456,0.0053081037,-2.3568757,0.003411334,1.5705745,0.7882523,0.039999913,0.039999995,0.01522024536184663,-0.02681662660982964,-0.010276508823503505,-0.004327123423527075,-0.02964575801465016,-0.0016679024203453165,0.9999988422148967,-0.0003142853719826283,0.001478735606365386,-0.00017359313803665209
255.9666666667625,-0.00029888505,-0.78961295,0.005693323,-2.3569193,0.0036538478,1.5705459,0.788417,0.03999991,0.04,0.01654423821939588,-0.027327475152148957,-0.011156099001197184,-0.004530131000560081,-0.030398171113784487,-0.001751524945065695,0.9999986137889368,-0.0003522259183163137,0.0016163658053124652,-0.00018899389025911205
255.9833333334292,-0.000331665,-0.7899778,0.006096415,-2.3569648,0.0039076116,1.570516,0.7885893,0.039999906,0.04,0.014052966118982546,-0.02782837601113964,-0.011592688732964262,-0.004736615463125015,-0.031157530228148253,-0.0018361738298415236,0.9999983523699489,-0.00039192390509073475,0.0017605583787790133,-0.00020515173601749713
256.00000000009584,-0.00036590575,-0.7903593,0.006517699,-2.357015,0.004172819,1.5704854,0.78876936,0.0399999,0.039999995,0.010002486897553453,-0.028290145031935506,-0.012483167353405378,-0.004946218240183384,-0.03192832121397052,-0.0019228840766532945,0.9999980565714763,-0.00043341129484583045,0.001910414350369174,-0.00022209216544675936
256.0166666667625,-0.00040163222,-0.7907579,0.006957485,-2.3570657,0.004449688,1.5704526,0.78895736,0.039999895,0.03999999,0.016380784990643882,-0.028813494901851373,-0.012109362255929845,-0.005158771649271468,-0.0327187149418241,-0.0020104405206004643,0.9999977207557996,-0.0004767008867883562,0.0020672993227351124,-0.00023981864101228642
256.03333333342914,-0.00043886816,-0.79117376,0.007416075,-2.357117,0.0047383793,1.5704187,0.78915334,0.039999895,0.04,0.017343450094076118,-0.029264810358105124,-0.011390238455422086,-0.005374691274150332,-0.03351820036149223,-0.0021020181884623054,0.9999973395810873,-0.0005218560972641956,0.0022319826373831874,-0.00025836111923397407
256.0500000000958,-0.00047763705,-0.79160714,0.007893765,-2.3571703,0.0050390987,1.5703838,0.7893575,0.039999895,0.04,0.014715892246175422,-0.02971601446276062,-0.012311220416116875,-0.005593299358314745,-0.03431942029703622,-0.002193656022936863,0.9999969106287203,-0.0005688734659949114,0.002403743144623186,-0.000277731686148968
256.06666666676244,-0.00051796157,-0.79205847,0.008390839,-2.357228,0.0053520193,1.5703466,0.7895699,0.03999989,0.04,0.011087715118640595,-0.030113832453926813,-0.014428468381666448,-0.00581486597109813,-0.03513004314015404,-0.002288377631347073,0.9999964337064354,-0.0006177726510291933,0.0025811143843742627,-0.000297959555933406
256.0833333334291,-0.0005598638,-0.7925277,0.00890758,-2.3572867,0.0056772963,1.5703084,0.7897908,0.039999887,0.04,0.017062732086237098,-0.030573857259530088,-0.01200644302759013,-0.006038834030941626,-0.035963991435188025,-0.0023867349097545093,0.9999958991631475,-0.0006685588339365921,0.002766384604649214,-0.00031906455890842874
256.10000000009575,-0.00060336554,-0.7930152,0.009444247,-2.357346,0.0060151415,1.570269,0.79002017,0.03999989,0.04,0.017752618518018792,-0.03100877883394429,-0.012465747704082375,-0.006265973961857428,-0.03679995113111638,-0.002482791420139449,0.9999953017903375,-0.0007213106190856478,0.0029596958122323582,-0.00034104096784412166
256.1166666667624,-0.00064848724,-0.7935211,0.010001103,-2.3574078,0.0063657095,1.5702275,0.7902583,0.039999895,0.04,0.01475025666188845,-0.0313755126627617,-0.013856693630520667,-0.006495044398771419,-0.03763775855532301,-0.002582083351755877,0.9999946402053739,-0.0007759527067703362,0.0031599083793308275,-0.00036391888662928244
256.13333333342905,-0.00069524895,-0.7940458,0.010578408,-2.3574736,0.006729143,1.5701852,0.79050493,0.039999895,0.04,0.012618499482308643,-0.031733066879942665,-0.013964589694404062,-0.006727102716638575,-0.03848891604997333,-0.00268503741441823,0.9999939099462427,-0.0008326757868521103,0.003366955131388226,-0.00038773006438434944
256.1500000000957,-0.00074367045,-0.7945894,0.011176398,-2.3575404,0.0071056103,1.570141,0.79076046,0.03999989,0.04,0.017608416298053875,-0.032145555381688645,-0.013542620198059296,-0.006960559356106231,-0.03935369319601791,-0.002788407502014395,0.9999931026196045,-0.0008913811857447313,0.003581900964840762,-0.0004124782139828938
256.16666666676235,-0.0007937703,-0.79515225,0.011795309,-2.357608,0.0074952412,1.5700952,0.7910249,0.039999887,0.04,0.018042582921506956,-0.03249269704421048,-0.013552903451108378,-0.007196098925714309,-0.040221293586311616,-0.0028955419086819575,0.9999922113333253,-0.000952109324034412,0.003805095240869603,-0.0004381902885464328
256.183333333429,-0.00084556657,-0.79573435,0.0124353785,-2.3576813,0.00789817,1.5700481,0.7912984,0.03999988,0.04,0.01033023460172977,-0.032759190823573175,-0.015412925439739489,-0.007433512623720429,-0.041091525952132384,-0.0030055482905531512,0.9999912387732501,-0.001014882123767247,0.004034383684191117,-0.00046490784480158906
256.20000000009566,-0.000899077,-0.7963361,0.013096815,-2.3577554,0.008314545,1.5699987,0.791581,0.039999872,0.039999995,0.018110229237255915,-0.033157643302050496,-0.014467261037554024,-0.007672480491164063,-0.04198154841507975,-0.0031166896019041435,0.9999901717737513,-0.0010797178198619442,0.00427175386479392,-0.0004926299335951979
256.2166666667623,-0.00095431803,-0.7969579,0.01377983,-2.35783,0.008744494,1.5699486,0.7918728,0.039999865,0.039999995,0.019692138316185215,-0.03349071057822846,-0.013485521564238212,-0.007913380685166387,-0.04287670309770269,-0.003230764574238997,0.9999889990066502,-0.001146621470433527,0.004518328831139463,-0.0005213726641491101
256.23333333342896,-0.0010113061,-0.7975993,0.014484634,-2.3579087,0.009188148,1.5698963,0.7921739,0.03999986,0.039999995,0.012670930663905011,-0.033723341115761765,-0.015755129413896896,-0.00815575224594163,-0.04376400928148118,-0.0033463221880364533,0.9999877255427547,-0.0012156073686983519,0.004771506125320685,-0.0005511731574285894
256.2500000000956,-0.001070057,-0.7982605,0.015211413,-2.3579905,0.009645623,1.5698427,0.7924845,0.039999858,0.04,0.01459119146567378,-0.03401663142418576,-0.015083072416444132,-0.00839941665451285,-0.04466841441984309,-0.0034646929755994503,0.999986341577247,-0.0012866424357823897,0.005032139862672237,-0.0005820469038380447
256.26666666676226,-0.0011305851,-0.798942,0.015960354,-2.3580728,0.0101170475,1.5697874,0.79280454,0.039999854,0.04,0.01947278108500594,-0.03435899283154714,-0.014528660371171398,-0.008645198369873104,-0.04558337238936168,-0.0035844220662281066,0.9999848329246495,-0.001359823044675126,0.005301679581019007,-0.0006139996483937432
256.2833333334289,-0.0011929051,-0.7996439,0.016731646,-2.358157,0.010602527,1.5697302,0.79313415,0.03999985,0.04,0.01685905625044004,-0.03459339727483399,-0.015411441701806972,-0.008891496731132487,-0.04649506147252317,-0.003706400085067351,0.9999831965661616,-0.0014351056287507924,0.0055792799802206776,-0.0006470641838727856
256.30000000009557,-0.0012570303,-0.80036634,0.017525444,-2.3582463,0.011102183,1.5696718,0.79347336,0.039999843,0.03999999,0.011627260798974248,-0.034755191609826125,-0.016569459336790437,-0.009139024191811979,-0.04741012019568495,-0.0038298377988923646,0.999981432034953,-0.0015125134353333079,0.005863767546205032,-0.0006812625020089482
256.3166666667622,-0.0013229742,-0.8011096,0.018341921,-2.3583364,0.011616086,1.5696112,0.79382217,0.03999984,0.04,0.019121942251021373,-0.035084035631264415,-0.015538612012888642,-0.00938754248739954,-0.048340794565878344,-0.003957742972765372,0.9999795212235021,-0.001592119431819723,0.006157007957511269,-0.0007166186862797324
256.33333333342887,-0.0013907492,-0.80187374,0.01918122,-2.358428,0.012144374,1.5695493,0.7941808,0.039999835,0.03999999,0.01812915943146809,-0.03531317746948079,-0.015361151148085561,-0.00963643762107641,-0.04926908989052979,-0.004084764526312217,0.9999774554312143,-0.0016738386525676076,0.006459078366451243,-0.0007531269051157805
256.3500000000955,-0.0014603666,-0.80265874,0.0200435,-2.358525,0.012687109,1.5694855,0.7945489,0.03999984,0.04,0.010910749512871298,-0.03539254272850803,-0.01762107515321798,-0.009886136167494099,-0.050195355556725364,-0.004216652905897435,0.9999752414317457,-0.0017578668023296433,0.006767642004406729,-0.00079085367014213
256.36666666676217,-0.0015318375,-0.8034649,0.020928888,-2.3586228,0.013244397,1.5694202,0.7949271,0.039999835,0.04,0.019360197704987314,-0.03572606038108467,-0.015609975799169007,-0.010135328095782398,-0.05114136394027806,-0.004349005551962215,0.9999728538236532,-0.0018439688451436088,0.007085397701878796,-0.0008297795389526193
256.3833333334288,-0.0016051724,-0.80429214,0.021837523,-2.358722,0.013816317,1.5693531,0.7953153,0.039999835,0.04,0.017874524718353157,-0.03589730939514771,-0.016165179810734287,-0.0103855895726686,-0.052080417582101794,-0.00448384952907354,0.9999702868741152,-0.001932207173986077,0.007411825528233008,-0.0008699348686433156
256.4000000000955,-0.0016803817,-0.8051407,0.022769516,-2.3588269,0.014402943,1.5692842,0.79571354,0.039999835,0.04,0.010624568102501897,-0.035906371581174296,-0.01818066797709683,-0.010636169518057327,-0.05301877590269317,-0.004621125468016497,0.9999675473790263,-0.002022575441284378,0.0077448558947991126,-0.000911364102807283
256.4166666667621,-0.0017574745,-0.8060106,0.023724994,-2.3589323,0.015004358,1.5692136,0.7961218,0.03999983,0.039999995,0.019604171240561463,-0.03625604749746547,-0.01606882378117902,-0.010887611399422587,-0.05397466291372065,-0.00476069973481949,0.9999646058126098,-0.0021151446203759817,0.008087215889221169,-0.0009540568264627812
256.4333333334288,-0.001836459,-0.8069022,0.024704061,-2.3590395,0.015620592,1.5691414,0.7965401,0.03999983,0.04,0.017354004254821476,-0.036324673866390544,-0.016960444718461254,-0.011138789474987934,-0.05492312599165273,-0.00490504904275197,0.9999614566988635,-0.002209899513008341,0.008438325188610107,-0.0009980625434003831
256.45000000009543,-0.0019173437,-0.80781525,0.025706815,-2.359152,0.016251758,1.5690674,0.7969686,0.039999824,0.039999995,0.011155453116051817,-0.036359076339829294,-0.018380493584357893,-0.011389657687673239,-0.05586929731205039,-0.005048752124138599,0.9999581068081657,-0.002306773073799844,0.008796291587280378,-0.0010433987380462939
256.4666666667621,-0.0020001363,-0.8087501,0.026733344,-2.3592653,0.016897867,1.5689917,0.79740715,0.039999824,0.04,0.019231346829218232,-0.03660910975981646,-0.016768841879066798,-0.01164097331608091,-0.056830696655642464,-0.0051962861317641565,0.9999545246109517,-0.002405881979543561,0.00916363268115426,-0.0010900816809431583
256.48333333342873,-0.002084842,-0.80970657,0.027783735,-2.3593802,0.017558996,1.568914,0.7978559,0.039999817,0.039999995,0.017182636530010953,-0.03669724589805412,-0.017363678861737064,-0.01189138198069832,-0.05778312821523941,-0.005346361226924917,0.9999507057112281,-0.0025071773693671425,0.009539647422150061,-0.0011381284270111014
256.5000000000954,-0.0021714678,-0.81068516,0.028858066,-2.3595004,0.018235184,1.5688348,0.798315,0.03999982,0.04,0.011523317499007035,-0.03663809646256705,-0.019064851886585465,-0.01214140443665794,-0.05873382219049472,-0.005499039302429495,0.9999466539493751,-0.0026105805883138537,0.00992289002761846,-0.0011875933396776528
256.51666666676203,-0.0022600205,-0.81168544,0.029956393,-2.3596215,0.018926483,1.5687535,0.79878414,0.039999805,0.039999995,0.01811728498664067,-0.03687670897871906,-0.01744153740295129,-0.012391386397622797,-0.05969508274105802,-0.005654790648800714,0.9999423417531217,-0.0027162579501333805,0.010315101642835462,-0.0012384628090550522
256.5333333334287,-0.002350504,-0.81270754,0.031078793,-2.359744,0.019632911,1.5686707,0.79926366,0.0399998,0.039999995,0.01746975012191232,-0.03694114768742554,-0.017402069114913488,-0.012639697059603588,-0.060651705023525605,-0.005812289039293303,0.9999377568712519,-0.002824072192258854,0.010716385062928565,-0.001290771368359931
256.55000000009534,-0.002442924,-0.81375176,0.03222532,-2.359872,0.02035451,1.5685858,0.7997534,0.039999798,0.04,0.010429777253051498,-0.036792506399441205,-0.019976728850523706,-0.012887412935819104,-0.06160115203580653,-0.005973275781856316,0.999932913028781,-0.002934044354246689,0.011124429277595663,-0.0013445812550229095
256.566666666762,-0.0025372836,-0.81481785,0.03339602,-2.3600013,0.02109131,1.5684993,0.80025345,0.039999798,0.04,0.017605005699050658,-0.0370535120977393,-0.017603326574211486,-0.013134098220804871,-0.06256551905788901,-0.006135660769006478,0.9999277728669874,-0.003046226449242077,0.011541659678484459,-0.001399873405875655
256.58333333342864,-0.0026335865,-0.8159062,0.034590926,-2.360132,0.02184336,1.568411,0.80076396,0.039999794,0.04,0.017318122196696706,-0.037068623039262366,-0.01843948958384356,-0.01337940848417812,-0.06352064601861965,-0.006300790126292928,0.9999223262626012,-0.0031604938797129382,0.01196790953638268,-0.0014566610289702751
256.6000000000953,-0.002731835,-0.8170165,0.035810076,-2.3602679,0.022610668,1.5683209,0.8012848,0.039999787,0.04,0.010210838339252959,-0.03688893796138307,-0.019779316615164966,-0.013624190468279007,-0.06446866031659855,-0.006468834861319078,0.9999165861684441,-0.003276893396265704,0.012401105388858795,-0.001515011567109481
256.61666666676194,-0.0028320316,-0.818149,0.037053492,-2.3604052,0.023393244,1.5682291,0.801816,0.03999978,0.039999995,0.016970947344230325,-0.03708333824856344,-0.018503929321389556,-0.013867526534507735,-0.06542970758893112,-0.0066389956853202675,0.9999105152045736,-0.003395434593141493,0.01284337369765616,-0.0015749156517595548
256.6333333334286,-0.002934178,-0.81930375,0.038321182,-2.360544,0.024191087,1.5681354,0.8023575,0.039999776,0.04,0.016769430644303362,-0.03705519053874423,-0.01886151201104802,-0.014109446928696763,-0.06638067258020516,-0.0068127711200457255,0.9999041016031555,-0.0035161381818591387,0.01329460639980058,-0.0016364015848817908
256.65000000009525,-0.0030382758,-0.82048047,0.039613195,-2.3606877,0.02500422,1.56804,0.80290943,0.039999772,0.04,0.010158510878088833,-0.0368870966781884,-0.02004055313757913,-0.014349504334831533,-0.06732420991067711,-0.006988714130001961,0.9998973580728938,-0.0036389025152203797,0.01375293775084798,-0.0016995324513087307
256.6666666667619,-0.003144325,-0.8216794,0.040929507,-2.3608332,0.025832642,1.5679427,0.8034718,0.039999772,0.04,0.015909971770033948,-0.037007936214078496,-0.019207015868172306,-0.01458827632036662,-0.06827733680054777,-0.0071667734646106845,0.9998902498472803,-0.00376374979782286,0.014220046213907454,-0.001764294044966746
256.68333333342855,-0.0032523256,-0.8229005,0.042270113,-2.3609805,0.026676368,1.567844,0.80404454,0.039999757,0.039999995,0.015336349210381961,-0.03696867524146802,-0.01902951345800208,-0.014825653939369743,-0.06922317991976716,-0.007348471587647912,0.9998827628628645,-0.0038906929959451747,0.014695971543942626,-0.0018306988052941267
256.7000000000952,-0.003362278,-0.8241437,0.043635014,-2.3611324,0.027535371,1.5677431,0.80462754,0.039999757,0.04,0.01042999155242974,-0.03672797207665557,-0.020853623689665035,-0.015060801343812921,-0.07016054733308957,-0.007532283318452494,0.9998749092835688,-0.0040197404008550115,0.015178996375214047,-0.0018988263022224952
256.71666666676185,-0.0034741804,-0.8254091,0.045024194,-2.3612854,0.028409658,1.5676407,0.80522096,0.03999975,0.039999995,0.016212319308639422,-0.03689935918623488,-0.01908028168282616,-0.015293636933343423,-0.07110548222537529,-0.007718487369273788,0.9998666455956321,-0.0041508329338090086,0.015671185256697504,-0.001968645205315099
256.7333333334285,-0.0035880315,-0.8266965,0.046437636,-2.3614414,0.029299205,1.5675361,0.8058249,0.03999975,0.04,0.012711538160870006,-0.03669985236434692,-0.02030124915095577,-0.015524430870215024,-0.07203836837501554,-0.00790762066425884,0.9998579783344935,-0.0042838971532506,0.016171237241858576,-0.0020402137406153363
256.75000000009516,-0.0037038284,-0.828006,0.047875293,-2.3616009,0.030203989,1.5674301,0.80643904,0.039999742,0.04,0.011644953496880994,-0.036547046187510035,-0.02026967619370712,-0.01575388588107362,-0.07297010169737721,-0.008100304463758659,0.9998488934804944,-0.004419011304172608,0.01667919137784788,-0.0021135562224931623
256.7666666667618,-0.0038215695,-0.8293376,0.04933714,-2.3617618,0.031123998,1.5673219,0.8070635,0.03999974,0.04,0.014747214234178685,-0.03660002234395915,-0.020170973324229458,-0.015980479473895963,-0.0739006412426298,-0.008294740305835456,0.9998393674311314,-0.0045561577621318445,0.0171956516794295,-0.002188681036876178
256.78333333342846,-0.003941252,-0.830691,0.05082314,-2.3619258,0.032059204,1.5672122,0.8076983,0.039999735,0.04,0.011698299463924755,-0.03638740544078811,-0.020208382908259992,-0.01620445223892046,-0.07482283577386376,-0.008492067982061056,0.9998293957951582,-0.004695282826901424,0.017720061248974614,-0.0022656240634595644
256.8000000000951,-0.00406287,-0.8320665,0.05233325,-2.3620932,0.033009578,1.5671006,0.80834335,0.03999973,0.04,0.0112190010625568,-0.036241938645079075,-0.020976993758226037,-0.016426141509352142,-0.07574136190580032,-0.00869213251268277,0.9998189689199366,-0.004836383552509586,0.018252190331564645,-0.0023444253258049943
256.81666666676176,-0.004186423,-0.833464,0.053867403,-2.362262,0.0339751,1.5669874,0.8089988,0.039999712,0.039999988,0.014271739382287763,-0.03625376254923485,-0.02019587242261256,-0.016644793199337725,-0.076658121040531,-0.0088956642682897,0.9998080545137837,-0.0049793665769314694,0.018793059362201436,-0.0024250685895580073
256.8333333334284,-0.004311904,-0.83488345,0.055425547,-2.3624341,0.03495569,1.5668724,0.8096644,0.03999972,0.04,0.010539829951206059,-0.035940709384443825,-0.02104835639162861,-0.016861480798862946,-0.07756361312350232,-0.009101333360910548,0.9997966582284243,-0.005124315590847223,0.019341545276956345,-0.002507630614747166
256.85000000009506,-0.0044393092,-0.8363245,0.057007615,-2.3626091,0.03595135,1.5667554,0.8103402,0.03999971,0.03999999,0.010822350375061518,-0.035839567785909965,-0.020961735830304917,-0.01707463806196298,-0.07846577483728903,-0.009309697023801813,0.999784765747253,-0.0052711713866643,0.019897685192162246,-0.0025921141789509634
256.8666666667617,-0.0045686304,-0.83778745,0.05861352,-2.3627858,0.036962014,1.5666368,0.8110262,0.039999705,0.03999999,0.012961010877354795,-0.03576079679273175,-0.020640898135693142,-0.017285120722999987,-0.07936611260686889,-0.009520662969223194,0.9997723464173953,-0.005419915406323754,0.020462290830122007,-0.0026785275857049927
256.88333333342837,-0.0046998635,-0.839272,0.06024319,-2.362966,0.03798763,1.5665163,0.8117223,0.039999697,0.03999999,0.009112431096092166,-0.03541207340272967,-0.021529152526134077,-0.01749219803843978,-0.08025274558795864,-0.009735469633649269,0.9997594099912687,-0.005570528293498132,0.02103414927266733,-0.0027669320224560957
256.900000000095,-0.004833003,-0.8407783,0.06189654,-2.363149,0.039028145,1.5663942,0.8124285,0.03999969,0.039999988,0.010685578641522753,-0.03531659275631538,-0.021100888017278052,-0.01769589141266202,-0.08113989112623138,-0.009952040201556371,0.9997459285914136,-0.005722956243494167,0.02161392299066698,-0.002857336116165341
256.91666666676167,-0.0049680397,-0.84230584,0.06357347,-2.3633335,0.04008353,1.5662704,0.81314486,0.039999682,0.039999984,0.011543295153737532,-0.03521487658223188,-0.020825848702155092,-0.01789675061189941,-0.08201910914978416,-0.010171300407222549,0.9997318846177213,-0.005877142905360933,0.022201737523650678,-0.002949732343789044
256.9333333334283,-0.0051049683,-0.8438549,0.065273896,-2.3635216,0.04115369,1.5661448,0.8138709,0.039999682,0.039999988,0.008315900411881572,-0.03481109149929967,-0.021727163372853298,-0.018094348540242736,-0.08288781751380501,-0.010393712764760962,0.9997172793121906,-0.006033268226398066,0.02279679680116752,-0.0030442034666243486
256.950000000095,-0.0052437796,-0.84542555,0.06699774,-2.3637123,0.042238586,1.5660175,0.81460756,0.03999968,0.039999988,0.00971172444703683,-0.03472839334968392,-0.021654903060919217,-0.018287306476889358,-0.08375349029509173,-0.010618583839358264,0.9997020913466396,-0.006190835929305682,0.023399525486842154,-0.0031407506494974336
256.9666666667616,-0.0053844643,-0.8470172,0.06874486,-2.3639047,0.043338135,1.5658885,0.8153543,0.03999968,0.03999999,0.010562217558973686,-0.034562857885173104,-0.021046358306331392,-0.01847921777421075,-0.08460998565863687,-0.010846326654681118,0.9996862981889876,-0.00635007710289792,0.024010167700775797,-0.0032393797194288807
256.9833333334283,-0.0055270153,-0.8486301,0.070515156,-2.3641005,0.044452257,1.5657578,0.8161107,0.03999967,0.03999999,0.007523073168025363,-0.03414481569297273,-0.02194830271109449,-0.018667794773851,-0.0854569871525044,-0.011077655347796742,0.9996699040038269,-0.006511106665852162,0.024627867451757643,-0.0033401592393393293
257.00000000009493,-0.005671423,-0.8502638,0.07230849,-2.364299,0.045580905,1.5656253,0.8168769,0.039999668,0.03999999,0.007803406796735857,-0.03394832582043761,-0.02165056731855408,-0.01885214580884919,-0.08629931304125396,-0.01131078525311717,0.9996528919373467,-0.006673785939060195,0.025252750432005214,-0.003443082653384254
257.0166666667616,-0.0058176774,-0.85191846,0.07412474,-2.364499,0.04672396,1.5654911,0.8176528,0.039999664,0.039999995,0.010073135648802634,-0.03382174008185884,-0.02145449916284292,-0.01903242884559308,-0.08713592442315628,-0.011547382867368283,0.9996352287668582,-0.0068381533429747845,0.025885508022439493,-0.0035481743910176135
257.03333333342823,-0.0059657684,-0.8535939,0.07596381,-2.3647025,0.0478814,1.5653553,0.81843835,0.039999656,0.039999988,0.006361296848478304,-0.03343259741337007,-0.021947333349503495,-0.019208425485283218,-0.08795931580457664,-0.01178531591678586,0.9996169239686062,-0.007004173767208843,0.02652516450350017,-0.003655477183990947
257.0500000000949,-0.006115685,-0.85529,0.07782552,-2.3649085,0.049053077,1.5652176,0.8192336,0.03999965,0.03999999,0.007130869020066655,-0.033121117232834396,-0.02205437045927905,-0.019379609437609073,-0.0887768654111542,-0.012028104914018609,0.999597960055108,-0.007171724701294067,0.027171846996506904,-0.003765016503824653
257.06666666676153,-0.006267417,-0.8570066,0.07970974,-2.365116,0.05023892,1.5650786,0.8200384,0.03999964,0.03999999,0.008924432148482708,-0.033031091784138655,-0.021245709931139167,-0.019547246141830232,-0.089587072359381,-0.012272579440687256,0.9995782996817377,-0.007340873326140912,0.027826334926763795,-0.0038767858748096256
257.0833333334282,-0.0064209523,-0.8587434,0.08161633,-2.3653264,0.051438846,1.5649376,0.82085276,0.03999963,0.039999988,0.005216606972791027,-0.03252017747392977,-0.02228720969317255,-0.01971016072706839,-0.09038367486077127,-0.012519856142214306,0.9995579655296829,-0.007511477724729401,0.02848726705523935,-0.003990847563580727
257.10000000009484,-0.0065762787,-0.8605009,0.08354515,-2.3655396,0.05265274,1.5647951,0.8216766,0.03999962,0.039999988,0.006405403488818351,-0.032297302106668035,-0.02208568004480327,-0.01986907256312513,-0.09117514668948515,-0.01277061850449436,0.9995369220075487,-0.007683548380101023,0.029155364976811506,-0.0041072279015046086
257.1166666667615,-0.0067333826,-0.8622783,0.08549602,-2.3657544,0.0538805,1.5646509,0.82251,0.03999961,0.03999999,0.006949169906311781,-0.03206490631817993,-0.021749541120308358,-0.020023719755711558,-0.09195599768660823,-0.013023487856834992,0.9995151553396848,-0.007857007665168085,0.029830575537578792,-0.004225924742822511
257.13333333342814,-0.006892253,-0.8640757,0.08746882,-2.3659718,0.05512207,1.5645052,0.8233527,0.039999604,0.039999984,0.005218797658423924,-0.03169851438353799,-0.021980693052503497,-0.02017424789070814,-0.09272421847552059,-0.013276895827851284,0.9994926580167105,-0.008031886079838,0.030512607753960013,-0.004346969604718204
257.1500000000948,-0.007052878,-0.8658928,0.08946332,-2.3661923,0.05637731,1.5643579,0.8242047,0.0399996,0.039999988,0.0036624377670602115,-0.03121988436087242,-0.022204959895599785,-0.020319991428606035,-0.09348474280980154,-0.013534242652671807,0.9994694324866966,-0.008208080677687883,0.031200904846969742,-0.004470399651005089
257.16666666676144,-0.0072152414,-0.8677297,0.091479406,-2.3664148,0.057646148,1.5642087,0.8250659,0.039999593,0.039999984,0.005501587050726897,-0.031102738239369154,-0.022104047159432483,-0.020461661631379108,-0.09423775824136375,-0.013793251253976332,0.9994454459155554,-0.008385596377220991,0.031896037724539736,-0.004596214695765171
257.1833333334281,-0.007379331,-0.8695861,0.09351684,-2.3666394,0.0589284,1.5640584,0.82593626,0.039999582,0.039999988,0.004718895407229695,-0.03064248679004178,-0.021680548630786944,-0.020598499933325423,-0.09497983236662061,-0.01405689320025827,0.9994206822555877,-0.008564394195700927,0.03259801576063458,-0.0047244470899446105
257.20000000009475,-0.007545132,-0.8714619,0.09557547,-2.3668668,0.060224015,1.5639063,0.82681566,0.039999567,0.039999984,0.002922971817387321,-0.030225919135121182,-0.022424262775455617,-0.020730483327787957,-0.09570782248694362,-0.014322330066295588,0.9993951493994092,-0.008744408261839243,0.03330613183575013,-0.0048551275186673026
257.2166666667614,-0.0077126315,-0.87335676,0.09765513,-2.3670967,0.061532825,1.5637528,0.827704,0.039999556,0.039999988,0.003148123154161908,-0.029944296786330038,-0.021864013592409748,-0.02085809977867204,-0.09642965988656857,-0.014590608520942017,0.9993688259929417,-0.008925645975384502,0.03402057271405444,-0.00498829726652391
257.23333333342805,-0.007881812,-0.8752707,0.099755645,-2.3673284,0.06285476,1.5635974,0.8286013,0.039999545,0.039999984,0.0036719659013417782,-0.029661464471736343,-0.022161964216982355,-0.020980831190440696,-0.0971401258703428,-0.01485947535212448,0.9993416940337583,-0.009108041921953795,0.034741434251897546,-0.005123952010638455
257.2500000000947,-0.008052658,-0.87720335,0.10187677,-2.3675628,0.06418965,1.5634407,0.82950747,0.039999537,0.039999984,0.0017973313045871464,-0.02911557303982848,-0.021927807483179684,-0.02109867618512974,-0.09783981373284378,-0.01513088546516038,0.9993137540153499,-0.009291507602663538,0.03546828052747343,-0.005262128717809812
257.26666666676135,-0.008225155,-0.87915474,0.10401831,-2.3677993,0.065537445,1.5632827,0.8304223,0.039999533,0.039999984,0.002540174731358036,-0.028856471783353377,-0.021790363789353506,-0.02121171682535409,-0.09852893847910509,-0.015403381447332679,0.9992849766498038,-0.009476093291970262,0.036201503958750596,-0.005402796409982195
257.283333333428,-0.008399289,-0.8811244,0.10618005,-2.3680377,0.066897966,1.5631231,0.83134574,0.039999526,0.03999998,0.001932867208687128,-0.028436035037934793,-0.021818546577656583,-0.02131973931794333,-0.09920521118955045,-0.01567844633513482,0.9992553616765707,-0.00966172013593838,0.03694069781585522,-0.005546004824956205
257.30000000009466,-0.008575042,-0.88311243,0.108361825,-2.3682785,0.06827108,1.5629619,0.8322778,0.039999526,0.039999984,0.0010481624212577145,-0.02800829005575045,-0.022091946034730192,-0.02142265536588875,-0.09987062554576519,-0.015955565049748918,0.9992248985483996,-0.009848326368449359,0.03768575291850686,-0.005691802495368076
257.3166666667613,-0.008752395,-0.8851184,0.1105634,-2.3685215,0.069656655,1.5627992,0.83321816,0.03999952,0.03999998,0.0006824049277653899,-0.027609874493284003,-0.021805216980030906,-0.021520484591166546,-0.1005248012820123,-0.01623479561956491,0.9991935774623538,-0.010035944167695328,0.038436528832563245,-0.00584019125966353
257.33333333342796,-0.008931333,-0.88714254,0.112784564,-2.368767,0.071054555,1.5626351,0.83416694,0.039999526,0.039999988,-0.00019971062883428203,-0.027133554707270413,-0.02206304630232303,-0.021612611261272188,-0.10116766886722783,-0.016515867417170774,0.9991613890874664,-0.010224439467513698,0.039192917615950645,-0.005991210489458276
257.3500000000946,-0.0091118375,-0.8891841,0.11502507,-2.3690143,0.072464675,1.5624697,0.83512414,0.039999522,0.039999988,0.0005739158428497149,-0.026868064278429138,-0.021274298699891503,-0.021700192057921147,-0.10180103298794499,-0.016798676320075145,0.999128310035021,-0.010413750702668152,0.03995516461160019,-0.006144811122038407
257.36666666676126,-0.009293891,-0.8912432,0.11728473,-2.3692634,0.07388686,1.5623028,0.83608943,0.039999522,0.03999999,-0.0001987502474598557,-0.026404995420670208,-0.021722741614493835,-0.021782644086167743,-0.10241941013079227,-0.017083639723544042,0.9990943358755652,-0.010603933355829246,0.040722982760281135,-0.006301054979471648
257.3833333334279,-0.009477474,-0.89331955,0.11956327,-2.369515,0.07532096,1.5621343,0.8370628,0.03999951,0.039999984,-0.001647752748246134,-0.025832204858064478,-0.021822669605975342,-0.021859238528956305,-0.1030253416132806,-0.017370870502558422,0.9990594721338016,-0.010794890959691692,0.04149590789781628,-0.006459961039656635
257.40000000009456,-0.009662569,-0.89541286,0.12186048,-2.3697686,0.0767668,1.5619648,0.83804405,0.03999951,0.039999988,-0.0014996198067329658,-0.02547573833421579,-0.021159426876837806,-0.02193064741906134,-0.10362161350644934,-0.017658537638335345,0.999023690835997,-0.010986610078387391,0.04227427838426963,-0.006621550762259551
257.4166666667612,-0.009849156,-0.8975231,0.124176115,-2.370024,0.07822425,1.5617937,0.8390331,0.039999507,0.039999988,-0.0012446296405510537,-0.025072379474727624,-0.021478712703215663,-0.021996352038171747,-0.10420526958259826,-0.017948590271693987,0.9989869824185329,-0.011179064156456,0.04305798495919183,-0.006785824500649556
257.43333333342787,-0.01003722,-0.89964956,0.12650995,-2.3702815,0.079693176,1.5616213,0.8400301,0.039999504,0.039999988,-0.0029847619040346274,-0.024571249379282123,-0.021040872550681655,-0.02205619688241605,-0.10477519123428487,-0.01824061823129372,0.9989493555491626,-0.011372115395944966,0.04384653448078594,-0.0069528018351748
257.4500000000945,-0.010226739,-0.9017929,0.12886173,-2.3705406,0.081173405,1.5614476,0.8410347,0.039999504,0.039999988,-0.0017775188325241942,-0.02417338164302507,-0.02139005749284273,-0.02211109937343799,-0.10533470708544065,-0.018534952436881746,0.9989107723447785,-0.011565767921952949,0.044640474071904974,-0.007122498197200232
257.46666666676117,-0.0104176905,-0.90395224,0.13123117,-2.3708022,0.08266481,1.5612725,0.8420469,0.039999496,0.039999984,-0.004172068863983469,-0.023554293359087652,-0.021175081252633454,-0.022160625092799056,-0.105877119315831,-0.018828491724966187,0.9988712575333112,-0.011759945633619802,0.04543895449344605,-0.007294927488232144
257.4833333334278,-0.010610058,-0.90612763,0.1336181,-2.3710656,0.08416714,1.5610962,0.8430666,0.03999949,0.039999988,-0.0035446904895319875,-0.023178181395239195,-0.0209221131635573,-0.022204456021655994,-0.10641196135274732,-0.01912723722422445,0.9988307821396387,-0.0119546439222126,0.04624231753744316,-0.007470154468079446
257.5000000000945,-0.01080382,-0.9083185,0.13602217,-2.3713305,0.08568027,1.5609187,0.8440935,0.039999478,0.039999988,-0.0035232715640987067,-0.022724112176714106,-0.020480960426016992,-0.02224245883244101,-0.10693218407314695,-0.019425926647581512,0.9987893353992613,-0.012149847044563594,0.04705051466544427,-0.007648122593973138
257.5166666667611,-0.010998957,-0.910525,0.13844317,-2.3715975,0.08720407,1.5607398,0.8451277,0.03999947,0.039999988,-0.005006353464587221,-0.02217231399891384,-0.02095805555162311,-0.022274744087570214,-0.10743724350602575,-0.019726754637623217,0.9987469253517129,-0.012345436752149734,0.047863115048622944,-0.0078288894321546
257.5333333334278,-0.0111954445,-0.9127467,0.14088093,-2.3718665,0.08873836,1.5605597,0.846169,0.03999946,0.039999988,-0.005157424705704017,-0.021820439607764253,-0.02040627960249175,-0.022301524922649155,-0.10793159018150272,-0.020028052201125995,0.9987035353434826,-0.012541435740639536,0.0486801914384866,-0.008012480483913207
257.5500000000944,-0.011393264,-0.9149832,0.143335,-2.3721378,0.09028297,1.5603786,0.84721744,0.039999448,0.039999984,-0.006674392917149774,-0.02101436549800384,-0.020335162877782587,-0.022322197380815485,-0.10841224089456947,-0.020329402160567653,0.9986591810881524,-0.012737629344232653,0.049501227195322864,-0.008198861700672739
257.5666666667611,-0.011592391,-0.9172347,0.14580518,-2.3724103,0.091837734,1.5601959,0.8482727,0.039999444,0.039999984,-0.00475173943752516,-0.02082662307327232,-0.020390894097621626,-0.022338545857837178,-0.10888379707086339,-0.020630787341521573,0.9986138199595752,-0.012934167846431017,0.05032679786300149,-0.008388045345733779
257.58333333342773,-0.011792808,-0.9195005,0.14829119,-2.372684,0.093402475,1.5600123,0.8493348,0.039999437,0.039999988,-0.005535336894046949,-0.020332284341623152,-0.019598449921542915,-0.022348395958872523,-0.10933843422453161,-0.020934904609781188,0.9985674475047913,-0.013130914851875303,0.051156771069744554,-0.00858001355688944
257.6000000000944,-0.011994495,-0.9217806,0.15079278,-2.37296,0.09497702,1.5598276,0.8504034,0.03999943,0.039999984,-0.007996555708400521,-0.019579686152379483,-0.020025316233041046,-0.022352964486178663,-0.10977853467807373,-0.021238214022053656,0.9985200895379255,-0.013327857948699473,0.05199039370040902,-0.008774847836230223
257.61666666676103,-0.0121974265,-0.9240746,0.15330963,-2.3732376,0.0965612,1.5596416,0.8514787,0.039999425,0.039999988,-0.006893968040033727,-0.019223490875630578,-0.019595002663863603,-0.022351171685039646,-0.11020731601301856,-0.021542885139207046,0.998471720299192,-0.013524894875475608,0.05282797796374718,-0.008972498294315333
257.6333333334277,-0.012401578,-0.9263823,0.15584153,-2.373517,0.09815483,1.5594547,0.85256046,0.039999414,0.03999998,-0.00811600490373543,-0.01868649079098117,-0.0193854099203028,-0.022344308558630135,-0.11062293144738759,-0.02184725688312819,0.9984223415333705,-0.013721975512803181,0.05366927545487022,-0.009173014073735391
257.65000000009434,-0.012606927,-0.92870337,0.15838812,-2.373798,0.09975775,1.5592667,0.85364836,0.03999941,0.039999984,-0.007924004519344052,-0.018199313570865794,-0.019103702522493826,-0.022332128926108273,-0.1110250132847395,-0.02215282541996895,0.9983719421664621,-0.013919171175540448,0.05451427135168238,-0.00937635257164785
257.666666666761,-0.012813452,-0.9310376,0.16094913,-2.37408,0.1013698,1.5590774,0.8547424,0.039999407,0.03999998,-0.008022638894811251,-0.017714843741062358,-0.019085801095553023,-0.022313559487614217,-0.11141319346754881,-0.022457570942977678,0.9983205177399229,-0.01411638432930201,0.05536286536498569,-0.00958252010371034
257.68333333342764,-0.013021129,-0.93338495,0.16352426,-2.3743634,0.10299072,1.5588871,0.8558424,0.039999403,0.039999984,-0.00858308013742537,-0.017114333341405885,-0.018825197220273537,-0.02228874418188387,-0.11178778030338726,-0.022764060410138898,0.9982680559980602,-0.014313581070907036,0.056215079914925206,-0.009791555593413513
257.7000000000943,-0.013229935,-0.9357448,0.16611324,-2.3746493,0.104620345,1.558696,0.85694844,0.039999392,0.03999998,-0.01099159791864146,-0.01638858771920715,-0.018525518896916893,-0.022257693876971046,-0.11214655256947267,-0.023070764330149957,0.998214589258987,-0.014510574692741966,0.05707019605484964,-0.010003486135310487
257.71666666676094,-0.013439851,-0.9381171,0.1687158,-2.3749363,0.10625851,1.5585037,0.85806024,0.03999939,0.03999998,-0.009428051107418511,-0.0161305576570403,-0.018405505182750304,-0.022222001620365646,-0.1124951091548897,-0.023376439304494054,0.9981600874743325,-0.014707439628159942,0.05792855573847056,-0.010218288646922095
257.7333333334276,-0.013650842,-0.9405015,0.17133163,-2.3752248,0.10790501,1.5583105,0.8591776,0.039999392,0.039999988,-0.010189743352295721,-0.015522333525580523,-0.01809036252218288,-0.022180070167909148,-0.11283029817184612,-0.023681684752305893,0.9981045477322992,-0.014904168583804956,0.05879003315261066,-0.010435974168368382
257.75000000009425,-0.013862893,-0.9428977,0.17396036,-2.3755143,0.10955968,1.5581164,0.86030054,0.03999938,0.03999998,-0.009929463496227697,-0.015058610480916945,-0.017578306326937465,-0.02213203973988493,-0.11315019735037543,-0.023986917284715317,0.9980479579975715,-0.015100628025409273,0.05965470730435828,-0.010656475334143016
257.7666666667609,-0.014075976,-0.9453054,0.17660174,-2.3758054,0.1112223,1.5579213,0.86142915,0.039999373,0.039999977,-0.011642868148786789,-0.014336170096451717,-0.017725282713998425,-0.02207830560451869,-0.11345629006048955,-0.02429288838511315,0.9979903442393425,-0.015296644377905488,0.06052201273503193,-0.01087986444378674
257.78333333342755,-0.014290065,-0.94772446,0.17925537,-2.3760982,0.112892695,1.5577251,0.86256284,0.039999373,0.03999998,-0.012052691924102632,-0.013685263466256536,-0.01749152198242676,-0.022020161018950747,-0.11374885465416655,-0.024597786201161723,0.997931703559341,-0.015492369976429294,0.061391822132165035,-0.011106109983145828
257.8000000000942,-0.014505138,-0.9501544,0.181921,-2.3763921,0.11457067,1.5575283,0.8637015,0.039999373,0.039999984,-0.01165460899348325,-0.013361954516843966,-0.01673019930192865,-0.02195593356174918,-0.11403011160866905,-0.024901904976119993,0.9978720119614888,-0.015687773926090796,0.062264394328512294,-0.011335197046271379
257.81666666676085,-0.014721168,-0.95259506,0.18459836,-2.3766875,0.11625602,1.5573306,0.86484534,0.039999362,0.03999998,-0.012579464814210795,-0.012726149726877134,-0.016714185077182364,-0.021885027044098046,-0.11429599441707416,-0.02520635004124923,0.9978112856457523,-0.015882668353918963,0.06313937136732681,-0.011567146029561116
257.8333333334275,-0.014938133,-0.9550462,0.1872871,-2.376984,0.11794852,1.557132,0.86599404,0.039999355,0.039999984,-0.012162491583067592,-0.012256326221826708,-0.01651034619920555,-0.02180923882734183,-0.11454871600120808,-0.025510985206372364,0.9977495104697741,-0.01607708376523195,0.06401683703420645,-0.011801962170239915
257.85000000009416,-0.015156007,-0.9575074,0.18998693,-2.3772812,0.119648,1.5569328,0.86714745,0.039999347,0.039999984,-0.012590145830282395,-0.01173945537280563,-0.015904079150441675,-0.021727962370794607,-0.11478767834008755,-0.02581345870318494,0.9976866812456185,-0.01627099451365107,0.06489675543092643,-0.01203959871336896
257.8666666667608,-0.015374762,-0.95997846,0.19269751,-2.37758,0.12135427,1.5567324,0.8683055,0.039999343,0.039999988,-0.013990628674775962,-0.010982082764576795,-0.016196595487394383,-0.021640581784680764,-0.11501015877470416,-0.026115428599042576,0.9976228319163952,-0.016464278827888427,0.06577850512303791,-0.012280106903767872
257.88333333342746,-0.015594373,-0.96245915,0.19541854,-2.37788,0.123067096,1.5565314,0.869468,0.039999332,0.039999984,-0.01419359160044209,-0.010455485560134647,-0.01548561262860737,-0.021547919351815638,-0.11522176997368505,-0.026415909011454547,0.9975579461089492,-0.016656943208697508,0.06666223206256963,-0.01252346654377557
257.9000000000941,-0.015814811,-0.9649492,0.19814964,-2.3781815,0.124786325,1.5563296,0.87063473,0.039999332,0.039999984,-0.014251149426547371,-0.009903509127523469,-0.015345361125995716,-0.021449978514627308,-0.11541921113929514,-0.026713432369518827,0.9974920263996245,-0.016848931485822626,0.0675478142713072,-0.012769634455453168
257.91666666676076,-0.016036054,-0.967448,0.20089054,-2.3784835,0.1265117,1.5561271,0.8718057,0.03999933,0.039999988,-0.014109491463987212,-0.009491588963944642,-0.014678919113220168,-0.0213466531611526,-0.115604732722286,-0.027011139634600848,0.9974250665654673,-0.01704020512657337,0.06843525090196313,-0.013018618594262989
257.9333333334274,-0.016258083,-0.9699556,0.20364085,-2.3787863,0.12824301,1.5559242,0.87298083,0.039999314,0.039999984,-0.014023688821396263,-0.00888018076582453,-0.01435648393866007,-0.021237405683960327,-0.11577413344129044,-0.027308147944058087,0.9973570475581207,-0.01723068191909291,0.06932474947142882,-0.013270357850312086
257.95000000009406,-0.016480858,-0.9724716,0.20640029,-2.37909,0.12998009,1.5557202,0.8741598,0.03999931,0.039999984,-0.01532498140508487,-0.00824023549969577,-0.014464873982200643,-0.02112340955461884,-0.11592695877924278,-0.0276026136776812,0.9972880110933461,-0.017420366424704428,0.0702156003043449,-0.013524911719028159
257.9666666667607,-0.01670436,-0.9749954,0.20916854,-2.3793952,0.13172264,1.5555154,0.87534237,0.039999302,0.039999988,-0.016668174653711176,-0.0074762739407319145,-0.01387619553681052,-0.021003560563512644,-0.11606715810158,-0.02789647331665844,0.9972179783248457,-0.017609250199561784,0.07110742471197441,-0.013782313446869929
257.98333333342737,-0.016928561,-0.97752714,0.21194528,-2.379701,0.13347062,1.5553102,0.8765286,0.039999295,0.039999984,-0.014794044277621765,-0.007379858425460295,-0.013422334430512883,-0.020878145897573974,-0.1161990212469669,-0.028186141644882687,0.9971468913331261,-0.0177972424961131,0.07200101302938373,-0.014042413858016366
258.000000000094,-0.017153433,-0.9800664,0.21473005,-2.3800077,0.13522372,1.5551045,0.8777185,0.03999929,0.03999998,-0.01663086329131147,-0.0063272310630357875,-0.013204330737015546,-0.02074763924711879,-0.11631220536001692,-0.02847382443935377,0.9970747973534798,-0.017984156177840653,0.07289566975529499,-0.014305241697193646
258.01666666676067,-0.017378952,-0.98261267,0.21752268,-2.3803158,0.13698168,1.5548983,0.8789116,0.039999288,0.039999988,-0.01722105923382955,-0.005894127192818122,-0.012638124877017987,-0.020612514798285624,-0.11641298766445542,-0.028762602846583746,0.9970017035553989,-0.01817012763934566,0.07379118952164596,-0.014570858525935634
258.0333333334273,-0.017605085,-0.98516583,0.22032267,-2.3806245,0.13874435,1.5546917,0.8801079,0.039999284,0.03999999,-0.016456287011878956,-0.005351923679630666,-0.012290391251124078,-0.020472424225724477,-0.11650180310136365,-0.02904719904753443,0.996927589216809,-0.018355063673194505,0.0746878406059437,-0.014839136145187273
258.050000000094,-0.017831815,-0.9877255,0.2231298,-2.3809342,0.14051153,1.5544844,0.8813072,0.03999928,0.03999999,-0.017514544666585863,-0.004763540092278529,-0.012150727615267698,-0.020327130873980997,-0.11657554622966151,-0.02932891556174967,0.9968524872542011,-0.01853891299750579,0.07558512609616165,-0.015110131469021989
258.0666666667606,-0.018059107,-0.9902913,0.22594373,-2.3812447,0.14228296,1.5542763,0.88250947,0.039999273,0.039999988,-0.017512712554923482,-0.00425740636365024,-0.011726203682060898,-0.020176864238257555,-0.11663721318661557,-0.029607896533492287,0.9967763995200727,-0.018721614031306812,0.07648299377592246,-0.015383828877601306
258.0833333334273,-0.018286934,-0.99286306,0.22876407,-2.3815553,0.14405848,1.5540677,0.8837144,0.03999926,0.039999988,-0.016859618630782336,-0.0038054890321936874,-0.011303355879888066,-0.020021897985041476,-0.11668745082817233,-0.02988555675044091,0.9966993061754761,-0.018903248531611693,0.0773816516620787,-0.015660148477116356
258.1000000000939,-0.018515268,-0.9954406,0.23159046,-2.3818667,0.14583778,1.5538589,0.8849219,0.039999258,0.039999988,-0.017732688904459337,-0.003023366881749201,-0.01082817740951647,-0.019861602717569794,-0.11672128220513048,-0.030159081144011557,0.9966212163184717,-0.0190836563390939,0.07828096922563864,-0.015939106051346463
258.1166666667606,-0.018744083,-0.99802333,0.23442258,-2.3821783,0.14762074,1.5536497,0.8861319,0.03999925,0.039999984,-0.017568703803760854,-0.002664133693852655,-0.010292393989685955,-0.01969654664375016,-0.11674099081632369,-0.030429718158114294,0.9965421366488929,-0.01926285831115717,0.07918082777830393,-0.016220625305025452
258.13333333342723,-0.018973354,-1.000611,0.23726013,-2.3824906,0.14940712,1.5534401,0.8873443,0.039999243,0.039999988,-0.01870732394513297,-0.0019704158841060693,-0.009983150630366033,-0.019526297316616884,-0.11674478256918966,-0.030699239586735247,0.9964620960158563,-0.019440714305321963,0.0800808570216795,-0.01650473173542663
258.1500000000939,-0.019203046,-1.0032032,0.24010274,-2.3828034,0.15119661,1.55323,0.88855875,0.039999235,0.039999988,-0.01863178489052153,-0.001345896038867922,-0.009646065126056591,-0.01935213358562117,-0.11673765665932477,-0.03096477778882109,0.996381096244473,-0.019617320966229215,0.08098098130789673,-0.016791439223018154
258.16666666676053,-0.019433135,-1.0057999,0.24295005,-2.383117,0.1529891,1.5530199,0.88977534,0.039999235,0.03999999,-0.018959756263381422,-0.0007935350476717673,-0.009221296614092545,-0.019173018341309377,-0.11671610264047375,-0.031225690582925653,0.996299137289147,-0.019792488423816892,0.08188123968557662,-0.017080662353897602
258.1833333334272,-0.01966359,-1.0084007,0.2458017,-2.3834312,0.1547844,1.5528092,0.8909937,0.039999235,0.039999995,-0.019544863896125975,-0.00015707842361822877,-0.008950084232539623,-0.018990167560676882,-0.11668157248344398,-0.031483684961099656,0.9962162499699159,-0.01996627064237003,0.08278122781539511,-0.01737238192906386
258.20000000009384,-0.019894391,-1.0110053,0.24865736,-2.3837457,0.15658222,1.5525982,0.89221376,0.039999228,0.03999999,-0.01889944791866327,0.000260560412995714,-0.008471113804819908,-0.018802300665102176,-0.11663329757740187,-0.031738106597654706,0.9961324181656614,-0.020138653089198738,0.08368113484836262,-0.017666573003127482
258.2166666667605,-0.020125506,-1.0136127,0.25151667,-2.384061,0.15838233,1.552387,0.8934356,0.039999217,0.039999988,-0.02090404829595549,0.0011335760924935379,-0.007598693735033635,-0.01861022278562168,-0.11657259082318061,-0.031989594966210136,0.9960477085129812,-0.020309402633777424,0.08458021589653691,-0.017963229375417066
258.23333333342714,-0.020356908,-1.0162235,0.25437927,-2.3843768,0.1601845,1.5521755,0.89465874,0.039999213,0.03999999,-0.019232162975368894,0.001437990324915095,-0.0076777113418913245,-0.01841574691704667,-0.11650410878152363,-0.03223682679290109,0.9959620675545755,-0.020478697782199136,0.08547906838307436,-0.018262305383554684
258.2500000000938,-0.02058856,-1.0188373,0.25724486,-2.3846924,0.16198856,1.5519638,0.89588314,0.039999213,0.039999995,-0.019130737087280636,0.0018556418569237731,-0.007233488552038647,-0.01821630624723093,-0.11642034167420742,-0.032480254074628886,0.995875500111083,-0.02064649446396189,0.08637764475893407,-0.01856375583629041
258.26666666676044,-0.020820443,-1.0214531,0.26011303,-2.385008,0.1637943,1.551752,0.89710873,0.039999206,0.03999999,-0.019876055013456906,0.002450786638530378,-0.006287879839306232,-0.018012433463785504,-0.11632028559538163,-0.03271902488565635,0.995788043770556,-0.02081270292530694,0.08727554522552187,-0.01886749814205015
258.2833333334271,-0.02105253,-1.0240712,0.2629834,-2.385324,0.16560146,1.5515398,0.89833516,0.0399992,0.039999995,-0.02010418000275571,0.0032036589097061974,-0.006423554588641522,-0.01780503342647989,-0.11620878029236428,-0.032955477092369026,0.995699706554136,-0.020977345164714924,0.08817267293069622,-0.019173552255765277
258.30000000009375,-0.021284787,-1.026691,0.26585576,-2.3856401,0.1674098,1.5513275,0.8995624,0.039999187,0.03999999,-0.02050420952106613,0.0036477977978233156,-0.005666140207127857,-0.01759336592509056,-0.11608420677039465,-0.033186969513449543,0.9956105046048767,-0.021140350461348364,0.08906886954758886,-0.019481919317889795
258.3166666667604,-0.021517184,-1.0293124,0.26872957,-2.3859565,0.16921912,1.5511152,0.90079033,0.039999183,0.039999995,-0.020323832427404653,0.004352279151925709,-0.005354602840323963,-0.017377518047371074,-0.11594694444039348,-0.033413418019657304,0.9955204352014398,-0.02130165105718979,0.08996421398167306,-0.019792497599680707
258.33333333342705,-0.02174969,-1.0319347,0.2716046,-2.386273,0.17102922,1.5509028,0.9020187,0.039999187,0.04,-0.020509275415170336,0.004675812286408787,-0.004661326840116331,-0.017159168841373508,-0.11579579590273784,-0.033634315232197176,0.9954295194107682,-0.02146128925067142,0.09085848120463624,-0.02010525658958169
258.3500000000937,-0.021982288,-1.0345577,0.27448058,-2.3865893,0.17283985,1.5506905,0.90324754,0.039999176,0.04,-0.02075722402161695,0.005194881714498667,-0.00421082396101502,-0.016936212428158397,-0.1156320830496329,-0.033852903586539404,0.9953377738857805,-0.0216192032358834,0.09175151673144435,-0.020420213148345086
258.36666666676035,-0.022214947,-1.0371815,0.27735698,-2.3869057,0.17465082,1.5504781,0.9044766,0.03999917,0.04,-0.020432316785701232,0.005925558053831992,-0.004217904337300293,-0.016710037806122104,-0.11545667181918454,-0.034065342341168384,0.9952451969615542,-0.021775315278242925,0.0926434009346112,-0.020737257117538592
258.383333333427,-0.022447633,-1.0398057,0.28023356,-2.387222,0.17646189,1.5502657,0.90570563,0.03999917,0.04,-0.020725524764397818,0.006357290421737938,-0.003615411677837521,-0.016481158370002517,-0.11526784807702878,-0.034272710356113775,0.9951518038613328,-0.021929675386527528,0.0935339762979353,-0.021056397765861514
258.40000000009366,-0.022680318,-1.0424296,0.2831098,-2.3875382,0.17827281,1.5500532,0.9069347,0.039999165,0.04,-0.020657741171659083,0.0070043412412623685,-0.0029388012552478138,-0.016248767132626137,-0.11506580376164101,-0.034474813180238845,0.9950576163788676,-0.022082155765290077,0.09442309044670619,-0.021377522626746512
258.4166666667603,-0.02291298,-1.0450529,0.2859855,-2.3878543,0.18008335,1.5498408,0.9081635,0.039999165,0.04,-0.021276820122961837,0.007555048159080258,-0.0024995479748990412,-0.016013274233923187,-0.11485079229204569,-0.03467390596930915,0.9949626619515314,-0.02223277502817211,0.09531047269472741,-0.02170066431188579
258.43333333342696,-0.023145579,-1.0476753,0.28886035,-2.3881705,0.18189335,1.5496285,0.9093918,0.03999916,0.04,-0.021423069980786025,0.007941331697786103,-0.0019799464815672962,-0.015775440488784723,-0.11462425047375775,-0.034865993935955644,0.9948669536899678,-0.02238158135622442,0.09619602115613345,-0.02202577547708527
258.4500000000936,-0.023378097,-1.0502968,0.29173383,-2.3884864,0.18370256,1.5494162,0.9106197,0.039999153,0.04,-0.020743817485735505,0.008617980918890211,-0.0018739925759181375,-0.015534182415979925,-0.11438709004297425,-0.03505314215442351,0.9947704863991392,-0.022528429834727928,0.09707988295655151,-0.022352752929876228
258.46666666676026,-0.023610495,-1.0529168,0.2946057,-2.3888023,0.18551081,1.5492039,0.9118468,0.039999146,0.04,-0.02164244673874549,0.009104218328176428,-0.0011887395238163734,-0.015291023523952854,-0.11413584873541985,-0.035233837470096036,0.9946733073924239,-0.02267335443062661,0.09796160676366508,-0.022681581958950824
258.4833333334269,-0.023842756,-1.0555352,0.29747558,-2.3891182,0.18731774,1.5489916,0.9130732,0.039999146,0.04,-0.02144447091301238,0.009799499307167059,-0.0009355783111231197,-0.015045003359793543,-0.11387501898572705,-0.03541044923797963,0.9945754190808461,-0.022816254229994854,0.09884123197183294,-0.023012282923729827
258.50000000009356,-0.024074847,-1.0581515,0.3003431,-2.389434,0.18912324,1.5487796,0.9142985,0.03999914,0.04,-0.021609735396310725,0.010208845094933361,-7.012741157774727e-05,-0.014797213195059708,-0.11360317904083264,-0.03558005046147496,0.994476837784966,-0.0229571907626103,0.09971865553316314,-0.023344726174494748
258.5166666667602,-0.024306737,-1.0607654,0.30320793,-2.3897498,0.19092704,1.5485679,0.91552263,0.03999913,0.04,-0.021275145455357247,0.010659207708235696,0.0002449909096591263,-0.014547025951278866,-0.1133204977904333,-0.03574572859573388,0.9943775727460835,-0.02309612157586357,0.10059384737648173,-0.023678890551656243
258.53333333342687,-0.024538402,-1.0633763,0.30606976,-2.390065,0.19272892,1.5483565,0.9167454,0.039999127,0.04,-0.0211282815762992,0.011047540809011602,0.0009641058884235498,-0.014295228601513915,-0.11302660076724788,-0.035904515804074874,0.9942776387066672,-0.023233101872847214,0.10146671192042205,-0.024014714599975624
258.5500000000935,-0.024769811,-1.0659844,0.30892822,-2.3903797,0.19452867,1.5481454,0.9179668,0.039999127,0.04,-0.020863656862957214,0.011577865664491593,0.0010212597596592765,-0.014040750833273635,-0.11272071705448562,-0.03605633180709658,0.9941770404266635,-0.02336805565025314,0.10233727916351253,-0.024352157132711275
258.56666666676017,-0.025000937,-1.0685892,0.31178287,-2.390694,0.19632614,1.5479343,0.91918683,0.03999912,0.04,-0.021012383800123047,0.012181669766908598,0.0013505474293906694,-0.013784216943630342,-0.11240094728447725,-0.036202520415296605,0.9940758178072786,-0.02350079870346241,0.10320528341847986,-0.024691099319409923
258.5833333334268,-0.02523175,-1.0711901,0.31463346,-2.3910077,0.19812101,1.5477237,0.920405,0.039999112,0.04,-0.021200536976362372,0.012585474441906275,0.0023776907196126906,-0.01352744701591796,-0.11207216078862867,-0.03634335082526512,0.9939739800137433,-0.023631571308038543,0.10407063426156442,-0.02503155963074027
258.6000000000935,-0.025462218,-1.0737872,0.31747958,-2.391321,0.19991308,1.5475135,0.92162126,0.039999105,0.04,-0.020826171714372066,0.013146442627309796,0.0025247093006219856,-0.013267942259707219,-0.11173141161644254,-0.03647891725111066,0.993871528800552,-0.02376022768080688,0.10493342482533577,-0.0253734541329231
258.6166666667601,-0.025692316,-1.0763799,0.3203209,-2.3916335,0.20170218,1.5473034,0.9228354,0.039999098,0.04,-0.02084375013748918,0.013553163094415233,0.002923049084480045,-0.013007209397601346,-0.11137797802877825,-0.036607435039000547,0.9937685044588576,-0.023886851513207387,0.10579332405257134,-0.025716734946319226
258.6333333334268,-0.025922019,-1.0789677,0.32315716,-2.3919456,0.20348802,1.547094,0.92404735,0.039999098,0.04,-0.021185160521453028,0.014056235705983688,0.00378663096188836,-0.012744906045558946,-0.11101352232625683,-0.03672719827882673,0.9936649244851481,-0.024011381014867675,0.1066502512036668,-0.026061376553792707
258.6500000000934,-0.026151296,-1.0815508,0.3259879,-2.3922575,0.20527041,1.5468849,0.925257,0.039999086,0.04,-0.02117660219420614,0.01479177110367269,0.0037096601307795574,-0.012480689615041222,-0.11063949630183809,-0.036844201639548116,0.9935608087164329,-0.024133687586503243,0.10750412888198703,-0.02640732435424134
258.6666666667601,-0.02638013,-1.0841284,0.32881284,-2.3925686,0.20704913,1.546676,0.92646414,0.039999083,0.04,-0.020959408895260268,0.015038341350692708,0.004508804220282325,-0.012216738841270239,-0.11025585840800695,-0.03695200340054876,0.9934561928322051,-0.02425389905430852,0.10835468333014034,-0.026754511851811075
258.68333333342673,-0.026608475,-1.0867006,0.3316316,-2.3928785,0.20882401,1.5464677,0.9276686,0.03999908,0.04,-0.01956465709680444,0.015210374629415213,0.0046810301115307595,-0.011951720418353358,-0.10986270695614578,-0.037052086337193285,0.9933510326988448,-0.024372049748549243,0.10920240882004832,-0.02710282153377596
258.7000000000934,-0.02683631,-1.0892669,0.3344438,-2.3931878,0.21059477,1.5462599,0.9288704,0.03999907,0.04,-0.020370201212616124,0.015997670094936023,0.0053461074422389565,-0.011684423355502398,-0.10945612184588044,-0.03714809091091638,0.9932453810309992,-0.024487950485401328,0.11004694164860238,-0.02745221257747241
258.71666666676003,-0.027063614,-1.0918273,0.33724916,-2.3934963,0.21236122,1.5460526,0.9300692,0.039999068,0.04,-0.020233056463458965,0.016446132452685447,0.005561868271142245,-0.011417127991557273,-0.10903677462174527,-0.03723632499867435,0.9931392531622437,-0.02460169637010996,0.11088819517473225,-0.02780267136345191
258.7333333334267,-0.027290346,-1.0943811,0.3400474,-2.3938038,0.21412317,1.5458459,0.93126494,0.039999068,0.04,-0.01998498924948855,0.016660322922545934,0.006232876657097375,-0.01114990161705287,-0.10860857791138458,-0.03731724942762636,0.9930326688130824,-0.02471332736553252,0.11172607622459169,-0.028154111812444163
258.75000000009334,-0.027516482,-1.0969281,0.34283808,-2.3941107,0.21588041,1.5456396,0.93245745,0.039999057,0.04,-0.020263691894850666,0.017364904561778527,0.006569937726752517,-0.010881065701985479,-0.10816780587610854,-0.03739215227920871,0.99292566794813,-0.024822760174036732,0.11256033440810863,-0.02850648391220918
258.76666666676,-0.027742008,-1.099468,0.34562093,-2.3944166,0.21763273,1.545434,0.9336466,0.03999905,0.04,-0.019785305306108114,0.017639568887561907,0.007091188076835397,-0.010612349812111073,-0.10771798746906057,-0.03745984413689539,0.9928182578807807,-0.024930010951076498,0.11339099851608594,-0.028859709424663323
258.78333333342664,-0.027966881,-1.1020004,0.34839553,-2.3947215,0.21937987,1.545229,0.9348323,0.039999053,0.04,-0.01968682786830378,0.018193814199707337,0.007567037500200158,-0.01034310846092118,-0.10725748993553928,-0.03752061587162547,0.9927104652778819,-0.02503506977236968,0.11421793272897465,-0.029213716853277123
258.8000000000933,-0.028191084,-1.1045247,0.35116157,-2.3950257,0.22112165,1.5450244,0.93601435,0.039999053,0.04,-0.020182765965692795,0.018748291382375548,0.008044499267623184,-0.010074290477012825,-0.1067868591766524,-0.03757322862274233,0.9926023451224807,-0.025137861743992,0.11504076576848958,-0.029568472664158792
258.81666666675994,-0.028414587,-1.1070412,0.3539187,-2.3953288,0.22285785,1.5448205,0.9371926,0.039999045,0.04,-0.018814072471151633,0.01892237478506864,0.008287915273175184,-0.009805772664454454,-0.10631010416074387,-0.037620426751074104,0.992493856614451,-0.02523848266737838,0.11585993763801704,-0.029923877184227395
258.8333333334266,-0.028637355,-1.1095495,0.35666665,-2.395631,0.22458823,1.5446175,0.9383669,0.03999904,0.04,-0.019491618316180848,0.01953414384477936,0.008837681237527928,-0.00953795265113632,-0.1058208061359357,-0.037658404651706764,0.9923850455701434,-0.02533690439353013,0.11667514131820489,-0.030279927392161343
258.85000000009325,-0.02885937,-1.1120491,0.3594051,-2.3959324,0.2263126,1.5444152,0.93953717,0.039999034,0.04,-0.019156157061805956,0.01986616560316623,0.009283718334884838,-0.009269832030258982,-0.10532243235310233,-0.037691184028935426,0.9922759419063396,-0.02543307909001734,0.11748623608015629,-0.030636545719207427
258.8666666667599,-0.029080609,-1.1145397,0.36213368,-2.3962324,0.22803076,1.5442135,0.9407032,0.03999903,0.04,-0.018219448617795564,0.020064511290240894,0.009536628392181612,-0.009003327212390166,-0.10481502771965023,-0.03771398148302969,0.9921665462838598,-0.025527102044630986,0.11829330654975236,-0.030993630343780734
258.88333333342655,-0.029301036,-1.117021,0.36485216,-2.3965313,0.22974254,1.5440127,0.94186485,0.03999903,0.04,-0.018922287971712137,0.020586604609218462,0.010228900330655488,-0.008736710667183116,-0.10429693521160532,-0.03773011697223484,0.9920569069242452,-0.02561896427959789,0.11909604228648983,-0.03135115316595131
258.9000000000932,-0.029520627,-1.1194929,0.36756015,-2.3968287,0.23144773,1.5438124,0.9430221,0.03999902,0.04,-0.01733644064985107,0.02071602470266054,0.010132861049727548,-0.008470363579167,-0.10377112144506484,-0.03774075648067873,0.9919469985919354,-0.025708660999529225,0.11989476827376101,-0.031709009360804834
258.91666666675985,-0.029739358,-1.1219549,0.37025714,-2.397125,0.23314606,1.5436131,0.94417465,0.03999902,0.04,-0.018307013692586693,0.021675281334088137,0.011081026437231856,-0.008204800459609009,-0.10323286802034154,-0.03774118626098691,0.9918368868177753,-0.025796101547560027,0.12068907228637789,-0.03206710032455793
258.9333333334265,-0.029957203,-1.1244069,0.37294313,-2.3974204,0.23483743,1.5434147,0.9453225,0.039999012,0.04,-0.018157284702979837,0.021686697018785672,0.011267814754445382,-0.00794104042604192,-0.10268598998532096,-0.037736097477216624,0.991726584281917,-0.025881336348227885,0.1214789224095779,-0.032425450922992774
258.95000000009315,-0.030174134,-1.1268485,0.37561765,-2.3977144,0.23652157,1.5432172,0.94646543,0.039999016,0.04,-0.01729864375383805,0.022039826339770308,0.011702732094387436,-0.0076789344991280845,-0.102132230813793,-0.0377222559902763,0.9916161065810329,-0.02596443681040891,0.12226429705134517,-0.03278394205601938
258.9666666667598,-0.03039013,-1.1292791,0.37828025,-2.3980074,0.2381983,1.5430204,0.9476033,0.039999004,0.04,-0.017919252482245795,0.022844999665483368,0.012138535983463594,-0.00741664418393443,-0.10156760439159992,-0.03770307198012053,0.9915055219500681,-0.026045289789550712,0.12304477965302811,-0.033142495718322396
258.98333333342646,-0.030605167,-1.1316988,0.38093084,-2.398299,0.2398674,1.5428246,0.94873595,0.039998997,0.04,-0.01674683289643042,0.02266397803939446,0.012520092840673236,-0.007156955465787332,-0.10099769695936488,-0.037675392050761314,0.9913947931437761,-0.026124024212974165,0.12382074669875846,-0.03350107719598117
259.0000000000931,-0.03081921,-1.1341074,0.38356894,-2.3985887,0.2415287,1.5426298,0.9498636,0.039998997,0.04,-0.015688050905549034,0.022930862232239946,0.012753011377930612,-0.006899435941213061,-0.10041768058750002,-0.03763790778184205,0.9912839283621322,-0.026200515060920172,0.12459229524195949,-0.033859508971956984
259.01666666675976,-0.031032242,-1.1365042,0.3861944,-2.3988771,0.24318208,1.5424356,0.95098567,0.039998997,0.04,-0.017041022030284125,0.02357191205046849,0.01307280439929448,-0.006643754148968464,-0.09982641904554376,-0.03759432566365738,0.9911730228493724,-0.026274930805333274,0.12535870261169502,-0.03421786764725617
259.0333333334264,-0.031244237,-1.1388894,0.38880682,-2.3991644,0.24482723,1.5422425,0.95210207,0.039998986,0.04,-0.01620846490704153,0.02401678324794876,0.013489272735411895,-0.00638847226349968,-0.09923069117112784,-0.03754583440441342,0.9910620500045625,-0.026347211780541335,0.12612031506015028,-0.03457605531684911
259.05000000009306,-0.03145516,-1.1412624,0.39140594,-2.3994496,0.24646397,1.5420506,0.95321274,0.03999898,0.04,-0.014728566139110555,0.023714713509626062,0.01407988028547802,-0.006135685856552567,-0.0986251179658426,-0.037487974317878245,0.9909509981673944,-0.026417502845518855,0.12687732398482673,-0.034933929537070404
259.0666666667597,-0.03166499,-1.1436229,0.39399144,-2.3997335,0.24809213,1.5418596,0.95431757,0.039998982,0.04,-0.016104401988359385,0.024680714385816316,0.01438121200615372,-0.005883865623503459,-0.09800803026802354,-0.037420406815182036,0.990839964615485,-0.02648565085118237,0.1276290901483839,-0.035291502768648335
259.08333333342637,-0.031873718,-1.145971,0.39656302,-2.4000165,0.24971154,1.5416697,0.95541656,0.039998982,0.04,-0.015884772741570075,0.025122847101954893,0.01456097552122726,-0.005634406618006266,-0.09738517043084578,-0.03734577662398224,0.9907289608928465,-0.02655155680048967,0.12837566126940264,-0.03564870927950324
259.100000000093,-0.03208131,-1.1483063,0.39912033,-2.4002976,0.25132203,1.5414809,0.9565097,0.03999898,0.04,-0.01411003986091508,0.024934716918523225,0.014833999620755822,-0.0053886531718025585,-0.09675573735857737,-0.03726453106018668,0.990617962995397,-0.02661529928737069,0.1291173513727884,-0.036005371948779216
259.11666666675967,-0.03228774,-1.1506281,0.40166312,-2.400576,0.2529234,1.541293,0.9575964,0.03999897,0.04,-0.013108369779235574,0.024806809001665098,0.0152830201502141,-0.0051460231020549335,-0.09611746043581135,-0.03717665338044343,0.9905069810755085,-0.026677249533914912,0.12985411562710916,-0.03636142808923698
259.1333333334263,-0.03249298,-1.1529363,0.40419117,-2.4008536,0.25451544,1.5411062,0.9586768,0.039998963,0.04,-0.015394025877224493,0.02606455546964037,0.015810230142776494,-0.00490253747812959,-0.09546646274568135,-0.0370820660311566,0.9903961303223451,-0.026737060471126478,0.13058522239244957,-0.036716948846581006
259.150000000093,-0.03269701,-1.1552308,0.4067042,-2.4011302,0.25609785,1.5409204,0.9597508,0.039998963,0.04,-0.015148725292979393,0.02647112044682487,0.016058908389871007,-0.004663006422054444,-0.09481313900345661,-0.03697823775861353,0.9902854398874021,-0.026794731622912342,0.13131055052232302,-0.03707194661459215
259.1666666667596,-0.03289981,-1.1575116,0.40920183,-2.4014046,0.25767064,1.540736,0.9608182,0.039998967,0.04,-0.01231474280869449,0.025881646205705433,0.016119927993540895,-0.0044281625664267105,-0.09415639249646211,-0.0368639084927746,0.9901748056389356,-0.02685045664294235,0.13203103080402395,-0.03742611602595841
259.1833333334263,-0.03310136,-1.1597781,0.4116837,-2.401677,0.25923368,1.5405525,0.96187884,0.039998952,0.04,-0.012540803339788908,0.02634057972689119,0.01646696085239041,-0.004194243984775352,-0.09348775667965029,-0.03674639899534951,0.9900643165147682,-0.02690424402560927,0.1327461149017088,-0.0377793567448875
259.2000000000929,-0.033301625,-1.1620302,0.4141498,-2.4019473,0.26078674,1.5403702,0.9629329,0.039998945,0.04,-0.012549425972396833,0.02651449122719196,0.016794962378130496,-0.003962968855158074,-0.09281110582269386,-0.036620465210420616,0.9899539860803757,-0.026956029713615777,0.1334557970071248,-0.03813172105802831
259.2166666667596,-0.0335006,-1.1642674,0.41659972,-2.4022164,0.26232958,1.5401893,0.9639799,0.03999895,0.04,-0.013450262164038662,0.02736297340011351,0.017479616290594358,-0.00373502286436396,-0.09212551152019419,-0.036486180368036775,0.9898438902153808,-0.027005834885626932,0.13415961166958185,-0.03848319739936626
259.23333333342623,-0.033698246,-1.1664896,0.4190332,-2.402484,0.2638621,1.5400093,0.96502,0.039998945,0.04,-0.012446982922753591,0.027360619501437533,0.01735757342677946,-0.003510902006314258,-0.0914382949925122,-0.03634419357216,0.9897340447193895,-0.027053628643345755,0.13485758777327508,-0.03883365705929475
259.2500000000929,-0.03389455,-1.1686965,0.42144996,-2.4027493,0.26538405,1.5398308,0.96605283,0.039998937,0.04,-0.011065481517880116,0.027285006407451462,0.017935703855709306,-0.003290374016585794,-0.09074366592871613,-0.03619525003147982,0.9896244010716397,-0.0270996291485845,0.13555016472343767,-0.0391830032929632
259.26666666675953,-0.034089494,-1.1708884,0.4238496,-2.4030125,0.26689532,1.5396535,0.9670784,0.039998934,0.04,-0.010513799267597435,0.02765878701092017,0.017661973002625064,-0.003071971435298859,-0.09004150175533465,-0.036038640646305325,0.9895149811998579,-0.02714375267946069,0.13623732539462718,-0.03953112496298882
259.2833333334262,-0.03428305,-1.173064,0.4262321,-2.403274,0.26839572,1.5394773,0.9680967,0.03999893,0.04,-0.011902822955267567,0.028096707609504,0.018647999517262814,-0.002856432122042986,-0.08932923734809509,-0.03587601949588662,0.9894059191633946,-0.027185953443458595,0.13691818836334158,-0.03987807361331468
259.30000000009284,-0.034475192,-1.1752241,0.42859703,-2.4035337,0.26988512,1.5393027,0.96910745,0.039998934,0.04,-0.010120122151890953,0.028153037449096807,0.018424418950302446,-0.0026457281064259305,-0.08861591354622082,-0.035704959152975044,0.9892971239158654,-0.027226319559415502,0.13759354456086456,-0.04022368245477894
259.3166666667595,-0.034665924,-1.1773682,0.43094426,-2.4037914,0.27136335,1.5391293,0.9701106,0.039998926,0.04,-0.010204959829573923,0.028397388948930846,0.01862021172979178,-0.0024379687048234067,-0.08789271487125996,-0.03552718453922836,0.9891886580607169,-0.027264883899359115,0.13826302613969219,-0.040567973485094236
259.33333333342614,-0.034855198,-1.1794955,0.43327338,-2.404047,0.27283022,1.538957,0.97110605,0.039998926,0.04,-0.009824775858868762,0.028637049236546197,0.01926483735936735,-0.002234005080982704,-0.08716331267230826,-0.035340564642264566,0.989080577322878,-0.02730166130947589,0.13892637963790563,-0.04091077966856134
259.3500000000928,-0.035042997,-1.181606,0.43558428,-2.4043007,0.27428567,1.5387863,0.9720937,0.039998922,0.04,-0.009550480202280553,0.028712858402490937,0.019473868436314934,-0.002033827369862372,-0.08642998062066207,-0.03514854092412582,0.9889728757004856,-0.027336693541762172,0.13958375451143942,-0.041252051966003296
259.36666666675944,-0.035229318,-1.1837,0.4378766,-2.4045525,0.27572942,1.5386169,0.97307354,0.03999892,0.04,-0.009087469046464847,0.029193287294060344,0.019461757255156975,-0.0018368870779883958,-0.08569169768545325,-0.03494979629171137,0.9888655779572124,-0.027369890445524014,0.14023509617543958,-0.04159177357378998
259.3833333334261,-0.03541412,-1.1857768,0.44015038,-2.4048018,0.27716133,1.5384489,0.9740453,0.039998915,0.04,-0.008179108934136536,0.028804262887072163,0.019686125060691673,-0.0016447722134420098,-0.08494576102198086,-0.03474372561606555,0.9887586724777234,-0.027401530647898374,0.14088053405876244,-0.04192992775524634
259.40000000009275,-0.03559738,-1.1878362,0.44240516,-2.4050493,0.2785813,1.5382824,0.9750089,0.039998915,0.04,-0.008670294059909267,0.029467879883426917,0.02021379217689301,-0.0014551639381752551,-0.08419436072296597,-0.034530501411933076,0.9886522412729385,-0.027431469353834028,0.1415196567481776,-0.04226638225543795
259.4166666667594,-0.035779104,-1.1898783,0.4446407,-2.4052947,0.27998918,1.5381172,0.97596437,0.039998915,0.04,-0.007585847336688545,0.029540182142406834,0.019918973568566756,-0.0012705272857779504,-0.08343851477672351,-0.034308868717026736,0.9885462632781268,-0.02745971973595904,0.14215273155878486,-0.04260105704382417
259.43333333342605,-0.035959266,-1.1919028,0.44685674,-2.4055374,0.28138483,1.5379534,0.9769115,0.039998904,0.04,-0.006689407208160247,0.029420901261933974,0.020364866549604788,-0.0010887837363214616,-0.08267612716571365,-0.034082988811202156,0.9884407490094068,-0.02748643515283321,0.14277978301513092,-0.042933846117765996
259.4500000000927,-0.036137853,-1.1939093,0.4490532,-2.4057786,0.28276816,1.5377913,0.97785026,0.039998904,0.04,-0.008138009242486532,0.03016029225656469,0.02085889853922218,-0.0009112122102957372,-0.08190789784013325,-0.03384885569136929,0.9883357829208959,-0.027511436367034854,0.14340035058357087,-0.043264772271115845
259.46666666675935,-0.036314845,-1.1958975,0.45122972,-2.4060178,0.28413892,1.5376303,0.97878057,0.0399989,0.04,-0.006984611203408875,0.03018225598050428,0.020848367648762522,-0.0007387008750088901,-0.08113496499164012,-0.03360838224399147,0.988231391418985,-0.02753482606282715,0.14401435327025922,-0.04359376583796992
259.483333333426,-0.036490217,-1.1978674,0.45338616,-2.4062545,0.2854971,1.5374709,0.9797022,0.039998896,0.04,-0.005916980131459582,0.029931993633158793,0.020927986758867423,-0.0005711912847021008,-0.08036123528886534,-0.033360744991565466,0.9881275372127893,-0.027556782026700918,0.14462215144940324,-0.043920693030350594
259.50000000009265,-0.036663942,-1.1998188,0.45552236,-2.4064887,0.28684247,1.5373131,0.98061514,0.0399989,0.04,-0.00525039468701749,0.029937123822632028,0.021074485204242155,-0.00040740738839007556,-0.0795816029331815,-0.033106087737471146,0.988024228122254,-0.027577310397404783,0.14522378860526064,-0.04424554008941192
259.5166666667593,-0.036836017,-1.2017516,0.45763803,-2.4067209,0.28817496,1.5371567,0.9815194,0.039998893,0.04,-0.006066201705756669,0.030637751780482336,0.02137993420473494,-0.0002465790457183148,-0.07879435026793394,-0.032845870975539565,0.9879215537241349,-0.0275962737269945,0.14581879556490868,-0.04456824232203059
259.53333333342596,-0.03700641,-1.2036653,0.45973307,-2.4069507,0.2894944,1.537002,0.9824148,0.039998893,0.04,-0.005028987528810092,0.030330840355707878,0.021668078076897412,-9.156033240171821e-05,-0.07800584820507268,-0.03257848127556648,0.9878194960240712,-0.02761386975329406,0.1464073682376148,-0.044888751349682815
259.5500000000926,-0.03717511,-1.20556,0.4618072,-2.407178,0.29080072,1.5368488,0.9833012,0.03999888,0.04,-0.004099992200545799,0.030359950520386647,0.0214926620542899,6.0743977523130405e-05,-0.07721187313822223,-0.032306195663057674,0.9877180528372226,-0.02763012611600353,0.146989649554084,-0.04520693701443277
259.56666666675926,-0.037342116,-1.2074356,0.46386018,-2.4074028,0.2920938,1.536697,0.9841787,0.039998878,0.04,-0.004132561218828101,0.030695189701601677,0.021593168489364434,0.00020873152013415122,-0.07641292320030538,-0.03202755823204877,0.9876172692691313,-0.027644972019505408,0.14756545299478438,-0.04552276404030524
259.5833333334259,-0.037507407,-1.2092918,0.465892,-2.4076262,0.29337347,1.536547,0.9850471,0.03999888,0.04,-0.00534958783950934,0.03137542074299615,0.022218728543621502,0.0003521865432691111,-0.07560893433894134,-0.03174307719164582,0.9875172244045368,-0.027658353349324795,0.1481343245929162,-0.04583632698814458
259.60000000009256,-0.037670974,-1.2111281,0.46790233,-2.4078467,0.29463965,1.5363984,0.98590636,0.03999888,0.04,-0.0029849232981327134,0.030544163416723613,0.022150743599347322,0.0004891733509696794,-0.07480500247575331,-0.031450030818224395,0.9874178793092664,-0.02767049971825742,0.1486966536067034,-0.04614737556894134
259.6166666667592,-0.037832793,-1.2129452,0.46989107,-2.4080646,0.29589218,1.5362514,0.9867564,0.039998874,0.04,-0.0024244642485626855,0.030803241276189386,0.021722571232984933,0.0006228774598531633,-0.07399818569305049,-0.031154168575852584,0.9873192028683698,-0.02768140762385672,0.14925272528973085,-0.04645595024231754
259.63333333342587,-0.03799284,-1.2147424,0.47185802,-2.4082804,0.2971309,1.5361061,0.9875971,0.039998867,0.04,-0.0031271949374023222,0.031245136492408232,0.02241104949858297,0.0007529527550491147,-0.07318431886230103,-0.03085261712488857,0.9872212825667035,-0.027691030962878466,0.14980206806739077,-0.04676201935651241
259.6500000000925,-0.038151104,-1.2165196,0.47380286,-2.4084942,0.2983559,1.5359623,0.98842835,0.039998867,0.04,-0.0030983502747439218,0.031555018476980834,0.02249556057631885,0.0008774001716141087,-0.07236718625101077,-0.03054322737987665,0.9871241711982551,-0.027699375729344288,0.15034447471453016,-0.04706542407303464
259.66666666675917,-0.038307596,-1.2182766,0.47572565,-2.4087045,0.29956704,1.5358202,0.9892502,0.03999887,0.04,-0.00022188728454608508,0.03025490684542831,0.022190709594560598,0.0009967637648507915,-0.07154952155276743,-0.030228581048629383,0.9870277584293,-0.027706756435107546,0.15088073414770845,-0.047366061699549586
259.6833333334258,-0.038462278,-1.2200134,0.47762617,-2.408913,0.30076405,1.5356796,0.9900625,0.039998863,0.04,-0.0025192078639157955,0.03171209418931786,0.02257504216682804,0.0011135538732266921,-0.07072503390819995,-0.029910126575348195,0.9869321908596201,-0.02771290255329812,0.151409969115789,-0.04766410525182962
259.7000000000925,-0.03861515,-1.2217296,0.47950426,-2.4091191,0.30194694,1.5355409,0.99086523,0.039998867,0.04,-0.001564625335692682,0.0314399784685615,0.023022186887877716,0.0012250124716725423,-0.06989900135481492,-0.02958428068061114,0.986837444120607,-0.027717875660281135,0.15193248070418272,-0.04795935318019127
259.7166666667591,-0.038766183,-1.2234253,0.4813598,-2.4093223,0.30311564,1.5354037,0.99165833,0.039998863,0.04,-7.744149481681006e-05,0.030866600550016887,0.022459065770841224,0.0013310270019243134,-0.06907093478901703,-0.029254685683443804,0.9867435099246673,-0.027721909126184,0.1524483815657036,-0.0482517599051624
259.7333333334258,-0.03891539,-1.2251002,0.48319268,-2.4095228,0.30426997,1.5352684,0.99244165,0.03999886,0.04,-0.00021621374570734986,0.031230945936377985,0.022960781301162303,0.0014341333099320355,-0.06823863111949832,-0.02891976450394307,0.9866504039490681,-0.027724975446451104,0.15295766600430943,-0.04854130750348971
259.7500000000924,-0.039062746,-1.2267542,0.4850027,-2.4097219,0.30540997,1.5351347,0.9932153,0.039998855,0.04,-0.0018813306940312913,0.032166024069801846,0.023117036470865493,0.0015339454179674854,-0.06740251657079632,-0.028580468876187662,0.9865582631029712,-0.027726786689316923,0.15345958829327824,-0.048827999795109746
259.7666666667591,-0.039208245,-1.2283871,0.48678976,-2.4099174,0.30653548,1.5350027,0.9939792,0.039998848,0.04,0.0017869657253921645,0.030612784959271888,0.022821998635602636,0.0016253472923097034,-0.06656998023430657,-0.028235283541535844,0.9864669415431697,-0.027727818352438278,0.1539551502058468,-0.04911163871195623
259.78333333342573,-0.03935187,-1.2299991,0.48855364,-2.4101102,0.30764645,1.5348724,0.9947331,0.03999885,0.04,0.0008121020516060895,0.031431309010909736,0.022916575554998708,0.0017148092834159967,-0.065730605686034,-0.02788523523197954,0.9863765169207631,-0.02772798406098879,0.15444394776888237,-0.04939223385047559
259.8000000000924,-0.039493613,-1.2315898,0.4902944,-2.4103012,0.30874282,1.5347438,0.99547666,0.03999885,0.04,-0.00016853685047557576,0.031812623482307956,0.023211449609172874,0.0018001895073015868,-0.06488888049211161,-0.027529961332273492,0.9862870616654998,-0.027727348508173717,0.15492555803878982,-0.049669886272371525
259.81666666675903,-0.039633468,-1.2331597,0.4920118,-2.4104896,0.30982447,1.5346171,0.9962104,0.03999885,0.04,0.0017690114872959128,0.03138344802403603,0.022915447937699174,0.0018822880319470693,-0.06404802914692564,-0.027169743532199087,0.9861984977401171,-0.02772578168804878,0.1554006435134584,-0.04994440990266935
259.8333333334257,-0.039771434,-1.2347077,0.49370566,-2.4106746,0.3108913,1.5344919,0.9969344,0.039998848,0.04,0.0024783999296840165,0.031027751219725452,0.023134954019110587,0.0019590116989827537,-0.06320462549253922,-0.026807774255294195,0.9861108857552687,-0.027723356691349416,0.15586892005576947,-0.050215697240720863
259.85000000009234,-0.03990749,-1.2362343,0.49537605,-2.4108577,0.31194326,1.5343685,0.99764836,0.039998844,0.04,0.0009238666667688022,0.03188270108992475,0.023360253225301886,0.002031770948230257,-0.06235682741238944,-0.026440228255437875,0.9860242858020123,-0.027720028352434027,0.15633004998781969,-0.0504838915653048
259.866666666759,-0.040041607,-1.2377387,0.49702272,-2.4110389,0.31298035,1.5342467,0.99835217,0.03999884,0.04,0.0008029677486920406,0.03202078048204493,0.023676150878737534,0.0020984520455173024,-0.061512131072477494,-0.026069376046710516,0.9859387868639711,-0.027715820310062665,0.15678359005654083,-0.05074886945266665
259.88333333342564,-0.040173803,-1.2392226,0.49864572,-2.411216,0.31400248,1.5341268,0.9990461,0.039998837,0.04,0.005610766372310394,0.030195091866958013,0.02208107443860685,0.0021601038488920123,-0.06067105932813226,-0.02569291206773025,0.9858540838303105,-0.027711032730109303,0.15723152859395972,-0.051010493784484336
259.9000000000923,-0.040304076,-1.2406846,0.5002449,-2.4113913,0.31500962,1.5340086,0.9997296,0.039998837,0.04,0.0017347638781473051,0.031870978482240186,0.023570473225709154,0.00221816788879518,-0.059818274897986204,-0.025312610946762633,0.9857704591884339,-0.027705543557102228,0.15767215117270056,-0.051268873521882426
259.91666666675894,-0.040432405,-1.2421244,0.50182045,-2.4115646,0.31600174,1.533892,1.000403,0.039998837,0.04,0.001650379466289209,0.03168945984501903,0.023488267598903434,0.0022726382258563167,-0.0589678621198102,-0.02492964909780126,0.9856879597520664,-0.027699216945604472,0.15810525506913062,-0.051524049723738995
259.9333333334256,-0.040558804,-1.243542,0.50337136,-2.4117336,0.31697884,1.5337774,1.001066,0.03999884,0.04,0.00633675787642396,0.03052621096349961,0.02320718382364806,0.0023201585133561936,-0.05812325883413441,-0.024540484863926244,0.9856064228385374,-0.027692594410301127,0.15853204619178546,-0.05177537836167195
259.95000000009225,-0.04068325,-1.244938,0.50489897,-2.4119005,0.31794083,1.5336645,1.0017186,0.039998837,0.04,0.0029141673142607516,0.030932522729831824,0.02287051894467318,0.002367940301655675,-0.057271692944073936,-0.0241525797864372,0.9855259223506322,-0.027685435752064187,0.15895191998999061,-0.052023649945478596
259.9666666667589,-0.040805742,-1.2463121,0.50640213,-2.4120662,0.31888762,1.5335534,1.0023612,0.03999883,0.04,0.0022342107348194418,0.0325736043740088,0.023656730711063556,0.0024121247681739497,-0.056422242016365295,-0.023760358918615894,0.9854466032663883,-0.027677266888789853,0.1593642725340677,-0.052268438354244315
259.98333333342555,-0.04092627,-1.247664,0.50788105,-2.4122276,0.31981912,1.533444,1.0029935,0.039998826,0.04,0.00687811744159994,0.030032374942623452,0.02286908417087341,0.0024480354881482383,-0.055575892376867005,-0.02336444295420244,0.9853682663789153,-0.02766882432451254,0.15977033409949784,-0.0525095811794848
260.0000000000922,-0.041044828,-1.2489939,0.5093358,-2.4123864,0.32073545,1.5333365,1.0036153,0.039998822,0.04,0.004731703226434902,0.030960971900551026,0.023005888088067916,0.002482014701990592,-0.05472519996111421,-0.022965136621652553,0.9852910128119029,-0.02765996765955727,0.16016952570650503,-0.05274722074308718
260.01666666675885,-0.04116142,-1.2503016,0.51076627,-2.4125443,0.32163638,1.5332309,1.0042267,0.039998822,0.04,0.0025296661473550586,0.032413968933142634,0.023763922520292358,0.002513010150303245,-0.0538746023466584,-0.022564834191035485,0.985214981701111,-0.02765028546188518,0.16056109326769838,-0.052981476708725
260.0333333334255,-0.041276053,-1.2515872,0.5121726,-2.4126976,0.32252204,1.533127,1.0048275,0.039998814,0.04,0.007941561287383436,0.029378945888758334,0.02239187481194449,0.0025366495914260455,-0.05303094979583797,-0.022160356464132974,0.9851399339791072,-0.027640669513993233,0.1609465059983934,-0.05321208580170196
260.05000000009215,-0.0413887,-1.2528505,0.5135546,-2.4128487,0.32339233,1.5330249,1.0054183,0.03999882,0.04,0.004841973216374029,0.031236980527604707,0.023235906142171636,0.002561014409633463,-0.05218183273349734,-0.021753843032377068,0.9850660444673217,-0.027630356647852673,0.16132486294629364,-0.053439124472400075
260.0666666667588,-0.041499384,-1.2540915,0.5149122,-2.412998,0.3242475,1.5329244,1.0059985,0.039998826,0.04,0.004405054718592538,0.0312659151974648,0.02316793810956952,0.0025796105762088614,-0.051332901356988744,-0.021343023968234696,0.9849933904082234,-0.027619615228757787,0.1616957370692405,-0.053662522493484355
260.08333333342546,-0.041608088,-1.2553103,0.51624537,-2.4131434,0.32508734,1.5328261,1.0065683,0.039998826,0.04,0.008059959193262856,0.029753361614481832,0.022731114997887047,0.0025927833520526227,-0.050491954709138254,-0.020931801999165778,0.984921770484017,-0.027608723841133342,0.16206043131539816,-0.053882102746279095
260.1000000000921,-0.04171482,-1.2565069,0.5175543,-2.4132862,0.32591173,1.5327291,1.0071279,0.039998822,0.04,0.006015445618023918,0.030643558845711016,0.022603694134926133,0.002605853589321019,-0.049645387221754836,-0.02052035892571598,0.984851326637145,-0.027597415359403573,0.1624180961154513,-0.054098143598167406
260.11666666675876,-0.04181957,-1.2576815,0.5188387,-2.4134278,0.32672086,1.5326343,1.007677,0.039998814,0.04,0.004617563118269885,0.03154652686326864,0.023258804922343668,0.0026147813063170117,-0.04880307793003498,-0.02010778964081223,0.9847821308473851,-0.02758554258748806,0.1627684296837462,-0.0543105045283594
260.1333333334254,-0.04192234,-1.2588335,0.52009875,-2.4135652,0.32751462,1.532541,1.0082154,0.039998814,0.04,0.008969412036297086,0.029140796782622935,0.02231635346716665,0.0026162083788824047,-0.047966049599340206,-0.01969095499178755,0.9847140160751491,-0.02757381657837922,0.1631124273190455,-0.05451905390358416
260.15000000009206,-0.04202313,-1.2599634,0.5213345,-2.4137,0.32829309,1.5324498,1.0087436,0.039998814,0.04,0.006626096057837927,0.0302377287419886,0.02278032826664722,0.0026189986684173484,-0.04712565322683784,-0.019275218275093917,0.984647082097752,-0.02756175227506639,0.16344959545430565,-0.05472388211498401
260.1666666667587,-0.042121947,-1.2610712,0.52254605,-2.4138334,0.32905617,1.5323602,1.0092615,0.039998807,0.04,0.005614434810663482,0.030869018735368847,0.02260812951498936,0.0026177333232032963,-0.0462886799124578,-0.018856804366565588,0.9845814098832832,-0.02754925675383153,0.1637794680465437,-0.054925145525058706
260.18333333342537,-0.04221879,-1.262157,0.5237335,-2.413963,0.32980397,1.5322727,1.0097688,0.039998803,0.04,0.008858156942759265,0.02892445633276841,0.022214185999280822,0.002611081457133726,-0.04545713161597663,-0.01843793775359239,0.9845168179160545,-0.027536872780675934,0.16410317010385655,-0.05512263999276412
260.200000000092,-0.042313658,-1.2632204,0.5248965,-2.4140894,0.33053648,1.5321867,1.0102657,0.039998807,0.04,0.008512372781854793,0.0294561012980199,0.022104330649863613,0.002603334954925476,-0.044623424395333205,-0.01801640548465635,0.9844534047136615,-0.02752447629297918,0.1644202145203305,-0.055316274364472576
260.21666666675867,-0.042406566,-1.2642616,0.5260352,-2.414215,0.33125368,1.5321027,1.0107523,0.039998807,0.04,0.004885327560888442,0.031241951122640277,0.02309636129349535,0.0025946299387826846,-0.043791140738098595,-0.017593913622211514,0.9843913469109424,-0.027511479661679487,0.16472962744838468,-0.05550625599337423
