rsonawane2002/My_IMU/share/traj_270/clean_270.csv
time,j1,j2,j3,j4,j5,j6,j7,gripper1,gripper2,imu_ax,imu_ay,imu_az,imu_gx,imu_gy,imu_gz,quat_x,quat_y,quat_z,quat_w
210.98333333339338,0.00016700293,-0.785875,4.0107683e-05,-2.3551247,9.29385e-05,1.570997,0.786,0.04,0.04,0.0,-0.0,0.0,2.875329272945135e-08,-0.0011641195053377316,4.421952117202833e-08,0.9999995971961153,0.00020320632366974898,0.0008736418299892524,3.263050917662294e-05
211.00000000006006,0.00016701537,-0.78576016,4.010793e-05,-2.3552213,9.2975824e-05,1.5709941,0.786,0.04,0.04,-0.29199845938667757,-3.9338265619580023e-05,0.020128407076502874,5.0644920201142256e-08,-0.0022376291046736748,4.6237381757942925e-07,0.9999996850591673,0.00020320476004308496,0.0007665025174749736,3.260801466697076e-05
211.01666666672674,0.00016709388,-0.7856542,4.006164e-05,-2.35531,9.302284e-05,1.5709913,0.786,0.04,0.04,0.02319697934198839,-2.5391871585374445e-05,-0.0016027248882055645,9.036262166336132e-07,-0.0032244918782430784,3.105133253793223e-06,0.9999997558891623,0.00020318623928265728,0.0006677376377175752,3.2610044804888154e-05
211.03333333339341,0.00016734669,-0.7855566,3.9893257e-05,-2.355391,9.310011e-05,1.5709884,0.786,0.04,0.04,0.022263125541499562,-7.099466915965846e-05,-0.001423441341197318,3.553784668291145e-06,-0.004128040742010684,1.0015918017400567e-05,0.99999981237818,0.00020312338021767867,0.0005769895507943404,3.267346920393029e-05
211.0500000000601,0.00016792868,-0.78546655,3.9494767e-05,-2.3554652,9.323724e-05,1.5709856,0.786,0.04,0.04,0.02005782699052716,-0.00013650787780984902,-0.0012223713245607115,8.294689812807267e-06,-0.00495053250320253,2.303618172014181e-05,0.9999998571123531,0.00020297698510384578,0.0004934535748858279,3.285097085402432e-05
211.06666666672677,0.00016903663,-0.7853831,3.8728514e-05,-2.355532,9.348351e-05,1.5709827,0.786,0.04,0.039999995,0.01987891600649938,-0.0002281451889468147,-0.000491040673322729,1.692486397678944e-05,-0.005696300541088733,4.457267965566376e-05,0.9999998919936544,0.00020269735373915242,0.00041692106559206395,3.321577174148001e-05
211.08333333339345,0.00017090506,-0.7853057,3.7430746e-05,-2.3555949,9.386162e-05,1.5709798,0.7860019,0.04,0.04,0.013140799366251343,-0.00031028288670479666,-0.0017427976503947562,3.0000728674162903e-05,-0.006364708601410625,7.379377268659131e-05,0.999999919168647,0.00020317895779595814,0.00034530580091199017,3.3836584842626394e-05
211.10000000006013,0.00017380169,-0.7852335,3.54136e-05,-2.3556528,9.4453295e-05,1.570977,0.7860038,0.04,0.03999999,0.014309856980765367,-0.00044533994404063353,-0.0007637838277840814,4.050763534905685e-05,-0.006972763351757877,0.00011591718169148046,0.9999999398385649,0.00020340068782682873,0.0002788163833933778,3.482026640368438e-05
211.11666666672681,0.00017802526,-0.78516614,3.2468964e-05,-2.3557043,9.527152e-05,1.5709741,0.78600764,0.04,0.04,0.016279088851534063,-0.0005395335447268268,0.00011929289176482172,5.799926321135184e-05,-0.007516980189594968,0.0001658361878354181,0.999999954732842,0.00020424044631140123,0.00021795938142181882,3.6247235666835066e-05
211.1333333333935,0.00018390016,-0.7851026,2.8369072e-05,-2.355754,9.640612e-05,1.5709713,0.78601146,0.04,0.04,0.0074600635055377396,-0.0006954128231850311,-0.0013291900490264297,7.511625245113391e-05,-0.007989610189422475,0.000231889827431388,0.9999999655311974,0.00020466311015190567,0.0001599631518751208,3.8241408167618704e-05
211.15000000006017,0.00019177515,-0.7850419,2.2869905e-05,-2.355797,9.7920376e-05,1.5709684,0.7860172,0.04,0.04,0.014103760020667266,-0.0008404802260595409,0.0012437250233698904,0.00010214109755627164,-0.008414671063677508,0.0003108407099656221,0.9999999723571074,0.00020553419940735229,0.00010661573256939173,4.092142051525918e-05
211.16666666672685,0.00020201958,-0.784984,1.571277e-05,-2.355838,9.988024e-05,1.5709655,0.7860248,0.04,0.04,0.0066785684051051675,-0.0009917930670215935,-0.0006078034413770084,0.00013161331895049193,-0.008771361374898706,0.00040374887959377113,0.9999999760869631,0.00020676070575668482,5.571166931205932e-05,4.441051214005014e-05
211.18333333339353,0.0002150209,-0.7849278,6.6257226e-06,-2.3558733,0.000102388876,1.5709627,0.78603435,0.04,0.03999999,0.01163537586059693,-0.0011762486879181517,0.001571761363461377,0.00016519547713145764,-0.009081172754010939,0.0005147244708614788,0.9999999770871081,0.00020824507280297586,8.532353860206291e-06,4.885664532601082e-05
211.20000000006021,0.00023118316,-0.7848727,-4.6736473e-06,-2.3559077,0.00010548721,1.5709598,0.7860458,0.04,0.039999995,0.002873364654809585,-0.0013193999561701578,-0.00022634556149370155,0.00020407243654767731,-0.009328524848383056,0.000638613670690683,0.9999999757884946,0.00020988537375529485,-3.7604539159005766e-05,5.437866048511647e-05
211.2166666667269,0.0002509238,-0.7848181,-1.8477735e-05,-2.3559358,0.00010925531,1.5709568,0.78606004,0.04,0.04,0.011023311525981683,-0.0014957867431097233,0.0024102614568199954,0.0002500393376988362,-0.009535787912046229,0.000779024787655341,0.9999999724179696,0.0002120233075635526,-8.046401457404075e-05,6.112053195236685e-05
211.23333333339357,0.00027467194,-0.78476346,-3.5087585e-05,-2.3559625,0.000113780006,1.5709538,0.7860772,0.039999995,0.04,0.002365240364565757,-0.0016790416723173364,0.0006652428502063046,0.0003002886379206925,-0.009680276237471837,0.0009365369903793208,0.9999999670545343,0.00021461063530381932,-0.00012263907463967155,6.923050457390832e-05
211.25000000006025,0.00030286674,-0.7847083,-5.481091e-05,-2.3559852,0.00011915143,1.5709506,0.7860976,0.03999999,0.039999995,0.006284399500788851,-0.0018685887658682183,0.0019016284892758861,0.0003559029939929686,-0.009784584189294097,0.0011118314164223217,0.9999999598884434,0.0002176857025583427,-0.00016314649635917663,7.886233164570392e-05
211.26666666672693,0.0003359557,-0.7846518,-7.7961435e-05,-2.3560052,0.00012545494,1.5709473,0.7861215,0.039999988,0.03999999,0.0029027564689920737,-0.0020565954710461895,0.0018552668871185674,0.00041719417953596657,-0.009838082140049501,0.0013049423347159133,0.9999999508286788,0.00022128496180466017,-0.00020308927611301675,9.016846227474327e-05
211.2833333333936,0.0003743929,-0.78459346,-0.000104857696,-2.3560243,0.00013277702,1.5709417,0.7861492,0.039999988,0.03999999,-0.001139377755943194,-0.0022468002815348204,-0.00022353514819162257,0.0004842414683214405,-0.009847552483875305,0.0015159312798686206,0.999999939334045,0.00022544317513534162,-0.00024461356095190393,0.00010330288912095349
211.3000000000603,0.00041863797,-0.7845329,-0.00013582171,-2.3560388,0.0001412054,1.570935,0.78618103,0.039999988,0.03999999,0.0049185127802608974,-0.002440627271934736,0.0024739352012970173,0.0005574413815515906,-0.009832033822255127,0.0017450079452757232,0.999999925734122,0.0002301936445695677,-0.0002855144416302889,0.0001184235620246126
211.31666666672697,0.00046915433,-0.7844695,-0.00017117863,-2.3560507,0.0001508283,1.5709282,0.7862176,0.039999984,0.039999988,0.0012542031053719427,-0.002635313408163399,0.0026992255558688782,0.0006366826928510252,-0.009768785065103086,0.001992310316220115,0.9999999096800132,0.00023571806633465546,-0.0003265971588611826,0.00013568807828550857
211.33333333339365,0.0005264086,-0.78440255,-0.00021125545,-2.356062,0.00016173499,1.5709214,0.7862588,0.03999998,0.039999984,-0.0026740813021897125,-0.002832382336844376,0.0023013438434915656,0.0007210647175100787,-0.009663796454096237,0.0022579292244254705,0.9999998905787663,0.00024189916765391723,-0.00036908426158746604,0.00015525481049028037
211.35000000006033,0.00059086905,-0.7843316,-0.00025638062,-2.356069,0.00017401435,1.5709143,0.7863053,0.039999973,0.03999998,0.002355571779832921,-0.0030289309986851966,0.0038047618070136124,0.0008119096089884248,-0.00952575707465597,0.0025410661162284082,0.999999868554041,0.0002488875887224001,-0.0004117248691919686,0.00017728367321511335
211.366666666727,0.00066300435,-0.7842562,-0.00030688295,-2.3560739,0.00018775674,1.5709038,0.7863573,0.039999966,0.039999973,-0.0019501057149096113,-0.003226563637174205,0.0011021185702064784,0.0009086486591328505,-0.009342955306879244,0.002843427797127157,0.9999998422056342,0.0002566846929018184,-0.0004570829223575068,0.00020193285335852538
211.3833333333937,0.00074328366,-0.7841759,-0.00036309144,-2.3560777,0.00020305114,1.5708933,0.78641516,0.03999996,0.03999997,-0.003853010403531698,-0.003425113022054952,0.0032155876339645673,0.0010115742073943867,-0.009135837527235943,0.0031641371602816742,0.9999998112508571,0.00026538169329890995,-0.0005044442870856609,0.0002293616536745379
211.40000000006037,0.00083217473,-0.78409004,-0.0004253343,-2.356078,0.00021998698,1.5708826,0.78647935,0.039999954,0.03999996,-6.755496642085745e-05,-0.003622199885964573,0.004520496142612629,0.0011204435876633035,-0.008897380266930653,0.0035031254285267724,0.9999997755968398,0.00027507008020086123,-0.0005528864022258955,0.0002597293726856081
211.41666666672705,0.00093014387,-0.7839983,-0.0004939387,-2.3560758,0.00023865316,1.5708711,0.7865501,0.039999947,0.039999954,-0.0027062337361050126,-0.003819298763290237,0.003863691484551346,0.001234483092310832,-0.00861617692735145,0.0038602877110856587,0.9999997341134362,0.000285752314513087,-0.0006034538433882546,0.0002931929917805846
211.43333333339373,0.0010376548,-0.7839002,-0.00056922995,-2.356072,0.0002591383,1.5708568,0.78662765,0.03999994,0.039999947,-0.0051278113383457224,-0.004015483030273166,0.002210025339732802,0.0013546052644819828,-0.008300726899556507,0.004235469911636371,0.9999996849859916,0.00029743127499256536,-0.000657817254324714,0.0003299075843537202
211.4500000000604,0.0011551693,-0.78379536,-0.00065153156,-2.3560655,0.00028153046,1.5708424,0.78671247,0.039999936,0.039999943,-0.00303899081839365,-0.004212118994502694,0.00488463224708191,0.00148090191315263,-0.007966143972951218,0.0046285395225709935,0.9999996282983111,0.0003102302774844447,-0.0007143097059431499,0.0003700298077175185
211.4666666667271,0.0012831438,-0.78368294,-0.00074116426,-2.356057,0.0003059168,1.5708271,0.7868048,0.039999936,0.039999943,-0.004999860227639097,-0.0044056725185979305,0.0046064335256224,0.0016129541083851982,-0.0075937466405599785,0.005039287729171194,0.9999995623861353,0.0003241548408249441,-0.0007739467095181992,0.00041371205909776157
211.48333333339377,0.001422031,-0.7835628,-0.0008384459,-2.3560457,0.00033238367,1.570809,0.78690505,0.03999994,0.039999947,-0.005029713002691061,-0.004597209084394936,0.0034095686709978423,0.0017508716446588048,-0.007191105652753874,0.0054674874157987505,0.9999994853458753,0.0003393003399891654,-0.0008375950925394891,0.0004611048954265422
211.50000000006045,0.0015722796,-0.7834347,-0.00094369135,-2.3560338,0.00036101672,1.5707905,0.78701353,0.03999994,0.03999995,-0.007679466851828742,-0.0047904097918174205,0.004515007210104116,0.0018942839908816789,-0.006767215321314414,0.005912065594437622,0.9999993959246226,0.0003557045013343084,-0.0009050490972669199,0.0005123581063356597
211.51666666672713,0.0017343339,-0.7832974,-0.0010572118,-2.3560185,0.00039190135,1.5707711,0.7871305,0.03999994,0.03999995,-0.0048007878220790445,-0.004980402979781274,0.005957971751957558,0.0020436039958434656,-0.006316276648074201,0.00637446099329374,0.9999992929845307,0.00037337629618481693,-0.0009759244764744996,0.0005676195878358013
211.5333333333938,0.0019086315,-0.78315157,-0.0011793147,-2.3560004,0.00042512122,1.570749,0.78725624,0.039999943,0.03999995,-0.005481227956516399,-0.005166226123064959,0.004159864866171148,0.0021984546808037925,-0.005834528572029343,0.006854405163287147,0.9999991741307857,0.00039238543407601307,-0.0010509996685705157,0.0006270335832337018
211.5500000000605,0.0020956045,-0.7829962,-0.0013103032,-2.3559809,0.00046075744,1.5707263,0.7873912,0.039999947,0.039999958,-0.008367769494510569,-0.0053537445586097085,0.0054717588326314015,0.0023593094082343825,-0.005327951322934189,0.007349005829819082,0.9999990371998853,0.00041280432305200747,-0.0011305170663995178,0.0006907409469683563
211.56666666672717,0.0022956787,-0.7828311,-0.0014504775,-2.355959,0.0004988929,1.5707011,0.7875356,0.039999954,0.039999966,-0.007476128244676694,-0.005535350718432336,0.004755469578121563,0.0025252738248854488,-0.004796600808488157,0.007860527195329491,0.999998879551625,0.0004346767954932307,-0.0012149280834999941,0.0007588816308909585
211.58333333339385,0.002509274,-0.7826558,-0.0016001315,-2.3559344,0.0005396073,1.570675,0.78768975,0.03999996,0.039999973,-0.007152705243695934,-0.005718233558997532,0.00619609996930226,0.0026967962088991658,-0.004242783877747355,0.008387775065577622,0.9999986995947269,0.00045801887385571476,-0.0013036414702049751,0.0008315927388858869
211.60000000006053,0.0027368043,-0.7824699,-0.0017595555,-2.3559074,0.0005829793,1.570647,0.787854,0.039999966,0.039999977,-0.008258750178735674,-0.005897652777598294,0.0055750149618782885,0.002874117923898468,-0.003661181268422767,0.00893039449041196,0.9999984938226677,0.00048293710596943956,-0.0013974374224086656,0.0009090064896770391
211.6166666667272,0.0029786767,-0.7822732,-0.0019290345,-2.3558784,0.0006290868,1.5706171,0.7880286,0.03999997,0.03999998,-0.00906471528958619,-0.006076982353142211,0.005664603852184591,0.0030563495479576912,-0.0030573214138037005,0.009488020283311398,0.9999982590174114,0.0005094207064651816,-0.0014966196953141652,0.0009912528324486191
211.6333333333939,0.0032352884,-0.7820652,-0.0021088482,-2.3558471,0.00067800644,1.5705857,0.78821373,0.03999997,0.03999998,-0.009250487291967424,-0.006250772597164722,0.006183790950298196,0.003244019810164771,-0.00243304824021978,0.010060277832221295,0.9999979922429115,0.0005374924346310335,-0.0016011051470330312,0.0010784592420106016
211.65000000006057,0.0035070311,-0.78184557,-0.0022992722,-2.3558133,0.0007298119,1.570552,0.7884099,0.03999997,0.039999984,-0.009275108515827135,-0.006420608183623899,0.005952059725689018,0.003437359031060034,-0.0017852834353778888,0.010645911526038354,0.9999976893536596,0.0005672952410676581,-0.0017113775510023902,0.0011707477649828193
211.66666666672725,0.0037942913,-0.78161407,-0.002500577,-2.3557777,0.0007845779,1.5705168,0.78861725,0.039999966,0.03999998,-0.010799285110763002,-0.006595798031228282,0.006326465077211019,0.0036354948167107663,-0.0011175639158958926,0.011246238857598245,0.9999973465457356,0.0005988246135470363,-0.0018275336739318744,0.0012682394256757579
211.68333333339393,0.0040974435,-0.78137016,-0.002713026,-2.355739,0.00084237615,1.5704793,0.788836,0.039999966,0.03999998,-0.009272069715016151,-0.0067588372115304305,0.006560152689272236,0.003838444146282226,-0.0004304059691268556,0.011859996536195546,0.9999969598515358,0.0006320796047398778,-0.0019496112457418036,0.0013710503454087751
211.7000000000606,0.0044168574,-0.7811136,-0.0029368799,-2.3556979,0.0009032769,1.57044,0.7890666,0.03999996,0.039999977,-0.010129311221995785,-0.006924362932338732,0.007005829309481015,0.004047234080646597,0.0002775111816743325,0.012486735893734969,0.9999965250036147,0.0006672103493078565,-0.0020776190171282734,0.0014792938398673853
211.7166666667273,0.0047528935,-0.7808442,-0.0031723913,-2.3556547,0.0009673492,1.5703982,0.78930914,0.039999958,0.039999973,-0.011915359056624553,-0.007088476006742285,0.006095994401267291,0.004259925442006665,0.0010072311269594657,0.013126022985482173,0.9999960355040874,0.0007041591556743222,-0.0022125197572354623,0.0015930763683160748
211.73333333339397,0.0051059085,-0.7805616,-0.0034198079,-2.355608,0.0010346605,1.5703547,0.78956395,0.039999954,0.03999997,-0.009123526911158919,-0.007249670494915723,0.0077279199415691835,0.004478203096128041,0.0017509921683457191,0.013777479324949323,0.9999954889270599,0.0007430199549503664,-0.0023531611613118583,0.0017125067666175517
211.75000000006065,0.005476245,-0.78026557,-0.0036793726,-2.355559,0.0011052769,1.5703089,0.7898312,0.039999954,0.03999997,-0.012078507261170657,-0.007407446676700822,0.006791749481416254,0.004701214268720926,0.002520617220406411,0.014440547948193763,0.9999948774845928,0.0007838008604028853,-0.002500716029193757,0.0018376833587284381
211.76666666672733,0.0058642407,-0.7799557,-0.003951323,-2.355508,0.0011792629,1.570261,0.79011124,0.039999954,0.03999997,-0.012448095206019083,-0.007562501665154316,0.007072822197518036,0.004929240279844682,0.0033057241972694646,0.015114863171402112,0.9999941951273255,0.0008265718746902032,-0.002655314893502689,0.00196870348319253
211.783333333394,0.0062702224,-0.77963185,-0.00423589,-2.3554537,0.0012566799,1.570211,0.79040426,0.039999954,0.039999973,-0.010532098122428835,-0.007708925231584207,0.007764099802076707,0.005161991290872001,0.004107030193834389,0.01579904248172777,0.9999934374426482,0.0008713762037677525,-0.00281637371161992,0.002105662428915007
211.8000000000607,0.0066945115,-0.7792936,-0.004533297,-2.3553967,0.0013375917,1.5701585,0.7907105,0.03999995,0.03999997,-0.012472865691082191,-0.007866538455711392,0.007250829855731666,0.005399166314417458,0.00493088040711471,0.016494344874122022,0.9999925956558359,0.0009182567553240235,-0.002984799288187692,0.002248646536133234
211.81666666672737,0.00713742,-0.7789407,-0.004843765,-2.3553371,0.001422056,1.5701039,0.79103017,0.039999954,0.039999973,-0.012564101819334539,-0.008010682954000432,0.00781962876950093,0.005640824124831344,0.005768626352164989,0.017199436936526154,0.999991663466023,0.0009672324007768051,-0.0031604262501227715,0.0023977418244314967
211.83333333339405,0.007599253,-0.7785728,-0.0051675066,-2.3552747,0.0015101314,1.5700467,0.79136354,0.039999954,0.039999977,-0.012690237924095626,-0.008157613292051474,0.007639752216048734,0.005887200761012982,0.006623469280980421,0.017912963626105612,0.9999906326115209,0.0010183810541199167,-0.0033435967723614447,0.002553027587553286
211.85000000006073,0.008080304,-0.77818984,-0.0055047297,-2.3552096,0.001601875,1.5699873,0.79171085,0.03999995,0.039999973,-0.013092918050938707,-0.008299147915368128,0.007942206370570304,0.006137777604209168,0.007493483018431226,0.01863616543797017,0.9999894956182228,0.0010717564527150556,-0.0035342663466904523,0.0027145814979322442
211.8666666667274,0.00858086,-0.7777916,-0.005855636,-2.3551419,0.0016973418,1.5699257,0.7920723,0.039999947,0.03999997,-0.01334411663587165,-0.008440418956005662,0.007941039881864675,0.0063923032596981955,0.00838057977008822,0.019367717094182932,0.9999882439504868,0.0011273827451047137,-0.003732599815422988,0.002882475947128498
211.8833333333941,0.0091012055,-0.7773781,-0.006220422,-2.355071,0.0017965841,1.5698612,0.79244804,0.039999947,0.03999997,-0.012803692748430962,-0.008579183830318728,0.007735348618442828,0.006651035125456194,0.009282342758738777,0.020107082399762697,0.9999868688250859,0.0011852837837411894,-0.003938703237094848,0.0030567787886171976
211.90000000006077,0.009641604,-0.7769485,-0.006599278,-2.3549976,0.0018996543,1.5697947,0.79283804,0.039999947,0.03999997,-0.014163291528190847,-0.008712378426309602,0.008526379988249566,0.006913990140916815,0.010200919388138193,0.020853726455574675,0.9999853607776686,0.001245375937813285,-0.0041527724942305114,0.0032375530483070313
211.91666666672745,0.010202322,-0.77650315,-0.006992388,-2.3549216,0.0020066015,1.5697254,0.79324275,0.039999947,0.039999973,-0.014139441806793052,-0.00884892305436629,0.007843648617611443,0.007182006386335406,0.011132869356547163,0.021606331329852773,0.9999837092322815,0.0013078355607483464,-0.004375064772887687,0.0034248568476422125
211.93333333339413,0.010783611,-0.7760415,-0.00739993,-2.3548422,0.002117476,1.5696535,0.7936623,0.039999947,0.039999973,-0.013438194030546136,-0.008973834714127299,0.008514094124723037,0.007454010478941897,0.01207882373481848,0.022366099848100507,0.9999819051106777,0.0013726709223176527,-0.004605420335056184,0.00361874692347242
211.9500000000608,0.011385716,-0.77556354,-0.007822077,-2.3547602,0.0022323232,1.5695792,0.79409695,0.039999943,0.03999997,-0.014662865638870315,-0.009106151465023901,0.008379660250290577,0.007730284846143753,0.013040135886428649,0.023131648331787963,0.999979936867924,0.001439948603048416,-0.004844127540221343,0.0038192719224571067
211.9666666667275,0.012008875,-0.7750687,-0.008258995,-2.3546743,0.002351189,1.5695022,0.7945467,0.039999943,0.03999997,-0.013370383535127317,-0.009227890157282106,0.008946415420085785,0.008009990805202857,0.01401415019465843,0.023902469656226385,0.9999777945301666,0.0015096493089716027,-0.005091058060818671,0.00402647902877603
211.98333333339417,0.012653312,-0.774557,-0.008710841,-2.3545864,0.0024741166,1.5694226,0.79501194,0.039999943,0.039999973,-0.016183249718304538,-0.009360665428765833,0.008244722724737308,0.008293972466153581,0.015004421490979586,0.02467713268998702,0.9999754627760978,0.0015818748965595005,-0.0053470087230614366,0.004240402723327709
212.00000000006085,0.013319256,-0.7740284,-0.009177773,-2.354495,0.002601149,1.5693402,0.7954927,0.039999947,0.039999977,-0.014223353984199605,-0.009479001376281031,0.008689675848283507,0.008581713366898922,0.016003772005725315,0.025456937121010267,0.9999729324879753,0.0016566378620129643,-0.005611465707770973,0.004461086751451246
212.01666666672753,0.01400691,-0.77348286,-0.009659946,-2.3544009,0.0027323232,1.5692552,0.7959891,0.039999947,0.039999984,-0.0151505392593565,-0.009583583134848295,0.008604809261925084,0.008873039824310848,0.017016844333489222,0.026237820279701705,0.9999701901938953,0.0017339320318784381,-0.005884690698859062,0.0046885625379759
212.0333333333942,0.014716482,-0.7729197,-0.010157495,-2.3543038,0.0028676826,1.5691676,0.7965014,0.039999943,0.03999998,-0.015837525798412244,-0.009720550083570922,0.008915277778620556,0.009168061309519429,0.01804291248187297,0.02702448412883796,0.9999672211850635,0.0018138636664264865,-0.0061670063992000715,0.004922853450383833
212.0500000000609,0.015448167,-0.7723391,-0.010670556,-2.354203,0.0030072632,1.5690773,0.7970295,0.039999943,0.039999988,-0.014153198427435676,-0.009825742927077868,0.009183952662161765,0.009466567365089603,0.019079131331430396,0.02781215345953825,0.9999640152922601,0.0018963360409133172,-0.006457960596785826,0.005163988296961534
212.06666666672757,0.016202152,-0.77174085,-0.011199266,-2.3540998,0.003151102,1.5689838,0.7975737,0.039999943,0.039999977,-0.016910296252481416,-0.009943801876352316,0.008324812621851585,0.009769787202604924,0.020131319367274553,0.028606190246913642,0.9999605522771889,0.001981463931785776,-0.006758563200034837,0.005411978719242827
212.08333333339425,0.016978614,-0.7711249,-0.01174375,-2.3539927,0.0032992281,1.568888,0.79813415,0.039999936,0.039999984,-0.014363501152869773,-0.010037395077798321,0.00954042687770773,0.010076146872642112,0.02118890891935851,0.029395055417007425,0.9999568245821479,0.002069308986820903,-0.0070677982834492755,0.005666847388891672
212.10000000006093,0.017777719,-0.7704909,-0.012304131,-2.3538826,0.00345168,1.5687894,0.79871106,0.039999943,0.039999988,-0.01611071069211878,-0.010149756544291892,0.009111950686380155,0.010386087879294618,0.02226418547829916,0.030190953298851464,0.9999528125649674,0.002159933826101054,-0.007386409045431507,0.005928599387026945
212.1166666667276,0.018599639,-0.769839,-0.01288052,-2.3537698,0.003608487,1.5686879,0.79930437,0.039999932,0.03999999,-0.016784551917337076,-0.010270115332326399,0.008673738270825737,0.010698868113834921,0.023349012744652693,0.030982379004317655,0.9999484993950291,0.0022532743279429575,-0.007714632268187103,0.0061972382074061425
212.1333333333943,0.019444523,-0.7691687,-0.013473019,-2.3536532,0.0037696792,1.5685833,0.7999143,0.039999936,0.04,-0.015504631933938029,-0.010367077154204221,0.009237125727712403,0.011015616031690184,0.024442931885654218,0.031777184092049444,0.9999438700372573,0.002349427601465739,-0.008052348740613766,0.006472761745788386
212.15000000006097,0.020312522,-0.7684802,-0.014081742,-2.3535345,0.0039352807,1.5684762,0.80054086,0.039999947,0.04,-0.01783908868864259,-0.010473929818840925,0.00891636210265112,0.011335444295658512,0.025546496327780232,0.03257318878792537,0.9999389056825264,0.0024483739085971504,-0.00839988651081725,0.006755166485043782
212.16666666672765,0.02120377,-0.76777333,-0.014706784,-2.353411,0.0041053286,1.5683664,0.80118424,0.03999994,0.04,-0.013745601419690168,-0.010549371486405501,0.009959527663383483,0.011658575743079366,0.02665805287426326,0.03336405355136191,0.9999335980283536,0.0025501873739072717,-0.00875623406033255,0.007044461903479122
212.18333333339433,0.022118405,-0.7670479,-0.015348234,-2.3532853,0.004279847,1.5682534,0.80184454,0.039999936,0.04,-0.018623706217590907,-0.010689052523660952,0.008461632264467056,0.011985077796975795,0.027788031601609826,0.034155761732094815,0.9999279154607024,0.0026549011019620155,-0.00912309213398956,0.007340611178097205
212.200000000061,0.023056537,-0.7663039,-0.016006183,-2.3531563,0.0044588516,1.5681373,0.80252194,0.039999936,0.04,-0.016539936998816174,-0.01074429771327455,0.00905263001000911,0.012314342509409167,0.028919983734701667,0.03494550173939701,0.9999218454465845,0.0027625997552524232,-0.009499808389690648,0.007643603982948193
212.2166666667277,0.024018293,-0.76554126,-0.016680708,-2.3530238,0.0046423674,1.5680184,0.8032162,0.039999943,0.04,-0.0161972184181014,-0.010853545481434579,0.009469376753123981,0.012646276969471577,0.03006172777359062,0.035732694709713214,0.9999153722108085,0.002873147575858462,-0.009886176761429357,0.007953423701111635
212.23333333339437,0.025003774,-0.76475984,-0.017371887,-2.3528886,0.004830418,1.5678968,0.8039275,0.039999943,0.04,-0.01797787398569728,-0.01095149110272621,0.009046992872852044,0.012982058870645224,0.031213426758121537,0.03651680492056074,0.9999084715020662,0.002986597481966834,-0.010282767933409064,0.0082700385434441
212.25000000006105,0.026013086,-0.7639594,-0.018079791,-2.3527493,0.005023017,1.5677723,0.8046561,0.039999943,0.04,-0.015937378439567773,-0.011023645039008254,0.00964911208374275,0.013321601898158942,0.03237265400978997,0.037297294894637234,0.9999011281298085,0.003103120682928014,-0.010689141223407694,0.008593419963524357
212.26666666672773,0.027046314,-0.7631401,-0.018804485,-2.3526075,0.005220189,1.5676446,0.8054019,0.03999994,0.04,-0.01829410872009607,-0.011126362527863476,0.008773702337250278,0.01366351821503083,0.03354353493150338,0.038073660793545926,0.9998933147561646,0.00322265245866974,-0.01110604671416258,0.008923527522401149
212.2833333333944,0.028103543,-0.76230174,-0.01954602,-2.352461,0.0054219356,1.567514,0.80616504,0.039999947,0.04,-0.015210924040931495,-0.011181701063273791,0.0098102073872397,0.014008386958188568,0.03471826305914824,0.03884557861587267,0.9998850212543322,0.0033452216814645846,-0.011532567053044602,0.009260327223830394
212.3000000000611,0.029184852,-0.76144445,-0.020304466,-2.352312,0.005628291,1.5673804,0.8069457,0.03999994,0.04,-0.01836818924261241,-0.011291951233223518,0.008912464128307818,0.014356342090552046,0.03590710324231783,0.03961135803592017,0.9998762166313316,0.00347094900001723,-0.011969604463142724,0.009603775145720646
212.31666666672777,0.03029031,-0.76056796,-0.021079862,-2.35216,0.0058392566,1.5672438,0.8077438,0.039999936,0.04,-0.017941812150379377,-0.011366796411719018,0.009053463302444165,0.014706400924032421,0.03710051035550867,0.04037245986525852,0.9998668792620576,0.0035998049259367984,-0.01241719589013304,0.009953813614646716
212.33333333339445,0.031419978,-0.7596721,-0.021872254,-2.3520038,0.006054844,1.5671043,0.8085595,0.039999943,0.04,-0.016504161588981603,-0.011432565621128862,0.009753346489049797,0.015058856598339367,0.0382995514666036,0.041127521014903565,0.9998569930615187,0.0037318579719314167,-0.01287487339215579,0.010310397528300782
212.35000000006113,0.032573897,-0.758757,-0.02268168,-2.351845,0.006275075,1.566962,0.80939263,0.039999936,0.04,-0.01882628283047527,-0.011524561438929978,0.008953050844695554,0.015413765349264592,0.03950859386668791,0.04187590727646789,0.999846527479776,0.0038670589283413435,-0.01334333050995098,0.01067346582795667
212.3666666667278,0.033752143,-0.7578226,-0.02350817,-2.3516824,0.006499937,1.5668164,0.81024325,0.039999947,0.04,-0.01703331805082975,-0.011591622881335431,0.009253937016273639,0.015771457819149654,0.04072153663445635,0.04261733990978743,0.9998354645629904,0.004005403887264027,-0.013822218898187634,0.011042952799838739
212.3833333333945,0.034954745,-0.75686896,-0.02435176,-2.3515174,0.006729465,1.5666679,0.8111115,0.03999994,0.04,-0.01928357042586537,-0.011693052657828912,0.008626080717322182,0.01613200293750266,0.04194257000678216,0.04335111953174612,0.9998237728744778,0.004146998024762943,-0.014312115769674677,0.011418797862416119
212.40000000006117,0.03618172,-0.7558961,-0.025212472,-2.351348,0.0069636432,1.5665164,0.81199735,0.039999943,0.04,-0.01578062537064273,-0.011690061434419322,0.009666079778392067,0.016494763075163947,0.043165150469337686,0.04407700498484812,0.9998114432270825,0.004291837712777575,-0.01481201789351924,0.01180094263810188
212.41666666672785,0.037433114,-0.75490373,-0.026090316,-2.3511755,0.0072024907,1.5663619,0.8129008,0.039999936,0.04,-0.01890491443150566,-0.011831078794577107,0.008930322754086006,0.01686013982181065,0.04439976864164274,0.0447942975047485,0.999798437825022,0.004439926192423666,-0.015322919303981955,0.012189295387968197
212.43333333339453,0.038708936,-0.7538921,-0.026985317,-2.3509994,0.0074459873,1.5662043,0.81382185,0.039999943,0.04,-0.01711441705594119,-0.011836622213579062,0.009135337110577346,0.017228142015129407,0.045637853152373675,0.045502718573507114,0.999784739601775,0.004591317482294194,-0.015844325023467033,0.012583784317059326
212.4500000000612,0.040009208,-0.75286096,-0.02789748,-2.3508198,0.0076941503,1.5660436,0.8147607,0.039999947,0.04,-0.018298415877127105,-0.011938199561805501,0.009012529885987774,0.01759818093270807,0.04688391178292508,0.046200840798377364,0.999770317078183,0.004746087856346793,-0.016376664593756692,0.012984321169512592
212.4666666667279,0.04133393,-0.7518105,-0.02882681,-2.3506374,0.007947007,1.56588,0.8157173,0.03999994,0.04,-0.018845703295711225,-0.012020675782489776,0.008686998802498458,0.017970010024467346,0.04813275814722484,0.04688981811824354,0.9997551430512573,0.004904260290818814,-0.01692003980715605,0.01339083367397534
212.48333333339457,0.042683084,-0.7507406,-0.029773302,-2.3504505,0.008204527,1.5657134,0.81669146,0.039999936,0.04,-0.016187400593148382,-0.012010778344245798,0.009622481932258786,0.018343533038299907,0.04938572120089134,0.04756862625216888,0.9997392058905288,0.005065782154293195,-0.01747365698864257,0.013803237590625664
212.50000000006125,0.044056665,-0.7496514,-0.03073695,-2.3502617,0.008466713,1.5655439,0.8176831,0.039999932,0.04,-0.020547634099399303,-0.012132666699270558,0.008107915388277931,0.01871929836318715,0.05064820958064113,0.04823650315408003,0.9997224572237674,0.005230609881286049,-0.01803886832559994,0.014221408941246239
212.51666666672793,0.045454666,-0.74854267,-0.031717755,-2.3500688,0.008733552,1.5653713,0.81869245,0.039999936,0.04,-0.01722602345186619,-0.012124696594485035,0.009132507232245679,0.019097853614889623,0.051909133475486986,0.048893362989291936,0.9997048851436406,0.005398899663864602,-0.01861479460385502,0.014645269687385583
212.5333333333946,0.046877082,-0.7474146,-0.03271569,-2.3498733,0.009005061,1.5651956,0.81971943,0.039999936,0.04,-0.019545506668161572,-0.012264649302192246,0.008294736245462175,0.019478055046442455,0.053176858722894196,0.04953890278732124,0.9996864505010576,0.005570632837532846,-0.01920213376727982,0.015074707067443868
212.5500000000613,0.04832386,-0.74626714,-0.033730734,-2.3496735,0.009281221,1.5650167,0.8207641,0.039999936,0.04,-0.016793739534004537,-0.012229550818544654,0.009080833543917421,0.01986040372955432,0.05444354158472681,0.050171602388576986,0.999667140755303,0.005745891612330812,-0.019800094824929802,0.015509631479191582
212.56666666672797,0.049794964,-0.7451005,-0.03476287,-2.3494706,0.009562031,1.5648351,0.8218264,0.039999932,0.04,-0.018577877234982054,-0.012310976020019765,0.008508650783145555,0.020243676768580944,0.055718610189530386,0.05079225213037324,0.9996469209541431,0.005924647284141569,-0.020409107434939813,0.01594993150984465
212.58333333339465,0.051290356,-0.74391454,-0.03581207,-2.349264,0.009847482,1.5646504,0.82290626,0.039999932,0.04,-0.017598325192103026,-0.012335277082912988,0.008787052896308545,0.020628725947860603,0.05699494489579232,0.05140048173337311,0.9996257675160786,0.006106940565418454,-0.021028976262682034,0.016395497923660324
212.60000000006133,0.05280999,-0.7427094,-0.03687829,-2.349054,0.010137563,1.5644629,0.8240034,0.03999993,0.04,-0.018682981695916645,-0.01240941781118221,0.008391238904126297,0.021014907005175693,0.058278661106454785,0.05199496251500223,0.9996036479437772,0.006292653942725961,-0.021659980235491472,0.016846209664146863
212.616666666728,0.054353815,-0.7414852,-0.037961498,-2.348841,0.010432249,1.5642723,0.82511806,0.039999936,0.04,-0.01826989413136193,-0.012430429037531623,0.008208523180375238,0.021404103775182926,0.0595626017122362,0.05257582394417333,0.9995805337493091,0.006481944533564085,-0.022302104502615713,0.017301938598450913
212.6333333333947,0.05592176,-0.74024177,-0.039061643,-2.3486242,0.0107315555,1.5640786,0.8262501,0.039999932,0.04,-0.018057022505635345,-0.012481743017937058,0.008331864582467041,0.02179424877314301,0.06084985043225892,0.05314256724975887,0.9995563971765054,0.006674770058098497,-0.022955331157232462,0.01776257525410159
212.65000000006137,0.057513762,-0.7389793,-0.040178694,-2.3484054,0.011035454,1.5638818,0.82739955,0.03999994,0.04,-0.020372784450839454,-0.01253666670686833,0.007468170447655353,0.022186177313024164,0.062140876395508776,0.053694799607504756,0.9995311931532502,0.006871230492843661,-0.023620359146591437,0.018227965847575408
212.66666666672805,0.059129752,-0.73769766,-0.041312587,-2.3481822,0.011343947,1.5636822,0.8285663,0.039999925,0.04,-0.01679820923541353,-0.012540419486714582,0.008812570993743662,0.022579013422092814,0.06342610853490485,0.05423244738196677,0.9995049197749618,0.007071289972825612,-0.02429600875607821,0.018698025625502886
212.68333333339473,0.060769644,-0.736397,-0.04246328,-2.3479562,0.011656989,1.5634798,0.8297503,0.039999936,0.04,-0.01914881423705772,-0.012568107959248093,0.007855624682751028,0.02297349897823031,0.0647184755912356,0.05475487634038499,0.9994775308227145,0.007274967053711386,-0.024983036138012366,0.019172588250513666
212.7000000000614,0.062433355,-0.73507744,-0.04363071,-2.3477263,0.011974587,1.5632743,0.8309515,0.039999932,0.04,-0.017606338612630168,-0.01258766518015958,0.00807190224321186,0.023369170607304368,0.06600954360422386,0.05526110365498454,0.9994490048513925,0.007482309889995829,-0.025681096716360506,0.019651539678002445
212.7166666667281,0.064120814,-0.7337391,-0.0448148,-2.3474936,0.012296719,1.5630658,0.8321699,0.03999993,0.04,-0.019020218813947665,-0.012684437011589028,0.007502345837173685,0.023765507275859923,0.06730378492371375,0.055752180758308414,0.9994193035196361,0.007693318609275309,-0.02639055918975994,0.020134720925636073
212.73333333339477,0.06583188,-0.7323822,-0.046015505,-2.3472574,0.01262335,1.5628544,0.83340526,0.03999993,0.04,-0.0175774637225512,-0.012577589600826222,0.007777805648934155,0.024163268232626503,0.06859564155503553,0.05622727713559058,0.9993884097871357,0.00790799399466058,-0.027110927300505103,0.020622018209363227
212.75000000006145,0.06756649,-0.73100644,-0.04723273,-2.3470178,0.012954473,1.5626402,0.8346577,0.039999936,0.04,-0.01836726008626055,-0.012718119472528155,0.00773498475630241,0.02456176573721411,0.06989201787818923,0.05668566810490572,0.999356285867483,0.008126417223571514,-0.027842511105711034,0.021113261604647895
212.76666666672813,0.06932449,-0.7296122,-0.048466403,-2.3467762,0.013290074,1.5624231,0.83592707,0.039999936,0.04,-0.02047296533922438,-0.012714181173678618,0.006751548945516106,0.024960810095453513,0.07118784533322164,0.05712728437247075,0.9993228852486314,0.008348546478830286,-0.028585914171560433,0.021608292413271148
212.7833333333948,0.071105815,-0.72819936,-0.04971647,-2.34653,0.013630133,1.5622028,0.83721334,0.039999932,0.04,-0.015850323560662183,-0.012655682582320138,0.007923349565852611,0.025361066475881634,0.07247722855950997,0.05755199759850372,0.9992882102225933,0.008574463155337496,-0.029339927901236306,0.022107015232144173
212.8000000000615,0.07291032,-0.7267683,-0.05098281,-2.3462815,0.01397461,1.5619797,0.8385163,0.039999932,0.04,-0.019845192431167114,-0.01276049980508398,0.006573734374248907,0.02576102636919609,0.07377088823510566,0.05795915710911553,0.9992522032481017,0.00880409462121965,-0.03010557045718899,0.02260922044570346
212.81666666672817,0.07473787,-0.7253186,-0.05226537,-2.346029,0.01432349,1.5617539,0.83983594,0.039999932,0.04,-0.017127747886380718,-0.012694396898685345,0.007914274098475005,0.026162232545004646,0.07506040941120036,0.058348746468106776,0.9992148569518808,0.009037530835916475,-0.030882017747133044,0.023114793161258886
212.83333333339485,0.07658836,-0.723851,-0.053564027,-2.3457737,0.0146767385,1.5615253,0.84117204,0.03999994,0.04,-0.01832392886225165,-0.012762946183914742,0.0067112407851066536,0.02656302437533766,0.0763519687803588,0.0587204355883773,0.9991761334323185,0.009274680041674407,-0.031669573530032066,0.023623564544587156
212.85000000006153,0.078461625,-0.7223652,-0.054878708,-2.345515,0.015034354,1.561294,0.8425247,0.039999936,0.04,-0.018021683078450756,-0.012722971987830234,0.006984048974145729,0.02696528391557272,0.07764206881275708,0.059073720657117336,0.9991359997591059,0.009515695587335561,-0.03246827654344823,0.024135379449248286
212.8666666667282,0.080357544,-0.7208614,-0.056209307,-2.3452525,0.015396296,1.5610596,0.8438937,0.039999936,0.04,-0.01704473883654689,-0.012727688754057831,0.006952943831683989,0.027366653729510325,0.07893009516923498,0.059408636332070566,0.9990944348355293,0.009760505118027292,-0.03327786331253294,0.024650083851129653
212.8833333333949,0.08227595,-0.71933985,-0.057555713,-2.3449886,0.015762538,1.5608226,0.845279,0.039999932,0.04,-0.02062997176248693,-0.012806272826594578,0.005697463036757888,0.027768480087492622,0.08021837480311059,0.059723938403268784,0.9990513790152187,0.010009142147914788,-0.034099231669032615,0.025167470290725146
212.90000000006157,0.0842167,-0.7178005,-0.058917828,-2.3447201,0.016133046,1.5605829,0.8466804,0.03999993,0.04,-0.015696343124260714,-0.012679312098176632,0.007277151042761609,0.02817036183825168,0.08149793917836154,0.06002136414430696,0.999006847130476,0.010261631254391734,-0.03493098713522663,0.025687437555798182
212.91666666672825,0.086179644,-0.7162437,-0.060295552,-2.3444495,0.016507793,1.5603404,0.848098,0.039999925,0.04,-0.019307234279741792,-0.012762548799676726,0.005711271547692576,0.028572110169780215,0.0827812483481024,0.06029943757664011,0.9989607736920607,0.010518022831987037,-0.03577417612863474,0.026209771891082298
212.93333333339493,0.088164605,-0.71466935,-0.061688747,-2.3441758,0.016886739,1.5600952,0.8495312,0.03999993,0.04,-0.01784182062531947,-0.012722828198911962,0.006180559722412937,0.028972955130403585,0.08405804505504294,0.06055818219052293,0.9989131445915935,0.010778125466810614,-0.036628377341030235,0.02673431403494359
212.9500000000616,0.090171434,-0.7130777,-0.06309733,-2.3438983,0.017269857,1.5598472,0.8509808,0.039999936,0.04,-0.016437387493328792,-0.012660378407480105,0.006377091045228767,0.029374983835768607,0.0853305438610327,0.060797417658747556,0.9988639398119686,0.011042431521334085,-0.03749315969636971,0.027260913876669235
212.9666666667283,0.092199944,-0.7114689,-0.06452114,-2.3436193,0.017657116,1.559597,0.85244566,0.039999932,0.04,-0.02025098373732437,-0.01278562519155535,0.005301469270779791,0.02977349107085764,0.08660298580458303,0.06101687307984901,0.9988131015706715,0.01131037601517326,-0.038369458470420004,0.027789353750267795
212.98333333339497,0.09424997,-0.7098425,-0.065960065,-2.3433359,0.018048482,1.5593439,0.853926,0.03999993,0.04,-0.01565899516893232,-0.012650563590489716,0.006634662357107857,0.030173715682402943,0.0878654598758335,0.061216596136143046,0.9987606365193161,0.011582191653121871,-0.03925620662882537,0.02831949888603032
213.00000000006165,0.09632132,-0.7081997,-0.06741398,-2.3430498,0.01844391,1.559088,0.8554218,0.03999993,0.04,-0.017648784049195676,-0.012640370083775998,0.004953411924635276,0.030573490782821483,0.08912838187750158,0.06139611656206963,0.9987064977507145,0.011857904106849096,-0.040153850314433345,0.028851165758441665
213.01666666672833,0.098413765,-0.7065397,-0.06888275,-2.342762,0.018843377,1.5588294,0.856933,0.039999925,0.04,-0.020030360119949187,-0.012667765489082772,0.004863581668801409,0.03097226869459324,0.09038583347425415,0.0615552081361178,0.9986506254067842,0.012137619850349411,-0.04106312847528279,0.029384112013634046
213.033333333395,0.10052718,-0.7048633,-0.07036628,-2.3424695,0.019246832,1.5585685,0.858459,0.039999932,0.04,-0.014006718587977751,-0.012492819818557543,0.006329192623599766,0.031369810824198076,0.09163017915467962,0.0616948274246002,0.9985930715180036,0.012421078830898283,-0.0419820101289892,0.029918307813868325
213.0500000000617,0.10266131,-0.70317036,-0.0718644,-2.3421752,0.01965426,1.5583047,0.86000013,0.03999992,0.04,-0.019507939350504877,-0.012600582560624851,0.004207429288971554,0.031767139111853644,0.09288021583054201,0.06181214168635593,0.9985337287577772,0.012708533014458224,-0.042912396359338224,0.030453439221364766
213.06666666672837,0.104816,-0.7014612,-0.07337697,-2.3418777,0.02006561,1.5580385,0.86155605,0.03999992,0.04,-0.01626615536205467,-0.012516515665435962,0.005257015641602081,0.03216340517758769,0.094115937614043,0.061910212928756626,0.9984726182402786,0.01299987709297365,-0.04385305865540586,0.030989402487563884
213.08333333339505,0.10699101,-0.6997358,-0.07490384,-2.3415768,0.020480825,1.5577699,0.8631267,0.03999993,0.04,-0.016316457784482097,-0.012456543635843559,0.0051731056806225695,0.032558357171265234,0.09534947718541559,0.061987438535669154,0.998409710595431,0.01329517053396859,-0.04480401716048257,0.03152599364815358
213.10000000006173,0.10918615,-0.69799465,-0.07644486,-2.3412745,0.020899901,1.5574986,0.8647118,0.03999992,0.04,-0.01912070178569092,-0.012539533851081003,0.0035027239097207286,0.03295165735469266,0.0965796724592351,0.062043634078928094,0.99834493652848,0.013594340423909626,-0.04576621237432664,0.032062991458878316
213.1166666667284,0.11140121,-0.69623756,-0.077999875,-2.3409681,0.02132276,1.5572249,0.8663113,0.03999993,0.04,-0.014888308263039107,-0.012349672896778963,0.005262155188789919,0.03334411584576078,0.09779628938943452,0.06207928902538101,0.9982783283041068,0.013897438325895553,-0.04673823434639386,0.03260027448530814
213.1333333333951,0.113635965,-0.6944648,-0.079568736,-2.3406591,0.021749405,1.5569489,0.8679252,0.039999917,0.04,-0.016988950011387338,-0.012412435622195794,0.004320093010523607,0.03373511934122778,0.09901159984144701,0.06209372286902204,0.9982098316773891,0.014204563417196425,-0.04772063893011741,0.0331376363192499
213.15000000006177,0.1158902,-0.69267654,-0.081151314,-2.340349,0.022179745,1.5566703,0.8695532,0.039999917,0.04,-0.019274541531433265,-0.012358782068776913,0.0030302181500019287,0.034123235777218805,0.10021868089918042,0.06208721998776581,0.9981393822506329,0.014515611220007323,-0.04871423816316942,0.03367482192107798
213.16666666672845,0.11816365,-0.6908731,-0.08274744,-2.3400347,0.022613766,1.5563892,0.8711951,0.039999913,0.04,-0.01423273141163417,-0.012150352536549613,0.004562205835312305,0.03451043053862748,0.10140901221559523,0.062060288945031815,0.9980670252886699,0.014830605071927233,-0.049717411802331093,0.034211769148987686
213.18333333339513,0.120456114,-0.68905437,-0.08435695,-2.3397179,0.02305141,1.5561061,0.8728506,0.039999913,0.04,-0.016584009897546714,-0.012193239786956883,0.0040304411216496305,0.03489544882329139,0.10259790279837493,0.06201179498086441,0.9979927108060237,0.015149505907818482,-0.05073067389164859,0.034748242765535155
213.2000000000618,0.12276737,-0.68722075,-0.085979655,-2.3393998,0.023492653,1.5558206,0.8745196,0.039999913,0.04,-0.01864833238129915,-0.012262074801938638,0.002635593752442489,0.0352781713338686,0.10377906605868735,0.06194126989514381,0.9979163764385166,0.015472265818749819,-0.05175474652410853,0.03528400258587249
213.21666666672849,0.12509713,-0.6853727,-0.08761541,-2.3390775,0.023937428,1.5555329,0.8762021,0.039999906,0.039999995,-0.012992805655764883,-0.011924130181219933,0.004348884539284725,0.0356597704450654,0.10494387790428293,0.06185117905091768,0.9978380848209176,0.015799050446873002,-0.052787742191729325,0.03581899998883176
213.23333333339517,0.1274452,-0.68350995,-0.089264035,-2.3387527,0.024385683,1.5552429,0.87789786,0.039999906,0.039999995,-0.016566592519406953,-0.012044162714763829,0.003078392339039837,0.03603791960616297,0.10610978038048544,0.06173926962226249,0.9977577518287659,0.016129756408803684,-0.05383088055568885,0.03635293554031917
213.25000000006185,0.1298113,-0.6816328,-0.09092538,-2.3384268,0.024837378,1.5549505,0.87960654,0.03999991,0.04,-0.01814497992658204,-0.011948888906546107,0.0020995972496606896,0.03641361583374543,0.10726414630417455,0.061606325056611455,0.9976753283078321,0.016464341419124343,-0.05488457918992641,0.0368856030808572
213.26666666672853,0.13219519,-0.6797417,-0.092599265,-2.3380973,0.025292464,1.554656,0.8813283,0.03999991,0.04,-0.013776239893648068,-0.011765414154966958,0.0035498501893993506,0.036787551318528684,0.10840016905776093,0.0614530025181479,0.9975908647297184,0.016802959294822496,-0.055947304395006704,0.03741692528364453
213.2833333333952,0.13459662,-0.67783654,-0.09428549,-2.3377655,0.025750918,1.5543592,0.8830625,0.039999906,0.039999995,-0.015847229730270307,-0.011805753329105495,0.0024597522127134397,0.037157502494753775,0.10953325677753939,0.06127813777370428,0.9975042992713202,0.017145376368546062,-0.057019820015792116,0.03794666164209668
213.30000000006189,0.13701528,-0.67591757,-0.09598387,-2.3374324,0.026212668,1.5540606,0.8848093,0.039999906,0.039999995,-0.017485499531488813,-0.01174217224123586,0.002017955377997538,0.03752607861621647,0.1106528764593777,0.06108245140820048,0.9974155915627783,0.017491790712081463,-0.058102337565030804,0.03847458036986114
213.31666666672857,0.13945104,-0.67398524,-0.097694255,-2.3370957,0.026677666,1.5537596,0.88656855,0.039999906,0.039999995,-0.013209581806195025,-0.011578752956156735,0.002694726606256026,0.03789097379852495,0.11175697985771103,0.06086626814595603,0.9973247785313892,0.017842125374396636,-0.05919373061877105,0.03900060185269152
213.33333333339525,0.14190352,-0.67203975,-0.09941643,-2.3367567,0.027145848,1.5534564,0.8883398,0.039999906,0.039999995,-0.014927309750878415,-0.011465823566055022,0.001983260345150839,0.03825187428980768,0.11285547139361186,0.060628277451488535,0.9972318169090236,0.01819632552969257,-0.06029437307904144,0.039524494387028306
213.35000000006193,0.1443725,-0.6700809,-0.1011502,-2.3364162,0.027617186,1.5531515,0.89012295,0.0399999,0.03999999,-0.01663632112949287,-0.01153298104504541,0.0016541657213986483,0.03861032436176022,0.11394181251484055,0.06037026026595278,0.9971366607498499,0.01855437597509465,-0.061404643932728493,0.04004603131782655
213.3666666667286,0.1468577,-0.6681091,-0.1028954,-2.3360732,0.028091613,1.5528444,0.89191777,0.039999895,0.039999988,-0.014321433208142054,-0.011305869905837984,0.0018317211545548773,0.03896598813179265,0.11501200002413592,0.06009202852361438,0.9970393216386425,0.018916277512755493,-0.06252391328364514,0.04056508127830047
213.38333333339529,0.1493588,-0.6661248,-0.10465184,-2.3357277,0.028569061,1.5525355,0.893724,0.039999902,0.039999995,-0.01417507724519318,-0.011142413123391148,0.0016859332094387725,0.03931812600105335,0.11607089630462178,0.05979342381896216,0.9969397928393547,0.01928202518457402,-0.06365190272670694,0.04108148290259087
213.40000000006197,0.15187557,-0.66412824,-0.10641932,-2.33538,0.029049514,1.5522245,0.8955416,0.03999989,0.039999984,-0.014390941132358392,-0.011127431235573304,0.0010552015083709065,0.039666665419831285,0.11711908497635716,0.059474211990938865,0.9968380409513296,0.019651609208961605,-0.06478878218732706,0.04159504862957629
213.41666666672864,0.15440768,-0.6621194,-0.10819762,-2.335031,0.029532893,1.5519118,0.89737034,0.03999989,0.039999984,-0.01547140767839128,-0.011024712500568024,0.0008855736200352737,0.04001163043003257,0.1181525686671994,0.05913471137964476,0.9967340371798965,0.02002506060916803,-0.06593465229822969,0.0421055542770228
213.43333333339532,0.15695485,-0.66009843,-0.10998657,-2.334679,0.030019138,1.551597,0.89921016,0.0399999,0.03999999,-0.012682610558356622,-0.010782072164731982,0.0014006659240450858,0.04035249934253633,0.11917098404011271,0.058774739606764735,0.9966278009377558,0.02040244239959792,-0.06708881922321625,0.04261287454911561
213.450000000062,0.15951683,-0.65806586,-0.11178598,-2.3343246,0.030508218,1.5512806,0.9010607,0.039999895,0.03999999,-0.013568992235613031,-0.010755657647246175,0.0009590261914604881,0.04068844251802596,0.12017790239277087,0.05839567620450199,0.9965193168488088,0.020783656409542578,-0.06825120631394753,0.04311685992885456
213.46666666672868,0.1620934,-0.65602165,-0.11359559,-2.3339686,0.03100007,1.5509623,0.9029217,0.039999887,0.039999984,-0.014438482301759592,-0.01082787701129767,0.00027435001310749385,0.04101997490859137,0.12117168219980691,0.05799684116389364,0.9964085425913072,0.02116856944102925,-0.06942220474272544,0.04361726043146798
213.48333333339536,0.16468412,-0.65396607,-0.115415215,-2.3336115,0.031494632,1.5506424,0.9047927,0.039999887,0.039999984,-0.014899796402678689,-0.010526920298034592,-3.178575083140345e-05,0.041348096094308395,0.12214902981725165,0.05757841867363202,0.9962954577958054,0.02155717979897248,-0.07060178578525116,0.04411390504698931
213.50000000006204,0.16728875,-0.6518994,-0.11724469,-2.3332515,0.031991847,1.5503205,0.90667385,0.039999884,0.03999998,-0.011921749724419506,-0.010305743504067377,0.0006381069374894466,0.041672687501165054,0.1231084594582928,0.05714108351604863,0.9961800977350397,0.021949564185771684,-0.0717890756695943,0.04460670491267684
213.51666666672872,0.169907,-0.64982224,-0.11908376,-2.3328893,0.03249165,1.5499969,0.9085648,0.039999884,0.03999998,-0.01237386890011738,-0.010245136115322184,-7.889473834232774e-05,0.04199234260094231,0.12405487862654138,0.05668455268615112,0.996062446634307,0.022345659322499444,-0.07298404906062181,0.04509548200250148
213.5333333333954,0.17253852,-0.64773417,-0.12093221,-2.332526,0.032994,1.5496716,0.9104655,0.039999884,0.03999998,-0.014362271597012644,-0.01018822766124805,-0.00041684038560863,0.042307529843890385,0.12498773910816517,0.05620867273793556,0.9959424484936015,0.022745530962554144,-0.07418723685017356,0.04557997365442172
213.55000000006208,0.17518303,-0.64563584,-0.12278986,-2.3321612,0.03349883,1.549345,0.9123757,0.039999872,0.03999997,-0.013202059057371152,-0.009987588075102694,-0.0005407954412284255,0.04261744892930183,0.125901929476745,0.05571393882362354,0.9958201187061317,0.023149171384818742,-0.07539811346373329,0.046060086087759695
213.56666666672876,0.17784028,-0.64352745,-0.124656454,-2.331794,0.034006067,1.5490167,0.91429496,0.03999988,0.03999998,-0.011513685628505854,-0.009883184093592567,-0.0002694956529936121,0.042922043746008,0.12679659605556515,0.05520204033191679,0.995695478861005,0.02355638804962457,-0.07661619571128485,0.046535669249935845
213.58333333339544,0.18050997,-0.6414093,-0.12653176,-2.3314247,0.034515683,1.5486869,0.9162232,0.039999865,0.039999966,-0.011532851180451331,-0.009799678536573375,-0.0005438570611859816,0.04322229170185575,0.1276792910558987,0.05467162233832845,0.9955685186320367,0.0239672294437934,-0.07784136807277511,0.04700657441421823
213.60000000006212,0.18319172,-0.6392814,-0.12841567,-2.331054,0.03502757,1.5483556,0.91816026,0.039999876,0.039999977,-0.012610008935443062,-0.009473113476504702,-0.0010114305870834173,0.0435174228154243,0.12854721056544005,0.05412337390762822,0.9954392031806646,0.024381738034538993,-0.0790738595930801,0.04747260631682844
213.6166666667288,0.18588518,-0.63714415,-0.13030785,-2.3306823,0.03554172,1.5480227,0.92010576,0.039999872,0.039999973,-0.012974589521563828,-0.009470542208431243,-0.0016732608724590037,0.043806830210313216,0.12939528974786393,0.053557495135552205,0.9953075116934107,0.024799813672853208,-0.0803137478450662,0.04793358233579135
213.63333333339548,0.18859012,-0.63499796,-0.13220821,-2.3303092,0.03605806,1.5476886,0.9220594,0.039999865,0.039999966,-0.011685018900076116,-0.009217435820907394,-0.0014186125090631663,0.044091643942697975,0.13022205122130195,0.05297477414017285,0.9951734708480335,0.02522140406353608,-0.08156044018334774,0.04838944403938453
213.65000000006216,0.1913062,-0.63284296,-0.1341164,-2.3299336,0.036576502,1.5473529,0.9240213,0.03999987,0.03999997,-0.010057703859556177,-0.009082291803443054,-0.001098660295739684,0.044370818699410675,0.13103274059526138,0.052373868442197165,0.9950371015605708,0.025646599693298865,-0.08281348053938098,0.04884000289786798
213.66666666672884,0.194033,-0.6306792,-0.1360322,-2.3295565,0.03709701,1.547016,0.92599094,0.03999986,0.039999966,-0.011066399828907336,-0.008884078147904095,-0.0013902612972849226,0.04464401494264689,0.13182737491503496,0.05175720876627746,0.9948983831223813,0.02607531146628951,-0.08407296674491757,0.0492851058141816
213.68333333339552,0.1967703,-0.6285071,-0.1379554,-2.329178,0.03761951,1.5466777,0.9279682,0.03999986,0.039999966,-0.011389968368868963,-0.00882764395638419,-0.002159061503781423,0.044911352480232314,0.132604264254532,0.0511242194894795,0.9947572934799549,0.02650749585398495,-0.08533900902349424,0.049724574114554644
213.7000000000622,0.19951777,-0.62632674,-0.13988584,-2.3287985,0.038143944,1.5463381,0.92995274,0.039999854,0.039999958,-0.011227199080421357,-0.008598962722684844,-0.002183987072190696,0.045172547403428326,0.13335963959459055,0.05047531828401288,0.994613831498731,0.026943092768761865,-0.08661144256171871,0.0501582890542153
213.71666666672888,0.20227504,-0.62413865,-0.14182323,-2.328418,0.038670257,1.5459974,0.93194443,0.039999858,0.03999996,-0.010991520783742992,-0.008445220037202328,-0.0024352631843083117,0.04542849695612225,0.1340951258297048,0.04981091060195119,0.994468005907964,0.02738212749702675,-0.08788998471668039,0.05058611376332213
213.73333333339556,0.2050418,-0.62194306,-0.14376731,-2.3280356,0.039198387,1.5456557,0.93394303,0.039999865,0.03999997,-0.00915870822122411,-0.008269504762259405,-0.001856463541893838,0.04567824925243866,0.13481060195773634,0.049131152259888934,0.9943198629642578,0.02782455647234916,-0.08917393782251347,0.05100796981926609
213.75000000006224,0.20781773,-0.6197402,-0.14571789,-2.3276517,0.039728273,1.5453126,0.9359482,0.039999865,0.03999996,-0.009726557150502302,-0.008078437134127758,-0.002720770642583581,0.045921390548894395,0.13550898103403708,0.04843773148375975,0.9941693683499023,0.02827026977576125,-0.09046360374530864,0.05142368402763205
213.76666666672892,0.2106025,-0.6175303,-0.14767474,-2.327267,0.04025983,1.5449685,0.93795985,0.039999858,0.039999954,-0.010131519751555018,-0.007906857310716053,-0.0029322557114408454,0.046158363400888316,0.13618830363921597,0.04772812270848993,0.9940165179977545,0.028719333955186558,-0.09175887498618492,0.051833103959345025
213.7833333333956,0.21339582,-0.6153136,-0.14963764,-2.3268805,0.040793013,1.5446235,0.9399775,0.039999858,0.039999954,-0.008657992608851472,-0.007719189018684514,-0.002407236595258766,0.0463889256414171,0.1368451326592917,0.04700468845459815,0.9938613596471374,0.029171597490468274,-0.09305910494641378,0.05223618177824714
213.80000000006228,0.21619721,-0.61309063,-0.15160634,-2.326493,0.041327745,1.5442774,0.94200116,0.039999858,0.039999954,-0.009195623110769269,-0.007410012156172652,-0.0033620641780585103,0.04661328656078485,0.13748632432404997,0.046266791666386566,0.9937038676127488,0.02962714053830779,-0.09436444761160952,0.052632756548978664
213.81666666672896,0.21900645,-0.6108613,-0.15358056,-2.326105,0.04186398,1.5439303,0.9440305,0.039999854,0.03999994,-0.010072077025613524,-0.007470383576510531,-0.0037336966234757796,0.046830819442425384,0.13810532631379915,0.04551762923374248,0.9935440149442553,0.030085863789780835,-0.09567513884915077,0.053022627006475954
213.83333333339564,0.22182317,-0.6086262,-0.1555601,-2.3257167,0.042401623,1.5435823,0.9460652,0.039999854,0.039999925,-0.009313671205268825,-0.00715289039436573,-0.0038367948328454915,0.047042174196587516,0.1386994344763786,0.04475590155649137,0.9933818353876581,0.030547661937035616,-0.09699070598363511,0.05340573400698227
213.85000000006232,0.22464703,-0.60638523,-0.15754473,-2.3253274,0.04294063,1.5432334,0.94810516,0.03999985,0.039999913,-0.008627668308980319,-0.00695715374083028,-0.003628725754478701,0.04724727919026993,0.13927133774428255,0.04398063181433077,0.9932173358978031,0.031012629689600574,-0.09831094637975468,0.053781951375187
213.866666666729,0.22747767,-0.60413885,-0.1595342,-2.3249357,0.04348093,1.5428836,0.95015,0.039999854,0.039999913,-0.005835504219042775,-0.006608507008820652,-0.0027182609867004714,0.0474444233920016,0.13982126087642352,0.04319285443162782,0.9930506062109519,0.031480663335755665,-0.09963482500305207,0.05415129718310318
213.88333333339568,0.23031478,-0.60188735,-0.16152826,-2.3245432,0.044022486,1.5425328,0.95219946,0.039999854,0.03999991,-0.008141746143675022,-0.006588729048701003,-0.004277673205255184,0.04763430186926222,0.14035525716411867,0.042392571214631775,0.9928815749243496,0.03195164216184298,-0.10096307498511824,0.0545135600420132
213.90000000006236,0.23315796,-0.5996309,-0.16352668,-2.32415,0.04456518,1.5421815,0.9542535,0.039999858,0.039999917,-0.007812320516698001,-0.006300052724006466,-0.003916908498546867,0.047817706986674494,0.14086559071887045,0.04157942073107421,0.9927102742636332,0.03242569358602846,-0.10229525267819352,0.05486863444985427
213.91666666672904,0.23600695,-0.59737,-0.16552925,-2.323756,0.045109,1.5418295,0.9563117,0.039999865,0.03999991,-0.006815350005351384,-0.006129209063837626,-0.004193478313396781,0.04799316387866752,0.14135379243198362,0.040759420224540654,0.992536731075003,0.03290264906266483,-0.10363103453970579,0.05521649963404731
213.93333333339572,0.23886131,-0.5951047,-0.16753565,-2.3233612,0.045653824,1.5414767,0.9583738,0.039999865,0.039999917,-0.007236196560955754,-0.005916221189225523,-0.00438790283447954,0.048160976647630874,0.14182183070077423,0.0399236517788757,0.9923609390709611,0.03338245149858112,-0.1049704861245759,0.05555695798831427
213.9500000000624,0.24172072,-0.59283537,-0.16954571,-2.322966,0.04619963,1.5411233,0.96043956,0.039999865,0.03999991,-0.0073965613106352635,-0.005678402331393828,-0.004958223490980629,0.048321969135917825,0.14226730941510848,0.03908124508968416,0.9921828946723292,0.033865094323182056,-0.10631355300414919,0.05588995753937726
213.96666666672908,0.2445849,-0.5905621,-0.17155913,-2.3225703,0.046746332,1.5407692,0.96250874,0.039999865,0.03999991,-0.006522921583274055,-0.005590547096356868,-0.00459483285799589,0.04847534354540131,0.1426869244682146,0.03822769927963261,0.9920026385672864,0.03435046277775275,-0.10765983651954826,0.05621539275928004
213.98333333339576,0.24745342,-0.58828545,-0.17357571,-2.3221743,0.047293857,1.5404146,0.9645811,0.039999865,0.039999906,-0.006612205253531123,-0.0051979221115328045,-0.005168489394069553,0.048621697576785444,0.14308228014615898,0.037366078805371385,0.9918201732966009,0.03483856052124779,-0.10900924332783435,0.05653320627561437
214.00000000006244,0.25032592,-0.5860055,-0.17559515,-2.3217773,0.04784215,1.5400596,0.9666562,0.03999987,0.039999906,-0.0052705945324138526,-0.005043248958097601,-0.004539873779307868,0.048760584611573454,0.14345517173381034,0.03649549418896332,0.9916355620151924,0.03532927933696352,-0.11036116664243692,0.05684335551024911
214.01666666672912,0.2532021,-0.58372283,-0.17761722,-2.3213804,0.04839113,1.5397042,0.9687342,0.039999872,0.039999906,-0.0061008607078250066,-0.004890131157533895,-0.005485346342948283,0.04889175265832395,0.1438059053282457,0.035616604835920045,0.9914487844537953,0.03582267603736485,-0.11171575704884228,0.05714571999387003
214.0333333333958,0.25608155,-0.5814371,-0.17964171,-2.320983,0.048940744,1.5393484,0.97081465,0.03999988,0.039999913,-0.005692905495013889,-0.004538917689125843,-0.005131946574499224,0.049015009768153234,0.14413250670487984,0.03472994863630783,0.9912598523690019,0.03631869637134054,-0.11307289871486095,0.05744020326817712
214.05000000006248,0.25896403,-0.5791491,-0.18166836,-2.3205848,0.04949092,1.5389923,0.97289705,0.039999876,0.039999913,-0.004329001163938528,-0.00443103701395775,-0.005091295509385141,0.04912946254989746,0.14443385472867706,0.0338351839983979,0.9910688426729295,0.03681709128423447,-0.11443190934854916,0.05772684813112288
214.06666666672916,0.2618491,-0.5768592,-0.18369688,-2.3201864,0.050041616,1.5386358,0.9749814,0.039999872,0.039999906,-0.004695242759389373,-0.0041707717817418555,-0.005673669080352717,0.04923727607367398,0.1447144315522846,0.03293421079982522,0.9908757436388319,0.03731795013328142,-0.11579286703936989,0.05800554463880737
214.08333333339584,0.26473635,-0.57456756,-0.18572707,-2.3197877,0.050592706,1.538279,0.9770674,0.03999987,0.039999906,-0.004311880524232592,-0.0037673335348570314,-0.005784515368101317,0.049336752358330876,0.14497143361326398,0.03202554946874278,0.9906805817219259,0.03782120668476329,-0.11715554530569974,0.05827623467708918
214.10000000006252,0.26762554,-0.5722743,-0.18775873,-2.3193889,0.051144138,1.537922,0.97915494,0.039999872,0.03999991,-0.004185669177458884,-0.00365851912347559,-0.005740765818718074,0.0494281149470218,0.14520395621293197,0.031111706202575078,0.9904833738473897,0.038326870484145924,-0.11851979060918531,0.05853884492145613
214.1166666667292,0.27051625,-0.56997997,-0.18979155,-2.3189898,0.051695872,1.5375648,0.9812435,0.03999987,0.039999906,-0.0035694993215207305,-0.00340274695030951,-0.0059280966028030235,0.04951086058995438,0.14541323896582173,0.03019234272235024,0.9902841610159864,0.038834745322496915,-0.11988528674386269,0.05879337563827028
214.13333333339588,0.27340817,-0.5676843,-0.19182524,-2.31859,0.052247837,1.5372072,0.983333,0.03999987,0.039999902,-0.00299804106200785,-0.0032763287207498992,-0.005523018208974939,0.04958577408594249,0.14559760741159636,0.0292688414590215,0.9900829724256714,0.03934485188797427,-0.12125180880703998,0.059039725640298045
214.15000000006256,0.27630097,-0.5653881,-0.19385958,-2.3181896,0.05279995,1.5368497,0.985423,0.039999865,0.0399999,-0.0023734121729956925,-0.0029899221548113086,-0.0057930200248801356,0.04965252308767877,0.14575929801439555,0.028340257443275906,0.9898798648641746,0.0398570362530214,-0.12261890520148133,0.05927793758894646
214.16666666672924,0.27919424,-0.5630915,-0.19589432,-2.3177898,0.053352147,1.5364921,0.9875134,0.039999865,0.0399999,-0.003611088983634936,-0.0027669757704573694,-0.006693991616613104,0.04971111058546006,0.14589964222435403,0.02740728231317884,0.9896748010283223,0.04037127776898382,-0.1239869379281269,0.05950787648754602
214.18333333339592,0.28208753,-0.56079483,-0.19792923,-2.3173902,0.053904362,1.5361344,0.9896039,0.03999987,0.0399999,-0.0029118741587952357,-0.0023683952282860243,-0.006582338508454022,0.049762141107035376,0.1460136102453637,0.026471841785587927,0.9894678191213719,0.04088755119840351,-0.1253555935542652,0.059729542479847346
214.2000000000626,0.28498054,-0.55849814,-0.19996403,-2.3169904,0.05445653,1.5357769,0.9916942,0.039999865,0.039999895,-0.001932438584550944,-0.0022144179098904093,-0.00597953222316594,0.04980451356323734,0.1461016438975374,0.025532733139353645,0.9892589893034612,0.04140582546250297,-0.1267243255525141,0.059942931304063994
214.21666666672928,0.287873,-0.5562022,-0.20199853,-2.3165908,0.055008557,1.5354193,0.9937842,0.039999876,0.03999991,-0.0018104858142686808,-0.001982482332671398,-0.006788737863061556,0.04983741507166799,0.146166033993189,0.024590658575949113,0.989048326230755,0.04192597344675686,-0.12809307213797771,0.06014803405713959
214.23333333339596,0.29076448,-0.5539068,-0.2040324,-2.3161912,0.05556042,1.5350618,0.9958737,0.039999872,0.0399999,-0.0015226163855741603,-0.0017683151507824624,-0.00656032810995022,0.04986324130817002,0.146206666357928,0.023648482049354238,0.9888358521663467,0.04244803283842356,-0.1294616897048624,0.060344783348396186
214.25000000006264,0.29365465,-0.55161244,-0.20606545,-2.3157916,0.056112017,1.5347044,0.99796206,0.039999872,0.0399999,-0.0009684451326874566,-0.0014673584554425467,-0.0065914549080892115,0.04987893126894931,0.14622168653248893,0.022703861925485305,0.9886216238849037,0.04297173636368419,-0.13082982982966992,0.060533216400631015
214.26666666672932,0.2965433,-0.54931945,-0.20809746,-2.315392,0.056663286,1.5343474,1.0000492,0.03999988,0.039999906,-0.0004664210651705858,-0.0013380546534519366,-0.006520925942821165,0.04988696716105877,0.14621442836381288,0.021757865000566874,0.9884056907957081,0.04349706725439664,-0.13219714040113312,0.06071335613099272
214.283333333396,0.29942974,-0.54702806,-0.21012811,-2.3149931,0.057214186,1.5339906,1.0021348,0.039999884,0.039999902,-0.001231516636468477,-0.0008485182108192157,-0.00722277837379437,0.0498877283677321,0.1461850340716571,0.020812086721681024,0.98818803586463,0.044023993741776735,-0.13356381714802879,0.06088514184820985
214.30000000006268,0.30231398,-0.5447384,-0.21215717,-2.3145943,0.057764623,1.5336343,1.0042188,0.03999988,0.0399999,8.559547670650147e-05,-0.0009698108034139619,-0.006531226501027554,0.0498794813829332,0.1461284041448882,0.01986512903398424,0.9879687449347679,0.0445524569016131,-0.13492927436483113,0.06104857521211553
214.31666666672936,0.3051954,-0.5424508,-0.21418445,-2.3141954,0.058314536,1.5332783,1.0063009,0.039999884,0.0399999,0.0004719722001222948,-0.00031528172692585343,-0.006651285684222685,0.04986250321938526,0.14604907882473306,0.018919505049292202,0.9877478435677834,0.045082483322080605,-0.13629334056605774,0.06120369712731851
214.33333333339604,0.3080738,-0.54016584,-0.21620962,-2.3137972,0.058863852,1.5329227,1.0083809,0.039999887,0.039999902,0.00022307272009580714,-0.00035834286860325637,-0.007458300473417445,0.04983594829799594,0.14594735927946323,0.017973745230887538,0.9875253541258585,0.045613865298473374,-0.13765597884859548,0.061350482788366044
214.35000000006272,0.31094876,-0.53788334,-0.21823253,-2.3133988,0.05941254,1.5325675,1.0104586,0.039999895,0.039999895,0.0014427929251326077,6.636455040509581e-05,-0.006556892041120754,0.04980195202455932,0.14582126819731278,0.017032216989735408,0.9873013356042399,0.04614670203613284,-0.1390167620455365,0.06148897848921404
214.3666666667294,0.31381992,-0.53560394,-0.2202528,-2.3130014,0.059960477,1.5322125,1.0125332,0.0399999,0.0399999,0.0004581399210001891,0.00021630863442922976,-0.007819988896229368,0.04975747053685722,0.14567167787339802,0.01608974018944343,0.9870757885663257,0.0466805537797794,-0.14037591167441146,0.061619128089881334
214.38333333339608,0.31668693,-0.5333278,-0.22227027,-2.3126042,0.060507625,1.5318581,1.014605,0.039999895,0.039999895,0.0018542130511001176,0.0005407110750643707,-0.0069636673775352875,0.04970634999338189,0.14549671834449782,0.015149415454174189,0.9868487959947408,0.047215700567975985,-0.1417327670765766,0.061741025262158244
214.40000000006276,0.31954944,-0.5310553,-0.22428468,-2.312208,0.061053906,1.531504,1.0166736,0.0399999,0.039999895,0.0011522245449757662,0.0007750963727598537,-0.0078025435776396534,0.04964582241177405,0.14529849204316253,0.01421267437783848,0.9866203492283581,0.047751872426993254,-0.14308756070506315,0.06185462908872488
214.41666666672944,0.32240716,-0.52878636,-0.22629578,-2.3118122,0.061599262,1.5311508,1.0187387,0.039999913,0.039999906,0.0020610807952348154,0.000930118764083665,-0.007021493656900191,0.04957736433302533,0.1450736876387053,0.013279496856939296,0.9863905328252865,0.04828912889748355,-0.1444397293238828,0.061959998190873104
214.43333333339612,0.3252596,-0.5265213,-0.22830333,-2.3114173,0.06214365,1.5307983,1.0208001,0.039999913,0.039999895,0.001670780263940408,0.0012875094898223693,-0.007531233768220957,0.0494995274326365,0.14482721426132314,0.012351424045214008,0.9861593509431577,0.04882733007653928,-0.14578936217290692,0.06205713707692208
214.4500000000628,0.3281066,-0.52426094,-0.23030709,-2.3110244,0.06268698,1.5304464,1.0228575,0.039999917,0.03999989,0.001199604049295644,0.001341224066159219,-0.008648930003385402,0.04941345001590951,0.14455465347582824,0.011426877124110571,0.985926807756505,0.04936632320433535,-0.1471365533460238,0.0621460421089342
214.46666666672948,0.33094767,-0.5220051,-0.2323068,-2.3106313,0.063229166,1.5300953,1.0249109,0.039999925,0.039999895,0.004388259137666495,0.001900994733053385,-0.006552656240810251,0.049319919473119145,0.1442532718165867,0.010506745365080433,0.9856930740473427,0.04990624272628497,-0.14848011347959755,0.06222689621964612
214.48333333339616,0.33378252,-0.5197541,-0.23430221,-2.310239,0.06377018,1.5297449,1.0269597,0.039999925,0.03999989,0.0030521096835878225,0.0019483985611412624,-0.007821065824775708,0.04921614139602694,0.14393269958054308,0.009592593492852018,0.9854581155968196,0.05044675239457082,-0.14982049091745558,0.0622996635501253
214.50000000006284,0.33661076,-0.51750857,-0.23629309,-2.3098476,0.06430993,1.5293953,1.0290039,0.039999925,0.03999989,0.0041476087206726575,0.0023367408561125735,-0.00742557342794381,0.04910432623943896,0.14358882826572195,0.008682183100931055,0.9852220234934992,0.05098799470696756,-0.15115707920659807,0.06236446283635745
214.51666666672952,0.33943206,-0.51526827,-0.2382792,-2.3094573,0.06484836,1.5290465,1.0310428,0.039999932,0.0399999,0.0032529186542396005,0.0024893271463155564,-0.007920728648169728,0.04898292836657704,0.14322183464251176,0.007777916125602463,0.9849847811472354,0.05152965042839634,-0.1524902155010338,0.06242123205695384
214.5333333333962,0.3422462,-0.5130336,-0.2402603,-2.3090677,0.06538537,1.5286987,1.0330766,0.03999993,0.039999895,0.004546425880369576,0.0026778228082197097,-0.00740460698935852,0.0488539307541145,0.14282987112517737,0.006880041305508882,0.9847464866995586,0.05207177404775178,-0.15381929917468337,0.062470076691208354
214.55000000006288,0.3450527,-0.5108051,-0.24223617,-2.3086786,0.06592094,1.5283517,1.0351049,0.039999936,0.0399999,0.005461133501416526,0.003118838163554405,-0.007332670303750177,0.04871675466978821,0.14241601446359758,0.005989387299882841,0.9845072057905603,0.05261423718239588,-0.15514399763754544,0.06251114931929452
214.56666666672956,0.34785116,-0.5085829,-0.24420655,-2.3082914,0.066454984,1.5280057,1.0371275,0.03999994,0.039999902,0.003752348218144519,0.003305975449446885,-0.00838558653315502,0.0485711035679048,0.14198082166948472,0.005105284950149513,0.9842668999434896,0.05315707055314588,-0.15646468321962254,0.06254437169581112
214.58333333339624,0.35064134,-0.50636715,-0.24617119,-2.3079054,0.06698745,1.5276607,1.0391443,0.039999936,0.039999895,0.004951862164714882,0.0034803393345522737,-0.0078396570277528,0.04841717936672432,0.1415204708831427,0.004230662836547517,0.9840256474185749,0.05370017009526525,-0.15778096759886462,0.06256982673589642
214.60000000006292,0.353423,-0.50415814,-0.24812984,-2.3075204,0.067518294,1.527317,1.0411547,0.03999994,0.03999989,0.005765064017371202,0.0035629332298753313,-0.0073881898343231,0.04825467352059182,0.14103509232938327,0.0033649441089506522,0.9837835491039981,0.05424330247912775,-0.1590923511706362,0.06258767009162629
214.6166666667296,0.3561956,-0.50195634,-0.2500824,-2.3071365,0.06804738,1.5269742,1.0431588,0.039999947,0.039999902,0.00597365287735574,0.004317710675369457,-0.007968013730819123,0.0480839345343298,0.14052950656532617,0.0025052586615801602,0.9835406071471842,0.05478655059524174,-0.1603988904856902,0.06259795441851804
214.63333333339628,0.35895896,-0.49976176,-0.25202847,-2.3067539,0.06857473,1.5266324,1.045156,0.03999995,0.0399999,0.006086725058973563,0.004074087023592243,-0.007774506452218333,0.04790436041748233,0.1400013746168467,0.0016563643130468597,0.9832968833656991,0.05532965867766849,-0.16170039659965285,0.06260071703607305
214.65000000006296,0.36171272,-0.49757484,-0.25396788,-2.3063726,0.069100246,1.526292,1.0471466,0.039999958,0.0399999,0.00633769659612593,0.004454184747637591,-0.007815865304561243,0.047718454576374136,0.13944957785724807,0.0008169361850740905,0.9830524257940398,0.05587275998352259,-0.16299661228262524,0.06259606390712581
214.66666666672964,0.36445653,-0.49539584,-0.25590035,-2.3059933,0.06962384,1.5259527,1.0491296,0.039999958,0.039999902,0.006006570689032209,0.00466299934809844,-0.00833289057895481,0.04752195688963885,0.13887691289326679,-1.4598107045207115e-05,0.9828072637621014,0.056415445619206965,-0.16428760834763517,0.06258403578750343
214.68333333339632,0.36719012,-0.49322504,-0.25782582,-2.305615,0.07014548,1.5256146,1.0511054,0.03999996,0.03999991,0.007791560771974737,0.005080515169614275,-0.007465226645853029,0.04731938990090237,0.1382792513996713,-0.000835932076230398,0.9825614968986289,0.05695791842764349,-0.16557276664565249,0.06256484065367751
214.700000000063,0.36991313,-0.49106252,-0.25974384,-2.305238,0.070665106,1.5252781,1.0530736,0.039999966,0.039999906,0.0073060606578634335,0.0050189684507429,-0.007580278786667449,0.04710878847133043,0.13766243255217075,-0.0016453214287755428,0.9823151671672411,0.057500038696410134,-0.1668520238518228,0.06253846847866837
214.71666666672968,0.37262514,-0.48890862,-0.26165438,-2.3048625,0.07118265,1.5249428,1.0550339,0.039999966,0.039999902,0.007708031749475985,0.005653520235160414,-0.007808408394072153,0.0468893248023175,0.13702463373943388,-0.0024441618096769525,0.98206829990446,0.058041701974372424,-0.16812534258341866,0.06250507448111657
214.73333333339636,0.37532583,-0.48676366,-0.26355702,-2.304489,0.07169802,1.5246089,1.0569863,0.039999973,0.03999991,0.007493825777316054,0.00566494967305653,-0.00807694238071921,0.04666210201272134,0.13636507425952765,-0.003232709834736001,0.9818209360167482,0.0585829170518082,-0.16939262090236837,0.062464641299889774
214.75000000006304,0.37801504,-0.48462778,-0.26545164,-2.304117,0.07221117,1.5242765,1.0589304,0.03999998,0.039999913,0.008086760551995198,0.005792648283092783,-0.0077340269636572145,0.04642588950149754,0.13568191959895545,-0.004008027315950593,0.9815731526381378,0.059123452050266555,-0.17065356543037843,0.06241733768422503
214.76666666672972,0.38069242,-0.48250124,-0.26733804,-2.3037465,0.07272209,1.5239453,1.0608659,0.039999984,0.039999906,0.008765026924062447,0.006105078690762933,-0.007771788110066957,0.04618313749047852,0.13497981827658584,-0.004770472344127332,0.9813249897606559,0.059663228320444725,-0.17190806984190607,0.06236328391659235
214.7833333333964,0.3833576,-0.4803844,-0.2692159,-2.3033774,0.07323068,1.5236157,1.0627928,0.039999995,0.039999913,0.009318072329134175,0.006321905428227637,-0.007492882362969411,0.04593229230167412,0.13425468512655006,-0.005521756477218481,0.9810765356889459,0.060202267287455764,-0.17315572555817987,0.06230259096094205
214.80000000006308,0.3860102,-0.47827747,-0.2710851,-2.3030102,0.07373687,1.5232878,1.0647104,0.04,0.03999991,0.00888980575872722,0.006718861698182255,-0.007739332110379138,0.04567293212118605,0.1335113098754608,-0.006259712653664528,0.9808278192900612,0.060740323008477884,-0.17439655472791982,0.062235389984801805
214.81666666672976,0.38865,-0.47618067,-0.2729454,-2.3026454,0.07424062,1.5229613,1.0666187,0.04,0.039999902,0.00852469523850985,0.00675513761242974,-0.008357860416752239,0.045407126046509254,0.13274869019758895,-0.006985540886950756,0.9805788367311409,0.06127732396843574,-0.17563074897641662,0.06216168060994467
214.83333333339644,0.3912766,-0.47409427,-0.27479658,-2.3022819,0.07474186,1.5226365,1.0685178,0.04,0.039999906,0.010679510035704887,0.00716243174767317,-0.006936455818529197,0.04513453138535831,0.13196144172253424,-0.007698780518597976,0.980329749300011,0.06181344450112694,-0.17685739718635293,0.062081734646770845
214.85000000006312,0.39388987,-0.47201848,-0.27663845,-2.30192,0.07524055,1.5223134,1.0704073,0.04,0.039999902,0.010268121054224366,0.0071918177662916305,-0.007537531887447102,0.04485246986783245,0.13115832303355138,-0.008397461480471845,0.980080565443084,0.06234837477168968,-0.1780766984462211,0.06199560367144825
214.8666666667298,0.3964894,-0.46995357,-0.27847067,-2.3015597,0.075736605,1.521992,1.0722868,0.04,0.039999913,0.01067719988903093,0.007381660229366371,-0.0073148806128298105,0.04456244046204331,0.13033501150248478,-0.00908497068084733,0.9798313667446221,0.06288202409629298,-0.17928835129495746,0.06190339957429512
214.88333333339648,0.39907494,-0.46789974,-0.28029317,-2.3012018,0.07622995,1.5216722,1.074156,0.04,0.03999992,0.009911803831297306,0.007725534981989357,-0.007981335637397002,0.044265064200358965,0.12949525165942588,-0.009758550090562843,0.9795821409907466,0.0634142043727024,-0.18049261657758692,0.06180520282903756
214.90000000006316,0.40164608,-0.46585727,-0.28210574,-2.3008459,0.07672059,1.5213542,1.076015,0.04,0.03999991,0.010997242854760003,0.008047301133437545,-0.007489997145704308,0.0439642930139501,0.1286339816976048,-0.01041407055504837,0.9793329668511492,0.06394504400989534,-0.18168911137711283,0.061701200896687375
214.91666666672984,0.4042027,-0.46382633,-0.28390807,-2.3004916,0.07720843,1.5210382,1.0778636,0.04,0.03999991,0.011646334099713052,0.007896832666801079,-0.006979327550493686,0.04365419741312501,0.12775485388490068,-0.011056982578143092,0.979083953504131,0.06447439186232892,-0.18287742159035084,0.0615915047483704
214.93333333339652,0.4067443,-0.46180728,-0.28570014,-2.3001397,0.077693425,1.5207236,1.0797013,0.04,0.039999906,0.011033495873347121,0.008651310556515024,-0.007998237244111195,0.04333667274171144,0.12685916531974473,-0.01168585974238476,0.9788350498343943,0.06500216397498731,-0.18405797332502033,0.06147622589061485
214.9500000000632,0.40927076,-0.45980024,-0.28748164,-2.29979,0.07817549,1.520411,1.0815281,0.04,0.03999991,0.011623115961900687,0.00847158048993546,-0.007280022506228612,0.0430120567401876,0.12594110431005467,-0.012299339005622441,0.9785863800766681,0.06552822552486724,-0.18523026734165968,0.06135549240730101
214.96666666672988,0.4117818,-0.4578054,-0.28925213,-2.299442,0.078654625,1.5201002,1.0833435,0.04,0.03999991,0.012261598495344472,0.008429362977499522,-0.00723258056685161,0.04268183502175051,0.12500791931856972,-0.012896910842405716,0.9783380111205093,0.06605232936828476,-0.18639416747338114,0.061229405629117904
214.98333333339656,0.41427705,-0.45582303,-0.29101175,-2.2990966,0.079130724,1.5197916,1.0851476,0.04,0.039999917,0.011951853587022221,0.009056779696928197,-0.007254368722731108,0.042345755018672084,0.12405586323577546,-0.013479837613989073,0.9780899682522975,0.06657464372275695,-0.1875495840214656,0.06109815341549132
215.00000000006324,0.41675627,-0.4538533,-0.29276013,-2.2987537,0.07960378,1.519485,1.0869403,0.04,0.039999913,0.011860468044488925,0.009018585461079143,-0.0075380792120327555,0.04200242270818834,0.12308799572868544,-0.014048150938822036,0.9778422761992244,0.06709504669085202,-0.18869657953406627,0.060961778674969526
215.01666666672992,0.41921914,-0.4518965,-0.29449722,-2.2984126,0.080073714,1.5191803,1.088721,0.04,0.039999917,0.013591147136926551,0.009512320041774047,-0.006641756178837888,0.04165249597854237,0.12210065575250077,-0.014598889306698717,0.9775950637017475,0.06761340186633114,-0.18983459928415425,0.06082059049912917
215.0333333333966,0.4216654,-0.4499528,-0.29622266,-2.2980738,0.0805405,1.5188776,1.09049,0.04,0.039999902,0.012923735758363364,0.009417267701275489,-0.007198799855623328,0.04129722146059383,0.12109868120030512,-0.015132787504242217,0.97734833646183,0.06812968637345872,-0.19096379005481381,0.06067459054537288
215.05000000006328,0.42409477,-0.44802257,-0.29793635,-2.2977378,0.08100404,1.5185772,1.0922468,0.04,0.039999917,0.012636587118297626,0.009766654086573734,-0.007370020745689487,0.04093358979096888,0.12008074990309092,-0.015654111772875498,0.9771021353062408,0.06864378602216056,-0.19208409981074115,0.060523932625250104
215.06666666672996,0.42650706,-0.4461058,-0.29963803,-2.2974033,0.081464335,1.5182788,1.093991,0.04,0.03999992,0.014792684707165549,0.009773549801997405,-0.006144854048195647,0.04056489025476217,0.11904475207934709,-0.016155242198211135,0.9768566136163704,0.06915548569435,-0.19319491244953824,0.06036887472821487
215.08333333339664,0.4289019,-0.44420272,-0.30132756,-2.2970717,0.0819213,1.5179826,1.0957229,0.04,0.039999913,0.013025445864500718,0.010081013046336906,-0.007290405392779142,0.04019036647674863,0.1179985756553058,-0.01664235364975792,0.9766116996760124,0.06966489104521802,-0.1942967384562643,0.06020937166958541
215.10000000006332,0.43127915,-0.44231367,-0.3030048,-2.2967432,0.0823749,1.5176888,1.0974418,0.04,0.03999992,0.013167395841073848,0.010217651274718742,-0.0072884321863808665,0.039809893087574856,0.11693324475304603,-0.01711202854941803,0.9763674701698914,0.07017170411585961,-0.19538939155429974,0.060045655992442444
215.11666666673,0.43363848,-0.44043887,-0.3046696,-2.296416,0.0828251,1.5173968,1.0991482,0.04,0.03999992,0.015848677866081573,0.010549364448797505,-0.005999890419094989,0.039425175580795876,0.11585115278343315,-0.017563677035696112,0.9761240581324726,0.07067618715762934,-0.19647220731573076,0.059877971377939467
215.13333333339668,0.43597978,-0.43857837,-0.3063217,-2.296091,0.08327185,1.5171071,1.100841,0.04,0.03999992,0.014952041243931902,0.010452682739758856,-0.006316517114757225,0.039032004156800776,0.11475803462295048,-0.0180006881841143,0.9758815091358071,0.07117781951630126,-0.19754528443555683,0.059706437952698706
215.15000000006336,0.43830264,-0.43673256,-0.307961,-2.2957704,0.08371505,1.5168196,1.1025212,0.04,0.039999932,0.01238277882291694,0.010826897787158396,-0.008379175898332036,0.03863457639505362,0.11365316541395915,-0.01842281539125813,0.9756396583780443,0.07167697327724479,-0.19860952685990582,0.05953086881837359
215.16666666673004,0.4406069,-0.43490145,-0.3095872,-2.2954507,0.0841547,1.5165344,1.1041877,0.04,0.039999925,0.017223590787396326,0.010873234376124197,-0.004908599010455816,0.03823146375021722,0.11252525680254558,-0.01882254064374031,0.9753988830466409,0.07217327355621535,-0.19966319699788354,0.0593518769722535
215.18333333339672,0.44289222,-0.4330853,-0.3112003,-2.2951336,0.08459075,1.5162517,1.1058402,0.04,0.039999943,0.015188136134569596,0.011202511837771212,-0.006392970927837638,0.037821951069689684,0.11139101629501463,-0.019210026117660484,0.9751590994910235,0.072666529902909,-0.200706948092924,0.059169477764721146
215.2000000000634,0.4451584,-0.43128434,-0.31279996,-2.2948203,0.08502317,1.5159713,1.1074796,0.04,0.03999994,0.013837941790839636,0.01119153912468307,-0.007494978739841507,0.03740965639770535,0.11024462299396495,-0.019578757934239927,0.9749202211347358,0.07315714539133066,-0.2017412562687902,0.058983557199274
215.21666666673008,0.44740522,-0.4294987,-0.31438616,-2.2945085,0.08545192,1.5156934,1.1091046,0.04,0.039999943,0.017409423412884095,0.011476590007780674,-0.004986849539112548,0.036989344911412446,0.10907979787061835,-0.019928697071785868,0.9746825509939024,0.07364461061281989,-0.20276484245157364,0.058794683274029605
215.23333333339676,0.44963244,-0.42772847,-0.31595862,-2.2942002,0.08587689,1.5154179,1.1107159,0.04,0.039999954,0.014501042909853545,0.011539571890140099,-0.007058425444927963,0.03656392356466078,0.10790812341217011,-0.020265268182748097,0.9744459166676619,0.07412909066159183,-0.20377873150602924,0.0586025766771346
215.25000000006344,0.45183977,-0.42597404,-0.31751725,-2.2938945,0.08629811,1.5151448,1.1123123,0.04,0.039999958,0.016371185458075033,0.011821179040988339,-0.006069163756561302,0.03613392665956312,0.10672068903315102,-0.02058112870644582,0.9742104898835069,0.07461017735890245,-0.2047822829800187,0.05840769994531839
215.26666666673012,0.4540272,-0.42423543,-0.3190619,-2.2935905,0.08671553,1.5148742,1.1138943,0.04,0.039999947,0.01779642676684734,0.011752664483261066,-0.00496801640186284,0.035701633942720926,0.10552203772707383,-0.020879520479251998,0.9739763956959068,0.07508798797614501,-0.2057749838477208,0.0582102285803367
215.2833333333968,0.4561944,-0.42251286,-0.3205923,-2.293291,0.087129064,1.5146061,1.1154621,0.04,0.039999954,0.014037122685217618,0.011849734336416562,-0.007667461954752319,0.03526370800943897,0.10431674537572772,-0.021162913035642404,0.9737434218046543,0.0755625293333259,-0.2067580843817914,0.05800988877497761
215.30000000006348,0.45834127,-0.42080638,-0.32210863,-2.292993,0.08753871,1.5143405,1.1170146,0.04,0.03999995,0.018503220839516388,0.012252982882970942,-0.004490865081607787,0.03482114062043985,0.10309267495093226,-0.02142610547552073,0.9735119017933687,0.07603352163650996,-0.20773009085906646,0.057807352524508616
215.31666666673016,0.46046746,-0.41911638,-0.32361045,-2.2926981,0.087944426,1.5140775,1.1185522,0.04,0.03999995,0.016675580034619664,0.012253011319174334,-0.005996117629214481,0.03437507929060781,0.1018638143543264,-0.021674869638402615,0.9732817608212602,0.07650095523736743,-0.20869155344329027,0.05760254700847796
215.33333333339684,0.46257275,-0.41744286,-0.32509768,-2.2924068,0.08834619,1.513817,1.1200749,0.04,0.039999958,0.01603454580991759,0.012406028306055639,-0.006527916077292417,0.033924696306461354,0.10062453254420972,-0.021907377845543828,0.973052955482296,0.07696488717425412,-0.20964281718816774,0.05739548040422486
215.35000000006352,0.46465707,-0.41578594,-0.3265702,-2.2921176,0.08874393,1.513559,1.1215837,0.04,0.039999958,0.01822220011102882,0.012498460671267475,-0.004841597017501975,0.03347076977319754,0.0993705378199976,-0.022120336774666658,0.9728256406065625,0.0774258439348033,-0.2105830752700656,0.05718636270315235
215.3666666667302,0.46672013,-0.4141459,-0.32802778,-2.2918324,0.08913762,1.5133038,1.1230773,0.04,0.039999966,0.015909481370313117,0.01250714299487754,-0.006565318349971427,0.033005675663775345,0.09810867355956013,-0.02231666378276631,0.9725997605528723,0.07788307202639863,-0.21151301123693098,0.056975248500660096
215.38333333339688,0.4687618,-0.41252276,-0.32947043,-2.2915492,0.08952721,1.5130512,1.1245556,0.04,0.039999958,0.01901037899438851,0.012838667253223246,-0.0044016891893372545,0.032538341579860075,0.0968331245671078,-0.02249216368012338,0.9723755310646222,0.0783366513209426,-0.2124316566156937,0.056762548516843994
215.40000000006356,0.47078195,-0.41091686,-0.33089787,-2.2912686,0.08991271,1.5128013,1.1260167,0.04,0.039999958,0.018417730847830605,0.012664213647961553,-0.004996317311278808,0.032065833878450065,0.09555365160554766,-0.02265117911752138,0.9721530342217676,0.07878554630406248,-0.21333911679264464,0.05654853661338692
215.41666666673024,0.4727803,-0.4093282,-0.33231014,-2.2909918,0.09029407,1.5125539,1.1274618,0.04,0.03999996,0.016745897385561648,0.013116208901736703,-0.006173814452070658,0.0315969889035921,0.09426916184394826,-0.02279679583592555,0.9719321091630051,0.079230367763097,-0.2142361103170993,0.056333054579670895
215.43333333339692,0.47475666,-0.4077569,-0.33370695,-2.2907176,0.090671234,1.5123094,1.1288915,0.04,0.039999966,0.01865143558459348,0.012988138150232809,-0.00466302324293455,0.031124254194561232,0.09297071847233866,-0.02292859418233024,0.971712927462511,0.07967141362079128,-0.2151218556347345,0.05611630495827212
215.4500000000636,0.47671086,-0.4062031,-0.3350884,-2.2904475,0.09104417,1.5120674,1.1303054,0.04,0.039999966,0.0167839107538148,0.013440791724905754,-0.006199792395467085,0.030647730300994235,0.09166731209817702,-0.02303998126745768,0.9714953544702759,0.08010857340880181,-0.21599716269730304,0.05589828634040911
215.46666666673028,0.47864288,-0.404667,-0.3364541,-2.290179,0.09141287,1.5118284,1.1317035,0.04,0.03999997,0.020446324749889833,0.012966798409957958,-0.00348462541921446,0.03016701790521533,0.0903508863614026,-0.023134115976229535,0.9712797376402104,0.0805416448367909,-0.21686058520613455,0.05567945115212027
215.48333333339696,0.48055238,-0.40314865,-0.33780417,-2.2899146,0.09177728,1.5115921,1.133085,0.04,0.039999973,0.017165630924287356,0.01361998007771148,-0.005820610714213359,0.029681424291532567,0.0890338473320304,-0.023214290528932875,0.9710658640129789,0.08097042221625617,-0.21771333854783576,0.055459721358868945
215.50000000006364,0.48243937,-0.4016483,-0.3391383,-2.2896528,0.09213738,1.5113585,1.1344502,0.04,0.039999966,0.01951079047544102,0.013263646877265112,-0.004519164521199492,0.029195503113953615,0.08770577076182673,-0.023275526942706272,0.9708539189756136,0.08139484279208659,-0.21855471457489067,0.05523933665090964
215.51666666673032,0.4843036,-0.400166,-0.34045658,-2.2893941,0.09249316,1.5111276,1.135799,0.04,0.03999998,0.018878514504661048,0.01369832372183355,-0.004706025639578115,0.028706090352596886,0.08637417664350885,-0.02332222454099804,0.970643878637643,0.08181504182969657,-0.21938489645493373,0.055018424197132126
215.533333333397,0.4861449,-0.3987018,-0.34175885,-2.289139,0.0928446,1.5108998,1.1371312,0.04,0.039999973,0.018314147641218526,0.013681512793634054,-0.004804741737873819,0.02821471368725783,0.08503478729477996,-0.023350697302243314,0.9704357789152767,0.08223083726829544,-0.2202039175963875,0.05479710830380393
215.55000000006368,0.48796323,-0.3972558,-0.34304494,-2.2888865,0.09319164,1.5106748,1.138447,0.04,0.03999997,0.019850375438390522,0.013633478884683692,-0.003988406948507439,0.027720279506420857,0.08369011749542421,-0.02336496658752984,0.9702297251185813,0.08264231774396218,-0.22101139769976885,0.05457554306667559
215.56666666673036,0.48975843,-0.39582828,-0.3443148,-2.2886379,0.09353427,1.5104525,1.139746,0.04,0.03999998,0.01845780243927564,0.013823525047390595,-0.0052795061508570384,0.027221449716341238,0.08234169324563262,-0.02336518681116098,0.9700256406729499,0.0830491736175474,-0.22180793057482465,0.05435377753743695
215.58333333339704,0.49153033,-0.39441916,-0.34556836,-2.2883918,0.09387247,1.510233,1.1410283,0.04,0.03999998,0.020102339391092627,0.013898155450597915,-0.0037660838247965955,0.026723139814106893,0.08098624970137024,-0.02334760897235253,0.969823672603497,0.0834516268313537,-0.22259288037008784,0.054132057467024874
215.60000000006372,0.4932789,-0.3930285,-0.34680557,-2.2881498,0.0942062,1.5100167,1.1422937,0.04,0.039999977,0.018150891778789813,0.013933200101878818,-0.004911565708942689,0.026220916896112507,0.07962795466639361,-0.023314427919302886,0.9696237447817878,0.0838494760017143,-0.2233668101611246,0.05391036123069917
215.6166666667304,0.49500394,-0.39165643,-0.34802622,-2.28791,0.09453549,1.5098033,1.1435422,0.04,0.03999997,0.021026760414621926,0.013879578499570444,-0.0030267737658240534,0.025717352573611206,0.07826173310054751,-0.023265242368501575,0.9694260763054294,0.08424270094210383,-0.22412883276937992,0.0536890700094012
215.63333333339708,0.4967054,-0.3903032,-0.3492302,-2.2876742,0.09486028,1.5095925,1.1447736,0.04,0.03999998,0.018682620075982648,0.01394175817308052,-0.005185508950833473,0.02520907039400725,0.07689635741321876,-0.023205162463159276,0.9692304999414805,0.08463112927935992,-0.22487992643438148,0.053468014989853964
215.65000000006376,0.49838313,-0.3889688,-0.35041767,-2.2874415,0.09518053,1.5093848,1.1459877,0.04,0.039999973,0.019984167341746684,0.01433029002162467,-0.0037443116399416,0.024702564450575774,0.07552330844213775,-0.023124855500256614,0.9690371609532293,0.08501480655942048,-0.22561950453947724,0.05324755889926057
215.66666666673044,0.5000371,-0.38765323,-0.35158834,-2.2872121,0.09549625,1.5091798,1.1471847,0.04,0.039999973,0.01970538878250938,0.014006899020946317,-0.0040623733545075424,0.02419343316222311,0.07414832658052946,-0.02303380698603951,0.96884605921418,0.08539364493100465,-0.22634774910952954,0.05302768544449724
215.68333333339712,0.50166726,-0.38635668,-0.3527422,-2.2869864,0.0958074,1.5089781,1.1483645,0.04,0.039999973,0.019586653958536537,0.01397791281700922,-0.003954954968521385,0.023682696164095754,0.07277013336846257,-0.022927761612563616,0.9686572467879125,0.08576760661227233,-0.22706455929858843,0.052808539193973034
215.7000000000638,0.50327325,-0.3850791,-0.35387924,-2.286764,0.09611398,1.5087793,1.149527,0.04,0.039999984,0.019854675642583253,0.014564831260155398,-0.00377719819661948,0.02317026148947643,0.07138955380947726,-0.022808786832607574,0.9684707201978574,0.0861367537108791,-0.227770029918986,0.05259027714605784
215.71666666673048,0.50485516,-0.38382065,-0.35499948,-2.2865443,0.09641597,1.5085833,1.150672,0.04,0.039999984,0.02076810631228554,0.014443709936184934,-0.003258805853967317,0.022657883697243676,0.07000526191315457,-0.022673218978431803,0.9682865727869822,0.0865009954290442,-0.22846388796575928,0.052373109949607914
215.73333333339716,0.50641286,-0.3825812,-0.35610268,-2.2863283,0.09671339,1.5083904,1.1517998,0.04,0.039999973,0.019602458790179966,0.014237330431698947,-0.003717590915108815,0.0221436637538312,0.06862151423018145,-0.022523569122520973,0.96810476000743,0.08686039994180253,-0.2291464505897951,0.05215696267043624
215.75000000006384,0.50794667,-0.381361,-0.3571889,-2.2861154,0.09700619,1.5082005,1.1529101,0.04,0.039999984,0.0205699037237439,0.014047256815602482,-0.0033256712130169674,0.021626461426541933,0.06723609879230022,-0.022362397080831944,0.9679253879223498,0.08721463971523477,-0.22981747428194124,0.051942069167291605
215.76666666673052,0.5094561,-0.38016006,-0.35825813,-2.2859054,0.09729434,1.5080137,1.1540029,0.04,0.039999984,0.02090160739067759,0.014567379102642386,-0.0027803307142582057,0.021110069761860382,0.06584983428444816,-0.02218777020303154,0.967748498158281,0.0875639075089752,-0.23047680475886057,0.051728607967907785
215.7833333333972,0.5109412,-0.3789784,-0.3593102,-2.2856994,0.09757788,1.5078298,1.1550779,0.04,0.039999973,0.019329934723866238,0.014344899165968927,-0.0041660250229558216,0.020591775406253073,0.06446584792007012,-0.02200113748987806,0.9675739866696622,0.08790794978472348,-0.23112512462607177,0.051516496886005333
215.80000000006387,0.51240194,-0.37781617,-0.36034513,-2.2854962,0.09785676,1.5076488,1.1561357,0.04,0.039999966,0.02114602213592054,0.014409188372277448,-0.0027689970790278906,0.020074990759263937,0.06307818420999502,-0.021800986174751222,0.9674020010142744,0.08824700530821872,-0.23176179677361836,0.05130598448497978
215.81666666673055,0.51383823,-0.37667337,-0.3613629,-2.2852972,0.09813099,1.5074711,1.1571755,0.04,0.039999958,0.019505344998171914,0.014477770509546684,-0.003696386737495061,0.019556195263217807,0.0616925994623046,-0.021587880127472585,0.9672324821801976,0.08858079973524946,-0.23238728818996518,0.051097119503073864
215.83333333339723,0.51525015,-0.37554985,-0.36236346,-2.2851012,0.09840056,1.5072962,1.1581978,0.04,0.039999966,0.020652655493180738,0.014330784484245518,-0.002936950480214584,0.01903846174940793,0.060305126938104144,-0.02136390713495924,0.967065497764037,0.0889093646809887,-0.233001411535028,0.05088998063570919
215.85000000006391,0.51663756,-0.37444574,-0.3633468,-2.2849085,0.09866548,1.5071243,1.1592026,0.04,0.039999954,0.020472211531408213,0.014455232735749446,-0.0029910979655101144,0.01851729402574634,0.05891969350721959,-0.021133826428052706,0.9669010469198577,0.08923284677191828,-0.23360421364087638,0.05068467116880778
215.8666666667306,0.5180008,-0.37336105,-0.36431298,-2.28472,0.09892576,1.5069555,1.1601893,0.04,0.03999995,0.0195183008359745,0.01417089870517918,-0.003617412054501834,0.018000841602939494,0.05753469397350451,-0.020880553071078452,0.9667391260616158,0.08955076575343283,-0.23419599211304434,0.050481281409883824
215.88333333339727,0.5193393,-0.37229577,-0.36526194,-2.284534,0.09918136,1.5067897,1.1611587,0.04,0.03999994,0.02144868416895651,0.014680913835207754,-0.002040090393418126,0.0174849077217855,0.05614865890374569,-0.020622750268593806,0.966579836995539,0.08986371491729461,-0.23477617626145955,0.05028000114348542
215.90000000006395,0.5206532,-0.37125,-0.36619362,-2.2843513,0.09943228,1.5066268,1.1621103,0.04,0.039999936,0.020623578833900424,0.014611831543770437,-0.0027351617361004443,0.01696655183412886,0.054767346058642946,-0.020353307283910684,0.9664231587727701,0.09017139626265992,-0.23534506946945366,0.05008089216579239
215.91666666673063,0.52194285,-0.3702236,-0.36710802,-2.2841725,0.09967854,1.5064672,1.1630441,0.04,0.039999936,0.019789211841403365,0.013964265665900033,-0.003077710851973059,0.01644771109550152,0.05338928469903376,-0.02007468067646581,0.9662690947954719,0.09047352230794775,-0.23590288625666214,0.04988392987836016
215.93333333339731,0.52320796,-0.36921677,-0.3680052,-2.2839966,0.09992011,1.5063106,1.1639602,0.04,0.039999925,0.02130195196097251,0.014524215589628575,-0.0021095843302232353,0.01593172468377948,0.052010836125650585,-0.01978569088370926,0.9661177239590915,0.09077037164586352,-0.2364492528303075,0.04968937431046926
215.950000000064,0.52444863,-0.36822936,-0.36888507,-2.2838244,0.100157015,1.5061569,1.1648585,0.04,0.039999913,0.01986904245812049,0.014275374221267567,-0.0030643707489508287,0.015416084920451788,0.05063921455984946,-0.019487980317700042,0.9659689706015153,0.09106172174274672,-0.2369846892447154,0.04949714872476
215.96666666673067,0.52566475,-0.36726135,-0.36974776,-2.2836554,0.10038928,1.5060062,1.1657394,0.04,0.039999913,0.020799370414792406,0.014498525892409075,-0.002188512325362879,0.014901884799202993,0.049268829986279225,-0.019180729640150135,0.9658228825523363,0.09134795339950982,-0.23750892722951467,0.049307407499301036
215.98333333339735,0.5268564,-0.36631277,-0.37059325,-2.2834907,0.10061689,1.5058587,1.1666025,0.04,0.03999991,0.019206853217879072,0.014349382888861895,-0.003301751828743704,0.01438721537371606,0.047902336417474434,-0.018863398528215718,0.9656793974307827,0.09162868638106199,-0.23802247323691836,0.04912013277651028
216.00000000006403,0.52802366,-0.3653836,-0.37142166,-2.2833283,0.10083982,1.5057142,1.167448,0.04,0.039999906,0.02174624619137866,0.01447796325731443,-0.0012050175379529904,0.013874380431560106,0.046537126559354325,-0.018538395033573424,0.9655387053172939,0.09190416055425087,-0.2385244970399991,0.04893565283960144
216.0166666667307,0.52916646,-0.3644738,-0.37223276,-2.2831697,0.10105812,1.5055726,1.1682758,0.04,0.039999884,0.01980838969011245,0.014197515269231964,-0.002889716391374364,0.013361339802861905,0.04518096146307858,-0.018205866460821004,0.9654006687117306,0.09217410680525492,-0.2390157985999975,0.04875377836847437
216.0333333333974,0.530285,-0.36358315,-0.3730267,-2.283014,0.1012718,1.5054339,1.1690862,0.04,0.039999887,0.02083154296961265,0.014085472955954748,-0.0017167609721813193,0.012850529657537763,0.043826941466479204,-0.017864981261758298,0.965265375413168,0.09243870070035383,-0.23949601921479877,0.0485746685173562
216.05000000006407,0.5313792,-0.36271185,-0.37380368,-2.2828617,0.10148084,1.5052983,1.1698791,0.04,0.039999876,0.020365599216631836,0.014440349859318191,-0.0020934520405191392,0.0123410172048103,0.042479100335948455,-0.017516656555351555,0.9651327945238496,0.09269795916630415,-0.23996534857787435,0.048398437814520044
216.06666666673075,0.53244925,-0.36185974,-0.37456352,-2.2827132,0.10168525,1.5051656,1.1706544,0.04,0.039999876,0.019562757914592943,0.014056664918699058,-0.0025992975863697865,0.01183190493640799,0.04113836225611293,-0.017161704995977134,0.9650028929348403,0.09295173789950642,-0.24042408655330588,0.04822498993114542
216.08333333339743,0.53349525,-0.36102685,-0.37530634,-2.282567,0.10188509,1.505036,1.171412,0.04,0.039999872,0.021527629981443752,0.013891861538206651,-0.000971836334806575,0.011325895605872025,0.03980003999809854,-0.016799222045209915,0.9648758582908534,0.09319990533916683,-0.24087154607460606,0.04805469824989089
