rsonawane2002/My_IMU/logs_2/traj_278/clean_278.csv
time,j1,j2,j3,j4,j5,j6,j7,gripper1,gripper2,imu_ax,imu_ay,imu_az,imu_gx,imu_gy,imu_gz,quat_x,quat_y,quat_z,quat_w
299.3833333333897,0.00016700293,-0.785875,4.0107683e-05,-2.3551247,9.29385e-05,1.570997,0.786,0.04,0.04,0.0,-0.0,0.0,2.875329272945135e-08,-0.0011641195053377316,4.421952117202833e-08,0.9999995971961153,0.00020320632366974898,0.0008736418299892524,3.263050917662294e-05
299.40000000005637,0.00016700267,-0.78576016,4.0113926e-05,-2.3552213,9.296362e-05,1.5709941,0.786,0.04,0.04,-0.29199846046881195,-2.330005786503912e-05,0.020128411002362512,-5.902477644411078e-09,-0.002238666430531246,-4.893485289140782e-07,0.9999996850585723,0.00020320899487434583,0.0007665025208301454,3.259979007683314e-05
299.416666666723,0.0001669816,-0.78565425,4.011494e-05,-2.35531,9.291441e-05,1.5709913,0.786,0.04,0.04,0.023262847035887546,8.437208315690138e-05,-0.0016365572643062265,-1.5452183059420754e-07,-0.00322798396675624,-4.4024590361304615e-06,0.99999975586404,0.0002032235530635312,0.0006677674698387586,3.253696491840185e-05
299.43333333338967,0.00016690463,-0.7855569,4.010274e-05,-2.355391,9.268285e-05,1.5709884,0.786,0.04,0.039999995,0.022460736873997078,0.0002130720474803388,-0.0015248757586627804,-6.357517248500811e-07,-0.004141220076606069,-1.4031329762821647e-05,0.9999998122714501,0.00020327039061450423,0.0005771386777568068,3.239073396103956e-05
299.4500000000563,0.00016672163,-0.78546727,4.0066196e-05,-2.3554654,9.2078495e-05,1.5709856,0.786,0.04,0.04,0.01985018856527354,0.0004236106191942953,-0.001430142899305764,-1.7805966698725016e-06,-0.004981544752904361,-3.4489003966613646e-05,0.9999998569382951,0.0002033785669222775,0.0004936923122955667,3.206943989886195e-05
299.466666666723,0.00016636815,-0.78538483,3.9990467e-05,-2.355533,9.089859e-05,1.570986,0.786,0.04,0.04,0.02078674999308472,0.0006629632521292037,0.0014443561834553975,-3.7563522977886887e-06,-0.00575745067485016,-6.591821773017822e-05,0.9999998910096907,0.0002035855878546127,0.00041897813500782764,3.1477574073816394e-05
299.4833333333896,0.0001657674,-0.78530896,3.985834e-05,-2.3555982,8.88875e-05,1.5709866,0.786,0.04,0.04,0.010934408770224557,0.0009596580011621639,-0.0027040767581087977,-7.37342628537977e-06,-0.006455088617095532,-0.00011138835011034939,0.9999999179530986,0.0002039360045790406,0.0003486748607036344,3.049169374588004e-05
299.5000000000563,0.00016483107,-0.7852392,3.9649756e-05,-2.3556573,8.575417e-05,1.5709875,0.7859981,0.04,0.04,0.01739921815144818,0.0012972607268746665,-0.0005594599779445986,-1.2707533382877185e-05,-0.007114181732905615,-0.00017291983265350677,0.9999999383528987,0.0002035272251623254,0.0002846601196635366,2.8973846724436766e-05
299.5166666667229,0.0001634611,-0.7851752,3.934242e-05,-2.3557148,8.117277e-05,1.5709884,0.7859962,0.04,0.04,0.009200901449335497,0.0016753699275662704,-0.0024323865987385673,-1.223863401261098e-05,-0.007720246381020746,-0.0002523138702479508,0.9999999537842207,0.0002033698965011876,0.00022440074502667613,2.6768403479413947e-05
299.5333333333896,0.0001615504,-0.78511626,3.8912225e-05,-2.3557663,7.478879e-05,1.5709928,0.7859943,0.04,0.04,0.016827461681878653,0.002085326667006785,0.002352330774368916,-1.4699213941412454e-05,-0.008294071252727412,-0.0003511776814047258,0.9999999643213859,0.00020352590620293965,0.0001713836712500068,2.37080085531424e-05
299.55000000005623,0.000158984,-0.78506225,3.8333066e-05,-2.3558168,6.6211374e-05,1.5709976,0.7859905,0.039999995,0.04,0.007203407638178838,0.002535545278189419,-0.002126887829856372,-2.1214269014264455e-05,-0.008806802815089441,-0.0004717478263768276,0.9999999718006722,0.00020310826411426653,0.00012149626327720892,1.960474001981429e-05
299.5666666667229,0.00015563979,-0.7850128,3.7577196e-05,-2.355867,5.50468e-05,1.5710061,0.78598666,0.03999999,0.03999999,0.006989735299556266,0.0029962424525358466,0.0003856488922204804,-2.3374022241198707e-05,-0.00929452049822496,-0.0006127341833211652,0.9999999763799482,0.00020314137030603215,7.596044889175456e-05,1.4272245106877472e-05
299.58333333338953,0.00015138996,-0.7849674,3.6615656e-05,-2.3559155,4.086985e-05,1.5710146,0.78598094,0.039999988,0.039999988,0.0070153911909676125,0.0034888492485931006,-0.001612971763154114,-3.0925561494310634e-05,-0.009747827308689063,-0.0007778163775587063,0.9999999788659683,0.0002027454401776824,3.325637350476916e-05,7.507548537032075e-06
299.6000000000562,0.00014610087,-0.7849258,3.5418067e-05,-2.3559623,2.324039e-05,1.571027,0.7859736,0.039999984,0.03999998,0.008601098592153633,0.0039998309779526705,0.0015595669208057217,-3.584119124983145e-05,-0.010180653356278513,-0.0009662337326004749,0.9999999795568428,0.0002021468202267394,-4.708588875225613e-06,-8.978274627552307e-07
299.61666666672284,0.00013963478,-0.78488785,3.3953216e-05,-2.3560088,1.7013642e-06,1.5710433,0.78596574,0.039999977,0.039999973,0.0056328620148260455,0.00452963032824869,0.000880689473348184,-4.0567388769896355e-05,-0.01057549209760032,-0.001180532782379392,0.9999999787896462,0.000201961562414052,-3.88284918651313e-05,-1.1161665658946736e-05
299.6333333333895,0.00013184962,-0.78485316,3.2188877e-05,-2.3560557,-2.4215225e-05,1.5710632,0.7859562,0.03999997,0.03999996,0.003984146029489821,0.00507345012149125,0.0006747562866449286,-5.033706907109706e-05,-0.010941986184364757,-0.001419707193756899,0.9999999769521615,0.00020170549066561273,-6.969938978906516e-05,-2.350673543096108e-05
299.65000000005614,0.00012260028,-0.78482145,3.009218e-05,-2.3561053,-5.499033e-05,1.5710869,0.7859447,0.03999997,0.03999996,4.6286824972874285e-05,0.005631098653936051,-3.0107874193774364e-05,-6.110491343385793e-05,-0.011284035766448278,-0.0016860709667475668,0.9999999741587868,0.00020131330618782783,-9.848362033528454e-05,-3.816222165179572e-05
299.6666666667228,0.00011173871,-0.7847927,2.7629465e-05,-2.3561554,-9.1112444e-05,1.5711145,0.7859309,0.039999973,0.039999966,0.0037301971329783967,0.006198066008102549,0.0010222651886993006,-7.269629669863953e-05,-0.01161561766682365,-0.001979265422077447,0.9999999706350278,0.00020069158754447742,-0.00012404879069844073,-5.535998305911485e-05
299.68333333338944,9.911473e-05,-0.7847666,2.4766561e-05,-2.356206,-0.00013307844,1.571146,0.7859146,0.039999973,0.039999966,0.003297271440483307,0.0067744524125811145,0.0011363370216788127,-8.360379761509281e-05,-0.011925203934141756,-0.0022996984338462052,0.9999999664380554,0.00019986730859726103,-0.00014663346512933892,-7.533640549245524e-05
299.7000000000561,8.45764e-05,-0.784743,2.1469106e-05,-2.3562574,-0.00018139038,1.571183,0.78589576,0.03999997,0.03999996,0.002883888255000855,0.007356653650206048,0.002233727813316655,-9.482128917815639e-05,-0.012214667626180543,-0.002647695634978219,0.9999999616628235,0.00019886822529897085,-0.00016570140905470572,-9.833017695461695e-05
299.71666666672274,6.79703e-05,-0.7847218,1.7702196e-05,-2.3563147,-0.00023655448,1.5712255,0.7858745,0.03999997,0.039999958,-0.005312012492875162,0.007944600834085392,0.0002470381609276373,-0.0001065656464815394,-0.01248039415828284,-0.003022642177279554,0.9999999558075698,0.0001978418890664184,-0.00018363707228551417,-0.0001245827879960467
299.7333333333894,4.914216e-05,-0.78470266,1.3430845e-05,-2.3563733,-0.00029908167,1.5712736,0.78585035,0.039999973,0.03999996,0.001613425660473844,0.008536404491795834,0.0022539990038428215,-0.00012015256404597214,-0.012745094019282999,-0.0034264332735988953,0.9999999490490162,0.0001966683234472678,-0.00019850367792586886,-0.00015433672724619583
299.75000000005605,2.79371e-05,-0.7846857,8.619807e-06,-2.3564382,-0.00036948358,1.5713278,0.7858231,0.039999973,0.03999996,-0.006195757129745516,0.009130003516358709,0.0006086612070355102,-0.00013475839022553354,-0.01298979832981919,-0.003858316121660308,0.9999999407492357,0.00019531662689174773,-0.0002122984506468216,-0.0001878358543032565
299.7666666667227,4.199925e-06,-0.78467053,3.233951e-06,-2.3565047,-0.00044827224,1.5713885,0.7857928,0.039999973,0.039999958,0.001248364812322933,0.009723705922625678,0.0029896883874558355,-0.0001500949212754879,-0.013234446123267145,-0.004317491662469039,0.9999999309980608,0.00019390551346464365,-0.0002227867685473394,-0.00022532328114328144
299.78333333338935,-2.2224476e-05,-0.7846573,-2.7619863e-06,-2.356578,-0.0005359611,1.5714562,0.7857592,0.039999977,0.03999996,-0.007408403766850924,0.010318570151433386,0.001039191800211725,-0.00016759645982148829,-0.013457741536011491,-0.004805669177350093,0.9999999188666642,0.00019237374194479867,-0.00023226411731114345,-0.00026704379483700856
299.800000000056,-5.14909e-05,-0.7846458,-9.403229e-06,-2.3566556,-0.00063306076,1.5715313,0.7857219,0.039999977,0.039999958,-0.0026300720521454934,0.010910630700503932,0.002690797254611965,-0.0001864834418427515,-0.013683054669227377,-0.005321086532851667,0.9999999041592795,0.00019063065569614965,-0.00023921144534780968,-0.00031323995440766573
299.81666666672265,-8.3753555e-05,-0.78463596,-1.6724773e-05,-2.3567376,-0.0007400833,1.5716143,0.7856807,0.03999998,0.03999996,-0.0033535180654409302,0.01150285573506239,0.0028623897881940863,-0.0002062286665507505,-0.01389484619273679,-0.005865448416995194,0.9999998862114038,0.00018867401405643595,-0.00024365956367081596,-0.0003641556163317995
299.8333333333893,-0.000119165925,-0.7846276,-2.4761383e-05,-2.3568268,-0.0008575346,1.5717052,0.78563553,0.03999998,0.039999966,-0.007967805662056904,0.012089026519147266,0.0018678417336825959,-0.00022702673123148939,-0.014094054883398013,-0.006439310182703644,0.9999998638975844,0.00018653017250826266,-0.0002469507487993374,-0.00042003170723680185
299.85000000005596,-0.00015788066,-0.7846207,-3.3547887e-05,-2.356923,-0.0009859164,1.5718044,0.7855861,0.03999998,0.03999996,-0.007955954031979573,0.012671046941707528,0.0020741858716588624,-0.00024925669564501707,-0.014294100160674117,-0.007038257278150424,0.9999998363098875,0.000184165502309075,-0.00024899698031788896,-0.00048110681751303407
299.8666666667226,-0.00020004879,-0.78461534,-4.311849e-05,-2.357027,-0.001125731,1.5719125,0.78553236,0.039999984,0.039999966,-0.00840542195545968,0.013250735481958303,0.0023196095890076762,-0.0002727263141919841,-0.014492961993347311,-0.007665563060155756,0.9999998024106413,0.00018160437417038072,-0.00024962101593301267,-0.0005476201947409443
299.88333333338926,-0.00024582032,-0.7846113,-5.3507323e-05,-2.3571386,-0.0012774736,1.5720298,0.78547394,0.039999984,0.03999997,-0.00859054238964152,0.013823556152249726,0.0026254955273863345,-0.00029787925613223264,-0.014691212754540446,-0.008321033715913898,0.9999997609811834,0.00017878090065924583,-0.0002488247038232797,-0.0006198074155787011
299.9000000000559,-0.0002953437,-0.78460854,-6.4748136e-05,-2.3572578,-0.0014416341,1.572157,0.7854109,0.039999988,0.039999973,-0.00836072108645336,0.014390100299071593,0.0031515433456918984,-0.00032407838934670787,-0.014889203523569532,-0.009003395422344213,0.9999997106976228,0.00017577674868269136,-0.0002462524265206909,-0.0006979018180800271
299.91666666672256,-0.0003487655,-0.7846072,-7.687427e-05,-2.3573847,-0.0016186978,1.5722939,0.7853428,0.039999988,0.03999998,-0.008366261107695117,0.014950488933965994,0.0029324724520662926,-0.0003522925169990843,-0.015081517614003621,-0.009713284429433509,0.9999996499747232,0.00017249358538581395,-0.0002419959802771051,-0.0007821344766159149
299.9333333333892,-0.00040623074,-0.7846069,-8.9918656e-05,-2.3575194,-0.0018091422,1.5724415,0.78526956,0.03999999,0.039999988,-0.008756986437385983,0.015502493983902271,0.0037840744543826688,-0.00038188184919629936,-0.015269889957113519,-0.010448589336808476,0.9999995771030281,0.00016892033867084517,-0.00023578977378680715,-0.0008727329870804867
299.95000000005587,-0.00046788246,-0.7846079,-0.00010391368,-2.3576622,-0.0020134416,1.5725998,0.78519094,0.03999999,0.04,-0.008893455583969256,0.016048873464597276,0.003532578862031066,-0.0004127533441195324,-0.015454635749516733,-0.011209935107996937,0.9999994900949732,0.0001650447528997829,-0.00022763674665989613,-0.0009699234684055893
299.9666666667225,-0.0005338615,-0.78461015,-0.00011889152,-2.3578134,-0.0022320652,1.5727692,0.78510684,0.039999995,0.039999988,-0.009245741772390126,0.016588374911357274,0.00371466122541797,-0.0004453196905472674,-0.015632975719295672,-0.011994571218266963,0.9999993867405059,0.0001608823793468319,-0.0002175103354010687,-0.0010739295722072685
299.98333333338917,-0.000604307,-0.7846132,-0.00013488372,-2.357973,-0.0024654635,1.5729501,0.78501713,0.039999995,0.04,-0.010021198202858628,0.017111191073766047,0.004219380320735766,-0.00047970470262657765,-0.015805271809849725,-0.012806872022817523,0.9999992645677737,0.0001564466856840392,-0.00020553332420372022,-0.0011849659906234804
300.0000000000558,-0.00067935535,-0.78461754,-0.00015192144,-2.358143,-0.0027140845,1.5731426,0.7849216,0.04,0.04,-0.012257703724238844,0.01762727977136381,0.0031501547250734063,-0.0005160483514995862,-0.015974965686206072,-0.013643315640309411,0.9999991207848478,0.00015168921557107213,-0.00019227596676839616,-0.0013032458960982123
300.0166666667225,-0.0007591412,-0.78462297,-0.0001700351,-2.3583248,-0.0029783624,1.5733474,0.78482,0.039999995,0.039999995,-0.014719328838186385,0.01812968462395561,0.0031557226310097164,-0.0005546313357503788,-0.01614508487942255,-0.014503456001957158,0.9999989523883831,0.0001465883595131959,-0.0001782194711746672,-0.0014289757903136755
300.0333333333891,-0.0008437963,-0.7846296,-0.00018925472,-2.3585153,-0.0032587599,1.5735649,0.7847122,0.039999995,0.039999995,-0.009603133823143928,0.018651481020224518,0.004633079560201203,-0.0005951110220110134,-0.016321622046546313,-0.01538938660829996,0.9999987564593502,0.00014109391824737385,-0.0001616997557737484,-0.0015623781387008933
300.0500000000558,-0.0009334505,-0.7846372,-0.0002096098,-2.358717,-0.0035556962,1.5737948,0.78459805,0.039999995,0.039999995,-0.013882554808919423,0.019135224340161624,0.003549176952533095,-0.0006372283464249852,-0.016488411933692805,-0.01629809609628511,0.9999985292621125,0.00013523949784996495,-0.0001440630603146809,-0.0017036518789549406
300.0666666667224,-0.0010282305,-0.7846459,-0.000231129,-2.35893,-0.003869597,1.5740384,0.78447735,0.03999999,0.039999995,-0.013872888590094057,0.019619313586152938,0.004188166575547214,-0.0006818170880555259,-0.01665957382261781,-0.01723085428148128,0.9999982670803579,0.00012896721227915165,-0.00012486808355221754,-0.0018530007287854509
300.0833333333891,-0.0011282613,-0.78465563,-0.00025384096,-2.3591542,-0.004200881,1.5742953,0.78435004,0.039999988,0.039999995,-0.013193433070046723,0.020096409549193867,0.004239520999660407,-0.0007285731204472916,-0.016828754081199306,-0.018186325708774896,0.9999979658012325,0.0001223084572848049,-0.00010403147358769988,-0.0020106246519417926
300.10000000005573,-0.001233665,-0.78466636,-0.00027777324,-2.3593905,-0.0045499457,1.5745658,0.7842158,0.039999984,0.039999995,-0.015133633801522883,0.020552022913098485,0.0038547868776994676,-0.0007778048508684755,-0.016997444131657304,-0.019164056874710074,0.9999976209598129,0.00011517071791673353,-8.203683810677082e-05,-0.002176713205138356
300.1166666667224,-0.001344561,-0.7846781,-0.00030295286,-2.3596385,-0.004917193,1.5748504,0.78407466,0.03999998,0.039999995,-0.014122342858335912,0.021007136927357097,0.004491363003711335,-0.0008292550485214951,-0.017169673077258762,-0.020163596903599416,0.999997227823542,0.00010760922833200599,-5.835473021558785e-05,-0.0023514591662722887
300.13333333338903,-0.0014610661,-0.78469074,-0.00032940667,-2.3598988,-0.0053029913,1.5751493,0.78392637,0.03999998,0.039999995,-0.015457772861116048,0.021432752918211333,0.004208097425717483,-0.0008834980101929575,-0.017339009163624228,-0.021183643239126956,0.9999967812738204,9.955686490984568e-05,-3.3410141190668505e-05,-0.0025350373157735657
300.1500000000557,-0.0015832947,-0.78470445,-0.0003571606,-2.360171,-0.005707719,1.5754632,0.7837708,0.03999998,0.039999995,-0.01417109667412042,0.02186298463903412,0.004919059719354912,-0.0009402817859623033,-0.017511861321268963,-0.022224637935924822,0.9999962758481501,9.100434079473533e-05,-6.466214852934832e-06,-0.0027276301487615356
300.16666666672234,-0.0017113577,-0.7847191,-0.00038624008,-2.3604567,-0.006131746,1.5757922,0.78360784,0.03999998,0.039999995,-0.01668333857003379,0.022279110280967566,0.004395292855274846,-0.000999916770382742,-0.017679813492713126,-0.02328607481059102,0.999995705665744,8.19369676598272e-05,2.1753034825685894e-05,-0.0029294134582606066
300.183333333389,-0.0018453641,-0.7847349,-0.0004166695,-2.3607554,-0.006575445,1.5761362,0.7834373,0.039999977,0.039999995,-0.01610231029034459,0.022695467029959504,0.004283219553635753,-0.0010627448806573778,-0.01785015514983533,-0.024368237280017514,0.9999950644745091,7.231094594796628e-05,5.138716619594746e-05,-0.003140566367490405
300.20000000005564,-0.0019854198,-0.78475153,-0.0004484732,-2.361067,-0.0070391633,1.5764956,0.7832591,0.039999977,0.039999995,-0.015896987638264193,0.023088329167563794,0.004791963917272213,-0.0011282331615942286,-0.018020472076591857,-0.025468960410786754,0.999994345628499,6.210841386921315e-05,8.257522361215646e-05,-0.003361254960219425
300.2166666667223,-0.0021316286,-0.78476924,-0.00048167453,-2.361392,-0.007523248,1.5768709,0.78307307,0.039999977,0.04,-0.01627540301649688,0.023476304970698227,0.004761700321442852,-0.0011972679681558785,-0.018191983771151735,-0.026589483410036585,0.9999935420395252,5.1308239261061305e-05,0.00011542581454738079,-0.003591646362070017
300.23333333338894,-0.0022840907,-0.78478783,-0.0005162965,-2.361731,-0.008028007,1.5772625,0.7828791,0.03999998,0.04,-0.017520625024602943,0.02382913342690446,0.004853342575028563,-0.0012693800316732687,-0.018362141933265297,-0.027726785089124465,0.99999264629013,3.988475540580555e-05,0.00014971912209840044,-0.0038318871400111103
300.2500000000556,-0.0024429036,-0.7848075,-0.0005523614,-2.362084,-0.008553762,1.57767,0.78267705,0.03999998,0.04,-0.017048766253346948,0.02418883130671408,0.0044673384831384055,-0.001345158611602542,-0.018532378950962547,-0.02888300491294334,0.9999916504926258,2.7783779808758123e-05,0.00018541333998520651,-0.004082131182249908
300.26666666672224,-0.0026081621,-0.78482807,-0.0005898906,-2.3624508,-0.009100849,1.5780945,0.7824668,0.039999977,0.04,-0.017253722716747966,0.024553578746902907,0.0053047735238509475,-0.0014241171810984877,-0.018704121605028386,-0.03005754799127232,0.999990546170851,1.5002890191789807e-05,0.00022288340608295128,-0.004342541516624105
300.2833333333889,-0.0027799588,-0.7848498,-0.00062890525,-2.3628323,-0.009669571,1.5785354,0.78224826,0.039999977,0.04,-0.01790226908395809,0.024890114198332543,0.004432526584974283,-0.0015071407557689463,-0.0188724960763445,-0.031248195160801885,0.9999893245947935,1.4815024959026129e-06,0.00026172849812799965,-0.004613262668325648
300.30000000005555,-0.0029583827,-0.7848723,-0.00066942564,-2.3632288,-0.010260213,1.5789934,0.7820212,0.039999977,0.04,-0.01903035692989441,0.025206600180310325,0.004877246181322903,-0.0015938122698941678,-0.019042569305769256,-0.03245537955246186,0.999987976593177,-1.2818929128566357e-05,0.00030175583160423053,-0.004894430321989776
300.3166666667222,-0.0031435206,-0.78489596,-0.00071147137,-2.36364,-0.010873081,1.5794685,0.78178555,0.03999998,0.04,-0.018072406928970608,0.02553563042578793,0.004672034209907139,-0.001684417831053447,-0.019216188818084623,-0.033679334182687995,0.9999864922876363,-2.796442064332463e-05,0.000343308120237204,-0.0051861931891273175
300.33333333338885,-0.0033354575,-0.78492063,-0.00075506174,-2.3640661,-0.011508425,1.5799608,0.78154147,0.03999998,0.04,-0.01816999967545474,0.02582003459273771,0.00489843932256484,-0.00177853777987802,-0.019388643802637127,-0.03491799721180266,0.9999848615190754,-4.381695195465572e-05,0.0003864007011714503,-0.005488670808908975
300.3500000000555,-0.0035342728,-0.7849462,-0.000800215,-2.3645072,-0.012166527,1.5804712,0.78128856,0.03999998,0.04,-0.018454535972778352,0.026119291008485507,0.005334774445797663,-0.0018781335264762555,-0.019561082907482215,-0.036172467020511426,0.9999830734518395,-6.057337501595457e-05,0.0004311954159270831,-0.0058020006198328975
300.36666666672215,-0.0037400455,-0.7849728,-0.00084694865,-2.3649633,-0.012847655,1.5809993,0.7810268,0.03999998,0.04,-0.01837047709252193,0.02640572431109947,0.00503541159109222,-0.0019816468415898205,-0.019730439545178814,-0.03744140785118632,0.9999811168557139,-7.82494725103037e-05,0.0004776158311358318,-0.006126311462627155
300.3833333333888,-0.0039528515,-0.7850005,-0.0008952803,-2.365435,-0.013552047,1.5815456,0.7807561,0.039999973,0.04,-0.018870135001169963,0.026663397586281987,0.005047170730354544,-0.002089682092485454,-0.0198981035482898,-0.03872441097443796,0.9999789800099941,-9.683779939543838e-05,0.0005257042100742463,-0.006461717704749996
300.40000000005546,-0.004172764,-0.78502905,-0.0009452266,-2.365922,-0.014279954,1.5821099,0.7804764,0.039999977,0.04,-0.019246337823664028,0.026928708575472624,0.004973937568619746,-0.002202639439589524,-0.020063534905068788,-0.04002080029798384,0.9999766507935267,-0.00011642136277940979,0.0005751736257855072,-0.006808339674809862
300.4166666667221,-0.004399851,-0.7850587,-0.0009968032,-2.3664246,-0.015031588,1.5826926,0.78018755,0.039999973,0.04,-0.018837431359575163,0.02715635481026664,0.005045603802167342,-0.002320588837716544,-0.020229366275130948,-0.04132945886734268,0.9999741163575395,-0.000137027486693973,0.0006263030318634008,-0.007166280969806005
300.43333333338876,-0.0046341815,-0.7850893,-0.0010500255,-2.3669434,-0.015807198,1.5832939,0.7798895,0.039999973,0.04,-0.020013415397324152,0.027407376556284196,0.004859917363742028,-0.002443631732604895,-0.02039219286761576,-0.04265145854688223,0.9999713635201576,-0.00015868898483910538,0.0006788042598752992,-0.0075356607022552535
300.4500000000554,-0.004875821,-0.78512096,-0.0011049077,-2.367479,-0.016606981,1.583914,0.77958214,0.039999973,0.04,-0.02112302539740707,0.027613395576540217,0.004637314679056814,-0.0025721662865763155,-0.020555519378914842,-0.043984563903784614,0.9999683787531302,-0.0001815017905039517,0.0007324177983014784,-0.007916572181511082
300.46666666672206,-0.005124829,-0.7851537,-0.0011614647,-2.368031,-0.017431146,1.5845531,0.77926546,0.039999973,0.04,-0.019765981698793844,0.027826549019277155,0.0049530239547790345,-0.00270539711174304,-0.020719862905575058,-0.04533011745369671,0.999965147428814,-0.000205440761450546,0.0007875696133533384,-0.008309118838242396
300.4833333333887,-0.005381265,-0.7851875,-0.0012197094,-2.3685992,-0.018279891,1.585211,0.77893925,0.039999966,0.04,-0.019767807104020818,0.028028085453103008,0.004791110511725982,-0.0028447867317766516,-0.020882983136397776,-0.04668677293676882,0.9999616547075196,-0.00023063321373573,0.0008441770337268257,-0.008713397044531172
300.50000000005537,-0.0056451885,-0.7852223,-0.001279655,-2.3691833,-0.019153398,1.5858884,0.77860355,0.039999966,0.04,-0.01920075849535241,0.028211541522904157,0.00530330543440094,-0.0029896404042349493,-0.02104450059342868,-0.04805303516402224,0.9999578848803785,-0.0002570620765315198,0.0009026048308987826,-0.009129495559325847
300.516666666722,-0.005916648,-0.7852581,-0.0013413134,-2.3697848,-0.020051856,1.586585,0.77825826,0.039999966,0.04,-0.02163815414326642,0.028384505413692196,0.00447013926014872,-0.0031403015370200515,-0.021200230798133254,-0.04943024395934477,0.9999538226741513,-0.0002848116050234079,0.0009620539515531702,-0.009557502492588821
300.53333333338867,-0.0061957,-0.78529507,-0.0014046965,-2.3704026,-0.020975415,1.5873013,0.7779033,0.03999996,0.04,-0.019358608312369796,0.028543214954557944,0.005056572972739204,-0.003297116437409219,-0.02135737009286549,-0.05081782519932683,0.9999494509525405,-0.0003139221248757143,0.0010232744487104779,-0.009997494786949212
300.5500000000553,-0.0064823907,-0.78533304,-0.0014698149,-2.3710377,-0.021924248,1.5880367,0.77753884,0.03999996,0.04,-0.021596072096619068,0.028696749671204558,0.0042156256227832145,-0.003460199115759191,-0.021509914691157647,-0.0522128625823118,0.9999447535735896,-0.0003443620228771258,0.0010854072002811604,-0.010449550548230546
300.56666666672197,-0.0067767655,-0.78537196,-0.0015366796,-2.371689,-0.022898499,1.5887918,0.7771646,0.039999958,0.04,-0.01939788453964031,0.028835512537826735,0.005163356078496939,-0.003630446297628428,-0.021664601138774893,-0.053617380916059824,0.9999397120388426,-0.00037627234700597916,0.0011492891292373174,-0.01091374552090102
300.5833333333886,-0.0070788683,-0.7854121,-0.0016053003,-2.372358,-0.023898315,1.5895671,0.7767804,0.03999995,0.04,-0.021453053285425128,0.02895911318928114,0.004452309609392913,-0.0038071303243374897,-0.02181360701391205,-0.05503094975326317,0.9999343087663125,-0.00040974877489105365,0.0012144158048669662,-0.011390147155811516
300.6000000000553,-0.007388738,-0.7854532,-0.001675686,-2.3730443,-0.024923848,1.5903623,0.77638626,0.03999995,0.04,-0.020793729534829275,0.029089707202419046,0.004681703378572877,-0.003990324515278424,-0.0219608624060946,-0.05645121978464966,0.9999285248081927,-0.00044488192662350953,0.0012809076369524033,-0.01187883119707316
300.6166666667219,-0.0077064144,-0.7854954,-0.0017478458,-2.3737473,-0.0259752,1.5911777,0.77598226,0.039999954,0.04,-0.020237282646262678,0.029180422732416264,0.004756819987306038,-0.004179761553725729,-0.022105900172676947,-0.05787701642948712,0.9999223408696175,-0.00048161417502884434,0.0013489457368635683,-0.01237984745503659
300.6333333333886,-0.0080319345,-0.7855387,-0.0018217873,-2.374468,-0.027052484,1.592013,0.7755682,0.039999943,0.04,-0.021486777356560793,0.02926971496370334,0.004146628999368573,-0.004376682760621219,-0.022245184772667376,-0.0593120638718927,0.99991573788364,-0.0005201050527234222,0.0014180224756371305,-0.012893247674981588
300.65000000005523,-0.0083653275,-0.7855829,-0.0018975177,-2.375206,-0.028155852,1.5928684,0.77514416,0.03999994,0.04,-0.020680796152183767,0.029380552715611158,0.0045148101287528775,-0.004580367133204668,-0.022384469546100374,-0.06075337343892147,0.9999086949465058,-0.0005603368662244572,0.0014884061867663024,-0.013419107272649748
300.6666666667219,-0.008706627,-0.7856282,-0.0019750441,-2.3759613,-0.029285371,1.5937442,0.77471006,0.039999947,0.04,-0.020868341133728485,0.029430509210782996,0.004325789462233942,-0.004791960738456183,-0.02252034781071255,-0.06219866523121389,0.9999011914383957,-0.000602412356309171,0.0015600652031109,-0.013957458794196359
300.68333333338853,-0.009055857,-0.78567487,-0.002054373,-2.3767345,-0.030441126,1.5946405,0.7742659,0.03999994,0.04,-0.021186420069119194,0.029472452774286645,0.0041021245312578,-0.005010740655021807,-0.02265220258268724,-0.0636510123836919,0.9998932059438822,-0.0006463850770479522,0.0016330571865470474,-0.014508343041949777
300.7000000000552,-0.009413051,-0.7857224,-0.0021355106,-2.377525,-0.031623207,1.595557,0.7738116,0.039999936,0.04,-0.02106981868217339,0.029545877359011402,0.004156997466653323,-0.005237175155754344,-0.022779180722364647,-0.06510728602148745,0.9998847170363485,-0.0006923258858047516,0.0017070808003826882,-0.01507180139035035
300.71666666672184,-0.009778221,-0.7857712,-0.0022184618,-2.3783336,-0.032831706,1.5964941,0.7733472,0.039999936,0.04,-0.021148199263398837,0.029572442227216583,0.003920791633360565,-0.005471532762539585,-0.022905801715459192,-0.06656800402585324,0.9998757018335344,-0.0007402687128860024,0.0017823415177125757,-0.015647879851407493
300.7333333333885,-0.010151396,-0.7858207,-0.0023032306,-2.3791592,-0.034066677,1.5974514,0.7728725,0.03999993,0.04,-0.020650846322167737,0.029607545802082247,0.004205985038052695,-0.005714285086223805,-0.023027126463704358,-0.06803345937125742,0.9998661376909156,-0.0007903797821843555,0.0018586841123438224,-0.016236603469371464
300.75000000005514,-0.010532591,-0.78587157,-0.0023898215,-2.380003,-0.035328187,1.5984294,0.77238774,0.03999993,0.04,-0.0214472058063242,0.029614623614861862,0.003584911796017387,-0.005964434898795144,-0.023143585613753043,-0.06950059330867385,0.9998560012739318,-0.0008426060712928603,0.0019360755327630314,-0.016838002941063444
300.7666666667218,-0.010921819,-0.7859233,-0.002478239,-2.380865,-0.036616284,1.599428,0.77189285,0.03999992,0.04,-0.022264197087951132,0.0296141978983748,0.0035789691104737287,-0.006223759598503565,-0.02325866187553991,-0.07097243741380092,0.9998452694471652,-0.000897046194045282,0.002014151983813116,-0.017452096264850964
300.78333333338844,-0.011319102,-0.78597635,-0.0025684845,-2.3817446,-0.03793102,1.6004473,0.77138764,0.039999917,0.04,-0.0201124695214272,0.029625899722690585,0.0036959432276661985,-0.006491842739131018,-0.023371727446785923,-0.07244692894718559,0.9998339161844806,-0.0009538387089925654,0.0020935606629238577,-0.018078917076887278
300.8000000000551,-0.011724441,-0.7860304,-0.0026605618,-2.3826418,-0.039272428,1.6014875,0.7708722,0.039999925,0.04,-0.020679799549383482,0.029594621778443464,0.003889776733911887,-0.00676806421647233,-0.023477483094576035,-0.07392166532751526,0.999821916811204,-0.001013032863615618,0.0021741756010321867,-0.018718477204160422
300.81666666672174,-0.01213785,-0.78608567,-0.0027544724,-2.3835566,-0.040640518,1.6025482,0.77034634,0.039999917,0.04,-0.020574612051871277,0.029560087152097347,0.0033203711658158497,-0.007052829232715257,-0.023577801383999758,-0.07539977914556355,0.9998092463556738,-0.0010747505617887353,0.002255808838207496,-0.019370780557711763
300.8333333333884,-0.012559333,-0.78614205,-0.0028502173,-2.3844895,-0.042035356,1.6036296,0.7698103,0.03999991,0.04,-0.021357687296719163,0.029546067960227462,0.003088552981567183,-0.0073460696148043535,-0.023671658458381012,-0.0768806425143335,0.9997958791887659,-0.0011389831926988633,0.002338214611642382,-0.020035853535086065
300.85000000005505,-0.012988896,-0.7861994,-0.0029477975,-2.3854403,-0.04345693,1.604732,0.76926404,0.039999913,0.04,-0.02093696549771984,0.029482472313341335,0.0035289762626122823,-0.007648836038169876,-0.023763386769342407,-0.07835873634362912,0.9997817885170432,-0.0012058394101931936,0.0024216213751995412,-0.02071369235299197
300.8666666667217,-0.0134265395,-0.786258,-0.0030472137,-2.386409,-0.04490521,1.6058547,0.7687074,0.039999906,0.04,-0.020811850538926535,0.029394505971255813,0.0026257335342005916,-0.007960549130174605,-0.02384776921483186,-0.07983807005046474,0.9997669486327151,-0.0012754461071060887,0.0025057200756567442,-0.021404275875634343
300.88333333338835,-0.01387226,-0.7863175,-0.0031484652,-2.387395,-0.046380244,1.6069984,0.76814055,0.039999906,0.04,-0.01962727774946771,0.02936280109110956,0.0035361220271923344,-0.008281061012360463,-0.023929909378349767,-0.08131830228224556,0.9997513303367648,-0.0013477989918750245,0.002591037640041284,-0.02210763333544501
300.900000000055,-0.014326058,-0.7863782,-0.0032515519,-2.3883991,-0.047881998,1.608163,0.76756346,0.039999902,0.04,-0.02144429242358914,0.02925506717743817,0.0026445508215289237,-0.008611411579482621,-0.024002342212988408,-0.08279764273563496,0.9997349077960139,-0.0014230210451617003,0.0026769663398891873,-0.022823737564554452
300.91666666672165,-0.014787928,-0.78643996,-0.0033564717,-2.3894215,-0.04941045,1.6093479,0.7669761,0.0399999,0.04,-0.021192974057271385,0.02916128794644493,0.002306500935644884,-0.008951339798707051,-0.024070327756811186,-0.08427863518954677,0.999717653563236,-0.0015011919969762277,0.002763315428355942,-0.023552572353124905
300.9333333333883,-0.015257864,-0.7865029,-0.0034632238,-2.3904617,-0.05096562,1.6105539,0.76637834,0.03999991,0.04,-0.020394932863743165,0.029089604766065896,0.0026712383159432918,-0.009300818546698002,-0.024136282798880075,-0.08575815930970268,0.9996995371339499,-0.0015824924140064103,0.002850516526285782,-0.02429415006661764
300.95000000005496,-0.015735853,-0.78656673,-0.0035718053,-2.3915198,-0.052547418,1.6117802,0.76577055,0.03999991,0.04,-0.02085666921789464,0.02893869073862243,0.002251774333994483,-0.009659287693213767,-0.024193872175698482,-0.08723663912354421,0.9996805320439907,-0.0016668030791443969,0.002938085257990171,-0.025048418607884586
300.9666666667216,-0.016221885,-0.78663176,-0.003682214,-2.392595,-0.054155834,1.6130272,0.76515245,0.039999906,0.04,-0.019116845251998527,0.028839480846658272,0.002580302215493546,-0.010028428999565707,-0.024249166514147283,-0.08870851827531458,0.9996606062597174,-0.0017543576219827565,0.0030266592849521675,-0.025815380209507306
300.98333333338826,-0.016715948,-0.7866977,-0.0037944466,-2.3936884,-0.055790816,1.6142949,0.7645242,0.039999902,0.04,-0.021057308413752196,0.028694513176540093,0.002041924525664207,-0.010407061542559048,-0.024293958095689225,-0.09017828104863801,0.9996397327651348,-0.0018451768661223852,0.0031155116717258673,-0.026594991757956692
301.0000000000549,-0.01721803,-0.78676486,-0.0039084996,-2.3947992,-0.057452302,1.6155831,0.76388574,0.039999895,0.04,-0.01940374205391393,0.028556370362402272,0.0019847867609446013,-0.010795970603781485,-0.024335501854098794,-0.09164491303621294,0.9996178799477673,-0.0019394009359239382,0.0032050727834291508,-0.027387229162401928
301.01666666672156,-0.0177281,-0.786833,-0.0040243696,-2.3959281,-0.059140243,1.616892,0.7632372,0.03999989,0.04,-0.020820221720474485,0.028386233838445518,0.0018254010415219568,-0.011194958502246374,-0.024368083096781,-0.09310702231772086,0.999595019014901,-0.002037065309461793,0.0032949128151135627,-0.02819205340278187
301.0333333333882,-0.018246146,-0.7869023,-0.004142051,-2.3970752,-0.0608546,1.618221,0.76257837,0.039999887,0.04,-0.020677848964889556,0.02824985193453783,0.0011189770006581057,-0.011604097804839508,-0.02439695894755324,-0.0945668465655766,0.9995711195691641,-0.0021383491087835437,0.003384804570535368,-0.029009437849708553
301.05000000005487,-0.018772144,-0.78697264,-0.0042615384,-2.3982387,-0.062595256,1.6195707,0.76190954,0.039999884,0.04,-0.017795356696015396,0.02806752040217797,0.0022601673950406465,-0.01202308328315619,-0.024421485219354035,-0.09602053584104529,0.9995461476077484,-0.00224322157413803,0.003475688607916573,-0.02983934228798071
301.0666666667215,-0.019306077,-0.78704405,-0.004382827,-2.3994207,-0.06436214,1.6209406,0.7612304,0.039999872,0.04,-0.021497067061049258,0.027864599669448487,0.0006639769130512008,-0.012452504658140455,-0.024433668365661416,-0.0974700139618958,0.9995200767672495,-0.0023519621194836252,0.003566233338522453,-0.030681694756892943
301.08333333338817,-0.019847903,-0.78711647,-0.004505912,-2.40062,-0.066155195,1.6223308,0.7605415,0.03999987,0.04,-0.018963021980678008,0.027703043877466693,0.0014471110979519253,-0.012891386286637649,-0.024445254132402568,-0.09891515793613752,0.9994928723848577,-0.0024644012236655767,0.0036572038916482833,-0.03153648106828625
301.1000000000548,-0.020397613,-0.78718996,-0.004630784,-2.4018366,-0.067974314,1.6237413,0.7598425,0.03999986,0.04,-0.019276866779427415,0.027497984178745383,0.0010680208965219151,-0.013341858883764449,-0.024447468901500437,-0.10035363816384615,0.9994645032616901,-0.0025807927975092407,0.0037483996128701057,-0.032403637585024
301.11666666672147,-0.020955164,-0.78726447,-0.0047574374,-2.4030707,-0.0698194,1.6251717,0.7591334,0.039999854,0.04,-0.019391410786306906,0.027278374679821915,0.0006929390731214013,-0.013802406078333919,-0.024442617630989663,-0.1017867530111036,0.9994349382459942,-0.0027012805990773584,0.0038395635486833603,-0.03328310454429632
301.1333333333881,-0.021520525,-0.78734004,-0.0048858644,-2.404322,-0.07169033,1.6266221,0.75841457,0.03999985,0.04,-0.018809462809499244,0.02704973387881726,0.000731234124851099,-0.014272862362389636,-0.024432722713058658,-0.10321243101885656,0.999404144990681,-0.0028257675760586663,0.003930863339039739,-0.034174820064805815
301.1500000000548,-0.022093667,-0.78741676,-0.0050160587,-2.4055908,-0.073587015,1.6280934,0.7576859,0.039999843,0.04,-0.01922370932738726,0.026825734123060718,0.00093710357573773,-0.014754544252270574,-0.024415223751610822,-0.10463218788426772,0.9993720895168131,-0.0029544512112942914,0.004022457138631008,-0.03507873645681647
301.1666666667214,-0.022674551,-0.7874944,-0.005148011,-2.406876,-0.07550931,1.6295841,0.756947,0.03999984,0.04,-0.017771369285557448,0.026592992938648252,0.0004310986084110624,-0.015246520195287439,-0.024387437923101177,-0.10604344940124905,0.9993387401050818,-0.0030876151503950243,0.004114080968014321,-0.03599477039320096
301.1833333333881,-0.02326314,-0.78757316,-0.0052817115,-2.4081793,-0.07745709,1.6310939,0.756198,0.039999828,0.04,-0.020145708535568296,0.026317851722749974,-0.000763805016035235,-0.01574765079475416,-0.024351535784198047,-0.10744692747931028,0.9993040684391519,-0.0032253105765733497,0.004204855483539189,-0.03692282983474853
301.20000000005473,-0.023859387,-0.7876529,-0.0054171532,-2.409499,-0.07943024,1.6326238,0.75543934,0.03999982,0.04,-0.017338341888217812,0.026079640342066557,0.0006523627078536265,-0.016257921606289277,-0.02431593535820674,-0.10884249661990432,0.9992680359622746,-0.0033674453672460944,0.004295959962446604,-0.03786287553525071
301.2166666667214,-0.024463262,-0.7877336,-0.005554327,-2.410835,-0.081428625,1.6341734,0.7546715,0.039999813,0.04,-0.017491237319333663,0.025839739608925216,0.00018883667849411978,-0.01677902611834744,-0.024268079458938586,-0.11023109569226282,0.9992306114621592,-0.0035138926245464612,0.004387086408048689,-0.03881483155226825
301.23333333338803,-0.025074715,-0.7878154,-0.005693221,-2.412188,-0.0834521,1.6357422,0.75389415,0.03999981,0.04,-0.018266501373687127,0.02553546939724899,-0.0006075125982274443,-0.01731264618617443,-0.024209739379323955,-0.11160802578285704,0.9991917637588097,-0.0036649582443900697,0.004477763019084715,-0.03977859922082219
301.2500000000547,-0.025693703,-0.78789824,-0.0058338256,-2.4135585,-0.0855005,1.6373304,0.7531072,0.039999798,0.04,-0.018945367270783997,0.025235671061005216,-0.0008173397670674376,-0.017857529443508546,-0.02414630683996498,-0.1129774217262635,0.9991514604542668,-0.0038208118217212764,0.004567820698790318,-0.04075408547854148
301.26666666672133,-0.026320174,-0.7879821,-0.00597613,-2.4149446,-0.087573685,1.6389377,0.7523107,0.03999979,0.04,-0.016188816636231174,0.02497761314801672,-0.00032789535406863024,-0.01841282663686567,-0.024078191401635085,-0.11433711045324516,0.9991096646927957,-0.003981512277882182,0.004657836371228124,-0.041741227075508244
301.283333333388,-0.02695409,-0.788067,-0.0061201244,-2.4163473,-0.08967147,1.6405638,0.7515046,0.039999794,0.04,-0.01743409107499705,0.024662281953485854,-0.0010119717771761572,-0.018978282270762772,-0.02399840867153731,-0.11568485940124809,0.9990663462033692,-0.004147222019976275,0.004747283475500803,-0.04273990796632364
301.30000000005464,-0.027595395,-0.7881528,-0.0062657944,-2.4177666,-0.09179374,1.642209,0.750689,0.039999776,0.04,-0.01776783980624863,0.024367056868956904,-0.0010673030643282289,-0.019553598362880786,-0.023911301649431768,-0.11702486115225268,0.9990214709940002,-0.004318029318127541,0.00483608492160654,-0.04375005598193895
301.3166666667213,-0.028244033,-0.78823966,-0.0064131306,-2.419202,-0.093940265,1.6438735,0.74986434,0.039999776,0.04,-0.01678033905627707,0.024017483657154393,-0.0008946838416123981,-0.020138871313361846,-0.023817858478762985,-0.1183512324522994,0.9989750055886665,-0.004493876974489449,0.004924527673355654,-0.044771556886667736
301.33333333338794,-0.028899949,-0.7883273,-0.00656212,-2.4206538,-0.09611093,1.6455562,0.7490303,0.039999757,0.04,-0.017253884667600694,0.023738025498565296,-0.0015330799949531126,-0.020735224783202805,-0.023716115821048156,-0.11967081128979228,0.9989269182508915,-0.004675006972059456,0.00501202100108727,-0.04580432238416587
301.3500000000546,-0.029563095,-0.78841615,-0.006712751,-2.4221213,-0.09830551,1.6472576,0.7481871,0.03999976,0.04,-0.01575807306462007,0.023382083250139685,-0.0014709252048383803,-0.021341510057239076,-0.023608267064737468,-0.12097414492478102,0.9988771735244902,-0.004861409529993081,0.005099117070298628,-0.04684824344850808
301.36666666672124,-0.030233415,-0.7885057,-0.0068650087,-2.4236047,-0.10052379,1.6489774,0.7473348,0.03999975,0.04,-0.01682008639969368,0.023028368183178327,-0.0015268427526304862,-0.021958013724612487,-0.0234895950713708,-0.12226900361622856,0.9988257413720905,-0.005053266517292711,0.005185290085936244,-0.04790319025622259
301.3833333333879,-0.030910837,-0.7885963,-0.007018881,-2.4251046,-0.10276563,1.6507152,0.7464734,0.039999742,0.04,-0.017266224262346697,0.0226756391279892,-0.002466365228648293,-0.022584578633849578,-0.023364315725545814,-0.12354904991236172,0.9987725900635781,-0.005250652456485172,0.005270226365092172,-0.048969058603710966
301.40000000005455,-0.03159531,-0.7886879,-0.007174354,-2.4266198,-0.10503082,1.6524711,0.745603,0.03999973,0.04,-0.015216894580993845,0.022361704076809263,-0.0019364738422789074,-0.023220900410149188,-0.02323534165020137,-0.12481826908079112,0.9987176828589588,-0.005453609434736015,0.005354445243659194,-0.050045759112016884
301.4166666667212,-0.032286778,-0.78878045,-0.007331412,-2.4281502,-0.10731913,1.6542451,0.7447238,0.039999723,0.04,-0.015150781832518057,0.021976699010331502,-0.0018570521052918565,-0.023867536399553392,-0.0230969008608283,-0.1260731892917587,0.9986609870496204,-0.005662245833251191,0.005437989853070191,-0.051133161290495915
301.43333333338785,-0.03298518,-0.7888739,-0.0074900417,-2.4296958,-0.10963037,1.6560371,0.7438357,0.039999716,0.04,-0.015277043593564521,0.021617539580459644,-0.0022188765808728306,-0.024523525698481465,-0.022946847857166552,-0.12731481166020925,0.9986024709361149,-0.005876692113346002,0.005520603948778841,-0.05223114456080271
301.4500000000545,-0.033690445,-0.7889683,-0.007650228,-2.431257,-0.111964315,1.6578466,0.7429389,0.039999705,0.04,-0.015683558863011093,0.021222328918588107,-0.0027633125146087067,-0.025188749270789283,-0.022789741434506447,-0.12854257777006467,0.998542104473968,-0.006096995869443117,0.005601977375582754,-0.05333957333491315
301.46666666672115,-0.034402486,-0.78906375,-0.007811957,-2.4328337,-0.114320785,1.6596732,0.7420335,0.039999697,0.04,-0.015677337429642613,0.02083767701398509,-0.003178181860885587,-0.02586407074693809,-0.022625096215404317,-0.1297569696345311,0.9984798559535735,-0.006323235579849983,0.005681917620327681,-0.054458330482016065
301.4833333333878,-0.03512126,-0.7891599,-0.00797521,-2.4344237,-0.11669949,1.6615174,0.74111944,0.03999969,0.04,-0.012139395043586632,0.020485175068077344,-0.0017354326791618746,-0.026548786019701093,-0.022455243022604612,-0.13095541530928134,0.9984156860509483,-0.00655551907034033,0.005761476825479533,-0.05558730432321635
301.50000000005446,-0.035846684,-0.78925693,-0.008139976,-2.4360287,-0.1191002,1.6633786,0.74019706,0.03999968,0.04,-0.014927573159773111,0.020031472152914898,-0.003188207201443305,-0.02724198909211424,-0.022270917327596867,-0.1321414528128628,0.9983495713809507,-0.006793870938571732,0.005839636494162332,-0.05672631917159963
301.5166666667211,-0.036578696,-0.7893549,-0.008306233,-2.4376488,-0.12152274,1.6652567,0.7392663,0.039999675,0.04,-0.014845728155599147,0.01965805464185233,-0.003422452075341198,-0.027945233310642623,-0.02207820072546378,-0.13330964627041725,0.9982814787325334,-0.007038457529066735,0.005916318539363957,-0.05787526682563921
301.53333333338776,-0.03731722,-0.78945386,-0.008473969,-2.4392838,-0.1239668,1.6671515,0.7383272,0.039999668,0.04,-0.01492220143610723,0.019194388720095157,-0.0038008578256754078,-0.028657351761969103,-0.021880027434951002,-0.13446250691711317,0.9982113809602251,-0.007289345100068383,0.0059913047311998145,-0.05903396172636797
301.5500000000544,-0.03806218,-0.78955364,-0.008643163,-2.440932,-0.12643223,1.6690626,0.7373799,0.039999645,0.04,-0.011739588078252261,0.01890102657714221,-0.0029037643883400577,-0.029378334560257707,-0.021677864350226506,-0.13560348671503486,0.9981392372194663,-0.007546586652858428,0.006065381805367216,-0.060202352914050156
301.56666666672106,-0.038813498,-0.7896542,-0.008813803,-2.442595,-0.12891872,1.6709902,0.7364246,0.03999965,0.04,-0.014657419988939324,0.01837651938426388,-0.0038944487694703156,-0.03010764012896392,-0.021461485645789286,-0.13672496286456254,0.9980650264839281,-0.007810257809082894,0.006137653076874751,-0.061380224806523415
301.5833333333877,-0.039571106,-0.7897558,-0.0089858705,-2.4442718,-0.13142598,1.672934,0.7354612,0.039999634,0.04,-0.012708873832512069,0.017943270914139164,-0.0037914064565880423,-0.030845875501014086,-0.021240239302345157,-0.13783120566295815,0.9979887152219472,-0.00808052978618434,0.006208575746581361,-0.06256742695061611
301.60000000005437,-0.040334925,-0.7898581,-0.009159346,-2.4459617,-0.13395387,1.6748935,0.7344899,0.03999962,0.04,-0.012084189157124392,0.017634458253920626,-0.003749926465945741,-0.03159152162395684,-0.02100988611281787,-0.13892291554476563,0.9979102716923111,-0.008357340812825577,0.006277966206764116,-0.06376387414377274
301.616666666721,-0.04110488,-0.78996134,-0.009334213,-2.4476652,-0.13650204,1.6768692,0.7335108,0.039999615,0.04,-0.012347100105536413,0.017093775850246518,-0.0038047364175231024,-0.03234602882718923,-0.020770006875688196,-0.1399950904715811,0.9978296669783039,-0.00864087697363994,0.006345991059137074,-0.06496937232705244
301.63333333338767,-0.041880883,-0.7900654,-0.009510449,-2.4493823,-0.13907021,1.6788602,0.73252404,0.0399996,0.04,-0.012720660425413755,0.016632422249748813,-0.004463204291949019,-0.033107524142217126,-0.020520779670455305,-0.14105380357736702,0.9977468778194507,-0.008931137668971934,0.006412142183148192,-0.06618373677950609
301.6500000000543,-0.04266285,-0.79017,-0.009688042,-2.4511127,-0.14165822,1.6808666,0.73152965,0.039999593,0.04,-0.012602027049490871,0.0162647100447888,-0.004293536525112884,-0.033877339906601356,-0.020264033381653182,-0.1420912090947221,0.9976618723532161,-0.009228266641295373,0.006476347041418614,-0.0674068577851799
301.66666666672097,-0.0434507,-0.7902755,-0.009866968,-2.452856,-0.14426567,1.6828882,0.7305277,0.039999586,0.04,-0.011424470712051438,0.01572773424006746,-0.004452045778036151,-0.03465460955058478,-0.0200014702571472,-0.14311238246711946,0.9975746233176572,-0.009532331524799004,0.006538867820364156,-0.06863853710535728
301.6833333333876,-0.044244356,-0.79038185,-0.010047209,-2.4546123,-0.14689237,1.6849245,0.7295184,0.039999586,0.04,-0.011571269623078528,0.015346613179006985,-0.004781658633246089,-0.035438394502641864,-0.01973088855109549,-0.1441162832516562,0.9974851032950851,-0.00984333393817863,0.006599463299730283,-0.06987864169780726
301.7000000000543,-0.04504372,-0.79048896,-0.0102287475,-2.4563813,-0.14953797,1.6869754,0.728502,0.03999958,0.04,-0.011696810875871932,0.01480308681219289,-0.005010976729957761,-0.03622963050108521,-0.019451150988443744,-0.14509604553877933,0.9973932899303841,-0.01016131958542077,0.006657956373906907,-0.0711269597484025
301.7166666667209,-0.045848724,-0.7905969,-0.010411558,-2.4581628,-0.15220219,1.6890408,0.7274784,0.039999556,0.04,-0.010773075781056463,0.01436754843925081,-0.004852090673246323,-0.037028254901463074,-0.019167156858854076,-0.14606204323879793,0.9972991530736415,-0.01048639724756224,0.006714576385745319,-0.07238334901981093
301.7333333333876,-0.046659272,-0.7907055,-0.010595625,-2.4599564,-0.15488477,1.6911203,0.7264477,0.039999545,0.04,-0.010693531581229543,0.013925498669187242,-0.005068808771913069,-0.03783349926616549,-0.01887412477438538,-0.14700687491080938,0.9972026683163319,-0.010818650975146334,0.006769081111034885,-0.07364763835166814
301.75000000005423,-0.047475256,-0.7908148,-0.010780927,-2.4617622,-0.15758541,1.6932137,0.72541016,0.039999537,0.04,-0.01064414065607977,0.013406134743870757,-0.005253058351506468,-0.038644873918470976,-0.018573143858478677,-0.14793039910632513,0.9971038115550712,-0.011158100450395954,0.00682141582655451,-0.07491965071200599
301.7666666667209,-0.04829661,-0.79092497,-0.0109674465,-2.46358,-0.16030374,1.695321,0.7243657,0.039999522,0.04,-0.010122837842962973,0.012907106467494045,-0.00533162782023755,-0.03946255586003352,-0.01826714434508335,-0.14883849724885082,0.9970025592704078,-0.011504869697615553,0.0068716642831734755,-0.0761991798609214
301.78333333338753,-0.04912324,-0.79103583,-0.011155156,-2.4654093,-0.16303962,1.6974419,0.7233146,0.039999504,0.04,-0.009848664716560762,0.012522578660523198,-0.005300260022678138,-0.040285872626404706,-0.017952653271171404,-0.1497260054281879,0.9968988816216061,-0.011858977633400393,0.00691979810787067,-0.07748613337383393
301.8000000000542,-0.049955063,-0.79114723,-0.011344046,-2.4672499,-0.1657926,1.6995759,0.7222569,0.039999496,0.04,-0.00946184554087015,0.011986617468046079,-0.005541818322041259,-0.04111456536483491,-0.017630492244846904,-0.15058914942032878,0.9967927643864671,-0.012220432321441474,0.006965586125476826,-0.07878024187948848
301.81666666672083,-0.050791953,-0.7912594,-0.011534085,-2.469102,-0.16856244,1.7017231,0.72119266,0.039999474,0.04,-0.009505659033504088,0.011465853536093973,-0.005659593412521424,-0.04194896300599284,-0.017301090361885707,-0.15143805054309806,0.9966841791746066,-0.012589399346988026,0.007009115693079655,-0.08008137301722335
301.8333333333875,-0.05163383,-0.7913724,-0.011725254,-2.470965,-0.17134887,1.7038832,0.7201221,0.039999463,0.04,-0.008713610917410186,0.01103001355618749,-0.005734462046813604,-0.0427875722233196,-0.016965808001339663,-0.15226526099554222,0.9965731029725501,-0.01296584212579458,0.007050453885199557,-0.08138936336920627
301.85000000005414,-0.052480604,-0.79148597,-0.011917533,-2.4728386,-0.17415151,1.7060558,0.7190454,0.039999466,0.04,-0.008756239265261812,0.010507645825791334,-0.005783535978731713,-0.04363100396734889,-0.01662188087180211,-0.1530677995452803,0.9964595198219708,-0.013349780098963756,0.007089373808414866,-0.08270398724657205
301.8666666667208,-0.053332187,-0.79160005,-0.012110901,-2.4747233,-0.17697003,1.7082406,0.71796244,0.039999444,0.04,-0.009248775262049591,0.009994081540867783,-0.006150394065840281,-0.04447925168971782,-0.016271100982008707,-0.15385321154020717,0.9963434113214386,-0.013741392117723196,0.007125606565517243,-0.08402503549596944
301.88333333338744,-0.054188475,-0.7917149,-0.012305332,-2.4766176,-0.17980415,1.7104372,0.7168736,0.039999425,0.04,-0.0066754611064867575,0.009564662632460808,-0.00589998741402642,-0.04533099130502218,-0.01591656542467844,-0.1546177192731132,0.9962247521128091,-0.014140528150509105,0.007159673073977506,-0.08535237444190105
301.9000000000541,-0.055049356,-0.7918303,-0.012500804,-2.478523,-0.18265355,1.712646,0.715779,0.039999418,0.04,-0.009660701794533821,0.00895040733206176,-0.006374304013823107,-0.04618748685465752,-0.015552522014931625,-0.15535669110067887,0.9961035303806266,-0.014547341993890121,0.007190906125024306,-0.08668576857400591
301.91666666672074,-0.055914752,-0.7919463,-0.012697299,-2.480438,-0.18551783,1.7148665,0.7146786,0.039999407,0.04,-0.006892754209797403,0.008507556456791021,-0.005902291683801408,-0.047047181690848906,-0.015185569276342972,-0.15607623817692873,0.9959797231578735,-0.014961890368118371,0.007219840517540594,-0.08802503506321048
301.9333333333874,-0.05678456,-0.7920628,-0.012894792,-2.4823623,-0.18839675,1.7170981,0.71357256,0.03999938,0.04,-0.006738921893711947,0.008058420947332223,-0.006209195923623234,-0.04790964025557667,-0.01480985180764352,-0.15677672469573936,0.9958533132865366,-0.01538414530341009,0.007246254570865797,-0.0893700077442366
301.95000000005405,-0.05765866,-0.79218006,-0.01309326,-2.4842968,-0.19128992,1.7193408,0.71246105,0.039999366,0.04,-0.008216780232617182,0.007423596855812842,-0.00687252371731617,-0.04877525232723788,-0.014425812593533968,-0.15745316148993788,0.9957242918563245,-0.015814205515061748,0.007269751583318579,-0.09072042891799782
301.9666666667207,-0.058536965,-0.79229796,-0.0132926805,-2.4862409,-0.19419701,1.7215942,0.71134406,0.039999362,0.04,-0.007165194045288814,0.0069691025247425875,-0.006717792415544821,-0.049643363618744364,-0.01404024033541057,-0.15810576615067695,0.995592639647575,-0.016252135461369163,0.007290458705788502,-0.09207612711435197
301.98333333338735,-0.059419375,-0.79241633,-0.013493024,-2.4881933,-0.19711775,1.7238581,0.710222,0.039999332,0.04,-0.005376118445821199,0.0065463307901719725,-0.0061326233223635285,-0.0505126945524506,-0.013649673277040406,-0.15874107052193825,0.9954583371467932,-0.01669777913755924,0.007308759307736704,-0.09343695850249106
302.000000000054,-0.060305797,-0.79253525,-0.013694273,-2.4901545,-0.20005165,1.7261322,0.7090949,0.039999317,0.04,-0.0062937588688694035,0.005935189939071384,-0.0067211185611038005,-0.05138478758198882,-0.013249953099672002,-0.15935042380815057,0.9953213809791533,-0.017151235706050153,0.007324256631099288,-0.09480263152628296
302.01666666672065,-0.061196107,-0.79265463,-0.013896403,-2.4921246,-0.20299849,1.7284163,0.70796275,0.039999306,0.04,-0.00637059146795238,0.005451009489912395,-0.006709740872112846,-0.05225851030575633,-0.012846133763274883,-0.15993595362537494,0.9951817529964563,-0.01761260482901549,0.007336906341984244,-0.0961729923594267
302.0333333333873,-0.062090203,-0.79277474,-0.01409939,-2.494103,-0.20595789,1.7307101,0.70682573,0.03999929,0.04,-0.0054494720628017745,0.004938675615012711,-0.006880921271767981,-0.05313332893527918,-0.012437095218814406,-0.1605003154227462,0.9950394411254304,-0.018081872663812892,0.007346819261859712,-0.09754783817437694
302.05000000005396,-0.06298798,-0.79289526,-0.01430321,-2.4960897,-0.20892954,1.7330135,0.7056842,0.03999928,0.04,-0.0058533529996962486,0.00444344257633511,-0.006856710786151687,-0.05400859339116665,-0.012022893121162906,-0.1610419401636373,0.99489443760386,-0.018558975175655745,0.007353792433653518,-0.09892696397934864
302.0666666667206,-0.063889325,-0.7930162,-0.014507841,-2.4980845,-0.21191305,1.735326,0.70453817,0.039999258,0.04,-0.005590468548088978,0.0038934837973680914,-0.006975386692253949,-0.05488467176734825,-0.011604145159048285,-0.1615621040847836,0.9947467347009118,-0.019043960458634553,0.007357761467730881,-0.10031014264822753
302.08333333338726,-0.064794146,-0.79313743,-0.014713257,-2.500087,-0.21490811,1.7376475,0.7033872,0.03999925,0.04,-0.0049993001560499906,0.003450971272095371,-0.006819965592663735,-0.05576166708347758,-0.011182014848756375,-0.16205644573426894,0.9945963148530397,-0.019537126102588617,0.007358749184052842,-0.10169719757619126
302.1000000000539,-0.065702334,-0.7932592,-0.014919431,-2.502097,-0.2179143,1.7399775,0.7022323,0.03999923,0.04,-0.004510534269086541,0.0028940865162363494,-0.007111933620418398,-0.05663557356031026,-0.01075572441899389,-0.1625291575028207,0.9944431818978391,-0.02003801482806242,0.007356801379212301,-0.10308789168529112
302.11666666672056,-0.06661378,-0.7933816,-0.015126339,-2.5041144,-0.22093129,1.7423159,0.7010734,0.039999213,0.04,-0.004895185171616134,0.00235603244134186,-0.007271073451331489,-0.05751065805009782,-0.010325710166846275,-0.16297864669622458,0.9942873269467138,-0.02054676673586942,0.007351820623422426,-0.1044820203833239
302.1333333333872,-0.06752836,-0.7935044,-0.015333958,-2.5061374,-0.2239587,1.7446626,0.6999106,0.039999202,0.04,-0.0013565992327491116,0.001941737180394254,-0.005976020101972068,-0.058385167582292334,-0.009891515854133351,-0.16340364726271608,0.9941287301819237,-0.02106332531365254,0.007344750069122335,-0.10587945409771155
302.15000000005386,-0.068445995,-0.7936276,-0.0155422585,-2.5081675,-0.22699614,1.7470171,0.69874376,0.039999187,0.04,-0.004663710694430279,0.0013308022616398407,-0.00737997977628968,-0.05925849381619897,-0.00944498214381835,-0.16380375460089477,0.9939674044341623,-0.021587867135131292,0.007334403871561056,-0.10727986500186781
302.1666666667205,-0.06936657,-0.7937512,-0.015751224,-2.5102043,-0.23004326,1.7493789,0.69757307,0.03999916,0.04,-0.004032094493089389,0.0008580488624621019,-0.007418024348182506,-0.06012964295976842,-0.008998564060216985,-0.16418448821886975,0.9938033451924998,-0.022120372275267416,0.007320786097546184,-0.10868305436228132
302.18333333338717,-0.07028991,-0.793875,-0.015960827,-2.5122473,-0.23309974,1.7517481,0.69639903,0.039999142,0.04,-0.0033388782846532905,0.00031796838861897214,-0.006951605446281484,-0.06099838491441921,-0.00855000181414002,-0.16453742130578897,0.9936365475598885,-0.022660675347519026,0.007304163662860515,-0.11008884747896061
302.2000000000538,-0.07121601,-0.79399925,-0.016171042,-2.5142965,-0.23616523,1.7541242,0.6952214,0.039999124,0.04,-0.003274602519742764,-8.970039815925368e-05,-0.007389822293690784,-0.06186530190536191,-0.008097102355369867,-0.1648687211307313,0.9934670083520097,-0.023208893717320676,0.007284401907400995,-0.11149703160791971
302.21666666672047,-0.072144665,-0.7941238,-0.016381836,-2.516352,-0.23923935,1.7565066,0.69404054,0.03999911,0.04,-0.0037320557188635917,-0.0006947434597615043,-0.007706364873438787,-0.0627291227443228,-0.007642553604496893,-0.16517493943633327,0.993294733331508,-0.02376498560267743,0.007261141946773424,-0.1129073691696942
302.2333333333871,-0.0730758,-0.79424894,-0.01659319,-2.518412,-0.24232167,1.7588953,0.69285655,0.039999083,0.04,-0.0010171066786801575,-0.001127223296504276,-0.006872055272233446,-0.06358970590759053,-0.0071894297917523,-0.16545951083924235,0.9931197150993237,-0.02432881133520617,0.007235224329339425,-0.11431969186871625
302.2500000000538,-0.07400931,-0.79437435,-0.016805075,-2.5204778,-0.24541186,1.7612904,0.6916695,0.039999068,0.04,-0.002563191085580563,-0.0016813104496637976,-0.007100700774764768,-0.06444709578606687,-0.006728079013853472,-0.16571667082610098,0.9929419581170804,-0.024900486091063215,0.007206246141191707,-0.11573376179663199
302.2666666667204,-0.07494508,-0.79450005,-0.01701747,-2.5225487,-0.24850953,1.7636912,0.69047964,0.039999053,0.04,-0.0024884752472642546,-0.0021499563308657876,-0.007526248242428757,-0.06530029905418591,-0.006265178226311993,-0.16595397908154752,0.992761472247015,-0.025479925236595844,0.007173930867385719,-0.11714933780344884
302.2833333333871,-0.07588301,-0.794626,-0.017230347,-2.524624,-0.2516143,1.7660977,0.6892868,0.039999038,0.04,-0.0013274769171900402,-0.0026167404407306805,-0.006918418968115958,-0.0661492217942512,-0.0058013834390081565,-0.1661633205080196,0.9925782518580043,-0.02606719085867828,0.007138666911875025,-0.11856624702657508
302.3000000000537,-0.07682295,-0.7947524,-0.017443674,-2.5267038,-0.25472584,1.7685089,0.6880916,0.03999902,0.04,-0.0010129478681841775,-0.0031072053344294304,-0.007495737529472635,-0.06699208509116579,-0.005335058265189888,-0.1663507039941251,0.9923923082767138,-0.026662050098868326,0.007100257888642219,-0.11998428186915132
302.3166666667204,-0.07776479,-0.79487896,-0.017657436,-2.5287879,-0.25784367,1.7709252,0.6868939,0.039998997,0.04,-0.0014367077965316,-0.003686341190500819,-0.007130241719055519,-0.06783117336296343,-0.0048667553780821216,-0.16651458382239534,0.9922036530328283,-0.027264592478874694,0.007058664219333216,-0.12140316373435418
302.33333333338703,-0.078708455,-0.7950057,-0.017871598,-2.5308762,-0.2609674,1.7733464,0.68569386,0.039998982,0.04,-0.0014444476500896641,-0.0041622182792855345,-0.007107099476533207,-0.06866468038494958,-0.004397425318895629,-0.16665185618858808,0.9920122934110461,-0.02787479440696696,0.0070139354381852335,-0.12282267814941489
302.3500000000537,-0.07965376,-0.79513276,-0.018086141,-2.5329678,-0.2640967,1.7757717,0.68449175,0.039998956,0.04,5.3782939102298144e-05,-0.004606965095410587,-0.007184043855601452,-0.06949165613410607,-0.003926058499019142,-0.16676756648247576,0.9918182345706643,-0.028492505261765357,0.006966191123530292,-0.12424266134572982
302.36666666672033,-0.08060066,-0.7952599,-0.018301034,-2.5350626,-0.26723135,1.7782013,0.6832876,0.039998934,0.04,0.00015207301977682164,-0.004944228874914636,-0.00670068546688718,-0.070312651852266,-0.003452574507276193,-0.16685995409779358,0.9916214744068231,-0.029117751791613546,0.006915531253011893,-0.1256629756663779
302.383333333387,-0.08154899,-0.79538727,-0.018516252,-2.5371606,-0.27037075,1.7806345,0.6820816,0.039998926,0.04,-0.0004111581852983548,-0.0055999745161516845,-0.007360335304040788,-0.07112651242734268,-0.0029763170434425196,-0.16692451561305746,0.9914220420325605,-0.029750489347754715,0.006861611706530253,-0.12708328466146068
302.40000000005364,-0.08249867,-0.79551476,-0.018731777,-2.5392625,-0.27351463,1.7830709,0.68087393,0.0399989,0.04,-0.0015814388238943877,-0.006031899485292591,-0.007831877579267399,-0.07193354301799079,-0.0025001438984451063,-0.16696853490538582,0.9912199563275237,-0.030390631394272016,0.0068039982734605115,-0.12850335913513788
302.4166666667203,-0.08344957,-0.79564244,-0.018947568,-2.5413663,-0.2766626,1.785511,0.67966473,0.03999888,0.04,0.0019196199765758593,-0.006428858128348924,-0.006184554917387786,-0.07273354245724457,-0.0020286504869143906,-0.16698879611920472,0.9910152053834036,-0.031038100238119072,0.00674392154752319,-0.12992312555761354
302.43333333338694,-0.08440158,-0.79577035,-0.01916361,-2.5434732,-0.2798143,1.7879535,0.67845404,0.03999886,0.04,-0.0006288544385224526,-0.006920298516432943,-0.007869667082993637,-0.0735250606787469,-0.0015510458608556515,-0.1669847163617295,0.9908078228181556,-0.031692910952395584,0.006680203854626289,-0.1313422723808688
302.4500000000536,-0.08535458,-0.79589826,-0.01937987,-2.5455816,-0.2829692,1.7903985,0.67724204,0.039998837,0.04,0.0019556017419430916,-0.007379001957763531,-0.006525460704986941,-0.07430889580346195,-0.0010791171465591998,-0.16695567964848804,0.9905978214763612,-0.03235490032443981,0.006613652738565024,-0.13276059697341097
302.46666666672024,-0.08630841,-0.7960263,-0.019596322,-2.5476916,-0.28612706,1.7928461,0.6760291,0.039998814,0.04,0.0016421209891870348,-0.007864696747750255,-0.006535129819096319,-0.0750837206828315,-0.0006039349402778144,-0.16690305936918548,0.9903852107631609,-0.03302398703184959,0.006544317255249783,-0.13417795084808892
302.4833333333869,-0.08726301,-0.7961545,-0.01981294,-2.5498035,-0.28928742,1.795295,0.6748152,0.039998796,0.04,0.0007497380382526231,-0.008278204289507984,-0.007604813281902878,-0.0758496297220966,-0.00012583275095770508,-0.16682615959818015,0.9901700267569719,-0.03370010043974208,0.006471491895007477,-0.13559403060275907
302.50000000005355,-0.08821825,-0.7962829,-0.020029694,-2.5519168,-0.2924499,1.7977458,0.6736004,0.039998777,0.04,0.0016886743559485495,-0.008766354351430472,-0.006756907798077805,-0.07660719530349056,0.0003475602474406897,-0.16672494385114564,0.9899522758419573,-0.03438325480637697,0.006395741533060934,-0.13700867795322724
302.5166666667202,-0.089173995,-0.79641134,-0.020246567,-2.5540323,-0.29561403,1.8001981,0.67238504,0.039998755,0.04,1.529656961096748e-05,-0.009330099194937436,-0.007443098738546539,-0.07735478889417002,0.0008209510757027222,-0.16660204865309985,0.9897319998071479,-0.03507333331368333,0.006316484468584817,-0.1384215730006316
302.53333333338685,-0.090130165,-0.79653996,-0.020463524,-2.556148,-0.29877967,1.8026512,0.671169,0.039998736,0.04,0.0032604194923901986,-0.009433309672152168,-0.0065801871983239835,-0.0780923060615979,0.0012891855467931645,-0.16645421772788893,0.9895091861746464,-0.035770266989086884,0.006234428086996386,-0.13983272285822873
302.5500000000535,-0.09108661,-0.7966686,-0.020680541,-2.558264,-0.30194616,1.8051051,0.6699527,0.039998718,0.04,0.0029054178614984494,-0.010078886818842836,-0.006400615424273504,-0.0788188362872819,0.001757652996611736,-0.16628542270221927,0.9892838813584877,-0.036473846195631855,0.006149568912007941,-0.1412417906647298
302.56666666672015,-0.09204322,-0.7967972,-0.020897591,-2.5603814,-0.3051133,1.8075594,0.6687362,0.039998695,0.04,0.000559471909600262,-0.010530705230427095,-0.007450693843891187,-0.07953533758302082,0.0022279473379894638,-0.1660922795849531,0.9890561146928554,-0.037184135158946995,0.006061123264751223,-0.1426485361506524
302.5833333333868,-0.09299989,-0.7969258,-0.021114644,-2.5624988,-0.3082806,1.8100138,0.66751975,0.039998673,0.04,0.002820861499586158,-0.010863941937305777,-0.006551695982337513,-0.08024081475415762,0.0026899695742601815,-0.16587517165215332,0.9888259047009093,-0.03790093125018307,0.005969698762453842,-0.1440528108003545
302.60000000005346,-0.093956456,-0.7970544,-0.021331673,-2.5646155,-0.31144768,1.812468,0.6663033,0.03999865,0.04,0.004034561599408626,-0.011285835093216567,-0.006163624208621599,-0.08093512349504282,0.0031501882513829543,-0.16563621328251257,0.988593268071945,-0.038624190601850836,0.005875630127460541,-0.14545445745589425
302.6166666667201,-0.09491285,-0.7971831,-0.021548659,-2.5667312,-0.31461418,1.814922,0.66508704,0.03999864,0.04,0.004265161204020096,-0.011633031659513682,-0.0060828942531010455,-0.08161700604134636,0.0036115661051314973,-0.1653708010243225,0.9883582351094129,-0.03935374500261096,0.0057789720856987635,-0.14685327823139932
302.63333333338676,-0.09586895,-0.79731154,-0.021765575,-2.5688467,-0.31777972,1.817375,0.6638712,0.03999861,0.04,0.0023478143767130533,-0.012082863095413954,-0.006795683575067102,-0.08228640086525156,0.004072645563780786,-0.16508757233975244,0.9881208502781873,-0.04008955536966131,0.005678991514493952,-0.1482489860037941
302.6500000000534,-0.09682462,-0.79744005,-0.021982387,-2.5709615,-0.32094392,1.8198268,0.66265595,0.039998587,0.04,0.0033835319596109414,-0.012511668323289538,-0.006534328846208304,-0.08294418840502979,0.004527996541739632,-0.16477863156205172,0.9878811351272072,-0.04083151709651984,0.005576064971398263,-0.14964142999454344
302.66666666672006,-0.09777976,-0.7975685,-0.02219907,-2.5730739,-0.3241063,1.8222775,0.6614413,0.03999856,0.04,0.006027114304041348,-0.012796575992446435,-0.0053368120440877576,-0.08358870350142679,0.004978403048188557,-0.16444744905474695,0.9876391116562753,-0.04157942184270475,0.005470948648854293,-0.15103047880117232
302.6833333333867,-0.098734245,-0.7976969,-0.022415606,-2.5751853,-0.32726654,1.8247262,0.66022754,0.03999854,0.04,0.0031101022481383467,-0.01326523351723452,-0.006806861720076718,-0.08421988625783094,0.00543317615182469,-0.164095197935889,0.9873948341936759,-0.042333238573458415,0.005362592517491363,-0.15241581584933095
302.70000000005336,-0.09968793,-0.7978252,-0.02263196,-2.577295,-0.3304243,1.8271734,0.65901476,0.039998524,0.04,0.00442604203767516,-0.013662996850455356,-0.005834492903411537,-0.08483800881345244,0.005880408289780259,-0.16371706285133714,0.987148316964697,-0.043092884124961886,0.005251643093011771,-0.15379734684441798
302.71666666672,-0.10064074,-0.7979534,-0.022848109,-2.5794027,-0.33357918,1.829618,0.65780294,0.039998498,0.04,0.0047606659060894785,-0.013917016114728398,-0.006086730720444855,-0.08544169060934761,0.006324670593853693,-0.16332193119665817,0.986899600432114,-0.04385824699381336,0.005137878173486868,-0.15517485313490054
302.73333333338667,-0.10159253,-0.79808146,-0.02306402,-2.5815089,-0.3367307,1.83206,0.6565927,0.039998475,0.04,0.0032440890693763436,-0.014485665578894968,-0.006509530076970194,-0.08603086273864832,0.006765798829478531,-0.16290216316312883,0.9866487476777405,-0.044629057506746436,0.005020973278882295,-0.1565480301994842
302.7500000000533,-0.10254322,-0.7982095,-0.023279676,-2.5836124,-0.3398784,1.8344994,0.6553835,0.039998453,0.04,0.005433237163976479,-0.014750329568768983,-0.00563009898202349,-0.0866072924484528,0.00719749443474732,-0.16246156041516469,0.9863957675847758,-0.045405467918472636,0.004901603396315384,-0.15791677383384817
302.76666666671997,-0.10349268,-0.79833716,-0.02349504,-2.5857131,-0.34302202,1.8369354,0.65417606,0.03999843,0.04,0.005093770992004032,-0.015038198030237204,-0.005751838789058716,-0.08716673766478455,0.0076277868550461425,-0.16199884538523285,0.986140715136388,-0.046187076988403505,0.0047794658329986806,-0.1592808857832971
302.7833333333866,-0.10444074,-0.7984647,-0.023710102,-2.5878098,-0.34616122,1.8393677,0.6529703,0.039998405,0.04,0.007258951151767334,-0.0152596456702625,-0.0051208725142304345,-0.08771198608202538,0.00805129026065575,-0.16151609054961077,0.9858836071742637,-0.04697374626756245,0.004655134703369457,-0.16064031246093308
302.8000000000533,-0.105387345,-0.79859215,-0.023924818,-2.5899036,-0.3492956,1.8417964,0.6517664,0.039998382,0.04,0.005012362535428139,-0.015758836568630086,-0.005824088265860006,-0.08824209762092065,0.0084741364261509,-0.1610103256519354,0.9856244994761837,-0.04776547956245671,0.0045280967805855395,-0.1619947571189776
302.8166666667199,-0.10633236,-0.79871935,-0.024139168,-2.5919943,-0.35242477,1.8442209,0.6505647,0.039998353,0.04,0.005016955909109555,-0.016064293631024018,-0.005840769287623893,-0.08875654481505943,0.00889155932290886,-0.16048668654125717,0.9853634394475442,-0.048562067963663885,0.004398257857673426,-0.16334403289687538
302.8333333333866,-0.10727566,-0.7988463,-0.024353124,-2.594081,-0.35554823,1.8466413,0.64936507,0.03999833,0.04,0.006589726880568136,-0.016448553805203936,-0.0049442790507781,-0.08925561699977134,0.00930058456829888,-0.15993833080877132,0.9851004655873893,-0.04936340401702482,0.0042662102599623376,-0.16468796705703379
302.8500000000532,-0.10821715,-0.79897296,-0.024566662,-2.596164,-0.35866576,1.8490568,0.6481679,0.039998308,0.04,0.0053059693143175934,-0.016661415225294185,-0.0057550686020757524,-0.08973814738014813,0.009706475876238019,-0.1593728975913753,0.9848356285485926,-0.0501692998976878,0.0041313563597177114,-0.16602637737330556
302.8666666667199,-0.109156705,-0.7990995,-0.024779761,-2.5982423,-0.36177695,1.8514674,0.6469731,0.039998285,0.04,0.007455623098495678,-0.016910320964214076,-0.0049173845777295,-0.09020523390935173,0.010103498352459855,-0.15878649095467728,0.9845689546339966,-0.05097965584992238,0.003994358100231118,-0.16735917472224088
302.88333333338653,-0.11009424,-0.7992258,-0.024992391,-2.600316,-0.3648813,1.8538728,0.64578086,0.039998263,0.04,0.006704873163476677,-0.017303483883335247,-0.005005484117992509,-0.09065461328245175,0.01049646732548204,-0.15817727203551196,0.9843005075373,-0.051794289172683416,0.0038550750582619503,-0.1686861015828074
302.9000000000532,-0.11102961,-0.79935163,-0.025204526,-2.6023858,-0.3679786,1.8562727,0.64459145,0.039998244,0.04,0.005359830504825247,-0.017628147531500993,-0.005388729001620796,-0.09108747328020185,0.010885506071027007,-0.15755045201316953,0.9840303349211633,-0.05261314798759195,0.003713059033969038,-0.17000696987591216
302.91666666671983,-0.11196265,-0.7994774,-0.025416136,-2.6044502,-0.37106833,1.8586668,0.6434048,0.039998215,0.04,0.007692624802557724,-0.017932827939953766,-0.004770571108148047,-0.09150317478116113,0.011262435287115971,-0.1569058064977275,0.9837584743813185,-0.05343605707294173,0.003568985946615273,-0.17132166887685582
302.9333333333865,-0.11289333,-0.7996027,-0.025627207,-2.606509,-0.37415028,1.8610548,0.6422213,0.0399982,0.04,0.00787842175338227,-0.017981648143883255,-0.004380702442197126,-0.09190014073379643,0.011634637210484564,-0.15623835735183103,0.9834849715788593,-0.054262725508343636,0.0034228511818511324,-0.17263009989200476
302.95000000005314,-0.113821514,-0.7997277,-0.0258377,-2.6085618,-0.37722394,1.8634361,0.6410409,0.039998166,0.04,0.00816140866748416,-0.018326236952220798,-0.004547022928180766,-0.09228010188104946,0.012002372355583685,-0.15555472078504445,0.9832098858005526,-0.055093014305809665,0.003274640581018792,-0.17393204698338138
302.9666666667198,-0.11474706,-0.79985243,-0.026047599,-2.6106095,-0.38028896,1.8658106,0.6398639,0.03999814,0.04,0.006364876246256479,-0.018781608907514347,-0.005174230421323145,-0.09264273525011739,0.012363650714631774,-0.15485179179256672,0.9829332795681625,-0.05592688461325667,0.0031239509242784467,-0.17522725936752803
302.98333333338644,-0.11566989,-0.79997665,-0.026256874,-2.612651,-0.38334495,1.8681784,0.6386904,0.039998125,0.04,0.00800403550158535,-0.01890688797718254,-0.004111430462083732,-0.09298752115585572,0.012714044410848863,-0.15412787526147254,0.9826551959666667,-0.05676409906841296,0.0029712956890765563,-0.17651564887734872
303.0000000000531,-0.1165899,-0.8001005,-0.026465503,-2.614686,-0.38639158,1.870539,0.6375205,0.0399981,0.04,0.008823505192290249,-0.019087329627154315,-0.003941733300960593,-0.0933134389933766,0.013058040959395459,-0.15338785580603678,0.9823756782429094,-0.057604489336570884,0.002816887374890733,-0.1777971168230068
303.01666666671974,-0.11750693,-0.8002242,-0.02667346,-2.6167147,-0.38942844,1.8728919,0.63635427,0.039998062,0.04,0.007886628965891873,-0.019479772222524838,-0.00452022588059986,-0.0936206894311514,0.01339730841921237,-0.15263063164581778,0.9820947929956283,-0.05844794774307145,0.0026604372953971354,-0.17907143001856657
303.0333333333864,-0.11842092,-0.8003474,-0.026880715,-2.618736,-0.39245525,1.875237,0.63519186,0.039998043,0.04,0.00947668645836508,-0.019477384724775337,-0.0036304601660930302,-0.09390934521071304,0.01372734742023847,-0.15185394816346184,0.9818125768184881,-0.059294245166576345,0.002502328780018706,-0.1803385561710062
303.05000000005305,-0.11933175,-0.80046993,-0.027087253,-2.6207511,-0.39547163,1.8775738,0.6340335,0.039998025,0.04,0.006889340522664433,-0.01990120298845932,-0.004554241213750032,-0.09417845754699,0.014051412815096878,-0.15105910303291842,0.9815291126694788,-0.060143313533293684,0.0023418239810275056,-0.18159817917573728
303.0666666667197,-0.120239295,-0.80059224,-0.027293041,-2.622759,-0.39847705,1.8799026,0.6328794,0.039997995,0.04,0.008948088009952393,-0.020182877364932628,-0.003739111982636878,-0.0944289336165872,0.014363506334570592,-0.15025056885816612,0.9812444541559192,-0.06099486869512882,0.0021797430530141257,-0.18285020071451627
303.08333333338635,-0.12114347,-0.8007142,-0.027498059,-2.6247592,-0.40147138,1.8822225,0.6317295,0.03999796,0.04,0.009775726208327562,-0.020124902192220073,-0.003579056666636049,-0.09465976911653902,0.014668354450198318,-0.14942588686524408,0.9809586338361616,-0.06184875253279786,0.002016076660937525,-0.18409461140219582
303.100000000053,-0.122044146,-0.8008355,-0.027702283,-2.6267517,-0.40445417,1.8845334,0.6305842,0.039997958,0.04,0.008775975514896395,-0.02044466240827547,-0.0036959180771845013,-0.09487160115499495,0.014966843815559641,-0.14857733940916185,0.9806717342799526,-0.06270475081451422,0.0018505637555965558,-0.18533116096173977
303.11666666671965,-0.122941226,-0.80095637,-0.027905688,-2.628736,-0.40742508,1.8868349,0.6294433,0.039997928,0.04,0.009661707375552275,-0.020601044098222943,-0.0035285183381139618,-0.09506435284572816,0.01525390803688921,-0.14771727405223367,0.9803837999125601,-0.063562784723184,0.0016834309321171143,-0.18655975806036065
303.1333333333863,-0.123834595,-0.8010769,-0.028108243,-2.630712,-0.41038364,1.8891271,0.6283073,0.039997894,0.04,0.01008619484352824,-0.02090174191866634,-0.003040577725998972,-0.09523683023473326,0.015533472887027513,-0.1468408356641002,0.9800949010043759,-0.06442253924283763,0.0015150640908949964,-0.1877802599943034
303.15000000005296,-0.12472414,-0.80119663,-0.028309936,-2.6326792,-0.41332963,1.8914099,0.627176,0.039997872,0.04,0.01022960873489076,-0.02095351674309409,-0.0027039777527049225,-0.09538995759334738,0.01580618631282603,-0.14594908047598992,0.9798050807908842,-0.06528400710764411,0.0013453661889871202,-0.18899257144701606
303.1666666667196,-0.12560977,-0.8013161,-0.028510736,-2.634638,-0.41626278,1.8936824,0.6260496,0.039997842,0.04,0.009599352299849429,-0.021143440981780115,-0.0035558645608002593,-0.09552190397917107,0.016072004163748488,-0.14504246732960824,0.979514403921017,-0.06614697996581174,0.0011740751440968745,-0.1901965591177017
303.18333333338626,-0.1264914,-0.80143493,-0.02871062,-2.6365883,-0.4191825,1.8959442,0.6249283,0.039997816,0.04,0.009386285391532745,-0.02138378564380261,-0.0034284160522535245,-0.09563368619876383,0.016326978059335084,-0.14411503707451861,0.9792229632037694,-0.06701119928036758,0.001001099420180233,-0.1913919677138693
303.2000000000529,-0.12736888,-0.8015532,-0.028909562,-2.6385298,-0.4220887,1.8981959,0.6238123,0.039997783,0.04,0.009853162946349414,-0.021521991388701034,-0.0028322998520513565,-0.09572605099577583,0.01657002486296695,-0.14317871894105882,0.9789307888558245,-0.06787656643913063,0.0008268089131615906,-0.19257881177733024
303.21666666671956,-0.12824216,-0.80167097,-0.029107545,-2.640461,-0.42498082,1.9004365,0.62270194,0.039997768,0.04,0.01214395513069455,-0.021517409633275975,-0.0022029294392655885,-0.09579778909759447,0.016803142661230966,-0.14222577341736897,0.9786379632810666,-0.06874257715744071,0.0006517119971529478,-0.19375698744125813
303.2333333333862,-0.12911107,-0.8017882,-0.029304544,-2.642383,-0.42785865,1.9026662,0.6215969,0.039997738,0.04,0.009857804042856522,-0.021889058490465185,-0.0028901120844526673,-0.09585027734493143,0.01703209771980918,-0.14125749513458102,0.9783445328288505,-0.06960949419619027,0.0004752552698439701,-0.19492631308799027
303.25000000005286,-0.12997557,-0.8019047,-0.029500535,-2.6442955,-0.4307219,1.9048845,0.6204974,0.039997708,0.04,0.010591718570007735,-0.021799946554784677,-0.0025463902882272293,-0.09588122955807957,0.017248805235484943,-0.14027848352056677,0.9780505659287777,-0.07047696098040597,0.00029752724010559834,-0.19608671534529137
303.2666666667195,-0.13083558,-0.8020208,-0.0296955,-2.6461976,-0.4335702,1.907091,0.61940384,0.039997682,0.04,0.011724101448074009,-0.02193083833255116,-0.002321873520849671,-0.09589143880094864,0.017454660907249148,-0.13928357619673334,0.9777561297753831,-0.07134463182517024,0.00011895001665510467,-0.1972381303077294
303.28333333338617,-0.13169093,-0.8021361,-0.02988941,-2.6480896,-0.43640321,1.9092855,0.61831605,0.039997656,0.04,0.0105772630947909,-0.02215132838631617,-0.002493551716908904,-0.09588235303404757,0.01765230412283507,-0.13827736503313037,0.977461291817552,-0.07221254353893587,-6.089418534467691e-05,-0.19838036154291605
303.3000000000528,-0.13254157,-0.8022508,-0.030082244,-2.6499715,-0.4392205,1.9114686,0.6172343,0.03999763,0.04,0.011187738959850257,-0.022397598035239774,-0.001771518519477766,-0.09585212094807458,0.0178376848364713,-0.1372550235420129,0.9771661192362774,-0.07308049108312394,-0.00024143573549032782,-0.19951330519178034
303.31666666671947,-0.13338736,-0.802365,-0.030273981,-2.651842,-0.44202185,1.9136386,0.6161587,0.039997607,0.04,0.012489472861720863,-0.022171102560064604,-0.002178018649034996,-0.0957999050305711,0.018015382476546757,-0.1362215910629922,0.9768706748157486,-0.07394805074760832,-0.00042286344100301063,-0.20063696484487398
303.3333333333861,-0.13422821,-0.8024784,-0.0304646,-2.653702,-0.44480696,1.9157965,0.61508936,0.039997578,0.04,0.01144177552043768,-0.022507810724714528,-0.001520823345457778,-0.09572870631095262,0.01818222914435838,-0.13517545135233114,0.9765750141074334,-0.07481532732189046,-0.0006049744662338973,-0.20175118989656454
303.3500000000528,-0.13506413,-0.80259115,-0.030654082,-2.6555507,-0.44757563,1.9179413,0.6140263,0.03999756,0.04,0.012145934354879095,-0.022314095459485817,-0.0019033501720722157,-0.09563555632464596,0.01834158685182498,-0.1341159870443973,0.9762792019917879,-0.07568197243986947,-0.0007878786058547535,-0.20285595395055842
303.3666666667194,-0.13589488,-0.80270314,-0.030842397,-2.6573882,-0.45032725,1.9200732,0.61296976,0.039997526,0.04,0.01179766628129908,-0.022752262925196387,-0.0015764710936672088,-0.09552186364944988,0.018488845863357695,-0.13304878302105216,0.9759833321749203,-0.07654785863848967,-0.0009714743501706149,-0.2039510159135959
303.3833333333861,-0.1367205,-0.80281454,-0.031029535,-2.659214,-0.45306164,1.9221913,0.61191994,0.0399975,0.04,0.012553466779285927,-0.022527357285584415,-0.0016967011883473049,-0.09538700801866593,0.018626410568160723,-0.1319662489414573,0.9756874695683319,-0.07741260307400642,-0.0011557182108434829,-0.20503637464622937
303.4000000000527,-0.13754074,-0.8029251,-0.031215476,-2.6610284,-0.45577854,1.9242963,0.61087674,0.03999748,0.04,0.011935935501572459,-0.022883719127220203,-0.0011865693267942845,-0.09523323717799081,0.01875334168171082,-0.1308713651332475,0.97539165895237,-0.07827635706008232,-0.0013404711268964068,-0.20611192762357047
303.4166666667194,-0.13835569,-0.8030349,-0.03140019,-2.6628306,-0.45847762,1.9263872,0.6098404,0.03999746,0.04,0.012874810721141827,-0.022627051087797945,-0.0012865977711218335,-0.09505676357646212,0.018869320283783908,-0.1297728434904142,0.9750959844308483,-0.07913865868418331,-0.0015257429445533067,-0.20717761934381432
303.43333333338603,-0.1391651,-0.80314416,-0.031583652,-2.6646209,-0.46115866,1.928464,0.608811,0.039997444,0.04,0.012645007883982373,-0.022888604864435003,-0.0013219917330831166,-0.0948606513512203,0.018975925096254162,-0.12865597961303288,0.974800498073764,-0.07999944219565273,-0.0017114369208705152,-0.20823340074827543
303.4500000000527,-0.13996895,-0.8032527,-0.03176585,-2.6663988,-0.4638212,1.9305264,0.6077886,0.03999741,0.04,0.012992315580584446,-0.022895781909793023,-0.0011527887698425943,-0.09464347492254432,0.019071453800221592,-0.12753310136513019,0.9745052880679673,-0.08085848163561221,-0.0018975590208164888,-0.20927911683900485
303.46666666671933,-0.14076713,-0.80336046,-0.03194676,-2.668164,-0.4664652,1.9325745,0.60677356,0.03999738,0.04,0.013423643661436557,-0.022858569975259257,-0.0005615517131296599,-0.09440576257727029,0.019155827213242917,-0.12640253480475458,0.9742103935831743,-0.08171556812530693,-0.0020837584566947716,-0.21031484234634784
303.483333333386,-0.1415596,-0.80346745,-0.03212637,-2.6699166,-0.46909013,1.934608,0.6057657,0.039997365,0.04,0.013113493272465249,-0.022972548615884936,-0.0007951385412097167,-0.09414744423644236,0.01923087769148612,-0.12525671653010267,0.9739159107705019,-0.08257055823680488,-0.0022701885034271552,-0.21134036033064132
303.50000000005264,-0.14234625,-0.8035735,-0.032304663,-2.6716564,-0.4716958,1.9366263,0.6047652,0.039997347,0.04,0.013108393203298263,-0.02293269859560132,-0.0007780882116614762,-0.09386838366167916,0.019295810939899766,-0.1241041298219296,0.9736219017623879,-0.08342327566494598,-0.002456970908361131,-0.21235562808618186
303.5166666667193,-0.143127,-0.8036788,-0.032481622,-2.6733835,-0.4742819,1.9386296,0.6037721,0.039997313,0.04,0.01289023320822924,-0.02308577118630417,-0.0007976400677955908,-0.09356899247524295,0.019349008779092437,-0.12294577382182445,0.9733284389504746,-0.08427357099662028,-0.002643955783236784,-0.21336055085119723
303.53333333338594,-0.14390174,-0.80378354,-0.03265721,-2.6750968,-0.47684819,1.9406173,0.6027867,0.039997295,0.04,0.014901425570279514,-0.02290200270407272,-0.00020001131970648345,-0.09324849108644567,0.0193904693465591,-0.12177388878832687,0.9730355791299902,-0.0851210428360657,-0.002830716444994677,-0.21435521187522671
303.5500000000526,-0.14467038,-0.8038873,-0.03283142,-2.676797,-0.47939432,1.9425896,0.6018092,0.039997272,0.04,0.013164870111048721,-0.023137843024045868,-0.0003670117981524612,-0.09290883458436029,0.019422356388854083,-0.12059685023031531,0.9727434118961316,-0.08596564754590895,-0.003017544730275849,-0.21533939834244528
303.56666666671924,-0.14543289,-0.80399036,-0.033004235,-2.678483,-0.48192018,1.9445463,0.6008399,0.039997246,0.04,0.015027573182835319,-0.022887449002928495,0.00025102654994668683,-0.09254888097712533,0.0194449320585431,-0.11941251690979596,0.9724519870102988,-0.08680695929305939,-0.003203898979464888,-0.2163132446461473
303.5833333333859,-0.14618914,-0.80409247,-0.033175636,-2.6801555,-0.48442534,1.946487,0.5998782,0.039997227,0.04,0.013610920939921556,-0.023097215208234267,-0.00026743635626047535,-0.09217014029654651,0.019459193655549212,-0.1182171032722939,0.9721613773667575,-0.08764522461875325,-0.003390326560895701,-0.2172764981393708
303.60000000005255,-0.14693908,-0.80419385,-0.033345606,-2.6818144,-0.48690963,1.9484112,0.59892434,0.03999719,0.04,0.013757359249999546,-0.023021887869867363,-0.0003837313277132992,-0.09177052637483725,0.01946165051733608,-0.11701528858959165,0.9718716486597645,-0.08848015305801067,-0.00357673825667695,-0.2182291639300893
303.6166666667192,-0.14768259,-0.8042942,-0.03351412,-2.683459,-0.48937282,1.9503194,0.5979784,0.039997164,0.04,0.014687663423096353,-0.02302451482681933,0.0005591314907071876,-0.09135056681425696,0.01945136440456372,-0.11580872404427718,0.9715828492164097,-0.08931162659308792,-0.0037627414430909216,-0.21917126235127748
303.63333333338585,-0.14841977,-0.8043939,-0.03368117,-2.6850889,-0.49181464,1.9522107,0.59704095,0.03999714,0.04,0.01554714255675993,-0.022667157834521667,0.00029167978772282055,-0.0909093264376376,0.019430372490894333,-0.11459431518117304,0.9712950802545974,-0.09013901567308642,-0.00394826549037898,-0.22010278536701777
303.6500000000525,-0.1491504,-0.8044926,-0.033846736,-2.6867054,-0.4942347,1.9540854,0.59611195,0.03999712,0.04,0.012694465587115289,-0.02321941550681439,-0.00032115943324750873,-0.09045106048390072,0.019403423444309724,-0.11336910192829566,0.9710084342256313,-0.09096250458370263,-0.004133821869207241,-0.22102342622288138
303.66666666671915,-0.14987442,-0.8045904,-0.034010813,-2.6883063,-0.49663308,1.955943,0.5951911,0.039997086,0.04,0.016465927412356862,-0.022630825540748134,0.0010991355239964307,-0.08997351071715087,0.019360085761745367,-0.1121451567686825,0.9707228993240515,-0.09178187218749617,-0.004318598369578694,-0.22193352692594187
303.6833333333858,-0.15059175,-0.80468726,-0.034173362,-2.689892,-0.49900925,1.9577838,0.59427893,0.03999706,0.04,0.015904928793997186,-0.022882792987954925,0.0012325725877948557,-0.08947581011477311,0.01930951449548802,-0.11090995635626351,0.9704385885217764,-0.0925968164462961,-0.0045024750273298785,-0.22283290423656293
303.70000000005246,-0.15130234,-0.8047833,-0.034334388,-2.6914628,-0.5013631,1.9596072,0.5933754,0.039997038,0.04,0.015382678751985068,-0.022751116118346904,0.0006848072694909391,-0.08895914171139994,0.019251978606258366,-0.10967147762545457,0.9701555667817998,-0.09340719152768996,-0.004685740424291503,-0.22372151584027516
303.7166666667191,-0.15200612,-0.80487835,-0.03449386,-2.693019,-0.50369436,1.961413,0.59248024,0.039997015,0.04,0.014233632970261922,-0.022847040311835265,0.0002838219637313344,-0.08842443554991314,0.019185188007574794,-0.10842777633239187,0.9698739011522728,-0.09421306394572354,-0.004868744378729686,-0.2245992203321392
303.73333333338576,-0.15270299,-0.8049725,-0.034651782,-2.6945598,-0.50600284,1.9632012,0.59159404,0.03999699,0.04,0.015527471357490441,-0.022719376686664017,0.0009560654945728331,-0.08786989826926501,0.01910453058324236,-0.10717943555729098,0.9695936605275526,-0.09501400266799874,-0.005050997766812689,-0.22546609541868218
303.7500000000524,-0.15339293,-0.8050658,-0.03480812,-2.6960855,-0.50828826,1.9649714,0.5907165,0.03999697,0.04,0.015371517170525983,-0.02268023927315399,0.0008761782867239276,-0.08729817724447939,0.019013649320846343,-0.1059246806912946,0.969314905945061,-0.0958099988719126,-0.005232583128789814,-0.22632206543481842
303.76666666671906,-0.15407588,-0.805158,-0.034962866,-2.6975956,-0.5105505,1.9667237,0.58984804,0.03999695,0.04,0.01551106835573357,-0.022546159919134556,0.0011162439354839293,-0.08670723871331831,0.018913007609325794,-0.1046655933682577,0.9690377107080866,-0.09660071610100424,-0.005413421578159738,-0.2271671449422667
303.7833333333857,-0.15475175,-0.8052495,-0.035116002,-2.6990902,-0.51278937,1.9684579,0.58898854,0.039996922,0.04,0.015877554771948077,-0.022556277532681523,0.0011718728033960346,-0.08609935019405236,0.01880125924864652,-0.10340750028169562,0.9687621157684595,-0.09738612443052516,-0.005593300514943019,-0.22800136142043056
303.80000000005236,-0.15542044,-0.8053399,-0.03526753,-2.7005687,-0.51500475,1.9701737,0.58813816,0.03999691,0.04,0.016483957324520127,-0.022310071312670043,0.0015864942339849364,-0.08547312763028128,0.018680847788640563,-0.10214070285201894,0.9684881819084716,-0.09816597750079024,-0.005772234362673342,-0.22882474445610065
303.816666666719,-0.15608196,-0.8054292,-0.035417426,-2.7020314,-0.5171962,1.9718713,0.587297,0.03999689,0.04,0.015713445131471104,-0.02247453975853242,0.0014357726907388013,-0.08482959435690185,0.018551126745188627,-0.10087090826672071,0.9682160124367546,-0.09894011486888249,-0.005950181801818268,-0.22963710995248102
303.83333333338567,-0.15673624,-0.80551773,-0.03556568,-2.7034783,-0.51936376,1.9735502,0.586465,0.039996866,0.04,0.015837059947054755,-0.022257674999981436,0.0012523487900706343,-0.08416921564680632,0.0184117497384466,-0.09959924473979631,0.9679456246248632,-0.09970850217377382,-0.006127210183779546,-0.23043858109962775
303.8500000000523,-0.15738322,-0.8056051,-0.035712283,-2.704909,-0.521507,1.9752101,0.5856422,0.039996844,0.04,0.016071430765407513,-0.022195992747975346,0.00143654973137064,-0.08349087282667288,0.018262269639239243,-0.09832295802432331,0.9676771238668747,-0.10047085991252024,-0.006303369996713131,-0.23122901586923852
303.86666666671897,-0.15802282,-0.80569166,-0.0358572,-2.7063236,-0.5236259,1.9768511,0.58482885,0.03999682,0.04,0.016479304212824175,-0.02217415912816323,0.001674544755858598,-0.08279689547908464,0.018100091518537573,-0.09704842492932696,0.9674105488749355,-0.10122703832411643,-0.006478335003525939,-0.23200850806210976
303.8833333333856,-0.15865502,-0.805777,-0.03600046,-2.7077215,-0.5257204,1.9784734,0.5840248,0.03999681,0.04,0.016939390298653656,-0.021894693291490963,0.0022774852877605056,-0.08208635856520892,0.017930114587965187,-0.09576814836187077,0.9671459285920626,-0.10197700347507667,-0.00665196898137796,-0.2327771356441864
303.9000000000523,-0.15927973,-0.8058617,-0.036142025,-2.709103,-0.5277901,1.9800766,0.5832304,0.039996784,0.04,0.016464552024952894,-0.022048914331029845,0.0015722464558276528,-0.08135810913523903,0.017752495592057327,-0.09448632515333977,0.9668833728869336,-0.10272041289699606,-0.006824349475779436,-0.23353476885314084
303.9166666667189,-0.15989698,-0.8059449,-0.03628188,-2.710468,-0.529835,1.9816605,0.58244544,0.03999676,0.04,0.016322190032558304,-0.021754129234796693,0.002161168581293893,-0.0806152496217406,0.01756483403241156,-0.09320484434644248,0.9666229220556402,-0.10345728652843067,-0.006995629778547277,-0.23428140682690007
303.9333333333856,-0.16050667,-0.80602735,-0.036420006,-2.7118163,-0.5318546,1.9832251,0.58167017,0.03999674,0.04,0.017038387651768794,-0.02186159081483119,0.002072589166290939,-0.07985628515868119,0.01736800075346595,-0.09192065166381148,0.9663646524685421,-0.10418734672040117,-0.007165432750407247,-0.23501704579927002
303.9500000000522,-0.16110873,-0.8061089,-0.03655641,-2.7131479,-0.53384924,1.9847699,0.5809044,0.039996717,0.04,0.016792893236372564,-0.021533984288524266,0.0018281667355957154,-0.07908222099786102,0.01716320883574382,-0.0906372179672638,0.9661085830140698,-0.10491057158964107,-0.007334035922036521,-0.23574178609736401
303.9666666667189,-0.16170312,-0.8061893,-0.036691085,-2.714462,-0.53581864,1.9862949,0.5801486,0.039996695,0.04,0.01771891238553369,-0.02132755358978944,0.0024505509313765828,-0.0782931244164014,0.0169474037640542,-0.08934934879586372,0.9658547820598417,-0.10562662370050653,-0.007501180125182029,-0.23645568006393256
303.98333333338553,-0.16228989,-0.8062687,-0.036824025,-2.715759,-0.5377624,1.9878002,0.5794024,0.039996672,0.04,0.01743108213909661,-0.02138839864138653,0.0025420488989791323,-0.0774901636455873,0.01672527779787021,-0.08806467314307091,0.965603324906442,-0.10633549479107475,-0.007666709842938987,-0.23715860312741255
304.0000000000522,-0.16286892,-0.806347,-0.03695521,-2.7170398,-0.5396809,1.9892858,0.57866603,0.039996654,0.04,0.015665144395460295,-0.021300801551604742,0.0017359936068661597,-0.07667289452361198,0.01649532708156959,-0.08677537260052567,0.9653542257744032,-0.10703723782173803,-0.007831174901230866,-0.23785062791311143
304.01666666671883,-0.16344014,-0.80642456,-0.037084628,-2.7183027,-0.5415735,1.9907515,0.57793975,0.039996624,0.04,0.018839148662874727,-0.021143081609498182,0.0030386786161296087,-0.07584087705587675,0.016253383296757268,-0.08548972609039657,0.9651075744146976,-0.10773132252524581,-0.007993601465949678,-0.23853183076885923
304.0333333333855,-0.16400357,-0.8065007,-0.037212282,-2.7195487,-0.54344034,1.9921973,0.5772231,0.03999661,0.04,0.016361198540382205,-0.021066910820222162,0.002432126741602758,-0.07499602940467151,0.016007443956679253,-0.08420032759807389,0.9648634051874232,-0.10841806927979634,-0.008154761163626413,-0.23920207242859717
304.05000000005214,-0.16455917,-0.8065759,-0.037338156,-2.7207775,-0.5452811,1.9936237,0.57651657,0.03999659,0.04,0.01754792604464761,-0.02110134530258767,0.003051000634135548,-0.07413648658015715,0.01575084553552128,-0.08291461791465166,0.9646217788988386,-0.10909714865554547,-0.008313899966094227,-0.23986144937572537
304.0666666667188,-0.16510695,-0.8066501,-0.03746225,-2.7219884,-0.54709584,1.9950293,0.57581985,0.03999657,0.04,0.018230666368723725,-0.020501754569623998,0.0025679903481679034,-0.07326330086484048,0.01548991826018925,-0.0816269027654619,0.9643827401138648,-0.10976833117884235,-0.00847149216260668,-0.24051003692408482
304.08333333338544,-0.16564678,-0.8067232,-0.03758455,-2.7231822,-0.5488845,1.9964144,0.5751334,0.039996542,0.04,0.016914327021799735,-0.020668030246651092,0.0024031181440786753,-0.07237836860426067,0.015219901787821982,-0.08034643112839,0.9641463450224124,-0.11043155400775392,-0.008627653970901079,-0.2411477987590067
304.1000000000521,-0.1661787,-0.80679536,-0.037705064,-2.7243583,-0.5506467,1.9977796,0.574457,0.039996542,0.04,0.018130236685154344,-0.02061604112604254,0.003208127195697408,-0.07148225312055856,0.014940419874974374,-0.07906065738074897,0.963912652865883,-0.11108669837528125,-0.008781728432950019,-0.24177473882700218
304.11666666671874,-0.16670266,-0.8068663,-0.03782377,-2.7255168,-0.55238277,1.9991242,0.57379067,0.03999652,0.04,0.017577548395819598,-0.020251729546039154,0.0028424680948990755,-0.07057361618613192,0.01465708692178399,-0.07778063734944558,0.9636816732974474,-0.11173373981410718,-0.008934218366196121,-0.24239097276914134
304.1333333333854,-0.16721864,-0.806936,-0.037940662,-2.7266579,-0.55409217,2.0004482,0.5731344,0.0399965,0.04,0.017137728726335233,-0.020370873720065852,0.0027810224213498103,-0.06965396010472404,0.014365311951360947,-0.07649823045574035,0.9634535030860614,-0.11237255640302242,-0.009085075935574973,-0.24299633197620768
304.15000000005205,-0.16772667,-0.8070049,-0.038055737,-2.7277813,-0.5557752,2.001752,0.5724883,0.039996475,0.04,0.018107839966075012,-0.020007642979580353,0.0030530216139190713,-0.06872337659969077,0.014063138625587716,-0.07522321733392048,0.9632281281426827,-0.11300303113546964,-0.009233962872121809,-0.24359109597564532
304.1666666667187,-0.16822663,-0.80707246,-0.038169008,-2.7288866,-0.55743176,2.0030344,0.5718525,0.039996456,0.04,0.018040956751508297,-0.019755539235899455,0.0030109515472886983,-0.0677816152388912,0.013757155761054005,-0.07395054673083053,0.9630056294433672,-0.11362491664740862,-0.009381235486569413,-0.24417520021083014
304.18333333338535,-0.16871856,-0.8071391,-0.038280446,-2.729974,-0.55906177,2.0042965,0.571227,0.03999644,0.04,0.01847270083599195,-0.019790541958220054,0.0034898222535773016,-0.0668310128823713,0.01344159655484034,-0.07267832183102961,0.9627860142214765,-0.11423822391427656,-0.009526299018527777,-0.2447487868068889
304.200000000052,-0.16920246,-0.80720466,-0.038390066,-2.7310438,-0.5606652,2.0055387,0.57061154,0.039996423,0.04,0.017890123815167414,-0.019713745687477413,0.0035425631939922653,-0.06587049068614446,0.013123582425166456,-0.07140750123149502,0.9625693094936751,-0.11484309094040211,-0.009669236281464771,-0.24531183166300255
304.21666666671865,-0.1696783,-0.80726904,-0.038497854,-2.7320955,-0.5622417,2.0067596,0.5700064,0.039996408,0.04,0.018171535532895966,-0.019443620256953675,0.003142185797355701,-0.06489797875986061,0.012800189580376143,-0.07013933388203561,0.9623556276033748,-0.11543906363037759,-0.00981036155999343,-0.24586424183747935
304.2333333333853,-0.17014605,-0.80733246,-0.03860382,-2.7331297,-0.56379145,2.00796,0.56941146,0.039996393,0.04,0.017442339608053636,-0.019459130679699843,0.0031087533759244224,-0.06391851191314142,0.01246887907324102,-0.06887690052669967,0.9621449580153508,-0.11602630879011855,-0.009949547563155874,-0.2464061321019982
304.25000000005195,-0.17060567,-0.8073947,-0.03870795,-2.734146,-0.5653144,2.0091398,0.568827,0.03999637,0.04,0.01793033609687189,-0.0192404376272326,0.0034249818259501907,-0.06292960453366572,0.012132774653330243,-0.0676195831562306,0.9619373551289793,-0.11660460553764933,-0.010086741618384257,-0.24693753950826725
304.2666666667186,-0.17105724,-0.8074559,-0.038810242,-2.7351441,-0.56681067,2.0102985,0.5682526,0.03999636,0.04,0.0189699454824499,-0.018807528703723708,0.003628662865984289,-0.06193318236595219,0.01179009283752001,-0.0663627708463417,0.9617328134453,-0.11717390767678147,-0.01022179041749786,-0.24745865493654018
304.28333333338526,-0.17150074,-0.80751604,-0.038910706,-2.736125,-0.56828004,2.0114367,0.56768864,0.03999634,0.04,0.016850491275310908,-0.019056553248808505,0.003054346425579446,-0.06092871640011531,0.011443880790070277,-0.06511293091473583,0.9615314137456106,-0.11773422618336322,-0.010354966831011893,-0.24796928645963515
304.3000000000519,-0.17193611,-0.8075751,-0.039009333,-2.7370875,-0.5697228,2.0125537,0.5671351,0.039996322,0.04,0.018861420146532026,-0.01848512683082504,0.003591663728830241,-0.05991764558478947,0.011089952014291301,-0.06386727839116796,0.9613331459508848,-0.1182853011847109,-0.010486055932739597,-0.24846974192201451
304.31666666671856,-0.17236337,-0.8076331,-0.039106116,-2.7380323,-0.5711386,2.0136507,0.5665918,0.03999632,0.04,0.017873388480849073,-0.01877428179939411,0.003908283401110602,-0.05890043219621923,0.010731649661633376,-0.06262073109678418,0.961138048353766,-0.11882734263301975,-0.01061479126751735,-0.24895991817125024
304.3333333333852,-0.17278256,-0.8076899,-0.039201062,-2.738959,-0.57252765,2.0147266,0.5660588,0.0399963,0.04,0.018332890432537496,-0.018272097822291666,0.0036412331965607336,-0.05787506030451321,0.010369978891583857,-0.061385624832692526,0.9609461618379994,-0.11936008711481584,-0.010741451563714637,-0.24943990232331595
304.35000000005186,-0.17319362,-0.80774564,-0.03929416,-2.7398677,-0.57388985,2.0157814,0.56553596,0.039996285,0.04,0.0184153491551875,-0.01813399466767951,0.003518492311105348,-0.05684426705607028,0.010004831736825894,-0.06015394857708687,0.9607575028566188,-0.11988354082775235,-0.010866093307644332,-0.24990975443056343
304.3666666667185,-0.17359659,-0.8078003,-0.039385445,-2.740759,-0.5752253,2.0168154,0.5650234,0.039996263,0.04,0.017282456964529125,-0.01813136222741374,0.0032931364347454917,-0.0558086147931202,0.009633344605985444,-0.05893022742367822,0.960572109800258,-0.12039770044265422,-0.010988779103826469,-0.25036945168252733
304.38333333338517,-0.17399152,-0.80785376,-0.039474916,-2.7416315,-0.576534,2.0178285,0.56452113,0.03999626,0.04,0.019233193815582084,-0.017623561390434084,0.0041292946765914,-0.05476772875166401,0.009256565262494961,-0.05770761313396501,0.960389994546813,-0.12090233686180932,-0.011109130581330095,-0.2508191988932525
304.4000000000518,-0.17437837,-0.80790627,-0.039562535,-2.7424862,-0.5778157,2.0188212,0.5640291,0.039996244,0.04,0.01840700595086009,-0.01791584524875045,0.004098498382876237,-0.053723741990276894,0.008877545444804038,-0.056493018634198894,0.9602111944641979,-0.12139754375886357,-0.011226979531369771,-0.2512589368073409
304.41666666671847,-0.17475714,-0.8079576,-0.039648347,-2.7433236,-0.5790709,2.0197935,0.5635475,0.03999623,0.04,0.017301267749858518,-0.017594417690380837,0.003589570930095931,-0.052675166385988785,0.008497313355651934,-0.05528312533450101,0.9600357122679697,-0.1218833093137669,-0.011342766468350696,-0.2516887596411512
