rsonawane2002/My_IMU/logs_2/traj_403/clean_403.csv
time,j1,j2,j3,j4,j5,j6,j7,gripper1,gripper2,imu_ax,imu_ay,imu_az,imu_gx,imu_gy,imu_gz,quat_x,quat_y,quat_z,quat_w
1680.6333333321336,0.00016700293,-0.785875,4.0107683e-05,-2.3551247,9.29385e-05,1.570997,0.786,0.04,0.04,0.0,-0.0,0.0,2.875329272945135e-08,-0.0011641195053377316,4.421952117202833e-08,0.9999995971961153,0.00020320632366974898,0.0008736418299892524,3.263050917662294e-05
1680.6499999988002,0.0001669976,-0.78576016,4.010532e-05,-2.3552213,9.2963965e-05,1.5709941,0.786,0.04,0.04,-0.2919984597413938,-7.773665588193049e-06,0.02012841488945316,1.518336050975483e-06,-0.002238457033087154,-1.1858709258168589e-07,0.9999996850573352,0.00020321457123613013,0.0007665025198166959,3.260300108545867e-05
1680.666666665467,0.00016693503,-0.7856543,4.0038205e-05,-2.35531,9.2926944e-05,1.5709913,0.786,0.04,0.039999995,0.02332872766324101,0.00018623317766786572,-0.0016703905782566864,1.1684584345391995e-05,-0.0032233374027179807,-7.167261517196811e-07,0.9999997558328112,0.00020327397359038788,0.0006677972612483737,3.2570347699861316e-05
1680.6833333321335,0.00016671808,-0.78555703,3.9800474e-05,-2.355391,9.2688264e-05,1.5709884,0.786,0.04,0.04,0.02246075087899424,0.0005224988435235912,-0.001524770074401438,3.849175857083167e-05,-0.004125602845628571,-6.015256971491275e-06,0.9999998121928031,0.0002034705769543849,0.00057719824823576,3.250023097238255e-05
1680.6999999988002,0.00016620448,-0.7854677,3.9239825e-05,-2.3554654,9.20968e-05,1.5709856,0.786,0.04,0.04,0.020113723696990604,0.0009724978271236496,-0.0015653048607289222,8.968222355440773e-05,-0.004943407382969675,-1.2899045127205893e-05,0.9999998567134409,0.00020392942046419324,0.0004939008344686622,3.237058461659377e-05
1680.7166666654668,0.00016521184,-0.7853857,3.8161917e-05,-2.3555336,9.095946e-05,1.5709827,0.7860019,0.04,0.039999995,0.018709247301607057,0.0015477704416245455,-0.0014629984655734063,0.00017227787607989592,-0.005682213860594578,-2.2408222666030233e-05,0.9999998912029242,0.000205764132897564,0.00041739836919573895,3.2153736495219014e-05
1680.7333333321335,0.00016352205,-0.785311,3.63356e-05,-2.3555992,8.899919e-05,1.5709798,0.7860038,0.04,0.04,0.0124325224159616,0.002268945992421162,-0.0029516406924612326,0.00028411836436524656,-0.0063443946990310125,-3.932682612181383e-05,0.9999999180250981,0.00020821192641336226,0.0003458133686289675,3.179158135907779e-05
1680.7499999988001,0.00016088433,-0.78524274,3.3495693e-05,-2.3556583,8.5944026e-05,1.5709769,0.7860065,0.04,0.04,0.01808698626291072,0.0030616809504318524,-0.0009215738302481569,0.00044020817920261573,-0.006943480015525128,-6.114715095101849e-05,0.999999937687263,0.0002118792753373397,0.00028063596128284185,3.124259812773974e-05
1680.7666666654668,0.00015701933,-0.785181,2.9347257e-05,-2.3557165,8.145675e-05,1.5709739,0.7860103,0.03999999,0.03999999,0.008804724096211913,0.003970891090448098,-0.0032799831996443984,0.0006428954514914274,-0.007462898451045389,-8.888063303689968e-05,0.9999999519303099,0.00021718906501914232,0.0002191839652497763,3.0441374685912703e-05
1680.7833333321335,0.00015162186,-0.7851253,2.3568651e-05,-2.3557718,7.520672e-05,1.5709707,0.78601605,0.039999984,0.03999998,0.01150928050024369,0.004934313671609605,-0.002362954939116868,0.0008957399769060968,-0.00792601137470815,-0.00012342383806016976,0.9999999611678135,0.00022479492806444246,0.00016208324188119857,2.9336569607134438e-05
1680.7999999988,0.00014436415,-0.7850755,1.5814621e-05,-2.355823,6.6820394e-05,1.5709664,0.7860237,0.039999977,0.039999973,0.013006713749241783,0.005982741050342713,-0.002311069160043644,0.0012005342383603558,-0.008322399344350402,-0.00016590908495688967,0.9999999660199154,0.0002349827188295687,0.00010939342075127223,2.7863408650158214e-05
1680.8166666654668,0.00013489834,-0.7850313,5.7191887e-06,-2.3558738,5.5903794e-05,1.5709597,0.78603333,0.03999997,0.03999996,0.006316005809559044,0.007093426969130397,-0.0047855038094235525,0.0015614291952933393,-0.008651745130479165,-0.00021544032672662716,0.9999999671667175,0.0002481153367613056,5.858132068251065e-05,2.595327315893002e-05
1680.8333333321334,0.0001228592,-0.78499275,-7.1019244e-06,-2.3559246,4.2041935e-05,1.5709529,0.78604656,0.039999966,0.039999958,0.006157779583637613,0.008259702108710996,-0.0032756922198728944,0.001982907083957858,-0.008931850092761089,-0.00027413160432097114,0.999999964479477,0.0002652860130273294,1.0511197615962502e-05,2.3534883706259315e-05
1680.8499999988,0.00010786612,-0.7849596,-2.3048804e-05,-2.3559754,2.4804862e-05,1.5709449,0.7860624,0.039999973,0.03999996,0.0056201046760406825,0.009472920142601225,-0.0039723825570936455,0.0024620902000210953,-0.009153893843191754,-0.00034061837795328737,0.9999999581630552,0.0002863494947202299,-3.544279040354219e-05,2.0534442854453867e-05
1680.8666666654667,8.952541e-05,-0.78493184,-4.2535572e-05,-2.3560266,3.7450518e-06,1.5709343,0.7860818,0.039999973,0.03999996,0.004290877405188631,0.010729979419353115,-0.0052176672506565325,0.0030065902799996324,-0.009321690017207694,-0.00041691888253866157,0.9999999479345469,0.00031209586241717167,-8.026415511695203e-05,1.6874284086955018e-05
1680.8833333321334,6.743203e-05,-0.7849095,-6.598777e-05,-2.3560793,-2.15952e-05,1.5709227,0.7861052,0.039999973,0.03999996,0.0032648295742898625,0.012020138479893194,-0.004435436840810603,0.00361669642385407,-0.009441702339840577,-0.0005024323707953646,0.9999999334133379,0.00034314607009820004,-0.0001235655207860988,1.2476227716544674e-05
1680.8999999988,4.117135e-05,-0.78489256,-9.384129e-05,-2.3561366,-5.1684827e-05,1.5709083,0.786133,0.039999977,0.03999996,-0.002605467453187238,0.013340817301176266,-0.007249073390558358,0.0042927981335677615,-0.00950724519990212,-0.0005965229027470938,0.9999999136829189,0.0003800101504147168,-0.0001678503654345703,7.259157914835064e-06
1680.9166666654667,1.0320971e-05,-0.78488106,-0.00012653976,-2.3561947,-8.7003114e-05,1.5708915,0.7861657,0.039999977,0.03999996,0.0036219317852914656,0.014686888005620707,-0.005290432510873799,0.0050373416086426336,-0.009538698383630495,-0.0007010953799881634,0.9999998881051293,0.000423353855243423,-0.00021109225371293076,1.1412079086320558e-06
1680.9333333321333,-2.554803e-05,-0.7848751,-0.00016453385,-2.3562555,-0.0001280338,1.5708729,0.78620356,0.03999998,0.03999996,0.0011062239782200223,0.01605094763401451,-0.00566534277510744,0.005850367472425438,-0.009516120334468801,-0.0008146409645018913,0.999999855615699,0.0004736399101556527,-0.0002537681910319291,-5.96002067962732e-06
1680.9499999988,-6.686972e-05,-0.7848746,-0.00020827961,-2.3563213,-0.00017526897,1.5708508,0.78624713,0.03999998,0.03999996,-0.0035389535482099888,0.01743173298095137,-0.007950462588079965,0.0067334385743882084,-0.009441033587862874,-0.0009397131365359137,0.9999998142481349,0.0005315439085809999,-0.000297934761447806,-1.4129644340753297e-05
1680.9666666654666,-0.000114082104,-0.78487986,-0.00025823727,-2.3563924,-0.00022920266,1.5708253,0.7862969,0.039999984,0.039999966,-0.0036808873996818647,0.018822651645606127,-0.008198173163731504,0.007687212810191749,-0.009332050979364945,-0.0010739678644328316,0.9999997620833435,0.0005976852437712483,-0.00034359225339464683,-2.3451419687629677e-05
1680.9833333321333,-0.00016762565,-0.7848908,-0.00031486945,-2.3564665,-0.000290334,1.5707974,0.78635335,0.039999988,0.039999973,0.00023720556798778603,0.020223496754439834,-0.006407226089288898,0.008711637641164545,-0.009185314965146322,-0.0012198841693287095,0.9999996974453453,0.0006726855454775035,-0.0003891615069474073,-3.401023493146891e-05
1680.9999999988,-0.0002279429,-0.78490764,-0.00037864118,-2.3565478,-0.00035916013,1.5707663,0.78641677,0.039999988,0.039999995,-0.006584288467847976,0.021623473637177915,-0.009027933869076854,0.009806817451264518,-0.008984809663666304,-0.0013774143017949805,0.9999996169060473,0.0007570781048359711,-0.00043693775447221813,-4.589009008287868e-05
1681.0166666654666,-0.00029547696,-0.78493035,-0.0004500178,-2.3566365,-0.000436189,1.5707315,0.7864878,0.039999988,0.03999999,-0.007272896191290457,0.023032382140152265,-0.009434218529191796,0.010973774093988364,-0.00874909816383352,-0.001541724916052587,0.9999995169087816,0.0008515755404820196,-0.00048733877291717555,-5.9179579541972406e-05
1681.0333333321332,-0.00037067098,-0.78495926,-0.0005294651,-2.3567326,-0.0005219177,1.5706928,0.78656685,0.03999999,0.03999997,-0.006954537311631981,0.024432410370034355,-0.009827020035713119,0.0122119366657671,-0.00848027737011294,-0.0017110920704008132,0.9999993936224335,0.0009567415179277631,-0.0005403056207954223,-7.396126872489479e-05
1681.0499999987999,-0.00045396714,-0.7849942,-0.0006174475,-2.356836,-0.000616843,1.5706499,0.7866544,0.039999984,0.039999947,-0.007229227345950662,0.02582797288208972,-0.009918971634048646,0.013520747558488625,-0.008175660801320992,-0.0018911813398984909,0.9999992423755033,0.0010732279447392167,-0.0005960476966338738,-9.031800222418149e-05
1681.0666666654665,-0.0005458061,-0.7850357,-0.00071442785,-2.3569477,-0.00072146533,1.5706024,0.78675085,0.039999977,0.03999993,-0.007900921970072083,0.027219840280717448,-0.01086178847164998,0.014899995514934622,-0.007836249086271748,-0.002082881551387454,0.9999990578309416,0.0012015956532667074,-0.0006548043462043017,-0.00010833459044131275
1681.0833333321332,-0.0006466259,-0.7850837,-0.00082086696,-2.3570669,-0.00083628227,1.5705503,0.7868567,0.03999998,0.039999932,-0.007328801038042343,0.02860389032496989,-0.010655567492956486,0.016349757768708013,-0.007461587457358832,-0.0022872151237921627,0.9999988339745773,0.0013424929023384562,-0.0007164872352175147,-0.00012809502231777778
1681.0999999987998,-0.00075686176,-0.7851386,-0.0009372222,-2.3571944,-0.0009617872,1.5704931,0.7869724,0.03999999,0.039999958,-0.008170756702829962,0.02997340974854018,-0.011625736513876106,0.017869408951279777,-0.007049821152775368,-0.0025056478476950285,0.9999985636965945,0.0014965051859517952,-0.0007814552377256523,-0.00014968195564379587
1681.1166666654665,-0.0008769461,-0.7852004,-0.0010639479,-2.3573306,-0.0010984649,1.5704315,0.7870984,0.04,0.039999977,-0.008353682297501663,0.03132919744410804,-0.011226579370737788,0.019457967786252164,-0.006599855679590441,-0.0027319480257751985,0.9999982393471832,0.0016642450169790297,-0.0008494713614445865,-0.00017317466122117778
1681.1333333321331,-0.0010073074,-0.7852694,-0.0012014942,-2.3574772,-0.0012467994,1.5703646,0.78723514,0.04,0.03999999,-0.011597340500335562,0.03266718096665339,-0.012873406020985634,0.021115018303123866,-0.006111054030909802,-0.002967667375045605,0.9999978510240912,0.0018462907046163616,-0.0009217889325522331,-0.0001986529574017451
1681.1499999987998,-0.001148369,-0.7853457,-0.0013503067,-2.3576357,-0.0014072611,1.570292,0.787383,0.04,0.04,-0.01398409234090181,0.03398046116864933,-0.014009920685764676,0.022839856929002533,-0.005592509920583156,-0.003209720184914537,0.9999973877757832,0.0020432157247770697,-0.0009992740627188612,-0.00022619120112289226
1681.1666666654664,-0.0013005503,-0.7854293,-0.0015108248,-2.3578038,-0.0015803446,1.570214,0.78754264,0.04,0.04,-0.009827634897074944,0.03530773813167489,-0.012707800688138704,0.02463163301695847,-0.005049076687323742,-0.0034625187895006805,0.9999968394080745,0.0022556806408076772,-0.001080557901983865,-0.0002558775656708548
1681.183333332133,-0.0014642652,-0.78552055,-0.0016834843,-2.3579855,-0.001766516,1.5701301,0.78771424,0.04,0.03999999,-0.016574884075248875,0.036581046570570604,-0.01519242231178275,0.0264889007320561,-0.0044675424478908985,-0.003724401456601663,0.9999961911597356,0.002484158867877855,-0.0011678183625837657,-0.0002877864009784401
1681.1999999987997,-0.0016399223,-0.78561956,-0.0018687152,-2.3581777,-0.0019662245,1.57004,0.7878983,0.04,0.039999973,-0.011261865220779654,0.037846078128065744,-0.014088376369514322,0.02841171136518896,-0.0038667932265718736,-0.0039921700936647935,0.9999954305142258,0.00272924247812418,-0.0012595679133284442,-0.0003219857693439791
1681.2166666654664,-0.0018279236,-0.7857268,-0.0020669403,-2.358383,-0.002179928,1.5699437,0.78809524,0.04,0.03999997,-0.015195941008916414,0.039080136161705886,-0.015594638679794492,0.030398729927693123,-0.003230591287120755,-0.004269339877580087,0.9999945406550633,0.0029914833891459304,-0.0013568823069296007,-0.0003585493080187631
1681.233333332133,-0.0020286662,-0.785842,-0.0022785766,-2.3586018,-0.0024080775,1.5698409,0.7883056,0.04,0.039999954,-0.016351201132080995,0.04029853429736996,-0.01591412071682008,0.03244876760949605,-0.0025679855366927936,-0.004554413946616669,0.9999935034824442,0.0032714892497870884,-0.0014602415254021453,-0.00039754959795468373
1681.2499999987997,-0.0022425412,-0.7859659,-0.0025040342,-2.3588343,-0.0026511124,1.5697314,0.78852963,0.04,0.039999954,-0.015683362422747038,0.04148897872561574,-0.016649553873793188,0.034560246351849566,-0.0018805462707245472,-0.004849429984309041,0.9999923004345111,0.0035697431551631573,-0.001569470256984082,-0.0004390542255059743
1681.2666666654663,-0.0024699313,-0.7860983,-0.0027437173,-2.35908,-0.002909468,1.5696148,0.7887678,0.04,0.03999996,-0.015625982637423874,0.04265847251258094,-0.016657917008178202,0.03673245619677515,-0.001167897302185199,-0.005153401098803731,0.999990910624198,0.0038867811530175814,-0.001684691524947669,-0.00048313116395335136
1681.283333332133,-0.0027112137,-0.7862395,-0.002998022,-2.359341,-0.003183572,1.5694911,0.7890206,0.04,0.03999995,-0.018074721583838382,0.04379117287196116,-0.017692620916731627,0.03896439456507889,-0.0004272494625309417,-0.005464631192545616,0.9999893101932431,0.00422316053302547,-0.0018065651207528014,-0.0005298460329085938
1681.2999999987996,-0.0029667583,-0.7863899,-0.003267338,-2.3596163,-0.0034738414,1.5693603,0.7892882,0.04,0.039999936,-0.016957318053334447,0.04490500971685105,-0.01794169298110493,0.04125448402020898,0.00033472595668382604,-0.005781012264210374,0.9999874753641549,0.004579315474065761,-0.0019347975900184926,-0.0005792606480172576
1681.3166666654663,-0.0032369292,-0.78654927,-0.0035520464,-2.359907,-0.0037806863,1.569222,0.7895711,0.04,0.039999947,-0.018417735167175486,0.04598525480547372,-0.018347225581605286,0.043601740753625676,0.0011234705810832949,-0.006109008581514834,0.9999853785104728,0.00495576080944358,-0.002069900474212327,-0.0006314365311735007
1681.333333332133,-0.0035220822,-0.786718,-0.003852522,-2.360214,-0.0041045113,1.5690761,0.78986955,0.04,0.039999958,-0.020134277183703198,0.04703366318472447,-0.019366930429565166,0.0460051423444772,0.0019359791343149585,-0.006445116562050027,0.999982989863418,0.0053529442024383206,-0.0022124155491009346,-0.0006864325332148362
1681.3499999987996,-0.0038225653,-0.78689647,-0.004169132,-2.3605368,-0.004445707,1.5689224,0.79018414,0.04,0.039999984,-0.018578209614106278,0.04806031624125691,-0.019441054276025937,0.048463633928884864,0.0027667204162411365,-0.006787337145225338,0.9999802787311485,0.005771457642419169,-0.0023618716239296564,-0.0007443036264733535
1681.3666666654663,-0.0041387207,-0.78708464,-0.0045022345,-2.3608758,-0.004804668,1.5687609,0.79051507,0.04,0.03999996,-0.019439872410220715,0.04905912180362716,-0.019862859419039758,0.05097478470002389,0.0036221329418595245,-0.007134906771839231,0.9999772115784785,0.0062116755995554294,-0.0025185729341581616,-0.0008051089069880224
1681.383333332133,-0.0044708825,-0.7872828,-0.0048521818,-2.361231,-0.005181763,1.5685911,0.7908627,0.04,0.039999943,-0.019240366646910978,0.050017881096087874,-0.020421563304395818,0.053538298110794594,0.004502158893636522,-0.007484604818163017,0.9999737525999175,0.0066740562070631525,-0.0026825558733883067,-0.000868895258430517
1681.3999999987996,-0.004819375,-0.78749096,-0.005219314,-2.361604,-0.005577364,1.5684128,0.79122716,0.04,0.039999936,-0.021861413522650253,0.05093366468158049,-0.021438798011463867,0.05615244308417888,0.005405151380059882,-0.007843776917384929,0.9999698616463728,0.0071589546508733755,-0.0028547514295141126,-0.0009357144417779778
1681.4166666654662,-0.005184515,-0.78770936,-0.005603969,-2.3619943,-0.005991828,1.5682261,0.79160917,0.04,0.03999994,-0.021072971281954622,0.05183703135253591,-0.02146220581336067,0.05881680654119039,0.006325290605290383,-0.008210626980393477,0.9999654976772568,0.0076669624816233985,-0.0030347795523298724,-0.0010056114806785154
1681.4333333321329,-0.005566616,-0.7879383,-0.006006473,-2.362402,-0.00642551,1.5680307,0.79200894,0.04,0.03999991,-0.02087697645358766,0.052707887858887206,-0.022047655204926464,0.06152870460937365,0.007265898894625621,-0.008577205612592977,0.9999606173357437,0.008198455592878505,-0.0032226780818330222,-0.001078633112239917
1681.4499999987995,-0.0059659816,-0.78817785,-0.006427145,-2.3628285,-0.0068787513,1.5678265,0.79242676,0.04,0.0399999,-0.02329502948739126,0.05352585577020688,-0.022982605293275782,0.06428691812645866,0.00822960522108843,-0.008950868633401374,0.9999551719823973,0.008753826814507298,-0.0034192005626828945,-0.0011548200154686942
1681.4666666654662,-0.006382902,-0.7884282,-0.0068662935,-2.3632727,-0.0073518883,1.5676135,0.792863,0.04,0.0399999,-0.021099840268590242,0.0543375912919971,-0.02271051851496786,0.06709011391024652,0.009209005714469759,-0.00933382543625155,0.9999491145040628,0.009333494890634739,-0.003623670521177823,-0.0012342153867992785
1681.4833333321328,-0.0068176677,-0.7886894,-0.007324222,-2.3637364,-0.0078452425,1.5673914,0.79331785,0.04,0.039999932,-0.024365271488213658,0.05508197667357245,-0.023972458899357285,0.06993640837642659,0.01021161450191749,-0.009724122237744444,0.9999423897603872,0.00993777700898815,-0.0038371406017996446,-0.0013168524624168317
1681.4999999987995,-0.0072705583,-0.7889616,-0.0078012235,-2.364219,-0.00835913,1.56716,0.7937917,0.04,0.03999993,-0.02305539461624484,0.05582241605312892,-0.02411564698874269,0.07282573854874666,0.01122860254385509,-0.010113888472739908,0.9999349431979837,0.010567107318008749,-0.004059292946164016,-0.00140276703413858
1681.5166666654661,-0.0077418443,-0.7892451,-0.008297586,-2.3647208,-0.008893858,1.5669192,0.79428464,0.04,0.039999913,-0.023599810581553804,0.05651613217586872,-0.024789548716364074,0.07575535381728497,0.012264406860689372,-0.01050699626624094,0.9999267174047267,0.01122172985642703,-0.004290287297938143,-0.0014919899926876222
1681.5333333321328,-0.008231788,-0.7895401,-0.008813582,-2.365243,-0.009449725,1.566669,0.7947971,0.04,0.0399999,-0.025112220162326615,0.05715904755732304,-0.02550370800227242,0.07872538910728814,0.013318687345705994,-0.010896509249494785,0.9999176484505052,0.011902084397956281,-0.004530551842556937,-0.0015845517339929459
1681.5499999987994,-0.008740647,-0.78984654,-0.009349486,-2.3657842,-0.010027027,1.566409,0.79532933,0.04,0.039999917,-0.02323264555517124,0.05781744376690927,-0.025448714454756605,0.08173304413919111,0.014387439828166843,-0.01131129418319925,0.9999076743404145,0.012608466339064078,-0.004779681122334001,-0.0016804821002458737
1681.566666665466,-0.009268668,-0.79016465,-0.0099055525,-2.3663461,-0.010626032,1.5661391,0.79588157,0.04,0.039999947,-0.025865302119720823,0.05836638344101329,-0.02666717179398148,0.0847772529175604,0.01547618385648047,-0.011721788379725394,0.9998967238752933,0.01334120674995827,-0.005038462131016816,-0.0017797992203775032
1681.5833333321327,-0.009816088,-0.7904947,-0.010482037,-2.366929,-0.011247012,1.5658597,0.7964541,0.04,0.039999936,-0.025928877935132988,0.05892312649352638,-0.026885627279682467,0.08785707790779941,0.016576929150536567,-0.012128679166773432,0.9998847271877672,0.014100605334046643,-0.005306728846335854,-0.0018825235215305137
1681.5999999987994,-0.01038314,-0.79083675,-0.011079182,-2.3675327,-0.011890235,1.5655701,0.79704714,0.04,0.039999895,-0.02561217044949604,0.05944635945366039,-0.02754363179036101,0.09097064020195395,0.01769379965196703,-0.01253398193590275,0.9998716092070699,0.014886985933931299,-0.005584613776404707,-0.0019886780624106077
1681.616666665466,-0.010970049,-0.7911908,-0.011697222,-2.368157,-0.012555953,1.5652704,0.7976609,0.04,0.0399999,-0.025308431565251865,0.0599374258688605,-0.027667292978050817,0.09411664746992174,0.01882583919355867,-0.012936778115116242,0.9998572939737048,0.015700574630947168,-0.005872041545861197,-0.0020982783233512163
1681.6333333321327,-0.011577027,-0.79155725,-0.012336384,-2.368802,-0.013244412,1.5649606,0.7982956,0.04,0.039999932,-0.025696260367125134,0.060376790816490944,-0.02839314797156156,0.09729293017436276,0.01997420726315856,-0.01336911840099634,0.9998417003325437,0.01654167476070144,-0.00616905636696373,-0.0022113380067886796
1681.6499999987993,-0.012204287,-0.7919356,-0.012996886,-2.3694687,-0.013955839,1.5646405,0.7989515,0.04,0.039999906,-0.027097777706508452,0.06077883771394635,-0.028728260472310474,0.10049975195210464,0.021139746959094558,-0.013770868776936132,0.9998247413704595,0.01741052259492283,-0.006476209737325973,-0.002327864666087572
1681.666666665466,-0.012852027,-0.7923266,-0.013678945,-2.3701572,-0.014690476,1.5643098,0.7996289,0.04,0.039999936,-0.02727277546998863,0.06115124461583757,-0.029909453538068398,0.10373376525050707,0.022318440548092015,-0.014206654833564362,0.9998063277513269,0.01830743672831346,-0.006793576733624739,-0.0024478692794535593
1681.6833333321326,-0.0135204345,-0.79273015,-0.014382757,-2.3708677,-0.015448519,1.5639687,0.80032784,0.04,0.03999993,-0.027406528594964286,0.061467037968405275,-0.030065175799554034,0.10699421613573906,0.023507595634546186,-0.014624701970865003,0.9997863703410171,0.01923254348941452,-0.007121173720162559,-0.0025713490835605744
1681.6999999987993,-0.014209703,-0.7931464,-0.015108516,-2.3716004,-0.016230188,1.5636166,0.8010483,0.04,0.03999997,-0.027766211272006736,0.06177370265831594,-0.030864094748350723,0.11028011204722815,0.024710881061996138,-0.01505190094967572,0.9997647751932995,0.02018596908558002,-0.007459226353166776,-0.0026983100228630953
1681.716666665466,-0.014920001,-0.7935754,-0.015856411,-2.3723557,-0.017035685,1.563254,0.8017912,0.04,0.039999984,-0.02841290066684099,0.06202674238075384,-0.03130461777440807,0.11359134120528308,0.025925909464645507,-0.015475461279626707,0.9997414362610759,0.02116829864401931,-0.007807810499281721,-0.0028287542074446376
1681.7333333321326,-0.015651498,-0.79401726,-0.016626615,-2.3731334,-0.017865201,1.5628808,0.80255586,0.04,0.039999977,-0.02805492498094697,0.06225848277134349,-0.03153861775699873,0.11692258681058601,0.027152133086593172,-0.01589663695788176,0.9997162622567989,0.02217928023240238,-0.008166826043888577,-0.002962677848998704
1681.7499999987992,-0.016404362,-0.79447204,-0.017419307,-2.3739336,-0.018718915,1.5624963,0.8033429,0.04,0.03999999,-0.028153861918989165,0.06245659640559745,-0.032406526316619555,0.12027663641579647,0.028390216673756866,-0.016319144532240905,0.9996891419542688,0.02321931717622884,-0.008536529271075885,-0.003100070420386185
1681.766666665466,-0.017178748,-0.79493994,-0.018234646,-2.3747566,-0.019597003,1.5621008,0.8041525,0.04,0.04,-0.02877667831524544,0.06259845219504998,-0.03300207880154726,0.12364947511005871,0.029639891908430555,-0.016746752558152576,0.9996599653177485,0.024288613617586132,-0.008917028399325903,-0.0032409248647639606
1681.7833333321325,-0.01797479,-0.7954209,-0.019072779,-2.3756022,-0.020499635,1.5616943,0.8049847,0.04,0.04,-0.028451922818151232,0.06271269741965554,-0.033145525609379334,0.12704046419147141,0.03090057056250491,-0.01716958871282729,0.9996286238142364,0.025387243805909294,-0.009308194147225522,-0.0033852363156248013
1681.7999999987992,-0.018792637,-0.79591507,-0.019933851,-2.3764708,-0.02142696,1.5612768,0.8058397,0.04,0.04,-0.028712212509751645,0.06279203519610407,-0.03374096948618455,0.13044834950761,0.032172111771190455,-0.0175894297880484,0.9995950009241253,0.026515402235191485,-0.009710076177445572,-0.003532986333405648
1681.8166666654658,-0.019632412,-0.79642254,-0.02081801,-2.3773625,-0.022379132,1.560848,0.80671763,0.04,0.04,-0.029211250494087793,0.06282646560197419,-0.03455076191429818,0.13387161362979383,0.03345634055633477,-0.018007073443151916,0.9995589765944731,0.027673180418385485,-0.0101229633876625,-0.0036841562389546946
1681.8333333321325,-0.020494247,-0.7969433,-0.021725377,-2.3782785,-0.023356289,1.560408,0.8076187,0.04,0.04,-0.03123939457976288,0.06278716097995463,-0.03542743026061501,0.13730863438160856,0.03475006526048035,-0.01842301303182723,0.999520421924386,0.028860741728434197,-0.010547412898498542,-0.003838726889324308
1681.8499999987991,-0.021378247,-0.7974776,-0.022656081,-2.3792179,-0.024358539,1.5599568,0.8085427,0.04,0.04,-0.029428557967103863,0.06277361155427319,-0.03552812641103298,0.14075816589879694,0.03604991017392506,-0.01883216820900501,0.9994792207972361,0.030078079452761346,-0.010982850709757696,-0.003996663767510827
1681.8666666654658,-0.02228453,-0.7980253,-0.023610234,-2.380181,-0.025386006,1.5594941,0.80949,0.04,0.04,-0.03048964889382777,0.06268900787637227,-0.03629534307263427,0.14421966433973715,0.03736061875961478,-0.019243935468133577,0.999435238319878,0.0313253494277554,-0.011429715753940185,-0.004157942460137043
1681.8833333321325,-0.023213197,-0.7985866,-0.024587942,-2.381168,-0.026438825,1.55902,0.8104608,0.04,0.04,-0.02995276496271515,0.06260980483594608,-0.036718046432349105,0.14769107905175757,0.03867686747168017,-0.019650702494858945,0.9993883424681885,0.032602702530891654,-0.011887821715966296,-0.004322548000673756
1681.899999998799,-0.024164341,-0.7991615,-0.025589306,-2.3821783,-0.027517095,1.5585346,0.811455,0.04,0.04,-0.029977227420974195,0.06247227049223231,-0.03707516296389546,0.1511704187342766,0.0400030252257487,-0.020056670756647937,0.9993384012393303,0.033910130971107004,-0.012357132227162884,-0.004490446421238285
1681.9166666654658,-0.025138047,-0.7997498,-0.026614415,-2.3832128,-0.028620921,1.5580378,0.8124728,0.04,0.04,-0.031069029021102423,0.062269567141302884,-0.037750122351476456,0.15465726398952603,0.04133994544697249,-0.020457983207778793,0.9992852702575963,0.03524772788018725,-0.012838057762560012,-0.004661608989648711
1681.9333333321324,-0.026134394,-0.8003519,-0.02766335,-2.3842714,-0.029750394,1.5575293,0.8135142,0.04,0.04,-0.03071786686874578,0.06204893701869385,-0.03852747331507533,0.15814950392098284,0.042681571209982505,-0.020856389149164392,0.9992288121385196,0.036615469174008326,-0.013330473405407356,-0.0048359991933682725
1681.949999998799,-0.027153453,-0.8009676,-0.02873619,-2.385354,-0.030905582,1.5570093,0.81457925,0.04,0.04,-0.03110128340926277,0.06179240840030881,-0.038842215667656,0.16164720456194875,0.044031526907877844,-0.02125014290562663,0.9991688785051448,0.03801343791105718,-0.013834551985056858,-0.005013575203996813
1681.9666666654657,-0.028195295,-0.801597,-0.029833008,-2.3864598,-0.032086592,1.5564777,0.81566817,0.04,0.04,-0.02934155624187973,0.06159074548611615,-0.03908983341776029,0.16514806547417377,0.04538732585200393,-0.021640447709777882,0.9991053273865353,0.0394416991145098,-0.014349781841821212,-0.005194316114432611
1681.9833333321324,-0.029259976,-0.80224043,-0.030953867,-2.3875906,-0.033293467,1.5559345,0.816781,0.04,0.04,-0.03229061867713323,0.06114744004492301,-0.04042723681678684,0.16865045982270063,0.046753445269307935,-0.02202618536829444,0.9990379992232928,0.0409002358942409,-0.014876902570055169,-0.005378157829258885
1681.999999998799,-0.03034755,-0.8028978,-0.03209882,-2.388746,-0.034526274,1.5553796,0.81791764,0.04,0.04,-0.031724655343134955,0.060808333830901506,-0.04093634170083682,0.1721527410363773,0.048126640075482126,-0.022412107174768416,0.9989667426093775,0.042388995768464534,-0.015415909910810065,-0.005565062423053418
1682.0166666654657,-0.031458057,-0.80356914,-0.033267897,-2.3899252,-0.03578506,1.554813,0.81907827,0.04,0.04,-0.03055584845426118,0.06044396553198106,-0.04100769275210414,0.1756549875171685,0.04950189269494978,-0.02279058728416055,0.9988914059794644,0.043908004097551724,-0.01596641201611658,-0.005754991213722853
1682.0333333321323,-0.03259154,-0.8042544,-0.03446115,-2.3911285,-0.037069865,1.5542347,0.82026297,0.04,0.04,-0.03102735835218695,0.0600150396045801,-0.04163055831243323,0.1791555234369251,0.05088655258328156,-0.02316017829759591,0.9988118268486134,0.04545727760207494,-0.016528553586410692,-0.005947888422339175
1682.049999998799,-0.03374803,-0.8049536,-0.035678614,-2.392357,-0.03838073,1.5536447,0.82147163,0.04,0.04,-0.033196834802473596,0.0594688192612991,-0.04277424232153049,0.1826521332065172,0.05227737619350223,-0.023524173096098056,0.998727836405734,0.04703668293424263,-0.01710304609272227,-0.006143700937954147
1682.0666666654656,-0.03492755,-0.8056666,-0.036920317,-2.39361,-0.039717656,1.5530427,0.8227044,0.04,0.04,-0.03170181039120479,0.05901090822111321,-0.04292999224748684,0.1861444435220838,0.05366966013538507,-0.02388169975625694,0.9986392742222215,0.04864623390778353,-0.017689498373885674,-0.006342361924729725
1682.0833333321323,-0.036130123,-0.8063935,-0.03818628,-2.3948872,-0.04108069,1.552429,0.82396114,0.04,0.04,-0.03176761660048655,0.058516475668288215,-0.043247265236567856,0.18963096491623443,0.05506499983317208,-0.02423565011979497,0.9985459769070668,0.05028583173398693,-0.018287847861263765,-0.006543832985037892
1682.099999998799,-0.037355747,-0.80713445,-0.039476514,-2.3961883,-0.04246982,1.5518037,0.82524204,0.04,0.04,-0.030755509314106533,0.057955044731047844,-0.04357933583418738,0.19311099997507705,0.056465916801856336,-0.024579866215650982,0.9984477806478324,0.051955462053492135,-0.018897703590366664,-0.006748042770820128
1682.1166666654656,-0.03860442,-0.8078893,-0.040791024,-2.3975146,-0.04388509,1.5511665,0.826547,0.04,0.04,-0.03351901846542216,0.05724792166518361,-0.044979564983615994,0.19658200106223356,0.05787413298901727,-0.024920714770478275,0.9983444990639163,0.05365497702195923,-0.019520075434059186,-0.006954946774749655
1682.1333333321322,-0.03987615,-0.80865806,-0.042129792,-2.3988652,-0.045326486,1.5505176,0.8278761,0.04,0.04,-0.03189700314556454,0.05667450811025765,-0.04500005265197782,0.20004400299753738,0.059281804710070045,-0.025252203791652675,0.9982359683799028,0.055384300723362624,-0.02015442418466071,-0.0071644854530141105
1682.1499999987989,-0.041170947,-0.8094409,-0.043492824,-2.4002402,-0.04679396,1.549857,0.82922935,0.04,0.04,-0.03178007546302819,0.056009237756327046,-0.04542198563033395,0.20349551806691707,0.06069336069449505,-0.02557737428178882,0.9981220131729053,0.05714339983449919,-0.020800597353451647,-0.007376572697450205
1682.1666666654655,-0.042488765,-0.8102375,-0.044880103,-2.401639,-0.048287526,1.5491846,0.83060664,0.04,0.04,-0.03147534943921393,0.055332840726490806,-0.045850763134036576,0.20693429581930411,0.062109289551748596,-0.025894395234828775,0.9980024593893351,0.05893207119792291,-0.021458712077279108,-0.007591160197623616
1682.1833333321322,-0.04382961,-0.8110481,-0.046291605,-2.403063,-0.049807165,1.5485004,0.83200794,0.04,0.04,-0.03368724195276229,0.05449863582098757,-0.04700242791257914,0.21036019993746796,0.06352973155615697,-0.02620434400274687,0.9978771178886439,0.06075017723846692,-0.022129301161092674,-0.007808174554282832
1682.1999999987988,-0.04519343,-0.8118726,-0.047727298,-2.4045115,-0.051352847,1.5478047,0.8334333,0.04,0.04,-0.03213553161054428,0.05379398548553127,-0.046994506205289,0.21377217125029313,0.06494755286208839,-0.026507660132263272,0.9977458184397032,0.06259759902624304,-0.02281185536239318,-0.008027554868175019
1682.2166666654655,-0.04658022,-0.81271106,-0.049187146,-2.4059844,-0.052924536,1.5470973,0.8348829,0.04,0.04,-0.03264535596188001,0.052985029231872316,-0.0477507149700962,0.21716867353806968,0.06636907913453395,-0.02680191835051371,0.9976083640987036,0.06447435775493975,-0.023506578815875784,-0.00824923176843749
1682.2333333321321,-0.04798993,-0.8135632,-0.05067111,-2.4074812,-0.054522183,1.5463779,0.8363558,0.04,0.04,-0.03187935981157075,0.052192673705081516,-0.048099309615246,0.22054693730622707,0.06779182427697622,-0.02708860913125523,0.9974646054916008,0.06637978740069819,-0.024213443177872093,-0.008473121360819978
1682.2499999987988,-0.049422514,-0.8144293,-0.05217915,-2.4090023,-0.056145724,1.5456467,0.8378529,0.04,0.04,-0.032499207531722085,0.05128093360433905,-0.04878708092135309,0.22391108141750618,0.0692154642732566,-0.02736548158635778,0.9973143259312846,0.06831420427756356,-0.024932500401308535,-0.008699149952136494
1682.2666666654654,-0.050877918,-0.81530917,-0.053711202,-2.4105477,-0.05779512,1.5449039,0.8393739,0.04,0.04,-0.032572227574734214,0.05040112466178914,-0.04912239155181464,0.22725477440671374,0.07063953606933629,-0.027635202268011153,0.9971573499779675,0.07027729832875595,-0.02566368855991487,-0.008927251202242954
1682.283333332132,-0.05235608,-0.81620276,-0.0552672,-2.4121168,-0.059470307,1.5441495,0.84091866,0.04,0.04,-0.031582612636338325,0.04954238959331003,-0.04925493195127029,0.2305779464794948,0.0720646582043575,-0.027902548744610622,0.9969935001616635,0.07226885692353185,-0.026406736583126186,-0.009157358647049658
1682.2999999987987,-0.053856928,-0.8171101,-0.056847095,-2.4137096,-0.061171193,1.5433835,0.84248704,0.04,0.04,-0.03203211329283473,0.04854181762972698,-0.050031100737113476,0.2338804774498992,0.07349141581994514,-0.028152206319923517,0.9968225904745206,0.07428861572248087,-0.02716181974183802,-0.009389368563196027
1682.3166666654654,-0.055380408,-0.8180313,-0.058450818,-2.4153283,-0.06289773,1.5426064,0.844079,0.04,0.04,-0.03505809671267013,0.04740069097078636,-0.05108807679379268,0.23716150222717008,0.07491889651497098,-0.028394507298979535,0.9966444170896207,0.07633634765357618,-0.027929587968929456,-0.00962320252766619
1682.333333332132,-0.056926448,-0.81896615,-0.06007826,-2.4169703,-0.06464976,1.5418175,0.8456945,0.04,0.04,-0.03151620750654338,0.04654278929161482,-0.05080764500060564,0.24041991260624515,0.07634036164875475,-0.028625394376966026,0.9964588113446967,0.07841186190262746,-0.028709263239060062,-0.009858773288172053
1682.3499999987987,-0.058494944,-0.8199145,-0.061729353,-2.4186358,-0.0664273,1.5410173,0.84733343,0.04,0.04,-0.03204923509640967,0.045551667776530524,-0.05121957035982838,0.24365449728397692,0.07776361161373685,-0.028848927434383678,0.9962655810182052,0.08051494975944423,-0.029500930530673267,-0.010096040883260746
1682.3666666654653,-0.060085833,-0.8208764,-0.06340402,-2.420325,-0.068230204,1.5402057,0.84899575,0.04,0.04,-0.03209685257257178,0.044495519658918625,-0.05165699515901068,0.2468637651658147,0.07918529066415965,-0.02906166624913438,0.9960645397630916,0.08264536577557226,-0.030304555070150927,-0.010334896436951513
1682.383333332132,-0.061699037,-0.8218517,-0.06510213,-2.4220376,-0.0700583,1.5393828,0.8506815,0.04,0.04,-0.0319601463812047,0.04333621778594421,-0.05196129064461985,0.25004713537052203,0.08060641278894612,-0.029263570332326294,0.9958554941526327,0.08480292806508165,-0.031120129500002574,-0.01057523983215398
1682.3999999987986,-0.06333442,-0.82284045,-0.066823624,-2.4237742,-0.07191159,1.5385485,0.85239035,0.04,0.04,-0.033074689529777324,0.04219370278518708,-0.05301469877774245,0.2532023184798477,0.08202763605263742,-0.029457071242104477,0.9956382553617618,0.08698725016363286,-0.03194800705620065,-0.010817005791515153
1682.4166666654653,-0.06499191,-0.8238425,-0.06856836,-2.425534,-0.07378992,1.537703,0.85412234,0.04,0.04,-0.03171397578789481,0.041149486316793826,-0.05265666258444934,0.2563296346884546,0.08344350328022988,-0.02963886183282037,0.9954126456747675,0.08919813302289033,-0.032787674488849006,-0.011060121952482556
1682.433333332132,-0.06667137,-0.82485783,-0.07033623,-2.4273171,-0.07569313,1.5368463,0.85587716,0.04,0.04,-0.03231174239211043,0.03989037201264922,-0.05342219937161108,0.2594276796310361,0.08485870332387858,-0.029811615003211694,0.9951784786961776,0.09143518873747898,-0.033639423124607035,-0.011304468689281363
1682.4499999987986,-0.06837271,-0.8258864,-0.0721271,-2.4291234,-0.07762116,1.5359784,0.85765505,0.04,0.04,-0.03186295998767186,0.038751019920077456,-0.053641702677142966,0.2624964820515686,0.08626966992312043,-0.029974943702366988,0.9949355599704783,0.09369830006528432,-0.03450300560919613,-0.011550007577422432
1682.4666666654653,-0.07009579,-0.8269282,-0.073940866,-2.4309525,-0.07957383,1.5350994,0.85945547,0.04,0.04,-0.03170008244341993,0.037529266396651995,-0.05403495745508469,0.2655332705085086,0.08767866535194432,-0.030125684549274542,0.994683722444313,0.0959869673849369,-0.035378445991844636,-0.011796607807749201
1682.483333332132,-0.07184052,-0.8279831,-0.07577741,-2.4328046,-0.08155098,1.5342094,0.8612786,0.04,0.04,-0.03177186255127751,0.03630068353755456,-0.05429905750691244,0.26853903531902334,0.08908388158520017,-0.03026498320434684,0.9944227692490578,0.09830104169887476,-0.03626567401297277,-0.012044172380703535
1682.4999999987986,-0.07360672,-0.829051,-0.07763658,-2.4346797,-0.08355252,1.5333085,0.8631243,0.04,0.04,-0.032263487205863584,0.03497883764818355,-0.05475404542085727,0.2715109010784579,0.09048698417114998,-0.030394095678526592,0.9941525156237709,0.10064017179695754,-0.037164798970198594,-0.012292648905395546
1682.5166666654652,-0.07539433,-0.8301319,-0.07951824,-2.4365776,-0.08557827,1.5323967,0.8649922,0.04,0.04,-0.03170096636035957,0.03379553447226402,-0.0550132106679202,0.274449006561229,0.09188428902642627,-0.03051325414949857,0.9938727926654635,0.10300393904636357,-0.03807572383967388,-0.012541921478407507
1682.5333333321319,-0.07720315,-0.8312256,-0.08142225,-2.4384983,-0.08762805,1.5314739,0.8668821,0.04,0.04,-0.03228149696214988,0.03232293596685254,-0.05549541138127889,0.27735291638486986,0.09327597926190878,-0.03062009507480512,0.9935834202214836,0.10539193695052046,-0.03899864491251987,-0.012791887342514602
1682.5499999987985,-0.07903305,-0.83233196,-0.083348416,-2.4404414,-0.08970173,1.5305401,0.86879426,0.04,0.04,-0.03167850177716591,0.031072698128145615,-0.05563039603333486,0.2802215874772137,0.0946617255157316,-0.030722642607868278,0.9932841999770353,0.10780405912133219,-0.03993339935513065,-0.013042489367020836
1682.5666666654652,-0.08088388,-0.8334511,-0.08529661,-2.4424067,-0.09179913,1.5295959,0.87072825,0.04,0.04,-0.031170995145846092,0.029796343228949418,-0.0555885229603259,0.28305325464414827,0.09603940755020995,-0.030806946437822516,0.9929749861205964,0.11023979768786969,-0.04087961991378902,-0.01329363081491176
1682.5833333321318,-0.0827555,-0.83458275,-0.087266706,-2.4443939,-0.09392009,1.5286406,0.87268394,0.04,0.04,-0.031209395580877874,0.028439803752400294,-0.056127173658171436,0.28584807003174345,0.0974128082307879,-0.03088227735844129,0.9926555900871432,0.11269882648660715,-0.041837561621152784,-0.013545198960644635
1682.5999999987985,-0.08464773,-0.8357268,-0.0892585,-2.4464028,-0.09606438,1.5276753,0.87466115,0.04,0.04,-0.030783300111170142,0.027077364625882616,-0.05568685093129133,0.2886048515061793,0.09877881746885966,-0.030944947823782362,0.992325861536039,0.11518075053730817,-0.042806762921847104,-0.013797111312628573
1682.6166666654651,-0.08656042,-0.8368834,-0.09127181,-2.448433,-0.09823188,1.5266998,0.87665975,0.04,0.04,-0.029884050081130376,0.025770577392358884,-0.05589962382639424,0.29132303548181804,0.10014167098418146,-0.030997428958481843,0.9919856395739334,0.1176852333150825,-0.04378691203551377,-0.014049308632922617
1682.6333333321318,-0.088493414,-0.83805215,-0.09330647,-2.4504848,-0.10042238,1.5257139,0.8786795,0.04,0.04,-0.031262873367277066,0.024227032518892022,-0.056463154433372686,0.294001567822701,0.10150039103945699,-0.03103740055156491,0.9916347373681059,0.12021183396505769,-0.0447786172641255,-0.014301680165556913
1682.6499999987984,-0.09044651,-0.83923316,-0.0953623,-2.4525585,-0.102635674,1.5247177,0.8807203,0.04,0.04,-0.03153357704774873,0.022669359159493974,-0.05699468697275556,0.2966394005230807,0.10285225584503824,-0.031066813759887013,0.9912729879979113,0.12276015982541856,-0.04578191965780461,-0.01455411480568277
1682.666666665465,-0.092419565,-0.8404262,-0.09743911,-2.4546533,-0.10487157,1.523711,0.882782,0.04,0.04,-0.030288537029066198,0.021396364578046834,-0.05682531962141191,0.2992369498157168,0.1041929566432769,-0.031084564935237508,0.9909002355034168,0.12532986057699547,-0.046796534934230576,-0.014806540621403033
1682.6833333321317,-0.09441237,-0.8416311,-0.09953671,-2.456769,-0.10712988,1.5226943,0.88486433,0.04,0.04,-0.03036975425361188,0.019944242453351357,-0.0565882337948409,0.3017920161656046,0.10552408418943086,-0.031091370084668057,0.9905163326883228,0.12792050561797652,-0.04782226501089008,-0.015058880746759967
1682.6999999987984,-0.09642475,-0.8428479,-0.10165493,-2.458905,-0.109410375,1.521668,0.8869672,0.04,0.04,-0.02922767256918757,0.018615761936607855,-0.05642502121179227,0.3043047299496444,0.10684899352423347,-0.03108681406323617,0.9901211380041601,0.13053172545708064,-0.048858704432762634,-0.015311032874895242
1682.716666665465,-0.098456495,-0.84407645,-0.10379357,-2.461062,-0.111712806,1.5206313,0.88909024,0.04,0.04,-0.030620393523950185,0.016827452733236825,-0.05738242071187116,0.30677359101495844,0.10816700494441804,-0.031068549639350143,0.9897144824567237,0.13316299475853516,-0.04990648464341991,-0.01556286711676405
1682.7333333321317,-0.100507475,-0.8453166,-0.105952375,-2.4632397,-0.114036985,1.5195849,0.89123315,0.04,0.04,-0.030385708121438704,0.015440203310951306,-0.05705604260373143,0.3091990729863484,0.10947337143918576,-0.031042178697740827,0.9892962359127275,0.1358138247416063,-0.05096537649564423,-0.01581432947116028
1682.7499999987983,-0.1025774,-0.8465683,-0.10813114,-2.4654372,-0.11638272,1.5185289,0.893396,0.04,0.04,-0.02881570826431812,0.014053361147292609,-0.05659288487815939,0.31158094966554883,0.11076959347809187,-0.03100518944057068,0.9888662623288541,0.13848393324232616,-0.05203479021547376,-0.016065368614776667
1682.766666665465,-0.10466614,-0.8478313,-0.11032969,-2.4676545,-0.11874975,1.5174631,0.89557844,0.04,0.04,-0.029180462397815354,0.012533265632230783,-0.05699719978711215,0.3139172006392899,0.11205771901602775,-0.030954917049994327,0.9884244147714376,0.14117281132418724,-0.053115030476100854,-0.01631585621686289
1682.7833333321316,-0.106773466,-0.84910554,-0.112547815,-2.4698918,-0.12113781,1.5163883,0.8977808,0.04,0.04,-0.02949959031051108,0.010981238405244342,-0.05652017420048061,0.3162078564140906,0.11333565344633068,-0.030891968781154133,0.9879705362699222,0.14388025771733393,-0.05420579748336514,-0.016565700133363948
1682.7999999987983,-0.10889915,-0.8503911,-0.11478525,-2.4721487,-0.12354675,1.5153037,0.90000224,0.04,0.04,-0.02883082327875819,0.009393630849324763,-0.05712657747367622,0.31844986804610365,0.11460384554613277,-0.030820834055274665,0.9875045254093449,0.146605541238719,-0.05530721828138542,-0.0168148499886794
1682.816666665465,-0.11104298,-0.8516875,-0.11704179,-2.4744246,-0.12597625,1.5142102,0.9022423,0.04,0.04,-0.02835975053854245,0.008019098734146635,-0.05619130541647532,0.32064521838602433,0.1158611303139479,-0.030739147716827328,0.9870262977685531,0.14934806680764703,-0.05641888100097996,-0.01706318612450006
1682.8333333321316,-0.11320476,-0.8529948,-0.11931723,-2.47672,-0.12842609,1.5131071,0.9045011,0.04,0.04,-0.029273504501436953,0.006258630289923683,-0.057149556062507934,0.3227951703957377,0.1171080991777311,-0.03064344404706079,0.9865356745280165,0.15210752493634372,-0.057541347078390835,-0.01731060708627529
1682.8499999987982,-0.11538425,-0.8543128,-0.12161129,-2.479034,-0.13089605,1.5119953,0.90677834,0.04,0.04,-0.02733775156229523,0.005030590223686904,-0.055702763482168294,0.324896968288811,0.11834009053678081,-0.03053735001565258,0.9860325910649053,0.15488345778683393,-0.05867360640272515,-0.017557100373399945
1682.866666665465,-0.11758123,-0.85564137,-0.123923756,-2.4813662,-0.13338576,1.5108746,0.90907407,0.04,0.04,-0.027511490375231595,0.0033453076104250634,-0.0560326203661754,0.32695056694904956,0.11956349743713508,-0.03042120800845989,0.985516902409936,0.15767551607564878,-0.05981586143242124,-0.017802511499790376
1682.8833333321315,-0.11979549,-0.85698044,-0.12625438,-2.483717,-0.13589512,1.5097451,0.91138774,0.04,0.04,-0.02799771942585405,0.001781067411255055,-0.05609345953268008,0.32895370646433386,0.12077675208921593,-0.030296384950298544,0.9849885177047325,0.16048304346033657,-0.060968230811857684,-0.0180468164287673
1682.8999999987982,-0.12202675,-0.85832995,-0.1286029,-2.486086,-0.13842377,1.508607,0.9137192,0.04,0.04,-0.02724793054207364,0.00021964747940472762,-0.05565427453750882,0.33090791863225727,0.12197521265849609,-0.030157152512624685,0.9844473480444285,0.16330558479399299,-0.062130381076574565,-0.01828990570406288
1682.9166666654648,-0.124274805,-0.8596896,-0.13096909,-2.488472,-0.14097144,1.50746,0.9160683,0.04,0.04,-0.026085738390757562,-0.001180952316937045,-0.05533512531765705,0.3328127541747832,0.1231617333160703,-0.030009512472747787,0.9838932781910434,0.16614279959158748,-0.06330215810904315,-0.018531703998536646
1682.9333333321315,-0.12653938,-0.86105937,-0.13335271,-2.4908762,-0.14353786,1.5063046,0.9184347,0.04,0.04,-0.027506089822226798,-0.002979280309356458,-0.05535717380359406,0.33466570774823023,0.12433675093831266,-0.029849272117007553,0.9833262354269563,0.1689939970568412,-0.06448373129083987,-0.018772109061405726
1682.9499999987981,-0.12882032,-0.86243904,-0.13575344,-2.493298,-0.14612278,1.5051411,0.920818,0.04,0.04,-0.02690212771749856,-0.004420368780561068,-0.05481320198520434,0.3364684004335955,0.12549804658306596,-0.02968056318016951,0.9827461435963817,0.17185869073948612,-0.06567485433714731,-0.019011080230852972
1682.9666666654648,-0.13111731,-0.8638277,-0.1381711,-2.4957368,-0.14872596,1.5039692,0.9232181,0.04,0.04,-0.02667965381240034,-0.005796296398252743,-0.05433036847433126,0.33822009862627783,0.12664466257457513,-0.02950366647343315,0.9821528840763791,0.1747364726000528,-0.06687578704595548,-0.019248546717234603
1682.9833333321315,-0.13343011,-0.8652262,-0.1406054,-2.4981918,-0.15134706,1.5027895,0.92563474,0.04,0.04,-0.024590266266422134,-0.007245452220694393,-0.053629103130836686,0.3399198499524334,0.1277727657976683,-0.029317477945445952,0.9815464495231234,0.1776268679127889,-0.06808538851938065,-0.019484432098680705
1682.999999998798,-0.13575844,-0.8666346,-0.1430561,-2.5006633,-0.15398574,1.5016016,0.92806774,0.04,0.04,-0.025028615418998257,-0.00903796240273036,-0.05402782602264011,0.3415678741616105,0.1288911365443997,-0.029115778831157832,0.9809267483838587,0.18052936282221718,-0.0693039701680796,-0.01971859992535026
1683.0166666654648,-0.13810207,-0.86805195,-0.14552285,-2.5031514,-0.15664189,1.5004059,0.9305166,0.04,0.04,-0.026165746582429428,-0.010537641315533364,-0.05330669827092738,0.3431618564722628,0.12999710376937293,-0.028908037898273453,0.9802937170461313,0.1834432789680203,-0.07053187569070758,-0.019951096032320263
1683.0333333321314,-0.14046073,-0.86947846,-0.14800538,-2.5056558,-0.159315,1.4992025,0.9329812,0.04,0.04,-0.025172154949859582,-0.0121876610501781,-0.05296250020497828,0.34470465125617816,0.13108580545764806,-0.02869073035104694,0.9796473046192716,0.18636819745383532,-0.07176872818407282,-0.020181753760386726
1683.049999998798,-0.14283419,-0.87091386,-0.15050353,-2.5081756,-0.16200492,1.4979916,0.9354612,0.04,0.04,-0.024253920979999677,-0.013330915146969602,-0.05218163173849044,0.3461946246955091,0.13215626864999186,-0.02846156278069556,0.9789874671534465,0.18930366403640805,-0.07301419126466052,-0.020410531909720316
1683.0666666654647,-0.14522213,-0.87235796,-0.1530169,-2.5107107,-0.16471122,1.4967735,0.93795633,0.04,0.04,-0.02392402189734799,-0.015020365565632243,-0.0514450279087586,0.3476334757636571,0.1332063626004007,-0.028207702141360952,0.9783141916634152,0.1922490588537351,-0.07426803383328544,-0.020637366846318936
1683.0833333321314,-0.14762434,-0.8738109,-0.15554526,-2.5132608,-0.16743368,1.4955479,0.9404664,0.04,0.04,-0.023498730349769126,-0.016456827913452488,-0.051465513695525544,0.34901593443920853,0.134249287428813,-0.02796513043194626,0.9776274100417972,0.19520399479167014,-0.0755302380231553,-0.020862183406985337
1683.099999998798,-0.15004046,-0.8752724,-0.1580883,-2.515826,-0.17017199,1.4943151,0.9429912,0.04,0.04,-0.023603964691809587,-0.01811459021503481,-0.05079583121915254,0.3503438268206651,0.13527641782351596,-0.027714547358096253,0.9769271032333499,0.19816788157162601,-0.07680071895798538,-0.021084953143092795
1683.1166666654647,-0.15247032,-0.876742,-0.16064578,-2.5184057,-0.17292584,1.4930754,0.9455303,0.04,0.04,-0.023236385437774842,-0.01934925127937137,-0.0500774327877096,0.351617977421286,0.13628598076273973,-0.027453939357277746,0.9762132412121306,0.2011402174279555,-0.07807940000025873,-0.021305584027218098
1683.1333333321313,-0.15491354,-0.8782196,-0.16321735,-2.521,-0.1756949,1.4918289,0.94808334,0.04,0.04,-0.0232192645152951,-0.021035817662423684,-0.049393076091996946,0.3528376285085183,0.13727605264380216,-0.027181359170376146,0.9754858355861346,0.20412035008858662,-0.07936613382375572,-0.02152403429665132
1683.149999998798,-0.15736993,-0.8797052,-0.16580278,-2.5236077,-0.17847884,1.4905758,0.9506501,0.04,0.04,-0.021681561197817167,-0.022164574130967285,-0.048626090078096595,0.35400401680104243,0.13824791298889977,-0.02689963505330281,0.9747448793202512,0.2071078908905153,-0.08066042603995119,-0.021740226330119575
1683.1666666654646,-0.15983912,-0.88119864,-0.16840167,-2.5262291,-0.18127735,1.4893163,0.9532303,0.04,0.04,-0.02165805779479335,-0.023770507785575434,-0.04790847259176223,0.3551154403774026,0.1392041343060295,-0.02661028736200005,0.9739903823379307,0.21010226171748328,-0.08196212626525277,-0.021954147500840494
1683.1833333321313,-0.16232091,-0.8826998,-0.17101376,-2.5288634,-0.18409012,1.4880501,0.95582366,0.04,0.04,-0.02073479690625213,-0.02507369487836364,-0.04749931485117376,0.35617214998212965,0.14014502902688017,-0.026312493010003518,0.9732223339128406,0.21310297834739486,-0.08327118134713828,-0.022165733684344886
1683.199999998798,-0.16481495,-0.8842084,-0.17363879,-2.531511,-0.1869168,1.4867778,0.95842993,0.04,0.04,-0.021527037215007816,-0.026654621314575744,-0.04670776139998889,0.35717358901469065,0.1410674083921996,-0.026005659450742735,0.972440741747816,0.2161094933232161,-0.08458755644078425,-0.022374896199030988
1683.2166666654646,-0.167321,-0.8857243,-0.17627643,-2.5341718,-0.18975714,1.4854994,0.96104866,0.04,0.04,-0.02118719281778425,-0.028013210178434722,-0.046149228787628616,0.3581199940680364,0.14197192106239068,-0.02569030456437299,0.9716456352992409,0.2191212020902327,-0.08591116436844422,-0.022581630484181076
1683.2333333321312,-0.16983871,-0.8872474,-0.17892641,-2.5368443,-0.1926108,1.4842148,0.9636796,0.04,0.04,-0.01906307983108313,-0.02902764170446548,-0.04498746881360649,0.3590112088910941,0.1428562576641979,-0.025371876598410614,0.9708370526000103,0.22213769529590752,-0.08724141659416383,-0.022785891647921573
1683.2499999987979,-0.17236783,-0.8887772,-0.1815884,-2.5395286,-0.19547738,1.4829245,0.9663225,0.04,0.04,-0.019652200582065404,-0.030532084408430027,-0.0441320015345914,0.35984744397326707,0.14372428183572392,-0.025042880927548555,0.9700150184484975,0.2251584048790801,-0.08857836378052503,-0.022987608980365445
1683.2666666654645,-0.17490804,-0.8903137,-0.18426207,-2.5422256,-0.19835657,1.4816285,0.968977,0.04,0.04,-0.020730753098163746,-0.03225775760536953,-0.04389562049944562,0.3606279998072503,0.14457393744296834,-0.024707769066026924,0.9691795536704203,0.22818271184122252,-0.0899222903145493,-0.02318673044170811
1683.2833333321312,-0.1774591,-0.89185685,-0.18694706,-2.5449336,-0.20124796,1.4803271,0.9716428,0.04,0.04,-0.01801035277815277,-0.03309712327778658,-0.0424266553669117,0.36135392322164694,0.14539979482359752,-0.024366332441149635,0.9683307407399674,0.23121023449398811,-0.09127227822790358,-0.02338322540431545
1683.2999999987978,-0.18002066,-0.89340657,-0.1896431,-2.547654,-0.20415138,1.4790202,0.9743197,0.04,0.04,-0.020278137152440756,-0.03500265129935953,-0.04259999294580208,0.36202338363604925,0.1462101575396861,-0.024018933495710937,0.9674685839799503,0.23424030195862588,-0.09262905149061418,-0.023577081458715735
1683.3166666654645,-0.18259239,-0.8949624,-0.19234987,-2.5503836,-0.2070664,1.4777081,0.9770072,0.04,0.04,-0.015722193423561848,-0.03517454931373232,-0.04010619513434843,0.36263801001898965,0.14699418755932003,-0.023665931659789446,0.9665932218995064,0.23727256803874322,-0.09399117049226477,-0.023768291981667636
1683.3333333321311,-0.18517403,-0.8965242,-0.195067,-2.553124,-0.20999265,1.476391,0.9797051,0.04,0.04,-0.017878793729497744,-0.037121876045798086,-0.04005209461898085,0.3631972622621711,0.14776455678357,-0.023304648673629552,0.9657046819816192,0.24030639299081383,-0.09535920289935888,-0.023956775845746705
1683.3499999987978,-0.18776524,-0.89809173,-0.19779421,-2.555875,-0.21292977,1.475069,0.98241305,0.04,0.04,-0.018006340136134114,-0.03845152846626565,-0.03916848057244904,0.36370133124339116,0.1485136410405997,-0.022937075947139535,0.9648030323094435,0.24334122017681367,-0.09673313520131364,-0.02414249290125004
1683.3666666654644,-0.19036573,-0.8996649,-0.20053117,-2.5586352,-0.21587743,1.4737424,0.98513067,0.04,0.04,-0.015415437175758662,-0.03909057800485227,-0.037672930737076005,0.3641499512146441,0.14924076483534537,-0.022566120969900627,0.9638883911024204,0.24637663231765594,-0.09811216830751844,-0.024325438861303655
1683.383333332131,-0.19297515,-0.90124345,-0.2032776,-2.5614052,-0.2188353,1.472411,0.98785764,0.04,0.04,-0.01657737878248966,-0.04067127644249435,-0.03725203785083231,0.36454339387177254,0.14995074749427617,-0.022189576224416446,0.9629608217795322,0.24941201418872716,-0.09949663776115202,-0.024505549784411575
1683.3999999987977,-0.19559324,-0.9028273,-0.20603314,-2.564185,-0.22180301,1.4710753,0.9905937,0.04,0.04,-0.016523874815432826,-0.04192910314159137,-0.03638288212304275,0.36488184682821734,0.1506364218996711,-0.021807083080371825,0.9620204131119632,0.25244684741649415,-0.10088643651380494,-0.024682806017689986
1683.4166666654644,-0.19821966,-0.9044163,-0.20879745,-2.5669732,-0.2247802,1.469735,0.9933383,0.04,0.04,-0.014741206353985348,-0.04276375779548314,-0.03511662482063027,0.3651663587977166,0.15129953694146034,-0.021421809535926317,0.9610672975983019,0.2554806250120105,-0.10228108447728296,-0.024857181833836412
1683.433333332131,-0.20085408,-0.90601015,-0.21157022,-2.5697699,-0.22776654,1.468391,0.9960914,0.04,0.04,-0.014398522803449332,-0.04373309667135006,-0.033667597693143314,0.3653962809161144,0.15194167576260192,-0.02103158021668991,0.9601015744304648,0.2585129507050566,-0.10368020720981654,-0.02502869806516589
1683.4499999987977,-0.2034962,-0.9076088,-0.21435103,-2.5725746,-0.23076163,1.467043,0.9988526,0.04,0.04,-0.013905047189477493,-0.0449362993546365,-0.03280204173613521,0.36557049200796,0.15256352311448101,-0.02063670036796278,0.959123381038315,0.2615432353334155,-0.10508363796186149,-0.025197321874782495
1683.4666666654643,-0.20614576,-0.9092119,-0.21713966,-2.5753875,-0.23376516,1.4656913,1.0016216,0.04,0.04,-0.014161005755020106,-0.045990445089938436,-0.03202241651795168,0.3656911343113081,0.15316431457924745,-0.020237212504428365,0.9581327877690329,0.264571032548501,-0.10649153733008682,-0.025363008796990483
1683.483333332131,-0.20880234,-0.9108192,-0.2199357,-2.5782077,-0.23677672,1.464336,1.0043981,0.04,0.04,-0.013028409050597212,-0.04694121260815365,-0.03059512395761077,0.3657569222753818,0.1537425517815293,-0.019833493820940046,0.9571299517466753,0.26759583471998816,-0.10790347113486796,-0.02552578357204001
1683.4999999987976,-0.21146572,-0.9124306,-0.22273883,-2.581035,-0.23979595,1.4629772,1.0071815,0.04,0.04,-0.012278593425407713,-0.04781269204916505,-0.02960519263529582,0.36576805980747745,0.15429806895120424,-0.019426846374313744,0.9561150284784461,0.2706170933148628,-0.10931921917219309,-0.02568558823653791
1683.5166666654643,-0.2141355,-0.9140459,-0.22554871,-2.5838687,-0.24282256,1.4616148,1.0099715,0.04,0.04,-0.011957633329906514,-0.048790951624611,-0.028530566385409628,0.3657261542457624,0.1548325090241596,-0.019016457032057538,0.9550881654736374,0.2736342633432882,-0.11073867296494812,-0.025842453574309907
1683.533333332131,-0.21681137,-0.91566485,-0.22836499,-2.586709,-0.24585608,1.4602497,1.0127679,0.04,0.04,-0.011519423226902248,-0.04971057644820309,-0.02708621530846944,0.36563122882023025,0.15534283383526448,-0.01860229491388446,0.9540495073965555,0.27664695255934896,-0.11216145000061549,-0.025996349931761458
1683.5499999987976,-0.21949299,-0.91728735,-0.23118733,-2.5895565,-0.24889615,1.4588816,1.0155708,0.04,0.04,-0.012624668741212375,-0.05114777418592231,-0.0265659246653005,0.36548221852127716,0.1558327421153237,-0.018187805138301483,0.9529991348422866,0.2796547030721023,-0.11358792617999386,-0.02614725732530716
1683.5666666654643,-0.22218005,-0.9189132,-0.2340154,-2.59241,-0.25194246,1.4575107,1.0183787,0.04,0.04,-0.011171920855423956,-0.05167872836574494,-0.025249789861458982,0.3652797249518473,0.1562946822291668,-0.017771443276518722,0.9519373437070403,0.28265666673530127,-0.11501768607428414,-0.026295138261480677
1683.583333332131,-0.22487222,-0.92054224,-0.23684885,-2.5952678,-0.25499457,1.4561372,1.0211928,0.04,0.04,-0.007821387328399432,-0.051654046558446964,-0.02309476037529734,0.36502753447000047,0.15673255122419097,-0.017353054430332804,0.9508641754949648,0.2856531842968741,-0.1164495557727947,-0.026440102527328653
1683.5999999987976,-0.22756918,-0.92217404,-0.23968735,-2.5981307,-0.2580522,1.454761,1.0240113,0.04,0.04,-0.009883810286615002,-0.05311195168876681,-0.022760966695301033,0.364717914126725,0.15715427164526366,-0.016932300369077613,0.9497799255595312,0.2886429910691064,-0.11788431324994655,-0.02658205034228523
1683.6166666654642,-0.23027061,-0.9238088,-0.24253055,-2.6009996,-0.26111493,1.453383,1.0268344,0.04,0.04,-0.010528837118561896,-0.054335628212576204,-0.021736710348663202,0.3643591601863758,0.15754948156104612,-0.016511048697825603,0.9486847287289506,0.29162577331139294,-0.11932176347612648,-0.026720976366084503
1683.6333333321309,-0.23297617,-0.92544603,-0.24537803,-2.6038716,-0.26418236,1.4520023,1.0296618,0.04,0.04,-0.0065396730350997245,-0.05404008614475764,-0.019824452079630905,0.3639503082789678,0.1579186976398178,-0.016088343255073162,0.9475787629263064,0.29460134498980967,-0.12076108299483615,-0.026856962135734894
1683.6499999987975,-0.23568551,-0.9270855,-0.24822955,-2.6067483,-0.26725417,1.45062,1.0324932,0.04,0.04,-0.008942339627782125,-0.05542669224359864,-0.01894482645908857,0.3634890178412118,0.158267836929065,-0.015662958460187865,0.9464622114519453,0.29756907385677817,-0.12220257921906912,-0.026989964981810416
1683.6666666654642,-0.23839833,-0.92872727,-0.25108472,-2.6096282,-0.2703299,1.4492356,1.0353281,0.04,0.04,-0.0063530824105484385,-0.05571890695222903,-0.01773494314984969,0.36297676344736163,0.15859071923386403,-0.015237623620773355,0.9453352954104007,0.30052856506978204,-0.12364574141585297,-0.027119945762337495
1683.6833333321308,-0.24111426,-0.9303708,-0.25394323,-2.6125124,-0.27340922,1.4478501,1.0381664,0.04,0.04,-0.008204682602919178,-0.05675505114547397,-0.016331077391906756,0.362413518726639,0.15889281874574512,-0.014814632123227811,0.9441982074853627,0.3034792794501105,-0.12509067097128487,-0.02724694408228939
1683.6999999987975,-0.24383298,-0.9320161,-0.25680462,-2.6153982,-0.2764918,1.4464628,1.0410079,0.04,0.04,-0.004219698649499115,-0.05649612186665598,-0.01480153048637467,0.3618016472308483,0.1591676429602035,-0.014391232537706633,0.943051114130739,0.3064211550821048,-0.12653653901934614,-0.02737108233018488
1683.7166666654641,-0.24655415,-0.93366295,-0.25966865,-2.618288,-0.27957717,1.4450743,1.0438522,0.04,0.04,-0.0076740903164118635,-0.0583064192557492,-0.014405178278720232,0.36113728244203014,0.15942238246054055,-0.013963902906339032,0.9418942108978983,0.3093534364382033,-0.12798408087902377,-0.027492214942629378
1683.7333333321308,-0.24927749,-0.935311,-0.2625349,-2.6211793,-0.282665,1.4436849,1.0466983,0.04,0.04,-0.0038452075929340523,-0.05758010528388313,-0.01202661534870364,0.3604234068808149,0.1596485810287478,-0.013540420654154395,0.9407278601912098,0.31227564756455334,-0.12943213032669706,-0.02761044435171868
1683.7499999987974,-0.25200263,-0.9369602,-0.26540306,-2.624072,-0.28575492,1.4422946,1.0495466,0.04,0.04,-0.0037570152932708822,-0.05829222146050972,-0.011083950512613683,0.3596618835438292,0.15985431512882214,-0.013116120157022654,0.9395521647289979,0.31518767112017454,-0.1308806483003294,-0.027725757471708544
1683.766666665464,-0.2547292,-0.9386105,-0.26827267,-2.6269662,-0.28884655,1.4409028,1.052396,0.04,0.04,-0.0036373542593892694,-0.05918030961522547,-0.010423806654036305,0.3588501152708484,0.16003759596302594,-0.012692056585745543,0.9383674194849504,0.31808872006591216,-0.1323298426578111,-0.027838192436722798
1683.7833333321307,-0.25745687,-0.94026136,-0.2711436,-2.6298628,-0.2919395,1.4395108,1.0552474,0.04,0.04,-0.0051798009513603915,-0.059952985357514255,-0.008986554012235803,0.3579915515945253,0.16019570372415803,-0.012269723707949293,0.9371737054263285,0.32097873787282866,-0.1337797462583355,-0.02794772230623787
1683.7999999987974,-0.2601854,-0.9419127,-0.27401522,-2.6327603,-0.29503337,1.4381187,1.0580994,0.04,0.04,-0.002871163238959973,-0.05979819856173352,-0.007215744871413854,0.3570839216254266,0.16032519998192676,-0.011850778249949179,0.9359714336474793,0.3238570290181486,-0.1352296172871191,-0.02805442495934843
1683.816666665464,-0.26291436,-0.9435644,-0.2768873,-2.635658,-0.29812777,1.4367262,1.0609517,0.04,0.04,-0.0017768558448594263,-0.060062194623944354,-0.006056983524937998,0.35613017292613225,0.1604314280176699,-0.0114318744631757,0.9347608208383038,0.3267232880986101,-0.13667922873954444,-0.028158289559143533
1683.8333333321307,-0.26564348,-0.9452161,-0.2797595,-2.638556,-0.3012223,1.4353338,1.0638041,0.04,0.04,-0.0018228204200054776,-0.0604637992932644,-0.004690539027885077,0.3551297016519951,0.16051391671534682,-0.011015989756385791,0.9335420933306654,0.3295771530099689,-0.13812845853734912,-0.028259319449319118
1683.8499999987973,-0.2683723,-0.9468675,-0.28263152,-2.6414535,-0.3043167,1.4339415,1.0666565,0.04,0.04,-0.0008260823824990382,-0.060539712602603046,-0.003425032540083084,0.3540842023481996,0.16057210780769718,-0.010601756024282705,0.9323154755917601,0.3324183055035934,-0.13957711225631017,-0.0283576069586134
1683.866666665464,-0.27110052,-0.94851893,-0.28550297,-2.6443505,-0.30741057,1.4325494,1.0695084,0.04,0.04,-0.0003977939669663755,-0.06101101070195014,-0.0023340703784735517,0.3529926030253073,0.16060508970841114,-0.010188926197569642,0.9310812299346547,0.33524640220479046,-0.14102485986119073,-0.028453154012271994
1683.8833333321306,-0.2738279,-0.95016986,-0.28837347,-2.6472464,-0.31050345,1.4311575,1.0723596,0.04,0.04,0.0004985895228681869,-0.06104327714806512,-0.0009735136290101032,0.35185572856577185,0.16061444712868886,-0.009779037411083602,0.9298395993136521,0.3380611025643726,-0.14247153422378642,-0.028545970242890805
1683.8999999987973,-0.2765541,-0.9518201,-0.29124272,-2.6501412,-0.31359497,1.4297659,1.0752088,0.04,0.04,0.0001532078500066092,-0.06157825906762948,8.230801440411994e-06,0.3506726263474953,0.1606011811137925,-0.009371821748788312,0.9285909513158154,0.34086162616781546,-0.1439172578284136,-0.028635988541892216
1683.916666665464,-0.27927876,-0.9534693,-0.29411027,-2.6530337,-0.31668487,1.4283757,1.0780569,0.04,0.04,0.002352110615477798,-0.06076406543171764,0.00239183622837702,0.3494497498144101,0.1605597753779096,-0.008970735676326114,0.9273354277521253,0.34364830816476805,-0.14536094876040395,-0.0287234974672441
1683.9333333321306,-0.28200153,-0.9551172,-0.29697585,-2.655924,-0.31977263,1.4269867,1.0809026,0.04,0.04,0.0019636844240666917,-0.06137641374537317,0.0032034452608575847,0.34818069427705,0.16049899910130958,-0.008567102791216114,0.9260734438670251,0.3464202373827522,-0.14680285079995073,-0.02880830944281485
1683.9499999987972,-0.284722,-0.9567641,-0.29983908,-2.6588125,-0.32285792,1.4255985,1.0837467,0.04,0.04,0.0019094526891638708,-0.06202263883491321,0.0038106130649917525,0.3468694946743187,0.1604161944111202,-0.008169958559567397,0.9248050384362541,0.34917755477904566,-0.148243084621787,-0.028890551799209793
1683.966666665464,-0.28743994,-0.9584093,-0.30269963,-2.661699,-0.3259403,1.4242113,1.0865877,0.04,0.04,0.001684228073606242,-0.06225232993275487,0.004902555222485727,0.34551435153128374,0.1603069329023457,-0.007775803199321085,0.9235306406767131,0.3519193558705422,-0.14968184234260393,-0.02897013579267808
1683.9833333321305,-0.290155,-0.96005285,-0.3055571,-2.6645815,-0.3290194,1.4228259,1.0894256,0.04,0.04,0.0050853097890657395,-0.06093852751000162,0.00756356243746259,0.34412050674021427,0.16016826241284604,-0.007388193290213035,0.9222505761806751,0.35464576059879765,-0.15111756988337255,-0.029047190849672198
1683.9999999987972,-0.29286677,-0.96169454,-0.3084112,-2.6674612,-0.33209497,1.4214419,1.0922599,0.04,0.04,0.0033545020925007663,-0.06201896484590019,0.007525182281209464,0.3426850108070272,0.16001145993205879,-0.007003179446195967,0.9209650702900051,0.3573561342655372,-0.15255116208399236,-0.029121736818756048
1684.0166666654638,-0.29557493,-0.9633341,-0.3112616,-2.6703362,-0.33516648,1.4200603,1.0950904,0.04,0.04,0.005833294629331576,-0.060926359706336974,0.010095506056029269,0.34121105757223746,0.15982704438092885,-0.0066249545253331266,0.9196744717020511,0.360050442236309,-0.15398138321959495,-0.029193813844233175
1684.0333333321305,-0.29827932,-0.9649713,-0.31410784,-2.673208,-0.33823362,1.41868,1.0979171,0.04,0.04,0.004116021975653084,-0.06215054560688715,0.00965823078014072,0.33969701400364294,0.15962419333766056,-0.006246131198701765,0.918378861367077,0.3627283442795421,-0.15540935027359204,-0.029263443028343075
1684.0499999987971,-0.3009794,-0.96660596,-0.31694967,-2.6760745,-0.34129608,1.4173024,1.1007396,0.04,0.04,0.0069800479927994985,-0.060597131757533784,0.012564287124705587,0.3381434990646247,0.1593918298312797,-0.0058773401963299055,0.9170786690448925,0.3653897471462262,-0.15683352181130852,-0.029330767114531784
1684.0666666654638,-0.303675,-0.968238,-0.31978664,-2.6789372,-0.34435338,1.4159266,1.1035578,0.04,0.04,0.005024761955119139,-0.062040640047933415,0.012167668597484749,0.33655005300649243,0.15914081544624062,-0.0055097528121936246,0.9157740244801029,0.3680342108347789,-0.1582550049577591,-0.0293957335094232
1684.0833333321305,-0.3063656,-0.96986705,-0.32261848,-2.6817944,-0.3474053,1.4145535,1.1063703,0.04,0.04,0.007424130229982673,-0.06064167193667869,0.014565086689932727,0.3349179353469301,0.15885956135197316,-0.005148238469787347,0.9144655044506445,0.370661133260841,-0.15967268574050458,-0.029458426435086237
1684.099999998797,-0.30905107,-0.9714929,-0.32544488,-2.6846457,-0.35045123,1.4131832,1.1091778,0.04,0.04,0.008107006850432974,-0.0605044250944875,0.01569716399303367,0.3332517946664595,0.1585575707879118,-0.004792341753255269,0.9131531663763272,0.3732708295995308,-0.16108638167792982,-0.029518810017989797
1684.1166666654638,-0.311731,-0.9731155,-0.3282655,-2.687491,-0.353491,1.4118155,1.1119792,0.04,0.04,0.008291195613074898,-0.060423550004062854,0.016433854442277074,0.331545846165262,0.15823501584531863,-0.004440701576508166,0.9118374245248827,0.37586264391893737,-0.16249611545758277,-0.029576960683799548
1684.1333333321304,-0.31440505,-0.97473454,-0.3310799,-2.690331,-0.3565242,1.4104507,1.1147751,0.04,0.04,0.0072611239848807685,-0.0609586702978393,0.017331448335788924,0.32980498056340796,0.15788773405710155,-0.004096098719740704,0.9105184190682075,0.3784364705639228,-0.16390220798443517,-0.029632963106647602
1684.149999998797,-0.3170728,-0.9763499,-0.33388776,-2.6931639,-0.35955036,1.4090893,1.1175642,0.04,0.04,0.010125359061396999,-0.05953123693532847,0.01953833387010606,0.32802863070316873,0.15751294792136822,-0.0037572489714097212,0.9091966561425603,0.3809919818040223,-0.16530348526934832,-0.029686832401533025
1684.1666666654637,-0.31973416,-0.9779613,-0.33668885,-2.6959896,-0.36256912,1.4077313,1.1203463,0.04,0.04,0.01009172772907796,-0.05937195452446753,0.02015761244232861,0.32621888634993595,0.15711949000250103,-0.0034243250300332873,0.9078723560712354,0.3835289930999808,-0.16670008083789026,-0.029738520171987935
1684.1833333321304,-0.32238868,-0.97956866,-0.33948272,-2.698808,-0.36558026,1.4063766,1.1231213,0.04,0.04,0.010581496241623967,-0.059135999934700756,0.021181325310903887,0.3243747807545763,0.15670403929633064,-0.003097493459972539,0.9065457875478607,0.38604729805438454,-0.1680918858166172,-0.02978819676904599
1684.199999998797,-0.32503602,-0.9811717,-0.3422691,-2.7016187,-0.3685833,1.4050256,1.1258887,0.04,0.04,0.0109434187607782,-0.058832625671190186,0.022454858866316485,0.3224977826511207,0.15626416565657436,-0.002776273339167523,0.9052172690893523,0.3885466459036465,-0.16947867848472137,-0.029835838156719117
1684.2166666654637,-0.32767585,-0.9827703,-0.34504756,-2.7044218,-0.37157795,1.4036784,1.1286485,0.04,0.04,0.011041165964309485,-0.05863019242882128,0.023383645578056722,0.3205887772603391,0.15580399495690644,-0.0024610974701961275,0.9038870535387351,0.3910268505088016,-0.17086043615936167,-0.029881565917196127
1684.2333333321303,-0.33030796,-0.98436415,-0.34781784,-2.707217,-0.37456387,1.4023352,1.1314002,0.04,0.04,0.011362142350179738,-0.05821459923776029,0.02433146183548618,0.31864682314776194,0.15532064577570526,-0.0021528786217036577,0.9025554289383045,0.3934876780938693,-0.172237092466037,-0.02992538823698766
1684.249999998797,-0.3329319,-0.9859532,-0.3505796,-2.7100034,-0.37754065,1.4009959,1.1341432,0.04,0.04,0.012876222198876519,-0.05747225254993937,0.025625577610877137,0.3166745886651144,0.1548122090400182,-0.0018517124750173919,0.9012227763464837,0.39592887633322843,-0.17360815767586893,-0.02996731333025607
1684.2666666654636,-0.33554745,-0.9875372,-0.35333237,-2.7127814,-0.38050792,1.3996607,1.1368774,0.04,0.04,0.01225305051182346,-0.057542542929756024,0.026421070955473525,0.3146726572244165,0.1542825968596132,-0.0015580021821195444,0.8998893366567651,0.3983502162197053,-0.1749738294921428,-0.030007432446244594
1684.2833333321303,-0.33815414,-0.9891159,-0.35607606,-2.7155492,-0.38346526,1.39833,1.1396029,0.04,0.04,0.014873554552985446,-0.0558906801705783,0.028180362046681395,0.31264211366149275,0.15372732895359145,-0.001271768856848987,0.8985553428751062,0.40075199082084795,-0.1763331774322064,-0.030045768094514744
1684.299999998797,-0.340752,-0.99068904,-0.35881022,-2.7183073,-0.3864125,1.3970042,1.1423186,0.04,0.04,0.014308013912067707,-0.055544994726008934,0.028959137988415762,0.31057980998049295,0.15315557975233263,-0.000991280321000737,0.8972212047378787,0.40313368215324247,-0.17768622091488875,-0.030082403149739312
1684.3166666654636,-0.3433405,-0.99225664,-0.36153448,-2.721056,-0.38934916,1.3956833,1.1450245,0.04,0.04,0.013808384795388484,-0.055938700160163,0.029568628183229695,0.3084891932186279,0.15256315694952186,-0.0007158616243213844,0.8958871835041508,0.4054950044190696,-0.1790332415561431,-0.030117341218613584
1684.3333333321302,-0.3459191,-0.9938184,-0.3642486,-2.7237942,-0.39227486,1.394367,1.1477207,0.04,0.04,0.015414258766788258,-0.05489099416080556,0.03079700018664422,0.3063727817570984,0.15194507674842103,-0.0004478618129724332,0.894553507967929,0.40783604027871606,-0.18037384722266214,-0.030150636314109934
1684.3499999987969,-0.34848782,-0.9953741,-0.36695212,-2.726522,-0.39518923,1.3930559,1.1504064,0.04,0.04,0.015517272877030308,-0.05430388030227551,0.03184083835354734,0.3042294763356214,0.15130465589639924,-0.00018508491577184927,0.8932205395553106,0.4101565061216191,-0.18170782636413302,-0.030182346506659647
1684.3666666654635,-0.3510462,-0.9969236,-0.36964488,-2.7292395,-0.39809206,1.3917502,1.1530813,0.04,0.04,0.015262089293766046,-0.05403899426397185,0.032520157601551025,0.3020615825468873,0.1506406697788577,7.451760556007048e-05,0.8918885728251136,0.41245615930801527,-0.18303522869179795,-0.030212503547442184
1684.3833333321302,-0.35359406,-0.99846673,-0.37232643,-2.7319448,-0.40098286,1.3904496,1.155745,0.04,0.04,0.01791365746299789,-0.0524440396264092,0.033807379905748114,0.2998612508339625,0.1499690920609102,0.0003089133792508192,0.8905578798230709,0.41473512441766486,-0.18435539694509584,-0.030241145423363272
1684.3999999987968,-0.35613096,-1.0000035,-0.37499654,-2.7346394,-0.40386143,1.3891547,1.1583973,0.04,0.04,0.01612810594615599,-0.05291908449075455,0.034277956247291685,0.29764067158272384,0.14926897083903806,0.0005488290695828124,0.8892287988106997,0.41699293431216755,-0.18566869502931357,-0.03026832974447293
1684.4166666654635,-0.3586567,-1.0015336,-0.377655,-2.7373214,-0.40672737,1.3878655,1.1610383,0.04,0.04,0.01875984535575359,-0.05097584764861551,0.0357405698273916,0.295398380875901,0.14854551612308675,0.0007801264762141713,0.8879015092133488,0.4192300480273676,-0.18697418168758745,-0.030294094307069464
1684.4333333321301,-0.36117092,-1.0030569,-0.38030127,-2.739992,-0.40958023,1.386582,1.163667,0.04,0.04,0.017142972260741907,-0.05174953472062427,0.03596381844868102,0.29312906771327707,0.14780706774353417,0.001007191358130849,0.8865764150303568,0.42144567764751273,-0.1882726584561608,-0.030318429741645878
1684.4499999987968,-0.36367336,-1.0045727,-0.3829353,-2.7426496,-0.41241995,1.3853047,1.1662832,0.04,0.04,0.018909221758001138,-0.04972832963952012,0.03732889818542917,0.29083993422412324,0.1470454488726399,0.0012224855831196035,0.8852537451308046,0.42364008342776316,-0.18956339669604913,-0.03034147455643077
1684.4666666654634,-0.3661637,-1.0060813,-0.38555652,-2.7452939,-0.41524586,1.3840333,1.1688873,0.04,0.04,0.01984351634849446,-0.04931218891474076,0.03815089330420074,0.28852760087072793,0.14626543598720343,0.0014304703403688612,0.8839337094893227,0.4258133459657653,-0.19084618196210468,-0.03036324186203292
1684.48333333213,-0.36864167,-1.0075824,-0.38816473,-2.747926,-0.41805774,1.3827683,1.1714782,0.04,0.04,0.018214239681912936,-0.0495737837610255,0.03849396817541262,0.2861918703046941,0.1454687946697637,0.0016326083660669344,0.882616703837302,0.4279648580059978,-0.1921214853385961,-0.030383701067744476
1684.4999999987967,-0.37110704,-1.0090759,-0.3907596,-2.7505448,-0.42085525,1.3815099,1.1740562,0.04,0.04,0.01993227760723748,-0.04803317282969788,0.03972920882293063,0.2838381812814762,0.14464866535130255,0.0018240539510110398,0.8813029077576868,0.4300949763379172,-0.1933886102762273,-0.03040298541528737
1684.5166666654634,-0.3735595,-1.0105613,-0.3933409,-2.7531493,-0.42363822,1.3802581,1.1766202,0.04,0.04,0.0211324379471467,-0.04672859831408305,0.04046188940058926,0.2814626462539654,0.14381061806234502,0.002007766414293316,0.87999271496722,0.4322034086743152,-0.1946473504044669,-0.03042111298826588
1684.53333333213,-0.3759987,-1.0120393,-0.3959083,-2.7557397,-0.42640617,1.3790128,1.1791706,0.04,0.04,0.021215593414058986,-0.046572913511633285,0.04100858830243803,0.27906881286810514,0.142955038775162,0.0021865979391925694,0.8786863468439623,0.43429020265969825,-0.1958975430808515,-0.030438074162079255
1684.5499999987967,-0.37842444,-1.0135088,-0.39846155,-2.7583153,-0.4291588,1.3777745,1.181707,0.04,0.04,0.021771749422305753,-0.045301521262652855,0.04198744214032324,0.27665556688279197,0.1420850302601503,0.0023563452892246817,0.8773839966080516,0.43635540620631563,-0.19713913456236448,-0.030453958603205333
1684.5666666654633,-0.38083637,-1.0149698,-0.40100026,-2.7608767,-0.4318959,1.376543,1.1842294,0.039999988,0.04,0.021309176081674153,-0.04513182646094238,0.04233756269587108,0.2742229820092951,0.14119535850948622,0.002519869814336634,0.8760859126022048,0.4383988417994972,-0.19837231613781034,-0.030468892972044567
1684.58333333213,-0.38323423,-1.0164222,-0.40352416,-2.763423,-0.43461713,1.3753189,1.1867368,0.039999966,0.04,0.022261486966823618,-0.04390942097121098,0.043321348734703946,0.2717729392961895,0.14028568718544868,0.0026751867149280018,0.87479249098904,0.44042031410237986,-0.19959669399157312,-0.03048285391471659
1684.5999999987966,-0.38561782,-1.017867,-0.40603304,-2.7659543,-0.43732217,1.374102,1.1892291,0.03999994,0.04,0.023008651251066325,-0.04333514435664876,0.04368292564211895,0.2693065476887255,0.13935960319388488,0.002823074130437031,0.8735040707655205,0.4424198433846569,-0.20081167272878872,-0.030495780551185542
1684.6166666654633,-0.3879868,-1.0193013,-0.40852657,-2.7684703,-0.44001067,1.3728925,1.1917063,0.039999906,0.04,0.02183533018296213,-0.042588101491480845,0.044411840254388046,0.26682478689878125,0.13842161613869786,0.0029629585964840444,0.872220619471146,0.4443973235649377,-0.20201851550773522,-0.030507854230367365
1684.63333333213,-0.39034092,-1.0207278,-0.4110045,-2.7709706,-0.44268247,1.3716906,1.1941677,0.039999876,0.04,0.024018724019891913,-0.041446145205747964,0.04504602867316798,0.2643273308169674,0.1374592177692927,0.0030916785990435514,0.870942711235607,0.44635277432619,-0.20321560741674796,-0.03051903502939648
1684.6499999987966,-0.3926799,-1.0221441,-0.4134665,-2.773455,-0.44533715,1.3704964,1.1966136,0.039999846,0.04,0.023249492405486016,-0.04078471494438629,0.04564169392609063,0.2618163125151299,0.13648403654926924,0.003216172018987523,0.8696703228805441,0.4482862036211127,-0.20440391891328313,-0.030529446059700423
1684.6666666654633,-0.39500353,-1.0235522,-0.4159123,-2.775923,-0.4479744,1.36931,1.1990436,0.039999817,0.04,0.02470541343002619,-0.03988060512827296,0.04620867009090812,0.25929204173002385,0.1354866889978874,0.003331161959571144,0.868403850165296,0.4501977820152013,-0.20558228421786995,-0.030539065186194984
1684.68333333213,-0.39731157,-1.02495,-0.41834164,-2.7783747,-0.45059407,1.3681318,1.2014569,0.039999776,0.04,0.024037035174084842,-0.03892396690963196,0.04677241688925138,0.25675112334986483,0.1344803428709259,0.0034394875060120844,0.8671435575004826,0.4520870507788237,-0.20675147388213,-0.030547950030725406
1684.6999999987966,-0.3996037,-1.0263393,-0.42075434,-2.7808092,-0.45319575,1.3669616,1.203854,0.039999746,0.04,0.025933104439679333,-0.037784269634077994,0.04739231051138493,0.25420068398101237,0.1334534526347553,0.003539952243311467,0.865889651306309,0.45395454664754886,-0.20791033299787506,-0.03055609221365779
1684.7166666654632,-0.4018797,-1.0277183,-0.42315,-2.783227,-0.45577908,1.3657997,1.2062339,0.039999716,0.04,0.02457871463037442,-0.03760915133781406,0.047717469788088884,0.25163559134571495,0.13241807328315988,0.0036364709248510596,0.8646424006139094,0.455799715103812,-0.20905982522129563,-0.03056351174752359
1684.7333333321299,-0.40413925,-1.0290875,-0.42552847,-2.785627,-0.45834392,1.3646458,1.2085968,0.039999686,0.04,0.026468012903402283,-0.03593707711633254,0.04827223745789144,0.2490618126176468,0.13136255867141955,0.003722816288352221,0.8634019582329894,0.45762298244132105,-0.2101992378945009,-0.030570326290714312
1684.7499999987965,-0.40638235,-1.030447,-0.4278895,-2.7880092,-0.4608899,1.3635006,1.2109425,0.039999664,0.04,0.026223738277075803,-0.0353231127786624,0.04869635984734999,0.24647617068244593,0.13029309854264295,0.0038036490702506864,0.862168577801666,0.45942432667024674,-0.2113284448073253,-0.030576460396197856
1684.7666666654632,-0.40860844,-1.0317961,-0.43023276,-2.7903738,-0.46341687,1.3623638,1.2132704,0.03999963,0.04,0.026049948374007315,-0.034765349803156376,0.04907510152741823,0.24387823316250423,0.1292123735463502,0.003877918746617498,0.860942554134493,0.46120341773267237,-0.21244779044065715,-0.030582058285212987
1684.7833333321298,-0.41081738,-1.033135,-0.43255797,-2.7927203,-0.4659244,1.361236,1.2155806,0.039999604,0.04,0.026890081031250013,-0.03360119889098678,0.04981069531280191,0.24127231194648352,0.1281160431424482,0.003942325505959909,0.8597241029441022,0.4629605047538699,-0.21355670460404985,-0.030587117773004196
1684.7999999987965,-0.41300905,-1.0344633,-0.4348649,-2.7950482,-0.46841237,1.3601167,1.2178725,0.039999567,0.04,0.027292202837503332,-0.032600992696019127,0.04981849248590908,0.23865913098147173,0.12700507591049198,0.004004537267042446,0.8585133802837104,0.46469555886909747,-0.21465544972814607,-0.03059168748502758
1684.8166666654631,-0.4151831,-1.0357805,-0.43715337,-2.7973578,-0.47088048,1.3590066,1.2201465,0.039999533,0.04,0.02691692258962597,-0.03194446150810437,0.050430887167274285,0.23603604654831278,0.1258805061890821,0.004056510495533933,0.8573105301375741,0.4664087224873867,-0.21574394994665053,-0.030595858614077303
1684.8333333321298,-0.4173394,-1.0370876,-0.43942326,-2.799648,-0.47332847,1.3579055,1.2224015,0.039999507,0.04,0.028536783413501965,-0.030532241492076118,0.05065282956443484,0.23340425409226978,0.12474103543814538,0.004103033992864297,0.8561159847460127,0.4680998811349377,-0.21682157607015173,-0.03059944597990856
1684.8499999987964,-0.41947773,-1.0383835,-0.44167414,-2.8019195,-0.47575605,1.3568135,1.2246376,0.039999474,0.04,0.027654344216188065,-0.030269203175448123,0.050963235708373356,0.2307656142391821,0.12359375202234403,0.004141582858984416,0.8549298270991256,0.4697690219023647,-0.21788881616229805,-0.030602623883372503
1684.866666665463,-0.4215978,-1.0396683,-0.44390577,-2.8041708,-0.47816294,1.3557309,1.2268548,0.039999444,0.04,0.029270588893282046,-0.028547435941861377,0.051583390366549686,0.2281202081878338,0.12243198889055112,0.004173455715524327,0.8537522396628829,0.4714164485945571,-0.21894508812277216,-0.030605451344785765
1684.8833333321297,-0.4236994,-1.0409421,-0.446118,-2.8064034,-0.48054898,1.3546579,1.2290529,0.039999414,0.04,0.027754955488501487,-0.02873290263286643,0.05160237332925144,0.22546851159728154,0.12125998563746096,0.004199964997901345,0.8525834562887675,0.4730419348464701,-0.21999075594683037,-0.030607927687927004
1684.8999999987964,-0.42578235,-1.0422045,-0.44831067,-2.8086154,-0.48291382,1.3535941,1.2312315,0.039999384,0.04,0.029833364215425817,-0.02686728351607437,0.05187052434584283,0.22281175294726802,0.120074780167726,0.004220441869418806,0.8514236269727573,0.47464575034411194,-0.2210254446481675,-0.03060999723799295
1684.916666665463,-0.42784652,-1.0434557,-0.45048353,-2.8108077,-0.48525724,1.3525401,1.2333901,0.039999355,0.04,0.029026931861730887,-0.026514544030453724,0.05224312845356072,0.2201481757557951,0.11887946390117074,0.004234028631868697,0.8502730622317393,0.4762277327754949,-0.22204907605593696,-0.030611664464342835
1684.9333333321297,-0.4298915,-1.0446954,-0.4526363,-2.8129807,-0.48757914,1.3514957,1.2355291,0.03999933,0.04,0.02834551586909928,-0.026397122711785403,0.05206202733490928,0.21748163512426438,0.11767485225305319,0.004241603936744609,0.8491318359852187,0.4777878333657512,-0.2230622099370875,-0.030613100169956994
1684.9499999987963,-0.43191725,-1.0459235,-0.45476884,-2.8151329,-0.48987922,1.3504611,1.2376477,0.0399993,0.04,0.03019826740089382,-0.024377734151015407,0.05261022941389082,0.21481172655753808,0.11645546784840163,0.004241065323301374,0.8480002137547228,0.47932627191538624,-0.22406412454016508,-0.03061422247406142
1684.966666665463,-0.4339235,-1.0471399,-0.45688093,-2.8172638,-0.4921572,1.3494365,1.2397463,0.039999273,0.04,0.03078500988049626,-0.02325839513873662,0.0530507894579868,0.21213984570355487,0.1152265422098662,0.004234217241855381,0.8468782391410509,0.480843436782744,-0.2250545537540765,-0.030615114026666064
1684.9833333321296,-0.43591017,-1.0483443,-0.4589723,-2.8193738,-0.494413,1.348422,1.2418242,0.039999247,0.04,0.030389020337140416,-0.022646451766661357,0.05301292601635477,0.20946234244704598,0.11398960733587751,0.004224737312757923,0.84576623873143,0.48233897441834017,-0.22603374789960728,-0.030615812738035014
1684.9999999987963,-0.437877,-1.0495367,-0.46104288,-2.8214633,-0.4966463,1.3474176,1.2438815,0.039999228,0.04,0.029833586587146854,-0.022519512673624398,0.05287167981094798,0.20678354339940586,0.11274338529084464,0.0042093867380565975,0.8446642617014027,0.4838130364877408,-0.22700192590757487,-0.030616276115626458
1685.016666665463,-0.43982387,-1.0507171,-0.46309242,-2.8235316,-0.4988569,1.3464234,1.2459178,0.039999194,0.04,0.0307361851484389,-0.02115977945730263,0.053267256381497874,0.20410261274849686,0.11148681356118925,0.004185500894872837,0.8435725431781937,0.48526570992224066,-0.22795873556788965,-0.03061649960115345
1685.0333333321296,-0.44175062,-1.051885,-0.46512064,-2.8255787,-0.50104463,1.3454394,1.2479331,0.03999917,0.04,0.030592302951082395,-0.020459319517351915,0.05322604277679388,0.20142088156648233,0.11022130789585281,0.004157600079632423,0.8424911541409177,0.48669707572146365,-0.22890442333865707,-0.030616607494581692
1685.0499999987962,-0.44365698,-1.0530405,-0.46712747,-2.8276036,-0.50320923,1.3444659,1.249927,0.03999914,0.04,0.03183921326328498,-0.01895086911466448,0.05362195648653534,0.1987381573881845,0.10894605392115836,0.004122447070168983,0.8414203484367682,0.4881072599365232,-0.22983848285115616,-0.030616528779172508
1685.066666665463,-0.4455428,-1.054184,-0.4691127,-2.829607,-0.5053508,1.3435029,1.2518996,0.03999911,0.04,0.031151729222789193,-0.018617237704265932,0.0534716227165527,0.19605507273259765,0.10766277741442308,0.004083195503412865,0.8403602786899462,0.4894962863118535,-0.2307609607700852,-0.030616444462529764
1685.0833333321295,-0.4474078,-1.0553147,-0.4710762,-2.8315878,-0.50746906,1.3425502,1.2538506,0.039999086,0.04,0.032333417348340276,-0.01719974529761359,0.05360227876063661,0.19337274600160126,0.10637235736454553,0.00404050281165419,0.8393110081953381,0.490864354231712,-0.23167187778472975,-0.030616307917625277
1685.0999999987962,-0.44925216,-1.0564328,-0.47301763,-2.8335466,-0.5095633,1.3416082,1.2557795,0.039999064,0.04,0.03158327490937474,-0.017202972525398597,0.053719466900528645,0.19069047373707465,0.10507434262218762,0.003993706070631625,0.8382727870838839,0.4922113682745312,-0.23257121446147822,-0.030615904034416056
1685.1166666654628,-0.45107543,-1.0575383,-0.47493726,-2.835483,-0.5116337,1.3406769,1.2576869,0.039999038,0.04,0.031929342847281106,-0.016009945976347417,0.053721790349012255,0.18801020785098782,0.10377034826239845,0.003939944377691379,0.8372455997614882,0.4935376842772429,-0.2334589126511459,-0.030615290003968267
1685.1333333321295,-0.45287764,-1.0586308,-0.4768344,-2.8373976,-0.5136803,1.3397565,1.2595719,0.03999901,0.04,0.031546746323218855,-0.01555253197667028,0.05354467936738161,0.18532929629207873,0.10245966576641086,0.0038806081923518088,0.8362297272123802,0.4948429978893969,-0.23433520004662142,-0.03061478050309333
1685.1499999987961,-0.45465854,-1.0597109,-0.47870925,-2.8392894,-0.5157026,1.3388468,1.2614347,0.039998982,0.04,0.032427339917862064,-0.014515077737653481,0.053665521936008265,0.18265309482006795,0.10113993048749928,0.0038174157178078455,0.8352252724939665,0.4961276374105249,-0.2351996821892532,-0.0306140667488739
1685.1666666654628,-0.456418,-1.0607777,-0.48056144,-2.8411589,-0.5177007,1.3379481,1.2632751,0.039998952,0.04,0.031938784535312514,-0.013917031563870363,0.0536238316606763,0.17997810563056363,0.09981730231291552,0.003748659137524424,0.8342322992466163,0.4973916044172716,-0.2360527106181989,-0.030613404886047888
1685.1833333321295,-0.45815587,-1.0618312,-0.48239097,-2.8430054,-0.51967454,1.3370606,1.2650932,0.03999893,0.04,0.03246716249989401,-0.012605218327432777,0.05367860523275425,0.17730849199903242,0.09848439033264851,0.0036749432080353805,0.8332509353282999,0.49863510069653993,-0.23689400281307843,-0.030612849574359505
1685.199999998796,-0.45987204,-1.062872,-0.4841978,-2.8448288,-0.52162355,1.336184,1.2668884,0.039998915,0.04,0.0329226907488156,-0.012177675990798775,0.053666255505388505,0.17464186010215887,0.097144606063179,0.00359918457972358,0.8322813926548899,0.4998581669851383,-0.2377233661541212,-0.0306120486581362
1685.2166666654628,-0.46156645,-1.0638994,-0.48598158,-2.846629,-0.52354777,1.3353187,1.2686607,0.039998885,0.04,0.03299196492780876,-0.011114150712154824,0.053623259275686896,0.1719793029141088,0.09580465723069045,0.003516114850218466,0.8313236940244801,0.5010609548364389,-0.23854095406949757,-0.030611248316635222
1685.2333333321294,-0.46323892,-1.0649137,-0.4877423,-2.8484066,-0.5254471,1.3344644,1.2704102,0.039998863,0.04,0.03198186177268969,-0.01141737252161601,0.05323360987466719,0.16932137202109188,0.09445820100708996,0.003429834060830375,0.8303779579599545,0.5022434146532488,-0.2393470339681323,-0.03061040186535975
1685.249999998796,-0.46488932,-1.0659145,-0.48947978,-2.8501604,-0.5273214,1.3336213,1.2721368,0.03999884,0.04,0.03352352263026326,-0.009460503941138843,0.053367732207332264,0.16666937372465201,0.09310595356829908,0.003338444649065797,0.8294441982605891,0.5034059236365488,-0.2401413083386032,-0.03060963980359314
1685.2666666654627,-0.46651754,-1.0669019,-0.49119398,-2.8518903,-0.52917063,1.3327893,1.2738402,0.039998814,0.04,0.03357192760169436,-0.008783073674856201,0.05326628332678607,0.16402015623073435,0.09174963812673159,0.0032429515575465306,0.8285226019583772,0.5045485028816534,-0.24092364409303954,-0.030608887613448953
1685.2833333321294,-0.46812353,-1.067876,-0.4928848,-2.8535962,-0.5309947,1.331969,1.2755202,0.039998792,0.04,0.03381611198500778,-0.007698230712493981,0.05340609560953724,0.16137799685113952,0.09038960485484898,0.003145225251729236,0.8276132996926358,0.5056713355779802,-0.2416937440808744,-0.030608178952984726
1685.299999998796,-0.4697072,-1.0688365,-0.4945521,-2.8552787,-0.53279346,1.3311601,1.277177,0.039998777,0.04,0.032870111928517964,-0.007988640171174843,0.052854515407699254,0.15874173513966278,0.0890294068525242,0.0030464123841006246,0.8267162866709036,0.5067743855025842,-0.24245222835626642,-0.03060752385658596
1685.3166666654627,-0.4712684,-1.0697833,-0.4961957,-2.8569374,-0.53456676,1.3303624,1.2788103,0.03999876,0.04,0.03346522858447276,-0.006970465330236042,0.0528265217410645,0.15611218278109948,0.08766353029898001,0.002943377407117184,0.8258316865352904,0.5078577787937617,-0.24319892489107026,-0.03060694308114417
1685.3333333321293,-0.47280708,-1.070717,-0.4978157,-2.8585722,-0.5363145,1.3295761,1.28042,0.039998736,0.04,0.03351338045276542,-0.006378770925763444,0.05258460833535705,0.1534902602956572,0.08629585598816694,0.0028366718435320903,0.8249595977947255,0.5089216677173248,-0.243933703256162,-0.03060631552337175
1685.349999998796,-0.47432318,-1.0716367,-0.49941188,-2.860183,-0.5380364,1.3288016,1.282006,0.03999871,0.04,0.03349281104658708,-0.005492621224645333,0.05278131874074665,0.15087518004065795,0.08492543981690394,0.002726234995537355,0.8241000606931771,0.5099662042105753,-0.24465660115421337,-0.030605686403473435
1685.3666666654626,-0.47581655,-1.0725424,-0.50098425,-2.8617694,-0.53973275,1.3280388,1.2835681,0.039998688,0.04,0.03375434564136803,-0.004547820354905419,0.052415183238654905,0.1482681852698686,0.08355459456275574,0.0026124662093491013,0.8232532031897133,0.5109914059979901,-0.24536762381956245,-0.030605156676870648
1685.3833333321293,-0.47728723,-1.0734344,-0.50253314,-2.8633325,-0.5414031,1.3272874,1.2851065,0.03999867,0.04,0.03242188833108006,-0.005209259594785021,0.05180647603029165,0.14567057042197465,0.08218097992086554,0.00249616814826846,0.8224189778835233,0.5119973574530238,-0.2460672763638409,-0.030604350687813347
1685.399999998796,-0.47873515,-1.0743126,-0.50405747,-2.8648715,-0.5430476,1.3265479,1.2866216,0.03999864,0.04,0.033767648236593395,-0.0036572713092986042,0.0521728073780231,0.14307979662078274,0.08080627986429567,0.00237225579288948,0.821597430105261,0.5129844294614216,-0.24675501519480275,-0.030603928682166152
1685.4166666654626,-0.48016015,-1.0751772,-0.50555754,-2.8663855,-0.54466623,1.32582,1.2881135,0.039998624,0.04,0.03479264865933196,-0.002221134353741494,0.05198684078919491,0.14050023405131562,0.0794268347040229,0.002249508325517652,0.8207885030770531,0.5139531071809832,-0.2474304818830584,-0.030603814642307794
1685.4333333321292,-0.4815622,-1.0760279,-0.5070336,-2.8678753,-0.54625875,1.3251039,1.2895802,0.03999861,0.04,0.03328940494282673,-0.0026728504559647703,0.05157657731477694,0.13792533609759344,0.0780499013820537,0.002129805547508662,0.8199927452036156,0.5149024707470025,-0.2480942719594834,-0.030603523538381066
1685.4499999987959,-0.48294133,-1.0768646,-0.5084857,-2.8693404,-0.5478253,1.3243994,1.2910234,0.039998595,0.04,0.03410115667625835,-0.0014449726207566016,0.05114698922292771,0.13536554180812035,0.07667319409231796,0.0020036350381988366,0.8192097097643182,0.5158335087227425,-0.248746219069416,-0.030603287491963956
1685.4666666654625,-0.48429748,-1.0776874,-0.5099135,-2.8707812,-0.5493657,1.3237067,1.2924422,0.03999857,0.04,0.03356645970455929,-0.0012482119329138008,0.051139750975826015,0.13281211873821402,0.07529847442267137,0.0018762978267513886,0.8184396920539873,0.5167459238529771,-0.24938638762603743,-0.030603109625386416
1685.4833333321292,-0.48563063,-1.0784963,-0.5113171,-2.8721979,-0.55088,1.323026,1.293837,0.03999855,0.04,0.033279787488793566,-0.000977174043181872,0.05072944329024831,0.13027119247304178,0.0739239965634532,0.001745230804016576,0.8176826620544739,0.5176398967470617,-0.2500149139129233,-0.03060301116415796
1685.4999999987958,-0.4869407,-1.0792913,-0.5126964,-2.8735895,-0.5523682,1.3223566,1.2952074,0.03999854,0.04,0.034357240256199795,0.00029855634025022226,0.050381255854164975,0.12774252227985297,0.07254919278179484,0.0016134134133695133,0.8169386215611154,0.5185156827032348,-0.2506316668953407,-0.0306029891005108
1685.5166666654625,-0.4882277,-1.0800723,-0.51405144,-2.874957,-0.5538302,1.321699,1.2965539,0.03999852,0.04,0.03306326544909588,-1.5135424913381712e-05,0.05018355551891229,0.1252248151215436,0.071175486397847,0.0014792180270330468,0.81620756728466,0.5193733238093728,-0.25123696491076214,-0.030603024113476193
1685.5333333321291,-0.48949152,-1.080839,-0.5153821,-2.8763003,-0.55526596,1.321053,1.2978761,0.039998505,0.04,0.0333243734251365,0.0006096910942110512,0.049814597838679364,0.12271977072606279,0.06980194140907647,0.0013421171876263766,0.8154895470925088,0.5202128747829048,-0.25183091616115744,-0.030603156020134924
1685.5499999987958,-0.49073228,-1.0815916,-0.5166886,-2.8776188,-0.5566756,1.3204191,1.2991744,0.039998487,0.04,0.033729238229818215,0.001869872829873831,0.04974873369471555,0.12022751794236838,0.06842822088949457,0.0012017636992893016,0.8147845119798359,0.5210347781582566,-0.2524131352537692,-0.030603400770492863
1685.5666666654624,-0.49194998,-1.0823307,-0.5179707,-2.8789127,-0.5580592,1.3197968,1.3004482,0.039998468,0.04,0.03378819423829338,0.0020594089207959243,0.04926461938674909,0.1177469538628495,0.06705630184001285,0.001061330736936747,0.81409267925452,0.5218388849626667,-0.2529835919399754,-0.03060375686522711
1685.583333332129,-0.49314454,-1.0830557,-0.5192284,-2.8801816,-0.5594161,1.3191863,1.3016982,0.039998453,0.04,0.03401126404372068,0.0025811108798290405,0.049389366727981,0.11528095514671832,0.06568929324944585,0.0009208166867774731,0.8134138005797519,0.5226257462987999,-0.253542325193092,-0.03060404659038648
1685.5999999987957,-0.49431598,-1.0837667,-0.5204619,-2.881427,-0.56074715,1.3185877,1.3029239,0.03999844,0.04,0.03193020075742403,0.001968691303178005,0.048374455214650336,0.11282571154187568,0.06432618499338563,0.0007797108491364863,0.8127480842428163,0.5233948164298629,-0.25409010857311354,-0.030604483646773577
1685.6166666654624,-0.49546438,-1.0844631,-0.52167124,-2.8826475,-0.5620518,1.3180009,1.3041255,0.039998427,0.04,0.03364300607680004,0.003718388597229172,0.048577108474023856,0.11038711606954338,0.06296246317774672,0.0006343367224656421,0.8120953580356033,0.5241467822103107,-0.25462643529925827,-0.030604878735184016
1685.633333332129,-0.49658987,-1.085146,-0.5228564,-2.8838432,-0.5633306,1.3174257,1.305303,0.03999841,0.04,0.033722289109539005,0.004225731783691344,0.04776138528857499,0.10796153979504283,0.061603122039430344,0.00048690181872756977,0.8114556826527324,0.5248817598181879,-0.25515117424615746,-0.030605417519730588
1685.6499999987957,-0.4976922,-1.0858152,-0.52401704,-2.8850145,-0.564583,1.3168625,1.3064564,0.03999839,0.04,0.03321868494197133,0.003975065336292438,0.048155378556336004,0.10554895760892832,0.060249761982176145,0.0003399004092379393,0.8108291613014882,0.525599732953379,-0.25566435191823433,-0.030606062482636913
1685.6666666654623,-0.4987716,-1.0864702,-0.52515376,-2.8861618,-0.5658092,1.316311,1.3075857,0.03999838,0.04,0.03236721339090476,0.004160562432276027,0.04728569975561148,0.10315346774446796,0.05890134389973065,0.00019414639733088268,0.8102156937106595,0.5263007708041686,-0.2561664855358404,-0.03060653531697155
1685.683333332129,-0.49982807,-1.0871114,-0.5262663,-2.8872845,-0.5670094,1.3157712,1.3086914,0.039998364,0.04,0.033143603371610375,0.005166141982304584,0.04702257530793119,0.10077292976960758,0.05755748878963886,4.417197410148954e-05,0.8096151395444401,0.5269853302549588,-0.25665733622161235,-0.030607176938346938
1685.6999999987956,-0.50086164,-1.0877388,-0.5273546,-2.8883827,-0.5681837,1.315243,1.309773,0.039998353,0.04,0.03320312893289046,0.00560730711562929,0.0466074397924926,0.09840757383193191,0.05621757208965017,-0.00010430719739351613,0.8090276219340958,0.5276533695440501,-0.25713689175390353,-0.030607963924657772
1685.7166666654623,-0.50187254,-1.0883522,-0.5284189,-2.8894565,-0.5693321,1.3147266,1.3108307,0.03999834,0.04,0.03266697112933592,0.005818764696674528,0.04627431540636662,0.09605850066929214,0.05488383549884547,-0.00025243255077955773,0.80845303172807,0.5283051311469634,-0.257605290788363,-0.030608790425710575
1685.733333332129,-0.5028606,-1.0889521,-0.52945936,-2.8905065,-0.5704548,1.3142217,1.3118649,0.039998334,0.04,0.032139912035167306,0.0057291181608798425,0.04579767520096201,0.09372543901863711,0.05355604137959496,-0.0004004172653094065,0.8078913665092605,0.5289406618749577,-0.25806271309722667,-0.03060967565950317
1685.7499999987956,-0.5038261,-1.0895379,-0.530476,-2.891532,-0.5715516,1.3137285,1.3128752,0.03999832,0.04,0.032753329651469265,0.006735914244582197,0.045465552363355144,0.09141011748454518,0.05223286094214487,-0.0005501104280491859,0.8073425481030514,0.5295602273591223,-0.2585091279819316,-0.03061055980945476
1685.7666666654623,-0.5047687,-1.0901102,-0.53146875,-2.8925338,-0.5726229,1.3132466,1.3138618,0.03999831,0.04,0.03183078105735149,0.006275805786049027,0.04510721257226513,0.0891114994583744,0.05091688827729143,-0.0006988074047504789,0.806806666926917,0.5301637095750776,-0.2589447331148829,-0.03061157369253544
1685.783333332129,-0.505689,-1.090669,-0.5324379,-2.893512,-0.5736686,1.3127763,1.3148248,0.039998297,0.04,0.031661892649292867,0.006687400943405919,0.04457769193397798,0.08683140047865039,0.04960796586348912,-0.0008482764665743783,0.8062836321641208,0.5307513822991309,-0.2593695202594069,-0.03061252443363211
1685.7999999987956,-0.50658697,-1.0912138,-0.5333835,-2.8944666,-0.57468885,1.3123175,1.3157643,0.03999828,0.04,0.031410979924295646,0.006990674195617164,0.044125239082742906,0.08457077426774151,0.04830624947694144,-0.000998910689184375,0.805773303236811,0.5313233865192366,-0.2597838625247475,-0.030613518260587284
1685.8166666654622,-0.50746256,-1.0917454,-0.53430545,-2.895397,-0.57568365,1.3118701,1.3166806,0.039998263,0.04,0.03252664989490395,0.00807377937666054,0.04411282705321373,0.08232876848557957,0.04701012572096781,-0.0011524814783891793,0.8052756735052274,0.5318801723737302,-0.26018708671949875,-0.030614568440745605
1685.8333333321289,-0.50831586,-1.0922636,-0.53520435,-2.896304,-0.57665336,1.311434,1.3175735,0.039998256,0.04,0.031095867782116038,0.007568150242298621,0.04331790130074065,0.08010631977209784,0.04572342187375364,-0.0013021885541953868,0.8047907101418278,0.5324216256498435,-0.2605797628700435,-0.030615561278249357
