rsonawane2002/My_IMU/logs_2/traj_508/clean_508.csv
time,j1,j2,j3,j4,j5,j6,j7,gripper1,gripper2,imu_ax,imu_ay,imu_az,imu_gx,imu_gy,imu_gz,quat_x,quat_y,quat_z,quat_w
2840.883333341895,0.00016700293,-0.785875,4.0107683e-05,-2.3551247,9.29385e-05,1.570997,0.786,0.04,0.04,0.0,-0.0,0.0,2.875329272945135e-08,-0.0011641195053377316,4.421952117202833e-08,0.9999995971961153,0.00020320632366974898,0.0008736418299892524,3.263050917662294e-05
2840.900000008562,0.00016700891,-0.78576016,4.011454e-05,-2.3552213,9.298146e-05,1.5709941,0.786,0.04,0.04,-0.29199845966085825,-4.4220659086834785e-05,0.02012840635028379,1.4032092237167434e-07,-0.0022375849774080745,5.181052903619923e-07,0.9999996850589707,0.0002032056509573869,0.0007665025172457328,3.260849550808564e-05
2840.916666675229,0.00016703643,-0.7856543,4.0120394e-05,-2.35531,9.307302e-05,1.5709913,0.786,0.04,0.04,0.023328727754368117,-5.9018099954143794e-05,-0.001670448337054431,1.6114279277820462e-06,-0.003222284704540858,3.5445843672529067e-06,0.9999997558476091,0.00020319416995839707,0.000667797240296058,3.261437129497256e-05
2840.933333341896,0.00016712166,-0.785557,4.0124658e-05,-2.355391,9.329778e-05,1.5709884,0.786,0.04,0.04,0.022394876972664512,-0.00016137822828762535,-0.0014910853006311342,5.345898919148346e-06,-0.004121515022567833,1.1468254413870043e-05,0.9999998122682164,0.00020315400492169802,0.0005771683565899251,3.26905251245831e-05
2840.9500000085627,0.00016731684,-0.7854673,4.012653e-05,-2.3554654,9.377689e-05,1.5709856,0.786,0.04,0.04,0.019850216807881793,-0.00030839605789988005,-0.0014303065971610351,1.3173092020196776e-05,-0.0049330256146633555,2.640385187651266e-05,0.9999998569617216,0.00020305935791671038,0.0004937217736283823,3.289747370392747e-05
2840.9666666752296,0.0001676885,-0.785385,4.0124814e-05,-2.355533,9.468698e-05,1.5709827,0.786,0.04,0.03999999,0.019859037124958512,-0.0005121721231282346,-0.0011100313834111475,2.5915919190488476e-05,-0.005663315963554737,5.175460493229867e-05,0.999999891754649,0.0002028773993591518,0.00041739785177213754,3.3323933180352815e-05
2840.9833333418965,0.00016831655,-0.78530926,4.0118786e-05,-2.355598,9.617821e-05,1.5709797,0.7860019,0.04,0.039999995,0.011264735434646234,-0.0007110119742794027,-0.002775680819189219,4.5311057166036174e-05,-0.006308986529811847,8.535203594542304e-05,0.9999999190300483,0.00020352227683997513,0.0003454845171320877,3.404450502508174e-05
2841.0000000085633,0.00016929198,-0.7852399,4.0107123e-05,-2.3556566,9.8471675e-05,1.5709765,0.7860038,0.04,0.039999995,0.017917386249877154,-0.0009753124798405049,-0.0009438490163438118,6.384276443813213e-05,-0.006890244005537191,0.00013190069046872143,0.9999999394138821,0.0002039951997772874,0.0002798593003599313,3.5170481181896395e-05
2841.01666667523,0.00017071636,-0.7851762,4.0088453e-05,-2.3557138,0.000101788864,1.5709728,0.78600764,0.04,0.04,0.008607458591280981,-0.001250367732942917,-0.0029838511067969975,9.189601083883217e-05,-0.007385701689277413,0.00019055239269318635,0.9999999546002419,0.0002051997601188869,0.00021757168839609033,3.681212836458982e-05
2841.033333341897,0.00017270018,-0.78511757,4.006112e-05,-2.355765,0.00010640183,1.5709661,0.78601146,0.04,0.04,0.014721449027810252,-0.0015736236248967193,-0.0024112109015428373,0.0001220903222229633,-0.007821537794814837,0.0002660175459215734,0.9999999653064541,0.00020612751546797518,0.0001592773022608116,3.9105996283226205e-05
2841.050000008564,0.00017536232,-0.78506404,4.0023562e-05,-2.3558152,0.00011257903,1.5709593,0.7860172,0.04,0.04,0.007656854817783554,-0.00190292419546642,-0.0024781905519688507,0.00016521173253869495,-0.008186260955384838,0.0003566164210265688,0.999999972129469,0.0002076735341649026,0.00010408196713674341,4.218659102307714e-05
2841.066666675231,0.00017882865,-0.785015,3.997396e-05,-2.3558629,0.00012063092,1.5709509,0.7860248,0.04,0.03999999,0.008466749818447639,-0.002271257168695985,-0.002724523006802926,0.00021344705310589147,-0.008484477656632544,0.00046546172997025673,0.99999997560441,0.00020977556473267064,5.1478954221341114e-05,4.6209407021876555e-05
2841.0833333418977,0.0001832319,-0.78497034,3.991104e-05,-2.3559067,0.00013081486,1.5709403,0.78603435,0.039999995,0.04,0.010680689207065441,-0.002608410282273514,-0.002401922335426576,0.00026863526302728434,-0.00871902377284111,0.0005880546163053312,0.9999999761321143,0.00021236770836143343,1.9152084585704046e-06,5.130359894277719e-05
2841.1000000085646,0.00018870932,-0.78492975,3.9832656e-05,-2.3559499,0.00014347403,1.570926,0.7860458,0.03999999,0.039999995,0.004527981927804348,-0.0030126795637044966,-0.004741474392910838,0.0003323866783004818,-0.0088815981246874,0.00073112786307238,0.9999999740342299,0.00021538227272048367,-4.711278721626049e-05,5.7640276714670306e-05
2841.1166666752315,0.00019540351,-0.7848929,3.973689e-05,-2.3559928,0.00015894315,1.5709108,0.7860592,0.03999999,0.03999999,0.004295062127557259,-0.003417744056078277,-0.00265324777168896,0.00040607862546737357,-0.008991578050062699,0.0008940299045755501,0.9999999694591762,0.0002187786568647989,-9.456209202697169e-05,6.538774095563593e-05
2841.1333333418984,0.00020346114,-0.7848596,3.9622057e-05,-2.3560357,0.00017754224,1.5708923,0.78607595,0.03999999,0.04,0.0028340715538366368,-0.0038159845895057573,-0.004489944476215868,0.0004914004241757837,-0.009036598536833368,0.00107387704689622,0.9999999622361219,0.00022316961379662546,-0.00014192303059802334,7.470563326088378e-05
2841.1500000085653,0.00021303196,-0.7848295,3.948588e-05,-2.3560786,0.000199625,1.5708703,0.7860956,0.039999988,0.039999995,0.0024299571123265196,-0.004242333372840107,-0.004498373271277778,0.0005834967678262274,-0.009027562071824273,0.0012752935873286003,0.9999999523191666,0.0002282725441955524,-0.0001894640192637196,8.577118151248743e-05
2841.166666675232,0.00022426875,-0.7848027,3.9326413e-05,-2.3561218,0.00022554175,1.5708444,0.78611875,0.039999984,0.03999999,0.002016118768333186,-0.004669781391130934,-0.004816423328968256,0.0006854968499798367,-0.008963136087185937,0.001496957625867392,0.9999999395017451,0.0002342800443239748,-0.00023739394326945446,9.875972048234911e-05
2841.183333341899,0.00023732665,-0.7847789,3.9141763e-05,-2.3561654,0.0002556486,1.5708146,0.78614575,0.03999998,0.039999988,0.0013107553010982542,-0.0051042966954009,-0.0048772720698142535,0.0007972678581537117,-0.008843336814963305,0.0017391677249810752,0.9999999234993591,0.00024132389336488938,-0.0002860111468661967,0.00011384936669034986
2841.200000008566,0.00025236254,-0.7847578,3.8929695e-05,-2.3562117,0.00029030596,1.5707809,0.7861768,0.039999977,0.039999984,-0.0027288801368596793,-0.005543185717058006,-0.005639193608275583,0.0009176090199996566,-0.00866653544645036,0.0020021535193029414,0.9999999036475625,0.0002494160688963911,-0.0003365676991930776,0.00013121994541327625
2841.216666675233,0.00026953476,-0.78473943,3.868814e-05,-2.3562613,0.0003298772,1.5707425,0.7862121,0.03999997,0.039999977,-0.0041027992579323325,-0.005986086499417656,-0.006528573245812019,0.0010480887104572104,-0.008443049211890756,0.002286084461304464,0.9999998792105738,0.0002585676212245964,-0.0003897494936794107,0.00015105282374048442
2841.2333333418997,0.00028900267,-0.78472376,3.841508e-05,-2.3563118,0.00037472835,1.5706989,0.78625214,0.039999966,0.039999973,-0.00030501174725916513,-0.006432763285046646,-0.0058688119851879605,0.0011886430699579226,-0.00817518050375463,0.0025910845374125047,0.9999998498957916,0.00026896756983169165,-0.0004446928125074549,0.00017353138878508875
2841.2500000085665,0.00031092603,-0.78471047,3.8108406e-05,-2.3563633,0.00042522597,1.5706494,0.7862972,0.039999958,0.03999997,-0.0008209744164489052,-0.006879758985922392,-0.00614552286839487,0.0013389571877467496,-0.007852839751673116,0.0029163594306390256,0.999999814923381,0.00028065586732456415,-0.0005018453161234456,0.00019883854417077204
2841.2666666752334,0.00033546507,-0.7846996,3.776581e-05,-2.3564208,0.0004817389,1.5705948,0.7863477,0.03999995,0.03999996,-0.009031755836019784,-0.007327772463328855,-0.00789923586821395,0.0014993024332634233,-0.007477372599379219,0.003263631558307576,0.999999772384813,0.0002937623999316523,-0.0005633237206330316,0.00022715712685744108
2841.2833333419003,0.00036277997,-0.7846909,3.7385296e-05,-2.3564794,0.00054463424,1.5705336,0.78640395,0.03999994,0.03999995,-0.001710372484842182,-0.007776449958378246,-0.006654994265664627,0.0016691107063109283,-0.007066115715431791,0.0036320315930589184,0.999999722047181,0.00030838582277556155,-0.000627608981045237,0.00025867104939309387
2841.300000008567,0.00039303055,-0.7846846,3.696486e-05,-2.356544,0.0006142794,1.5704662,0.7864663,0.039999932,0.039999943,-0.009467860297363018,-0.008223060506654719,-0.008759862194418488,0.0018484147059699087,-0.006600485490742644,0.004021481658936643,0.9999996614307662,0.0003245964517698302,-0.0006968478693760792,0.00029356182218563144
2841.316666675234,0.00042637592,-0.7846805,3.650239e-05,-2.3566103,0.00069103925,1.570392,0.7865349,0.03999993,0.039999943,-0.00248546512811032,-0.00866873374310996,-0.0069971400835422415,0.0020372204291073345,-0.006099527655698039,0.00443103213926292,0.9999995904569488,0.0003424040189375894,-0.0007691639786212782,0.0003320123439619314
2841.333333341901,0.00046297468,-0.78467864,3.599574e-05,-2.3566835,0.00077527884,1.5703107,0.78661025,0.039999932,0.039999947,-0.011474518570908643,-0.009111605388517782,-0.00975121693271852,0.0022361438866384535,-0.005542286518147795,0.004862249146251211,0.9999995054408272,0.00036196896816059054,-0.0008473898809715436,0.00037420175958507003
2841.350000008568,0.00050298404,-0.78467876,3.5442867e-05,-2.3567586,0.0008673587,1.5702218,0.7866926,0.039999936,0.03999995,-0.003446111217786374,-0.009552200784349561,-0.007687907478626244,0.002444387170489495,-0.004954072904834338,0.005314125032872306,0.9999994062839075,0.0003833611447870544,-0.0009294111278799412,0.0004203106241066546
2841.3666666752347,0.0005465601,-0.78468096,3.4841607e-05,-2.3568401,0.00096763734,1.5701246,0.78678226,0.039999943,0.03999996,-0.011189972805158988,-0.009987242100579068,-0.010244806172998722,0.0026620347012304827,-0.004312808490156069,0.005785577746922578,0.9999992887467634,0.0004066228586265989,-0.001017732815831224,0.0004705143290343628
2841.3833333419016,0.00059385796,-0.78468513,3.418995e-05,-2.3569288,0.0010764712,1.5700195,0.78687954,0.03999995,0.03999997,-0.01245417690176609,-0.01042072826478225,-0.010328243669910364,0.00288943952268513,-0.003637877310603577,0.0062781011984550505,0.9999991499428781,0.00043185602392662847,-0.0011126549162469785,0.0005249885076537075
2841.4000000085684,0.0006450306,-0.78469145,3.3485838e-05,-2.357022,0.0011942113,1.5699061,0.7869848,0.039999954,0.039999977,-0.007871467337539073,-0.010848668309271364,-0.009430809402410922,0.003126113212472137,-0.0029300681173964165,0.0067897543158163595,0.9999989885494704,0.0004591624584466529,-0.0012128981231031666,0.0005839075402808389
2841.4166666752353,0.0007002291,-0.78469974,3.2727257e-05,-2.35712,0.0013212058,1.5697836,0.78709835,0.039999958,0.03999998,-0.008766659079273431,-0.01127140762383059,-0.010155045754300929,0.003371867625543772,-0.0021759654758276795,0.007321958550077995,0.9999988009573576,0.0004886155044314819,-0.0013191503267380041,0.0006474420060953998
2841.433333341902,0.00075960363,-0.7847099,3.1912306e-05,-2.357225,0.0014577985,1.569652,0.7872204,0.03999996,0.039999984,-0.012494891561809496,-0.011689506342443812,-0.010974581784140014,0.003626546627498215,-0.0013804184760541523,0.007873565999602556,0.9999985824983101,0.0005202600301745495,-0.0014324871019329014,0.0007157594388785224
2841.450000008569,0.00082330167,-0.7847219,3.1038926e-05,-2.357337,0.0016043283,1.5695105,0.7873514,0.039999966,0.039999988,-0.013086184313770843,-0.012100662741762209,-0.01174730420878678,0.00389079421823142,-0.0005491474939682689,0.008444251827835127,0.9999983285788181,0.000554230751538663,-0.001553418136493195,0.0007890246746895869
2841.466666675236,0.00089146884,-0.78473586,3.0105346e-05,-2.3574567,0.0017611295,1.5693594,0.78749174,0.03999997,0.039999995,-0.013771718544952627,-0.012506937550397362,-0.01170572702169359,0.004163348155380604,0.00031384416085675215,0.009032831711411582,0.9999980348093711,0.0005906338536022248,-0.001682006391822737,0.0008674004522185246
2841.483333341903,0.0009642482,-0.7847518,2.9109566e-05,-2.3575838,0.001928532,1.5691981,0.78764147,0.039999966,0.03999999,-0.013513714365531726,-0.01290668092947516,-0.012176098191507556,0.0044440536600579205,0.001209433071112648,0.00964068033026528,0.9999976962385575,0.0006294568354916633,-0.0018184640737055615,0.0009510468351112003
2841.5000000085697,0.001041781,-0.7847696,2.8049692e-05,-2.3577185,0.002106859,1.5690262,0.7878009,0.039999958,0.039999988,-0.0140828312225727,-0.01329924626935321,-0.012528960937530087,0.004733568525872431,0.002138449976287863,0.010265712403138257,0.9999973071746271,0.000670777708258659,-0.0019631230142172023,0.001040119604474449
2841.5166666752366,0.001124206,-0.7847895,2.6923855e-05,-2.3578608,0.00229643,1.5688436,0.7879704,0.039999958,0.039999988,-0.01390817081143858,-0.013685898693970326,-0.012731198736837257,0.0050314589566610906,0.003099641557777394,0.010909246208781111,0.9999968621000422,0.0007147053364110682,-0.0021159578286535263,0.0011347725844365194
2841.5333333419035,0.00121166,-0.78481126,2.573036e-05,-2.358011,0.0024975564,1.5686498,0.78815025,0.039999954,0.039999988,-0.014709198943863022,-0.01406488283694613,-0.013074757884568022,0.005337857547902332,0.0040953948783248135,0.011569195103242128,0.9999963540197424,0.0007612898132966934,-0.002277450101671533,0.0012351542724055443
2841.5500000085704,0.0013042752,-0.784835,2.4467321e-05,-2.358169,0.002710549,1.5684447,0.7883407,0.03999995,0.039999984,-0.014560241421346376,-0.014437755420982148,-0.013156647408330002,0.005652070029498583,0.0051229328993762846,0.012246882635150209,0.9999957765101896,0.0008106132329759936,-0.002447545426460543,0.0013414131932536144
2841.5666666752372,0.0014021847,-0.7848606,2.3133198e-05,-2.3583355,0.0029357076,1.5682279,0.788542,0.03999995,0.039999984,-0.015602626186050905,-0.01480314847512744,-0.013800438940014814,0.0059742116124933435,0.006183621979941655,0.012940997521176405,0.9999951211507955,0.0008627273172866623,-0.0026268156317480512,0.0014536904136147819
2841.583333341904,0.0015055162,-0.78488815,2.1725999e-05,-2.3585098,0.0031733278,1.5679989,0.7887545,0.03999995,0.039999984,-0.014885192759583887,-0.015159438989965583,-0.013868661825355844,0.006304154626509564,0.007275986983627783,0.013651137188785148,0.9999943803435404,0.0009177751575064284,-0.0028152072847046766,0.0015721253268105792
2841.600000008571,0.0016143958,-0.78491765,2.0244337e-05,-2.3586934,0.0034236975,1.5677576,0.7889784,0.039999947,0.039999988,-0.017260522655759836,-0.015507213911710241,-0.014659109935921677,0.006640931431903096,0.008399657635546334,0.014375144783814393,0.9999935438030839,0.0009757232009438026,-0.003013471810157696,0.001696851211583955
2841.616666675238,0.0017289466,-0.78494924,1.8686333e-05,-2.358886,0.0036871033,1.567504,0.7892141,0.039999947,0.039999988,-0.016700773790501167,-0.0158510259436616,-0.014638282230960975,0.006985498077543501,0.009551186216486294,0.015116004930191423,0.999992602925847,0.0010367467145956089,-0.0032214375921276674,0.0018280015534018574
2841.6333333419047,0.0018492899,-0.7849828,1.705035e-05,-2.359089,0.00396382,1.5672375,0.78946173,0.039999947,0.039999988,-0.01905027844113505,-0.01618313560267275,-0.015670006144263837,0.0073363607634945385,0.01073339214161434,0.015871538021213265,0.9999915447823617,0.0011008736346965488,-0.003440125360591612,0.0019657005188511044
2841.6500000085716,0.001975543,-0.7850184,1.5335048e-05,-2.3593013,0.0042541195,1.566958,0.7897213,0.039999943,0.039999988,-0.01774386586661514,-0.01650969648499187,-0.015402277373510742,0.007693935407752503,0.011938221562802016,0.016640438923353307,0.9999903602702808,0.0011680130190830885,-0.0036691554052577873,0.0021100736275173992
2841.6666666752385,0.002107821,-0.785056,1.353875e-05,-2.359523,0.0045582657,1.566665,0.7899932,0.03999994,0.039999988,-0.017421597304978498,-0.016827145142416042,-0.01558603373303935,0.008059164506647462,0.013170476255165015,0.01742310138357454,0.999989038063897,0.0012383136968776623,-0.0039085960339647376,0.002261240428040629
2841.6833333419054,0.0022462367,-0.7850958,1.1659939e-05,-2.359755,0.0048765168,1.5663584,0.7902778,0.039999932,0.03999998,-0.0189204204455784,-0.0171366711114747,-0.016414547825771564,0.008431348867007202,0.014430814612387651,0.018219887354233282,0.9999875641493435,0.0013118664293367962,-0.004159022649283879,0.0024193147246113406
2841.7000000085723,0.0023908985,-0.78513783,9.697274e-06,-2.3599975,0.0052091246,1.5660384,0.7905751,0.03999993,0.039999977,-0.019216341580374774,-0.017436890473997938,-0.016373768810806766,0.008809555111000948,0.01571579848896063,0.019029485148167317,0.9999859259421022,0.0013886750612590747,-0.004420444775038298,0.0025844084973880455
2841.716666675239,0.0025419137,-0.78518176,7.649268e-06,-2.3602502,0.0055563324,1.5657041,0.79088557,0.039999932,0.039999984,-0.019326190057089576,-0.017729482476354277,-0.016664093806850744,0.00919445934637549,0.017026819676954543,0.019850539710121375,0.9999841082119696,0.0014688915094420187,-0.004693260313638291,0.0027566263572871754
2841.733333341906,0.0026993868,-0.7852278,5.5145983e-06,-2.3605134,0.00591838,1.5653555,0.7912093,0.039999932,0.039999988,-0.01953189964905011,-0.018015874244136417,-0.016994266591163765,0.009584587804345842,0.01836188825628982,0.02068248343986175,0.9999820963686687,0.001552490476404815,-0.0049775692979110945,0.0029360720916811584
2841.750000008573,0.0028634164,-0.7852761,3.2917621e-06,-2.3607879,0.0062955013,1.5649921,0.7915466,0.03999993,0.039999984,-0.020624516174105878,-0.018289676633502245,-0.017934580251899312,0.00998087805311092,0.019719744956173298,0.02152848354344981,0.9999798724660647,0.0016395985882721243,-0.005273919801938728,0.003122843118858785
2841.76666667524,0.0030341034,-0.7853266,9.79608e-07,-2.361073,0.0066879196,1.564614,0.7918975,0.039999925,0.039999984,-0.01986002760445693,-0.018559951728676187,-0.01738531772164098,0.01038209192510181,0.021098316134950657,0.022383547941987315,0.9999774223161263,0.001730162452565985,-0.0055819957398540124,0.003317034736578295
2841.7833333419067,0.0032115413,-0.7853791,-1.4231874e-06,-2.3613694,0.0070958533,1.5642213,0.7922621,0.039999925,0.039999988,-0.020826399785334182,-0.018816821363184383,-0.01775400367380886,0.010789179086848604,0.02250150003155437,0.023248938060715218,0.9999747269515001,0.0018241923149188337,-0.005902226825535118,0.003518735450566223
2841.8000000085735,0.0033958224,-0.7854338,-3.91793e-06,-2.3616772,0.0075195334,1.5638133,0.7926409,0.039999925,0.039999995,-0.021095645049618028,-0.019080846977787003,-0.018270925756347367,0.011201994181470278,0.023924839947135366,0.024123229687622018,0.9999717670161019,0.001921906450808257,-0.006234835601622759,0.0037280385338651478
2841.8166666752404,0.0035870364,-0.78549075,-6.5056556e-06,-2.361996,0.007959134,1.56339,0.793034,0.039999925,0.04,-0.020312274905265326,-0.019301144629072127,-0.018272272408537127,0.011619080381967866,0.02537001210534832,0.02500690452042513,0.9999685248348147,0.0020232548717347325,-0.006579716412646617,0.003945010942687739
2841.8333333419073,0.0037852698,-0.78554976,-9.187561e-06,-2.3623269,0.008414864,1.562951,0.7934415,0.039999925,0.04,-0.022515671969869366,-0.01954022927262225,-0.019066821765045816,0.012040833635323572,0.026836944376336932,0.0259002621241068,0.9999649753668715,0.002128251961344559,-0.006937718168744467,0.0041697301750006
2841.850000008574,0.0039906064,-0.7856112,-1.1964937e-05,-2.3626688,0.008886939,1.5624964,0.7938636,0.039999925,0.04,-0.019979230511601997,-0.019784900320800325,-0.018583433973051733,0.012467376039919988,0.02831962549150172,0.02680360929342012,0.9999611039457389,0.002236998045922718,-0.007307962414303294,0.0044022858508898435
2841.866666675241,0.0042031286,-0.7856748,-1.4838649e-05,-2.363023,0.009375521,1.5620259,0.7943004,0.039999925,0.04,-0.02281211123140725,-0.01998324937339535,-0.019483558489374886,0.012897994820597006,0.029828095540126335,0.027712996526831672,0.999956881548113,0.00234945015998048,-0.007691567252998376,0.004642727830847002
2841.883333341908,0.004422912,-0.7857407,-1.7809994e-05,-2.363389,0.009880807,1.5615389,0.7947521,0.03999992,0.04,-0.02155674827901688,-0.020202990150514945,-0.019627820276491015,0.013333447163237953,0.031351283873907544,0.028631341104548493,0.9999522865483059,0.002465712062381825,-0.008088370804630556,0.004891129579844753
2841.900000008575,0.0046500326,-0.7858089,-2.0879568e-05,-2.3637676,0.010402935,1.5610363,0.79521894,0.039999917,0.04,-0.02271944623053468,-0.020375778075968493,-0.019561223821140672,0.013772384747706796,0.03289218317371989,0.0295531710047754,0.9999472955560875,0.002585804294218957,-0.008498390118206172,0.005147532575660335
2841.9166666752417,0.004884562,-0.7858794,-2.4048662e-05,-2.364158,0.010942109,1.5605172,0.795701,0.039999917,0.04,-0.021528292811234806,-0.020597331332465607,-0.01979150083220027,0.014215288980646099,0.03445241997769086,0.030484623881078192,0.9999418832917898,0.0027097713293787076,-0.008921732734017975,0.005412011015671202
2841.9333333419086,0.005126571,-0.7859521,-2.731802e-05,-2.3645606,0.011498468,1.5599816,0.79619837,0.039999917,0.04,-0.022565436331500877,-0.02076378369829223,-0.020123163199170513,0.014661153979111913,0.03603143357092479,0.03142013195250053,0.9999360221908812,0.0028375743515162938,-0.009358684983300565,0.005684603087334519
2841.9500000085754,0.005376126,-0.78602725,-3.06884e-05,-2.3649764,0.01207216,1.5594293,0.7967113,0.039999913,0.04,-0.023576812323455876,-0.020932436978009054,-0.020792539052316705,0.015111220920181875,0.03762587561100924,0.0323600614430281,0.9999296816508586,0.0029693539626469883,-0.009809654122250497,0.005965347991429059
2841.9666666752423,0.00563329,-0.7861049,-3.4161207e-05,-2.3654044,0.012663365,1.5588601,0.79723996,0.03999991,0.04,-0.021899140012981988,-0.02112278716032076,-0.02062239744911043,0.01556371626925219,0.0392350781540485,0.03330805840348877,0.9999228376786488,0.0031050995912014477,-0.010274272666683923,0.0062543078256623585
2841.983333341909,0.0058981264,-0.78618485,-3.7736718e-05,-2.3658452,0.013272177,1.5582739,0.79778427,0.039999902,0.04,-0.023288224598139173,-0.02124777319293808,-0.020888236216309863,0.01601894685570559,0.040862902894050125,0.034256062321440704,0.9999154572077238,0.003244775681786351,-0.010753037446920247,0.006551492464209178
2842.000000008576,0.0061706915,-0.78626704,-4.141563e-05,-2.3662987,0.013898744,1.5576706,0.79834455,0.039999902,0.04,-0.0228764163314521,-0.021405222760918427,-0.02102255434432987,0.016477443014153045,0.04250263767753963,0.03520872728089702,0.9999075100310474,0.0033884953562249034,-0.011245970375855641,0.00685694050122313
2842.016666675243,0.0064510405,-0.78635174,-4.519902e-05,-2.3667648,0.014543212,1.5570501,0.7989208,0.0399999,0.04,-0.02253242475382944,-0.021558354663910734,-0.0212207223285521,0.016937867610487038,0.04415866071400275,0.036166300407758215,0.999898966852801,0.003536223424726933,-0.011752973947807145,0.0071706913177121846
2842.03333334191,0.006739226,-0.7864389,-4.9087597e-05,-2.3672445,0.015205692,1.5564122,0.7995131,0.039999895,0.04,-0.024188202395825087,-0.021679600454727402,-0.021884795566351478,0.017400685162270155,0.045830549694077335,0.037125653793066246,0.9998897886129356,0.003687959205093381,-0.012274696309516641,0.007492757502374879
2842.0500000085767,0.0070353,-0.78652847,-5.308186e-05,-2.367737,0.015886297,1.5557569,0.80012167,0.039999895,0.04,-0.022892883918745888,-0.02180692553614312,-0.021622565920353942,0.017865944854291837,0.04751273006445726,0.03808811976879485,0.9998799461804454,0.003843786201784454,-0.012810803666481038,0.007823160693942998
2842.0666666752436,0.0073393094,-0.78662026,-5.718244e-05,-2.368243,0.016585145,1.555084,0.80074656,0.03999989,0.04,-0.023932280440597253,-0.021926248200773366,-0.021971828424272033,0.018332681190759887,0.04920958753922667,0.03905135419671017,0.9998693994193457,0.00400370504313306,-0.013361796622705759,0.008161914097685227
2842.0833333419105,0.0076512974,-0.7867149,-6.139026e-05,-2.3687615,0.017302357,1.5543935,0.80138785,0.039999895,0.04,-0.02188426904572438,-0.02204584701090695,-0.02197778710442133,0.018801348588303523,0.050915595925567825,0.04001866115407261,0.9998581230553094,0.004167710984028904,-0.013926954824629004,0.008509046643429932
2842.1000000085774,0.007971307,-0.7868118,-6.570531e-05,-2.3692937,0.018037993,1.553685,0.8020456,0.039999895,0.04,-0.024213768616365705,-0.022119315160945563,-0.022632375223130552,0.019271069518687463,0.05263919321428952,0.04098250534338097,0.9998460665747321,0.004335807684988631,-0.014507375845371666,0.008864534552704119
2842.1166666752442,0.008299378,-0.78691113,-7.0128524e-05,-2.3698397,0.018792164,1.5529588,0.80271983,0.039999887,0.04,-0.02420477398312748,-0.022220673074873146,-0.022443395146343192,0.01974246341005244,0.054370994918073054,0.04194856433981892,0.9998331954553161,0.004508000794548895,-0.015102847115806887,0.009228391162312733
2842.133333341911,0.008635546,-0.787013,-7.466012e-05,-2.3703988,0.01956493,1.5522149,0.8034107,0.03999989,0.04,-0.022808832313669924,-0.022289842120308198,-0.022554710143363188,0.02021521031636606,0.05611306077758575,0.04291362436388815,0.9998194752922258,0.004684316940932711,-0.015713126962768824,0.00960060634683619
2842.150000008578,0.008979846,-0.78711736,-7.930079e-05,-2.3709714,0.020356392,1.5514524,0.8041182,0.039999887,0.04,-0.023740007053185685,-0.02237653508493087,-0.023284427053860135,0.020688636426805924,0.0578677286867596,0.04387865117342104,0.999804857890477,0.00486472988354971,-0.016338808286907862,0.009981176560240864
2842.166666675245,0.009332308,-0.7872241,-8.405071e-05,-2.371557,0.02116662,1.5506723,0.80484235,0.039999887,0.04,-0.022312047512373923,-0.022444947589501593,-0.022337653295867455,0.021163389829249292,0.05962954360850216,0.04484237542900373,0.9997893143546162,0.0050492160149493304,-0.016979203246193824,0.010370100148284595
2842.1833333419117,0.00969296,-0.78733337,-8.891037e-05,-2.3721566,0.02199568,1.5498741,0.80558336,0.039999884,0.04,-0.02420829445703987,-0.022495973948567782,-0.023419605632790663,0.02163900344081844,0.06140594509164826,0.04580407675195144,0.999772789976951,0.00523787366619981,-0.01763511552908476,0.010767348858301032
2842.2000000085786,0.010061833,-0.78744525,-9.388016e-05,-2.3727703,0.022843627,1.5490578,0.80634177,0.039999884,0.04,-0.02392568083013913,-0.022544202562055013,-0.023486760073998525,0.022114808224941763,0.06318809654088253,0.04676383221264457,0.9997552424426774,0.005430947030196449,-0.018306457367844066,0.011172897626744673
2842.2166666752455,0.010438947,-0.7875596,-9.896033e-05,-2.3733976,0.023710532,1.5482233,0.8071168,0.03999988,0.04,-0.02323666276733416,-0.02259808019186571,-0.023559865307465344,0.022588426690739582,0.06497975703100825,0.047720879009639255,0.9997366299039694,0.0056280239272784435,-0.018993253669154973,0.01158673767662851
2842.2333333419124,0.0108243255,-0.7876765,-0.00010415117,-2.3740387,0.024596432,1.5473703,0.8079089,0.03999988,0.04,-0.02351131141555829,-0.02262412704235467,-0.02377065878913509,0.023062979604960385,0.06677888400166623,0.04867472919776195,0.9997169041907623,0.0058292921706387295,-0.019695655337675814,0.012008829620203661
2842.2500000085793,0.0112179825,-0.787796,-0.00010945268,-2.3746936,0.025501356,1.5464991,0.80871797,0.03999988,0.04,-0.02322084501322763,-0.02263297046827123,-0.023842010011665415,0.023537145432843798,0.06858599285096986,0.049624193211816194,0.9996960219395666,0.006034704213288483,-0.020413572739205958,0.012439136275678213
2842.266666675246,0.011619938,-0.78791803,-0.00011486526,-2.3753617,0.026425347,1.5456096,0.80954415,0.039999884,0.04,-0.0220562572643912,-0.022664087713027137,-0.023623381692416956,0.02401104882245756,0.07039931767149477,0.05057039587643565,0.9996739410306332,0.006244294223779451,-0.02114679890027857,0.012877628283192425
2842.283333341913,0.012030203,-0.7880424,-0.000120389224,-2.3760436,0.027368447,1.5447016,0.8103875,0.03999988,0.04,-0.023281610339198622,-0.0226760587389227,-0.02409720675800031,0.024483716851399426,0.07222333551761362,0.05151203212953494,0.9996506036544688,0.006458078976126603,-0.02189584193934663,0.013324261141294081
2842.30000000858,0.012448791,-0.7881693,-0.00012602453,-2.3767397,0.02833068,1.5437751,0.8112478,0.039999872,0.04,-0.023812553633328903,-0.022675254781934218,-0.024496190719669464,0.02495522849941513,0.07405337616219612,0.05244856843022245,0.9996259571783849,0.006675953388957829,-0.022660910824894576,0.013778987703479503
2842.316666675247,0.012875714,-0.7882989,-0.00013177101,-2.37745,0.029312057,1.5428303,0.8121254,0.03999988,0.04,-0.023014098866425137,-0.02266539831888223,-0.02440042956965982,0.025425925735406626,0.07588510955637165,0.05337907408614411,0.9995999579076037,0.006898018057819788,-0.02344171130266239,0.014241757939022236
2842.3333333419137,0.013310971,-0.78843105,-0.00013762923,-2.378174,0.030312618,1.5418671,0.81301993,0.03999988,0.04,-0.022667893902927894,-0.02266337475561528,-0.024509729964794502,0.02589509229736901,0.07772449792296886,0.054304293682128864,0.9995725542338324,0.0071241396128599015,-0.024238333726864195,0.014712533275195977
2842.3500000085805,0.013754572,-0.7885659,-0.00014359884,-2.3789113,0.031332344,1.5408852,0.8139316,0.039999876,0.04,-0.021269054922679054,-0.022632446112087756,-0.024511723407805164,0.02636308281563459,0.07956671764522999,0.055223296044089834,0.9995437015379567,0.007354351007555068,-0.02505051350535036,0.0151912478149756
2842.3666666752474,0.014206517,-0.78870296,-0.00014968011,-2.3796623,0.03237125,1.5398849,0.81486046,0.039999876,0.04,-0.022660269724839033,-0.022607487979714458,-0.024480605177013004,0.026829749845494293,0.08141920672721562,0.0561354961658558,0.9995133371953074,0.007588710578090758,-0.02587867185582415,0.0156778373330037
2842.3833333419143,0.014666803,-0.7888426,-0.00015587283,-2.3804276,0.033429325,1.538866,0.81580645,0.03999988,0.04,-0.023050282568859437,-0.022558018148170766,-0.025164293917434577,0.02729437399757282,0.08327358015012681,0.057040523826121965,0.9994814022187479,0.00782714613189123,-0.02672304958342871,0.016172230001988662
2842.400000008581,0.015135429,-0.78898484,-0.00016217711,-2.3812068,0.034506585,1.5378288,0.81676954,0.039999872,0.04,-0.022033976945601275,-0.02253334659463313,-0.024862810675263525,0.027756971956817485,0.0851293825132438,0.05793786833666072,0.9994478507226642,0.00806964383420024,-0.02758332317423091,0.01667437605736058
2842.416666675248,0.015612387,-0.7891295,-0.00016859261,-2.3819997,0.035602983,1.5367731,0.8177499,0.039999872,0.04,-0.02203776196290086,-0.02245371064739654,-0.025005878492656564,0.028217331214148298,0.0869892245070709,0.05882660903319206,0.9994126234519375,0.008316282535837757,-0.028459646777096035,0.01718417978906086
2842.433333341915,0.016097672,-0.7892769,-0.00017511936,-2.3828063,0.036718518,1.5356989,0.8187473,0.03999988,0.04,-0.02116350509919762,-0.02240862062788465,-0.025157911495843344,0.02867449852674674,0.088852508604121,0.05970790964785217,0.9993756725777176,0.008566897187502864,-0.029351784279585208,0.01770158444936737
2842.450000008582,0.016591273,-0.7894268,-0.00018175729,-2.3836274,0.03785318,1.5346065,0.8197617,0.039999872,0.04,-0.022774113416912378,-0.022346294276179984,-0.0254434180520402,0.02912968340308884,0.09071824268646188,0.06058013204466424,0.999336926515157,0.008821521731018135,-0.030260247135263863,0.01822650544952875
2842.4666666752487,0.017093187,-0.78957915,-0.0001885059,-2.3844619,0.039006922,1.5334954,0.8207932,0.039999876,0.04,-0.020788751719869047,-0.02227277029638805,-0.025212438135047144,0.02958207739723065,0.09258459095596634,0.061443308657600795,0.9992963382289343,0.009080159021680802,-0.031184683166720174,0.018758855246935956
2842.4833333419156,0.017603396,-0.789734,-0.00019536528,-2.38531,0.04017973,1.5323662,0.8218417,0.03999987,0.04,-0.02085643561995365,-0.022200674439347423,-0.025207385200176624,0.030031533527696667,0.09445341258919332,0.06229694220776677,0.9992538519059062,0.00934274877937061,-0.03212503696546913,0.019298562029909875
2842.5000000085824,0.018121868,-0.7898915,-0.00020233494,-2.3861723,0.04137156,1.5312184,0.82290727,0.039999876,0.04,-0.021809839124697916,-0.022087641896777893,-0.025928191710655746,0.030477859053494875,0.09632474640457626,0.0631406652989971,0.9992093941174092,0.009609323820140554,-0.033081760615468705,0.019845521354211804
2842.5166666752493,0.018648598,-0.79005146,-0.0002094149,-2.3870482,0.042582355,1.5300525,0.82398987,0.03999987,0.04,-0.02048138494563645,-0.021994887402211616,-0.02535790454416542,0.030920827540200407,0.09819335496915838,0.06397400898937823,0.9991629195363485,0.009879870397174487,-0.034054412661491784,0.020399641242344224
2842.533333341916,0.01918357,-0.7902138,-0.00021660444,-2.3879373,0.04381208,1.5288686,0.8250895,0.039999876,0.04,-0.019643130451219015,-0.021917185945598966,-0.02517882082710976,0.03135962556257489,0.10006269256746825,0.06479689237505343,0.9991143731256381,0.010154376124234369,-0.03504284999229007,0.02096083785798047
2842.550000008583,0.01972675,-0.7903788,-0.00022390374,-2.3888407,0.045060683,1.5276664,0.8262058,0.03999987,0.04,-0.021187129997635168,-0.021776887266424655,-0.026022774185707753,0.031794164696036964,0.10193634506547129,0.06560858545918696,0.9990636786540742,0.010432644523085262,-0.03604757943853424,0.021529002277542442
2842.56666667525,0.020278113,-0.79054624,-0.00023131208,-2.3897574,0.0463281,1.5264462,0.8273389,0.03999987,0.04,-0.01961783632202785,-0.021671141740607636,-0.0255744806168412,0.032226041628280154,0.10380614294822992,0.06640909002803046,0.9990107859432931,0.010714751366435276,-0.03706825094832841,0.022104036820252557
2842.583333341917,0.020837635,-0.79071623,-0.00023882912,-2.3906877,0.04761428,1.525208,0.82848877,0.03999986,0.039999995,-0.019673229298433625,-0.021548788014282005,-0.02578762750717889,0.0326537263394816,0.10567594905323972,0.0671977456212507,0.9989556317073036,0.011000695655428988,-0.038104899742216126,0.022685836792905693
2842.6000000085837,0.02140529,-0.79088855,-0.00024645435,-2.3916311,0.048919134,1.5239516,0.8296554,0.039999872,0.04,-0.018984340135719258,-0.021415064865415445,-0.02564054228677559,0.03307699146861524,0.10754584263629874,0.06797444625146346,0.9988981548896163,0.011290438528147843,-0.03915750047057895,0.023274284368350575
2842.6166666752506,0.02198105,-0.79106337,-0.00025418753,-2.3925881,0.0502426,1.5226772,0.83083874,0.039999872,0.04,-0.019396198202770165,-0.021274931338770287,-0.026098113335226714,0.03349578027346527,0.1094129371389957,0.06873873994074582,0.9988382852769573,0.011583952152991005,-0.040226236310513364,0.023869265380305316
2842.6333333419175,0.022564871,-0.79124063,-0.000262028,-2.3935587,0.051584605,1.5213848,0.83203864,0.03999987,0.04,-0.01920757773492543,-0.02112829235380309,-0.02601096761478683,0.03390985458664867,0.11127846276183165,0.06949044930429457,0.9987759612876486,0.011881182781089416,-0.041311051399165355,0.02447066983045934
2842.6500000085844,0.023156717,-0.79142046,-0.00026997534,-2.3945425,0.05294507,1.5200751,0.833255,0.039999872,0.04,-0.01798614131551801,-0.02097593422590166,-0.025583552735097825,0.03431913505694899,0.11313899877020483,0.07022941220846879,0.9987111397131141,0.01218207162503294,-0.04241144334594795,0.025078397420265443
2842.6666666752512,0.023756566,-0.79160255,-0.000278029,-2.3955393,0.054323904,1.5187477,0.8344878,0.03999987,0.04,-0.01816823295648362,-0.020831890570148504,-0.025744050427833898,0.034723351259677473,0.1149998571970117,0.07095495151633127,0.9986437440983483,0.01248661264155558,-0.0435277144902698,0.025692313037672606
2842.683333341918,0.02436437,-0.79178715,-0.00028618838,-2.3965497,0.05572101,1.5174024,0.8357369,0.039999876,0.04,-0.018569058590967025,-0.020645515593796515,-0.026417211850038314,0.035122577099828294,0.11685802886481692,0.07166689356587173,0.9985736985145153,0.012794720544085428,-0.04466013449118784,0.026312281323933456
2842.700000008585,0.024980089,-0.7919742,-0.00029445314,-2.397573,0.057136323,1.5160396,0.83700234,0.03999987,0.04,-0.017169017033080713,-0.02049958075063668,-0.02586756966507231,0.03551698449281925,0.1187092996974137,0.07236521856328638,0.9985009563601747,0.01310645478083718,-0.04580823366118505,0.026938201865321056
2842.716666675252,0.025603678,-0.79216355,-0.00030282256,-2.3986096,0.058569722,1.5146598,0.83828396,0.03999987,0.04,-0.017761721277564924,-0.02030396942321322,-0.02581400987287097,0.03590564931226915,0.12055792302595966,0.07304928077943924,0.9984254493724145,0.013421713507494246,-0.04697210170070944,0.027569934962437894
2842.7333333419188,0.026235089,-0.7923552,-0.00031129582,-2.399659,0.06002111,1.5132623,0.8395816,0.039999872,0.04,-0.01659934708586608,-0.020125257533501473,-0.02599612666851492,0.03628840730720646,0.12240228523264933,0.07371905509998213,0.998347111925653,0.013740425363362245,-0.04815174055739535,0.02820735191107558
2842.7500000085856,0.02687429,-0.79254925,-0.00031987243,-2.4007218,0.061490376,1.511848,0.84089535,0.039999865,0.04,-0.01757130764949988,-0.01993491090219457,-0.026064239386780486,0.036665837467096035,0.12424117063824085,0.07437412503260146,0.9982658764196338,0.014062640044423941,-0.04934715445368686,0.028850311583155992
2842.7666666752525,0.02752122,-0.79274595,-0.00032855163,-2.4017975,0.06297739,1.5104162,0.8422249,0.03999987,0.04,-0.01618900851014793,-0.019708799906030527,-0.02645094732265374,0.037036721483221846,0.12607408781562976,0.07501451823364479,0.9981816809150444,0.01438819790757405,-0.050558281839545825,0.02949867427566942
2842.7833333419194,0.028175825,-0.79294467,-0.00033733266,-2.4028864,0.06448207,1.5089675,0.8435703,0.03999987,0.04,-0.016816281898979213,-0.019541383667295853,-0.025860821050804894,0.037402248843133146,0.12789977113277798,0.07563984582250421,0.9980944518699865,0.014717157364172541,-0.05178521585665157,0.03015231075969643
2842.8000000085863,0.028838063,-0.7931459,-0.0003462147,-2.4039872,0.066004284,1.5075018,0.84493124,0.039999854,0.039999988,-0.014232105335043599,-0.019332079004918956,-0.025767077972504993,0.03776125415516636,0.12971679750339124,0.0762497717594742,0.9980041592037826,0.015049343344248508,-0.05302727005431208,0.030811103638866078
2842.816666675253,0.029507875,-0.79334927,-0.00035519703,-2.4051,0.067543864,1.5060202,0.84630793,0.039999876,0.04,-0.01453632618295675,-0.019088930096061718,-0.025008520138158907,0.038114367348382694,0.13153081106489764,0.07684439906328865,0.9979107464876975,0.015384880517326463,-0.054284239854467196,0.03147489156862226
2842.83333334192,0.030185206,-0.7935551,-0.00036427917,-2.406226,0.06910077,1.5045202,0.8477,0.039999858,0.03999999,-0.01574881846932996,-0.01890066451040312,-0.0275000146392701,0.03845983643660611,0.1333427561572024,0.0774229832955041,0.9978140723643445,0.01572356399167078,-0.05555754859721994,0.032143511335107136
2842.850000008587,0.03087,-0.79376304,-0.00037345977,-2.4073644,0.07067479,1.5030043,0.8491072,0.039999876,0.04,-0.014871943498495632,-0.01864115301434821,-0.02541198536138989,0.038799892313876636,0.13513835329386942,0.07798650325464186,0.9977141336747791,0.016065326445659986,-0.056846002607859915,0.03281683621689563
2842.866666675254,0.031562198,-0.7939733,-0.00038273857,-2.4085152,0.07226586,1.5014725,0.8505297,0.039999865,0.039999995,-0.014120908916370745,-0.01845204720392485,-0.025581382429362698,0.039133850361078984,0.13692698672095507,0.07853314120805382,0.9976108678786257,0.016410228100190737,-0.058149486059486014,0.03349474548600952
2842.8833333419207,0.03226174,-0.7941858,-0.0003921143,-2.4096782,0.07387377,1.4999247,0.85196733,0.039999872,0.04,-0.01365415451124452,-0.018165525183590214,-0.025512418899675815,0.03946062228161352,0.13870953433550753,0.07906350029105577,0.9975042111860345,0.01675824707896789,-0.05946796592677097,0.03417705150389531
2842.9000000085875,0.032968577,-0.7944005,-0.00040158659,-2.4108534,0.07549843,1.4983604,0.85341984,0.039999865,0.039999995,-0.013552735241062486,-0.017969020936328683,-0.02600109159158759,0.03977960555928175,0.14048355905583076,0.07957731197757562,0.9973940826808242,0.017109200176152906,-0.06080170328780205,0.034863619719010266
2842.9166666752544,0.03368261,-0.7946175,-0.000411154,-2.4120402,0.07713968,1.4967802,0.8548871,0.03999987,0.04,-0.012402932007038459,-0.017686283780890544,-0.025511479529094494,0.040092004837892915,0.1422469632185086,0.0800746363508541,0.997280442974393,0.017463084076920665,-0.062150218856477576,0.035554311291499156
2842.9333333419213,0.034403797,-0.79483676,-0.0004208157,-2.4132385,0.07879734,1.4951842,0.8563694,0.03999987,0.04,-0.011699569116907504,-0.01742726670374145,-0.025335752141453227,0.040397416327808126,0.1440038234943246,0.08055483008243748,0.9971632390730842,0.01781998816062358,-0.0635132749759254,0.036248952606426965
2842.950000008588,0.035132058,-0.79505795,-0.00043057097,-2.414449,0.080471285,1.4935725,0.8578659,0.039999876,0.04,-0.013070970927020475,-0.017172993275078874,-0.025642275150628002,0.040694307509044715,0.14575289414958,0.08101837215378951,0.9970423719585119,0.0181796246867925,-0.06489145046134592,0.03694738722311186
2842.966666675255,0.03586735,-0.7952814,-0.0004404186,-2.4156709,0.08216133,1.491945,0.8593772,0.039999876,0.04,-0.01134455874700624,-0.01691413956146498,-0.025529458020989715,0.04098459804097832,0.1474876328683007,0.08146476128307426,0.9969178028882898,0.01854218210870377,-0.06628424349757463,0.03764944662258584
2842.983333341922,0.036609586,-0.79550683,-0.0004503579,-2.4169047,0.08386734,1.4903024,0.86090255,0.039999872,0.04,-0.012075871017147577,-0.0166482911962057,-0.02529654529508374,0.041265988231715574,0.14921332553456615,0.08189477510978085,0.9967894620867938,0.018907380884742458,-0.06769175571046691,0.03835499223874325
2843.000000008589,0.03735868,-0.7957343,-0.00046038782,-2.41815,0.08558916,1.4886445,0.86244196,0.039999865,0.03999999,-0.011088722102337023,-0.016360403623162656,-0.025353392017413157,0.04154055605929835,0.15092631831993053,0.08230681851475574,0.9966572901454311,0.019275230455194282,-0.06911386178918523,0.039063865649095565
2843.0166666752557,0.038114585,-0.7959638,-0.00047050687,-2.4194067,0.087326586,1.4869715,0.86399543,0.03999987,0.039999995,-0.01074669739657974,-0.016079229044405063,-0.025208227077744283,0.04180766332887334,0.15262626101429963,0.08270128999350454,0.996521233337811,0.019645736532460132,-0.07055037615348046,0.039775884246457845
2843.0333333419226,0.038877215,-0.79619557,-0.00048071446,-2.4206743,0.089079455,1.4852837,0.86556274,0.03999987,0.039999995,-0.009602582421819328,-0.015795479427889447,-0.024911978928532363,0.04206608098917968,0.15431321292399836,0.08307835808360114,0.9963812543119887,0.020018796112656462,-0.07200090075566348,0.040490914391270796
2843.0500000085894,0.03964649,-0.7964293,-0.0004910092,-2.4219537,0.09084761,1.4835813,0.8671437,0.03999987,0.03999999,-0.010759268926996413,-0.015503496850173548,-0.025208596082970658,0.04231656603303141,0.15599031311084238,0.08343784423177984,0.9962372575798499,0.020394360492388252,-0.07346586829456793,0.04120877170714382
2843.0666666752563,0.04042234,-0.796665,-0.00050139055,-2.423243,0.09263086,1.4818642,0.8687382,0.039999872,0.039999995,-0.007816179614739127,-0.01522939043202276,-0.02440220496389145,0.04255884459310962,0.15765186964048616,0.08378047483586698,0.9960892392769772,0.020772348338799793,-0.07494443598274643,0.04192932692439015
2843.083333341923,0.041204687,-0.7969027,-0.00051185675,-2.4245436,0.09442902,1.4801328,0.87034607,0.039999876,0.04,-0.009511859860755756,-0.014909033334310762,-0.02485607778022203,0.04279271386992875,0.15930386875135477,0.08410452517179388,0.9959371019610888,0.021152749382439266,-0.0764370648648797,0.04265237678903238
2843.10000000859,0.041993447,-0.7971425,-0.00052240724,-2.425855,0.09624191,1.4783871,0.8719671,0.03999987,0.03999999,-0.008425269254663803,-0.01459760380876779,-0.024734135427006976,0.04301790836808168,0.16094148489444457,0.08441081433939984,0.995780804203331,0.021535424899487086,-0.0779434697241833,0.04337777059648134
2843.116666675257,0.04278853,-0.7973841,-0.0005330405,-2.4271762,0.09806932,1.4766275,0.87360114,0.039999865,0.039999988,-0.007304824469911431,-0.014301535788879827,-0.02400690898374247,0.043234966940255304,0.16256309101509275,0.08469944819325265,0.9956203104529351,0.02192036504895746,-0.07946328059204504,0.04410535168515886
2843.133333341924,0.043589868,-0.7976274,-0.00054375536,-2.4285083,0.09991107,1.4748541,0.87524796,0.039999872,0.03999999,-0.008258820564033265,-0.013983046517923592,-0.024286043590171502,0.043443070743237326,0.16417390671519222,0.08497016528490456,0.9954555381653639,0.022307461024856826,-0.08099677348155772,0.044834935085350525
2843.1500000085907,0.044397365,-0.79787266,-0.0005545511,-2.4298503,0.101767,1.4730672,0.8769074,0.039999876,0.039999995,-0.006656394409665367,-0.013692379447885483,-0.02397714926265504,0.04364290983077742,0.16576742078533213,0.08522300600580626,0.9952864653447959,0.022696656669665468,-0.08254342801103459,0.04556639298505795
2843.1666666752576,0.04521094,-0.79811996,-0.00056542596,-2.4312022,0.10363692,1.4712663,0.87857944,0.03999987,0.039999988,-0.006090422930782324,-0.013370526473713285,-0.024228527348202356,0.04383398761996681,0.1673483867413061,0.08545845934867477,0.9951130273737488,0.02308792550432224,-0.08410328609032136,0.046299543364584334
2843.1833333419245,0.046030503,-0.7983691,-0.00057637895,-2.4325645,0.105520576,1.4694525,0.88026375,0.039999876,0.039999995,-0.007006339535142736,-0.013002377082266259,-0.023792594321725424,0.044016331536555195,0.16891250668626043,0.08567516722309754,0.9949351716795658,0.02348119119768503,-0.08567626303553132,0.04703419784749438
2843.2000000085914,0.046855953,-0.79861975,-0.00058740925,-2.4339364,0.1074178,1.4676257,0.8819602,0.03999987,0.039999988,-0.00566736892395614,-0.012706264292178249,-0.023261543678865237,0.0441896087340753,0.17046163957982452,0.08587410075383184,0.9947528561589257,0.023876407042823327,-0.087262131096779,0.047770208570129286
2843.2166666752582,0.047687236,-0.79887223,-0.0005985148,-2.435318,0.10932835,1.4657861,0.88366866,0.039999872,0.039999988,-0.005483618118384825,-0.012368311190499859,-0.02353572654927305,0.044353674751370434,0.1719942237592872,0.08605499451288756,0.9945660326726724,0.024273488727850758,-0.08886077754077454,0.04850738720616105
2843.233333341925,0.04852424,-0.7991267,-0.00060969504,-2.4367094,0.11125205,1.4639337,0.8853887,0.039999872,0.039999988,-0.005152604250269199,-0.012016984798246533,-0.023560367980168806,0.04450869136339376,0.17350914515855453,0.0862187930004349,0.9943746546445669,0.02467226481881252,-0.09047208287979353,0.04924558628547972
2843.250000008592,0.04936687,-0.79938257,-0.0006209483,-2.43811,0.11318871,1.4620689,0.8871204,0.039999865,0.03999998,-0.004663754469413917,-0.011726885070731385,-0.02284238621252932,0.044655534646367165,0.17500614962381922,0.0863638984990697,0.9941786714306381,0.025072858830940653,-0.09209591240270892,0.04998463705147545
2843.266666675259,0.050215032,-0.7996404,-0.0006322735,-2.43952,0.11513804,1.4601918,0.88886356,0.03999987,0.039999984,-0.003564952198242821,-0.011311958954166035,-0.0228976509609069,0.04479234428451179,0.17648621003783965,0.08649127064425681,0.9939780704277669,0.0254751030577628,-0.09373181763260144,0.050724362945023145
2843.2833333419258,0.051068638,-0.7998999,-0.00064366934,-2.4409382,0.11709987,1.4583025,0.89061785,0.039999865,0.039999977,-0.002973885247059549,-0.011019896529271267,-0.02252876555668415,0.044919827376045926,0.17794999839775932,0.08660074638083506,0.9937728016362284,0.025878897733716766,-0.09537974042803438,0.05146461401827776
2843.3000000085926,0.051927596,-0.800161,-0.0006551343,-2.4423661,0.11907398,1.4564017,0.8923831,0.03999986,0.039999973,-0.004094385352160224,-0.01064277026108229,-0.022509078536070426,0.04503868115438918,0.179396652884089,0.086693095914179,0.9935628067568449,0.026284227591069166,-0.09703970949387047,0.052205202717224
2843.3166666752595,0.052791804,-0.8004236,-0.0006666671,-2.4438028,0.121060155,1.454489,0.8941592,0.03999987,0.03999998,-0.0030410376956613305,-0.010309846651226917,-0.022447511636491946,0.04514799716515032,0.1808229130734671,0.08676722405566192,0.9933480334045937,0.02669103478094837,-0.09871169525745355,0.05294595747503384
2843.3333333419264,0.053661164,-0.8006878,-0.00067826686,-2.4452481,0.12305816,1.4525648,0.89594597,0.039999865,0.039999977,-0.0023512597473018815,-0.009948949358276615,-0.02200525841045131,0.04524789546413479,0.1822291614804098,0.08682374295898294,0.9931284647752622,0.02709926429660147,-0.10039531010432946,0.05368672123318143
2843.3500000085933,0.05453561,-0.80095357,-0.00068993174,-2.4467013,0.12506779,1.4506297,0.8977431,0.039999872,0.03999998,-0.000919654908826395,-0.009650114211723348,-0.021280002686174804,0.04533797572719013,0.18361483563915287,0.08686293468984618,0.9929041116759916,0.027508772904398193,-0.10208992790273995,0.054427374096291864
2843.36666667526,0.055414997,-0.8012209,-0.0007016604,-2.448163,0.12708879,1.4486835,0.89955044,0.03999986,0.03999997,-0.0019517993903095388,-0.009212589466839338,-0.021808808915180222,0.04541901590482616,0.1849858230474356,0.08688481789393598,0.9926748803683597,0.02791954049207911,-0.10379598394218119,0.05516769763048262
2843.383333341927,0.05629924,-0.8014898,-0.00071345107,-2.449633,0.12912095,1.4467264,0.90136766,0.03999987,0.039999977,-0.000996869999947414,-0.008883028762063372,-0.021379014306277533,0.045490359890453774,0.18633456070914028,0.08688911832816475,0.9924407578178948,0.028331436402977646,-0.10551311444289252,0.05590755417425944
2843.400000008594,0.05718823,-0.80176,-0.0007253031,-2.4511106,0.13116401,1.444759,0.90319455,0.039999865,0.039999973,-0.0005572698964284584,-0.008510639854428237,-0.020820198340776308,0.0455527168937744,0.1876620932960436,0.08687570286070553,0.9922017239655964,0.02874438869187082,-0.10724104282255562,0.05664678113326358
2843.416666675261,0.05808188,-0.80203164,-0.00073721464,-2.4525957,0.13321777,1.4427813,0.905031,0.039999858,0.03999996,0.0003652349021221468,-0.008172055660571331,-0.020473600216974752,0.04560604425006221,0.1889697930488069,0.0868450357487849,0.99195776129032,0.029158383100146353,-0.10897946847492707,0.0573852242463502
2843.4333333419277,0.058980074,-0.8023045,-0.00074918446,-2.4540884,0.13528204,1.4407935,0.90687704,0.03999987,0.039999973,6.224355071360321e-05,-0.007840672586689745,-0.020503403043181656,0.04564959163119177,0.19025833418382762,0.08679818491005126,0.9917088074545979,0.029573440030700966,-0.11072850430089867,0.058122725306161534
2843.4500000085945,0.059882723,-0.8025789,-0.0007612109,-2.4555886,0.13735649,1.438796,0.90873224,0.039999865,0.03999997,0.0009294977713514285,-0.007405031521917627,-0.020123621234180433,0.04568286162908912,0.1915239559919328,0.08673342826407374,0.9914548775745916,0.02998940798276747,-0.11248762812419534,0.05885910856772759
2843.4666666752614,0.060789715,-0.8028548,-0.00077329256,-2.457096,0.13944092,1.4367887,0.9105962,0.03999987,0.039999973,0.0009345357441903346,-0.007052849506467007,-0.02028702113658909,0.04570644581299435,0.19276984857605867,0.08665204358750972,0.9911959121080081,0.030406110759642255,-0.1142569972993397,0.059594217982829496
2843.4833333419283,0.061700933,-0.80313176,-0.0007854281,-2.4586105,0.14153498,1.434772,0.9124689,0.039999865,0.03999997,0.0016159798857051655,-0.00660367543657836,-0.01941671077940743,0.045721220534557336,0.19399191621568573,0.08655383377052606,0.9909319115869124,0.030823605925392128,-0.11603621369609834,0.06032784620336736
2843.500000008595,0.06261629,-0.80341,-0.000797616,-2.4601326,0.14363855,1.4327462,0.91435015,0.03999987,0.03999997,0.0007933472560894828,-0.006309107554441917,-0.019827387631932147,0.04572629831401468,0.19519234245945025,0.08643926949297631,0.9906628052097466,0.031241822023282118,-0.11782549999750648,0.06105985981771486
2843.516666675262,0.06353564,-0.80368954,-0.0008098551,-2.4616613,0.14575139,1.4307115,0.9162395,0.039999865,0.039999966,0.0025164742693650766,-0.005934221883235891,-0.0189898937245081,0.04572184047524002,0.19636652501708435,0.08630947341914058,0.9903886330299104,0.03166058571545048,-0.11962415337910003,0.061790167548191485
2843.533333341929,0.06445894,-0.80397034,-0.00082214334,-2.4631956,0.14787321,1.4286681,0.91813695,0.039999865,0.039999966,0.0044444912130625625,-0.0056289887646054915,-0.01815454675491157,0.045708304583387545,0.19751803008689725,0.0861622774392197,0.9901094304221782,0.03207986652574801,-0.1214315431622469,0.06251862344930055
2843.550000008596,0.06538601,-0.8042522,-0.0008344798,-2.4647367,0.15000372,1.4266164,0.9200423,0.039999865,0.039999966,0.00224074792121165,-0.00510331831900801,-0.018665465253620006,0.04568512923702277,0.1986509927455744,0.08599888475320475,0.9898250903332193,0.032499683563428625,-0.12324826012811517,0.06324497996286854
2843.5666666752627,0.0663168,-0.8045351,-0.00084686256,-2.4662838,0.15214269,1.4245564,0.9219552,0.03999987,0.039999966,0.003784720529176333,-0.004813542712123198,-0.018064209537005382,0.04565242400481325,0.19975745118983057,0.08581991843160187,0.9895356312307411,0.03291990303403889,-0.12507384193047902,0.06396912203366359
2843.5833333419296,0.06725114,-0.8048192,-0.0008592902,-2.4678369,0.15428993,1.4224887,0.9238755,0.039999865,0.03999996,0.00422484279980484,-0.0044366387633970605,-0.017572110258479157,0.04561022820942303,0.20083986011209057,0.08562604580507764,0.9892410751765824,0.03334045685152676,-0.12690779296357899,0.06469096695462091
2843.6000000085965,0.06818897,-0.8051043,-0.0008717608,-2.4693964,0.15644516,1.4204133,0.9258029,0.03999987,0.039999966,0.0033151148152610332,-0.004056559302392793,-0.01784919660574591,0.04555829893281874,0.20190010808698125,0.08541569046930585,0.9889413396267842,0.033761263903571724,-0.12875052708687937,0.06541028674196185
2843.6166666752633,0.06913016,-0.8053904,-0.00088427344,-2.4709601,0.15860808,1.4183303,0.9277371,0.03999986,0.039999958,0.006795073645160521,-0.003697005125585795,-0.01632643959046387,0.04549709249985411,0.20293149959309315,0.08519024306526292,0.9886365476289879,0.034182189672196314,-0.1306008103465282,0.0661270212415472
2843.63333334193,0.07007462,-0.8056774,-0.00089682644,-2.472531,0.16077848,1.4162402,0.9296781,0.039999858,0.039999943,0.002463053069701182,-0.0032625419904175335,-0.017770154547647188,0.045427699420094496,0.20394428794344854,0.08495106323102501,0.9883265034420502,0.03460332427499955,-0.13245991116465483,0.06684088926235153
2843.650000008597,0.071022205,-0.80596536,-0.00090941804,-2.474106,0.16295606,1.4141432,0.9316254,0.03999985,0.039999917,0.00738318250297354,-0.0029486226051311792,-0.015638714538956933,0.04534892792794221,0.20492353905250968,0.08469821154447682,0.9880113985639147,0.03502443841064921,-0.13432612076896508,0.06755189339283633
2843.666666675264,0.07197281,-0.8062543,-0.0009220468,-2.4756854,0.16514052,1.4120393,0.93357915,0.03999985,0.039999917,0.007158180152422311,-0.002518437046855615,-0.015778684440426183,0.04526026149576086,0.20588213563690785,0.08442779449178107,0.9876911977637278,0.035445577910924286,-0.1361995019616218,0.06825983102835516
2843.683333341931,0.07292632,-0.8065442,-0.0009347109,-2.4772716,0.16733162,1.409929,0.9355387,0.03999985,0.03999992,0.0032189964326079235,-0.0020363836244013944,-0.016881656418976654,0.04516208746013579,0.20681925571347481,0.08414204365525094,0.9873657410527535,0.03586664996602566,-0.13808106608878967,0.06896445463675208
2843.7000000085977,0.07388263,-0.806835,-0.00094740954,-2.478861,0.16952923,1.4078126,0.93750405,0.03999985,0.03999991,0.008834309912009175,-0.001922772571910647,-0.014530235396381652,0.045055822355484325,0.2077197083126053,0.08384554920082113,0.9870352458098157,0.03628752486894435,-0.1399689475039647,0.06966586540533991
2843.7166666752646,0.07484161,-0.8071265,-0.00096014055,-2.480455,0.17173289,1.4056903,0.9394749,0.03999985,0.039999913,0.0072587453655792444,-0.0013351312310977415,-0.014706819793586234,0.044939640270301534,0.2086011849378146,0.08353157272093233,0.9866996476223214,0.03670817296555763,-0.14186350819090698,0.07036377237816321
2843.7333333419315,0.07580318,-0.8074189,-0.0009729025,-2.4820528,0.1739425,1.4035624,0.94145095,0.039999846,0.039999906,0.00785046040914228,-0.001129956587897496,-0.014382841918758604,0.044814455311531595,0.2094571887404017,0.08320547473374572,0.9863589633735819,0.037128493520392825,-0.14376442925753946,0.0710581397290495
2843.7500000085984,0.07676718,-0.8077121,-0.0009856933,-2.4836545,0.17615765,1.401429,0.94343215,0.039999846,0.039999906,0.00826945801575274,-0.0005761852373720178,-0.014071912101165651,0.044680513334746694,0.21028723702670996,0.08286453545309676,0.986013206813018,0.0375484975221901,-0.14567149114707226,0.07174874905615536
2843.7666666752652,0.0777335,-0.8080058,-0.0009985123,-2.4852605,0.17837824,1.3992906,0.945418,0.03999984,0.0399999,0.007409136815872408,-0.0003415213274682305,-0.013948453916790005,0.04453738015042796,0.21109164399816593,0.08251065621664821,0.9856623314296282,0.0379680271428243,-0.14758486075053556,0.07243553128704482
2843.783333341932,0.07870205,-0.80830044,-0.0010113571,-2.4868698,0.18060379,1.3971472,0.94740844,0.039999843,0.039999913,0.00922121489186356,0.00016260985230831526,-0.013215906917629638,0.04438554946829829,0.2118664196524226,0.08214145264222247,0.9853064397552933,0.03838705690284036,-0.14950373383199567,0.07311830967260004
2843.800000008599,0.07967268,-0.80859554,-0.0010242262,-2.4884832,0.18283416,1.3949989,0.94940317,0.03999985,0.039999913,0.007847499362734212,0.00048601673550696667,-0.013475063050383262,0.04422576010179559,0.21261593573331705,0.08176261164030212,0.9849454359355809,0.038805539524981204,-0.15142862755608305,0.07379694497961665
2843.816666675266,0.080645286,-0.8088913,-0.0010371186,-2.4901,0.18506904,1.3928463,0.95140195,0.039999846,0.039999906,0.009181136043623361,0.0008670565449869772,-0.012541593956161279,0.04405732796095641,0.21333418869570697,0.08137075642939487,0.98457941876757,0.03922339449541641,-0.1533587666334022,0.07447135127183248
2843.8333333419328,0.08161975,-0.8091876,-0.0010500324,-2.4917197,0.1873082,1.3906898,0.9534045,0.039999843,0.039999902,0.009517154557636687,0.0011803977411267708,-0.011999368722648285,0.043880310181517924,0.21402376421030989,0.0809660566188417,0.9842084142515358,0.03964053505154454,-0.15529387514345494,0.07514145087921555
2843.8500000085996,0.08259595,-0.80948436,-0.0010629657,-2.4933429,0.18955134,1.3885295,0.9554108,0.039999843,0.039999902,0.009148326031116483,0.0016109791692642261,-0.011972331599408026,0.043695015117531315,0.21468710191983184,0.08054882656630977,0.9838324019458788,0.04005702676735582,-0.15723400162811296,0.07580704597840908
2843.8666666752665,0.08357378,-0.80978185,-0.0010759168,-2.4949672,0.19179814,1.3863655,0.95742035,0.039999843,0.039999906,0.01260153890496607,0.0019068498017832392,-0.010493921587295674,0.043500147096400994,0.21531819871514707,0.08012011943214853,0.983451573664129,0.04047258601636577,-0.15917786651163027,0.07646815580031867
2843.8833333419334,0.0845531,-0.8100795,-0.0010888841,-2.4965954,0.19404842,1.3841982,0.95943284,0.039999843,0.039999902,0.008284698380323086,0.0023405135693543855,-0.011656344385313488,0.04329787467142671,0.21592907912023887,0.07968016953074586,0.9830657130853592,0.04088724995628746,-0.16112679146390949,0.07712453318842336
2843.9000000086003,0.08553382,-0.81037784,-0.001101867,-2.4982262,0.19630182,1.382028,0.96144843,0.039999843,0.0399999,0.010526903930552223,0.0027099176923950363,-0.010589804032179462,0.04308840416111709,0.2165036522156566,0.07922918513595772,0.9826749783452325,0.04130109609034202,-0.16307969204986006,0.07777609167897212
2843.916666675267,0.08651579,-0.81067646,-0.001114863,-2.499858,0.19855809,1.3798548,0.9634665,0.03999984,0.0399999,0.012707219031415917,0.0029890141882094046,-0.009386143737144526,0.04286918576605835,0.21704907071965007,0.07876660411863044,0.9822794718130671,0.04171383054902427,-0.16503592488939242,0.07842282251661309
2843.933333341934,0.08749891,-0.8109754,-0.0011278703,-2.501492,0.20081702,1.3776793,0.9654868,0.039999843,0.039999902,0.010648543212199435,0.0033663288861451868,-0.009671656528054129,0.0426430063178773,0.21757049420940255,0.07829352773775858,0.9818791390458711,0.04212545292847523,-0.1669957905889384,0.07906458402903997
2843.950000008601,0.08848303,-0.8112747,-0.0011408873,-2.503128,0.20307823,1.3755014,0.96750927,0.039999846,0.039999906,0.011432206435513237,0.0038285524951331418,-0.009496172290213156,0.042409275325682325,0.2180608061708572,0.07780942151431494,0.9814740158070139,0.04253596320286385,-0.1689590637436285,0.07970121020997568
2843.966666675268,0.089468054,-0.8115743,-0.0011539129,-2.5047657,0.2053415,1.3733217,0.9695337,0.03999984,0.039999895,0.01168862043394725,0.004080362530256565,-0.00862588368663042,0.04216818437030258,0.21851870631553258,0.07731615030921953,0.9810641650287294,0.04294534689917212,-0.17092532288458145,0.08033265384009904
2843.9833333419347,0.09045383,-0.8118742,-0.0011669452,-2.5064042,0.20760654,1.37114,0.9715596,0.03999984,0.0399999,0.01317609501185757,0.004463574914281843,-0.008029200919235091,0.04191838357361052,0.21894880251721494,0.07681194830804351,0.9806496819204495,0.043353385326546104,-0.17289403803603337,0.08095885956239603
2844.0000000086015,0.09144029,-0.81217426,-0.0011799823,-2.5080433,0.20987308,1.3689572,0.9735868,0.039999846,0.039999906,0.013001119922440019,0.004740342871184522,-0.007289419698952582,0.04166188140110285,0.21935016287355436,0.07629871501067416,0.9802306144154447,0.043760072955915975,-0.1748649301172095,0.08157974499050591
2844.0166666752684,0.09242726,-0.8124745,-0.0011930232,-2.5096838,0.21214089,1.3667727,0.97561514,0.039999846,0.039999902,0.011958288188274047,0.0051770042828136464,-0.008064868255019952,0.04139855265579477,0.21972461596899584,0.07577607400732193,0.9798068803430543,0.04416540273225994,-0.17683849815141697,0.08219513370911988
2844.0333333419353,0.09341467,-0.81277484,-0.0012060659,-2.5113254,0.21440962,1.3645875,0.97764426,0.039999843,0.039999895,0.012635074082001374,0.005481652649347302,-0.00677306039833514,0.04112860956844068,0.22006352756635067,0.07524464994734373,0.9793786207704889,0.04456927547073132,-0.17881395614026993,0.08280498747765525
2844.050000008602,0.09440234,-0.8130754,-0.0012191088,-2.512967,0.216679,1.3624015,0.97967416,0.039999846,0.0399999,0.013735152191207689,0.005859232076171894,-0.006507036632819041,0.04085115504201876,0.22037343098767959,0.07470371019447927,0.9789458889321856,0.04497171482674298,-0.1807910245849647,0.08340921314719205
2844.066666675269,0.09539021,-0.81337595,-0.0012321504,-2.5146089,0.21894881,1.3602153,0.9817044,0.03999984,0.039999884,0.013841150149818127,0.006084444089010654,-0.005486873370053047,0.04056671201395381,0.22065308980524628,0.07415576227392054,0.9785087701572228,0.045372597875743735,-0.1827692689717321,0.08400778777556164
2844.083333341936,0.09637812,-0.8136764,-0.0012451881,-2.5162504,0.22121868,1.3580291,0.98373467,0.039999843,0.039999895,0.01413414454916051,0.006503785583139576,-0.005111983934058539,0.04027471737175573,0.22090333317846522,0.07359718658726824,0.9780673235860613,0.045771818408743725,-0.1847484479062596,0.0846006038334477
2844.100000008603,0.097365946,-0.8139769,-0.0012582212,-2.5178921,0.22348832,1.355843,0.98576486,0.03999984,0.03999989,0.013437258188342405,0.006898170302671591,-0.005340837894440842,0.039977288490543154,0.2211257441660893,0.0730315895037772,0.9776215319516529,0.046169430340080815,-0.18672871273755326,0.0851875096827708
2844.1166666752697,0.09835361,-0.8142773,-0.0012712483,-2.5195336,0.22575751,1.3536569,0.9877945,0.03999984,0.03999989,0.014044165028526123,0.007138238994647272,-0.004806253622791079,0.03967279287322324,0.2213149222315291,0.07245885694379871,0.9771714694500274,0.04656522573894198,-0.18870973979033034,0.08576848578015783
2844.1333333419366,0.09934096,-0.8145777,-0.0012842674,-2.5211751,0.228026,1.3514718,0.98982346,0.039999846,0.0399999,0.013723521286168605,0.007469137388932401,-0.004193876315428113,0.039363620132971844,0.2214706200689669,0.07187875103135413,0.9767172125664448,0.04695925062961097,-0.19069115589009128,0.08634349148627443
2844.1500000086035,0.100327864,-0.81487787,-0.0012972773,-2.5228155,0.2302935,1.3492875,0.9918518,0.03999984,0.039999884,0.015180906513267978,0.007759495792802884,-0.003287050242095635,0.039048407767233916,0.2215951505126072,0.07129243123720645,0.9762588583116966,0.047351574847221196,-0.1926725113576916,0.08691244614294939
2844.1666666752703,0.10131421,-0.8151779,-0.0013102755,-2.524455,0.23255967,1.3471049,0.9938788,0.03999984,0.039999887,0.01453043285053468,0.008125924018964614,-0.002855280876135069,0.038726175858786585,0.22168949865873866,0.07069808450438808,0.9757964918001444,0.04774194858940377,-0.19465349043808997,0.0874753199233131
2844.183333341937,0.1022999,-0.8154777,-0.0013232612,-2.5260935,0.23482426,1.3449235,0.9959044,0.039999835,0.039999884,0.015032653267987861,0.008412490767545355,-0.0027664475299560287,0.03839867181878635,0.2217548239781125,0.07009740604219222,0.9753301308373756,0.048130373728927124,-0.19663410284876048,0.0880319976049883
2844.200000008604,0.103284754,-0.8157773,-0.0013362322,-2.5277305,0.237087,1.342744,0.99792844,0.03999984,0.039999887,0.01531252925617288,0.008733634793067768,-0.0018886911961391029,0.03806533312583781,0.2217872465617922,0.06949102395212697,0.9748598900985322,0.0485168862199722,-0.19861382843790834,0.0885824676887752
2844.216666675271,0.10426871,-0.81607664,-0.0013491869,-2.5293665,0.23934762,1.3405664,0.9999506,0.039999843,0.03999989,0.014537281178839123,0.009046953127794799,-0.0021063224147854775,0.03772674545199664,0.2217901149424587,0.06887829541843868,0.97438576363326,0.04890137468118749,-0.2005928335939789,0.08912661944591672
2844.233333341938,0.105251625,-0.81637555,-0.0013621243,-2.5310001,0.24160585,1.3383914,1.0019704,0.039999843,0.039999887,0.016366226985842225,0.009247893258329531,-0.0003641259809672448,0.037383057549383474,0.22175819292675547,0.06826119220863111,0.973907975062964,0.04928368592242459,-0.20257009977599044,0.08966453639763167
2844.2500000086047,0.10623336,-0.8166742,-0.0013750426,-2.532632,0.24386135,1.3362187,1.0039883,0.039999843,0.039999887,0.015315212870903316,0.009703589723292216,-0.0010415937558461152,0.03703459947282257,0.22169820051273503,0.0676374978838703,0.9734264628377276,0.049664082835830584,-0.20454604645707206,0.09019598218372726
2844.2666666752716,0.107213855,-0.81697255,-0.00138794,-2.5342615,0.2461139,1.3340487,1.0060031,0.039999843,0.039999887,0.016639408596375027,0.009837594406242323,8.998462515119598e-05,0.036679618543252406,0.22160450488388211,0.06700997990994133,0.9729414262130458,0.05004207815823158,-0.20651986600354016,0.09072109191367499
2844.2833333419385,0.10819294,-0.8172704,-0.0014008147,-2.5358891,0.24836324,1.3318818,1.0080153,0.039999843,0.03999989,0.014929682385966814,0.010221277518723815,-0.00014214378104560055,0.036321956307425664,0.22148416200665258,0.0663757776509987,0.972452792475023,0.05041796354081617,-0.2084920043459771,0.09123968151919261
2844.3000000086054,0.109170504,-0.8175678,-0.001413665,-2.537514,0.25060907,1.3297184,1.0100243,0.039999843,0.03999989,0.016608269114382068,0.010445469709335908,0.0012599123434542392,0.035959132253197114,0.22132697778651908,0.06573863875106076,0.9719607937484227,0.05079159944469309,-0.21046147393254958,0.09175182195425127
2844.3166666752722,0.1101464,-0.8178648,-0.00142649,-2.5391357,0.2528512,1.3275588,1.0120298,0.039999846,0.03999989,0.016788668486822367,0.010666787271512712,0.001769849983668248,0.03559191297561732,0.2211398645844905,0.06509786750551401,0.9714655176859236,0.05116283250613972,-0.21242800624830577,0.09225754537456003
2844.333333341939,0.111120574,-0.81816113,-0.0014392877,-2.5407555,0.25508934,1.325403,1.0140319,0.039999843,0.039999887,0.014873616644317522,0.010997337804308227,0.0010950058237146898,0.035221226298577844,0.22092571992114157,0.06445111725062042,0.9709668673947501,0.05153189519677793,-0.21439219365847076,0.09275663586699832
2844.350000008606,0.11209285,-0.8184571,-0.0014520566,-2.5423713,0.25732303,1.323251,1.0160302,0.039999843,0.039999887,0.017930023878420798,0.011357327523292549,0.0026770035369438894,0.034845082427768126,0.2206746296748614,0.06380185753744208,0.970465151226183,0.051898515472274136,-0.21635279904471333,0.0932491323972172
2844.366666675273,0.11306313,-0.81875235,-0.0014647957,-2.543984,0.25955203,1.3211037,1.0180242,0.03999984,0.039999884,0.0161154919411155,0.011605779938084204,0.0029415750467443047,0.034465341169263884,0.22039568391170622,0.06314950143431584,0.9699603621240368,0.052262662815157214,-0.2183100112086492,0.09373499341097831
2844.3833333419398,0.11403127,-0.8190468,-0.0014775023,-2.5455925,0.26177618,1.3189611,1.0200139,0.039999835,0.039999884,0.017335783503913405,0.011747117944482799,0.003837197246148172,0.03408292561426428,0.2200838127480652,0.0624937828857301,0.9694526497361367,0.05262436129840224,-0.2202632703278054,0.0942142678261562
2844.4000000086066,0.1149972,-0.8193409,-0.0014901762,-2.547198,0.26399517,1.3168236,1.0219989,0.039999835,0.039999884,0.01615643737975514,0.012099280808802737,0.0033720114423707592,0.03369641379226244,0.21974378025343458,0.06183545599366203,0.968942043922628,0.05298348148835876,-0.22221264483378822,0.09468688760533693
2844.4166666752735,0.115960784,-0.8196342,-0.0015028145,-2.5487995,0.2662087,1.314691,1.0239793,0.039999843,0.03999989,0.017015386613694616,0.012331822722727592,0.0042078482027751996,0.03330763987469722,0.21937190024696218,0.06117435614082701,0.9684286324899044,0.05334017780506183,-0.22415789103119468,0.09515276713740463
2844.4333333419404,0.11692188,-0.81992674,-0.0015154168,-2.5503972,0.26841655,1.3125638,1.0259546,0.03999984,0.039999884,0.016519324244912426,0.012584958709149774,0.004666456625512794,0.032915288917047765,0.21896717083104417,0.060512298637972854,0.9679125108789665,0.05369430085816592,-0.22609875931975884,0.09561194681311212
2844.4500000086073,0.11788042,-0.8202184,-0.001527981,-2.5519898,0.27061856,1.3104426,1.0279245,0.03999984,0.039999884,0.017950895325391514,0.012596065495440456,0.006041374213694439,0.03252003726590998,0.21852968328248934,0.05984807366635803,0.9673938921075552,0.05404574992030477,-0.22803445812473477,0.09606456337435967
2844.466666675274,0.11883626,-0.8205093,-0.0015405058,-2.5535781,0.2728143,1.3083272,1.0298887,0.03999984,0.039999884,0.016883219426899743,0.013067015814233196,0.005548005637301401,0.03212209720702508,0.21806581285467813,0.05918078753103463,0.9668727791156186,0.054394463674824325,-0.22996521962491367,0.0965104610373072
2844.483333341941,0.11978928,-0.82079935,-0.0015529898,-2.555162,0.2750037,1.3062183,1.0318474,0.039999835,0.03999988,0.016929393564613093,0.013136446915551492,0.006380744349687717,0.03172213003669943,0.21757013697356298,0.058512199652644,0.9663492764438315,0.054740613344280854,-0.23189069875562945,0.09694970344359598
2844.500000008608,0.12073937,-0.8210885,-0.0015654307,-2.5567415,0.27718633,1.3041157,1.0337998,0.03999984,0.039999884,0.016388840542669314,0.013529433742581753,0.006260324338924761,0.0313191917613855,0.2170424480323307,0.05784216521024893,0.9658234271086845,0.05508398863745077,-0.23381097463411063,0.09738218514939938
2844.516666675275,0.12168641,-0.8213767,-0.001577828,-2.5583167,0.27936193,1.3020197,1.0357459,0.039999843,0.039999887,0.01615399553343,0.013769825568227256,0.006707943421224716,0.030915081485700442,0.21648082839116087,0.05717116586395161,0.9652953185795659,0.055424642842030185,-0.2357258472173036,0.097807882340292
2844.5333333419417,0.12263032,-0.8216639,-0.0015901796,-2.5598853,0.2815302,1.299931,1.0376858,0.03999984,0.039999884,0.019254924113543126,0.013767346847048945,0.009007405914840394,0.03050937168345705,0.2158853792839467,0.05649983783192959,0.9647653347030073,0.055762582711841695,-0.23763385392465744,0.09822695553468959
2844.5500000086085,0.12357095,-0.8219503,-0.0016024845,-2.561449,0.28369102,1.2978493,1.0396188,0.039999843,0.039999887,0.01654048619530446,0.014125648299256888,0.007482260747182501,0.030100436131328623,0.21526603399671598,0.055828049443228014,0.9642333053074102,0.05609769794532708,-0.23953594450731774,0.09863930509775863
2844.5666666752754,0.12450817,-0.8222356,-0.0016147408,-2.5630076,0.285844,1.295775,1.0415447,0.039999843,0.039999884,0.01673439714280356,0.014373874637640949,0.008531625219998507,0.029691219938763405,0.21461335925135908,0.05515620851819604,0.9636993924816631,0.05642987530851725,-0.2414316671369356,0.09904494033830624
2844.5833333419423,0.12544198,-0.82251984,-0.0016269467,-2.5645595,0.28798902,1.2937086,1.0434636,0.039999846,0.03999989,0.01862330350173025,0.014285769630650869,0.009809680133299192,0.029281029963328903,0.21392878862462825,0.05448340475176727,0.9631638419901846,0.05675922726229329,-0.24332015733063905,0.09944397739374256
2844.600000008609,0.12637205,-0.82280284,-0.0016391018,-2.5661056,0.2901257,1.2916502,1.0453751,0.039999846,0.03999989,0.016874204299455187,0.014816405120199327,0.00969944499028541,0.028869328367693792,0.2132167910290477,0.05381108984008782,0.9626266346066996,0.05708581128601333,-0.24520171844890715,0.09983631486237932
2844.616666675276,0.12729847,-0.8230848,-0.0016512041,-2.5676453,0.29225382,1.2895999,1.0472789,0.039999843,0.039999884,0.017795667701436813,0.014801234714667544,0.010234765937655599,0.02845560035728948,0.21247444725653353,0.05314019058723109,0.9620879492749332,0.05740937508365788,-0.24707587358167588,0.10022202455702711
2844.633333341943,0.12822114,-0.82336557,-0.0016632521,-2.5691786,0.29437312,1.287558,1.0491748,0.039999846,0.039999887,0.017522617055742984,0.015005256184486004,0.010581034601997441,0.02804196004316347,0.21170252115534985,0.05246881551338527,0.9615478739147272,0.05772995692158769,-0.248942483471991,0.10060108432167646
2844.65000000861,0.12913975,-0.82364523,-0.0016752447,-2.5707068,0.29648337,1.2855251,1.0510627,0.03999985,0.039999895,0.015311352976699055,0.015415142602193121,0.010328473426124418,0.02762832182308579,0.21090015565434173,0.051798002199528924,0.9610063791430214,0.05804781696875218,-0.25080182528505446,0.10097343524544777
2844.6666666752767,0.13005435,-0.8239236,-0.0016871804,-2.5722275,0.2985843,1.283501,1.0529423,0.03999985,0.03999989,0.01857340264608265,0.015278700464504968,0.012152289061440058,0.027212919775755823,0.21006383349087732,0.05113021175216982,0.9604638063451942,0.058362606889100936,-0.25265279849861993,0.10133926301698361
2844.6833333419436,0.1309648,-0.8242006,-0.0016990578,-2.573741,0.30067575,1.2814863,1.0548131,0.03999985,0.03999989,0.01763239866954258,0.015481031900060893,0.012358440213289246,0.026797922887592127,0.2092016022916325,0.05046259124697448,0.9599202187117823,0.058674323265903494,-0.25449536902692077,0.1016985970476658
2844.7000000086105,0.131871,-0.8244766,-0.0017108754,-2.5752473,0.30275735,1.2794809,1.0566754,0.039999846,0.039999887,0.017682958926923398,0.015730907297784036,0.012480282857263436,0.026383021764574854,0.20830993990031865,0.04979599576548627,0.9593757508522459,0.058983075450744854,-0.25632923850612943,0.10205139378729092
2844.7166666752773,0.13277283,-0.824751,-0.0017226323,-2.5767462,0.3048289,1.2774851,1.0585289,0.039999843,0.039999884,0.01729882729122334,0.015848212710017906,0.013057680650541137,0.02596744049311779,0.20739287010095692,0.049131452433605144,0.9588304391949073,0.05928886835266532,-0.2581544925399541,0.10239764130193772
2844.733333341944,0.13367021,-0.8250242,-0.0017343268,-2.5782378,0.3068902,1.2754993,1.0603731,0.039999843,0.039999884,0.01729782899537735,0.01599286676105538,0.013475925925954257,0.025551995711226502,0.2064445767589339,0.048469184648547325,0.9582844636517317,0.05959155780948807,-0.25997067042986705,0.10273744924708157
2844.750000008611,0.13456301,-0.8252959,-0.0017459575,-2.579722,0.3089411,1.2735237,1.0622077,0.039999843,0.039999884,0.016960315223246702,0.016050833277592158,0.013747126555208045,0.025137048497546395,0.20546864753218963,0.047808792245520065,0.9577378820973634,0.05989113077561548,-0.2617777557001804,0.10307088954041095
2844.766666675278,0.13545115,-0.8255663,-0.001757523,-2.5811987,0.3109811,1.2715583,1.0640329,0.039999854,0.0399999,0.01668672552694872,0.01643666039734537,0.01397105342385574,0.024723611086303596,0.2044627020871426,0.047149178857088,0.9571908043355136,0.06018773048259226,-0.2635756028668503,0.10339778899117591
2844.783333341945,0.1363345,-0.8258352,-0.0017690223,-2.582667,0.31301025,1.2696035,1.0658481,0.039999846,0.039999887,0.017741221427147735,0.016277606230757913,0.015088918684014185,0.024310187716628046,0.20342741921162197,0.0464946836011543,0.9566434482418208,0.06048112330031051,-0.26536357294155904,0.10371846902081283
2844.8000000086117,0.13721299,-0.8261026,-0.0017804537,-2.584128,0.31502816,1.2676594,1.0676537,0.03999985,0.03999989,0.01639824082941832,0.016574799396634754,0.014814980922639442,0.023898139209231943,0.20236565903887904,0.04584082649453922,0.9560957985437697,0.06077160239660476,-0.2671419690424227,0.1040327098812573
2844.8166666752786,0.13808647,-0.82636875,-0.0017918167,-2.5855799,0.3170346,1.2657264,1.0694488,0.039999846,0.039999887,0.017945724710255462,0.016655499446827093,0.016047496319182564,0.023486359263813122,0.20127407227448932,0.045190834216195394,0.955548175346606,0.06105886832968456,-0.268909840971879,0.10434077160223165
2844.8333333419455,0.13895486,-0.82663316,-0.0018031094,-2.5870235,0.31902933,1.2638047,1.0712335,0.039999846,0.039999887,0.01670014702626066,0.01680703901931757,0.01603149712561258,0.02307568109946545,0.20015846716860186,0.04454362216765296,0.9550005527769947,0.06134299856572944,-0.27066753526333337,0.10464256341026618
2844.8500000086124,0.13981806,-0.8268959,-0.0018143307,-2.5884583,0.32101214,1.2618941,1.0730077,0.039999846,0.039999887,0.017139391595177855,0.016909419840188677,0.016494800512067975,0.022667254734901422,0.19901362767307648,0.043899280109069815,0.954453070770305,0.06162404144664249,-0.2724147606346218,0.10493813130268506
2844.8666666752792,0.14067602,-0.827157,-0.0018254796,-2.5898848,0.32298285,1.2599952,1.0747707,0.03999985,0.03999989,0.016262499371344497,0.01698040734446349,0.016611489548801206,0.022259565649512765,0.19784249240236382,0.043258746337409795,0.9539058264134931,0.061901769776793084,-0.27415142064622805,0.10522758094029638
2844.883333341946,0.14152865,-0.82741654,-0.0018365541,-2.5913022,0.3249413,1.2581083,1.0765228,0.039999854,0.039999895,0.016966314874822253,0.016974343601455777,0.017444148765277667,0.02185522249604658,0.19664193569980298,0.04262129278669116,0.9533589974050156,0.06217640296924167,-0.2758770553924127,0.10551098183943534
2844.900000008613,0.14237581,-0.8276747,-0.0018475541,-2.5927105,0.32688707,1.2562336,1.0782638,0.039999846,0.039999884,0.016786701869753173,0.017282196732243404,0.01781891657636203,0.021452907729557047,0.19541635014169492,0.04198742385095819,0.9528127599108546,0.062447888548521735,-0.2775913093915451,0.1057883297778118
2844.91666667528,0.14321737,-0.82793117,-0.0018584776,-2.5941095,0.32882005,1.254371,1.0799932,0.039999854,0.039999895,0.016679852748802126,0.017312847041034418,0.018097862238530826,0.021051522801737978,0.1941661802698183,0.04135701264803135,0.9522671655636799,0.06271619703150957,-0.2792942255688628,0.10605969820393209
2844.9333333419468,0.1440533,-0.82818586,-0.0018693239,-2.5954995,0.33074006,1.2525209,1.0817113,0.03999986,0.0399999,0.016008603032391377,0.017365112948936057,0.018235911390840354,0.020652766539116234,0.19288976816248204,0.040731383131309425,0.9517222711052838,0.06298142037802548,-0.2809858303717496,0.10632507935414633
2844.9500000086136,0.14488345,-0.8284387,-0.0018800917,-2.5968792,0.33264694,1.2506835,1.0834174,0.039999854,0.03999989,0.017269502826566807,0.017325365366160916,0.019538408622110648,0.020255384704107565,0.19158592214889741,0.040110099945792586,0.9511783555712673,0.06324337762172293,-0.2826653693817974,0.10658470824648342
2844.9666666752805,0.1457078,-0.82868975,-0.0018907797,-2.59825,0.33454025,1.2488592,1.0851115,0.039999858,0.0399999,0.015386283713114679,0.017668753835820006,0.018948685690223233,0.019860827705519037,0.19025939282947985,0.03949135407071105,0.9506353968417729,0.06350217707782431,-0.28433320393861133,0.10683840562206881
2844.9833333419474,0.1465262,-0.82893896,-0.0019013867,-2.5996103,0.33641997,1.247048,1.0867934,0.03999986,0.039999902,0.01668781117132312,0.017519833959489528,0.020145716530173274,0.019469760134246228,0.1889053612111876,0.03887807133517082,0.9500936396135956,0.06375779263007486,-0.2859886688657352,0.10708641895747636
2845.0000000086143,0.14733863,-0.8291864,-0.0019119123,-2.6009607,0.33828592,1.24525,1.0884632,0.039999858,0.039999895,0.016166868256517475,0.017603516686187648,0.019948710696926497,0.019080905541621326,0.1875286124791186,0.03826953943170817,0.9495531235215223,0.06401027229120061,-0.2876318757792842,0.10732872256491958
2845.016666675281,0.14814492,-0.829432,-0.0019223548,-2.6023014,0.34013796,1.2434655,1.0901201,0.039999865,0.039999902,0.015552797093798532,0.017688966312162657,0.020285893073845873,0.018694138672614102,0.18612751963285634,0.03766546850784233,0.9490139680472496,0.06425944775556362,-0.289262645184469,0.10756548668717059
2845.033333341948,0.14894506,-0.8296757,-0.0019327133,-2.6036313,0.3419758,1.2416949,1.0917642,0.03999986,0.039999895,0.016381573936152805,0.017647700148876178,0.021299707595978656,0.018311741169648448,0.1847005190048672,0.03706520424308591,0.9484763892707162,0.06450537793723411,-0.2908804807391211,0.10779675847694661
2845.050000008615,0.14973891,-0.82991743,-0.001942987,-2.604951,0.3437991,1.2399381,1.0933956,0.039999858,0.039999895,0.015483580382236184,0.017961072153122037,0.02107636154382586,0.017932355429631945,0.18325329825970135,0.036468140791475305,0.947940419324624,0.06474821137764866,-0.29248552786009474,0.10802243529217914
2845.066666675282,0.15052643,-0.8301573,-0.0019531741,-2.6062598,0.34560782,1.2381952,1.095014,0.03999986,0.039999902,0.01588189445156374,0.017847290647005076,0.02149700049929315,0.017555323594020365,0.18178119383090313,0.03587713279300439,0.9474062003822473,0.06498783553234724,-0.2940775385930607,0.10824266259262355
2845.0833333419487,0.15130746,-0.8303951,-0.0019632743,-2.6075583,0.34740177,1.2364665,1.096619,0.03999987,0.03999991,0.015180470361952914,0.017928891992435858,0.021862203972455863,0.017182282871039067,0.18028689638562906,0.03529132383124357,0.9468738252094303,0.06522427116123769,-0.29565640963474293,0.10845755403216407
2845.1000000086156,0.15208201,-0.830631,-0.0019732867,-2.6088462,0.34918076,1.2347524,1.0982109,0.039999865,0.039999902,0.014963014732449764,0.01793882615582776,0.022086376361207805,0.01681278214147392,0.17876893541106764,0.03471097032529645,0.9463434143775563,0.0654576739585091,-0.29722196460887246,0.10866710053283078
2845.1166666752824,0.15284997,-0.8308649,-0.0019832097,-2.6101234,0.35094452,1.233053,1.099789,0.039999865,0.03999991,0.014893637420154704,0.018043719585120188,0.022494461666555665,0.01644549673623688,0.17722722377510436,0.034135041705551435,0.9458151062585513,0.06568779582936644,-0.2987740190103037,0.10887140954647134
2845.1333333419493,0.15361123,-0.8310968,-0.0019930429,-2.611389,0.35269302,1.2313683,1.1013535,0.039999865,0.039999906,0.015941691251675216,0.01790205463759742,0.02338150988313581,0.01608298586966421,0.17566305143228464,0.03356569183054335,0.9452891134983139,0.06591477024330687,-0.3003120481919241,0.10907065909819824
2845.150000008616,0.1543658,-0.83132666,-0.0020027854,-2.6126432,0.35442594,1.2296987,1.1029042,0.039999872,0.03999991,0.014901966161851021,0.01804180414151646,0.02331155795298745,0.01572421809886177,0.17408075221339786,0.03300079090278302,0.9447654841865089,0.06613858687749141,-0.30183617237042754,0.10926478053082518
2845.166666675283,0.15511355,-0.8315544,-0.0020124363,-2.6138864,0.3561432,1.2280439,1.1044407,0.039999876,0.039999913,0.014684379283136373,0.018048883486576628,0.02331561793234016,0.015368777539479683,0.17247761545780624,0.03244138391284312,0.9442442814747738,0.06635915212887747,-0.30334641091550857,0.10945389356073218
2845.18333334195,0.15585437,-0.83177996,-0.0020219944,-2.615118,0.35784468,1.2264043,1.1059629,0.039999872,0.039999906,0.014630449767283338,0.01805363008978711,0.023812072022877384,0.015018195919406216,0.17085310156270378,0.03188722727178559,0.9437256296855003,0.06657651509402099,-0.3048425692379436,0.10963809325709381
2845.200000008617,0.15658823,-0.83200336,-0.0020314585,-2.6163383,0.35953012,1.2247801,1.107472,0.039999872,0.03999991,0.014358267814107428,0.018112036322337488,0.024065078419910346,0.014671888845891115,0.1692064550734126,0.03133747542675227,0.9432096110934335,0.06679131635441503,-0.30632454888040506,0.1098172133767509
2845.2166666752837,0.15731502,-0.83222467,-0.002040829,-2.6175463,0.36119935,1.2231715,1.1089659,0.03999987,0.039999906,0.015028753555834662,0.018070092936572912,0.024862449508067375,0.014325703053450087,0.16753739837375742,0.030797011324334364,0.9426965114745782,0.06700264221418087,-0.30779174917589236,0.10999169209182726
2845.2333333419506,0.15803468,-0.832444,-0.0020501039,-2.618743,0.36285233,1.221579,1.1104445,0.039999872,0.03999991,0.01389016943484922,0.018034304210640117,0.024749320204842107,0.01398596398897925,0.16585293609802554,0.030260032769926067,0.9421863772185218,0.06721058933161854,-0.30924421268016355,0.11016162757221554
2845.2500000086175,0.1587472,-0.83266133,-0.0020592832,-2.6199272,0.36448878,1.2200019,1.1119084,0.039999876,0.039999913,0.014865058097845996,0.018103143787429055,0.025072889673560805,0.013651802943422997,0.16415109859043686,0.02972693334226077,0.9416793335398133,0.06741530807996024,-0.3106817967871529,0.11032692402855926
2845.2666666752843,0.15945247,-0.8328763,-0.0020683652,-2.6210997,0.36610866,1.2184408,1.1133578,0.039999872,0.03999991,0.013475251809191846,0.018083190131151783,0.02496910761831117,0.013323285512915346,0.16243131532998092,0.02919902731927751,0.9411753363322084,0.06761709828056268,-0.3121048089919438,0.1104875671927542
2845.283333341951,0.16015045,-0.8330888,-0.0020773495,-2.6222603,0.3677117,1.2168957,1.1147923,0.039999872,0.03999991,0.013347574611377588,0.01812358586930629,0.025447647446374955,0.012997824447184114,0.16069109803733217,0.02867779668906928,0.9406745176478033,0.06781592901456251,-0.3135130720729818,0.11064359565436152
2845.300000008618,0.16084106,-0.83329916,-0.0020862352,-2.6234086,0.36929774,1.2153676,1.1162115,0.03999988,0.039999917,0.013821156270066304,0.018022867483025173,0.02646130703544136,0.012676570415758807,0.15893034235938658,0.028163586217106254,0.9401772019040996,0.06801161796775139,-0.3149057712032184,0.11079532528086555
2845.316666675285,0.16152425,-0.8335073,-0.0020950213,-2.6245444,0.37086678,1.2138561,1.1176153,0.039999876,0.03999991,0.013591358515441243,0.017965216158710717,0.02634189793283559,0.012360077197417024,0.1571548593955588,0.02765507007360479,0.9396834152303253,0.06820419758573765,-0.31628303897178495,0.11094280432515706
2845.333333341952,0.16219994,-0.8337133,-0.0021037096,-2.625668,0.37241858,1.2123611,1.1190039,0.03999988,0.039999917,0.013085952080138519,0.01809552256557545,0.026039127243016047,0.01204726248015879,0.15536584215180121,0.027150641607497514,0.9391931747031712,0.0683937870177161,-0.31764505078532823,0.11108596761040446
2845.3500000086187,0.1628681,-0.83391684,-0.0021122952,-2.6267788,0.37395316,1.2108818,1.1203771,0.039999876,0.039999913,0.013707830684750455,0.017976728064339476,0.026127288426069928,0.011739235763843212,0.15355981413184122,0.026652877185204125,0.9387065130316188,0.06858027170215088,-0.3189919332475892,0.1112248859214704
2845.3666666752856,0.16352867,-0.83411807,-0.002120782,-2.6278772,0.37547013,1.2094208,1.121735,0.03999987,0.039999902,0.012484677725832505,0.017938697098762724,0.027789318066484547,0.011437127938154434,0.15173292401400326,0.02616187490080929,0.938223798360787,0.06876406584395847,-0.32032268251329754,0.111359716709186
2845.3833333419525,0.16418158,-0.834317,-0.0021291655,-2.6289632,0.3769695,1.207976,1.1230767,0.039999876,0.039999917,0.012613086327384337,0.01808754149786873,0.02623818445652848,0.01113555402651454,0.1498955876200732,0.025676896004550722,0.937744863894913,0.06894456856582623,-0.3216381378916721,0.11149047025446057
2845.4000000086194,0.1648268,-0.83451355,-0.002137447,-2.630036,0.37845132,1.2065482,1.1244026,0.039999872,0.03999991,0.013110592919507447,0.017719009835281962,0.027506959373857498,0.010842415082338554,0.14803991601042854,0.02519786709363133,0.9372699368268942,0.06912208858798033,-0.3229377117795366,0.1116173673777608
2845.4166666752863,0.16546427,-0.83470774,-0.0021456261,-2.6310956,0.37991527,1.2051373,1.1257126,0.039999876,0.03999992,0.013216222143075385,0.01789650561860312,0.02754357945962127,0.010553019149596873,0.14617029029028983,0.024723635866353746,0.9367991379661478,0.06929653185254288,-0.3242213024397627,0.1117403813460285
2845.433333341953,0.16609393,-0.83489966,-0.0021537016,-2.6321428,0.38136128,1.2037442,1.1270068,0.03999988,0.039999932,0.011650585588274254,0.01783628090448741,0.027712889740016955,0.010268546511937933,0.14428776359438844,0.024255089472429842,0.9363325367437805,0.06946820051121426,-0.3254888340262992,0.11185959358450707
2845.45000000862,0.16671573,-0.8350891,-0.0021616728,-2.633177,0.38278928,1.2023679,1.1282845,0.03999988,0.03999994,0.012056084629419317,0.017847824698458137,0.027331954244769197,0.009987871919574842,0.14239302724232134,0.023792244212887323,0.9358701087140442,0.06963674167038772,-0.3267406456854098,0.1119750609831326
2845.466666675287,0.1673296,-0.8352761,-0.0021695404,-2.6341975,0.38419908,1.2010093,1.129546,0.03999989,0.03999995,0.012950933828159705,0.01769734417801372,0.028735793164080814,0.009714378557845772,0.1404798068348422,0.023336369009408466,0.9354121927802075,0.06980239098463499,-0.32797587231266884,0.11208694389488938
2845.4833333419538,0.16793557,-0.8354607,-0.0021773032,-2.6352046,0.38559064,1.1996683,1.1307915,0.039999887,0.039999947,0.012097300263325117,0.017629905390159628,0.028403624392692173,0.009444814815836977,0.13855998245090378,0.022886088479083654,0.9349587712475043,0.06996520827990887,-0.32919476319403423,0.11219524759690128
2845.5000000086206,0.16853355,-0.83564305,-0.0021849605,-2.6361985,0.386964,1.1983448,1.1320202,0.039999895,0.039999954,0.011737489317487082,0.017581439475278238,0.028147383289856,0.00917952070703422,0.13662832375539763,0.022442367394015346,0.934509896901464,0.0701249203224889,-0.33039736304993517,0.11230018091093624
2845.5166666752875,0.1691235,-0.83582276,-0.0021925122,-2.6371796,0.3883189,1.1970392,1.1332327,0.039999906,0.039999966,0.010890246500183665,0.017631555220182227,0.028378537818474214,0.008920378181055032,0.13468437865528773,0.022002768088890377,0.9340655833859679,0.07028195403638147,-0.33158379544451666,0.11240159905120745
2845.5333333419544,0.16970544,-0.83600014,-0.0021999576,-2.6381474,0.38965535,1.1957514,1.1344286,0.039999906,0.039999966,0.011506522989823686,0.017463822430324738,0.028590083080182183,0.00866537453361628,0.13272823776904885,0.021570667532107922,0.933626003731462,0.07043608721453745,-0.3327537488522282,0.11249971288458682
2845.5500000086213,0.1702793,-0.83617514,-0.0022072964,-2.6391013,0.39097315,1.1944815,1.135608,0.039999902,0.03999996,0.01179801943840264,0.017451424547204608,0.029108258235666096,0.008415184217169525,0.1307609799234845,0.021144136411063205,0.9331913123801386,0.07058736368433396,-0.33390696324275304,0.11259457573228242
2845.566666675288,0.17084496,-0.8363475,-0.0022145282,-2.6400416,0.3922723,1.1932293,1.1367706,0.039999902,0.03999996,0.011180491941464865,0.01742902622745568,0.02895311580866089,0.00817019225897149,0.1287849828525825,0.0207236427568499,0.9327614755311646,0.07073583796080775,-0.3350437025587331,0.1126862385947915
2845.583333341955,0.17140247,-0.8365175,-0.002221653,-2.6409686,0.3935527,1.1919953,1.1379163,0.039999902,0.03999996,0.010754007826041523,0.017342039622136873,0.0290038402677939,0.007929979329724862,0.12680045406939705,0.02030867732946092,0.932336615672788,0.07088144930297077,-0.3361637934239495,0.11277481638797916
2845.600000008622,0.17195185,-0.83668506,-0.00222867,-2.641882,0.39481434,1.1907796,1.1390452,0.039999906,0.039999966,0.010792372153756169,0.01714833061939869,0.02939001446531364,0.00769528273570784,0.12480599939981449,0.019899360007121353,0.9319168448707671,0.07102428594753055,-0.3372670626682587,0.11286041596096867
2845.616666675289,0.17249297,-0.83685,-0.00223558,-2.6427817,0.39605716,1.189582,1.1401573,0.039999902,0.03999996,0.010514976946951471,0.017183584312863154,0.029309559249424133,0.0074652039656518294,0.12280465686575542,0.01949528137249395,0.9315021599271056,0.07116442388841268,-0.3383536909468703,0.11294304160238046
2845.6333333419557,0.17302586,-0.83701247,-0.002242381,-2.6436677,0.39728105,1.1884027,1.1412526,0.039999906,0.039999966,0.010696507649021747,0.01707392560005294,0.02954767799644431,0.007239468327913872,0.12079443446670544,0.019097718503153987,0.9310927053386454,0.07130185837855504,-0.3394234365468643,0.11302278433857232
2845.6500000086226,0.17355052,-0.83717245,-0.002249074,-2.6445398,0.39848587,1.1872416,1.1423309,0.039999902,0.03999996,0.010437404085616997,0.017072722642119675,0.029586434689798935,0.007017991350224385,0.11877767421133589,0.018705890153890733,0.9306885458697517,0.07143652420854629,-0.34047630584600774,0.11309968502743374
2845.6666666752894,0.17406689,-0.8373299,-0.002255659,-2.645398,0.3996717,1.1860988,1.1433921,0.039999917,0.039999977,0.01056771151526359,0.016866378584878827,0.029882827460125938,0.006801548968076991,0.11675554704984632,0.018318852554700824,0.93028977809857,0.07156845837096514,-0.34151215229452825,0.11317391204193471
2845.6833333419563,0.17457491,-0.8374849,-0.0022621353,-2.6462424,0.40083843,1.1849743,1.1444364,0.039999917,0.039999977,0.009783101664773142,0.01694776999299208,0.029470961148969632,0.006590748808116824,0.11472928323686582,0.017938944912538307,0.9298963654333628,0.07169780226785359,-0.3425312451529316,0.11324540077973916
2845.700000008623,0.1750747,-0.8376372,-0.002268503,-2.647073,0.4019861,1.1838684,1.1454637,0.039999913,0.039999973,0.009750272644670765,0.016669958971954335,0.029930954207213478,0.006384386741405606,0.11269577990812632,0.01756428789772971,0.9295084184062502,0.07182456800310308,-0.34353341469009496,0.11331427330412543
2845.71666667529,0.17556612,-0.837787,-0.0022747612,-2.6478903,0.40311489,1.182781,1.146474,0.03999991,0.03999997,0.009182817277975097,0.01654919709625502,0.02948520277364919,0.006181605250962476,0.1106570579838344,0.017195994018931616,0.9291259027302706,0.071948783621307,-0.3445188648913647,0.11338069123550011
2845.733333341957,0.17604919,-0.8379342,-0.002280911,-2.6486938,0.40422434,1.1817119,1.1474667,0.039999913,0.039999973,0.009454304694123117,0.016745086001002107,0.029797743344373018,0.005982828181094066,0.1086125764238315,0.016831819891946043,0.9287489813667458,0.07207017072931192,-0.3454873883610266,0.1134446322430327
2845.750000008624,0.1765239,-0.8380788,-0.0022869518,-2.649483,0.40531445,1.1806614,1.1484423,0.039999917,0.039999977,0.00980805339185764,0.01653755166868276,0.0303612786502927,0.0057907667756731465,0.10656435265105052,0.01647332171344773,0.9283777813031048,0.0721890231861138,-0.3464387330076706,0.11350614250426813
2845.7666666752907,0.17699026,-0.8382211,-0.0022928836,-2.6502585,0.40638542,1.1796292,1.1494008,0.039999913,0.039999973,0.009068036992299078,0.016417921989769768,0.029467798701465764,0.00560294144856556,0.10451421774513854,0.01612111394331231,0.928012213133358,0.07230534357181874,-0.34737327769642495,0.11356529183130964
2845.7833333419576,0.17744827,-0.83836067,-0.0022987074,-2.6510203,0.4074372,1.1786156,1.150342,0.039999925,0.039999984,0.00891242577758522,0.016263053935289262,0.030009543094311475,0.0054197614312164605,0.10246105290535769,0.0157743617284517,0.92765237243011,0.07241904485538758,-0.34829089918428335,0.11362221355186299
2845.8000000086245,0.17789792,-0.83849776,-0.0023044215,-2.6517677,0.40846977,1.1776203,1.1512661,0.03999992,0.03999998,0.009494625221440067,0.016170545590754593,0.03016374999585958,0.005241848932634286,0.10040576199830034,0.01543233520101521,0.9272983650098269,0.07253024813711972,-0.3491914334009186,0.11367694662807307
2845.8166666752913,0.1783392,-0.8386325,-0.0023100264,-2.652501,0.4094831,1.1766437,1.1521729,0.039999932,0.03999999,0.009087428078635718,0.016048500433124557,0.030220479908527054,0.0050678509067321395,0.09835016323922728,0.015095523654902809,0.926950285983192,0.07263890570177253,-0.3500747446221765,0.11372963497631317
2845.833333341958,0.17877212,-0.8387645,-0.0023155226,-2.6532214,0.41047722,1.1756856,1.1530625,0.039999932,0.03999999,0.00752035830269282,0.016087475005943652,0.029418477699882928,0.0048989708719809864,0.09629588638597636,0.014764146748682896,0.9266079124054907,0.0727451370018536,-0.3509415919936533,0.11378014202434548
2845.850000008625,0.17919669,-0.83889407,-0.0023209106,-2.6539273,0.41145208,1.174746,1.1539352,0.03999992,0.03999998,0.009094674061449481,0.015867153562654224,0.03023423154935312,0.0047342468935887005,0.0942380690170023,0.014438433127038991,0.9262715330840082,0.07284904845188513,-0.35179128495737483,0.11382862103133326
2845.866666675292,0.17961286,-0.8390211,-0.00232619,-2.6546192,0.4124079,1.1738251,1.1547905,0.03999993,0.039999988,0.008572255625538538,0.015620662765031268,0.030279196391003182,0.004572979791530516,0.09218250558042611,0.014118524833968195,0.9259411573410666,0.07295045428739315,-0.35262389989874876,0.11387532472553606
2845.883333341959,0.18002073,-0.8391454,-0.0023313602,-2.655297,0.41334438,1.1729225,1.1556287,0.03999994,0.04,0.008362002841755256,0.01575939691240147,0.029913756188504337,0.00441576384596663,0.09012965101333714,0.013802674823344331,0.9256167603311574,0.07304941404064869,-0.35343970051708906,0.11392003423788571
2845.9000000086257,0.18042028,-0.8392675,-0.002336423,-2.655961,0.4142618,1.1720383,1.1564499,0.039999925,0.039999984,0.008218219051481235,0.015496703925987898,0.029829328098385233,0.004263925909721484,0.08807867928332569,0.013492085694612226,0.9252984102149443,0.07314607312224432,-0.35423854883038586,0.11396295259001582
2845.9166666752926,0.18081146,-0.83938694,-0.002341378,-2.6566112,0.41516006,1.1711725,1.1572539,0.039999932,0.03999999,0.0078813239174913,0.015466512644463082,0.029827978292318313,0.004115236981445836,0.08603073472373617,0.013187270292422493,0.9249860874761859,0.07324032112522996,-0.35502063945195583,0.11400411790850093
2845.9333333419595,0.18119435,-0.83950377,-0.0023462249,-2.6572473,0.41603932,1.170325,1.1580408,0.039999932,0.03999999,0.008085965645854287,0.015223545145942596,0.029975695363293475,0.003971353041574963,0.08398674219423477,0.012886505480587309,0.924679851314898,0.0733322350661596,-0.35578590353075307,0.11404361762617526
2845.9500000086264,0.18156889,-0.8396182,-0.0023509644,-2.6578705,0.41689953,1.169496,1.1588106,0.039999932,0.03999999,0.006598658038980965,0.015333928901628546,0.02913591896467338,0.0038310772221314335,0.08194618640364376,0.012590748513852553,0.9243795995917846,0.0734219543662229,-0.356534719387027,0.11408140228446553
