rsonawane2002/My_IMU/logs_2/traj_340/clean_340.csv
time,j1,j2,j3,j4,j5,j6,j7,gripper1,gripper2,imu_ax,imu_ay,imu_az,imu_gx,imu_gy,imu_gz,quat_x,quat_y,quat_z,quat_w
984.4833333327666,0.00016700293,-0.785875,4.0107683e-05,-2.3551247,9.29385e-05,1.570997,0.786,0.04,0.04,0.0,-0.0,0.0,2.875329272945135e-08,-0.0011641195053377316,4.421952117202833e-08,0.9999995971961153,0.00020320632366974898,0.0008736418299892524,3.263050917662294e-05
984.4999999994333,0.00016700251,-0.78576016,4.012292e-05,-2.3552213,9.2972696e-05,1.5709941,0.786,0.04,0.04,-0.29199846077436753,-4.052463463627767e-05,0.02012840720959641,-1.3031906194946088e-07,-0.0022383913821900415,-3.323055222676096e-07,0.9999996850591591,0.0002032058915088227,0.0007665025200981855,3.260114832536637e-05
984.5166666660999,0.0001669803,-0.7856542,4.0195056e-05,-2.35531,9.299513e-05,1.5709913,0.786,0.04,0.04,0.023196969763450426,-3.468332088199999e-05,-0.0016027242653038343,-8.297242698651453e-07,-0.0032274297304806976,-3.1623705818951884e-06,0.9999997558891837,0.00020319584571743918,0.0006677376610236618,3.2548999717221916e-05
984.5333333327666,0.00016690254,-0.7855566,4.0418618e-05,-2.355391,9.299119e-05,1.5709884,0.786,0.04,0.04,0.02226310020576605,-9.828211918329159e-05,-0.0014234404385193855,-2.519619335940783e-06,-0.0041375601197135,-1.0694664905890234e-05,0.9999998123785788,0.00020315965720281136,0.0005769896424775361,3.2433215310341245e-05
984.5499999994332,0.00016672215,-0.7854666,4.0929233e-05,-2.3554652,9.29406e-05,1.5709856,0.786,0.04,0.04,0.020123656161641357,-0.00019151523588743888,-0.0012562015685668726,-5.551903362925105e-06,-0.0049736156207904544,-2.4964188038030656e-05,0.9999998570993671,0.00020307291755853083,0.0004934836273238591,3.21954191687346e-05
984.5666666660999,0.00016638018,-0.7853832,4.1899555e-05,-2.3555324,9.28178e-05,1.570986,0.786,0.04,0.04,0.020127905400801893,-0.0003119249799942174,0.0017823094668134587,-1.0461673888064703e-05,-0.005740811574342564,-4.7792125038807324e-05,0.9999998913763435,0.0002029041053868525,0.0004184117364024621,3.1762306189141084e-05
984.5833333327665,0.00016580675,-0.78530633,4.3535332e-05,-2.3555973,9.2591625e-05,1.5709866,0.786,0.04,0.04,0.01127365364081978,-0.00045366161884403044,-0.002564193418197469,-1.742817395499282e-05,-0.006429238054982498,-8.080391083143566e-05,0.9999999184952509,0.00020261546595669246,0.0003478400967191134,3.1044026255629747e-05
984.5999999994332,0.00016492217,-0.78523463,4.6072026e-05,-2.3556557,9.223775e-05,1.5709876,0.786,0.04,0.039999995,0.016788024557312653,-0.0006264527893495104,0.00017623865486982027,-2.655348147039676e-05,-0.007073008344612308,-0.00012473420094698772,0.9999999389988019,0.00020216344479828045,0.00028325885871584116,2.9945830322856114e-05
984.6166666660998,0.00016363843,-0.78516775,4.977175e-05,-2.3557107,9.170371e-05,1.5709885,0.786,0.04,0.039999995,0.011010950812728737,-0.000799372720056027,-0.0012680899216688246,-3.786833440877054e-05,-0.0076596010702092935,-0.00018243811106126868,0.9999999544860153,0.00020149941490285825,0.00022276071687681552,2.8348120264304646e-05
984.6333333327665,0.00016185951,-0.785105,5.4920165e-05,-2.3557613,9.094774e-05,1.5709932,0.7860019,0.04,0.039999995,0.013417504297019711,-0.0010003950817250148,0.002429110593271666,-5.161545454569999e-05,-0.008204909291095429,-0.0002542740299433141,0.999999965168,0.00020152401321996355,0.00016843185141169367,2.613009962217522e-05
984.6499999994331,0.00015948301,-0.7850458,6.1823994e-05,-2.3558109,8.991313e-05,1.570998,0.7860038,0.04,0.04,0.0056121726885738354,-0.0012063439022836134,-0.0015293724842546652,-7.647706261289491e-05,-0.008691496549996382,-0.0003420347401311004,0.9999999727082252,0.00020122632253846118,0.00011642784089134533,2.3153270343453488e-05
984.6666666660998,0.00015639992,-0.7849895,7.080798e-05,-2.3558545,8.857101e-05,1.5710064,0.78600574,0.04,0.039999995,0.014463002261622115,-0.0014493949911053813,0.0037870225971126104,-0.00010380818375402734,-0.009153367249751573,-0.00044429438990029166,0.9999999772066169,0.00020054581090314278,7.068263617996294e-05,1.9290104119908292e-05
984.6833333327664,0.00015249639,-0.7849354,8.2213344e-05,-2.3558974,8.6867745e-05,1.5710179,0.78600764,0.04,0.03999999,0.00466302440560451,-0.0016857537007469259,0.0012439744064840497,-0.00013313913649858923,-0.00955314344329928,-0.0005634645621098093,0.9999999796227933,0.00019941882484660249,2.7918032062728492e-05,1.4391964999141474e-05
984.6999999994331,0.00014765406,-0.78488314,9.6395655e-05,-2.3559394,8.4723666e-05,1.5710303,0.78600955,0.04,0.04,0.003898485242226357,-0.0019153557658791538,0.00011208274308671662,-0.0001645031701116748,-0.00992166652664771,-0.0007025246649938986,0.9999999803229341,0.00019777866180704663,-1.2998404952625987e-05,8.292998809031473e-06
984.7166666660997,0.0001417501,-0.784832,0.00011372214,-2.3559794,8.210149e-05,1.5710465,0.78601336,0.04,0.04,0.005700098357319661,-0.0021862151699675813,0.003044381922157058,-0.00019816709444363546,-0.010269064771181235,-0.000858119882600784,0.9999999794169976,0.00019651041003164034,-5.0487108563777434e-05,8.455227622833881e-07
984.7333333327664,0.00013465885,-0.7847814,0.00013457076,-2.3560169,7.8937606e-05,1.5710665,0.7860172,0.04,0.04,0.006255683022793335,-0.00244664491142252,0.003704207882826438,-0.00024203744156322036,-0.010579777357227914,-0.0010330869423619228,0.9999999774654141,0.0001945893517290556,-8.44884096627899e-05,-8.115657775765338e-06
984.749999999433,0.00012625121,-0.7847309,0.00015932803,-2.3560534,7.519709e-05,1.5710903,0.786021,0.04,0.039999995,0.0029576883058712866,-0.002734154337164104,0.003192404809904126,-0.00028753150890401495,-0.010854121000327354,-0.0012249452479520444,0.9999999746699577,0.0001919432002283746,-0.00011604534860335223,-1.8744835694161786e-05
984.7666666660997,0.000116396295,-0.78468,0.00018838815,-2.3560894,7.08018e-05,1.5711187,0.7860267,0.04,0.039999995,0.0017800127759759476,-0.002996905594879765,0.0038153617903047277,-0.0003345389115431891,-0.011100551805598763,-0.0014377906126203594,0.9999999710096836,0.00018945141347053967,-0.0001453068624899598,-3.122033744191291e-05
984.7833333327663,0.00010496084,-0.78462845,0.00022215112,-2.3561256,6.569226e-05,1.5711528,0.78603244,0.04,0.039999995,0.0006774631531758502,-0.0032777666187731556,0.004517554428140613,-0.0003911462290278287,-0.011320447300161001,-0.0016703672182465947,0.99999996682287,0.00018608517994257956,-0.00017215371033324237,-4.571285055711777e-05
984.799999999433,9.181022e-05,-0.7845753,0.00026102163,-2.3561625,5.9807033e-05,1.5711919,0.78604007,0.04,0.039999995,-0.0014146569803585862,-0.003560825410108264,0.0043093182714226685,-0.00044868504542715124,-0.011513512255756645,-0.0019228985317993577,0.9999999618252029,0.0001827220002124342,-0.0001976586843576838,-6.239637740776867e-05
984.8166666660996,7.6808705e-05,-0.78452027,0.0003054083,-2.3562005,5.3067317e-05,1.5712365,0.7860477,0.04,0.04,-0.0019337084975257213,-0.0038345690070794086,0.004691630522479784,-0.0005157453255639551,-0.011686942965748539,-0.0021970821983593103,0.9999999561791664,0.0001783310892441645,-0.00022182178185632965,-8.145419048429154e-05
984.8333333327663,5.9819555e-05,-0.7844631,0.00035572163,-2.3562407,4.5429217e-05,1.5712873,0.78605723,0.04,0.04,-0.0044689489660854065,-0.004134848187902667,0.0047489788811416744,-0.0005827859956828378,-0.011843810931107136,-0.0024898919329431842,0.9999999495395819,0.00017378882134039183,-0.000245149531030649,-0.0001030533195472571
984.849999999433,4.0705538e-05,-0.7844029,0.00041237433,-2.3562827,3.683853e-05,1.5713444,0.786067,0.04,0.04,-0.0042061963382300505,-0.004430269693916065,0.005663183891035928,-0.0006583553384397477,-0.011985328507167606,-0.002802237195861085,0.9999999419221652,0.0001681826564509082,-0.0002676717695395047,-0.00012736594546276957
984.8666666660996,1.9329398e-05,-0.7843398,0.0004757798,-2.3563251,2.7223887e-05,1.5714083,0.78607845,0.04,0.04,-0.0019000145656811185,-0.004714320133954804,0.006485959908952843,-0.0007348026331960038,-0.012114086038898745,-0.003135715076847855,0.9999999332928983,0.00016214937318409546,-0.0002884943097788096,-0.0001545730028050696
984.8833333327663,-4.4462768e-06,-0.78427297,0.00054635125,-2.3563683,1.6530892e-05,1.5714796,0.7860914,0.04,0.039999995,-0.0029756763818999943,-0.005010036959263588,0.007259410520110698,-0.0008181664691159203,-0.012219105404673917,-0.0034887304776243374,0.9999999234440469,0.0001555211012036689,-0.000307825732053489,-0.0001848469798955172
984.8999999994329,-3.0758423e-05,-0.7842022,0.0006245008,-2.3564136,4.679367e-06,1.5715587,0.7861053,0.04,0.04,-0.00552177981198998,-0.0052845462596427355,0.0071035780112138625,-0.0009073484173086913,-0.012303334585218382,-0.0038635645376872718,0.9999999119883499,0.00014795131660144125,-0.0003262620951079246,-0.00021837295037665876
984.9166666660996,-5.974367e-05,-0.7841269,0.0007106391,-2.3564632,-8.38385e-06,1.5716457,0.78612053,0.04,0.04,-0.009895921433500376,-0.005576328181332764,0.006504398264994826,-0.0009993142804358176,-0.012373001486446045,-0.004257739695908402,0.9999998980823259,0.00013957065267647162,-0.00034520405242735824,-0.0002553224096913625
984.9333333327662,-9.153795e-05,-0.78404677,0.0008051755,-2.3565137,-2.2711196e-05,1.5717411,0.7861377,0.04,0.039999995,-0.004274926686043123,-0.005873391823891252,0.008461001612336538,-0.001095972536408711,-0.012439820191787548,-0.004671181438102288,0.9999998818840059,0.0001305686452087852,-0.00036283357111059015,-0.00029586416257057
984.9499999994329,-0.00012627614,-0.7839614,0.0009085159,-2.356567,-3.837437e-05,1.5718454,0.7861564,0.04,0.039999995,-0.00745358065208368,-0.006148442690951171,0.00841919268361746,-0.0011991813557806243,-0.012487119180386738,-0.0051052951709272,0.9999998626853756,0.00012068875293339392,-0.0003799255307278735,-0.0003401764925190934
984.9666666660995,-0.00016409211,-0.7838706,0.0010210633,-2.3566246,-5.5433575e-05,1.571959,0.7861767,0.04,0.039999995,-0.010849703086157625,-0.00642852921848795,0.007955756455624297,-0.0013072662868924732,-0.012521093656091255,-0.005559109413158213,0.9999998395736892,0.00010985368686892101,-0.00039737399582526537,-0.0003884310372418101
984.9833333327662,-0.00020511849,-0.78377384,0.0011432177,-2.3566833,-7.395901e-05,1.5720825,0.7861986,0.04,0.04,-0.005051190078608769,-0.006706720187692476,0.010244007568616098,-0.001419343996843169,-0.0125502815409744,-0.006033158012280619,0.9999998126316808,9.804501894159244e-05,-0.0004133013996124059,-0.00044080123729008
984.9999999994328,-0.0002494869,-0.7836709,0.001275374,-2.3567483,-9.400065e-05,1.5722157,0.78622234,0.04,0.04,-0.014779877811021969,-0.006980620957378601,0.007754050473707252,-0.0015361823402059317,-0.01255865441721523,-0.006525677668416992,0.9999997798783763,8.524706850504275e-05,-0.0004307177631103904,-0.0004974518517379346
985.0166666660995,-0.00029732715,-0.7835609,0.0014179234,-2.3568146,-0.000115617135,1.5723597,0.78624797,0.04,0.04,-0.006486122996496313,-0.00726420228472763,0.011508647359304014,-0.0016577257834519748,-0.012571735088188495,-0.007037197615728638,0.9999997416230529,7.144178968649874e-05,-0.00044685145756228874,-0.0005585460347112724
985.0333333327661,-0.00034876744,-0.78344446,0.0015712515,-2.3568876,-0.0001388592,1.5725147,0.78627557,0.04,0.039999995,-0.014982195782398122,-0.007528582621738923,0.008709999442491068,-0.0017841483573738403,-0.012564069230973482,-0.007566700121602602,0.9999996958973643,5.658502010290511e-05,-0.0004640270713042424,-0.0006242452975132549
985.0499999994328,-0.00040393457,-0.7833206,0.0017357402,-2.3569617,-0.00016379362,1.572681,0.7863051,0.04,0.039999995,-0.006746405409119305,-0.007800099104396884,0.012052322844535723,-0.0019154060224896856,-0.01255704604464472,-0.00811545576768113,0.9999996427297069,4.060010564052103e-05,-0.00047986045067080366,-0.0006947129175408983
985.0666666660994,-0.00046295326,-0.78318906,0.0019117646,-2.3570428,-0.00019047693,1.5728588,0.7863367,0.04,0.039999995,-0.01666744767763184,-0.00804857441711721,0.009767713235242503,-0.0020511221433624997,-0.012528395795978075,-0.008682387702131169,0.9999995795807859,2.3444094948667517e-05,-0.0004972126459439008,-0.0007701092199056402
985.0833333327661,-0.00052594644,-0.7830496,0.0020996956,-2.3571258,-0.00021896586,1.573049,0.7863704,0.04,0.039999995,-0.008206986012782025,-0.008320496095732622,0.01269165438544384,-0.0021912483984272892,-0.012506456928680148,-0.009267132612805005,0.9999995064771525,5.071227909830234e-06,-0.0005133418838493975,-0.0008505879403635307
985.0999999994327,-0.000593035,-0.7829022,0.0022998976,-2.357215,-0.00024933176,1.5732512,0.78640634,0.04,0.04,-0.015548278657573356,-0.008550326279486596,0.01064925070726197,-0.002335935921865829,-0.012462126945072406,-0.009870942781728212,0.9999994208639513,-1.4500687066409271e-05,-0.0005304535199132388,-0.0009363122103137555
985.1166666660994,-0.0006643383,-0.78274596,0.0025127279,-2.3573112,-0.0002816108,1.5734662,0.78644466,0.04,0.04,-0.018020584020406183,-0.008807173426561782,0.011062007063156187,-0.0024854030519503964,-0.012418719186539869,-0.010490291703854288,0.999999320750018,-3.528376395503576e-05,-0.0005492330287074014,-0.001027422814041578
985.133333332766,-0.0007399734,-0.7825811,0.0027385403,-2.3574092,-0.00031585697,1.5736943,0.7864853,0.039999995,0.04,-0.008327879827141338,-0.009073014365788617,0.013880932927490264,-0.002640118172898711,-0.012380780549152091,-0.011126432815414498,0.9999992061026182,-5.738200288053904e-05,-0.0005665512807040698,-0.0011240645379666494
985.1499999994327,-0.0008200546,-0.782407,0.0029776788,-2.3575137,-0.00035213094,1.5739361,0.7865283,0.03999999,0.04,-0.01699309425573503,-0.009288962726683794,0.012305409825308367,-0.0027993981244747988,-0.012318181113662644,-0.011779810799237133,0.9999990736567448,-8.086449950911036e-05,-0.0005849117715137571,-0.0012263868902388068
985.1666666660993,-0.000904695,-0.7822237,0.0032304826,-2.3576252,-0.00039049098,1.5741916,0.7865737,0.039999984,0.04,-0.018120537892785116,-0.00951439939032169,0.012019040756250376,-0.0029629263538640915,-0.012257068291347935,-0.012450011525449412,0.9999989211573372,-0.00010574104542091906,-0.0006045827683135006,-0.0013345346264684065
985.183333332766,-0.0009940044,-0.7820308,0.0034972844,-2.3577394,-0.00043098623,1.5744613,0.7866217,0.039999977,0.04,-0.010711898088344718,-0.009767460191549473,0.014742177180404603,-0.0031308845237585686,-0.012198025426948079,-0.01313579786007632,0.9999987478079382,-0.0001320244026996583,-0.0006232099400218308,-0.0014486412542068351
985.1999999994326,-0.001088091,-0.78182805,0.00377841,-2.3578603,-0.0004736564,1.5747457,0.7866723,0.039999973,0.04,-0.017873690970682254,-0.009982153020828086,0.013225983129094843,-0.003303436511299981,-0.012119722316662347,-0.013836091364913922,0.9999985499838626,-0.00015975176128347657,-0.0006428497425588548,-0.0015688383459039558
985.2166666660993,-0.0011870611,-0.7816152,0.004074177,-2.3579884,-0.00051853555,1.5750445,0.78672546,0.039999973,0.04,-0.018901936922666174,-0.010207130846529976,0.013088443511799497,-0.0034810319788783363,-0.012039091402654386,-0.014550517133897923,0.9999983248637728,-0.0001890198170338022,-0.0006638302149639,-0.0016952494219700527
985.2333333327659,-0.0012910181,-0.7813919,0.0043848986,-2.358123,-0.00056568,1.5753587,0.7867812,0.03999997,0.04,-0.01824538487193994,-0.010420329607841589,0.014106611787689793,-0.0036625406606082783,-0.011960715543172615,-0.015280246233340225,0.9999980699431495,-0.0002198973725148589,-0.0006856747052916903,-0.0018280058314619383
985.2499999994326,-0.0014000629,-0.78115815,0.0047108764,-2.3582644,-0.00061514863,1.5756882,0.7868399,0.03999996,0.04,-0.018371358711299912,-0.01061531086502766,0.014028167281798787,-0.003848143728154866,-0.011880833890502276,-0.01602483522418479,0.9999977822080753,-0.00025224092774241694,-0.0007084724177728164,-0.0019672367113031863
985.2666666660992,-0.0015142945,-0.78091353,0.0050524115,-2.35841,-0.0006669839,1.5760334,0.7869012,0.039999954,0.04,-0.014220458433800154,-0.010844046233366746,0.01567160153448377,-0.004039389358155994,-0.011798677848506037,-0.01678315801292518,0.99999745937844,-0.0002863284215702326,-0.000730912652264385,-0.00211305925024879
985.2833333327659,-0.0016338094,-0.78065777,0.0054097907,-2.3585618,-0.0007212194,1.5763947,0.7869655,0.03999995,0.04,-0.018441281842385138,-0.011033246884302895,0.015168182988833934,-0.0042339307879838,-0.011701957646850456,-0.017553838270919813,0.9999970974344414,-0.0003219844494656478,-0.0007540382323559891,-0.0022655849246111135
985.2999999994325,-0.0017587012,-0.7803908,0.0057832994,-2.3587208,-0.0007778939,1.5767723,0.78703266,0.039999947,0.04,-0.01971277944339267,-0.011227852809843515,0.014935235425195259,-0.004433673940207162,-0.011600529811328709,-0.01833738680922585,0.9999966925107525,-0.00035936330764539095,-0.0007781773977571836,-0.0024249258764420393
985.3166666660992,-0.0018890611,-0.78011227,0.006173211,-2.3588874,-0.00083705876,1.5771666,0.7871027,0.03999994,0.039999988,-0.02087410561741887,-0.01140171316853381,0.015063945378690491,-0.004637934146822287,-0.011497693581818234,-0.019132545293154453,0.9999962405246664,-0.0003985280531947689,-0.0008036284248301222,-0.0025911953378783877
985.3333333327658,-0.0020249789,-0.77982223,0.0065797954,-2.3590615,-0.0008987463,1.5775777,0.7871758,0.039999932,0.03999998,-0.020320006537000168,-0.011593255647890204,0.015375030009945334,-0.004846221377208893,-0.011396260750362769,-0.01993864198415728,0.9999957377132658,-0.0004394526668762204,-0.0008300635451429673,-0.0027644947397218907
985.3499999994325,-0.0021665401,-0.7795202,0.007003313,-2.3592432,-0.00096299936,1.578006,0.7872519,0.03999993,0.039999977,-0.02121221955246888,-0.011765901997573894,0.015675389926683714,-0.005059165639385071,-0.011293217139292365,-0.02075723524437385,0.9999951795891798,-0.000482200452661715,-0.0008577214474749391,-0.002944927001788892
985.3666666660991,-0.0023138302,-0.7792061,0.007444015,-2.359432,-0.0010298573,1.5784512,0.7873311,0.039999925,0.039999977,-0.02068063108862095,-0.011934254953528765,0.015659540775492253,-0.005276408871027336,-0.01118924271791366,-0.02158872948797345,0.9999945616346093,-0.0005268016520114278,-0.0008866023429754258,-0.0031325895854183074
985.3833333327658,-0.0024669303,-0.7788798,0.007902152,-2.3596277,-0.0010993552,1.5789142,0.7874135,0.039999917,0.03999997,-0.02003850644016758,-0.012114703451418865,0.016566694051389774,-0.005498261497548425,-0.011085265704910703,-0.022429073022737278,0.9999938796680429,-0.0005732912270692219,-0.000916080607078926,-0.00332757568599606
985.3999999994325,-0.0026259199,-0.77854115,0.008377959,-2.3598301,-0.0011715305,1.579395,0.787499,0.039999913,0.039999973,-0.019935500555745556,-0.012272118290511478,0.016772206676507473,-0.00572479898760909,-0.010975778454173586,-0.023281353991492695,0.9999931287377762,-0.0006217287048644269,-0.0009461565677464384,-0.003529974277537268
985.4166666660991,-0.0027908748,-0.7781898,0.00887167,-2.36004,-0.0012464179,1.579894,0.7875877,0.03999991,0.039999973,-0.021485340110438678,-0.012423597036133414,0.016655791297770506,-0.005955690165478731,-0.010860515476829855,-0.024142568865228232,0.9999923032002178,-0.0006721750320173358,-0.0009772776128167432,-0.003739872927992829
985.4333333327658,-0.002961869,-0.7778258,0.009383505,-2.3602571,-0.0013240492,1.5804114,0.78767973,0.03999991,0.039999995,-0.02127214880782713,-0.012574315128133229,0.01702496162307998,-0.006190709223816181,-0.010743007328370673,-0.02501651102400486,0.9999913979671357,-0.0007246000243932106,-0.001009115956805632,-0.003957351579547537
985.4499999994324,-0.003138976,-0.7774487,0.009913682,-2.360482,-0.0014044523,1.5809475,0.787775,0.03999991,0.04,-0.022185693684573238,-0.01271656418323627,0.01710092919551265,-0.0064304279529413255,-0.010620214362412714,-0.025896004560261542,0.9999904069605979,-0.0007791215498575345,-0.0010420000408114226,-0.004182486378127469
985.4666666660991,-0.0033222649,-0.7770586,0.01046241,-2.3607144,-0.001487649,1.5815021,0.7878736,0.03999991,0.04,-0.022268494248378623,-0.012862105370387532,0.016965095241028294,-0.006674597177298396,-0.010495493666786981,-0.026783156214677563,0.9999893242130318,-0.0008357082544314942,-0.0010759895170676273,-0.004415348031218871
985.4833333327657,-0.0035118023,-0.7766553,0.011029894,-2.360955,-0.0015736924,1.5820756,0.7879756,0.039999906,0.04,-0.023109261356712985,-0.012978703282612823,0.017115042061188745,-0.0069234283065757836,-0.010368614560611576,-0.02767913782569755,0.9999881433266326,-0.0008944496438592305,-0.0011111444864974817,-0.004656020180264214
985.4999999994324,-0.0037076522,-0.77623874,0.011616325,-2.3612032,-0.0016625988,1.5826683,0.7880809,0.039999906,0.04,-0.022404930214503516,-0.013117770483464693,0.017530089565953588,-0.007176584452965944,-0.01024117779873901,-0.028581849289400205,0.999986858135379,-0.0009554321910459025,-0.0011471675395242104,-0.004904560377644101
985.516666666099,-0.003909877,-0.77580875,0.012221891,-2.3614593,-0.0017543858,1.5832801,0.7881897,0.039999902,0.04,-0.02303220987331933,-0.013245878735536863,0.01734222612974623,-0.007433682264987582,-0.010108891379342927,-0.029492620533440886,0.9999854617718756,-0.0010185636703131356,-0.0011842968386134402,-0.00516102837972141
985.5333333327657,-0.004118536,-0.7753649,0.012846775,-2.3617237,-0.0018491142,1.5839119,0.788302,0.039999902,0.04,-0.024128772599341097,-0.013336743875179066,0.018036177498514938,-0.007695840435961399,-0.009976638651828192,-0.03040909421303603,0.9999839470683297,-0.0010839634609484197,-0.001222533051977427,-0.005425499220895527
985.5499999994323,-0.0043336875,-0.7749072,0.0134911435,-2.3619962,-0.00194678,1.5845631,0.7884178,0.0399999,0.04,-0.023899963512463707,-0.01346165080808679,0.017611460021726977,-0.007962639759523913,-0.009840504474976752,-0.03133275534021148,0.9999823066636485,-0.0011516532844768404,-0.0012620255560929214,-0.005698012447956905
985.566666666099,-0.004555385,-0.7744358,0.014155164,-2.3622773,-0.002047431,1.585234,0.7885371,0.0399999,0.04,-0.02449350637312442,-0.013547451373345683,0.01740515921768715,-0.008234035962533307,-0.009704425013553186,-0.03226123594345392,0.999980532831944,-0.001221718749896006,-0.001302804765766285,-0.005978633638200307
985.5833333327656,-0.00478368,-0.7739503,0.014838994,-2.3625665,-0.002151084,1.5859253,0.78866,0.0399999,0.04,-0.024116207913649212,-0.013663687827583995,0.018394316044134662,-0.008509518380950213,-0.009568636270489022,-0.03319602590595054,0.9999786183207304,-0.0012941291537786016,-0.0013445428411762892,-0.006267402623452901
985.5999999994323,-0.005018626,-0.7734506,0.015542788,-2.3628645,-0.0022577322,1.5866364,0.78878653,0.03999989,0.039999995,-0.0255166118360739,-0.013764454698269105,0.017511628113986433,-0.00879008803453094,-0.009429732868883621,-0.03413486919013678,0.9999765542724661,-0.0013689356334388634,-0.0013878661705375057,-0.0065643543543726516
985.6166666660989,-0.005260267,-0.77293676,0.016266683,-2.3631713,-0.0023674448,1.5873679,0.78891665,0.039999887,0.04,-0.025458921228982412,-0.013813604195388185,0.017919000469435176,-0.009075645884614672,-0.00929256882109799,-0.035080609981475,0.9999743325078366,-0.0014462219208066908,-0.0014325071297200224,-0.0068695480918197155
985.6333333327656,-0.0055086478,-0.7724085,0.017010825,-2.3634865,-0.0024802084,1.5881202,0.78905034,0.03999988,0.039999995,-0.024830567089662026,-0.013949018820712082,0.018559588215683043,-0.009365674816110043,-0.009154991316659589,-0.03602872841115301,0.9999719450181442,-0.00152604847587865,-0.0014781087251627039,-0.00718300405649275
985.6499999994322,-0.0057638125,-0.7718661,0.017775336,-2.3638098,-0.0025960614,1.5888928,0.7891877,0.039999872,0.039999995,-0.024345162091865546,-0.014006039955390126,0.01799356110310235,-0.009659966499204245,-0.009014839713464999,-0.036981248517120674,0.9999693829520292,-0.0016084032966489253,-0.0015247008422766464,-0.007504764134536677
985.6666666660989,-0.006025803,-0.77130896,0.018560346,-2.3641412,-0.0027150374,1.589686,0.7893288,0.03999986,0.039999995,-0.024970708119043117,-0.01407616160641334,0.018510138879657134,-0.009959096465463349,-0.00886997385302133,-0.03793766679175051,0.9999666369655733,-0.0016933439017478083,-0.0015724031789559113,-0.007834863778943752
985.6833333327655,-0.006294657,-0.7707372,0.019365959,-2.3644817,-0.0028371445,1.5905,0.7894736,0.039999854,0.039999995,-0.026562281658804032,-0.014114857257406174,0.018030447964267893,-0.010263024549150051,-0.008723677387614225,-0.03889585362397662,0.9999636971138882,-0.0017809160580202772,-0.0016216037293038596,-0.008173322070213962
985.6999999994322,-0.0065704104,-0.7701509,0.020192292,-2.3648312,-0.0029623823,1.591335,0.7896222,0.03999985,0.039999995,-0.026323276510331617,-0.014203750266284995,0.018116977538773504,-0.010571692370020792,-0.008579042440717936,-0.039855475778866375,0.9999605543153264,-0.0018711155247407912,-0.0016720343924215813,-0.008520154990901365
985.7166666660988,-0.006853096,-0.76954985,0.021039445,-2.3651898,-0.0030907851,1.5921912,0.7897744,0.039999846,0.04,-0.026733931020528345,-0.014244025954713094,0.01819271835998837,-0.010885633781647499,-0.008433213998970929,-0.04081854194858231,0.9999571981922153,-0.0019640841184401536,-0.001723845427683729,-0.008875388109362154
985.7333333327655,-0.0071427464,-0.76893395,0.021907512,-2.3655565,-0.0032223507,1.5930684,0.7899304,0.039999843,0.04,-0.025292130525733647,-0.01433133455777287,0.01850985084685952,-0.01120368545821583,-0.008287668383277616,-0.04178136589507494,0.9999536194862132,-0.002059814322416979,-0.0017766495520288247,-0.009239023636080356
985.7499999994321,-0.007439387,-0.76830316,0.022796586,-2.3659322,-0.003357088,1.5939665,0.7900901,0.039999835,0.04,-0.027063678163719018,-0.014362952859599612,0.017990723252947483,-0.011526565835629781,-0.008140090074906355,-0.042745969540579055,0.9999498068544254,-0.002158387043365733,-0.0018309542538894952,-0.00961107401327524
985.7666666660988,-0.007743049,-0.76765746,0.023706743,-2.3663163,-0.0034950231,1.5948863,0.7902535,0.03999983,0.04,-0.02570213188759496,-0.014415749086380686,0.018780050941558102,-0.011853702292447288,-0.007992481112840483,-0.04371023163942877,0.9999457510449848,-0.0022598246022326536,-0.0018860446236264065,-0.00999154620296243
985.7833333327654,-0.008053756,-0.76699674,0.024638062,-2.3667104,-0.0036361632,1.5958273,0.79042083,0.039999828,0.04,-0.02891366320207922,-0.014399395932000042,0.017578134591111905,-0.01218584214298893,-0.00783908445881537,-0.04467557466725127,0.9999414391842136,-0.0023641113830794517,-0.0019430530864403162,-0.010380449136498068
985.7999999994321,-0.008371531,-0.766321,0.025590613,-2.3671136,-0.0037805238,1.59679,0.79059196,0.039999824,0.04,-0.027262436466335416,-0.014465278005840188,0.018209970411775522,-0.012523011561362355,-0.007692225426221319,-0.04564043174990674,0.9999368613314696,-0.0024713325381988866,-0.00200132486870168,-0.010777781071483934
985.8166666660987,-0.00869639,-0.7656302,0.026564453,-2.3675249,-0.0039280937,1.5977737,0.7907669,0.039999824,0.04,-0.02594167357328203,-0.014531182679433652,0.01825385827451953,-0.012864822553532418,-0.0075433205891663885,-0.04660288951897065,0.9999320067818656,-0.002581537301701999,-0.002060652001919999,-0.011183523222943638
985.8333333327654,-0.009028353,-0.76492417,0.027559634,-2.3679452,-0.0040788883,1.5987793,0.79094565,0.039999817,0.04,-0.02752911596382024,-0.014525273051096965,0.01836919602067333,-0.013211764327526661,-0.0073921593093086435,-0.047566078602299694,0.9999268637918389,-0.0026947756837807854,-0.002121154271067975,-0.011597670282843203
985.849999999432,-0.009367436,-0.76420313,0.028576208,-2.3683748,-0.0042329477,1.5998064,0.7911283,0.039999813,0.04,-0.027973417858095928,-0.01450276983751067,0.01769327439120616,-0.013563260640640567,-0.007239732765088519,-0.04852856699909337,0.9999214199324321,-0.002811061678156195,-0.002183099991715286,-0.012020231569173414
985.8666666660987,-0.009713658,-0.76346684,0.029614216,-2.368814,-0.0043902276,1.6008551,0.7913147,0.039999805,0.04,-0.028706056645533273,-0.014536384778041783,0.017679255104074976,-0.013919857887927881,-0.007088932850120244,-0.0494873179971377,0.9999156630932584,-0.0029304706993898855,-0.0022466691107982306,-0.012451165413565196
985.8833333327653,-0.010067023,-0.76271546,0.030673698,-2.3692617,-0.004550755,1.6019255,0.79150504,0.039999798,0.04,-0.026934684715596013,-0.01458327228547468,0.018034801343924656,-0.01428142891051439,-0.006938209935426591,-0.05044458011584348,0.9999095825032398,-0.0030530294376513328,-0.0023112359154751658,-0.012890462287771047
985.899999999432,-0.010427542,-0.7619489,0.03175468,-2.3697183,-0.0047145626,1.6030176,0.79169923,0.039999794,0.04,-0.02757146544873912,-0.014552048232924913,0.01786639866132589,-0.014647673985478163,-0.006786723201877287,-0.05139980175616725,0.9999031653332674,-0.003178783734047594,-0.002376979632611414,-0.013338112996633003
985.9166666660986,-0.010795225,-0.76116705,0.032857183,-2.3701844,-0.00488162,1.6041315,0.79189736,0.039999787,0.04,-0.028919734533716657,-0.014538631455782505,0.017510649715823945,-0.015019006943857993,-0.006632017370161843,-0.0523511288452107,0.9998963986463265,-0.0033077451674702035,-0.0024442283655648303,-0.013794076399324246
985.9333333327653,-0.011170074,-0.7603699,0.033981223,-2.3706596,-0.005051937,1.6052672,0.7920993,0.03999978,0.04,-0.02827367988713636,-0.014549890558922945,0.017659392977331656,-0.015395780405408344,-0.006478885368429978,-0.05329883758059144,0.9998892700765865,-0.003440023668318746,-0.00251277479443635,-0.014258323383381833
985.949999999432,-0.011552096,-0.7595573,0.035126828,-2.3711438,-0.0052255145,1.6064247,0.7923051,0.039999772,0.04,-0.028510833748485176,-0.014557185466922487,0.017598093293802464,-0.015777075858814722,-0.006326034769498445,-0.05424261724905585,0.9998817666658125,-0.003575641060682861,-0.002582678668197314,-0.014730826560499632
985.9666666660986,-0.011941287,-0.7587295,0.03629398,-2.3716369,-0.005402369,1.6076038,0.7925148,0.039999764,0.04,-0.028008939769508245,-0.014518583850044522,0.01729067201317047,-0.016163272369581816,-0.006174221764648734,-0.05518282299566157,0.9998738757585907,-0.0037146353548975263,-0.0026538211875929015,-0.015211551294291852
985.9833333327653,-0.012337651,-0.7578866,0.03748268,-2.372139,-0.005582474,1.6088047,0.79272836,0.03999976,0.04,-0.028377050698646933,-0.014506694270676607,0.017189033144049404,-0.016554638708212558,-0.006019695837531314,-0.056116722625987804,0.9998655845399791,-0.00385704853966441,-0.002726173241801827,-0.01570044612564373
985.9999999994319,-0.012741184,-0.7570283,0.038692933,-2.3726504,-0.005765836,1.6100274,0.79294574,0.039999753,0.04,-0.02916066741316392,-0.014484627240501577,0.017059543562791823,-0.016950628447810943,-0.005864398918926178,-0.05704640413764141,0.9998568788576018,-0.004002962585252668,-0.0027999741118016033,-0.01619747624320469
986.0166666660986,-0.01315188,-0.7561545,0.03992471,-2.373171,-0.005952467,1.6112719,0.793167,0.039999746,0.04,-0.02943989522783408,-0.014422208128984579,0.0168965668198906,-0.01735168906697074,-0.005710821286789125,-0.05797052704545966,0.9998477450886506,-0.004152386182415048,-0.0028753429043164394,-0.016702596603985015
986.0333333327652,-0.013569733,-0.7552659,0.041178018,-2.373701,-0.0061423476,1.6125379,0.7933921,0.039999735,0.04,-0.028768702745041175,-0.014431122266665708,0.0162992470416512,-0.017757549386385345,-0.005559377184800415,-0.058889804904497176,0.999838170453722,-0.004305364243571132,-0.002951982202247408,-0.017215764390865064
986.0499999994319,-0.013994732,-0.75436205,0.042452797,-2.37424,-0.0063354946,1.6138259,0.7936211,0.039999723,0.04,-0.02845746381121561,-0.014379264390144628,0.017009240743082188,-0.01816830984693122,-0.005406897326397056,-0.05980187269742633,0.9998281422610581,-0.004461940695720487,-0.0030296538869304048,-0.01773691701944716
986.0666666660985,-0.0144268675,-0.7534427,0.04374904,-2.3747878,-0.0065318896,1.6151354,0.793854,0.03999972,0.04,-0.029433930246325346,-0.014346493652624137,0.016420712307896324,-0.01858422239772234,-0.005252458653393036,-0.06070826654746975,0.9998176451492268,-0.00462216164364322,-0.003108894740325523,-0.01826600239485059
986.0833333327652,-0.014866129,-0.75250816,0.045066703,-2.3753448,-0.0067315325,1.6164668,0.7940907,0.03999971,0.04,-0.029091701413452853,-0.014293010586092364,0.016389849207221197,-0.019004868031200186,-0.005100615776509346,-0.061607657260774155,0.9998066662336563,-0.004786094951211097,-0.003189377917546194,-0.01880296036158526
986.0999999994318,-0.015312499,-0.7515586,0.04640576,-2.3759105,-0.0069343923,1.6178195,0.7943312,0.039999705,0.04,-0.028703685211284302,-0.014295344236321672,0.016008472778183958,-0.019430494365520464,-0.004947743570454466,-0.06249815579196008,0.9997951918217354,-0.004953786193022531,-0.003271074131496641,-0.01934772561618725
986.1166666660985,-0.015765963,-0.75059384,0.047766153,-2.3764856,-0.0071404874,1.6191939,0.7945755,0.039999694,0.04,-0.029796770311718568,-0.014186404742951714,0.015789525196918675,-0.019860732555818883,-0.004793954088123914,-0.06338269390628823,0.9997832069318886,-0.005125274418367991,-0.003354251707875023,-0.019900243581551975
986.1333333327651,-0.0162265,-0.7496141,0.049147815,-2.3770692,-0.007349815,1.6205897,0.7948237,0.039999686,0.04,-0.028450997507722953,-0.014152660252418625,0.015803914319612034,-0.020295785070447783,-0.004641569482771779,-0.0642592114297606,0.9997706992707611,-0.005300566062343217,-0.003438493140583415,-0.02046044095307318
986.1499999994318,-0.016694095,-0.74861926,0.050550688,-2.377662,-0.007562349,1.622007,0.7950757,0.039999686,0.04,-0.029584649927461015,-0.014071811746803331,0.015488915841310735,-0.020735571989758853,-0.0044874885142493215,-0.06512573581585758,0.9997576537525978,-0.005479728433160806,-0.003524127158420132,-0.021028239754457726
986.1666666660984,-0.017168721,-0.7476095,0.05197472,-2.378264,-0.007778092,1.6234454,0.7953314,0.039999675,0.04,-0.029942745135147497,-0.013992118905271217,0.014816223810831808,-0.021180527276841513,-0.004334366686430266,-0.06598623063053245,0.9997440549927978,-0.00566285963322784,-0.003611333898225736,-0.02160358291597785
986.1833333327651,-0.017650358,-0.7465847,0.053419854,-2.3788745,-0.007997016,1.6249055,0.79559094,0.039999668,0.04,-0.028788959816461457,-0.01401175347863215,0.01554227552598153,-0.021629731730087698,-0.004184167863676258,-0.0668359710730378,0.9997298916680886,-0.005849953267299168,-0.003699516554938052,-0.02218637711168629
986.1999999994317,-0.018138982,-0.7455451,0.054885983,-2.3794942,-0.008219113,1.6263862,0.7958542,0.039999664,0.04,-0.029843993604194985,-0.013838785586841457,0.01423540786449351,-0.022083655569811213,-0.004032101135610908,-0.06767561138321247,0.9997151471240784,-0.006041049162915002,-0.003789361175382523,-0.02277654665606729
986.2166666660984,-0.018634561,-0.7444906,0.056373045,-2.3801222,-0.008444374,1.6278886,0.7961213,0.039999653,0.04,-0.02840499943557173,-0.013872155866456043,0.015257947486468915,-0.022542336754745665,-0.0038828982337738294,-0.06850828521534785,0.9996998108658718,-0.0062361811131815105,-0.003879973302395305,-0.02337400280304164
986.233333332765,-0.019137073,-0.7434213,0.05788095,-2.3807592,-0.0086727915,1.6294116,0.7963921,0.039999645,0.04,-0.030074775015576094,-0.013692083738565952,0.01390520231598913,-0.02300579898998925,-0.003728164871868958,-0.06932935731411069,0.9996838649126117,-0.006435423709440694,-0.003972248181153246,-0.0239786738467834
986.2499999994317,-0.019646479,-0.7423374,0.059409615,-2.381405,-0.008904354,1.6309558,0.7966666,0.039999634,0.04,-0.029322708456347435,-0.013667244458027278,0.014191894163051444,-0.02347367950773901,-0.0035783433617115473,-0.07014102954338232,0.9996672974404448,-0.0066387969519627705,-0.004065648781356542,-0.02459047179568516
986.2666666660983,-0.020162748,-0.74123883,0.060958937,-2.3820598,-0.009139062,1.6325212,0.7969449,0.039999623,0.04,-0.029543360281159003,-0.013553719635778227,0.013961965424003075,-0.02394637530078124,-0.003428695672160212,-0.07094379498083708,0.9996500940966588,-0.006846332102654735,-0.004160264301110681,-0.02520930999107946
986.283333332765,-0.020685848,-0.7401258,0.06252883,-2.3827229,-0.009376871,1.6341069,0.79722685,0.03999962,0.04,-0.028859776451417574,-0.01351715741852444,0.013427932639609175,-0.02442349078557416,-0.003277258977013184,-0.07173221994474177,0.9996322406690784,-0.0070581193668318035,-0.004256126150499249,-0.025835087693140888
986.2999999994316,-0.021215742,-0.738998,0.06411915,-2.383395,-0.009617769,1.6357132,0.79751253,0.039999608,0.04,-0.030399132091574188,-0.013338177799854939,0.013155324791713774,-0.024904855700750864,-0.00312658246581439,-0.0725113414101968,0.9996137224443048,-0.00727412442783753,-0.004353590131460468,-0.026467702352413146
986.3166666660983,-0.021752398,-0.73785603,0.065729834,-2.3840756,-0.009861745,1.6373403,0.7978019,0.0399996,0.04,-0.029040585113659922,-0.01331869309270095,0.013067701219116046,-0.025391163924321208,-0.0029792350850824656,-0.07327815731093276,0.9995945274880123,-0.007494417889523028,-0.004452090831857431,-0.027107069257659534
986.3333333327649,-0.02229577,-0.73669964,0.067360744,-2.384765,-0.010108795,1.6389878,0.7980947,0.03999959,0.04,-0.02954202055722721,-0.013191083352744742,0.012738159115111003,-0.025881616922908947,-0.0028301741063730818,-0.07403515236583773,0.9995746396642378,-0.00771918004104268,-0.004551929704892714,-0.027753088757197432
986.3499999994316,-0.022845821,-0.73552895,0.06901175,-2.3854625,-0.010358886,1.6406558,0.79839116,0.039999586,0.04,-0.02907363218234149,-0.01310489378050922,0.012722680226340266,-0.02637562856902178,-0.0026831586535236013,-0.07477825303965882,0.9995540480925911,-0.007948286929526103,-0.0046528643841930156,-0.028405642566612627
986.3666666660982,-0.02340251,-0.7343443,0.07068275,-2.3861682,-0.010612,1.6423436,0.7986913,0.039999574,0.04,-0.028548019395446822,-0.013041389141861537,0.01205811020232872,-0.02687384286354428,-0.002535519808723269,-0.07551102108431346,0.9995327386674725,-0.008181799902681716,-0.004754895264357267,-0.029064642665607206
986.3833333327649,-0.02396579,-0.7331455,0.07237361,-2.3868828,-0.010868113,1.6440513,0.79899496,0.039999567,0.04,-0.03019841013491842,-0.01285656043530925,0.011497262965676214,-0.027376638650839856,-0.002386660359973855,-0.07623119680492614,0.9995106953320592,-0.008419772533367391,-0.004858558939671406,-0.0297299806986116
986.3999999994315,-0.024535624,-0.73193276,0.07408418,-2.3876052,-0.011127214,1.6457793,0.7993023,0.039999556,0.04,-0.028184064673286713,-0.012814431600001452,0.012066750134898108,-0.02788330687897076,-0.0022422107110744854,-0.07694048053002463,0.9994879098749311,-0.008662202280364911,-0.004962990242553061,-0.030401529457377473
986.4166666660982,-0.025111953,-0.73070604,0.075814314,-2.3883357,-0.01138928,1.647527,0.79961306,0.03999955,0.04,-0.02899055679657092,-0.012689128365363234,0.011446229322964463,-0.028394587628207103,-0.0020949703403851244,-0.07763413705990407,0.9994643663615189,-0.008909209567290622,-0.00506860814071923,-0.031079182260305305
986.4333333327648,-0.02569473,-0.7294656,0.07756389,-2.389075,-0.011654284,1.6492943,0.7999273,0.039999537,0.04,-0.030049084128958015,-0.012503865450641527,0.010528733500048126,-0.028909148402952268,-0.001947358659286108,-0.07831561806227129,0.9994400498997766,-0.009160808916684342,-0.0051757398717871585,-0.03176283918517725
986.4499999994315,-0.02628392,-0.72821164,0.079332754,-2.3898222,-0.011922206,1.6510811,0.8002449,0.039999533,0.04,-0.02831874496620479,-0.01246823468977476,0.01080197798428717,-0.029427427748113487,-0.00180309141037871,-0.07898350563393261,0.9994149507117576,-0.009417055513500583,-0.005283820050935283,-0.03245237441144148
986.4666666660981,-0.026879458,-0.72694397,0.08112074,-2.3905776,-0.012193047,1.6528871,0.80056596,0.03999952,0.04,-0.029152645114138842,-0.012280506065016905,0.010291593064160054,-0.02994919088041414,-0.0016582172992544997,-0.07964032826680004,0.9993890540869543,-0.00967797061059671,-0.005393234639940493,-0.03314767678377589
986.4833333327648,-0.02748129,-0.7256629,0.082927726,-2.3913407,-0.012466768,1.6547122,0.80089045,0.03999952,0.04,-0.028542572408585265,-0.012249448880068126,0.010007942345646725,-0.03047432782101814,-0.00151570597479532,-0.08028052988710203,0.9993623487316273,-0.009943561128442925,-0.005503773564458938,-0.03384863374261113
986.4999999994315,-0.02808937,-0.7243684,0.08475353,-2.392112,-0.012743299,1.6565564,0.80121833,0.03999951,0.04,-0.029056839459529193,-0.012077904099350167,0.00967645704983422,-0.031003050618236508,-0.0013731348612221056,-0.0809048511774798,0.9993348229488394,-0.010213858883006022,-0.00561555672619565,-0.034555090090823797
986.5166666660981,-0.028703641,-0.7230607,0.08659799,-2.3928912,-0.013022664,1.6584194,0.8015495,0.039999496,0.04,-0.028544783836226273,-0.011949269027143605,0.00933350125247312,-0.03153505887525077,-0.0012320664956378263,-0.08151654976393778,0.9993064639581728,-0.010488947623054945,-0.005728465545903014,-0.03526694984916413
986.5333333327648,-0.029324038,-0.72174,0.08846095,-2.393678,-0.013304833,1.6603011,0.801884,0.039999492,0.04,-0.0281380237478146,-0.011878332969116057,0.009134626005002922,-0.03207004518450521,-0.0010903206343456512,-0.08211197500192804,0.9992772609529872,-0.010768827929566582,-0.005842378815132996,-0.035984089499378175
986.5499999994314,-0.029950507,-0.7204065,0.090342194,-2.3944724,-0.013589767,1.6622013,0.80222183,0.03999948,0.04,-0.028028075108021966,-0.011674393483192269,0.008655667214174656,-0.03260802299956435,-0.000949933874039563,-0.08269441068180143,0.9992472037457566,-0.01105348714800494,-0.005957295730179531,-0.03670635988134234
986.5666666660981,-0.030582992,-0.7190599,0.092241585,-2.3952744,-0.013877448,1.6641198,0.802563,0.039999478,0.04,-0.02844973886273472,-0.011579484362692072,0.008476935486356751,-0.03314964202347627,-0.0008089173109262215,-0.08326114215326728,0.9992162794692583,-0.01134296410514608,-0.006073393568046292,-0.037433646622923485
986.5833333327647,-0.031221436,-0.7177007,0.094158925,-2.3960838,-0.014167826,1.6660564,0.8029072,0.039999466,0.04,-0.027685621643236402,-0.0114497452977258,0.007940332365019565,-0.033693981897334566,-0.0006686579345225041,-0.08381269432790509,0.9991844773135758,-0.011637402705846397,-0.0061904984677018625,-0.038165807767944246
986.5999999994314,-0.03186578,-0.71632886,0.09609403,-2.396901,-0.014460892,1.6680111,0.8032548,0.039999455,0.04,-0.028293884324659402,-0.011266678693437615,0.007743258121695185,-0.03424042636061109,-0.0005284603192756143,-0.08434911091583615,0.9991517875503566,-0.011936671638119217,-0.00630872242559584,-0.03890271618393231
986.616666666098,-0.032515932,-0.7149446,0.09804672,-2.3977256,-0.0147566125,1.6699831,0.8036055,0.039999444,0.04,-0.02825484728365968,-0.0111455189859333,0.006872397541846098,-0.034790197412623416,-0.0003899889473351348,-0.08487004051056847,0.9991181969420516,-0.012240875168214125,-0.006428275418096882,-0.03964425291929623
986.6333333327647,-0.033171847,-0.71354795,0.1000168,-2.3985574,-0.015054975,1.6719726,0.8039592,0.03999943,0.04,-0.02753119034928364,-0.01102093264581383,0.006964287588817619,-0.03534275490556572,-0.00025352844689247034,-0.08537616605001398,0.9990836961178995,-0.012550111115092806,-0.006548921412839705,-0.04039027718057671
986.6499999994313,-0.033833466,-0.7121393,0.10200407,-2.3993962,-0.01535597,1.6739798,0.8043162,0.039999414,0.04,-0.026644050481317016,-0.010902938684662078,0.006909166586255289,-0.03589668701345126,-0.00012066613282171734,-0.08586726298689241,0.9990482804233067,-0.012864209475215039,-0.006670205105901338,-0.04114065947036927
986.666666666098,-0.03450072,-0.7107188,0.104008354,-2.4002423,-0.015659517,1.6760043,0.80467623,0.03999941,0.04,-0.02748225235402746,-0.010739920695129745,0.006186885560066635,-0.036453920393121925,1.7210695141336996e-05,-0.08633884289603956,0.9990119368828502,-0.013183352453534152,-0.0067924305708014195,-0.041895251170067885
986.6833333327646,-0.035173524,-0.709286,0.10602941,-2.401096,-0.015965596,1.6780454,0.8050391,0.0399994,0.04,-0.028796385121832024,-0.010481720466369582,0.005419163532516258,-0.03701253225759563,0.00015478813229077848,-0.08679812829161167,0.9989746505673698,-0.013507600089603269,-0.006916371778367161,-0.0426539103136414
986.6999999994313,-0.03585183,-0.7078414,0.108067036,-2.4019566,-0.016274178,1.6801034,0.8054049,0.03999939,0.04,-0.026430721742443097,-0.010456630707711412,0.005818751712061143,-0.0375731251408471,0.0002841778807599893,-0.08723918601758547,0.9989364203022986,-0.013836923427926178,-0.0070410738624419305,-0.04341648330464764
986.7166666660979,-0.036535546,-0.7063854,0.110121034,-2.4028242,-0.01658525,1.6821777,0.80577374,0.03999938,0.04,-0.027188358653051914,-0.010233814747603875,0.004658542189006631,-0.03813492456831323,0.00041506748221449563,-0.08766507047937798,0.9988972339641653,-0.014171261690909123,-0.007166978305084952,-0.044182867073128185
986.7333333327646,-0.037224617,-0.7049179,0.11219119,-2.4036982,-0.016898785,1.6842685,0.8061454,0.039999362,0.04,-0.025936469991716393,-0.01018797066732191,0.005176715311416835,-0.03869883587226575,0.0005431036371947584,-0.08807427343723497,0.998857086865034,-0.014510721538164205,-0.007293551337797624,-0.04495289855863259
986.7499999994312,-0.037918966,-0.7034391,0.11427729,-2.4045794,-0.017214708,1.686375,0.8065201,0.03999936,0.04,-0.027347280975953403,-0.009895455880291892,0.0038515382415393873,-0.039263765547478964,0.0006732733851870232,-0.0884650948187865,0.9988159675917194,-0.01485521283222935,-0.007421503188322892,-0.04572643465165543
986.7666666660979,-0.038618516,-0.7019493,0.11637909,-2.4054666,-0.017532993,1.6884974,0.8068974,0.03999934,0.04,-0.02498992707187231,-0.009925334040400413,0.004371649489809393,-0.039830769356334096,0.000799169251774659,-0.08884111676545015,0.998773872955043,-0.01520492862126911,-0.0075500360778267515,-0.04650330959436209
986.7833333327645,-0.03932318,-0.70044875,0.11849639,-2.4063606,-0.01785365,1.6906357,0.8072778,0.03999933,0.04,-0.026330521669204465,-0.009622200191827801,0.003446185522548717,-0.04039770452508038,0.0009266911861030291,-0.08920144522510653,0.9987307954006078,-0.015559625798901798,-0.00767946354591306,-0.04728342418981951
986.7999999994312,-0.040032893,-0.6989373,0.12062895,-2.4072611,-0.01817659,1.6927894,0.8076607,0.039999325,0.04,-0.0259108702134192,-0.009532754960918377,0.003357769762435403,-0.04096700045317027,0.0010533349013890636,-0.08954099801576054,0.9986867256742622,-0.015919595739090672,-0.007809827765942745,-0.048066589475342064
986.8166666660978,-0.04074759,-0.6974152,0.12277655,-2.4081683,-0.018501788,1.6949582,0.80804634,0.03999931,0.04,-0.02624009492451229,-0.009275915916186206,0.002552179968762225,-0.04153581022445312,0.0011800911929122915,-0.08986561304832817,0.9986416572258171,-0.016284690941726777,-0.007941359099067595,-0.048852677612038924
986.8333333327645,-0.041467164,-0.69588256,0.12493894,-2.4090817,-0.018829249,1.697142,0.8084346,0.03999929,0.04,-0.025269814025086212,-0.009190008593905341,0.002588838570516394,-0.04210574413736589,0.0013022378505346266,-0.0901760313026676,0.9985955855455698,-0.01665498344623272,-0.008073729311657998,-0.049641544600349
986.8499999994311,-0.042191558,-0.6943396,0.1271159,-2.4100018,-0.0191589,1.6993406,0.80882543,0.039999284,0.04,-0.026076267937935604,-0.008947376074891489,0.0018544556862121198,-0.04267581087758881,0.0014228867572003145,-0.0904655430826345,0.9985485028475718,-0.017030476326156632,-0.008207236147904803,-0.050433040873914294
986.8666666660978,-0.042920683,-0.6927867,0.12930723,-2.4109266,-0.019490734,1.7015536,0.8092189,0.039999265,0.04,-0.022408199123646888,-0.00911819595255936,0.002447859990106771,-0.04324623633763278,0.0015408688174363416,-0.09074060554647233,0.9985004127544456,-0.017411158246524658,-0.00834086302292236,-0.05122701730287561
986.8833333327644,-0.04365447,-0.69122386,0.13151257,-2.4118578,-0.019824699,1.7037807,0.8096149,0.039999258,0.04,-0.025483089760158784,-0.008514100912793143,0.0009286988648105066,-0.04381580688325974,0.0016655592340978354,-0.09099775400077477,0.998451303579189,-0.01779697401162082,-0.008475650904806625,-0.05202331629940377
986.8999999994311,-0.04439284,-0.68965113,0.1337318,-2.4127948,-0.020160742,1.7060217,0.8100133,0.039999254,0.04,-0.02428810178178864,-0.008611823526769036,0.0010863417639450645,-0.04438599608426959,0.0017845487761311007,-0.0912346842237906,0.9984011710162026,-0.018188053534594226,-0.00861127433631864,-0.05282179830716478
986.9166666660977,-0.04513568,-0.6880688,0.13596454,-2.4137378,-0.020498835,1.7082764,0.81041414,0.039999235,0.04,-0.024440834686711987,-0.008257278153459002,0.0004471162644126281,-0.04495529826704884,0.0019032122863330003,-0.09145824477842913,0.998350013581332,-0.01858430172018467,-0.0087478177342453,-0.05362228824486803
986.9333333327644,-0.045882918,-0.6864771,0.1382107,-2.4146867,-0.020838957,1.7105448,0.81081736,0.039999224,0.04,-0.02420800330333872,-0.008243276640934605,0.00015537310957824957,-0.045524142960268944,0.0020188415971863216,-0.09166437306136857,0.998297824761087,-0.018985784041726426,-0.008885160621852498,-0.05442469110915456
986.949999999431,-0.046634484,-0.6848762,0.14046988,-2.4156404,-0.021181056,1.7128264,0.811223,0.03999922,0.04,-0.02223736301938395,-0.008083802108267701,0.0002865285111175453,-0.04609200900719529,0.0021324524268721,-0.09185019943865805,0.9982446098827259,-0.019392425692140905,-0.009022943483371957,-0.0552287892023271
986.9666666660977,-0.04739029,-0.6832658,0.14274189,-2.4165998,-0.021525076,1.7151207,0.811631,0.039999206,0.04,-0.02430717581254349,-0.007786214846697281,-0.000720267840170763,-0.04665917366141419,0.0022498262072100927,-0.09202099916767628,0.9981903591483453,-0.019804186405698268,-0.009161934833725467,-0.056034454170701804
986.9833333327643,-0.04815023,-0.6816471,0.14502649,-2.4175644,-0.021871015,1.7174277,0.8120412,0.03999919,0.04,-0.022074220671952638,-0.007745215978759157,-0.0010388902917934928,-0.04722589849572682,0.0023600704443462184,-0.09217524571716533,0.9981350729590476,-0.02022119151201939,-0.00930130664002036,-0.05684158018263964
986.999999999431,-0.048914224,-0.6800191,0.14732337,-2.4185343,-0.022218784,1.7197472,0.8124536,0.039999183,0.04,-0.02352054743330889,-0.007488466595542698,-0.001078500119611192,-0.04779064448100738,0.0024734468271742083,-0.09230809412095294,0.9980787486037991,-0.020643385736985816,-0.009441767776858966,-0.057649936964721066
987.0166666660976,-0.049682185,-0.6783829,0.14963233,-2.419509,-0.022568382,1.7220788,0.8128682,0.039999165,0.04,-0.02135480209224383,-0.007464966696640873,-0.0015614499321525699,-0.04835370905016875,0.0025808287861675827,-0.09242675849297408,0.9980213875189518,-0.02107077410439526,-0.009582603029110084,-0.058459441090163114
987.0333333327643,-0.050454028,-0.6767385,0.15195304,-2.4204888,-0.02291978,1.7244222,0.8132847,0.039999146,0.04,-0.022288388755020705,-0.007057322856207637,-0.0023250527241502894,-0.04891456292501096,0.002691184257232665,-0.09252891884300356,0.9979629850453845,-0.021503373442596972,-0.009724230483729758,-0.059269931258551456
987.049999999431,-0.05122966,-0.67508596,0.15428527,-2.4214735,-0.023272915,1.7267774,0.8137033,0.039999135,0.04,-0.021503160640290453,-0.007050951178834419,-0.002174423106970913,-0.049473335101006044,0.0027988229747414883,-0.0926116506307254,0.9979035452506264,-0.021941125542386957,-0.00986640542965755,-0.060081240250697276
987.0666666660976,-0.052008983,-0.6734254,0.15662876,-2.4224627,-0.02362776,1.7291436,0.814124,0.039999124,0.04,-0.02121645205481748,-0.0068714185711665765,-0.0028492342291519535,-0.05002939864934266,0.002906118425001658,-0.09267808867150912,0.9978430654018847,-0.022383991106115816,-0.010009361298281602,-0.06089323819548347
987.0833333327643,-0.05279191,-0.67175704,0.15898317,-2.423457,-0.023984268,1.731521,0.81454676,0.039999112,0.04,-0.021599516875281388,-0.006534604142294231,-0.003278351830404702,-0.050583442226783536,0.003010634972774817,-0.09272820608720547,0.9977815488441815,-0.02283190266849738,-0.01015306522860418,-0.06170575559140401
987.0999999994309,-0.053578362,-0.670081,0.16134828,-2.4244547,-0.02434238,1.7339092,0.81497145,0.039999105,0.04,-0.01921470375110257,-0.006690510193238519,-0.0027295128579352124,-0.05113554412785663,0.003113215949134135,-0.09275900111656613,0.9977190019991673,-0.023284943708959577,-0.010296954414378383,-0.06251861463631808
987.1166666660976,-0.054368224,-0.66839755,0.1637238,-2.4254572,-0.02470207,1.7363079,0.815398,0.039999094,0.04,-0.021095122673675526,-0.006205882158885623,-0.004176018328339026,-0.05168432611533343,0.00321819216775307,-0.0927730876568098,0.9976554172787779,-0.023743074098257277,-0.010441739573419631,-0.06333170518273534
987.1333333327642,-0.055161413,-0.66670716,0.16610944,-2.426465,-0.025063278,1.7387167,0.81582624,0.03999908,0.04,-0.02128571791386591,-0.005920840142595307,-0.004962160445942665,-0.05223001749994899,0.0033185646609907027,-0.09277095015835571,0.9975907947357208,-0.02420628620376402,-0.01058745170135834,-0.06414489717230772
987.1499999994309,-0.055957843,-0.6650097,0.16850495,-2.4274762,-0.025425998,1.7411355,0.8162562,0.039999064,0.04,-0.018364577680962668,-0.006115783260580987,-0.003962158014880757,-0.05277257006677539,0.0034140785527123074,-0.09275216067783769,0.9975251457663247,-0.024674580224858203,-0.010733401751090173,-0.06495800752370241
987.1666666660975,-0.056757413,-0.66330546,0.17091005,-2.4284918,-0.025790147,1.7435639,0.81668794,0.039999053,0.04,-0.020020696609557298,-0.005678007016463038,-0.005276869933212858,-0.05331088650758696,0.0035097030000069973,-0.09271467626568776,0.9974584678879113,-0.025147875583611038,-0.010880122028723195,-0.0657709064630561
987.1833333327642,-0.05756003,-0.66159475,0.17332438,-2.4295106,-0.026155708,1.7460015,0.81712145,0.039999038,0.04,-0.01741748794652498,-0.005700180913081887,-0.004827175248323101,-0.05384576747394849,0.0036037933040950487,-0.09266218151939486,0.997390774685752,-0.02562608734298412,-0.011027011176952924,-0.0665834156809988
987.1999999994308,-0.058365583,-0.6598778,0.17574772,-2.4305336,-0.026522607,1.7484484,0.8175564,0.039999023,0.04,-0.019112993203918016,-0.005368187814669412,-0.005838140108149759,-0.05437690925156542,0.0036989662588749195,-0.09259126282011149,0.9973220594457841,-0.026109354639191024,-0.011174493783722747,-0.06739541551042288
987.2166666660975,-0.059173994,-0.65815455,0.17817977,-2.4315598,-0.026890835,1.750904,0.8179929,0.039999012,0.04,-0.01724138383703,-0.005335678159276713,-0.00555384228286826,-0.054902873593599966,0.00379142094184709,-0.09250431659355612,0.9972523340047045,-0.026597534877362248,-0.011322261650325544,-0.0682067434476856
987.2333333327641,-0.059985146,-0.6564254,0.18062024,-2.4325902,-0.02726033,1.7533679,0.81843114,0.039999004,0.04,-0.018911267898857886,-0.004872833958735612,-0.006961086363532765,-0.05542456905314035,0.003883740284206627,-0.0923991189393268,0.9971815962063403,-0.027090514900963588,-0.011470903006925014,-0.06901729184763464
987.2499999994308,-0.060798958,-0.6546906,0.18306883,-2.433624,-0.027631039,1.7558402,0.8188707,0.039998986,0.04,-0.016973976990564132,-0.004905137496805101,-0.00647674761902195,-0.05594288758539523,0.003970313467583475,-0.09227983376215004,0.9971098568961315,-0.0275883972013172,-0.01161983018123678,-0.06982687997467554
987.2666666660974,-0.06161532,-0.6529502,0.18552522,-2.434661,-0.028002955,1.7583205,0.8193116,0.039998967,0.04,-0.016568671317940264,-0.00470976131737022,-0.006717188824167941,-0.056455760554097255,0.004056656368625816,-0.09214414602154096,0.9970371210272727,-0.028091154963378193,-0.011769069230819747,-0.07063536873203796
987.2833333327641,-0.062434144,-0.6512045,0.18798913,-2.4357011,-0.028375994,1.7608081,0.81975394,0.03999896,0.04,-0.01674988795044019,-0.004420149661088502,-0.007568823209580522,-0.05696261434053386,0.00414332146657212,-0.09198935920661434,0.9969633947234618,-0.02859863434103424,-0.011918880106257643,-0.07144262027887335
987.2999999994307,-0.06325534,-0.64945376,0.19046031,-2.4367442,-0.02875014,1.7633032,0.8201975,0.039998945,0.04,-0.015616689338693313,-0.004396290723637786,-0.007416244694158358,-0.05746522994629756,0.0042256982716733504,-0.09182136667723023,0.996888685205992,-0.029110893130527563,-0.012068908109146417,-0.07224850632687348
987.3166666660974,-0.06407878,-0.6476979,0.19293839,-2.4377902,-0.029125335,1.7658052,0.8206423,0.03999893,0.04,-0.01567676568718923,-0.0041300981468817,-0.007803491486191305,-0.057961460470495746,0.004307497124495463,-0.0916363064931741,0.9968130002066959,-0.02962787933523905,-0.01221932804834755,-0.0730528535176362
987.333333332764,-0.064904384,-0.64593756,0.19542319,-2.438839,-0.029501524,1.7683138,0.8210883,0.03999891,0.04,-0.015156343123945426,-0.00400345673944591,-0.008544138048471872,-0.05845161085924889,0.004387903418743705,-0.0914355077447839,0.9967363439401953,-0.030149500257244714,-0.012370164329414369,-0.07385558433479752
987.3499999994307,-0.06573205,-0.64417285,0.19791427,-2.4398901,-0.029878668,1.7708287,0.8215355,0.039998908,0.04,-0.014064917256861875,-0.0038026467653967666,-0.0083376408475333,-0.05893587090361867,0.004465645127253809,-0.09121542800924462,0.9966587335923366,-0.030675686116917136,-0.012521087428211442,-0.07465650276426983
987.3666666660973,-0.06656167,-0.6424037,0.20041144,-2.4409442,-0.030256689,1.7733498,0.82198375,0.039998893,0.04,-0.015019058560827858,-0.0035717215830455284,-0.009071734930254927,-0.05941448170594369,0.004544216533748285,-0.0909831967647693,0.9965801681040971,-0.031206476267657237,-0.012672545361661068,-0.07545549002307392
987.383333332764,-0.06739314,-0.6406305,0.2029143,-2.4420004,-0.03063561,1.7758765,0.8224331,0.03999888,0.04,-0.013470995967113097,-0.003410410188528501,-0.008976084525058603,-0.05988621603489394,0.004617348213869027,-0.0907371896290963,0.996500663860718,-0.03174172127856774,-0.012824200089354703,-0.07625240945367041
987.3999999994306,-0.06822638,-0.6388536,0.20542264,-2.4430585,-0.031015337,1.7784091,0.8228832,0.039998863,0.04,-0.012401906844483612,-0.0034307308543035653,-0.008951323231842778,-0.06035158603898456,0.00469020380424251,-0.09047414522789522,0.9964202291473091,-0.03228157701651837,-0.01297565029188281,-0.07704712344308128
987.4166666660973,-0.069061264,-0.6370731,0.20793608,-2.4441195,-0.031395853,1.7809465,0.82333446,0.039998867,0.04,-0.014250325994824564,-0.0027636292916632943,-0.01058434483478532,-0.06080860065556316,0.004764857909128284,-0.09019298571039258,0.9963388680303327,-0.032825664884503954,-0.013127879706056719,-0.0778395436224354
987.4333333327639,-0.06989769,-0.63528913,0.21045434,-2.4451826,-0.031777058,1.783489,0.8237863,0.039998848,0.04,-0.012665233225583883,-0.002897588174824439,-0.009916075806670754,-0.061260131785888655,0.004832958575534729,-0.08990062218911514,0.996256592996294,-0.03337424471270191,-0.013280285027383753,-0.07862947749327144
987.4499999994306,-0.070735574,-0.63350207,0.2129771,-2.4462466,-0.032159,1.7860361,0.8242393,0.03999883,0.04,-0.010262130597094021,-0.0028772088577905253,-0.009511484217439303,-0.061702888654568244,0.0048992946707461515,-0.08959437643389787,0.9961734307647936,-0.03392696301694303,-0.013432304361013916,-0.0794168131965848
987.4666666660972,-0.07157479,-0.6317121,0.21550408,-2.447313,-0.032541562,1.7885873,0.82469296,0.03999882,0.04,-0.01257141364567893,-0.002342600921620419,-0.01122729047271509,-0.06213899587282706,0.004970144293330647,-0.08927095627420925,0.9960893706312678,-0.03448394828870222,-0.013584872876120795,-0.0802014604278913
987.4833333327639,-0.072415255,-0.6299192,0.21803497,-2.4483814,-0.032924682,1.7911423,0.82514715,0.03999882,0.04,-0.011763050274438136,-0.002228153527633614,-0.011109157801669767,-0.06256742012522044,0.005033793596345815,-0.0889306194930419,0.9960044271796842,-0.03504517366653671,-0.013737872201696451,-0.08098325572932595
987.4999999994305,-0.0732569,-0.628124,0.22056945,-2.4494505,-0.03330834,1.7937009,0.825602,0.039998803,0.04,-0.00891939186149493,-0.002306262473494858,-0.010582587844032432,-0.06298700239976952,0.005093326474319121,-0.0885802344798729,0.9959186270454542,-0.035610478442023676,-0.013890493434750625,-0.08176207140946735
987.5166666660972,-0.07409955,-0.62632644,0.22310722,-2.4505212,-0.033692483,1.7962631,0.8260574,0.03999878,0.04,-0.010604759120247387,-0.0019505751565451757,-0.011388989133975791,-0.0633985393763496,0.005155664244358926,-0.08821515886968626,0.9958319717142969,-0.03617987446034922,-0.014043267319766359,-0.08253779400150428
987.5333333327638,-0.07494311,-0.6245268,0.22564793,-2.4515934,-0.0340771,1.7988281,0.82651335,0.039998762,0.04,-0.009940294040289288,-0.0016398935232503353,-0.011867727611636347,-0.06380095493639189,0.005214434069151841,-0.08783684151105167,0.9957444747357234,-0.036753193632590414,-0.014196275300007178,-0.08331032084135837
987.5499999994305,-0.07578754,-0.6227254,0.22819127,-2.4526668,-0.034462128,1.8013958,0.82696974,0.03999875,0.04,-0.009076074103275822,-0.0014589823818578207,-0.012001826949670225,-0.06419531064565275,0.00527117372077876,-0.08744289210052872,0.9956561504660887,-0.03733040486778,-0.014349344874878874,-0.08407952909667674
987.5666666660971,-0.076632656,-0.6209222,0.230737,-2.4537408,-0.034847487,1.8039657,0.82742673,0.039998744,0.04,-0.008452936123459764,-0.001545482227469086,-0.011922522890350784,-0.06458073609343484,0.005325559127079715,-0.08703444664976688,0.9955670162775622,-0.03791139419427701,-0.0145024605316443,-0.08484527640927644
987.5833333327638,-0.077478394,-0.6191177,0.23328473,-2.454816,-0.035233155,1.8065376,0.8278839,0.039998725,0.04,-0.008542972643299507,-0.0010394825625759108,-0.0126605723221207,-0.06495762716321793,0.005377487451861257,-0.08661708336228563,0.995477078183667,-0.03849620050484348,-0.014655725770754314,-0.08560747081728577
987.5999999994305,-0.078324646,-0.61731195,0.23583418,-2.4558918,-0.03561908,1.8091114,0.8283415,0.039998714,0.04,-0.007173574529195648,-0.0011053361877289003,-0.012331450508318298,-0.06532464688121593,0.005425633429087501,-0.08618351251715604,0.9953863604288513,-0.039084641704523186,-0.014808828690559902,-0.08636598200592327
987.6166666660971,-0.0791713,-0.61550516,0.23838505,-2.4569678,-0.036005214,1.8116865,0.82879937,0.039998703,0.04,-0.006630986291455976,-0.00095968845130745,-0.012467529136284128,-0.06568259429249845,0.005474405883671596,-0.08573840537413949,0.9952948769022735,-0.03967668148563361,-0.014961768830700108,-0.08712068888520487
987.6333333327638,-0.08001826,-0.61369777,0.240937,-2.458044,-0.036391497,1.8142626,0.8292575,0.039998695,0.04,-0.006062276573537417,-0.0006780396584693538,-0.012965362038386274,-0.0660306021325481,0.005521325508110186,-0.08527878349731066,0.9952026430330576,-0.04027220417046881,-0.015114545263209147,-0.08787149362993145
987.6499999994304,-0.08086542,-0.6118899,0.24348965,-2.459121,-0.03677789,1.8168396,0.8297156,0.039998684,0.04,-0.006638523079849357,-0.0002563673714067738,-0.013498119469756986,-0.06636887852096421,0.005567704174507887,-0.08480810239295473,0.9951096675576548,-0.04087120033611654,-0.015267400807948651,-0.08861828811790563
987.6666666660971,-0.08171271,-0.6100816,0.24604285,-2.4601986,-0.037164353,1.819417,0.8301739,0.039998658,0.04,-0.006581554173057391,-0.0001324281298620278,-0.013816625060458776,-0.06669772390076961,0.005609213097768351,-0.08432831749982118,0.9950159633677754,-0.04147351266779903,-0.015420471530063215,-0.0893610063063418
987.6833333327637,-0.08255997,-0.6082733,0.24859616,-2.4612763,-0.037550855,1.8219945,0.8306323,0.03999865,0.04,-0.004830360058738492,-5.95081979443135e-05,-0.01359369031779245,-0.06701635033541627,0.005646626319720793,-0.08383336088486493,0.9949215552251565,-0.04207904674580412,-0.015573367613771996,-0.09009951717121971
987.6999999994304,-0.08340711,-0.6064653,0.25114933,-2.4623535,-0.03793733,1.824572,0.83109057,0.039998636,0.04,-0.003700007658857807,-7.449443414631052e-05,-0.013439224624156587,-0.06732500598461803,0.005682707320422781,-0.08332793401355838,0.9948264581013883,-0.04268786460720079,-0.015725861276928144,-0.09083370389796246
987.716666666097,-0.08425405,-0.6046574,0.2537021,-2.4634304,-0.03832371,1.8271488,0.8315487,0.03999863,0.04,-0.004214215562114987,0.00020847622888009454,-0.013990169539845887,-0.06762200180483818,0.005718769333184881,-0.08280807158166227,0.9947306826314716,-0.04329983155412005,-0.015878331140136433,-0.09156348736868637
987.7333333327637,-0.08510066,-0.6028501,0.25625396,-2.4645069,-0.03870998,1.8297247,0.8320067,0.039998613,0.04,-0.003312211815020838,0.0006107672563454569,-0.014106409606418069,-0.06790818934463191,0.005750722798646052,-0.08228009814320064,0.9946342566433531,-0.04391474903141227,-0.01603065293687666,-0.0922887235552088
987.7499999994303,-0.08594682,-0.6010437,0.25880474,-2.4655828,-0.0390961,1.8322995,0.83246446,0.0399986,0.04,-0.0027267295889199517,0.0006021715110049453,-0.014301385208481676,-0.06818404808949922,0.005780447058407384,-0.08174394755398412,0.9945371892974003,-0.04453263061800378,-0.016182678925734086,-0.09300938026593804
987.766666666097,-0.08679244,-0.59923816,0.26135412,-2.4666588,-0.039481986,1.834873,0.8329219,0.039998587,0.04,-0.0036288816893437215,0.001007079481632478,-0.0148521054305073,-0.0684483507744052,0.005808480538024879,-0.08119392754591047,0.9944394935470021,-0.04515337481342637,-0.016334822686159444,-0.09372534334294007
987.7833333327636,-0.08763745,-0.5974339,0.26390183,-2.4677339,-0.039867632,1.8374448,0.83337903,0.039998576,0.04,-0.0014140401299878036,0.0009181132934410474,-0.0143809516083504,-0.06870127837059858,0.005831776583719667,-0.0806353340792702,0.9943411935310106,-0.04577690368301098,-0.016486550148108722,-0.09443653742453552
987.7999999994303,-0.08848171,-0.5956313,0.2664474,-2.4688072,-0.040252917,1.8400143,0.83383596,0.039998576,0.04,0.0001305748671187601,0.0010423803473130766,-0.014227659240151347,-0.06894205750979511,0.005853851383221337,-0.08006279695450538,0.9942423272581555,-0.04640294297004052,-0.016637641859940273,-0.09514278977067166
987.8166666660969,-0.08932513,-0.59383035,0.2689906,-2.4698799,-0.04063786,1.8425814,0.8342924,0.03999856,0.04,-0.0013397262933034781,0.0015408892044821432,-0.015218235842895389,-0.06917214910107185,0.005877103959833846,-0.07948426916169508,0.9941428881109029,-0.04703154604854517,-0.016788668185985848,-0.09584410422836209
987.8333333327636,-0.090167575,-0.5920313,0.27153125,-2.4709513,-0.041022398,1.8451458,0.83474845,0.039998543,0.04,-0.00017104108289700548,0.0013977386686070403,-0.014926689567174023,-0.06939088142518159,0.005895966039763195,-0.07889480403643624,0.9940428985069605,-0.04766263166628138,-0.016939324593781308,-0.09654039958914426
987.8499999994302,-0.09100897,-0.59023434,0.27406892,-2.4720218,-0.04140648,1.8477073,0.8352038,0.039998528,0.04,-0.00029815481983330727,0.0018884601426127912,-0.01537845792929371,-0.06959713769861327,0.005913181129676259,-0.07829694913434027,0.9939423742988016,-0.048296122217497094,-0.017089827275266155,-0.09723157386217281
987.8666666660969,-0.09184921,-0.5884398,0.2766033,-2.473091,-0.041790064,1.8502654,0.83565867,0.039998513,0.04,0.0009786185747762133,0.001939210384846457,-0.01525056839812855,-0.06979109132164353,0.005926215222690406,-0.07769021646688522,0.993841341655199,-0.048931838563515614,-0.01723992919054085,-0.09791755528654261
987.8833333327635,-0.0926882,-0.58664787,0.27913406,-2.4741588,-0.042173106,1.8528198,0.83611286,0.039998505,0.04,0.0007711348289918263,0.0023491668238673213,-0.01568911567921827,-0.06997315423221374,0.005937382507982897,-0.0770735427867632,0.9937398159834874,-0.049569676416098406,-0.017389869212188856,-0.09859826447707284
987.8999999994302,-0.09352584,-0.5848587,0.28166097,-2.4752243,-0.04255555,1.8553702,0.83656627,0.039998505,0.04,0.0030675432090454535,0.0019952877612888775,-0.01489964849579195,-0.07014309444611543,0.005944601798866994,-0.0764463735566196,0.9936378225984712,-0.05020963657847825,-0.017539115366942176,-0.09927360841921334
987.9166666660968,-0.09436203,-0.5830725,0.2841836,-2.4762883,-0.042937342,1.8579165,0.83701897,0.03999849,0.04,0.0017867495810897083,0.0027170364460316065,-0.01568356561001405,-0.07029988859482382,0.00595274870764409,-0.07581575667889273,0.9935353816906705,-0.05085148706096938,-0.017688076267555093,-0.09994350179183674
987.9333333327635,-0.095196635,-0.58128935,0.28670168,-2.4773507,-0.04331847,1.8604581,0.8374709,0.039998475,0.04,0.002371711484006056,0.002814306831078195,-0.015893027574787055,-0.07044500299588893,0.005955299773945627,-0.07517597423430669,0.9934325055169815,-0.05149516098748933,-0.0178368364604785,-0.10060791540533694
987.9499999994301,-0.09602958,-0.5795098,0.28921497,-2.478411,-0.043698862,1.8629948,0.83792186,0.039998457,0.04,0.003798446513125775,0.002834517972988282,-0.015744494733760384,-0.07057738068545555,0.005954678715577505,-0.07452757181959717,0.9933292153865863,-0.05214061106158102,-0.017985107491262177,-0.10126678846552639
987.9666666660968,-0.09686075,-0.577734,0.29172307,-2.4794683,-0.044078466,1.8655264,0.83837205,0.03999844,0.04,0.0053546278083516086,0.002805429645541535,-0.015034549185410917,-0.07069667453894712,0.005952210165703603,-0.07387073569291773,0.9932255527201075,-0.05278761849257814,-0.018132432745707333,-0.10191998646213292
987.9833333327634,-0.097690046,-0.5759621,0.29422575,-2.4805238,-0.044457234,1.8680524,0.8388211,0.039998423,0.04,0.003933565857638932,0.003412751809850345,-0.01638153387339969,-0.07080305382764158,0.0059513864983056775,-0.07320753965502053,0.9931215086234028,-0.05343620412396531,-0.018279565572244406,-0.10256753229403745
987.9999999994301,-0.09851736,-0.5741943,0.2967227,-2.4815767,-0.04483513,1.8705724,0.83926916,0.039998412,0.04,0.005370139304239352,0.003322201811550851,-0.01574975452895977,-0.07089624849164865,0.005945238666406616,-0.0725369854275082,0.993017116377027,-0.054086209577200534,-0.01842614023977365,-0.10320933035190889
988.0166666660967,-0.099342614,-0.5724307,0.2992136,-2.4826274,-0.045212116,1.8730863,0.8397161,0.039998394,0.04,0.0047832015150683915,0.0038664904921270615,-0.01636023430169331,-0.07097640015296966,0.00593643002172356,-0.07186023396125113,0.9929123897241933,-0.05473750624549371,-0.018572515158017236,-0.10384533414131579
988.0333333327634,-0.100165695,-0.5706717,0.30169818,-2.4836752,-0.045588132,1.8755939,0.8401619,0.039998394,0.04,0.0066613733203491066,0.0036291507071017914,-0.01578704549127785,-0.07104334192823614,0.005923183752910038,-0.07117500336056737,0.9928073586468051,-0.05538998625491821,-0.018718151766089864,-0.10447549393946794
988.04999999943,-0.100986496,-0.5689174,0.30417606,-2.4847205,-0.045963112,1.8780946,0.8406065,0.039998386,0.04,0.00633839360977273,0.00413973667111045,-0.01633379935486179,-0.07109684864347156,0.005908644468537644,-0.07048726054894618,0.9927020391593983,-0.05604353179135338,-0.01886344001853186,-0.1050997365543388
988.0666666660967,-0.10180492,-0.56716794,0.3066469,-2.4857624,-0.04633706,1.8805883,0.8410498,0.039998367,0.04,0.007815801740207462,0.004086377655904139,-0.01556690027642027,-0.07113748125999401,0.005890093462998874,-0.0697948045397588,0.9925964619220543,-0.0566980661096184,-0.01900796391760141,-0.10571797570402185
988.0833333327633,-0.102620885,-0.5654237,0.3091106,-2.4868011,-0.04670991,1.8830746,0.84149176,0.039998353,0.04,0.007932377483665931,0.004246365884569281,-0.01611028884196397,-0.07116448553928198,0.005869068360918578,-0.06909544865472687,0.9924906361560176,-0.05735348039749865,-0.019151870232673254,-0.10633024638130073
988.09999999943,-0.10343426,-0.56368506,0.31156674,-2.487837,-0.047081582,1.8855535,0.8419324,0.039998338,0.04,0.00804523880755248,0.004625211382691674,-0.016330274975673298,-0.07117760226378322,0.005846825128926453,-0.06839202341848051,0.9923845899541608,-0.05800958931097571,-0.01929518601074901,-0.10693647163757797
988.1166666660966,-0.104244985,-0.5619519,0.31401503,-2.4888694,-0.04745209,1.8880244,0.84237164,0.039998326,0.04,0.009187125458587353,0.004629880431364364,-0.01577903856235796,-0.07117730346807304,0.005821496792697611,-0.06768245231159914,0.9922783454553242,-0.058666337900223006,-0.019437765147054573,-0.1075365948126914
988.1333333327633,-0.10505294,-0.56022435,0.3164552,-2.4898987,-0.04782137,1.8904873,0.8428094,0.03999831,0.04,0.008704761771993752,0.005016719003939074,-0.01630142569510884,-0.07116344374892111,0.0057942381470331705,-0.06697105560048056,0.992171916990258,-0.05932361042767858,-0.01957987313155928,-0.10813059210905053
988.14999999943,-0.105858006,-0.558503,0.31888688,-2.490924,-0.048189357,1.8929414,0.8432456,0.0399983,0.04,0.010836107542067097,0.0049129637388095615,-0.01585773339580765,-0.07113518607814967,0.0057629787202850835,-0.06625184746853469,0.9920653372058994,-0.059981245395410415,-0.019721152272538716,-0.10871841181880844
988.1666666660966,-0.1066601,-0.5567876,0.32130995,-2.4919455,-0.048556037,1.8953865,0.8436803,0.039998293,0.04,0.009979916493807472,0.00519301486514856,-0.01625360947492549,-0.0710938687506581,0.0057302299014709845,-0.06553134922070161,0.9919586114004024,-0.06063919511628661,-0.01986195572929807,-0.10930006403859754
988.1833333327633,-0.107459165,-0.5550789,0.32372397,-2.4929636,-0.048921373,1.8978226,0.84411335,0.039998278,0.04,0.010991170671803552,0.005613476750632174,-0.016149356818617733,-0.07103833757326866,0.005692793416950004,-0.06480887032310638,0.9918517727836085,-0.06129727587130661,-0.020001968136883253,-0.10987550258097191
988.1999999994299,-0.10825508,-0.55337673,0.32612866,-2.4939775,-0.04928527,1.9002494,0.8445449,0.039998274,0.04,0.011541124788649881,0.005583722100088728,-0.015888374116368453,-0.07096913351524539,0.005654294975223573,-0.06407860071493406,0.991744852231062,-0.061955292835796046,-0.02014126307084251,-0.11044464353118716
988.2166666660966,-0.10904774,-0.5516815,0.3285238,-2.4949872,-0.049647704,1.9026666,0.8449745,0.039998263,0.04,0.012636005951383034,0.005576011321897778,-0.015657954193426527,-0.07088708477794742,0.005612165539932545,-0.0633476596894932,0.9916378597834022,-0.06261334687834477,-0.020279566270835783,-0.11100749086774372
988.2333333327632,-0.109837085,-0.5499933,0.33090904,-2.495993,-0.05000864,1.9050738,0.84540254,0.039998252,0.04,0.012276114395826099,0.006129695922191258,-0.0160472097636033,-0.07078946863315662,0.005569895520946139,-0.0626131659189361,0.991530826196699,-0.06327107690034904,-0.02041721373592703,-0.11156401262424742
988.2499999994299,-0.11062298,-0.5483121,0.33328408,-2.496994,-0.050368026,1.9074706,0.84582883,0.039998244,0.04,0.013244787671018443,0.006084415002952093,-0.015710827000359195,-0.0706790024327613,0.005525266514145921,-0.0618772851156421,0.9914237736776257,-0.06392843409951544,-0.020554088788834864,-0.11211416384409582
988.2666666660965,-0.111405365,-0.5466383,0.33564878,-2.4979908,-0.050725825,1.9098567,0.84625316,0.039998233,0.04,0.013178490962095779,0.006331000429854461,-0.016074829404977287,-0.0705558747254928,0.005476845199475694,-0.06113947867818426,0.9913167055224291,-0.06458541431815908,-0.020690381281722715,-0.11265798565537403
988.2833333327632,-0.112184115,-0.54497194,0.33800277,-2.4989834,-0.05108206,1.9122322,0.8466755,0.039998222,0.04,0.013518337342732778,0.006566471929853046,-0.015810738195276564,-0.0704180492127651,0.005422955966349313,-0.060400011119774985,0.9912096479192625,-0.06524189144702548,-0.020825967341938048,-0.11319544406228907
988.2999999994298,-0.11295914,-0.5433134,0.3403458,-2.4999712,-0.0514366,1.9145964,0.84709585,0.039998215,0.04,0.014721490757230171,0.00658191785634088,-0.015654909615636647,-0.07026564166690558,0.005366998630692038,-0.0596568191265916,0.9911026290551044,-0.0658977220755271,-0.020960734006211117,-0.11372649882607602
988.3166666660965,-0.11373039,-0.54166317,0.3426775,-2.5009542,-0.051789418,1.9169494,0.8475143,0.039998207,0.04,0.015531986784522722,0.006942881790833466,-0.015577943581690512,-0.07009917690477246,0.005307060948421788,-0.05891212608962404,0.9909956837056693,-0.06655263279875794,-0.021094471114076363,-0.11425114980911319
988.3333333327631,-0.11449777,-0.54002124,0.3449978,-2.5019321,-0.052140497,1.9192908,0.8479306,0.039998192,0.04,0.015876843942552732,0.006830886940190073,-0.015358315947811008,-0.06991958389515991,0.005246914548144355,-0.05816875870116499,0.9908888183034824,-0.0672066769482038,-0.021227212937789047,-0.11476941128019101
988.3499999994298,-0.11526116,-0.53838754,0.3473062,-2.5029051,-0.052489795,1.9216201,0.84834474,0.03999819,0.04,0.01584550937940854,0.007309063687238604,-0.015478189430151446,-0.06972527980332796,0.0051862795289858155,-0.05742075761171848,0.9907820578533519,-0.06785969635675408,-0.021359227135006792,-0.11528121643373365
988.3666666660964,-0.11602047,-0.5367619,0.34960255,-2.5038733,-0.052837256,1.9239372,0.8487567,0.039998177,0.04,0.015267995355405795,0.007507374852777637,-0.015704489299195323,-0.0695176421421136,0.005119841088337546,-0.056674359314722596,0.9906754136725898,-0.06851160336283495,-0.021490835150348827,-0.11578656637899411
988.3833333327631,-0.116775654,-0.53514564,0.35188666,-2.5048358,-0.053182848,1.9262419,0.8491664,0.039998163,0.04,0.01867242391246915,0.007215634032275986,-0.014761347925595913,-0.06929542061936264,0.005048513592178588,-0.05592661065864531,0.9905689259660372,-0.06916222876857361,-0.021620953757875233,-0.11628552524220229
988.3999999994297,-0.11752659,-0.53353834,0.3541581,-2.5057933,-0.05352656,1.9285342,0.8495739,0.039998155,0.04,0.017054487569967414,0.00789065398875688,-0.015196995522992474,-0.06905958335063213,0.00497803897015886,-0.05517832144077471,0.9904626128845266,-0.0698114131704481,-0.021750165861896945,-0.11677803455308378
988.4166666660964,-0.11827318,-0.5319398,0.35641667,-2.5067453,-0.0538683,1.930813,0.8499791,0.03999815,0.04,0.017428835682276045,0.007956335986997187,-0.015315013170646985,-0.06880980464093263,0.004905713945549395,-0.05443038658906332,0.990356486196796,-0.07045907653760608,-0.021878857180691404,-0.11726407970845258
988.433333332763,-0.11901538,-0.53035074,0.35866222,-2.5076919,-0.054208055,1.9330786,0.8503821,0.03999814,0.04,0.018548174571852982,0.00796993860802675,-0.014901995303540083,-0.06854687841710423,0.004826162144120377,-0.05368369501544247,0.9902505754818473,-0.07110505307558848,-0.022006494883866072,-0.11774371901683185
988.4499999994297,-0.119753055,-0.52877116,0.3608943,-2.5086324,-0.054545794,1.9353309,0.8507824,0.039998133,0.04,0.019387286941241477,0.008154137946059237,-0.014441435778422829,-0.06827092510284256,0.004745778786244437,-0.05293739779025337,0.9901449000134488,-0.07174939557677038,-0.022133043245358634,-0.11821687531154239
988.4666666660963,-0.12048617,-0.5272011,0.36311275,-2.5095677,-0.054881442,1.9375693,0.85118043,0.039998118,0.04,0.018312907723050387,0.008671869286058786,-0.01522394382778014,-0.06797970757644588,0.0046637662352450315,-0.052190142416533546,0.9900394806647417,-0.07239174447005163,-0.022258981470965198,-0.1186836121861254
988.483333332763,-0.12121465,-0.5256409,0.36531737,-2.510497,-0.05521503,1.9397937,0.85157585,0.039998107,0.04,0.019940671343543492,0.008504680065790637,-0.014389122122815401,-0.06767632752435956,0.004576888838262655,-0.05144689387928848,0.9899343325814286,-0.07303218365621092,-0.02238388625211139,-0.11914394220110172
988.4999999994296,-0.121938385,-0.52409077,0.36750787,-2.5114202,-0.05554649,1.9420041,0.851969,0.039998107,0.04,0.020723781050624446,0.008572054731087464,-0.01402468430649062,-0.06735858851961982,0.0044869297949659825,-0.050701292181664435,0.9898295002976242,-0.07367039164915487,-0.0225075596377402,-0.1195978406743577
988.5166666660963,-0.122657284,-0.522551,0.36968404,-2.5123374,-0.055875745,1.9441996,0.85235935,0.0399981,0.04,0.02061888693343228,0.00896845572271876,-0.014681197640786792,-0.06702821902247733,0.004396483348679425,-0.04995889085397891,0.9897249727247227,-0.07430645417490317,-0.022630416698054878,-0.12004538089019685
988.5333333327629,-0.12337129,-0.5210213,0.37184566,-2.5132482,-0.056202795,1.9463803,0.8527471,0.03999809,0.04,0.021138985369750785,0.008867230782338975,-0.013861802737658024,-0.06668409299581404,0.004301861836049525,-0.04921752427331003,0.9896207849651597,-0.07494021735766321,-0.022752296091867852,-0.12048650882930981
988.5499999994296,-0.12408032,-0.5195024,0.3739924,-2.514153,-0.05652758,1.9485462,0.8531321,0.039998084,0.04,0.02142399337494716,0.009362562357045912,-0.014132368864960831,-0.06632597266936867,0.004205226585200922,-0.04847857395042239,0.9895169611146165,-0.07557148995143692,-0.022873090498008498,-0.12092127730091341
988.5666666660962,-0.12478431,-0.51799405,0.3761241,-2.5150516,-0.056850106,1.950697,0.85351443,0.039998073,0.04,0.02151186282206563,0.009441732383830281,-0.013914134499781738,-0.06595566133097654,0.004104671764203899,-0.047743303054902056,0.9894135137681135,-0.07620021768365089,-0.022992974970689535,-0.1213496959204953
988.5833333327629,-0.12548316,-0.5164966,0.37824062,-2.5159435,-0.057170305,1.9528323,0.8538941,0.03999807,0.04,0.022765908211597186,0.00925373462147272,-0.013407640999441028,-0.06557107819791931,0.004001981324414733,-0.047007105583643675,0.9893104719933081,-0.07682625069625687,-0.023111648383897045,-0.12177179031825439
988.5999999994295,-0.12617676,-0.5150102,0.38034153,-2.5168285,-0.057488166,1.9549521,0.85427105,0.03999806,0.04,0.02338184664445464,0.00951587057366754,-0.013067159350765856,-0.0651740214173779,0.0038978059090225836,-0.046275737818801586,0.9892078635049768,-0.07744946365340986,-0.02322905773850553,-0.1221875371562077
988.6166666660962,-0.12686512,-0.51353496,0.3824267,-2.5177069,-0.057803657,1.9570558,0.85464495,0.039998047,0.04,0.023200397135836326,0.009904106154401404,-0.01342512483322178,-0.06476397015071116,0.003791854368783251,-0.04554741178671631,0.9891056865090369,-0.07806984377261357,-0.023345489926666737,-0.12259701672100551
988.6333333327628,-0.12754814,-0.5120711,0.38449588,-2.5185785,-0.05811669,1.9591435,0.8550162,0.039998043,0.04,0.023486840919328955,0.01002882665767646,-0.01309957604849199,-0.06434013181749076,0.003683889522514458,-0.044818472711457,0.9890039864525001,-0.07868707895894222,-0.023460808376200893,-0.12300019860271524
988.6499999994295,-0.12822571,-0.5106187,0.38654885,-2.519444,-0.058427256,1.9612144,0.85538447,0.039998036,0.04,0.02285266366501837,0.010569823070644135,-0.013979813203457425,-0.06390494323674784,0.0035728081192624855,-0.044093855815261734,0.9889027517855126,-0.07930113077172862,-0.02357558211309653,-0.12339720457690559
988.6666666660961,-0.12889785,-0.5091778,0.3885855,-2.5203018,-0.05873536,1.9632692,0.8557498,0.039998025,0.04,0.025387147517208497,0.009773276780117301,-0.011725227919789916,-0.0634578769155498,0.003454953836035224,-0.0433739978446724,0.988802030702753,-0.07991203008110971,-0.02368875981654593,-0.12378794038508771
988.6833333327628,-0.12956443,-0.50774866,0.39060548,-2.521153,-0.059040964,1.965307,0.856112,0.03999801,0.04,0.024070351249183553,0.010811933807852725,-0.013144267492837258,-0.0629970635370957,0.00333931774278709,-0.042657445264066854,0.9887018206607224,-0.08051956195226738,-0.023801171726803825,-0.1241725178516515
988.6999999994295,-0.13022538,-0.5063314,0.3926086,-2.5219972,-0.059344005,1.9673281,0.8564715,0.039998014,0.04,0.02476878764190449,0.01060815136683102,-0.012416153419003706,-0.06252416052787894,0.003217831322110662,-0.041941514181681606,0.9886021653477717,-0.08112350081173855,-0.023912443969184,-0.12455091854003254
988.7166666660961,-0.13088058,-0.5049265,0.39459473,-2.5228338,-0.059644446,1.9693317,0.8568277,0.039998002,0.04,0.02651107734441549,0.010474356813094943,-0.011960768047791781,-0.06204062754817674,0.0030942476997328078,-0.041232068540148714,0.988503065401231,-0.08172397273128955,-0.024022346203449403,-0.12492321183938042
988.7333333327628,-0.13153002,-0.50353354,0.39656368,-2.5236635,-0.059942294,1.9713178,0.8571808,0.039997995,0.04,0.024779740674785167,0.011068262823715758,-0.012625504709906643,-0.061543509901544835,0.002970040872783547,-0.04052762967361066,0.9884045267629642,-0.08232078680211492,-0.02413156995663251,-0.125289452334143
988.7499999994294,-0.13217363,-0.50215316,0.39851528,-2.5244858,-0.0602375,1.9732867,0.85753083,0.039997987,0.04,0.02661094715743495,0.010775637446835962,-0.0114497690416826,-0.061035095797559405,0.0028393921793554433,-0.03982553579553727,0.9883065940101241,-0.08291382234891208,-0.024239267839885063,-0.1256496406448786
988.7666666660961,-0.13281137,-0.5007853,0.4004491,-2.5253005,-0.060530033,1.9752381,0.8578777,0.039997984,0.04,0.026903838896497057,0.011249199736018678,-0.011315998384731074,-0.06051409356304881,0.0027100375126153653,-0.03912693223573503,0.9882092931012766,-0.08350292045769357,-0.024345657591177093,-0.12600374700684266
988.7833333327627,-0.13344319,-0.49942994,0.4023651,-2.526108,-0.060819875,1.9771708,0.8582212,0.039997973,0.04,0.025966320398662646,0.011726301148545781,-0.012295715949606212,-0.059981910302449135,0.0025797539666901487,-0.038434566448930195,0.9881126045506878,-0.08408802563143097,-0.024451450369337442,-0.1263519340900636
988.7999999994294,-0.13406901,-0.49808738,0.4042631,-2.5269077,-0.061106995,1.9790857,0.8585617,0.039997965,0.04,0.027691048973621513,0.011201833699375774,-0.01077936470244012,-0.059438893246191185,0.0024418467169518565,-0.03774573259603868,0.9880165861164053,-0.08466894148620678,-0.02455578933140989,-0.12669415581154658
988.816666666096,-0.13468872,-0.49675766,0.406143,-2.5276997,-0.06139137,1.9809818,0.858899,0.039997954,0.04,0.027259318346972705,0.01157707324486168,-0.011407168098709342,-0.05888530597765161,0.002304489202510654,-0.03706334912581751,0.9879212255316555,-0.08524566005920943,-0.02465918506502356,-0.127030524587717
988.8333333327627,-0.1353023,-0.49544087,0.40800455,-2.5284839,-0.061672978,1.9828596,0.8592327,0.039997946,0.04,0.02792695480948737,0.01161579438605509,-0.010610628514418075,-0.05832093508047866,0.0021624820699235325,-0.03638379031392933,0.9878265433409038,-0.08581823932186955,-0.024761328061116132,-0.1273610093533562
988.8499999994293,-0.13590975,-0.49413732,0.40984744,-2.5292604,-0.061951786,1.9847188,0.8595632,0.039997946,0.04,0.027975758351295177,0.012132020298022406,-0.010742920127082556,-0.05774363657265734,0.002019790882864095,-0.03570755676666002,0.9877325758116736,-0.08638631646490035,-0.02486229494759514,-0.12768566598487585
988.866666666096,-0.13651095,-0.49284703,0.4116717,-2.5300283,-0.06222773,1.9865592,0.8598902,0.039997946,0.04,0.029484639290489056,0.011459554640064207,-0.009707937741487704,-0.05715675938082931,0.0018746148688133096,-0.03503640422460445,0.9876393374235961,-0.08694997450687156,-0.024961723946341382,-0.1280045055627388
988.8833333327626,-0.13710584,-0.4915701,0.41347715,-2.5307887,-0.062500805,1.9883801,0.860214,0.03999794,0.04,0.028025088683314436,0.012269622414023962,-0.0109087034693367,-0.05655867328893383,0.0017304461746786987,-0.034372335999218497,0.9875468236700408,-0.0875089934384349,-0.02506032623498542,-0.12831768068197552
988.8999999994293,-0.13769437,-0.4903065,0.4152635,-2.5315413,-0.06277102,1.9901818,0.8605343,0.039997928,0.04,0.02818356790645904,0.01254008132698936,-0.010440017439150573,-0.055950781669945986,0.0015804838070076488,-0.03371499635941049,0.9874550572110425,-0.08806332188258481,-0.02515799855506436,-0.128625178079739
988.9166666660959,-0.1382765,-0.4890566,0.4170308,-2.5322857,-0.063038364,1.9919641,0.8608513,0.03999792,0.04,0.029694776923583355,0.012049782403178444,-0.009641534851301259,-0.05533395867130779,0.0014256074293124005,-0.03306269393836929,0.9873640558406763,-0.08861289885264079,-0.02525433830472276,-0.12892708709798756
988.9333333327626,-0.1388522,-0.4878204,0.41877866,-2.5330217,-0.06330275,1.9937272,0.86116475,0.039997917,0.04,0.029899313401737793,0.012407361475230694,-0.009150794680801155,-0.054706551119293366,0.001269997266962794,-0.03241321785458532,0.9872738578351257,-0.08915759989815113,-0.02534923323905821,-0.12922332757649097
988.9499999994292,-0.13942143,-0.486598,0.42050707,-2.5337493,-0.06356418,1.9954703,0.86147475,0.039997917,0.04,0.029878334621225022,0.012587029712168851,-0.009534776596664685,-0.05406896818466517,0.001115641652666352,-0.03176955363151571,0.9871844561656287,-0.089697315375574,-0.02544303190526108,-0.1295140658262824
988.9666666660959,-0.13998409,-0.48538962,0.42221582,-2.5344694,-0.063822605,1.9971936,0.8617811,0.039997913,0.04,0.029076182785070515,0.013021955622555259,-0.009889610698965434,-0.053422607151153406,0.0009562541852799478,-0.031131761961309203,0.9870958571662952,-0.09023202205758962,-0.025535909146835747,-0.12979933861380077
988.9833333327625,-0.14054018,-0.48419508,0.42390475,-2.5351806,-0.06407805,1.9988971,0.862084,0.03999791,0.04,0.030857423141683604,0.012578002394125765,-0.008320840826159248,-0.05276697375932359,0.0007939673703904193,-0.0304997904077738,0.9870081049878081,-0.09076159769471562,-0.025627330907272896,-0.13007910279075435
988.9999999994292,-0.14108965,-0.48301473,0.42557377,-2.535884,-0.06433047,2.0005805,0.86238337,0.0399979,0.04,0.029767551886639154,0.01319515112484515,-0.00929665031177418,-0.05210231604717132,0.0006303285135756953,-0.029875329924540027,0.9869211948771069,-0.09128589186033718,-0.025717723249228032,-0.13035351840469211
989.0166666660958,-0.14163248,-0.4818486,0.4272228,-2.5365782,-0.06457987,2.0022442,0.8626791,0.03999789,0.04,0.03177185276750372,0.012549475443374147,-0.0075748213537618625,-0.051429587955618784,0.00046432591378894883,-0.029256576843386756,0.9868351602862687,-0.09180496665115878,-0.0258063833385754,-0.13062252906729516
989.0333333327625,-0.14216863,-0.48069686,0.42885166,-2.537264,-0.064826205,2.003887,0.86297137,0.039997883,0.04,0.0306524512564188,0.013383518485904355,-0.00896969789883073,-0.05074716774340536,0.00030045162048419893,-0.02864478080379295,0.9867499894974209,-0.09231857002453063,-0.025894153891656307,-0.13088633484707585
989.0499999994291,-0.14269796,-0.47955933,0.4304602,-2.5379417,-0.065069504,2.005509,0.8632598,0.039997883,0.04,0.030540931413258754,0.013393452061866151,-0.008565144556405002,-0.05005778952752411,0.0001321503577704497,-0.028035673134417932,0.9866656855557842,-0.09282682165833835,-0.02598101983546619,-0.13114493027126373
989.0666666660958,-0.14322057,-0.47843632,0.43204838,-2.5386102,-0.06530967,2.0071104,0.86354446,0.03999788,0.04,0.032120473640473435,0.013070157192140996,-0.007342772153506871,-0.049359836533360985,-4.165180418871928e-05,-0.02743230329386783,0.9865822924719474,-0.09332958479840654,-0.02606637848933063,-0.13139829791365218
989.0833333327624,-0.1437363,-0.47732785,0.43361613,-2.5392702,-0.065546714,2.0086915,0.8638257,0.03999788,0.04,0.03149316456658724,0.013115570289223832,-0.007507834172360006,-0.048652618363051674,-0.00021323786798593813,-0.026834905807275097,0.9864998210611549,-0.09382673909822299,-0.026150307865965422,-0.13164652473581953
989.0999999994291,-0.1442452,-0.4762339,0.43516317,-2.5399218,-0.06578067,2.010252,0.86410314,0.039997865,0.04,0.03105997530932214,0.01385453081009791,-0.007796596048170734,-0.04793911071477327,-0.0003867054567981837,-0.026249626351726535,0.9864182718090126,-0.09431820787265703,-0.026233198961968112,-0.1318896810870085
989.1166666660957,-0.1447472,-0.47515473,0.4366895,-2.5405648,-0.06601152,2.0117915,0.8643768,0.03999786,0.04,0.031735798585263986,0.013665265946366523,-0.007504917450695814,-0.0472176903494982,-0.0005620675573390355,-0.025668303461564693,0.9863376472717287,-0.09480399808459915,-0.026314924161130116,-0.13212786340526486
989.1333333327624,-0.1452423,-0.47409028,0.43819502,-2.5411987,-0.06623924,2.0133092,0.8646466,0.039997853,0.04,0.0322667451879477,0.013726201806324445,-0.007252962822734688,-0.04648902563297004,-0.0007408548186434855,-0.025092669081528733,0.9862579595107517,-0.09528398950202657,-0.026395633039108055,-0.13236113176733888
989.149999999429,-0.14573045,-0.47304058,0.4396797,-2.541824,-0.066463776,2.0148063,0.864913,0.039997853,0.04,0.03179726211712808,0.013675429996368171,-0.006892368271116389,-0.045753367329151994,-0.0009215183887169853,-0.024520737629322022,0.986179243244492,-0.09575802490348291,-0.026475058875999047,-0.13258948720700817
989.1666666660957,-0.1462116,-0.47200572,0.4411434,-2.54244,-0.066685125,2.0162811,0.86517555,0.03999785,0.04,0.033114663763300634,0.013658566103585956,-0.006620300729220929,-0.04501232539462147,-0.00110445540749593,-0.023955219221392036,0.9861014918895775,-0.09622612294641196,-0.026553411626519488,-0.13281301625535116
989.1833333327623,-0.14668578,-0.4709859,0.44258592,-2.5430474,-0.06690327,2.017736,0.8654343,0.039997846,0.04,0.032030748426414846,0.014028989236702927,-0.00611284882172658,-0.044265024497685476,-0.0012898271982314247,-0.02339709004087168,0.9860247432072283,-0.09668824337901875,-0.026630154789517652,-0.13303166627267834
989.199999999429,-0.14715296,-0.469981,0.4440073,-2.543646,-0.0671182,2.019169,0.8656891,0.03999784,0.04,0.032309895840798575,0.014117024051141236,-0.006611328630157232,-0.04351130338427774,-0.001474856766207136,-0.02284736034741218,0.9859489726604603,-0.09714435517963176,-0.02670590501220985,-0.13324560857302276
989.2166666660956,-0.1476131,-0.46899116,0.44540748,-2.5442355,-0.067329936,2.0205812,0.86594003,0.03999783,0.04,0.033325071360046365,0.013704653996438054,-0.005335341833734297,-0.04275113396200702,-0.0016617897998014025,-0.022304087548999433,0.9858742141624435,-0.0975944452470984,-0.026780045529176302,-0.13345481358104297
989.2333333327623,-0.14806613,-0.4680164,0.44678646,-2.5448163,-0.06753847,2.0219722,0.8661873,0.039997827,0.04,0.032235318226314646,0.01411974658409032,-0.006120065039150191,-0.04198447153531065,-0.0018468602684046237,-0.021767020234548955,0.985800460940198,-0.09803837919604799,-0.02685300587248882,-0.1336594309815693
989.249999999429,-0.14851218,-0.46705666,0.44814408,-2.5453877,-0.06774378,2.0233412,0.8664307,0.039997824,0.04,0.033185039082472834,0.014239128435244996,-0.005562166228800791,-0.04121257802121207,-0.002033643365748322,-0.021235915060273676,0.9857277338968827,-0.09847602967039024,-0.026924816883351906,-0.13385948021216468
989.2666666660956,-0.14895111,-0.46611214,0.44948015,-2.54595,-0.06794584,2.0246887,0.86667025,0.03999783,0.04,0.03352889132115511,0.014139881009317401,-0.004999213773748679,-0.04043607146450304,-0.0022224141099536215,-0.020708973834072664,0.9856560540289542,-0.09890739807297028,-0.026995175289142987,-0.13405495243971707
989.2833333327623,-0.14938286,-0.46518278,0.4507948,-2.5465035,-0.06814461,2.0260143,0.8669058,0.03999783,0.04,0.03224655201561344,0.01449160272162242,-0.006005584728518976,-0.03965512216696637,-0.0024106044533707266,-0.020190738329941615,0.9855853889147931,-0.09933253001625812,-0.02706468907809383,-0.13424601388254037
989.2999999994289,-0.14980756,-0.4642687,0.45208806,-2.547048,-0.068340145,2.0273182,0.86713743,0.03999783,0.04,0.03319014998337533,0.014283149392474437,-0.005064699941637052,-0.038869299429647855,-0.0026025733786582544,-0.019678530809502645,0.9855157599129473,-0.09975136092906016,-0.027132955848145606,-0.13443271797798664
989.3166666660956,-0.1502251,-0.4633699,0.45335975,-2.5475836,-0.068532445,2.0286005,0.86736524,0.039997824,0.04,0.0332027168409299,0.014406592016547037,-0.004846952894843604,-0.038079122910190166,-0.002797267440227333,-0.019174475692871666,0.9854471881982051,-0.10016376595343023,-0.027199979101624062,-0.13461508236133413
989.3333333327622,-0.1506355,-0.46248642,0.45460984,-2.5481098,-0.06872147,2.029861,0.86758924,0.039997816,0.04,0.03365159905213133,0.014292145088312669,-0.00438104005133777,-0.0372853147815495,-0.0029916072492321144,-0.018677223334347764,0.9853796894711043,-0.10056969862877671,-0.027265618337755912,-0.13479313540461502
989.3499999994289,-0.15103874,-0.46161807,0.4558384,-2.5486271,-0.06890727,2.0310996,0.8678095,0.039997812,0.04,0.03261708745634362,0.014583728713057909,-0.004936978887903898,-0.03648800657665252,-0.0031861067282474426,-0.018185521521888695,0.9853132474685612,-0.10096912840921705,-0.027330307359266053,-0.13496700993535055
989.3666666660955,-0.1514349,-0.46076503,0.45704547,-2.549135,-0.069089785,2.032316,0.8680259,0.039997812,0.04,0.03389137783176288,0.014304177326118772,-0.004088243595257168,-0.03568788722670965,-0.0033832232498555853,-0.017698627674799263,0.9852478822177921,-0.10136200730933588,-0.02739373882384578,-0.13513673494956438
989.3833333327622,-0.15182383,-0.4599273,0.45823085,-2.549634,-0.069269,2.0335107,0.8682384,0.039997812,0.04,0.032889344451492164,0.014591882635694997,-0.004379765039441708,-0.03488489954128537,-0.003580495465612926,-0.017218252080747638,0.9851835929044048,-0.10174837699767571,-0.02745605052776849,-0.1353023330904656
989.3999999994288,-0.15220566,-0.45910475,0.4593945,-2.550124,-0.06944495,2.0346837,0.86844695,0.039997812,0.04,0.0331593595519708,0.014702868846866446,-0.0038828163432480522,-0.034079212050808765,-0.0037789430426131004,-0.01674583717851594,0.9851203971542395,-0.10212814761607165,-0.02751717808956081,-0.13546383091132
989.4166666660955,-0.15258032,-0.45829758,0.4605366,-2.550604,-0.06961761,2.035835,0.8686516,0.039997812,0.04,0.03445333193781153,0.014009304662232491,-0.0029447317792197225,-0.03327108145230562,-0.003978584889425214,-0.016279046570288024,0.9850583048949805,-0.10250136866343276,-0.027576678854237098,-0.13562128211649102
989.4333333327621,-0.15294783,-0.4575058,0.46165708,-2.551076,-0.06978697,2.0369644,0.8688525,0.039997812,0.04,0.03220077072325633,0.015044018004739534,-0.0045541039519481075,-0.03246026063511949,-0.004175132396592798,-0.015819597688309355,0.9849972937190519,-0.10286789533104615,-0.027635374150514033,-0.135774863549428
989.4499999994288,-0.15330815,-0.45672935,0.46275598,-2.5515385,-0.06995309,2.0380723,0.8690495,0.039997805,0.04,0.0337358693370815,0.014268205090828268,-0.002974517361020723,-0.031649362009015365,-0.004377230830293913,-0.015367389119152102,0.9849373863173617,-0.10322783886340132,-0.027692579399356237,-0.13592453554868694
989.4666666660954,-0.15366137,-0.45596808,0.46383324,-2.5519917,-0.07011596,2.0391583,0.86924267,0.039997797,0.04,0.03340809238769893,0.014588335755305604,-0.00312872320091806,-0.030835232888611105,-0.004575777590955066,-0.014921590187115249,0.9848785888612984,-0.10358106338239835,-0.02774861673325545,-0.1360703596693271
989.4833333327621,-0.15400745,-0.45522216,0.4648889,-2.552436,-0.07027557,2.0402224,0.8694319,0.039997794,0.04,0.03289315166703499,0.014825833920090181,-0.0035126917218963882,-0.030020620572537952,-0.00477503011754301,-0.01448203101938228,0.9848208877443451,-0.1039275984024779,-0.027803645139146058,-0.13621244682373876
989.4999999994287,-0.15434635,-0.45449156,0.46592304,-2.5528712,-0.0704319,2.0412652,0.8696173,0.039997794,0.04,0.033724280294356035,0.014160868813412053,-0.002339561204367513,-0.0292053922603775,-0.004976221972742868,-0.014046131013619467,0.9847643054478126,-0.10426751817773315,-0.02785709221334123,-0.13635076010921474
989.5166666660954,-0.15467821,-0.45377612,0.4669356,-2.5532966,-0.07058497,2.042286,0.8697988,0.03999779,0.04,0.034057406932230805,0.014417842094716082,-0.0022767681791879824,-0.028388867206363858,-0.005174405512882764,-0.013619926503541813,0.9847088492769306,-0.1046006645975773,-0.02790927184994796,-0.13648536795662045
989.533333332762,-0.15500295,-0.4530759,0.46792674,-2.5537138,-0.070734784,2.0432847,0.8699764,0.039997786,0.04,0.03155431691996835,0.015142624582642483,-0.0039226420797566774,-0.02757224173455103,-0.005371966613333029,-0.01320045993652645,0.984654475356303,-0.1049270840082642,-0.027960870300991404,-0.13661647387609377
