rsonawane2002/My_IMU/logs_2/traj_340/imu_400hz_340.csv
time,j1,j2,j3,j4,j5,j6,j7,gripper1,gripper2,imu_ax,imu_ay,imu_az,imu_gx,imu_gy,imu_gz
0.0,0.00016700293,-0.785875,4.0107683e-05,-2.3551247,9.29385e-05,1.570997,0.786,0.04,0.04,-9.461518,0.0557271651923656,0.10777204,-3.239612e-07,-0.0011641274904832,4.5997933e-07
0.0025,0.000167002867,-0.7858577739999999,4.010996855000002e-05,-2.3551391900000005,9.294362940000005e-05,1.570996565,0.786,0.04,0.04,-9.517452250000431,0.04746388322085268,0.0929732021498856,-3.167677624999444e-07,-0.0013252774195292058,4.774693255001352e-07
0.005,0.00016700280399999998,-0.7858405479999997,4.011225410000004e-05,-2.3551536800000004,9.294875880000008e-05,1.57099613,0.786,0.04,0.04,-9.573386500000865,0.039200601249339766,0.07817436429977119,-3.095743249998888e-07,-0.0014864273485752117,4.949593210002705e-07
0.0075,0.000167002741,-0.7858233219999996,4.0114539650000057e-05,-2.3551681700000007,9.295388820000012e-05,1.570995695,0.786,0.04,0.04,-9.629320750001297,0.030937319277826853,0.06337552644965679,-3.0238088749983316e-07,-0.0016475772776212174,5.124493165004056e-07
0.01,0.000167002678,-0.7858060959999995,4.0116825200000075e-05,-2.3551826600000005,9.295901760000017e-05,1.5709952600000001,0.786,0.04,0.04,-9.68525500000173,0.022674037306313934,0.048576688599542374,-2.9518744999977755e-07,-0.0018087272066672233,5.299393120005408e-07
0.0125,0.00016700261499999998,-0.7857888699999994,4.011911075000009e-05,-2.355197150000001,9.29641470000002e-05,1.570994825,0.786,0.04,0.04,-9.741189250002162,0.014410755334801018,0.03377785074942796,-2.8799401249972193e-07,-0.001969877135713229,5.47429307500676e-07
0.015,0.000167002552,-0.7857716439999992,4.012139630000011e-05,-2.3552116400000007,9.296927640000024e-05,1.57099439,0.786,0.04,0.04,-9.797123500002595,0.0061474733632881084,0.01897901289931357,-2.808005749996663e-07,-0.0021310270647592346,5.649193030008113e-07
0.0175,0.00016700139949999982,-0.7857548619999993,4.0126526800000515e-05,-2.3552257350000008,9.297381770000016e-05,1.57099396,0.786,0.04,0.04,-9.834312199999985,0.0006412229500714045,0.009039264999989522,-3.1436146250544216e-07,-0.0022879061056370353,4.5520454998277896e-07
0.02,0.00016699806799999988,-0.7857389679999994,4.013734720000038e-05,-2.3552390400000007,9.297718280000011e-05,1.5709935400000001,0.786,0.04,0.04,-9.83400979999999,0.00064903565216831,0.008817696999992342,-4.294310000039769e-07,-0.0024362433701804066,9.10802999874156e-08
0.0225,0.0001669947364999999,-0.7857230739999996,4.014816760000024e-05,-2.3552523450000002,9.298054790000008e-05,1.57099312,0.786,0.04,0.04,-9.833707399999993,0.0006568483542652155,0.008596128999995165,-5.445005375025117e-07,-0.002584580634723778,-2.7304395000794787e-07
0.025,0.00016699140499999997,-0.7857071799999998,4.01589880000001e-05,-2.35526565,9.298391300000003e-05,1.5709927,0.786,0.04,0.04,-9.833404999999997,0.000664661056362121,0.008374560999997985,-6.595700750010467e-07,-0.002732917899267149,-6.371682000033118e-07
0.0275,0.0001669880735,-0.785691286,4.016980839999996e-05,-2.3552789549999997,9.298727809999999e-05,1.57099228,0.786,0.04,0.04,-9.833102600000002,0.0006724737584590265,0.008152993000000806,-7.746396124995814e-07,-0.0028812551638105204,-1.0012924499986752e-06
0.03,0.00016698474200000006,-0.7856753920000003,4.018062879999982e-05,-2.3552922599999997,9.299064319999994e-05,1.57099186,0.786,0.04,0.04,-9.832800200000005,0.0006802864605559321,0.007931425000003628,-8.897091499981163e-07,-0.0030295924283538916,-1.3654166999940387e-06
0.0325,0.0001669814105000001,-0.7856594980000005,4.019144919999968e-05,-2.355305564999999,9.29940082999999e-05,1.57099144,0.786,0.04,0.04,-9.83249780000001,0.0006880991626528377,0.0077098570000064485,-1.0047786874966512e-06,-0.003177929692897263,-1.7295409499894026e-06
0.035,0.00016697252400000033,-0.7856444400000004,4.021741219999905e-05,-2.3553180999999994,9.299473600000001e-05,1.57099101,0.786,0.04,0.04,-9.832204900000008,0.000699856667778973,0.007509983640005329,-1.218781179992572e-06,-0.0033184026833584304,-2.5670375299697153e-06
0.0375,0.00016696086000000024,-0.7856298000000003,4.025094649999931e-05,-2.3553302499999997,9.299414500000001e-05,1.570990575,0.786,0.04,0.04,-9.831916750000007,0.000713586574420019,0.007320957600003868,-1.4822501499946082e-06,-0.003454943536777906,-3.6412202749780177e-06
0.04,0.00016694919600000014,-0.7856151600000002,4.0284480799999575e-05,-2.3553423999999996,9.2993554e-05,1.57099014,0.786,0.04,0.04,-9.831628600000004,0.0007273164810610652,0.007131931560002407,-1.7457191199966453e-06,-0.0035914843901973816,-4.715403019986322e-06
0.0425,0.00016693753200000007,-0.7856005200000001,4.031801509999983e-05,-2.35535455,9.299296300000001e-05,1.5709897050000001,0.786,0.04,0.04,-9.831340450000003,0.0007410463877021114,0.006942905520000945,-2.0091880899986824e-06,-0.0037280252436168574,-5.789585764994628e-06
0.045,0.00016692586799999998,-0.78558588,4.035154940000009e-05,-2.3553667,9.2992372e-05,1.57098927,0.786,0.04,0.04,-9.8310523,0.0007547762943431575,0.0067538794799994846,-2.2726570600007187e-06,-0.003864566097036333,-6.86376851000293e-06
0.0475,0.00016691420399999988,-0.7855712399999999,4.0385083700000354e-05,-2.35537885,9.2991781e-05,1.570988835,0.786,0.04,0.04,-9.830764149999998,0.0007685062009842036,0.006564853439998023,-2.5361260300027558e-06,-0.004001106950455809,-7.937951255011234e-06
0.05,0.00016690253999999952,-0.7855565999999998,4.04186180000014e-05,-2.355391,9.299118999999987e-05,1.5709884,0.786,0.04,0.04,-9.830475999999996,0.0007822361076253677,0.006375827399997019,-2.7995950000084546e-06,-0.0041376478038750815,-9.012134000038004e-06
0.0525,0.0001668754814999995,-0.7855430999999998,4.049521025000146e-05,-2.3554021300000003,9.298360149999986e-05,1.57098798,0.786,0.04,0.04,-9.830196249999995,0.0008024492854022911,0.00621193043999687,-3.2643760600088765e-06,-0.004263042472305285,-1.11012996500399e-05
0.055,0.00016684842299999946,-0.7855295999999997,4.057180250000153e-05,-2.35541326,9.297601299999985e-05,1.57098756,0.786,0.04,0.04,-9.829916499999996,0.0008226624631792144,0.006048033479996721,-3.7291571200092997e-06,-0.0043884371407354895,-1.3190465300041802e-05
0.0575,0.00016682136449999943,-0.7855160999999997,4.06483947500016e-05,-2.35542439,9.296842449999984e-05,1.57098714,0.786,0.04,0.04,-9.829636749999995,0.0008428756409561379,0.005884136519996571,-4.193938180009723e-06,-0.004513831809165693,-1.5279630950043704e-05
0.06,0.0001667943059999994,-0.7855025999999997,4.072498700000167e-05,-2.3554355200000003,9.296083599999984e-05,1.57098672,0.786,0.04,0.04,-9.829356999999995,0.0008630888187330612,0.005720239559996423,-4.658719240010144e-06,-0.004639226477595897,-1.7368796600045602e-05
0.0625,0.0001667672474999994,-0.7854890999999997,4.080157925000174e-05,-2.35544665,9.295324749999983e-05,1.5709863,0.786,0.04,0.04,-9.829077249999994,0.0008833019965099846,0.005556342599996273,-5.123500300010568e-06,-0.004764621146026101,-1.9457962250047502e-05
0.065,0.00016674018899999937,-0.7854755999999997,4.087817150000181e-05,-2.35545778,9.294565899999982e-05,1.57098588,0.786,0.04,0.04,-9.828797499999993,0.000903515174286908,0.005392445639996124,-5.588281360010991e-06,-0.0048900158144563055,-2.1547127900049406e-05
0.0675,0.00016670505149999886,-0.7854624299999997,4.0977749100003244e-05,-2.3554685600000003,9.293445999999959e-05,1.57098562,0.786,0.04,0.04,-9.828522599999994,0.0009251030773162624,0.005235508199996812,-6.146680080016616e-06,-0.005011975206437265,-2.4065631150075258e-05
0.07,0.00016665375599999915,-0.7854499199999998,4.112329740000238e-05,-2.35547864,9.291603999999971e-05,1.57098568,0.786,0.04,0.04,-9.828257399999996,0.0009494404308501785,0.005092489799997658,-6.892314120012209e-06,-0.005127064045520485,-2.7442809600055296e-05
0.0725,0.00016660246049999948,-0.7854374099999999,4.126884570000152e-05,-2.35548872,9.289761999999981e-05,1.57098574,0.786,0.04,0.04,-9.827992199999997,0.0009737777843840945,0.004949471399998504,-7.637948160007796e-06,-0.005242152884603704,-3.0819988050035314e-05
0.075,0.00016655116499999977,-0.7854248999999999,4.141439400000066e-05,-2.3554988,9.287919999999992e-05,1.5709858,0.786,0.04,0.04,-9.827727,0.0009981151379180107,0.00480645299999935,-8.38358220000339e-06,-0.005357241723686923,-3.419716650001535e-05
0.0775,0.00016649986950000007,-0.78541239,4.15599422999998e-05,-2.35550888,9.286078000000003e-05,1.57098586,0.786,0.04,0.04,-9.8274618,0.0010224524914519268,0.0046634346000001955,-9.129216239998982e-06,-0.005472330562770143,-3.7574344949995397e-05
0.08,0.00016644857400000037,-0.78539988,4.170549059999894e-05,-2.35551896,9.284236000000014e-05,1.57098592,0.786,0.04,0.04,-9.827196600000002,0.001046789844985843,0.004520416200001041,-9.874850279994575e-06,-0.005587419401853363,-4.095152339997543e-05
0.0825,0.0001663972785000007,-0.7853873700000001,4.185103889999808e-05,-2.35552904,9.282394000000024e-05,1.57098598,0.786,0.04,0.04,-9.826931400000003,0.001071127198519759,0.004377397800001886,-1.0620484319990168e-05,-0.0057025082409365825,-4.432870184995547e-05
0.085,0.00016632283700000047,-0.785375513,4.206313269999866e-05,-2.35553889,9.279518250000019e-05,1.57098606,0.786,0.04,0.04,-9.826662000000002,0.0010985477943902722,0.00423934720000074,-1.1571064699994257e-05,-0.005809710780157987,-4.872754519997322e-05
0.08750000000000001,0.0001662368224999992,-0.7853639824999998,4.230849925000223e-05,-2.355548625,9.27612562499997e-05,1.57098615,0.786,0.04,0.04,-9.826390499999997,0.0011275100114291885,0.004103780499998767,-1.2624118250009582e-05,-0.005912970169448214,-5.363722100004467e-05
0.09,0.00016615080799999796,-0.7853524519999997,4.25538658000058e-05,-2.3555583600000003,9.27273299999992e-05,1.5709862399999999,0.786,0.04,0.04,-9.826118999999993,0.0011564722284681049,0.0039682137999967945,-1.36771718000249e-05,-0.0060162295587384415,-5.854689680011609e-05
0.0925,0.00016606479349999672,-0.7853409214999996,4.279923235000937e-05,-2.355568095,9.269340374999871e-05,1.57098633,0.786,0.04,0.04,-9.82584749999999,0.0011854344455070214,0.0038326470999948217,-1.4730225350040225e-05,-0.006119488948028669,-6.345657260018754e-05
0.095,0.00016597877899999545,-0.7853293909999994,4.304459890001294e-05,-2.3555778300000005,9.265947749999821e-05,1.5709864199999999,0.786,0.04,0.04,-9.825575999999986,0.0012143966625459378,0.003697080399992849,-1.578327890005555e-05,-0.006222748337318897,-6.8366248400259e-05
0.0975,0.0001658927644999942,-0.7853178604999993,4.3289965450016514e-05,-2.3555875650000004,9.262555124999772e-05,1.57098651,0.786,0.04,0.04,-9.825304499999982,0.0012433588795848544,0.0035615136999908757,-1.6836332450070876e-05,-0.006326007726609125,-7.327592420033045e-05
0.1,0.00016580674999998912,-0.7853063299999992,4.353533200003114e-05,-2.355597300000001,9.259162499999565e-05,1.5709866,0.786,0.04,0.04,-9.825032999999985,0.0012723210966241287,0.0034259469999918207,-1.788938600011259e-05,-0.006429267115898806,-7.818560000053623e-05
0.10250000000000001,0.00016567406299998992,-0.7852955749999992,4.3915836100028895e-05,-2.3556060600000004,9.253854374999597e-05,1.5709867499999999,0.786,0.04,0.03999999925,-9.824849999999985,0.0013056556985272716,0.0033260254899924115,-1.9264868600104464e-05,-0.006525848014287465,-8.473644650049751e-05
0.105,0.0001655413759999907,-0.7852848199999993,4.429634020002664e-05,-2.3556148200000004,9.248546249999629e-05,1.5709868999999999,0.786,0.04,0.0399999985,-9.824666999999987,0.0013389903004304145,0.0032261039799930027,-2.0640351200096324e-05,-0.0066224289126761236,-9.128729300045876e-05
0.1075,0.00016540868899999147,-0.7852740649999994,4.4676844300024395e-05,-2.3556235800000005,9.24323812499966e-05,1.57098705,0.786,0.04,0.03999999775,-9.824483999999988,0.0013723249023335573,0.003126182469993593,-2.2015833800088196e-05,-0.006719009811064783,-9.783813950042004e-05
0.11,0.00016527600199999228,-0.7852633099999994,4.505734840002215e-05,-2.3556323400000005,9.237929999999691e-05,1.5709872,0.786,0.04,0.039999997,-9.82430099999999,0.0014056595042367004,0.0030262609599941838,-2.3391316400080066e-05,-0.006815590709453442,-0.00010438898600038132
0.1125,0.00016514331499999305,-0.7852525549999995,4.5437852500019896e-05,-2.3556411,9.232621874999723e-05,1.57098735,0.786,0.04,0.03999999625,-9.82411799999999,0.0014389941061398433,0.0029263394499947745,-2.4766799000071935e-05,-0.006912171607842101,-0.00011093983250034259
0.115,0.00016501062799999383,-0.7852417999999995,4.581835660001765e-05,-2.35564986,9.227313749999754e-05,1.5709875,0.786,0.04,0.0399999955,-9.823934999999992,0.0014723287080429864,0.002826417939995365,-2.6142281600063805e-05,-0.00700875250623076,-0.00011749067900030387
0.11750000000000001,0.00016485798299999176,-0.7852312859999996,4.625701220002372e-05,-2.35565845,9.221104799999658e-05,1.570987645,0.786,0.04,0.039999995,-9.823729199999988,0.0015059534576735924,0.0027284775499959828,-2.7626387150072732e-05,-0.007102466770451536,-0.00012473157600036855
0.12,0.00016466542199999157,-0.7852212539999996,4.681197080002423e-05,-2.3556667,9.213094199999651e-05,1.57098778,0.786,0.04,0.039999995,-9.823477799999988,0.0015401585027590133,0.0026344993999958977,-2.9327738600074272e-05,-0.007190447766337641,-0.00013335257400037636
0.1225,0.00016447286099999142,-0.7852112219999996,4.7366929400024735e-05,-2.35567495,9.205083599999643e-05,1.570987915,0.786,0.04,0.039999995,-9.823226399999989,0.0015743635478444344,0.002540521249995812,-3.102909005007582e-05,-0.007278428762223746,-0.0001419735720003842
0.125,0.00016428029999999123,-0.7852011899999995,4.7921888000025235e-05,-2.3556832,9.197072999999635e-05,1.57098805,0.786,0.04,0.039999995,-9.822974999999989,0.0016085685929298555,0.0024465430999957264,-3.273044150007737e-05,-0.007366409758109851,-0.00015059457000039204
0.1275,0.00016408773899999107,-0.7851911579999996,4.847684660002574e-05,-2.35569145,9.189062399999628e-05,1.570988185,0.786,0.04,0.039999995,-9.822723599999987,0.0016427736380152766,0.002352564949995641,-3.443179295007891e-05,-0.007454390753995956,-0.0001592155680003999
0.13,0.0001638951779999909,-0.7851811259999996,4.903180520002625e-05,-2.3556997,9.181051799999621e-05,1.5709883199999999,0.786,0.04,0.039999995,-9.822472199999988,0.001676978683100698,0.0022585867999955554,-3.613314440008046e-05,-0.007542371749882061,-0.00016783656600040774
0.1325,0.00016370261699999073,-0.7851710939999995,4.9586763800026755e-05,-2.35570795,9.173041199999614e-05,1.570988455,0.786,0.04,0.039999995,-9.822220799999988,0.001711183728186119,0.00216460864999547,-3.783449585008201e-05,-0.007630352745768166,-0.00017645756400041558
0.135,0.0001634605379999857,-0.7851614749999996,5.0286591500041444e-05,-2.3557157600000003,9.162811299999391e-05,1.57098897,0.7860001900000001,0.04,0.039999995,-9.822008999999989,0.00174730399158043,0.0020836243599960027,-3.9776675700110685e-05,-0.0077142130117907,-0.00018649385400057656
0.1375,0.00016319369999998363,-0.7851520624999995,5.1058853750047415e-05,-2.3557233500000003,9.151471749999303e-05,1.5709896749999999,0.786000475,0.04,0.039999995,-9.821816999999989,0.0017843818641289765,0.0020091369999954267,-4.183926975012663e-05,-0.0077960129128818965,-0.00019723779000065963
0.14,0.00016292686199998157,-0.7851426499999994,5.1831116000053386e-05,-2.3557309400000004,9.140132199999216e-05,1.57099038,0.7860007600000001,0.04,0.039999995,-9.821624999999987,0.0018214597366775231,0.0019346496399948508,-4.390186380014258e-05,-0.007877812813973095,-0.0002079817260007427
0.14250000000000002,0.0001626600239999795,-0.7851332374999993,5.260337825005936e-05,-2.3557385300000004,9.128792649999129e-05,1.570991085,0.786001045,0.04,0.039999995,-9.821432999999985,0.0018585376092260697,0.001860162279994275,-4.5964457850158525e-05,-0.007959612715064292,-0.00021872566200082576
0.145,0.00016239318599997743,-0.7851238249999992,5.3375640500065315e-05,-2.355746120000001,9.117453099999042e-05,1.57099179,0.78600133,0.04,0.039999995,-9.821240999999985,0.001895615481774616,0.0017856749199936998,-4.802705190017445e-05,-0.008041412616155489,-0.00022946959800090871
0.1475,0.00016212634799997537,-0.7851144124999991,5.4147902750071286e-05,-2.355753710000001,9.106113549998954e-05,1.570992495,0.7860016150000001,0.04,0.039999995,-9.821048999999983,0.0019326933543231627,0.0017111875599931238,-5.00896459501904e-05,-0.008123212517246686,-0.00024021353400099178
0.15,0.00016185950999996433,-0.7851049999999992,5.49201650001036e-05,-2.355761300000001,9.094773999998447e-05,1.5709932,0.7860019,0.04,0.039999995,-9.820856999999977,0.0019697712268716794,0.0016367001999925972,-5.215224000037276e-05,-0.008205012418337002,-0.0002509574700013141
0.1525,0.00016150303499996887,-0.7850961199999993,5.595573935009042e-05,-2.3557687400000007,9.079254849998646e-05,1.57099392,0.7860021850000001,0.04,0.03999999575,-9.820627799999981,0.002006547979548016,0.0015627035349935392,-5.587825350032532e-05,-0.008278004406026393,-0.0002640922875011468
0.155,0.00016114655999997343,-0.7850872399999994,5.699131370007724e-05,-2.3557761800000008,9.063735699998843e-05,1.57099464,0.78600247,0.04,0.0399999965,-9.820398599999983,0.0020433247322243528,0.0014887068699944814,-5.960426700027788e-05,-0.008350996393715783,-0.0002772271050009796
0.1575,0.00016079008499997796,-0.7850783599999995,5.802688805006405e-05,-2.3557836200000004,9.04821654999904e-05,1.57099536,0.786002755,0.04,0.03999999725,-9.820169399999985,0.0020801014849006895,0.0014147102049954234,-6.333028050023044e-05,-0.008423988381405173,-0.00029036192250081233
0.16,0.0001604336099999825,-0.7850694799999995,5.9062462400050864e-05,-2.3557910600000005,9.032697399999238e-05,1.57099608,0.7860030400000001,0.04,0.039999998,-9.819940199999989,0.002116878237577026,0.0013407135399963657,-6.7056294000183e-05,-0.008496980369094565,-0.0003034967400006451
0.1625,0.00016007713499998703,-0.7850605999999997,6.0098036750037685e-05,-2.3557985,9.017178249999435e-05,1.5709967999999999,0.786003325,0.04,0.03999999875,-9.819710999999991,0.002153654990253363,0.0012667168749973077,-7.078230750013556e-05,-0.008569972356783955,-0.0003166315575004779
0.165,0.00015972065999999156,-0.7850517199999998,6.113361110002449e-05,-2.35580594,9.001659099999632e-05,1.57099752,0.7860036100000001,0.04,0.0399999995,-9.819481799999995,0.0021904317429296996,0.0011927202099982499,-7.450832100008811e-05,-0.008642964344473345,-0.00032976637500031064
0.1675,0.0001593288554999918,-0.7850429849999999,6.227319330002391e-05,-2.35581308,8.984602399999643e-05,1.57099842,0.7860038970000001,0.04,0.03999999975,-9.819282999999997,0.0022287710104144055,0.0011271873499991377,-7.835607950007257e-05,-0.008714723400772768,-0.0003436272890002717
0.17,0.0001588663919999882,-0.7850345399999998,6.362079120003433e-05,-2.35581962,8.964470599999487e-05,1.57099968,0.786004188,0.04,0.039999999,-9.819144999999997,0.002270235307515636,0.001078582099998762,-8.24473280001042e-05,-0.008784016594292425,-0.00035894039600039006
0.17250000000000001,0.00015840392849998463,-0.7850260949999998,6.496838910004475e-05,-2.35582616,8.944338799999332e-05,1.57100094,0.786004479,0.04,0.03999999825,-9.819006999999996,0.0023116996046168665,0.001029976849998386,-8.653857650013584e-05,-0.008853309787812081,-0.00037425350300050844
0.17500000000000002,0.00015794146499998108,-0.7850176499999997,6.631598700005516e-05,-2.3558327,8.924206999999176e-05,1.5710022,0.78600477,0.04,0.0399999975,-9.818868999999994,0.002353163901718097,0.0009813715999980105,-9.062982500016747e-05,-0.008922602981331736,-0.0003895666100006268
0.1775,0.0001574790014999775,-0.7850092049999996,6.766358490006558e-05,-2.3558392400000003,8.90407519999902e-05,1.57100346,0.786005061,0.04,0.03999999675,-9.818730999999994,0.002394628198819327,0.0009327663499976351,-9.472107350019905e-05,-0.008991896174851391,-0.00040487971700074504
0.18,0.00015701653799997392,-0.7850007599999995,6.901118280007599e-05,-2.35584578,8.883943399998865e-05,1.57100472,0.786005352,0.04,0.039999996,-9.818592999999993,0.0024360924959205576,0.0008841610999972593,-9.88123220002307e-05,-0.009061189368371048,-0.0004201928240008635
0.1825,0.00015655407449997034,-0.7849923149999994,7.035878070008641e-05,-2.3558523200000003,8.86381159999871e-05,1.57100598,0.786005643,0.04,0.03999999525,-9.818454999999991,0.0024775567930217885,0.0008355558499968836,-0.00010290357050026232,-0.009130482561890703,-0.00043550593100098186
0.185,0.0001560095669999606,-0.7849840899999995,7.194851640011514e-05,-2.3558587900000005,8.84006834999828e-05,1.57100755,0.7860059300000001,0.04,0.039999994500000004,-9.818237899999984,0.00251683818642303,0.0007840801699964391,-0.00010719055100029511,-0.009193565882746398,-0.0004525138300012017
0.1875,0.00015542403749996007,-0.7849759749999995,7.36593210001167e-05,-2.3558652250000005,8.814519374998257e-05,1.571009275,0.786006215,0.04,0.039999993750000004,-9.817981249999983,0.002555028127974605,0.0007311692749963908,-0.0001115753975002991,-0.009253544267271041,-0.000470369125001218
0.19,0.00015483850799995953,-0.7849678599999994,7.537012560011826e-05,-2.3558716600000005,8.788970399998235e-05,1.5710110000000002,0.7860065,0.04,0.039999993000000005,-9.817724599999982,0.0025932180695261795,0.0006782583799963427,-0.0001159602440003031,-0.009313522651795686,-0.0004882244200012342
0.1925,0.000154252978499959,-0.7849597449999994,7.708093020011981e-05,-2.3558780950000004,8.76342142499821e-05,1.571012725,0.786006785,0.04,0.03999999225,-9.817467949999983,0.0026314080110777546,0.0006253474849962945,-0.00012034509050030709,-0.00937350103632033,-0.0005060797150012505
0.195,0.00015366744899995846,-0.7849516299999993,7.879173480012137e-05,-2.3558845300000004,8.737872449998187e-05,1.57101445,0.78600707,0.04,0.0399999915,-9.817211299999983,0.0026695979526293293,0.0005724365899962464,-0.00012472993700031107,-0.009433479420844975,-0.0005239350100012667
0.1975,0.00015308191949995792,-0.7849435149999994,8.050253940012293e-05,-2.3558909650000004,8.712323474998165e-05,1.571016175,0.7860073550000001,0.04,0.03999999075,-9.816954649999982,0.002707787894180904,0.0005195256949961982,-0.00012911478350031508,-0.009493457805369619,-0.000541790305001283
0.2,0.00015249638999994714,-0.7849353999999994,8.22133440001548e-05,-2.3558974000000004,8.686774499997659e-05,1.5710179000000002,0.78600764,0.04,0.03999999,-9.81669799999999,0.0027459778357322843,0.00046661479999739777,-0.00013349963000034074,-0.00955343618989392,-0.0005596456000015166
0.2025,0.00015177004049995145,-0.7849275609999994,8.434069065014222e-05,-2.3559037000000003,8.65461331499785e-05,1.5710197600000002,0.7860079265000001,0.04,0.0399999915,-9.816551299999992,0.002781491889620684,0.00043085194999760917,-0.00013818230750031307,-0.009608708834279285,-0.0005804883355013934
0.20500000000000002,0.00015104369099995572,-0.7849197219999995,8.646803730012965e-05,-2.35591,8.62245212999804e-05,1.5710216200000002,0.786008213,0.04,0.039999993,-9.816404599999991,0.0028170059435090843,0.0003950890999978205,-0.00014286498500028536,-0.009663981478664648,-0.0006013310710012702
0.20750000000000002,0.00015031734149996003,-0.7849118829999996,8.859538395011708e-05,-2.3559163000000005,8.59029094499823e-05,1.57102348,0.7860084995,0.04,0.0399999945,-9.816257899999993,0.0028525199973974845,0.0003593262499980319,-0.00014754766250025769,-0.009719254123050011,-0.000622173806501147
0.21,0.00014959099199996433,-0.7849040439999996,9.072273060010448e-05,-2.3559226000000004,8.558129759998421e-05,1.57102534,0.786008786,0.04,0.039999996,-9.816111199999993,0.002888034051285884,0.0003235633999982437,-0.00015223034000022995,-0.009774526767435374,-0.0006430165420010235
0.2125,0.0001488646424999686,-0.7848962049999997,9.28500772500919e-05,-2.3559289000000003,8.525968574998611e-05,1.5710272,0.7860090725,0.04,0.0399999975,-9.815964499999994,0.002923548105174284,0.0002878005499984551,-0.00015691301750020228,-0.009829799411820737,-0.0006638592775009003
0.215,0.00014813829299997291,-0.7848883659999998,9.497742390007933e-05,-2.3559352000000002,8.493807389998801e-05,1.57102906,0.7860093589999999,0.04,0.039999999,-9.815817799999996,0.002959062159062684,0.00025203769999866644,-0.0001615956950001746,-0.009885072056206102,-0.0006847020130007771
0.2175,0.00014735886199996617,-0.7848805829999997,9.726197925009928e-05,-2.3559414000000003,8.459255719998498e-05,1.5710311100000003,0.7860097404999999,0.04,0.04,-9.815671599999995,0.002995261398611085,0.00022138018199921897,-0.00016639063000019173,-0.009939294774087231,-0.0007063728815008911
0.22,0.00014647326799995328,-0.7848729119999996,9.98609520001371e-05,-2.3559474000000002,8.419923079997925e-05,1.5710335400000002,0.7860103119999999,0.04,0.04,-9.815526399999992,0.0030328310094792817,0.0002009333279989214,-0.00017141008000026478,-0.00999141763896021,-0.0007297000160012305
0.2225,0.0001455876739999404,-0.7848652409999995,0.00010245992475017492,-2.3559534,8.380590439997353e-05,1.5710359700000003,0.7860108835,0.04,0.04,-9.81538119999999,0.0030704006203474783,0.00018048647399862385,-0.00017642953000033783,-0.010043540503833189,-0.0007530271505015699
0.225,0.00014470207999992752,-0.7848575699999993,0.00010505889750021275,-2.3559594000000006,8.34125779999678e-05,1.5710384000000002,0.786011455,0.04,0.04,-9.815235999999988,0.0031079702312156753,0.00016003961999832628,-0.0001814489800004109,-0.010095663368706168,-0.0007763542850019095
0.2275,0.00014381648599991464,-0.7848498989999992,0.00010765787025025057,-2.3559654000000005,8.301925159996208e-05,1.5710408300000003,0.7860120265,0.04,0.04,-9.815090799999986,0.003145539842083872,0.00013959276599802872,-0.00018646843000048391,-0.010147786233579145,-0.0007996814195022489
0.23,0.00014293089199990175,-0.7848422279999991,0.00011025684300028839,-2.3559714000000005,8.262592519995635e-05,1.5710432600000004,0.786012598,0.04,0.04,-9.814945599999984,0.0031831094529520686,0.00011914591199773116,-0.00019148788000055697,-0.010199909098452123,-0.0008230085540025885
0.2325,0.00014204529799988886,-0.784834556999999,0.0001128558157503262,-2.3559774000000004,8.223259879995063e-05,1.5710456900000003,0.7860131695000001,0.04,0.04,-9.814800399999982,0.0032206790638202656,9.86990579974336e-05,-0.00019650733000063002,-0.010252031963325102,-0.0008463356885029279
0.23500000000000001,0.00014104097499986553,-0.784826939999999,0.00011580700200039537,-2.3559831500000006,8.178510159994e-05,1.5710485000000003,0.786013744,0.04,0.04,-9.814635799999978,0.0032549721421714483,7.515516099682768e-05,-0.00020254126000082698,-0.010300482995813993,-0.0008716015300033168
0.23750000000000002,0.00013997728749987181,-0.784819349999999,0.00011893429500037689,-2.3559887750000006,8.13105189999428e-05,1.5710515000000003,0.78601432,0.04,0.04,-9.814461499999979,0.0032876269542650854,5.0062742496975995e-05,-0.00020908243000078831,-0.010347098112111918,-0.0008978367250031617
0.24,0.00013891359999987813,-0.7848117599999991,0.00012206158800035837,-2.3559944000000006,8.083593639994561e-05,1.5710545000000002,0.7860148960000001,0.04,0.04,-9.81428719999998,0.003320281766358722,2.4970323997124594e-05,-0.00021562360000074957,-0.010393713228409842,-0.0009240719200030063
0.2425,0.0001378499124998844,-0.7848041699999991,0.00012518888100033988,-2.3560000250000006,8.036135379994842e-05,1.5710575000000002,0.786015472,0.04,0.04,-9.814112899999982,0.003352936578452359,-1.2209450272709205e-07,-0.0002221647700007109,-0.010440328344707766,-0.0009503071150028513
0.245,0.0001367862249998907,-0.7847965799999992,0.0001283161740003214,-2.3560056500000006,7.988677119995123e-05,1.5710605000000002,0.786016048,0.04,0.04,-9.813938599999982,0.003385591390545996,-2.5214513002578778e-05,-0.00022870594000067224,-0.01048694346100569,-0.0009765423100026962
0.2475,0.00013572253749989698,-0.7847889899999992,0.00013144346700030293,-2.3560112750000006,7.941218859995403e-05,1.5710635000000002,0.786016624,0.04,0.04,-9.813764299999983,0.003418246202639633,-5.030693150243045e-05,-0.00023524711000063358,-0.010533558577303615,-0.0010027775050025411
0.25,0.0001346588499998853,-0.7847813999999993,0.00013457076000033776,-2.3560169000000006,7.893760599994897e-05,1.5710665000000001,0.7860172,0.04,0.04,-9.813589999999982,0.003450901014733161,-7.539935000147913e-05,-0.00024178828000061611,-0.010580173693601043,-0.001029012700002617
0.2525,0.00013339770399988416,-0.7847738249999993,0.00013828435050034115,-2.3560223750000007,7.837652859994846e-05,1.5710700700000002,0.7860177700000001,0.04,0.03999999925,-9.813403399999983,0.00348235917045089,-9.166257350149394e-05,-0.00024856252300062227,-0.01062133722007651,-0.001057787080002643
0.255,0.000132136557999883,-0.7847662499999992,0.0001419979410003445,-2.3560278500000007,7.781545119994794e-05,1.5710736400000003,0.78601834,0.04,0.0399999985,-9.813216799999982,0.0035138173261686184,-0.00010792579700150874,-0.00025533676600062843,-0.010662500746551978,-0.0010865614600026694
0.2575,0.00013087541199988185,-0.7847586749999993,0.00014571153150034789,-2.3560333250000007,7.725437379994743e-05,1.5710772100000003,0.78601891,0.04,0.03999999775,-9.813030199999982,0.003545275481886347,-0.00012418902050152355,-0.0002621110090006346,-0.010703664273027446,-0.0011153358400026955
0.26,0.00012961426599988071,-0.7847510999999993,0.00014942512200035127,-2.3560388000000008,7.669329639994692e-05,1.5710807800000004,0.78601948,0.04,0.039999997,-9.812843599999981,0.0035767336376040758,-0.00014045224400153832,-0.00026888525200064074,-0.010744827799502914,-0.0011441102200027218
0.2625,0.00012835311999987955,-0.7847435249999992,0.00015313871250035465,-2.3560442750000004,7.613221899994641e-05,1.5710843500000005,0.78602005,0.04,0.03999999625,-9.812656999999982,0.0036081917933218043,-0.00015671546750155313,-0.00027565949500064696,-0.010785991325978381,-0.001172884600002748
0.265,0.0001270919739998784,-0.7847359499999993,0.00015685230300035803,-2.3560497500000004,7.55711415999459e-05,1.5710879200000003,0.7860206200000001,0.04,0.0399999955,-9.812470399999981,0.003639649949039533,-0.00017297869100156793,-0.0002824337380006531,-0.010827154852453849,-0.0012016589800027742
0.2675,0.00012575846424985276,-0.7847283549999993,0.00016078103600043414,-2.3560552000000006,7.497732549993434e-05,1.5710917200000005,0.786021285,0.04,0.039999995,-9.812294099999985,0.003669022663964565,-0.00018605813900066846,-0.00028928031150069627,-0.010866922838617057,-0.0012314845550031798
0.27,0.00012428022699984134,-0.7847207199999992,0.00016514005400046784,-2.3560606000000006,7.431803199992924e-05,1.5710959800000004,0.78602214,0.04,0.039999995,-9.812138399999982,0.0036942244973060248,-0.00019277003600072038,-0.00029627154600075033,-0.010903899744156969,-0.0012634125200034268
0.2725,0.0001228019897498299,-0.7847130849999991,0.00016949907200050155,-2.3560660000000007,7.365873849992414e-05,1.5711002400000005,0.7860229950000001,0.04,0.039999995,-9.811982699999982,0.0037194263306474847,-0.00019948193300077226,-0.0003032627805008044,-0.01094087664969688,-0.0012953404850036736
0.275,0.00012132375249981848,-0.7847054499999991,0.00017385809000053525,-2.3560714000000007,7.299944499991904e-05,1.5711045000000006,0.7860238500000001,0.04,0.039999995,-9.811826999999981,0.0037446281639889447,-0.00020619383000082417,-0.00031025401500085845,-0.01097785355523679,-0.0013272684500039203
0.2775,0.00011984551524980706,-0.784697814999999,0.00017821710800056896,-2.3560768000000007,7.234015149991395e-05,1.5711087600000007,0.7860247050000001,0.04,0.039999995,-9.81167129999998,0.003769829997330404,-0.00021290572700087605,-0.0003172452495009125,-0.011014830460776701,-0.0013591964150041673
0.28,0.00011836727799979563,-0.784690179999999,0.00018257612600060263,-2.356082200000001,7.168085799990885e-05,1.5711130200000005,0.7860255600000001,0.04,0.039999995,-9.811515599999979,0.003795031830671864,-0.00021961762400092794,-0.0003242364840009666,-0.011051807366316613,-0.001391124380004414
0.28250000000000003,0.0001168890407497842,-0.7846825449999989,0.00018693514400063634,-2.356087600000001,7.102156449990375e-05,1.5711172800000006,0.7860264150000001,0.04,0.039999995,-9.811359899999978,0.003820233664013324,-0.00022632952100097985,-0.00033122771850102063,-0.011088784271856523,-0.001423052345004661
0.28500000000000003,0.00011525274949975194,-0.784674844999999,0.00019176444700073244,-2.3560930200000008,7.029084599988915e-05,1.5711221100000008,0.786027274,0.04,0.039999995,-9.81121109999998,0.0038431343389705754,-0.00023071701100046645,-0.00033917077100121753,-0.011123112589125583,-0.0014569546600050457
0.28750000000000003,0.00011353743124976206,-0.784667112499999,0.0001968288925007025,-2.3560984500000006,6.95244149998937e-05,1.5711272250000006,0.7860281350000001,0.04,0.039999995,-9.81106574999998,0.003864884434736492,-0.0002339422975004474,-0.0003475897325011678,-0.011156116612260103,-0.0014918441500048397
0.29,0.00011182211299977225,-0.784659379999999,0.00020189333800067245,-2.356103880000001,6.875798399989824e-05,1.5711323400000006,0.7860289960000001,0.04,0.039999995,-9.810920399999981,0.0038866345305024076,-0.00023716758400042824,-0.00035600869400111786,-0.011189120635394623,-0.0015267336400046326
0.2925,0.00011010679474978239,-0.784651647499999,0.0002069577835006425,-2.356109310000001,6.799155299990277e-05,1.5711374550000006,0.7860298570000002,0.04,0.039999995,-9.810775049999982,0.0039083846262683245,-0.0002403928705004092,-0.0003644276555010681,-0.011222124658529143,-0.0015616231300044263
0.295,0.00010839147649979252,-0.7846439149999991,0.00021202222900061258,-2.3561147400000007,6.72251219999073e-05,1.5711425700000006,0.7860307180000001,0.04,0.039999995,-9.810629699999984,0.003930134722034241,-0.00024361815700039012,-0.00037284661700101834,-0.011255128681663663,-0.00159651262000422
0.2975,0.00010667615824980266,-0.7846361824999991,0.00021708667450058265,-2.3561201700000005,6.645869099991182e-05,1.5711476850000006,0.7860315790000001,0.04,0.039999995,-9.810484349999983,0.003951884817800157,-0.00024684344350037104,-0.0003812655785009686,-0.011288132704798181,-0.0016314021100040138
0.3,0.00010496083999978472,-0.7846284499999991,0.00022215112000063632,-2.3561256000000004,6.569225999990365e-05,1.5711528000000006,0.7860324400000002,0.04,0.039999995,-9.810338999999985,0.003973634913565461,-0.0002500687299995509,-0.00038968454000093265,-0.011321136727932262,-0.001666291600004135
0.3025,0.00010298824699978293,-0.7846204774999992,0.00022798169650064162,-2.3561311350000005,6.480947594990286e-05,1.5711586650000007,0.7860335845000002,0.04,0.039999995,-9.810198749999985,0.003989777271637581,-0.0002459540184995472,-0.00039823025900094045,-0.011350109195339868,-0.0017041807600041696
0.305,0.00010101565399978114,-0.7846125049999991,0.00023381227300064693,-2.3561366700000006,6.392669189990205e-05,1.5711645300000006,0.7860347290000002,0.04,0.039999995,-9.810058499999986,0.004005919629709701,-0.00024183930699954345,-0.0004067759780009482,-0.011379081662747474,-0.001742069920004204
0.3075,9.904306099977933e-05,-0.7846045324999991,0.00023964284950065223,-2.3561422050000007,6.304390784990125e-05,1.5711703950000007,0.7860358735000001,0.04,0.039999995,-9.809918249999985,0.00402206198778182,-0.0002377245954995397,-0.000415321697000956,-0.01140805413015508,-0.0017799590800042385
0.31,9.707046799977754e-05,-0.7845965599999991,0.00024547342600065756,-2.3561477400000004,6.216112379990044e-05,1.5711762600000008,0.7860370180000001,0.04,0.039999995,-9.809777999999985,0.00403820434585394,-0.00023360988399953597,-0.00042386741600096374,-0.011437026597562688,-0.0018178482400042731
0.3125,9.509787499977575e-05,-0.784588587499999,0.00025130400250066286,-2.3561532750000005,6.127833974989965e-05,1.5711821250000007,0.7860381625000001,0.04,0.039999995,-9.809637749999984,0.00405434670392606,-0.0002294951724995322,-0.00043241313500097154,-0.011465999064970294,-0.0018557374000043076
0.315,9.312528199977396e-05,-0.7845806149999991,0.00025713457900066817,-2.3561588100000006,6.039555569989884e-05,1.5711879900000008,0.7860393070000001,0.04,0.039999995,-9.809497499999985,0.00407048906199818,-0.00022538046099952847,-0.0004409588540009793,-0.0114949715323779,-0.001893626560004342
0.3175,9.106014424974008e-05,-0.784572548499999,0.00026324096350076906,-2.3561644000000004,5.947004719988323e-05,1.5711941300000007,0.7860404515000001,0.04,0.03999999525,-9.809361649999985,0.004084326908924741,-0.00022121002149950541,-0.0004499760050011504,-0.011522968718785033,-0.0019325992850047521
0.32,8.880991699973803e-05,-0.784564293999999,0.0002698989640007751,-2.3561701000000004,5.845908979988231e-05,1.571200820000001,0.7860415960000001,0.04,0.039999996,-9.809234599999986,0.004093555733562574,-0.00021692812599950152,-0.0004599360200011595,-0.011549015343192233,-0.0019737391400047894
0.3225,8.655968974973599e-05,-0.784556039499999,0.0002765569645007812,-2.356175800000001,5.7448132399881385e-05,1.571207510000001,0.7860427405000001,0.04,0.03999999675,-9.809107549999986,0.004102784558200408,-0.00021264623049949762,-0.0004698960350011686,-0.01157506196759943,-0.002014878995004827
0.325,8.430946249973394e-05,-0.784547784999999,0.00028321496500078723,-2.356181500000001,5.643717499988047e-05,1.571214200000001,0.7860438850000001,0.04,0.0399999975,-9.808980499999986,0.0041120133828382414,-0.00020836433499949372,-0.00047985605000117764,-0.01160110859200663,-0.0020560188500048644
0.3275,8.20592352497319e-05,-0.784539530499999,0.0002898729655007933,-2.356187200000001,5.542621759987954e-05,1.5712208900000009,0.7860450295000001,0.04,0.03999999825,-9.808853449999985,0.004121242207476074,-0.00020408243949948982,-0.0004898160650011867,-0.011627155216413828,-0.002097158705004902
0.33,7.980900799972985e-05,-0.7845312759999991,0.00029653096600079935,-2.356192900000001,5.4415260199878625e-05,1.5712275800000008,0.7860461740000001,0.04,0.039999999,-9.808726399999985,0.004130471032113908,-0.00019980054399948592,-0.0004997760800011958,-0.011653201840821028,-0.0021382985600049394
0.3325,7.755878074972779e-05,-0.784523021499999,0.0003031889665008054,-2.356198600000001,5.340430279987771e-05,1.5712342700000008,0.7860473185000002,0.04,0.03999999975,-9.808599349999986,0.004139699856751741,-0.00019551864849948203,-0.0005097360950012049,-0.011679248465228225,-0.002179438415004977
0.335,7.5109789999701e-05,-0.7845145529999991,0.0003104396330008855,-2.356204520000001,5.230350699986557e-05,1.5712415800000008,0.7860486530000002,0.04,0.04,-9.808478199999987,0.004146018810570771,-0.00018727555899880044,-0.0005196841970011665,-0.01170361619442975,-0.0022224446900051555
0.3375,7.256141749971606e-05,-0.7845059774999991,0.0003179866325008409,-2.3562105500000006,5.115779199987234e-05,1.571249200000001,0.7860500825000002,0.04,0.04,-9.808359999999988,0.004150882828981192,-0.00017705187249886088,-0.0005296263425011078,-0.011727144476028897,-0.0022663841750048958
0.34,7.001304499973112e-05,-0.7844974019999991,0.0003255336320007963,-2.3562165800000003,5.001207699987912e-05,1.5712568200000008,0.7860515120000002,0.04,0.04,-9.808241799999989,0.004155746847391613,-0.00016682818599892128,-0.000539568488001049,-0.011750672757628042,-0.0023103236600046364
0.3425,6.746467249974619e-05,-0.7844888264999992,0.0003330806315007517,-2.3562226100000006,4.886636199988589e-05,1.5712644400000007,0.7860529415000002,0.04,0.04,-9.80812359999999,0.004160610865802035,-0.00015660449949898172,-0.0005495106335009903,-0.011774201039227189,-0.0023542631450043767
0.34500000000000003,6.491629999976125e-05,-0.7844802509999992,0.00034062763100070707,-2.3562286400000003,4.772064699989266e-05,1.5712720600000007,0.7860543710000002,0.04,0.04,-9.80800539999999,0.004165474884212456,-0.00014638081299904216,-0.0005594527790009315,-0.011797729320826334,-0.002398202630004117
0.34750000000000003,6.23679274997763e-05,-0.7844716754999992,0.00034817463050066245,-2.3562346700000005,4.6574931999899435e-05,1.5712796800000006,0.7860558005000001,0.04,0.04,-9.80788719999999,0.0041703389026228775,-0.0001361571264991026,-0.0005693949245008728,-0.011821257602425481,-0.002442142115003857
0.35000000000000003,5.981955499976528e-05,-0.7844630999999992,0.0003557216300006957,-2.3562407000000003,4.542921699989451e-05,1.5712873000000007,0.7860572300000002,0.04,0.04,-9.807768999999992,0.0041752029210326905,-0.00012593343999902127,-0.0005793370700009174,-0.01184478588402444,-0.0024860816000038376
0.3525,5.695245244974318e-05,-0.7844540699999991,0.00036421953500076124,-2.3562470000000006,4.414061394988457e-05,1.5712958650000008,0.7860586955000002,0.04,0.04,-9.807666399999992,0.004172639595344416,-0.0001139783312489291,-0.0005905424690010037,-0.011866028420629003,-0.002532955760004199
0.355,5.408534989972101e-05,-0.7844450399999991,0.00037271744000082695,-2.3562533000000006,4.2852010899874606e-05,1.571304430000001,0.7860601610000002,0.04,0.04,-9.80756379999999,0.004170076269656141,-0.00010202322249883667,-0.0006017478680010904,-0.011887270957233567,-0.0025798299200045613
0.3575,5.121824734969884e-05,-0.7844360099999991,0.0003812153450008926,-2.3562596000000005,4.156340784986465e-05,1.5713129950000009,0.7860616265000001,0.04,0.04,-9.80746119999999,0.0041675129439678665,-9.006811374874423e-05,-0.0006129532670011771,-0.011908513493838133,-0.002626704080004924
0.36,4.8351144799676676e-05,-0.784426979999999,0.00038971325000095833,-2.356265900000001,4.027480479985468e-05,1.571321560000001,0.7860630920000001,0.04,0.04,-9.807358599999988,0.004164949618279591,-7.811300499865179e-05,-0.0006241586660012637,-0.011929756030442697,-0.0026735782400052863
0.3625,4.5484042249654506e-05,-0.7844179499999989,0.00039821115500102405,-2.3562722000000007,3.898620174984472e-05,1.5713301250000011,0.7860645575000001,0.04,0.04,-9.807255999999988,0.004162386292591316,-6.615789624855937e-05,-0.0006353640650013504,-0.01195099856704726,-0.0027204524000056483
0.365,4.2616939699632343e-05,-0.7844089199999988,0.0004067090600010897,-2.3562785000000006,3.769759869983475e-05,1.5713386900000013,0.7860660230000002,0.04,0.04,-9.807153399999988,0.004159822966903042,-5.420278749846693e-05,-0.0006465694640014369,-0.011972241103651825,-0.002767326560006011
0.3675,3.9636730999571324e-05,-0.7843997449999988,0.00041554460350127153,-2.356284820000001,3.635779784980719e-05,1.5713475950000013,0.7860675725000001,0.04,0.04,-9.807049599999987,0.004154004994778093,-4.284649599864186e-05,-0.0006578130300015135,-0.011992848897355355,-0.0028152593700066916
0.37,3.64303099995684e-05,-0.7843902799999988,0.0004250554240012802,-2.356291180000001,3.491560139980588e-05,1.5713571800000015,0.7860692900000001,0.04,0.04,-9.806943399999986,0.004141677729783701,-3.268783899863261e-05,-0.0006691329300015237,-0.012012187205257584,-0.002865309480006737
0.3725,3.322388899956549e-05,-0.7843808149999988,0.00043456624450128884,-2.356297540000001,3.347340494980456e-05,1.5713667650000014,0.7860710075000003,0.04,0.04,-9.806837199999986,0.00412935046478931,-2.2529181998623367e-05,-0.000680452830001534,-0.012031525513159811,-0.0029153595900067823
0.375,3.0017467999562566e-05,-0.7843713499999987,0.0004440770650012975,-2.356303900000001,3.203120849980325e-05,1.5713763500000013,0.7860727250000002,0.04,0.04,-9.806730999999985,0.0041170231997949185,-1.237052499861412e-05,-0.0006917727300015444,-0.012050863821062038,-0.002965409700006828
0.3775,2.6811046999559648e-05,-0.7843618849999987,0.00045358788550130616,-2.3563102600000008,3.058901204980193e-05,1.5713859350000015,0.7860744425000002,0.04,0.04,-9.806624799999986,0.004104695934800527,-2.2118679986048663e-06,-0.0007030926300015546,-0.012070202128964267,-0.0030154598100068735
0.38,2.3604625999556726e-05,-0.7843524199999987,0.0004630987060013148,-2.3563166200000007,2.9146815599800623e-05,1.5713955200000014,0.7860761600000002,0.04,0.04,-9.806518599999984,0.004092368669806136,7.94678900140438e-06,-0.0007144125300015649,-0.012089540436866494,-0.0030655099200069193
0.3825,2.0398204999553808e-05,-0.7843429549999987,0.00047260952650132347,-2.3563229800000007,2.7704619149799313e-05,1.5714051050000015,0.7860778775000002,0.04,0.04,-9.806412399999985,0.004080041404811745,1.810544600141362e-05,-0.0007257324300015752,-0.01210887874476872,-0.0031155600300069647
0.385,1.6951830519516692e-05,-0.7843331169999986,0.0004828369450014346,-2.3563294200000007,2.6154587499782635e-05,1.5714154300000016,0.7860797450000002,0.04,0.0399999995,-9.806280399999979,0.004063198203218312,3.142040190201829e-05,-0.0007377330220016724,-0.012125836778434186,-0.0031675664400071806
0.3875,1.3385479299537774e-05,-0.7843230924999988,0.000493422662501372,-2.356335900000001,2.4550638249792116e-05,1.5714261250000015,0.7860816875000003,0.04,0.03999999875,-9.80613549999998,0.0040440970333267745,4.6313507251930254e-05,-0.0007500739600015995,-0.012141604674982018,-0.0032205510000068672
0.39,9.819128079558854e-06,-0.7843130679999988,0.0005040083800013094,-2.356342380000001,2.2946688999801596e-05,1.5714368200000013,0.7860836300000003,0.04,0.039999998,-9.805990599999982,0.004024995863435237,6.120661260184223e-05,-0.0007624148980015265,-0.01215737257152985,-0.003273535560006554
0.3925,6.252776859579934e-06,-0.7843030434999988,0.0005145940975012468,-2.3563488600000007,2.1342739749811076e-05,1.5714475150000013,0.7860855725000002,0.04,0.03999999725,-9.805845699999983,0.0040058946935437,7.609971795175419e-05,-0.0007747558360014536,-0.012173140468077681,-0.003326520120006241
0.395,2.686425639601016e-06,-0.7842930189999988,0.0005251798150011843,-2.356355340000001,1.9738790499820557e-05,1.5714582100000012,0.7860875150000002,0.04,0.0399999965,-9.805700799999983,0.003986793523652163,9.099282330166617e-05,-0.0007870967740013806,-0.012188908364625514,-0.0033795046800059276
0.3975,-8.799255803779053e-07,-0.7842829944999989,0.0005357655325011218,-2.356361820000001,1.8134841249830037e-05,1.571468905000001,0.7860894575000003,0.04,0.03999999575,-9.805555899999984,0.003967692353760626,0.00010588592865157814,-0.0007994377120013077,-0.012204676261173346,-0.0034324892400056147
0.4,-4.4462768003948925e-06,-0.7842729699999988,0.0005463512500011729,-2.356368300000001,1.6530891999822133e-05,1.571479600000001,0.7860914000000002,0.04,0.039999995,-9.805410999999987,0.003948591183867564,0.000120779034001261,-0.0008117786500013203,-0.012220444157720866,-0.0034854738000056292
0.4025,-8.39309873045233e-06,-0.7842623544999987,0.0005580736825013435,-2.356375095000001,1.475316324979626e-05,1.5714914650000014,0.7860934850000002,0.04,0.03999999575,-9.805278849999985,0.00391425607958411,0.00013338227340144442,-0.0008249749225015124,-0.012233105581255206,-0.0035417369400064483
0.405,-1.2339920660509768e-05,-0.7842517389999986,0.0005697961150015141,-2.356381890000001,1.297543449977039e-05,1.5715033300000014,0.7860955700000003,0.04,0.0399999965,-9.805146699999982,0.003879920975300655,0.00014598551280162783,-0.0008381711950017044,-0.012245767004789545,-0.003598000080007267
0.40750000000000003,-1.6286742590567206e-05,-0.7842411234999984,0.0005815185475016847,-2.356388685000001,1.119770574974452e-05,1.5715151950000017,0.7860976550000003,0.04,0.03999999725,-9.805014549999981,0.0038455858710172005,0.00015858875220181123,-0.0008513674675018965,-0.012258428428323885,-0.0036542632200080856
0.41000000000000003,-2.0233564520624644e-05,-0.7842305079999983,0.0005932409800018553,-2.356395480000001,9.419976999718648e-06,1.5715270600000018,0.7860997400000004,0.04,0.039999998,-9.804882399999979,0.003811250766733746,0.00017119199160199464,-0.0008645637400020885,-0.012271089851858223,-0.003710526360008904
0.41250000000000003,-2.418038645068208e-05,-0.7842198924999981,0.0006049634125020258,-2.3564022750000015,7.642248249692778e-06,1.571538925000002,0.7861018250000004,0.04,0.03999999875,-9.804750249999977,0.0037769156624502913,0.00018379523100217805,-0.0008777600125022806,-0.012283751275392562,-0.0037667895000097233
0.41500000000000004,-2.8127208380739517e-05,-0.784209276999998,0.0006166858450021964,-2.3564090700000015,5.864519499666907e-06,1.5715507900000023,0.7861039100000003,0.04,0.0399999995,-9.804618099999974,0.0037425805581668367,0.00019639847040236146,-0.0008909562850024726,-0.012296412698926902,-0.003823052640010542
0.4175,-3.220768535084817e-05,-0.7841984349999978,0.0006288077150025206,-2.3564160800000016,4.026206149617745e-06,1.5715630500000026,0.7861060615000005,0.04,0.04,-9.804493349999978,0.0037081197951851683,0.0002121388695042946,-0.0009042854200026521,-0.012308345595376732,-0.0038802844500115427
0.42,-3.6555472400822465e-05,-0.7841871399999978,0.0006417284600024442,-2.3564235200000017,2.0667235996293275e-06,1.5715761000000024,0.7861083460000005,0.04,0.04,-9.80438339999998,0.0036734077148072933,0.00023415358800416448,-0.0009178802800025717,-0.01231882143765884,-0.0039394536000111925
0.4225,-4.090325945079677e-05,-0.7841758449999979,0.0006546492050023678,-2.3564309600000013,1.0724104964090975e-07,1.5715891500000023,0.7861106305000004,0.04,0.04,-9.804273449999979,0.0036386956344294187,0.00025616830650403437,-0.0009314751400024914,-0.012329297279940948,-0.003998622750010843
0.425,-4.5251046500771066e-05,-0.784164549999998,0.0006675699500022915,-2.3564384000000014,-1.852241500347508e-06,1.5716022000000023,0.7861129150000005,0.04,0.04,-9.80416349999998,0.003603983554051544,0.0002781830250039042,-0.000945070000002411,-0.012339773122223056,-0.004057791900010493
0.4275,-4.959883355074537e-05,-0.784153254999998,0.0006804906950022151,-2.3564458400000015,-3.8117240503359266e-06,1.5716152500000022,0.7861151995000004,0.04,0.04,-9.804053549999981,0.003569271473673669,0.0003001977435037741,-0.0009586648600023308,-0.012350248964505166,-0.004116961050010143
0.43,-5.3946620600719674e-05,-0.7841419599999981,0.0006934114400021388,-2.356453280000001,-5.771206600324344e-06,1.5716283000000022,0.7861174840000004,0.04,0.04,-9.80394359999998,0.0035345593932957944,0.000322212462003644,-0.0009722597200022504,-0.012360724806787274,-0.004176130200009794
0.4325,-5.829440765069397e-05,-0.7841306649999982,0.0007063321850020623,-2.356460720000001,-7.730689150312763e-06,1.571641350000002,0.7861197685000004,0.04,0.04,-9.803833649999982,0.0034998473129179194,0.00034422718050351384,-0.00098585458000217,-0.012371200649069382,-0.004235299350009444
0.435,-6.292309800075472e-05,-0.7841188869999981,0.0007200927400022441,-2.356468250000001,-9.816584600340097e-06,1.5716552400000021,0.7861222470000004,0.04,0.0399999995,-9.803753499999988,0.0034563035704119004,0.00036312704500274446,-0.0009999046700022594,-0.01238139066845332,-0.004296399900009822
0.4375,-6.769224000075907e-05,-0.784106867499998,0.0007342732000022571,-2.356475825000001,-1.1965686500342055e-05,1.5716695500000022,0.7861248225000005,0.04,0.03999999875,-9.80368824999999,0.0034083439968449415,0.0003804694825027602,-0.0010141823750022725,-0.012391437776388273,-0.004358466150009879
0.44,-7.24613820007634e-05,-0.7840948479999981,0.0007484536600022699,-2.356483400000001,-1.411478840034401e-05,1.5716838600000023,0.7861273980000004,0.04,0.039999998,-9.80362299999999,0.003360384423277983,0.00039781192000277603,-0.0010284600800022855,-0.012401484884323228,-0.004420532400009935
0.4425,-7.723052400076775e-05,-0.784082828499998,0.0007626341200022828,-2.356490975000001,-1.6263890300345968e-05,1.5716981700000021,0.7861299735000005,0.04,0.03999999725,-9.803557749999989,0.003312424849711024,0.0004151543575027918,-0.0010427377850022986,-0.012411531992258182,-0.004482598650009991
0.445,-8.199966600077208e-05,-0.784070808999998,0.0007768145800022958,-2.356498550000001,-1.8412992200347923e-05,1.5717124800000022,0.7861325490000005,0.04,0.0399999965,-9.803492499999988,0.0032644652761440653,0.0004324967950028076,-0.0010570154900023114,-0.012421579100193135,-0.004544664900010048
0.4475,-8.676880800077643e-05,-0.7840587894999981,0.0007909950400023087,-2.356506125000001,-2.0562094100349878e-05,1.5717267900000023,0.7861351245000004,0.04,0.03999999575,-9.80342724999999,0.003216505702577107,0.00044983923250282336,-0.0010712931950023245,-0.01243162620812809,-0.004606731150010104
0.45,-9.153795000085306e-05,-0.7840467699999979,0.0008051755000025377,-2.356513700000001,-2.271119600038464e-05,1.5717411000000026,0.7861377000000005,0.04,0.039999995,-9.803361999999979,0.0031685461290080937,0.0004671816700028332,-0.0010855709000024952,-0.012441673316062564,-0.004668797400010669
0.4525,-9.674867850089336e-05,-0.7840339644999978,0.0008206765600026576,-2.3565216950000014,-2.5060672100402805e-05,1.5717567450000025,0.7861405050000005,0.04,0.039999995,-9.803227899999976,0.003108037868504211,0.000484487645502967,-0.001100812475002613,-0.012448787875474635,-0.004733968995011173
0.455,-0.00010195940700093364,-0.7840211589999977,0.0008361776200027774,-2.3565296900000012,-2.741014820042097e-05,1.5717723900000027,0.7861433100000005,0.04,0.039999995,-9.803093799999976,0.0030475296080003282,0.0005017936210031008,-0.001116054050002731,-0.012455902434886704,-0.004799140590011677
0.4575,-0.00010717013550097393,-0.7840083534999976,0.0008516786800028973,-2.3565376850000015,-2.9759624300439135e-05,1.5717880350000029,0.7861461150000005,0.04,0.039999995,-9.802959699999974,0.002987021347496445,0.0005190995965032346,-0.0011312956250028488,-0.012463016994298774,-0.004864312185012181
0.46,-0.00011238086400101421,-0.7839955479999975,0.0008671797400030171,-2.3565456800000018,-3.21091004004573e-05,1.571803680000003,0.7861489200000006,0.04,0.039999995,-9.802825599999974,0.0029265130869925624,0.0005364055720033684,-0.0011465372000029667,-0.012470131553710845,-0.004929483780012685
0.4625,-0.00011759159250105449,-0.7839827424999974,0.000882680800003137,-2.3565536750000016,-3.4458576500475465e-05,1.5718193250000032,0.7861517250000005,0.04,0.039999995,-9.802691499999971,0.0028660048264886797,0.0005537115475035022,-0.0011617787750030845,-0.012477246113122915,-0.0049946553750131895
0.465,-0.00012280232100109477,-0.7839699369999973,0.0008981818600032568,-2.356561670000002,-3.680805260049363e-05,1.5718349700000032,0.7861545300000006,0.04,0.039999995,-9.802557399999971,0.002805496565984797,0.000571017523003636,-0.0011770203500032022,-0.012484360672534984,-0.005059826970013693
0.4675,-0.00012816693850119696,-0.7839568599999972,0.0009141432700035623,-2.356569880000002,-3.922733025053996e-05,1.5718510800000036,0.7861574150000006,0.04,0.039999995,-9.802432749999976,0.0027411289512958084,0.0005884631505037402,-0.001192498550003366,-0.012490813620389573,-0.005125985350014377
0.47000000000000003,-0.00013383933400112474,-0.7839432399999973,0.0009310253800033474,-2.3565785200000016,-4.178621100050738e-05,1.5718681200000033,0.7861604600000006,0.04,0.039999995,-9.802326999999979,0.0026690426282440865,0.0006061880820035146,-0.0012084500000031629,-0.012495943345130477,-0.0051941173000135095
0.47250000000000003,-0.00013951172950105251,-0.7839296199999974,0.0009479074900031325,-2.3565871600000015,-4.43450917504748e-05,1.5718851600000032,0.7861635050000005,0.04,0.039999995,-9.80222124999998,0.002596956305192364,0.0006239130135032888,-0.0012244014500029598,-0.012501073069871383,-0.005262249250012642
0.47500000000000003,-0.0001451841250009803,-0.7839159999999976,0.0009647896000029175,-2.3565958000000014,-4.690397250044222e-05,1.571902200000003,0.7861665500000005,0.04,0.039999995,-9.802115499999982,0.002524869982140642,0.0006416379450030631,-0.0012403529000027567,-0.012506202794612287,-0.005330381200011774
0.47750000000000004,-0.00015085652050090807,-0.7839023799999978,0.0009816717100027026,-2.3566044400000012,-4.946285325040964e-05,1.5719192400000028,0.7861695950000005,0.04,0.039999995,-9.802009749999982,0.0024527836590889198,0.0006593628765028375,-0.0012563043500025536,-0.01251133251935319,-0.005398513150010907
0.48,-0.00015652891600083572,-0.783888759999998,0.0009985538200024872,-2.356613080000001,-5.202173400037701e-05,1.5719362800000025,0.7861726400000004,0.04,0.039999995,-9.801903999999984,0.002380697336037199,0.0006770878080026114,-0.00127225580000235,-0.012516462244094096,-0.005466645100010038
0.4825,-0.0001622013115007635,-0.7838751399999981,0.0010154359300022723,-2.356621720000001,-5.458061475034442e-05,1.5719533200000024,0.7861756850000003,0.04,0.039999995,-9.801798249999985,0.002308611012985477,0.0006948127395023857,-0.001288207250002147,-0.012521591968835,-0.00553477705000917
0.485,-0.00016819474800083392,-0.783860923999998,0.001033278740002483,-2.356630470000001,-5.728611850037656e-05,1.5719713500000025,0.7861788900000004,0.04,0.0399999955,-9.80171669999999,0.002227622410270852,0.0007128952050024746,-0.0013045427100022396,-0.012526239734143527,-0.005604937280009645
0.4875,-0.00017434870500088152,-0.7838464099999979,0.0010516019000026246,-2.3566392750000014,-6.006493375039804e-05,1.5719898750000028,0.7861821750000004,0.04,0.03999999625,-9.80164724999999,0.0021421826677273867,0.0007311564375026158,-0.0013210701750023673,-0.012530646519736007,-0.005676111650010195
0.49,-0.0001805026620009291,-0.7838318959999978,0.0010699250600027664,-2.356648080000001,-6.284374900041953e-05,1.572008400000003,0.7861854600000004,0.04,0.039999997,-9.801577799999988,0.002056742925183921,0.0007494176700027569,-0.0013375976400024953,-0.012535053305328486,-0.0057472860200107456
0.4925,-0.00018665661900097667,-0.7838173819999977,0.001088248220002908,-2.3566568850000014,-6.562256425044101e-05,1.572026925000003,0.7861887450000005,0.04,0.03999999775,-9.801508349999988,0.0019713031826404555,0.0007676789025028981,-0.001354125105002623,-0.012539460090920964,-0.005818460390011295
0.495,-0.00019281057600102424,-0.7838028679999977,0.0011065713800030496,-2.356665690000001,-6.840137950046249e-05,1.5720454500000032,0.7861920300000005,0.04,0.0399999985,-9.801438899999988,0.0018858634400969899,0.0007859401350030393,-0.001370652570002751,-0.012543866876513444,-0.0058896347600118455
0.4975,-0.00019896453300107181,-0.7837883539999975,0.0011248945400031912,-2.3566744950000014,-7.118019475048397e-05,1.5720639750000034,0.7861953150000005,0.04,0.03999999925,-9.801369449999987,0.0018004236975535243,0.0008042013675031805,-0.0013871800350028786,-0.012548273662105923,-0.005960809130012396
0.5,-0.0002051184900012106,-0.7837738399999973,0.0011432177000036058,-2.3566833000000016,-7.395901000054683e-05,1.5720825000000036,0.7861986000000006,0.04,0.04,-9.801299999999975,0.0017149839550081745,0.0008224626000030422,-0.0014037075000031328,-0.012552680447697834,-0.006031983500013451
0.5025000000000001,-0.00021177375150121679,-0.7837583989999972,0.0011630411450036244,-2.356693050000002,-7.696525600054964e-05,1.5721024800000036,0.7862021610000006,0.04,0.04,-9.801163199999975,0.0016191863454702552,0.0008391869400030577,-0.0014209293300031488,-0.01255396413616855,-0.00610593242001352
0.505,-0.0002184290130012227,-0.7837429579999972,0.001182864590003642,-2.3567028000000017,-7.99715020005523e-05,1.5721224600000037,0.7862057220000006,0.04,0.04,-9.801026399999975,0.0015233887359323401,0.0008559112800030726,-0.001438151160003164,-0.012555247824639265,-0.006179881340013586
0.5075000000000001,-0.00022508427450122892,-0.7837275169999972,0.0012026880350036605,-2.356712550000002,-8.29777480005551e-05,1.5721424400000037,0.7862092830000007,0.04,0.04,-9.800889599999975,0.0014275911263944207,0.0008726356200030882,-0.00145537299000318,-0.01255653151310998,-0.006253830260013655
0.51,-0.00023173953600123484,-0.7837120759999971,0.001222511480003678,-2.3567223000000017,-8.598399400055779e-05,1.5721624200000037,0.7862128440000007,0.04,0.04,-9.800752799999975,0.0013317935168565057,0.000889359960003103,-0.0014725948200031954,-0.012557815201580698,-0.0063277791800137205
0.5125,-0.00023839479750124075,-0.7836966349999971,0.0012423349250036955,-2.356732050000002,-8.899024000056045e-05,1.5721824000000038,0.7862164050000007,0.04,0.04,-9.800615999999975,0.0012359959073185906,0.0009060843000031179,-0.0014898166500032107,-0.012559098890051414,-0.006401728100013786
0.515,-0.00024505005900124694,-0.783681193999997,0.001262158370003714,-2.3567418000000018,-9.199648600056326e-05,1.5722023800000038,0.7862199660000007,0.04,0.04,-9.800479199999975,0.0011401982977806713,0.0009228086400031335,-0.0015070384800032269,-0.01256038257852213,-0.006475677020013855
0.5175,-0.0002518789125013346,-0.7836653999999968,0.0012825014700039766,-2.356751615000002,-9.508147425060302e-05,1.572222900000004,0.7862236215000007,0.04,0.04,-9.800375999999993,0.0010397652163897477,0.0009400770350034139,-0.0015244862350033289,-0.012561906082555942,-0.006550579085014285
0.52,-0.00025905495000129236,-0.783648899999997,0.0013038838800038506,-2.3567615600000016,-9.832394700058392e-05,1.572244500000004,0.7862274660000007,0.04,0.04,-9.800339999999993,0.0009300611913006438,0.0009584335400033058,-0.0015423858400032235,-0.01256390921771554,-0.006627387440013832
0.5225,-0.0002662309875012498,-0.7836323999999971,0.0013252662900037238,-2.3567715050000015,-0.00010156641975056469,1.5722661000000038,0.7862313105000007,0.04,0.04,-9.800303999999993,0.0008203571662115446,0.0009767900450031969,-0.0015602854450031175,-0.012565912352875139,-0.006704195795013377
0.525,-0.0002734070250012075,-0.7836158999999971,0.0013466487000035978,-2.3567814500000015,-0.0001048088925005456,1.5722877000000037,0.7862351550000006,0.04,0.04,-9.800267999999994,0.0007106531411224407,0.0009951465500030888,-0.001578185050003012,-0.012567915488034737,-0.006781004150012924
0.5275,-0.00028058306250116494,-0.7835993999999973,0.0013680311100034712,-2.3567913950000015,-0.00010805136525052636,1.5723093000000035,0.7862389995000006,0.04,0.04,-9.800231999999994,0.0006009491160333415,0.0010135030550029798,-0.0015960846550029059,-0.012569918623194336,-0.006857812505012469
0.53,-0.0002877591000011227,-0.7835828999999974,0.0013894135200033452,-2.3568013400000014,-0.00011129383800050728,1.5723309000000034,0.7862428440000007,0.04,0.04,-9.800195999999994,0.0004912450909442375,0.0010318595600028718,-0.0016139842600028003,-0.012571921758353933,-0.006934620860012016
0.5325,-0.0002949351375010801,-0.7835663999999976,0.0014107959300032184,-2.3568112850000014,-0.00011453631075048803,1.5723525000000034,0.7862466885000006,0.04,0.04,-9.800159999999995,0.0003815410658551383,0.0010502160650027628,-0.0016318838650026942,-0.012573924893513532,-0.007011429215011561
0.535,-0.0003024711790012212,-0.7835492559999973,0.00143325621000364,-2.3568219000000017,-0.00011794134150055177,1.5723752000000037,0.7862507300000007,0.04,0.0399999995,-9.800058099999978,0.00026251431552592455,0.001061158130001145,-0.0016502589400029459,-0.012573840375989413,-0.007090038000012584
0.5375,-0.0003101872225013333,-0.783531789999997,0.0014562554250039743,-2.3568328500000018,-0.00012142765125060242,1.572398450000004,0.7862548700000007,0.04,0.03999999875,-9.799923249999976,0.00013882620257977727,0.0010683929750012501,-0.0016688717500032162,-0.012572712032124131,-0.007169547000013739
0.54,-0.0003179032660014458,-0.7835143239999968,0.0014792546400043095,-2.356843800000002,-0.00012491396100065323,1.5724217000000043,0.7862590100000008,0.04,0.039999998,-9.799788399999974,1.5138089633624514e-05,0.0010756278200013557,-0.0016874845600034875,-0.01257158368825885,-0.007249056000014898
0.5425,-0.0003256193095015579,-0.7834968579999965,0.0015022538550046435,-2.356854750000002,-0.0001284002707507039,1.5724449500000046,0.7862631500000009,0.04,0.03999999725,-9.799653549999972,-0.00010855002331252277,0.0010828626650014608,-0.0017060973700037578,-0.012570455344393567,-0.0073285650000160536
0.545,-0.00033333535300167035,-0.7834793919999963,0.0015252530700049789,-2.3568657000000024,-0.0001318865805007547,1.572468200000005,0.786267290000001,0.04,0.0399999965,-9.79951869999997,-0.00023223813625867552,0.001090097510001566,-0.0017247101800040292,-0.012569327000528286,-0.007408074000017212
0.5475,-0.00034105139650178245,-0.783461925999996,0.001548252285005313,-2.3568766500000025,-0.00013537289025080537,1.5724914500000053,0.786271430000001,0.04,0.03999999575,-9.799383849999968,-0.0003559262492048228,0.0010973323550016712,-0.0017433229900042995,-0.012568198656663004,-0.007487583000018367
0.55,-0.00034876744000203225,-0.7834444599999955,0.0015712515000060594,-2.3568876000000025,-0.00013885920000091852,1.5725147000000061,0.7862755700000011,0.04,0.039999995,-9.799248999999989,-0.0004796143621546558,0.0011045672000046319,-0.001761935800004742,-0.012567070312797751,-0.007567092000020237
0.5525,-0.0003570425095019831,-0.7834258809999955,0.001595924805005913,-2.3568987150000025,-0.00014259936300089633,1.572539645000006,0.786279999500001,0.04,0.039999995,-9.79920729999999,-0.0006182886194769831,0.0011234287100045201,-0.0017812455700046274,-0.012566053308546278,-0.007649498700019749
0.555,-0.0003653175790019344,-0.7834073019999956,0.0016205981100057677,-2.3569098300000024,-0.0001463395260008743,1.5725645900000058,0.7862844290000011,0.04,0.039999995,-9.79916559999999,-0.0007569628767993164,0.001142290220004409,-0.0018005553400045138,-0.012565036304294803,-0.007731905400019263
0.5575,-0.0003735926485018853,-0.7833887229999957,0.0016452714150056212,-2.3569209450000024,-0.00015007968900085212,1.5725895350000056,0.786288858500001,0.04,0.039999995,-9.79912389999999,-0.0008956371341216437,0.001161151730004297,-0.0018198651100043992,-0.012564019300043328,-0.007814312100018775
0.56,-0.00038186771800183657,-0.7833701439999959,0.0016699447200054758,-2.3569320600000023,-0.0001538198520008301,1.5726144800000055,0.786293288000001,0.04,0.039999995,-9.79908219999999,-0.001034311391443977,0.0011800132400041862,-0.0018391748800042854,-0.012563002295791855,-0.00789671880001829
0.5625,-0.0003901427875017875,-0.783351564999996,0.0016946180250053296,-2.3569431750000023,-0.0001575600150008079,1.5726394250000053,0.786297717500001,0.04,0.039999995,-9.799040499999991,-0.0011729856487663044,0.0011988747500040742,-0.001858484650004171,-0.01256198529154038,-0.007979125500017802
0.5650000000000001,-0.0003984178570017387,-0.7833329859999961,0.0017192913300051842,-2.3569542900000022,-0.0001613001780007859,1.5726643700000051,0.7863021470000009,0.04,0.039999995,-9.79899879999999,-0.0013116599060886377,0.001217736260003963,-0.0018777944200040573,-0.012560968287288907,-0.008061532200017315
0.5675,-0.00040688550450182774,-0.783314022999996,0.0017445414200054513,-2.3569657550000023,-0.00016512778550082635,1.5726898900000055,0.7863066800000009,0.04,0.039999995,-9.79892409999997,-0.0014551470522153561,0.0012333605900018891,-0.0018973206850041206,-0.012558874534442118,-0.008144848700017578
0.5700000000000001,-0.000415738308001836,-0.7832942919999959,0.0017709450800054759,-2.3569779200000025,-0.00016913028200083008,1.5727165600000055,0.786311420000001,0.04,0.039999995,-9.798783399999971,-0.001608259975941934,0.0012425105600018978,-0.0019172799400041392,-0.012554627284406698,-0.008229984800017657
0.5725,-0.0004245911115018438,-0.7832745609999959,0.0017973487400054994,-2.3569900850000023,-0.00017313277850083364,1.5727432300000055,0.7863161600000009,0.04,0.039999995,-9.79864269999997,-0.0017613728996685048,0.0012516605300019058,-0.001937239195004157,-0.01255038003437128,-0.008315120900017733
0.5750000000000001,-0.0004334439150018521,-0.7832548299999958,0.001823752400005524,-2.3570022500000025,-0.00017713527500083737,1.5727699000000055,0.786320900000001,0.04,0.039999995,-9.79850199999997,-0.0019144858233950826,0.0012608105000019145,-0.0019571984500041757,-0.012546132784335862,-0.008400257000017812
0.5775,-0.00044229671850185996,-0.7832350989999959,0.0018501560600055473,-2.3570144150000023,-0.0001811377715008409,1.5727965700000055,0.7863256400000009,0.04,0.039999995,-9.798361299999971,-0.002067598747121654,0.0012699604700019225,-0.0019771577050041933,-0.012541885534300443,-0.008485393100017887
0.58,-0.0004511495220018678,-0.7832153679999958,0.0018765597200055709,-2.3570265800000025,-0.00018514026800084448,1.5728232400000055,0.786330380000001,0.04,0.039999995,-9.79822059999997,-0.002220711670848225,0.0012791104400019307,-0.001997116960004211,-0.012537638284265023,-0.008570529200017963
0.5825,-0.00046000232550187604,-0.7831956369999958,0.0019029633800055955,-2.3570387450000023,-0.0001891427645008482,1.5728499100000055,0.786335120000001,0.04,0.039999995,-9.798079899999971,-0.0023738245945748027,0.0012882604100019391,-0.0020170762150042297,-0.012533391034229605,-0.008655665300018042
0.585,-0.00046925257800205374,-0.7831751139999954,0.0019305577000061271,-2.3570511000000027,-0.00019332582300092882,1.5728778200000062,0.7863400700000011,0.04,0.039999995,-9.798016099999995,-0.002537176106161698,0.0012978879600021446,-0.002037455240004475,-0.01252979980781595,-0.008742589600019088
0.5875,-0.00047870155500212704,-0.7831541949999953,0.001958747350006346,-2.3570635500000026,-0.00019759916250096198,1.5729063500000062,0.7863451250000011,0.04,0.039999995,-9.797990749999995,-0.0027056469116738743,0.0013077543000022211,-0.0020580441500046348,-0.012526536593212866,-0.008830408000019769
0.59,-0.0004881505320021999,-0.7831332759999952,0.001986937000006563,-2.357076000000003,-0.0002018725020009949,1.5729348800000065,0.7863501800000012,0.04,0.039999995,-9.797965399999994,-0.002874117717186043,0.001317620640002297,-0.0020786330600047935,-0.01252327337860978,-0.008918226400020445
0.5925,-0.0004975995090022731,-0.7831123569999949,0.002015126650006782,-2.357088450000003,-0.00020614584150102804,1.5729634100000067,0.7863552350000013,0.04,0.039999995,-9.797940049999994,-0.0030425885226982195,0.0013274869800023736,-0.002099221970004953,-0.012520010164006695,-0.009006044800021127
0.595,-0.000507048486002346,-0.7830914379999948,0.002043316300006999,-2.357100900000003,-0.000210419181001061,1.572991940000007,0.7863602900000013,0.04,0.039999995,-9.797914699999994,-0.003211059328210388,0.0013373533200024496,-0.002119810880005112,-0.01251674694940361,-0.009093863200021804
0.5975,-0.0005164974630024193,-0.7830705189999947,0.002071505950007218,-2.357113350000003,-0.00021469252050109413,1.5730204700000072,0.7863653450000013,0.04,0.039999995,-9.797889349999995,-0.0033795301337225647,0.0013472196600025261,-0.0021403997900052716,-0.012513483734800525,-0.009181681600022485
0.6,-0.0005259464400026541,-0.7830495999999941,0.0020996956000079205,-2.3571258000000035,-0.00021896586000120133,1.573049000000008,0.7863704000000015,0.04,0.039999995,-9.797863999999965,-0.003548000939239168,0.001357086000001174,-0.0021609887000056055,-0.01251022052019656,-0.009269500000023917
0.6025,-0.0005360097240025262,-0.7830274899999945,0.002129725900007539,-2.3571391800000034,-0.00022352074500114343,1.5730793300000077,0.7863757910000013,0.04,0.03999999575,-9.797726899999967,-0.0037332862616049583,0.0013615374900011175,-0.0021822423500053355,-0.012503622425718388,-0.009360182200022764
0.605,-0.0005460730080023979,-0.7830053799999948,0.002159756200007156,-2.357152560000003,-0.00022807563000108534,1.5731096600000072,0.7863811820000013,0.04,0.0399999965,-9.797589799999969,-0.00391857158397074,0.0013659889800010606,-0.0022034960000050646,-0.012497024331240218,-0.009450864400021608
0.6075,-0.00055613629200227,-0.782983269999995,0.0021897865000067743,-2.357165940000003,-0.00023263051500102745,1.573139990000007,0.7863865730000013,0.04,0.03999999725,-9.797452699999969,-0.00410385690633653,0.0013704404700010042,-0.002224749650004794,-0.012490426236762046,-0.009541546600020455
0.61,-0.0005661995760021416,-0.7829611599999953,0.0022198168000063913,-2.357179320000003,-0.00023718540000096936,1.5731703200000065,0.7863919640000011,0.04,0.039999998,-9.79731559999997,-0.0042891422287023116,0.0013748919600009473,-0.0022460033000045233,-0.012483828142283876,-0.009632228800019299
0.6125,-0.0005762628600020137,-0.7829390499999955,0.0022498471000060092,-2.357192700000003,-0.00024174028500091146,1.5732006500000062,0.7863973550000011,0.04,0.03999999875,-9.797178499999973,-0.004474427551068102,0.0013793434500008906,-0.002267256950004253,-0.012477230047805704,-0.009722911000018146
0.615,-0.0005863261440018854,-0.7829169399999959,0.0022798774000056263,-2.3572060800000028,-0.00024629517000085335,1.5732309800000057,0.786402746000001,0.04,0.0399999995,-9.797041399999975,-0.004659712873433884,0.001383794940000834,-0.002288510600003982,-0.012470631953327534,-0.00981359320001699
0.6175,-0.0005966001650019408,-0.7828943879999958,0.0023105391150057934,-2.357219810000003,-0.0002509457120008786,1.573261950000006,0.786408256000001,0.04,0.04,-9.796934249999993,-0.004849719721860038,0.0013905435850020582,-0.0023099929000039814,-0.012464071810244259,-0.00990505497501688
0.62,-0.0006072956600020233,-0.7828709519999956,0.0023424636600060393,-2.3572342400000026,-0.00025578756800091594,1.573294200000006,0.786414004000001,0.04,0.04,-9.796886999999991,-0.005049169622399311,0.0014018865400021456,-0.0023319325000041506,-0.012457587569950712,-0.009998075900017597
0.6225,-0.0006179911550021062,-0.7828475159999954,0.002374388205006287,-2.357248670000003,-0.0002606294240009535,1.5733264500000064,0.7864197520000011,0.04,0.04,-9.796839749999991,-0.005248619522938592,0.0014132294950022337,-0.0023538721000043207,-0.012451103329657168,-0.010091096825018318
0.625,-0.0006286866500021887,-0.7828240799999951,0.002406312750006533,-2.357263100000003,-0.0002654712800009908,1.5733587000000067,0.7864255000000012,0.04,0.04,-9.796792499999992,-0.005448069423477865,0.0014245724500023212,-0.0023758117000044895,-0.012444619089363623,-0.010184117750019036
0.6275000000000001,-0.0006393821450022717,-0.782800643999995,0.0024382372950067805,-2.357277530000003,-0.00027031313600102836,1.5733909500000067,0.7864312480000012,0.04,0.04,-9.79674524999999,-0.005647519324017147,0.001435915405002409,-0.0023977513000046596,-0.012438134849070078,-0.010277138675019757
0.63,-0.0006500776400023541,-0.7827772079999948,0.002470161840007027,-2.357291960000003,-0.0002751549920010657,1.573423200000007,0.7864369960000013,0.04,0.04,-9.79669799999999,-0.005846969224556419,0.0014472583600024967,-0.002419690900004829,-0.012431650608776533,-0.010370159600020475
0.6325000000000001,-0.000660773135002437,-0.7827537719999946,0.002502086385007274,-2.3573063900000033,-0.0002799968480011032,1.5734554500000073,0.7864427440000014,0.04,0.04,-9.796650749999989,-0.0060464191250957,0.0014586013150025845,-0.002441630500004999,-0.012425166368482987,-0.010463180525021196
0.635,-0.0006719018100026209,-0.7827294739999943,0.002535309140007825,-2.3573210000000033,-0.0002850354170011867,1.5734890100000078,0.7864487240000014,0.0399999995,0.04,-9.796616749999993,-0.006257237866570845,0.001461687249999759,-0.002464073990005243,-0.012419242877511836,-0.010557886650022073
0.6375000000000001,-0.0006832470750026315,-0.7827047449999942,0.0025691810000078564,-2.3573357000000033,-0.0002901723425011915,1.573523225000008,0.7864548200000014,0.03999999875,0.04,-9.796589374999993,-0.006473741028508042,0.0014606446749997582,-0.0024867694250052643,-0.01241359976120159,-0.010653435375022162
0.64,-0.0006945923400026416,-0.7826800159999943,0.0026030528600078867,-2.3573504000000036,-0.00029530926800119605,1.5735574400000079,0.7864609160000015,0.039999998,0.04,-9.796561999999993,-0.00669024419044523,0.0014596020999997573,-0.0025094648600052843,-0.012407956644891346,-0.010748984100022247
0.6425,-0.0007059376050026517,-0.7826552869999942,0.0026369247200079167,-2.3573651000000035,-0.00030044619350120063,1.573591655000008,0.7864670120000015,0.03999999725,0.04,-9.796534624999993,-0.006906747352382417,0.0014585595249997562,-0.0025321602950053044,-0.0124023135285811,-0.010844532825022332
0.645,-0.0007172828700026622,-0.7826305579999943,0.0026707965800079484,-2.3573798000000035,-0.00030558311900120543,1.573625870000008,0.7864731080000015,0.0399999965,0.04,-9.796507249999992,-0.007123250514319614,0.0014575169499997554,-0.0025548557300053257,-0.012396670412270857,-0.01094008155002242
0.6475,-0.0007286281350026723,-0.7826058289999942,0.0027046684400079783,-2.3573945000000034,-0.00031072004450121,1.5736600850000082,0.7864792040000015,0.03999999575,0.04,-9.796479874999992,-0.0073397536762568015,0.0014564743749997543,-0.0025775511650053457,-0.01239102729596061,-0.011035630275022506
0.65,-0.0007399734000028406,-0.7825810999999938,0.0027385403000084827,-2.3574092000000038,-0.0003158569700012867,1.5736943000000088,0.7864853000000016,0.039999995,0.04,-9.796452499999965,-0.007556256838200232,0.0014554317999982689,-0.0026002466000055245,-0.01238538417964949,-0.011131179000023207
0.6525,-0.0007519855800027694,-0.782554984999994,0.0027744110750082696,-2.357424875000004,-0.00032129806550125446,1.5737305700000084,0.7864917500000015,0.039999994250000004,0.04,-9.796311274999967,-0.007799124438371557,0.0014481114699983122,-0.002623609505005386,-0.012376037519422966,-0.011229318300022625
0.655,-0.0007639977600026986,-0.7825288699999942,0.0028102818500080587,-2.3574405500000037,-0.0003267391610012224,1.5737668400000082,0.7864982000000015,0.039999993500000004,0.04,-9.796170049999967,-0.008041992038542892,0.0014407911399983554,-0.0026469724100052485,-0.012366690859196441,-0.011327457600022047
0.6575,-0.0007760099400026273,-0.7825027549999943,0.0028461526250078456,-2.3574562250000035,-0.0003321802565011901,1.573803110000008,0.7865046500000015,0.039999992750000005,0.04,-9.796028824999969,-0.008284859638714216,0.0014334708099983987,-0.00267033531500511,-0.012357344198969916,-0.011425596900021465
0.66,-0.0007880221200025566,-0.7824766399999944,0.0028820234000076343,-2.3574719000000037,-0.00033762135200115806,1.573839380000008,0.7865111000000014,0.039999992,0.04,-9.795887599999968,-0.00852772723888555,0.001426150479998442,-0.002693698220004972,-0.012347997538743391,-0.011523736200020888
0.6625,-0.0008000343000024853,-0.7824505249999946,0.0029178941750074216,-2.3574875750000035,-0.00034306244750112577,1.5738756500000075,0.7865175500000013,0.03999999125,0.04,-9.79574637499997,-0.008770594839056874,0.0014188301499984853,-0.002717061125004834,-0.012338650878516867,-0.011621875500020305
0.665,-0.0008120464800024145,-0.7824244099999947,0.0029537649500072103,-2.3575032500000033,-0.00034850354300109375,1.5739119200000073,0.7865240000000012,0.0399999905,0.04,-9.795605149999972,-0.00901346243922821,0.0014115098199985285,-0.002740424030004696,-0.012329304218290342,-0.011720014800019728
0.6675,-0.0008242866200025633,-0.7823978349999944,0.002990318990007656,-2.3575192750000036,-0.00035404894200116174,1.5739488750000077,0.7865305700000014,0.0399999897,0.04,-9.795494749999989,-0.009257212048446008,0.001407377635000453,-0.002763988200004839,-0.012320033693684269,-0.011818997800020326
0.67,-0.0008369826800027483,-0.7823703399999941,0.003028239560008209,-2.3575360000000036,-0.00035980294800124564,1.5739872000000084,0.7865373800000014,0.0399999888,0.04,-9.79544599999999,-0.009502725675755207,0.0014096217400004858,-0.002787954900005188,-0.012310915440318966,-0.011919668200021794
0.6725,-0.0008496787400029328,-0.7823428449999936,0.00306616013000876,-2.357552725000004,-0.0003655569540013292,1.5740255250000088,0.7865441900000015,0.0399999879,0.04,-9.795397249999988,-0.009748239303064395,0.0014118658450005183,-0.0028119216000055364,-0.012301797186953664,-0.012020338600023255
0.675,-0.0008623748000031178,-0.7823153499999932,0.0031040807000093126,-2.357569450000004,-0.0003713109600014131,1.5740638500000095,0.7865510000000017,0.039999987,0.04,-9.795348499999987,-0.009993752930373594,0.001414109950000551,-0.002835888300005886,-0.01229267893358836,-0.012121009000024724
0.6775,-0.0008750708600033023,-0.7822878549999928,0.0031420012700098636,-2.3575861750000047,-0.0003770649660014967,1.57410217500001,0.7865578100000018,0.0399999861,0.04,-9.795299749999987,-0.010239266557682782,0.0014163540550005836,-0.0028598550000062343,-0.012283560680223059,-0.012221679400026185
0.68,-0.0008877669200034874,-0.7822603599999924,0.0031799218400104163,-2.3576029000000047,-0.00038281897200158056,1.5741405000000106,0.7865646200000019,0.039999985200000004,0.04,-9.795250999999986,-0.01048478018499198,0.0014185981600006164,-0.0028838217000065835,-0.012274442426857756,-0.012322349800027653
0.6825,-0.0009004629800036718,-0.782232864999992,0.0032178424100109673,-2.357619625000005,-0.00038857297800166414,1.574178825000011,0.786571430000002,0.0399999843,0.04,-9.795202249999985,-0.010730293812301167,0.001420842265000649,-0.002907788400006932,-0.012265324173492452,-0.012423020200029115
0.685,-0.000913625940003887,-0.7822044099999915,0.003257162780011612,-2.357636620000005,-0.00039454050500176244,1.5742185700000118,0.7865785000000022,0.0399999833,0.04,-9.795160099999988,-0.010992251522917393,0.00141924634999898,-0.002932175630007137,-0.012256420124319538,-0.01252525700002989
0.6875,-0.0009270223500038075,-0.7821754749999917,0.0032971830500113744,-2.3576537500000048,-0.00040061479250172644,1.5742590250000115,0.786585700000002,0.03999998225,0.04,-9.795121249999989,-0.01126243127517624,0.0014157304249990006,-0.002956773125006991,-0.012247623177242675,-0.01262827700002928
0.6900000000000001,-0.0009404187600037286,-0.782146539999992,0.0033372033200111386,-2.357670880000005,-0.00040668908000169067,1.5742994800000114,0.786592900000002,0.0399999812,0.04,-9.79508239999999,-0.0115326110274351,0.0014122144999990213,-0.0029813706200068463,-0.012238826230165811,-0.012731297000028674
0.6925,-0.0009538151700036492,-0.7821176049999922,0.003377223590010901,-2.357688010000005,-0.0004127633675016546,1.5743399350000111,0.786600100000002,0.03999998015,0.04,-9.795043549999988,-0.011802790779693945,0.0014086985749990422,-0.0030059681150067003,-0.012230029283088948,-0.012834317000028062
0.6950000000000001,-0.0009672115800035703,-0.7820886699999923,0.0034172438600106655,-2.3577051400000046,-0.00041883765500161884,1.5743803900000108,0.7866073000000019,0.0399999791,0.04,-9.79500469999999,-0.012072970531952805,0.0014051826499990629,-0.0030305656100065555,-0.012221232336012085,-0.012937337000027456
0.6975,-0.0009806079900034907,-0.7820597349999925,0.003457264130010428,-2.3577222700000044,-0.0004249119425015828,1.5744208450000106,0.7866145000000019,0.03999997805,0.04,-9.79496584999999,-0.012343150284211651,0.0014016667249990838,-0.0030551631050064094,-0.012212435388935223,-0.013040357000026844
0.7000000000000001,-0.0009940044000035944,-0.7820307999999923,0.0034972844000107396,-2.3577394000000043,-0.0004309862300016301,1.574461300000011,0.7866217000000019,0.039999977,0.04,-9.794926999999968,-0.012613330036475037,0.0013981507999974753,-0.0030797606000064356,-0.01220363844185762,-0.013143377000026792
0.7025,-0.0010081173900036069,-0.7820003874999922,0.003539453240010777,-2.3577575350000046,-0.0004373867555016358,1.574503960000011,0.7866292900000019,0.0399999764,0.04,-9.794803549999967,-0.012901280261649717,0.0013882382299974666,-0.0031050292400064583,-0.012191938282918854,-0.013248573800026885
0.705,-0.0010222303800036196,-0.7819699749999922,0.0035816220800108144,-2.3577756700000045,-0.0004437872810016415,1.5745466200000109,0.786636880000002,0.0399999758,0.04,-9.794680099999969,-0.013189230486824398,0.0013783256599974579,-0.0031302978800064806,-0.01218023812398009,-0.013353770600026979
0.7075,-0.0010363433700036327,-0.7819395624999922,0.003623790920010854,-2.3577938050000045,-0.0004501878065016475,1.574589280000011,0.7866444700000019,0.0399999752,0.04,-9.794556649999969,-0.013477180711999092,0.0013684130899974485,-0.003155566520006504,-0.012168537965041323,-0.013458967400027076
0.71,-0.0010504563600036451,-0.7819091499999922,0.0036659597600108913,-2.357811940000005,-0.0004565883320016531,1.574631940000011,0.786652060000002,0.0399999746,0.04,-9.794433199999968,-0.013765130937173773,0.0013585005199974398,-0.0031808351600065266,-0.012156837806102558,-0.01356416420002717
0.7125,-0.0010645693500036582,-0.7818787374999921,0.0037081286000109305,-2.3578300750000047,-0.0004629888575016591,1.5746746000000111,0.7866596500000019,0.039999974,0.04,-9.794309749999968,-0.014053081162348467,0.0013485879499974304,-0.00320610380000655,-0.012145137647163792,-0.013669361000027268
0.715,-0.001078682340003671,-0.7818483249999921,0.0037502974400109683,-2.3578482100000047,-0.0004693893830016648,1.5747172600000112,0.786667240000002,0.0399999734,0.04,-9.794186299999968,-0.014341031387523146,0.0013386753799974217,-0.003231372440006572,-0.012133437488225027,-0.013774557800027362
0.7175,-0.001093039505003909,-0.7818174074999916,0.0037931983500116818,-2.357866705000005,-0.00047590035750177256,1.5747606400000118,0.7866749580000021,0.039999973,0.04,-9.794085599999987,-0.014635549485764388,0.0013288582199974652,-0.003256883470006845,-0.012121622310948174,-0.01388046485002826
0.72,-0.0011078850200040235,-0.7817854799999914,0.0038375634000120235,-2.357885920000005,-0.0004826322300018245,1.574805460000012,0.7866829320000022,0.039999973,0.04,-9.794030399999986,-0.014943203330123299,0.001319231879997391,-0.003282879280007045,-0.012109577096995417,-0.013987792400029089
0.7225,-0.0011227305350041386,-0.7817535524999911,0.003881928450012368,-2.3579051350000055,-0.0004893641025018766,1.5748502800000126,0.7866909060000022,0.039999973,0.04,-9.793975199999986,-0.015250857174482225,0.0013096055399973163,-0.0033088750900072466,-0.012097531883042658,-0.014095119950029919
0.725,-0.0011375760500042529,-0.7817216249999909,0.00392629350001271,-2.3579243500000056,-0.0004960959750019286,1.5748951000000129,0.7866988800000023,0.039999973,0.04,-9.793919999999986,-0.015558511018841138,0.0012999791999972422,-0.0033348709000074472,-0.0120854866690899,-0.014202447500030748
0.7275,-0.001152421565004368,-0.7816896974999906,0.0039706585500130535,-2.3579435650000056,-0.0005028278475019808,1.5749399200000131,0.7867068540000023,0.039999973,0.04,-9.793864799999985,-0.015866164863200062,0.0012903528599971677,-0.0033608667100076487,-0.01207344145513714,-0.01430977505003158
0.73,-0.0011672670800044825,-0.7816577699999904,0.004015023600013396,-2.3579627800000056,-0.0005095597200020326,1.5749847400000134,0.7867148280000024,0.039999973,0.04,-9.793809599999983,-0.016173818707558973,0.0012807265199970934,-0.0033868625200078493,-0.012061396241184383,-0.014417102600032407
0.7325,-0.0011821125950045976,-0.7816258424999901,0.00405938865001374,-2.357981995000006,-0.0005162915925020848,1.575029560000014,0.7867228020000024,0.039999973,0.04,-9.793754399999983,-0.0164814725519179,0.0012711001799970189,-0.003412858330008051,-0.012049351027231625,-0.014524430150033239
0.735,-0.0011974568000047367,-0.7815928699999898,0.004105249160014158,-2.358001860000006,-0.0005232499950021481,1.5750759200000142,0.7867310340000025,0.039999972700000004,0.04,-9.79371209999999,-0.01680248826752122,0.0012581348599955545,-0.0034392204800080635,-0.012037538178261507,-0.014633293950033302
0.7375,-0.0012130503500045386,-0.7815593749999902,0.004151857400013566,-2.358022050000006,-0.0005303216625020583,1.5751230500000137,0.7867393950000025,0.03999997225,0.04,-9.79367624999999,-0.017130184918737378,0.0012435000499957404,-0.0034657658000077263,-0.012025841511782546,-0.014742925875031909
0.74,-0.0012286439000043397,-0.7815258799999907,0.004198465640012972,-2.3580422400000054,-0.0005373933300019681,1.575170180000013,0.7867477560000024,0.0399999718,0.04,-9.79364039999999,-0.01745788156995352,0.0012288652399959272,-0.0034923111200073874,-0.012014144845303585,-0.01485255780003051
0.7425,-0.0012442374500041414,-0.7814923849999911,0.004245073880012379,-2.3580624300000053,-0.0005444649975018782,1.5752173100000124,0.7867561170000021,0.03999997135,0.04,-9.79360454999999,-0.017785578221169673,0.001214230429996113,-0.0035188564400070502,-0.012002448178824624,-0.014962189725029117
0.745,-0.0012598310000039425,-0.7814588899999916,0.004291682120011784,-2.358082620000005,-0.000551536665001788,1.575264440000012,0.786764478000002,0.0399999709,0.04,-9.793568699999991,-0.018113274872385815,0.0011995956199962999,-0.0035454017600067118,-0.011990751512345662,-0.015071821650027718
0.7475,-0.0012754245500037444,-0.781425394999992,0.004338290360011192,-2.358102810000005,-0.0005586083325016981,1.5753115700000113,0.786772839000002,0.039999970450000005,0.04,-9.793532849999991,-0.018440971523601968,0.0011849608099964858,-0.0035719470800063746,-0.0119790548458667,-0.015181453575026324
0.75,-0.001291018100003719,-0.781391899999992,0.004384898600011118,-2.358123000000005,-0.0005656800000016872,1.5753587000000113,0.786781200000002,0.03999997,0.04,-9.79349699999999,-0.01876866817482255,0.0011703259999952113,-0.003598492400006168,-0.011967358179387686,-0.015291085500025435
0.7525000000000001,-0.001307374820003846,-0.7813568374999917,0.0044337952700114975,-2.3581442100000047,-0.0005731002945017447,1.5754081250000116,0.7867900050000021,0.039999968500000004,0.04,-9.793447349999989,-0.01911589549862557,0.001149265069995048,-0.003625618790006378,-0.011955423885953572,-0.015402956475026304
0.755,-0.001323731540003972,-0.7813217749999916,0.004482691940011874,-2.358165420000005,-0.0005805205890018019,1.575457550000012,0.7867988100000021,0.039999967000000004,0.04,-9.793397699999987,-0.01946312282242857,0.0011282041399948855,-0.0036527451800065875,-0.01194348959251946,-0.015514827450027167
0.7575000000000001,-0.0013400882600040987,-0.7812867124999913,0.004531588610012253,-2.3581866300000054,-0.0005879408835018595,1.5755069750000124,0.7868076150000022,0.0399999655,0.04,-9.793348049999988,-0.019810350146231587,0.0011071432099947222,-0.0036798715700067978,-0.011931555299085348,-0.015626698425028035
0.76,-0.001356444980004225,-0.781251649999991,0.00458048528001263,-2.3582078400000053,-0.0005953611780019167,1.5755564000000128,0.7868164200000023,0.039999964,0.04,-9.793298399999987,-0.02015757747003459,0.00108608227999456,-0.0037069979600070067,-0.011919621005651236,-0.015738569400028896
0.7625000000000001,-0.0013728017000043517,-0.7812165874999907,0.004629381950013009,-2.3582290500000056,-0.0006027814725019742,1.5756058250000131,0.7868252250000024,0.0399999625,0.04,-9.793248749999986,-0.020504804793837605,0.0010650213499943967,-0.003734124350007217,-0.011907686712217124,-0.015850440375029765
0.765,-0.0013891584200044777,-0.7811815249999904,0.004678278620013386,-2.358250260000006,-0.0006102017670020314,1.5756552500000136,0.7868340300000024,0.039999961,0.04,-9.793199099999987,-0.02085203211764061,0.0010439604199942343,-0.0037612507400074263,-0.011895752418783012,-0.015962311350030626
0.7675000000000001,-0.0014057744800047847,-0.7811459189999898,0.004727953155014306,-2.358271680000006,-0.0006177403935021713,1.5757054600000147,0.7868429650000026,0.039999959700000004,0.04,-9.793147849999984,-0.02120583141232837,0.0010227271049939746,-0.0037886478750078015,-0.011883708927776961,-0.016074871650031818
0.77,-0.0014229092200048,-0.7811092259999897,0.004779183420014352,-2.358293520000006,-0.0006255156840021781,1.5757572400000146,0.7868521600000026,0.0399999588,0.04,-9.793093399999984,-0.02157277464876911,0.0010011490199939553,-0.0038165865000078267,-0.011871447041627304,-0.016188810600031918
0.7725,-0.0014400439600048152,-0.7810725329999897,0.004830413685014397,-2.358315360000006,-0.000633290974502185,1.5758090200000145,0.7868613550000026,0.0399999579,0.04,-9.793038949999984,-0.021939717885209854,0.0009795709349939361,-0.0038445251250078514,-0.01185918515547765,-0.016302749550032018
0.775,-0.0014571787000048312,-0.7810358399999896,0.0048816439500144445,-2.358337200000006,-0.0006410662650021923,1.5758608000000147,0.7868705500000026,0.039999956999999996,0.04,-9.792984499999983,-0.02230666112165061,0.000957992849993916,-0.0038724637500078775,-0.011846923269327993,-0.016416688500032126
0.7775,-0.0014743134400048465,-0.7809991469999896,0.00493287421501449,-2.358359040000006,-0.0006488415555021992,1.5759125800000147,0.7868797450000026,0.0399999561,0.04,-9.792930049999985,-0.02267360435809135,0.0009364147649938969,-0.003900402375007902,-0.011834661383178338,-0.016530627450032226
0.78,-0.0014914481800048624,-0.7809624539999895,0.004984104480014538,-2.358380880000006,-0.0006566168460022064,1.5759643600000148,0.7868889400000026,0.0399999552,0.04,-9.792875599999984,-0.02304054759453211,0.0009148366799938768,-0.003928341000007929,-0.011822399497028681,-0.016644566400032333
0.7825,-0.0015085829200048775,-0.7809257609999896,0.005035334745014584,-2.358402720000006,-0.0006643921365022133,1.5760161400000148,0.7868981350000026,0.039999954299999994,0.04,-9.792821149999984,-0.02340749083097285,0.0008932585949938575,-0.003956279625007953,-0.011810137610879025,-0.016758505350032434
0.785,-0.0015262459900050383,-0.7808879539999892,0.005088149420015066,-2.3584251800000064,-0.0006724074500022864,1.5760695300000152,0.7869076300000026,0.0399999536,0.04,-9.79273279999997,-0.02378741689037207,0.0008674530439921534,-0.003984535690007986,-0.011796415317799548,-0.016873685100032544
0.7875,-0.001544173225004932,-0.7808495899999894,0.005141756300014748,-2.358447950000006,-0.0006805427750022381,1.5761237250000149,0.7869172750000026,0.039999953,0.04,-9.79262749999997,-0.024173834361242184,0.000839533759992319,-0.004012950475007817,-0.0117819628212561,-0.01698948525003186
0.79,-0.0015621004600048264,-0.7808112259999896,0.005195363180014433,-2.3584707200000063,-0.0006886781000021902,1.5761779200000146,0.7869269200000025,0.0399999524,0.04,-9.792522199999972,-0.024560251832112315,0.0008116144759924835,-0.00404136526000765,-0.01176751032471265,-0.017105285400031176
0.7925,-0.0015800276950047201,-0.7807728619999899,0.005248970060014115,-2.358493490000006,-0.0006968134250021419,1.5762321150000143,0.7869365650000025,0.039999951799999996,0.04,-9.792416899999973,-0.024946669302982425,0.000783695191992649,-0.0040697800450074815,-0.0117530578281692,-0.01722108555003049
0.795,-0.0015979549300046145,-0.7807344979999902,0.005302576940013798,-2.358516260000006,-0.000704948750002094,1.576286310000014,0.7869462100000024,0.0399999512,0.04,-9.792311599999973,-0.025333086773852556,0.0007557759079928135,-0.004098194830007314,-0.01173860533162575,-0.017336885700029808
0.7975,-0.0016158821650045082,-0.7806961339999904,0.00535618382001348,-2.3585390300000055,-0.0007130840750020457,1.5763405050000137,0.7869558550000024,0.0399999506,0.04,-9.792206299999973,-0.02571950424472267,0.0007278566239929792,-0.004126609615007146,-0.011724152835082302,-0.017452685850029123
0.8,-0.0016338094000046008,-0.7806577699999901,0.005409790700013759,-2.3585618000000057,-0.0007212194000020877,1.576394700000014,0.7869655000000024,0.03999995,0.04,-9.792100999999986,-0.026105921715598227,0.0006999373399926043,-0.004155024400007163,-0.011709700338538678,-0.017568486000028916
0.8025,-0.001652543170004873,-0.7806177244999896,0.005465817005014573,-2.358585650000006,-0.0007297205750022112,1.5764513400000149,0.7869755740000026,0.03999994955,0.04,-9.792039799999985,-0.026514439750568962,0.0006698218639921666,-0.0041841910450075865,-0.011694544740017224,-0.017686223550030626
0.805,-0.001671276940005146,-0.7805776789999891,0.0055218433100153895,-2.3586095000000067,-0.0007382217500023351,1.5765079800000157,0.7869856480000028,0.0399999491,0.04,-9.791978599999984,-0.026922957785539714,0.0006397063879917277,-0.004213357690008012,-0.011679389141495767,-0.017803961100032344
0.8075,-0.0016900107100054182,-0.7805376334999885,0.005577869615016204,-2.358633350000007,-0.0007467229250024586,1.5765646200000165,0.7869957220000029,0.03999994865,0.04,-9.791917399999983,-0.027331475820510452,0.0006095909119912901,-0.004242524335008436,-0.011664233542974313,-0.017921698650034054
0.81,-0.0017087444800056911,-0.7804975879999879,0.00563389592001702,-2.3586572000000072,-0.0007552241000025826,1.5766212600000171,0.7870057960000031,0.0399999482,0.04,-9.791856199999982,-0.027739993855481204,0.0005794754359908511,-0.004271690980008861,-0.011649077944452855,-0.018039436200035768
0.8125,-0.0017274782500059634,-0.7804575424999873,0.005689922225017834,-2.3586810500000075,-0.0007637252750027061,1.576677900000018,0.7870158700000033,0.03999994775,0.04,-9.791794999999981,-0.028148511890451942,0.0005493599599904135,-0.004300857625009285,-0.0116339223459314,-0.01815717375003748
0.8150000000000001,-0.0017462120200062365,-0.7804174969999867,0.005745948530018651,-2.3587049000000078,-0.00077222645000283,1.5767345400000188,0.7870259440000034,0.0399999473,0.04,-9.79173379999998,-0.028557029925422694,0.0005192444839899746,-0.00433002427000971,-0.011618766747409944,-0.018274911300039196
0.8175,-0.0017652191950066603,-0.7803768734999859,0.005802794980019921,-2.3587291300000084,-0.0007808521430030228,1.57679201500002,0.7870361620000036,0.03999994665,0.0399999994,-9.791677799999984,-0.028972113784548392,0.0004883230389889189,-0.004359404815010153,-0.011603541579092201,-0.0183932330500407
0.8200000000000001,-0.0017847731800065452,-0.780335093999986,0.005861281720019576,-2.3587541200000084,-0.0007897268720029705,1.57685116000002,0.7870466680000036,0.0399999456,0.039999997600000003,-9.791632199999984,-0.029400329291963793,0.0004557896559891104,-0.004389213160009978,-0.011588177271182097,-0.018512723200039997
0.8225,-0.001804327165006429,-0.7802933144999863,0.005919768460019229,-2.3587791100000084,-0.0007986016010029179,1.5769103050000195,0.7870571740000035,0.03999994455,0.0399999958,-9.791586599999986,-0.029828544799379172,0.00042325627298930347,-0.004419021505009801,-0.011572812963271993,-0.018632213350039287
0.8250000000000001,-0.0018238811500063139,-0.7802515349999866,0.005978255200018885,-2.358804100000008,-0.0008074763300028656,1.576969450000019,0.7870676800000035,0.039999943499999996,0.039999994,-9.791540999999986,-0.03025676030679457,0.00039072288998949506,-0.004448829850009625,-0.01155744865536189,-0.018751703500038585
0.8275,-0.0018434351350061979,-0.7802097554999868,0.006036741940018538,-2.358829090000008,-0.0008163510590028129,1.5770285950000187,0.7870781860000033,0.03999994245,0.0399999922,-9.791495399999986,-0.030684975814209953,0.00035818950698968805,-0.004478638195009448,-0.011542084347451785,-0.018871193650037876
0.8300000000000001,-0.0018629891200060828,-0.7801679759999871,0.006095228680018193,-2.358854080000008,-0.0008252257880027607,1.5770877400000183,0.7870886920000033,0.039999941399999996,0.0399999904,-9.791449799999986,-0.03111319132162535,0.00032565612398987963,-0.004508446540009273,-0.011526720039541681,-0.018990683800037173
0.8325,-0.0018825431050059668,-0.7801261964999873,0.006153715420017847,-2.3588790700000075,-0.0008341005170027081,1.577146885000018,0.7870991980000033,0.03999994035,0.0399999886,-9.791404199999986,-0.03154140682904073,0.0002931227409900727,-0.004538254885009096,-0.011511355731631577,-0.019110173950036464
0.835,-0.001902652880006193,-0.7800832659999868,0.006213869440018525,-2.358904810000008,-0.0008432275140028107,1.5772077100000188,0.7871100100000034,0.0399999392,0.039999987199999996,-9.79136469999999,-0.03198416233076409,0.0002570245374884935,-0.004568441970009227,-0.01149613717570439,-0.019230762600036796
0.8375,-0.001923040550006212,-0.7800397599999868,0.006274857100018582,-2.358930925000008,-0.0008524806450028194,1.5772693750000188,0.7871209750000033,0.039999938,0.039999986,-9.791328249999989,-0.03243418782963155,0.00021914392373845816,-0.004598818425009255,-0.011480991495768561,-0.01935190050003691
0.84,-0.0019434282200062301,-0.7799962539999867,0.006335844760018637,-2.358957040000008,-0.0008617337760028276,1.577331040000019,0.7871319400000034,0.0399999368,0.0399999848,-9.791291799999989,-0.03288421332849898,0.0001812633099884245,-0.004629194880009282,-0.011465845815832732,-0.01947303840003702
0.8425,-0.001963815890006249,-0.7799527479999867,0.006396832420018693,-2.358983155000008,-0.0008709869070028361,1.577392705000019,0.7871429050000034,0.0399999356,0.0399999836,-9.79125534999999,-0.033334238827366434,0.00014338269623838918,-0.004659571335009311,-0.011450700135896903,-0.019594176300037132
0.845,-0.0019842035600062674,-0.7799092419999866,0.006457820080018748,-2.359009270000008,-0.0008802400380028444,1.577454370000019,0.7871538700000034,0.0399999344,0.039999982399999995,-9.791218899999988,-0.03378426432623387,0.00010550208248835555,-0.004689947790009337,-0.011435554455961075,-0.019715314200037238
0.8475,-0.002004591230006286,-0.7798657359999865,0.006518807740018805,-2.3590353850000083,-0.000889493169002853,1.577516035000019,0.7871648350000033,0.039999933200000004,0.0399999812,-9.791182449999988,-0.03423428982510132,6.762146873832021e-05,-0.004720324245009366,-0.011420408776025246,-0.01983645210003735
0.85,-0.002024978900006566,-0.779822229999986,0.006579795400019644,-2.3590615000000086,-0.0008987463000029802,1.5775777000000197,0.7871758000000035,0.039999932,0.03999998,-9.791145999999985,-0.03468431532397591,2.9740854987291743e-05,-0.004750700700009597,-0.011405263096089344,-0.019957590000038043
