rsonawane2002/My_IMU/logs_2/traj_426/imu_400hz_426.csv
time,j1,j2,j3,j4,j5,j6,j7,gripper1,gripper2,imu_ax,imu_ay,imu_az,imu_gx,imu_gy,imu_gz
0.0,0.00016700293,-0.785875,4.0107683e-05,-2.3551247,9.29385e-05,1.570997,0.786,0.04,0.04,-9.508909,-0.0336406491696834,0.11993875,-2.72048e-07,-0.0011641269084066,1.2571201e-06
0.0025,0.00016700467,-0.785857774,4.0110098300000003e-05,-2.35513919,9.29448954e-05,1.570996565,0.786,0.04,0.04,-9.557719450000043,-0.02849500167648768,0.10331551239998488,-4.2839801000014223e-07,-0.0013251070515253914,1.222977939999969e-06
0.005,0.00016700641,-0.785840548,4.0112513600000005e-05,-2.3551536800000004,9.295129080000002e-05,1.57099613,0.786,0.04,0.04,-9.606529900000089,-0.02334935418329196,0.08669227479996976,-5.847480200002844e-07,-0.0014860871946441828,1.1888357799999379e-06
0.0075,0.00016700815,-0.7858233219999999,4.011492890000001e-05,-2.3551681700000002,9.295768620000002e-05,1.570995695,0.786,0.04,0.04,-9.655340350000133,-0.018203706690096237,0.07006903719995464,-7.410980300004266e-07,-0.0016470673377629742,1.154693619999907e-06
0.01,0.00016700989,-0.785806096,4.0117344200000013e-05,-2.35518266,9.296408160000002e-05,1.5709952600000001,0.786,0.04,0.04,-9.704150800000178,-0.013058059196900517,0.05344579959993952,-8.974480400005689e-07,-0.0018080474808817655,1.120551459999876e-06
0.0125,0.00016701163,-0.78578887,4.0119759500000014e-05,-2.3551971500000004,9.297047700000003e-05,1.570994825,0.786,0.04,0.04,-9.752961250000222,-0.007912411703704797,0.0368225619999244,-1.0537980500007112e-06,-0.001969027624000557,1.0864092999998447e-06
0.015,0.00016701337,-0.785771644,4.0122174800000015e-05,-2.3552116400000003,9.297687240000003e-05,1.57099439,0.786,0.04,0.04,-9.801771700000266,-0.002766764210509077,0.02019932439990929,-1.2101480600008533e-06,-0.0021300077671193482,1.0522671399998137e-06
0.0175,0.000167018176,-0.7857548645,4.0127734250000024e-05,-2.3552257350000003,9.298558020000002e-05,1.57099396,0.786,0.04,0.04,-9.8342169,0.000671193836023976,0.00903843299999957,-1.6706665800019448e-06,-0.0022864067112097876,1.0640345550001885e-06
0.02,0.00016702911399999989,-0.7857389780000003,4.013958199999987e-05,-2.35523904,9.299891279999984e-05,1.5709935400000001,0.786,0.04,0.04,-9.833931600000003,0.0006937729893248935,0.008802234000002577,-2.7395221199883346e-06,-0.0024336432572437732,1.1676211199988694e-06
0.0225,0.00016704005199999974,-0.7857230915000004,4.015142974999972e-05,-2.355252345,9.301224539999969e-05,1.57099312,0.786,0.04,0.04,-9.833646300000007,0.0007163521426258111,0.008566035000005585,-3.8083776599747242e-06,-0.002580879803277758,1.2712076849975504e-06
0.025,0.0001670509899999996,-0.7857072050000006,4.016327749999957e-05,-2.3552656499999993,9.302557799999952e-05,1.5709927000000001,0.786,0.04,0.04,-9.83336100000001,0.0007389312959267286,0.008329836000008592,-4.877233199961116e-06,-0.0027281163493117436,1.3747942499962316e-06
0.0275,0.00016706192799999947,-0.7856913185000008,4.017512524999942e-05,-2.3552789549999993,9.303891059999935e-05,1.57099228,0.786,0.04,0.04,-9.833075700000014,0.0007615104492276461,0.0080936370000116,-5.946088739947505e-06,-0.002875352895345729,1.4783808149949124e-06
0.03,0.00016707286599999932,-0.785675432000001,4.018697299999927e-05,-2.3552922599999992,9.305224319999918e-05,1.5709918600000001,0.786,0.04,0.04,-9.832790400000018,0.0007840896025285636,0.007857438000014608,-7.014944279933895e-06,-0.003022589441379714,1.5819673799935936e-06
0.0325,0.00016708380399999917,-0.7856595455000012,4.0198820749999116e-05,-2.3553055649999988,9.306557579999901e-05,1.57099144,0.786,0.04,0.04,-9.83250510000002,0.0008066687558294811,0.007621239000017615,-8.083799819920286e-06,-0.0031698259874136997,1.6855539449922745e-06
0.035,0.00016711135099999752,-0.785644510000001,4.022743799999744e-05,-2.355318099999999,9.309184399999775e-05,1.57099101,0.786,0.04,0.04,-9.832189400000022,0.0008433260139978697,0.0074104205000136945,-1.0333620999803678e-05,-0.003307841089544889,1.8257223199890472e-06
0.0375,0.00016714720249999806,-0.7856299000000008,4.0264439999997984e-05,-2.3553302499999993,9.312457999999821e-05,1.570990575,0.786,0.04,0.04,-9.831858500000017,0.0008870223246024905,0.007212292250010812,-1.3173924999845004e-05,-0.003441245469723045,1.984181599991353e-06
0.04,0.00016718305399999857,-0.7856152900000005,4.030144199999852e-05,-2.3553423999999996,9.315731599999869e-05,1.57099014,0.786,0.04,0.04,-9.831527600000014,0.0009307186352071114,0.007014164000007928,-1.6014228999886338e-05,-0.0035746498499012016,2.1426408799936588e-06
0.0425,0.0001672189054999991,-0.7856006800000004,4.033844399999906e-05,-2.3553545499999995,9.319005199999916e-05,1.5709897050000001,0.786,0.04,0.04,-9.831196700000008,0.0009744149458117323,0.006816035750005045,-1.8854532999927674e-05,-0.003708054230079358,2.3011001599959648e-06
0.045,0.0001672547569999996,-0.7855860700000001,4.03754459999996e-05,-2.3553667,9.322278799999964e-05,1.57098927,0.786,0.04,0.04,-9.830865800000003,0.0010181112564163531,0.006617907500002162,-2.1694836999968998e-05,-0.0038414586102575136,2.4595594399982703e-06
0.0475,0.00016729060850000015,-0.7855714599999999,4.041244800000014e-05,-2.35537885,9.325552400000012e-05,1.570988835,0.786,0.04,0.04,-9.830534899999998,0.001061807567020974,0.006419779249999279,-2.453514100001033e-05,-0.00397486299043567,2.6180187200005763e-06
0.05,0.00016732646000000153,-0.7855568499999998,4.044945000000155e-05,-2.355391,9.328826000000127e-05,1.5709884,0.786,0.04,0.04,-9.830203999999995,0.0011055038776259538,0.006221650999996595,-2.7375445000097258e-05,-0.00410826737061357,2.7764780000043498e-06
0.0525,0.0001674101555000016,-0.7855433874999997,4.053422250000162e-05,-2.35540216,9.335796650000132e-05,1.57098798,0.786,0.04,0.04,-9.829899499999994,0.0011689331266109214,0.006034440859996424,-3.272202025010211e-05,-0.004227551631631713,3.015612395004567e-06
0.055,0.00016749385100000167,-0.7855299249999997,4.06189950000017e-05,-2.3554133200000003,9.342767300000139e-05,1.57098756,0.786,0.04,0.04,-9.829594999999994,0.0012323623755958891,0.005847230719996254,-3.806859550010698e-05,-0.004346835892649856,3.254746790004785e-06
0.0575,0.00016757754650000174,-0.7855164624999997,4.070376750000177e-05,-2.3554244800000004,9.349737950000145e-05,1.57098714,0.786,0.04,0.04,-9.829290499999994,0.0012957916245808568,0.005660020579996084,-4.341517075011185e-05,-0.004466120153668001,3.4938811850050025e-06
0.06,0.00016766124200000182,-0.7855029999999997,4.078854000000185e-05,-2.35543564,9.356708600000152e-05,1.57098672,0.786,0.04,0.04,-9.828985999999993,0.0013592208735658245,0.005472810439995914,-4.87617460001167e-05,-0.0045854044146861435,3.7330155800052197e-06
0.0625,0.0001677449375000019,-0.7854895374999996,4.087331250000193e-05,-2.3554468,9.363679250000159e-05,1.5709863,0.786,0.04,0.04,-9.828681499999993,0.0014226501225507921,0.005285600299995743,-5.410832125012156e-05,-0.004704688675704287,3.972149975005437e-06
0.065,0.000167828633000002,-0.7854760749999996,4.0958085000002e-05,-2.3554579600000003,9.370649900000165e-05,1.57098588,0.786,0.04,0.04,-9.828376999999993,0.0014860793715357598,0.005098390159995574,-5.945489650012643e-05,-0.004823972936722431,4.211284370005655e-06
0.0675,0.0001679380685000032,-0.7854629549999997,4.106836835000322e-05,-2.3554688,9.379650000000262e-05,1.57098545,0.786,0.04,0.03999999975,-9.828082099999994,0.001555784512312841,0.004913334744996383,-6.588576100017207e-05,-0.004938666685486412,4.522874085009135e-06
0.07,0.00016809898400000118,-0.7854505199999999,4.1229673400001174e-05,-2.355479,9.392709000000095e-05,1.570985,0.786,0.04,0.039999999,-9.827806399999998,0.0016380414366727787,0.004732588779998685,-7.448520400006259e-05,-0.005044179409743068,4.979374440003323e-06
0.0725,0.00016825989949999912,-0.785438085,4.139097844999912e-05,-2.3554892,9.40576799999993e-05,1.57098455,0.786,0.04,0.03999999825,-9.827530700000002,0.0017202983610327158,0.004551842815000987,-8.308464699995305e-05,-0.0051496921339997245,5.435874794997508e-06
0.075,0.00016842081499999709,-0.7854256500000002,4.155228349999706e-05,-2.3554994,9.418826999999763e-05,1.5709841,0.786,0.04,0.0399999975,-9.827255000000005,0.0018025552853926535,0.004371096850003288,-9.168408999984357e-05,-0.005255204858256381,5.892375149991696e-06
0.0775,0.00016858173049999503,-0.7854132150000004,4.1713588549995014e-05,-2.3555095999999995,9.431885999999597e-05,1.57098365,0.786,0.04,0.03999999675,-9.826979300000009,0.0018848122097525912,0.0041903508850055894,-0.00010028353299973409,-0.005360717582513038,6.348875504985884e-06
0.08,0.00016874264599999296,-0.7854007800000005,4.187489359999296e-05,-2.3555197999999997,9.44494499999943e-05,1.5709832,0.786,0.04,0.039999996,-9.826703600000013,0.001967069134112529,0.004009604920007891,-0.00010888297599962459,-0.005466230306769694,6.805375859980071e-06
0.0825,0.00016890356149999093,-0.7853883450000007,4.203619864999091e-05,-2.3555299999999995,9.458003999999264e-05,1.57098275,0.786,0.04,0.03999999525,-9.826427900000015,0.0020493260584724666,0.0038288589550101917,-0.0001174824189995151,-0.00557174303102635,7.261876214974259e-06
0.085,0.00016913943999998608,-0.7853765570000005,4.227144899998614e-05,-2.3555399299999995,9.476699999998905e-05,1.5709823,0.786,0.04,0.0399999955,-9.826125800000016,0.002138278540219079,0.003662114910008136,-0.00012862337399936787,-0.00566778639330987,7.644090899982425e-06
0.08750000000000001,0.00016941279999999005,-0.7853650925000004,4.25436719999901e-05,-2.3555497249999995,9.498214499999218e-05,1.5709818500000001,0.786,0.04,0.03999999625,-9.825810500000012,0.0022305788006599424,0.003502371825005811,-0.0001410350849995485,-0.005759095074605529,7.989162749987448e-06
0.09,0.00016968615999999402,-0.7853536280000002,4.2815894999994055e-05,-2.35555952,9.519728999999531e-05,1.5709814,0.786,0.04,0.039999997,-9.825495200000006,0.002322879061100805,0.003342628740003487,-0.00015344679599972906,-0.005850403755901187,8.334234599992466e-06
0.0925,0.000169959519999998,-0.7853421635000001,4.3088117999998015e-05,-2.355569315,9.541243499999844e-05,1.57098095,0.786,0.04,0.03999999775,-9.825179900000002,0.0024151793215416682,0.0031828856550011626,-0.00016585850699990968,-0.005941712437196846,8.679306449997488e-06
0.095,0.000170232880000002,-0.7853306989999999,4.336034100000198e-05,-2.35557911,9.562758000000157e-05,1.5709805000000001,0.786,0.04,0.0399999985,-9.824864599999998,0.0025074795819825316,0.0030231425699988376,-0.0001782702180000903,-0.006033021118492504,9.024378300002511e-06
0.0975,0.00017050624000000596,-0.7853192344999997,4.3632564000005944e-05,-2.3555889050000003,9.58427250000047e-05,1.57098005,0.786,0.04,0.03999999925,-9.824549299999994,0.002599779842423395,0.002863399484996513,-0.00019068192900027092,-0.006124329799788163,9.369450150007533e-06
0.1,0.0001707796000000155,-0.7853077699999996,4.3904787000015366e-05,-2.3555987000000003,9.605787000001207e-05,1.5709796,0.786,0.04,0.04,-9.824233999999992,0.0026920801028650094,0.0027036563999942365,-0.00020309364000061446,-0.006215638481083371,9.714522000022145e-06
0.10250000000000001,0.00017120580550001588,-0.7852971544999996,4.432724475001575e-05,-2.355607565,9.638959500001237e-05,1.57097912,0.786,0.04,0.04,-9.824010199999993,0.002805032744076557,0.002545231454994092,-0.00021998287200062982,-0.006294561014513598,1.03232095500227e-05
0.105,0.00017163201100001629,-0.7852865389999996,4.4749702500016134e-05,-2.35561643,9.672132000001266e-05,1.57097864,0.786,0.04,0.04,-9.823786399999992,0.0029179853852881045,0.002386806509993949,-0.00023687210400064512,-0.006373483547943825,1.093189710002325e-05
0.1075,0.00017205821650001667,-0.7852759234999995,4.517216025001652e-05,-2.3556252950000003,9.705304500001297e-05,1.57097816,0.786,0.04,0.04,-9.823562599999992,0.0030309380264996522,0.0022283815649938045,-0.0002537613360006605,-0.0064524060813740515,1.1540584650023804e-05
0.11,0.00017248442200001705,-0.7852653079999995,4.55946180000169e-05,-2.35563416,9.738477000001328e-05,1.57097768,0.786,0.04,0.04,-9.823338799999991,0.0031438906677112,0.00206995661999366,-0.0002706505680006759,-0.006531328614804278,1.214927220002436e-05
0.1125,0.00017291062750001744,-0.7852546924999996,4.601707575001729e-05,-2.3556430250000004,9.771649500001358e-05,1.5709772,0.786,0.04,0.04,-9.82311499999999,0.0032568433089227478,0.0019115316749935161,-0.00028753980000069125,-0.0066102511482345055,1.2757959750024913e-05
0.115,0.00017333683300001785,-0.7852440769999995,4.6439533500017676e-05,-2.3556518900000003,9.804822000001389e-05,1.57097672,0.786,0.04,0.04,-9.82289119999999,0.003369795950134296,0.0017531067299933717,-0.0003044290320007066,-0.006689173681664732,1.3366647300025467e-05
0.11750000000000001,0.000173828990000021,-0.7852337349999996,4.692665140002075e-05,-2.355660685,9.843008450001623e-05,1.570976065,0.786,0.04,0.04,-9.82263574999999,0.003484728280458816,0.0015999596799952012,-0.0003229460240007327,-0.006763193057852107,1.4027751050025777e-05
0.12,0.00017445305000000455,-0.78522394,4.754308960000448e-05,-2.35566934,9.891222800000351e-05,1.5709750599999999,0.786,0.04,0.04,-9.822316999999998,0.003603619989008525,0.0014573684199989628,-0.00034471853600015836,-0.006827406119555648,1.4793687200005571e-05
0.1225,0.00017507710999998809,-0.7852141450000002,4.815952779998823e-05,-2.3556779949999997,9.93943714999908e-05,1.570974055,0.786,0.04,0.04,-9.821998250000005,0.0037225116975582342,0.0013147771600027236,-0.00036649104799958416,-0.006891619181259189,1.555962334998537e-05
0.125,0.00017570116999997162,-0.7852043500000004,4.877596599997197e-05,-2.3556866499999995,9.987651499997808e-05,1.57097305,0.786,0.04,0.04,-9.821679500000014,0.0038414034061079435,0.0011721859000064843,-0.0003882635599990099,-0.00695583224296273,1.632555949996517e-05
0.1275,0.00017632522999995516,-0.7851945550000007,4.939240419995571e-05,-2.3556953049999994,0.00010035865849996536,1.570972045,0.786,0.04,0.04,-9.821360750000023,0.003960295114657653,0.0010295946400102449,-0.00041003607199843566,-0.007020045304666271,1.709149564994497e-05
0.13,0.0001769492899999387,-0.7851847600000009,5.000884239993945e-05,-2.355703959999999,0.00010084080199995264,1.57097104,0.786,0.04,0.04,-9.821042000000032,0.004079186823207362,0.0008870033800140058,-0.00043180858399786146,-0.0070842583663698125,1.7857431799924767e-05
0.1325,0.00017757334999992224,-0.7851749650000013,5.062528059992319e-05,-2.355712614999999,0.00010132294549993993,1.5709700350000002,0.786,0.04,0.04,-9.82072325000004,0.004198078531757072,0.0007444121200177665,-0.0004535810959972872,-0.007148471428073354,1.862336794990457e-05
0.135,0.00017836210499990018,-0.7851656130000011,5.140286279990166e-05,-2.355720869999999,0.0001019292293999234,1.5709690200000002,0.7859998100000001,0.0399999995,0.04,-9.820479700000023,0.004328095214425864,0.0006079123120152929,-0.00047898276699688124,-0.0072059046477017065,1.9339656599920765e-05
0.1375,0.00017923320749992474,-0.7851564825000008,5.2261016999925854e-05,-2.3557289249999993,0.00010259758349994225,1.5709680000000001,0.785999525,0.03999999875,0.04,-9.820273750000018,0.0044636743841575365,0.0004744582300115301,-0.0005061990174976485,-0.007259947946290431,2.003112149994026e-05
0.14,0.0001801043099999493,-0.7851473520000005,5.3119171199950054e-05,-2.3557369799999996,0.0001032659375999611,1.5709669800000001,0.7859992400000001,0.039999998,0.04,-9.820067800000013,0.004599253553889209,0.00034100414800776734,-0.000533415267998416,-0.007313991244879155,2.0722586399959754e-05
0.14250000000000002,0.00018097541249997384,-0.7851382215000003,5.397732539997425e-05,-2.355745035,0.00010393429169997994,1.57096596,0.785998955,0.03999999725,0.04,-9.819861850000006,0.0047348327236208815,0.0002075500660040046,-0.0005606315184991833,-0.007368034543467878,2.141405129997925e-05
0.145,0.0001818465149999984,-0.7851290910000001,5.4835479599998434e-05,-2.35575309,0.00010460264579999878,1.57096494,0.78599867,0.0399999965,0.04,-9.8196559,0.004870411893352553,7.409598400024331e-05,-0.0005878477689999504,-0.0074220778420566015,2.210551619999874e-05
0.1475,0.00018271761750002295,-0.7851199604999998,5.569363380002263e-05,-2.3557611450000002,0.00010527099990001763,1.57096392,0.7859983850000001,0.03999999575,0.04,-9.819449949999994,0.005005991063084225,-5.9358098003519494e-05,-0.0006150640195007177,-0.007476121140645325,2.2796981100018237e-05
0.15,0.00018358872000006387,-0.7851108299999996,5.6551788000062806e-05,-2.3557692000000006,0.00010593935400004887,1.5709629,0.7859981,0.039999995,0.04,-9.819243999999983,0.005141570232816116,-0.00019281218000768765,-0.0006422802700017295,-0.0075301644392332615,2.3488446000068494e-05
0.1525,0.00018475965000006495,-0.7851023204999995,5.7702853800063856e-05,-2.3557768500000007,0.00010683499290004968,1.570961805,0.785997815,0.039999994250000004,0.03999999925,-9.818954049999983,0.0052811493165867635,-0.0003336956930078159,-0.0006739763140017584,-0.007569774519654272,2.4743689050069637e-05
0.155,0.00018593058000006602,-0.7850938109999995,5.885391960006491e-05,-2.3557845000000004,0.0001077306318000505,1.57096071,0.78599753,0.039999993500000004,0.0399999985,-9.818664099999983,0.00542072840035741,-0.00047457920600794414,-0.0007056723580017872,-0.007609384600075283,2.599893210007078e-05
0.1575,0.0001871015100000671,-0.7850853014999996,6.000498540006595e-05,-2.3557921500000005,0.00010862627070005132,1.570959615,0.785997245,0.039999992750000005,0.03999999775,-9.818374149999983,0.0055603074841280575,-0.0006154627190080724,-0.0007373684020018161,-0.007648994680496295,2.7254175150071923e-05
0.16,0.00018827244000006813,-0.7850767919999995,6.115605120006701e-05,-2.3557998000000007,0.00010952190960005214,1.57095852,0.78599696,0.039999992,0.039999997,-9.818084199999983,0.005699886567898705,-0.0007563462320082007,-0.0007690644460018449,-0.007688604760917306,2.8509418200073066e-05
0.1625,0.0001894433700000692,-0.7850682824999995,6.230711700006805e-05,-2.355807450000001,0.00011041754850005295,1.570957425,0.785996675,0.03999999125,0.03999999625,-9.817794249999983,0.005839465651669352,-0.0008972297450083289,-0.0008007604900018739,-0.0077282148413383165,2.976466125007421e-05
0.165,0.00019061430000007028,-0.7850597729999995,6.34581828000691e-05,-2.3558151000000005,0.00011131318740005376,1.57095633,0.78599639,0.0399999905,0.0399999955,-9.817504299999984,0.005979044735439999,-0.001038113258008457,-0.0008324565340019027,-0.007767824921759327,3.1019904300075355e-05
0.1675,0.00019190385400007915,-0.7850514499999995,6.472498800007768e-05,-2.3558227250000003,0.00011229826300006034,1.57095507,0.7859961050000001,0.0399999899,0.039999995,-9.817225949999987,0.006124429497875915,-0.0011783837550072087,-0.0008662287885019662,-0.007802840112709819,3.2255002700061944e-05
0.17,0.00019343065600003887,-0.7850434999999998,6.622327200003817e-05,-2.3558303000000005,0.00011346221200002964,1.57095348,0.78599582,0.0399999896,0.039999995,-9.816970799999993,0.006281425617639199,-0.0013174282200035415,-0.000904153464000966,-0.007828665524721777,3.3449811800030435e-05
0.17250000000000001,0.0001949574579999986,-0.78503555,6.772155599999864e-05,-2.355837875,0.00011462616099999895,1.5709518900000001,0.7859955350000001,0.0399999893,0.039999995,-9.81671565,0.006438421737402483,-0.0014564726849998744,-0.0009420781394999657,-0.007854490936733736,3.464462089999892e-05
0.17500000000000002,0.00019648425999995833,-0.7850276000000002,6.921983999995913e-05,-2.35584545,0.00011579010999996824,1.5709503,0.78599525,0.039999989,0.039999995,-9.816460500000007,0.006595417857165767,-0.0015955171499962072,-0.0009800028149989655,-0.007880316348745696,3.583942999996741e-05
0.1775,0.00019801106199991806,-0.7850196500000004,7.07181239999196e-05,-2.3558530249999996,0.00011695405899993754,1.5709487100000001,0.7859949650000001,0.0399999887,0.039999995,-9.816205350000013,0.00675241397692905,-0.0017345616149925384,-0.0010179274904979648,-0.007906141760757653,3.703423909993588e-05
0.18,0.00019953786399987778,-0.7850117000000006,7.221640799988008e-05,-2.3558605999999993,0.00011811800799990683,1.5709471200000003,0.7859946800000001,0.0399999884,0.039999995,-9.81595020000002,0.006909410096692334,-0.001873606079988871,-0.0010558521659969646,-0.007931967172769613,3.822904819990437e-05
0.1825,0.0002010646659998375,-0.7850037500000009,7.371469199984056e-05,-2.3558681749999995,0.00011928195699987614,1.5709455300000001,0.785994395,0.0399999881,0.039999995,-9.815695050000027,0.007066406216455618,-0.002012650544985204,-0.0010937768414959644,-0.00795779258478157,3.9423857299872855e-05
0.185,0.00020286793599979516,-0.7849961300000008,7.548246059979927e-05,-2.3558757099999994,0.00012065453799984418,1.5709437700000002,0.7859941100000001,0.0399999876,0.039999994500000004,-9.815458500000023,0.007220362871869158,-0.002141005229987022,-0.0011360615599953089,-0.007976301014421792,4.0841241999838724e-05
0.1875,0.0002048094399998234,-0.7849886750000007,7.738497149982697e-05,-2.3558832249999995,0.00012213143499986568,1.5709419250000003,0.785993825,0.039999987,0.039999993750000004,-9.81523125000002,0.007372799795107036,-0.0022640150249888125,-0.001180526299995956,-0.007991150952874249,4.236991449986097e-05
0.19,0.00020675094399985166,-0.7849812200000006,7.928748239985466e-05,-2.3558907399999995,0.00012360833199988718,1.5709400800000002,0.7859935400000001,0.0399999864,0.039999993000000005,-9.815004000000018,0.007525236718344914,-0.0023870248199906025,-0.001224991039996603,-0.008006000891326704,4.3898586999883216e-05
0.1925,0.00020869244799987994,-0.7849737650000005,8.118999329988234e-05,-2.3558982549999996,0.00012508522899990868,1.570938235,0.7859932550000001,0.0399999858,0.03999999225,-9.814776750000014,0.007677673641582792,-0.0025100346149923925,-0.00126945577999725,-0.008020850829779162,4.542725949990546e-05
0.195,0.0002106339519999082,-0.7849663100000003,8.309250419991004e-05,-2.3559057699999997,0.00012656212599993015,1.57093639,0.78599297,0.039999985200000004,0.0399999915,-9.81454950000001,0.00783011056482067,-0.002633044409994183,-0.0013139205199978973,-0.008035700768231617,4.695593199992771e-05
0.1975,0.00021257545599993644,-0.7849588550000002,8.499501509993772e-05,-2.3559132849999997,0.00012803902299995165,1.570934545,0.7859926850000001,0.0399999846,0.03999999075,-9.814322250000007,0.007982547488058548,-0.002756054204995973,-0.0013583852599985443,-0.008050550706684074,4.848460449994995e-05
0.2,0.00021451695999996469,-0.7849514000000001,8.68975259999654e-05,-2.3559208,0.00012951591999997314,1.5709327,0.7859924,0.039999984,0.03999999,-9.814095000000004,0.008134984411296427,-0.0028790639999977633,-0.0014028499999991914,-0.00806540064513653,5.0013276999972205e-05
0.2025,0.00021693448149999123,-0.784944335,8.926363109999141e-05,-2.355928315,0.00013135149549999334,1.570930495,0.785992115,0.0399999834,0.03999999,-9.81386295,0.008308986993505893,-0.003018393944999494,-0.0014540908249998138,-0.008067552838474467,5.162471244999415e-05
0.20500000000000002,0.0002193520030000264,-0.7849372699999999,9.162973620002584e-05,-2.35593583,0.00013318707100002004,1.57092829,0.7859918300000001,0.0399999828,0.03999999,-9.813630899999998,0.00848298957571575,-0.0031577238900015216,-0.0015053316500005596,-0.008069705031812174,5.3236147900017594e-05
0.20750000000000002,0.0002217695245000616,-0.7849302049999998,9.399584130006028e-05,-2.355943345,0.00013502264650004674,1.570926085,0.785991545,0.0399999822,0.03999999,-9.813398849999993,0.008656992157925607,-0.0032970538350035493,-0.0015565724750013052,-0.00807185722514988,5.484758335004105e-05
0.21,0.00022418704600009676,-0.7849231399999997,9.636194640009468e-05,-2.35595086,0.00013685822200007345,1.5709238799999998,0.78599126,0.0399999816,0.03999999,-9.81316679999999,0.008830994740135463,-0.003436383780005575,-0.0016078133000020504,-0.008074009418487587,5.645901880006448e-05
0.2125,0.00022660456750013192,-0.7849160749999996,9.872805150012912e-05,-2.355958375,0.00013869379750010015,1.570921675,0.785990975,0.039999981,0.03999999,-9.812934749999988,0.00900499732234532,-0.003575713725007603,-0.001659054125002796,-0.008076161611825292,5.8070454250087934e-05
0.215,0.0002290220890001671,-0.7849090099999995,0.00010109415660016355,-2.3559658900000007,0.00014052937300012687,1.57091947,0.78599069,0.039999980399999996,0.03999999,-9.812702699999983,0.009178999904555177,-0.0037150436700096306,-0.0017102949500035418,-0.008078313805162999,5.968188970011138e-05
0.2175,0.00023161941900020708,-0.7849020599999995,0.00010363525800020247,-2.3559734050000003,0.00014250036850015698,1.5709170749999999,0.785990308,0.03999997985,0.0399999899,-9.812469149999982,0.009349364414822547,-0.003853077955009485,-0.0017639169250040887,-0.008076355652882877,6.140884900013711e-05
0.22,0.00023457636600012911,-0.7848953399999997,0.00010652635200012622,-2.3559809200000004,0.00014474220400009785,1.5709142999999999,0.785989732,0.039999979399999996,0.0399999896,-9.812232599999989,0.00951245278120752,-0.003988520920005913,-0.0018223012000025487,-0.008066176809370015,6.336685600008547e-05
0.2225,0.00023753331300005112,-0.7848886199999999,0.00010941744600004996,-2.355988435,0.00014698403950003873,1.5709115249999999,0.785989156,0.03999997895,0.0399999893,-9.811996049999996,0.009675541147592493,-0.004123963885002341,-0.001880685475001009,-0.008055997965857153,6.532486300003383e-05
0.225,0.00024049025999997313,-0.7848819000000001,0.00011230853999997371,-2.35599595,0.0001492258749999796,1.57090875,0.78598858,0.0399999785,0.039999989,-9.811759500000003,0.009838629513977468,-0.004259406849998769,-0.001939069749999469,-0.008045819122344292,6.72828699999822e-05
0.2275,0.00024344720699989513,-0.7848751800000002,0.00011519963399989746,-2.3560034649999997,0.00015146771049992047,1.570905975,0.785988004,0.039999978049999996,0.0399999887,-9.811522950000008,0.010001717880362441,-0.0043948498149951965,-0.001997454024997929,-0.00803564027883143,6.924087699993056e-05
0.23,0.00024640415399981717,-0.7848684600000004,0.00011809072799982121,-2.3560109799999998,0.00015370954599986137,1.5709032,0.785987428,0.0399999776,0.0399999884,-9.811286400000014,0.010164806246747414,-0.004530292779991624,-0.002055838299996389,-0.008025461435318569,7.11988839998789e-05
0.2325,0.00024936110099973914,-0.7848617400000006,0.00012098182199974495,-2.3560184949999994,0.00015595138149980225,1.570900425,0.785986852,0.03999997715,0.0399999881,-9.811049850000021,0.010327894613132388,-0.004665735744988052,-0.0021142225749948493,-0.008015282591805707,7.315689099982727e-05
0.23500000000000001,0.00025272116299968907,-0.7848552200000006,0.00012426500999969625,-2.3560260499999996,0.00015849651299976457,1.5708972800000003,0.785986279,0.0399999753,0.0399999865,-9.81081940000002,0.01050808904690882,-0.004807742619987315,-0.0021766075999943785,-0.007997335214169685,7.526142959980986e-05
0.23750000000000002,0.0002562827824997409,-0.7848488000000005,0.00012774424499974686,-2.356033625,0.0001611932924998038,1.57089395,0.7859857075,0.03999997275,0.03999998425,-9.810592000000018,0.010696836514384718,-0.0049530314499894295,-0.0022409929999953155,-0.007975503569470388,7.743923399984156e-05
0.24,0.0002598444019997927,-0.7848423800000004,0.00013122347999979748,-2.3560411999999995,0.00016389007199984302,1.5708906200000001,0.785985136,0.0399999702,0.039999982,-9.810364600000014,0.010885583981860613,-0.005098320279991543,-0.002305378399996252,-0.00795367192477109,7.961703839987323e-05
0.2425,0.00026340602149984454,-0.7848359600000003,0.00013470271499984812,-2.3560487749999997,0.00016658685149988228,1.5708872900000002,0.7859845645,0.03999996765,0.03999997975,-9.81013720000001,0.01107433144933651,-0.005243609109993657,-0.002369763799997189,-0.007931840280071793,8.179484279990492e-05
0.245,0.00026696764099989634,-0.7848295400000003,0.00013818194999989873,-2.35605635,0.00016928363099992153,1.5708839600000002,0.785983993,0.0399999651,0.0399999775,-9.809909800000007,0.011263078916812407,-0.0053888979399957715,-0.002434149199998126,-0.007910008635372496,8.397264719993662e-05
0.2475,0.00027052926049994815,-0.7848231200000001,0.00014166118499994937,-2.356063925,0.00017198041049996075,1.57088063,0.7859834215,0.039999962550000004,0.03999997525,-9.809682400000003,0.011451826384288304,-0.005534186769997886,-0.002498534599999063,-0.007888176990673198,8.615045159996831e-05
0.25,0.00027409088,-0.7848167,0.00014514042,-2.3560715,0.00017467719,1.5708773,0.78598285,0.03999996,0.039999973,-9.809455,0.0116405738517642,-0.0056794756,-0.00256292,-0.0078663453459739,8.8328256e-05
0.2525,0.0002783239550000616,-0.7848105049999999,0.00014927240700006014,-2.3560791500000002,0.0001778787615000466,1.5708733849999998,0.785982277,0.0399999585,0.03999997195,-9.809220549999997,0.011808133963497924,-0.005822125465002076,-0.002634849845001047,-0.007832286600022945,9.06027388500331e-05
0.255,0.0002825570300001232,-0.7848043099999998,0.0001534043940001203,-2.3560868000000004,0.00018108033300009318,1.5708694699999999,0.785981704,0.039999957,0.0399999709,-9.808986099999993,0.011975694075231648,-0.005964775330004152,-0.0027067796900020935,-0.007798227854071989,9.287722170006621e-05
0.2575,0.0002867901050001848,-0.7847981149999997,0.0001575363810001804,-2.3560944500000005,0.00018428190450013978,1.5708655549999997,0.785981131,0.0399999555,0.03999996985,-9.80875164999999,0.01214325418696537,-0.006107425195006228,-0.0027787095350031406,-0.007764169108121033,9.51517045500993e-05
0.26,0.00029102318000024643,-0.7847919199999996,0.00016166836800024053,-2.3561021000000006,0.00018748347600018638,1.5708616399999997,0.785980558,0.039999954,0.0399999688,-9.808517199999987,0.012310814298699093,-0.006250075060008304,-0.0028506393800041873,-0.007730110362170078,9.74261874001324e-05
0.2625,0.000295256255000308,-0.7847857249999995,0.00016580035500030066,-2.356109750000001,0.00019068504750023295,1.5708577249999995,0.785979985,0.0399999525,0.03999996775,-9.808282749999984,0.012478374410432817,-0.00639272492501038,-0.002922569225005234,-0.0076960516162191215,9.97006702501655e-05
0.265,0.0002994893300003696,-0.7847795299999994,0.0001699323420003608,-2.356117400000001,0.00019388661900027955,1.5708538099999996,0.785979412,0.039999951,0.0399999667,-9.80804829999998,0.01264593452216654,-0.006535374790012456,-0.0029944990700062806,-0.007661992870268166,0.0001019751531001986
0.2675,0.0003039688985004839,-0.7847733949999994,0.00017430386750047207,-2.3561251800000007,0.00019727346100036568,1.5708496849999996,0.7859787435,0.03999994985,0.0399999657,-9.807811399999977,0.01282431082801973,-0.00668476156501585,-0.0030689980650077503,-0.007623798795971157,0.00010436794995025591
0.27,0.00030894145400048843,-0.7847673799999995,0.0001791544700004765,-2.3561332200000007,0.0002010308440003691,1.5708451399999994,0.7859778839999999,0.0399999494,0.039999964799999996,-9.807569599999976,0.013024319522102408,-0.006847622160015998,-0.003148635360007823,-0.0075773340649856556,0.0001069973748002583
0.2725,0.000313914009500493,-0.7847613649999994,0.0001840050725004809,-2.3561412600000007,0.0002047882270003725,1.5708405949999995,0.7859770245,0.03999994895,0.0399999639,-9.807327799999976,0.013224328216185084,-0.007010482755016146,-0.0032282726550078955,-0.007530869334000153,0.00010962679965026069
0.275,0.0003188865650004975,-0.7847553499999994,0.00018885567500048534,-2.3561493000000007,0.00020854561000037595,1.5708360499999994,0.7859761649999999,0.0399999485,0.039999963,-9.807085999999975,0.01342433691026776,-0.007173343350016294,-0.0033079099500079676,-0.007484404603014651,0.00011225622450026308
0.2775,0.00032385912050050206,-0.7847493349999994,0.00019370627750048974,-2.3561573400000007,0.00021230299300037937,1.5708315049999995,0.7859753054999999,0.03999994805,0.0399999621,-9.806844199999976,0.013624345604350439,-0.007336203945016443,-0.00338754724500804,-0.007437939872029149,0.00011488564935026547
0.28,0.00032883167600050657,-0.7847433199999994,0.00019855688000049415,-2.3561653800000006,0.00021606037600038278,1.5708269599999996,0.7859744459999999,0.0399999476,0.0399999612,-9.806602399999974,0.013824354298433116,-0.007499064540016591,-0.0034671845400081128,-0.007391475141043646,0.00011751507420026787
0.28250000000000003,0.0003338042315005111,-0.7847373049999994,0.00020340748250049858,-2.3561734200000006,0.00021981775900038622,1.5708224149999994,0.7859735864999999,0.03999994715,0.0399999603,-9.806360599999975,0.014024362992515794,-0.007661925135016739,-0.0035468218350081853,-0.0073450104100581445,0.00012014449905027027
0.28500000000000003,0.0003393158390005469,-0.7847313739999995,0.00020878172500053317,-2.356181870000001,0.0002239799860004129,1.5708174299999995,0.7859727299999999,0.0399999466,0.03999996,-9.80614169999998,0.01420618146659571,-0.007823799500015266,-0.003630812580008151,-0.0072908842004780275,0.0001228385516002579
0.28750000000000003,0.0003450969725004733,-0.7847254849999995,0.0002144177875004614,-2.3561905250000006,0.00022834463500035732,1.5708122249999996,0.7859718749999999,0.039999946,0.03999996,-9.805934249999982,0.014378904830678465,-0.007985180750013213,-0.003716980050007054,-0.0072329272516023805,0.0001255649180002232
0.29,0.00035087810600039954,-0.7847195959999996,0.00022005385000038952,-2.3561991800000004,0.00023270928400030165,1.5708070199999995,0.78597102,0.0399999454,0.03999996,-9.805726799999986,0.014551628194761218,-0.008146562000011154,-0.003803147520005955,-0.0071749703027267344,0.00012829128440018843
0.2925,0.00035665923950032593,-0.7847137069999996,0.00022568991250031777,-2.3562078350000006,0.0002370739330002461,1.5708018149999996,0.7859701649999999,0.0399999448,0.03999996,-9.805519349999988,0.014724351558843973,-0.008307943250009098,-0.003889314990004858,-0.0071170133538510875,0.0001310176508001537
0.295,0.00036244037300025233,-0.7847078179999998,0.000231325975000246,-2.3562164900000004,0.00024143858200019051,1.5707966099999997,0.7859693099999999,0.039999944200000005,0.03999996,-9.80531189999999,0.01489707492292673,-0.008469324500007045,-0.0039754824600037614,-0.00705905640497544,0.000133744017200119
0.2975,0.0003682215065001787,-0.7847019289999999,0.00023696203750017426,-2.3562251450000002,0.00024580323100013493,1.5707914049999998,0.785968455,0.039999943600000004,0.03999996,-9.805104449999995,0.015069798287009484,-0.00863070575000499,-0.004061649930002664,-0.007001099456099793,0.0001364703836000843
0.3,0.0003740026400001211,-0.7846960399999999,0.000242598100000118,-2.3562338,0.00025016788000009133,1.5707862,0.7859676,0.039999943,0.03999996,-9.804896999999997,0.015242521651092569,-0.008792087000003257,-0.004147817400001713,-0.006943142507223957,0.00013919675000005605
0.3025,0.00038066223800021804,-0.7846902289999999,0.00024908723500021243,-2.3562426050000003,0.00025519215400016446,1.5707801699999997,0.78596652,0.039999943600000004,0.0399999609,-9.804718199999995,0.01543334000744541,-0.008971140050005863,-0.004242029430003084,-0.006874797237103357,0.0001422786560001009
0.305,0.0003873218360003149,-0.7846844179999998,0.00025557637000030685,-2.3562514100000005,0.0002602164280002376,1.5707741399999997,0.7859654399999999,0.039999944200000005,0.0399999618,-9.804539399999992,0.015624158363798255,-0.009150193100008468,-0.004336241460004455,-0.006806451966982758,0.00014536056200014575
0.3075,0.00039398143400041184,-0.7846786069999997,0.0002620655050004013,-2.3562602150000007,0.0002652407020003107,1.5707681099999995,0.7859643599999999,0.0399999448,0.0399999627,-9.80436059999999,0.015814976720151096,-0.009329246150011072,-0.004430453490005826,-0.006738106696862158,0.0001484424680001906
0.31,0.00040064103200050877,-0.7846727959999996,0.00026855464000049575,-2.3562690200000005,0.0002702649760003838,1.5707620799999995,0.7859632799999999,0.0399999454,0.0399999636,-9.804181799999988,0.01600579507650394,-0.009508299200013679,-0.004524665520007198,-0.0066697614267415585,0.00015152437400023545
0.3125,0.0004073006300006057,-0.7846669849999994,0.00027504377500059017,-2.3562778250000007,0.00027528925000045693,1.5707560499999995,0.7859621999999999,0.039999946,0.0399999645,-9.804002999999984,0.01619661343285678,-0.009687352250016285,-0.004618877550008569,-0.006601416156620959,0.0001546062800002803
0.315,0.0004139602280007026,-0.7846611739999994,0.00028153291000068464,-2.356286630000001,0.00028031352400053006,1.5707500199999993,0.7859611199999998,0.0399999466,0.0399999654,-9.803824199999982,0.016387431789209622,-0.00986640530001889,-0.0047130895800099395,-0.006533070886500359,0.00015768818600032515
0.3175,0.0004209361670008442,-0.7846553719999994,0.0002883291750008223,-2.356295755000001,0.0002855752010006365,1.5707437099999992,0.7859600174999999,0.0399999468,0.039999966,-9.803618199999972,0.0165847441181773,-0.010050360150021498,-0.004809646450011234,-0.006460507283909512,0.00016080125250035235
0.32,0.0004285447880007474,-0.7846495879999994,0.00029573970000072795,-2.3563055200000007,0.0002913116840005635,1.5707368399999992,0.7859588699999999,0.039999946200000004,0.039999966,-9.803357799999976,0.016795044392367918,-0.010244118600019031,-0.004910893000009945,-0.006379507016382543,0.00016397664000031192
0.3225,0.0004361534090006505,-0.7846438039999994,0.0003031502250006336,-2.356315285000001,0.00029704816700049043,1.5707299699999995,0.7859577224999998,0.0399999456,0.039999966,-9.803097399999977,0.017005344666558536,-0.010437877050016565,-0.0050121395500086555,-0.0062985067488555745,0.00016715202750027148
0.325,0.00044376203000055363,-0.7846380199999996,0.00031056075000053925,-2.3563250500000006,0.0003027846500004174,1.5707230999999995,0.7859565749999999,0.039999945,0.039999966,-9.80283699999998,0.017215644940749154,-0.010631635500014098,-0.005113386100007367,-0.006217506481328606,0.00017032741500023105
0.3275,0.00045137065100045676,-0.7846322359999996,0.0003179712750004449,-2.3563348150000003,0.0003085211330003444,1.5707162299999997,0.7859554274999999,0.0399999444,0.039999966,-9.802576599999984,0.01742594521493977,-0.010825393950011631,-0.005214632650006078,-0.006136506213801637,0.00017350280250019064
0.33,0.0004589792720003599,-0.7846264519999997,0.00032538180000035055,-2.3563445800000005,0.0003142576160002713,1.5707093599999997,0.7859542799999999,0.0399999438,0.039999966,-9.802316199999987,0.017636245489130387,-0.011019152400009164,-0.005315879200004789,-0.006055505946274669,0.0001766781900001502
0.3325,0.000466587893000263,-0.7846206679999997,0.0003327923250002562,-2.356354345,0.00031999409900019827,1.57070249,0.7859531325,0.039999943200000006,0.039999966,-9.80205579999999,0.017846545763321005,-0.011212910850006697,-0.0054171257500034995,-0.0059745056787477,0.00017985357750010977
0.335,0.0004748765000004238,-0.7846148659999997,0.00034086285000041266,-2.3563642400000004,0.0003262407520003194,1.5706950199999996,0.7859518199999999,0.039999943700000005,0.0399999671,-9.801873699999993,0.01803362295032406,-0.011414432600010089,-0.005523662760005363,-0.0058873353060289865,0.0001831745080001667
0.3375,0.00048350510000066716,-0.7846090549999996,0.0003492633750006495,-2.3563742000000008,0.0003327424900005027,1.5706872499999995,0.7859504249999999,0.03999994475,0.039999968749999996,-9.801730749999988,0.018209088593734917,-0.011619836000015881,-0.005632845000008441,-0.0057970798807148215,0.0001865682100002624
0.34,0.0004921337000009104,-0.7846032439999994,0.00035766390000088635,-2.356384160000001,0.00033924422800068603,1.5706794799999992,0.7859490299999998,0.0399999458,0.0399999704,-9.801587799999986,0.018384554237145773,-0.011825239400021672,-0.00574202724001152,-0.005706824455400657,0.0001899619120003581
0.3425,0.0005007623000011538,-0.7845974329999993,0.0003660644250011232,-2.3563941200000014,0.0003457459660008693,1.570671709999999,0.7859476349999998,0.03999994685,0.03999997205,-9.801444849999982,0.01856001988055663,-0.012030642800027464,-0.005851209480014598,-0.005616569030086492,0.00019335561400045376
0.34500000000000003,0.0005093909000013971,-0.7845916219999991,0.00037446495000136005,-2.3564040800000017,0.00035224770400105263,1.5706639399999989,0.7859462399999998,0.0399999479,0.0399999737,-9.801301899999977,0.018735485523967487,-0.012236046200033254,-0.005960391720017676,-0.005526313604772327,0.00019674931600054945
0.34750000000000003,0.0005180195000016403,-0.7845858109999989,0.0003828654750015969,-2.356414040000002,0.00035874944200123596,1.5706561699999986,0.7859448449999997,0.03999994895,0.03999997535,-9.801158949999973,0.018910951167378346,-0.012441449600039046,-0.006069573960020755,-0.005436058179458163,0.00020014301800064515
0.35000000000000003,0.0005266481000021218,-0.7845799999999987,0.0003912660000020649,-2.3564240000000023,0.00036525118000159797,1.570648399999998,0.7859434499999997,0.03999995,0.039999977,-9.801015999999942,0.019086416810798517,-0.012646853000050006,-0.006178756200025391,-0.005345802754141178,0.00020353672000081609
0.3525,0.0005363678990019978,-0.7845741349999988,0.00040072547400194425,-2.3564350250000023,0.0003725714800015046,1.5706396849999982,0.7859420174999997,0.0399999512,0.03999997805,-9.800747949999945,0.019304563105151138,-0.012875936975047086,-0.006295074870023907,-0.005242626345695164,0.00020727514300076838
0.355,0.0005460876980018741,-0.784568269999999,0.0004101849480018238,-2.3564460500000024,0.0003798917800014114,1.5706309699999983,0.7859405849999997,0.039999952400000004,0.0399999791,-9.80047989999995,0.01952270939950376,-0.013105020950044169,-0.0064113935400224266,-0.005139449937249147,0.0002110135660007208
0.3575,0.0005558074970017503,-0.784562404999999,0.0004196444220017034,-2.356457075000002,0.0003872120800013182,1.5706222549999984,0.7859391524999997,0.0399999536,0.03999998015,-9.800211849999952,0.019740855693856384,-0.013334104925041251,-0.006527712210020946,-0.005036273528803131,0.0002147519890006732
0.36,0.0005655272960016266,-0.7845565399999991,0.00042910389600158295,-2.356468100000002,0.000394532380001225,1.5706135399999985,0.7859377199999997,0.0399999548,0.0399999812,-9.799943799999955,0.019959001988209005,-0.013563188900038336,-0.006644030880019465,-0.004933097120357115,0.0002184904120006256
0.3625,0.0005752470950015028,-0.7845506749999991,0.0004385633700014625,-2.3564791250000017,0.0004018526800011318,1.5706048249999986,0.7859362874999998,0.039999956,0.03999998225,-9.79967574999996,0.02017714828256163,-0.013792272875035419,-0.006760349550017984,-0.004829920711911098,0.000222228835000578
0.365,0.000584966894001379,-0.7845448099999992,0.0004480228440013421,-2.3564901500000017,0.00040917298000103856,1.5705961099999988,0.7859348549999997,0.039999957200000005,0.0399999833,-9.799407699999962,0.02039529457691425,-0.014021356850032501,-0.006876668220016503,-0.004726744303465082,0.0002259672580005304
0.3675,0.0005950742470014055,-0.7845389149999992,0.00045785832700136734,-2.3565015050000016,0.0004167838260010579,1.5705870449999988,0.7859333284999998,0.0399999584,0.0399999848,-9.799181249999982,0.020598412957064795,-0.014253233525030667,-0.0069957110850160775,-0.004620458860867026,0.00022968922900047645
0.37,0.0006059567080012669,-0.7845329599999993,0.0004684458280012326,-2.3565135200000014,0.00042497576400095366,1.5705772799999989,0.7859316139999998,0.0399999596,0.0399999872,-9.799037999999983,0.020771475508829226,-0.014490695600027644,-0.007120202340014492,-0.004507955349968623,0.00023337829600042948
0.3725,0.0006168391690011283,-0.7845270049999994,0.00047903332900109776,-2.356525535000001,0.00043316770200084936,1.5705675149999991,0.7859298994999998,0.0399999608,0.0399999896,-9.798894749999985,0.02094453806059366,-0.01472815767502462,-0.007244693595012908,-0.00439545183907022,0.0002370673630003825
0.375,0.0006277216300009898,-0.7845210499999995,0.000489620830000963,-2.356537550000001,0.00044135964000074505,1.5705577499999992,0.7859281849999998,0.039999962,0.039999992000000005,-9.798751499999987,0.02111760061235809,-0.014965619750021596,-0.007369184850011323,-0.004282948328171818,0.00024075643000033553
0.3775,0.0006386040910008513,-0.7845150949999995,0.0005002083310008281,-2.3565495650000012,0.00044955157800064075,1.5705479849999993,0.7859264704999999,0.0399999632,0.0399999944,-9.798608249999988,0.021290663164122522,-0.015203081825018573,-0.007493676105009737,-0.004170444817273415,0.00024444549700028856
0.38,0.0006494865520007126,-0.7845091399999996,0.0005107958320006934,-2.356561580000001,0.00045774351600053645,1.5705382199999995,0.7859247559999999,0.0399999644,0.0399999968,-9.79846499999999,0.021463725715886953,-0.01544054390001555,-0.007618167360008152,-0.004057941306375013,0.0002481345640002416
0.3825,0.0006603690130005741,-0.7845031849999997,0.0005213833330005586,-2.356573595000001,0.00046593545400043214,1.5705284549999996,0.7859230414999999,0.0399999656,0.039999999200000004,-9.798321749999992,0.021636788267651384,-0.015678005975012527,-0.007742658615006567,-0.00394543779547661,0.0002518236310001946
0.385,0.0006720740700007053,-0.7844971099999997,0.0005327688630006861,-2.3565859000000007,0.00047474418000053074,1.5705179599999994,0.7859212299999999,0.039999966399999996,0.04,-9.79815429999999,0.02184221316130258,-0.015935452200015566,-0.00787188083000766,-0.003826519637361481,0.00025573061100023377
0.3875,0.0006841904250008816,-0.7844909749999995,0.0005445534075008575,-2.356598350000001,0.0004838613000006634,1.5705070999999993,0.7859193699999999,0.039999967,0.04,-9.797974749999986,0.022063819225893625,-0.016202890500019457,-0.008003468525009575,-0.0037043941556386887,0.0002597465475002922
0.39,0.0006963067800010579,-0.7844848399999995,0.000556337952001029,-2.3566108000000012,0.0004929784200007961,1.570496239999999,0.7859175099999999,0.0399999676,0.04,-9.797795199999983,0.022285425290484672,-0.016470328800023352,-0.00813505622001149,-0.003582268673915896,0.00026376248400035066
0.3925,0.0007084231350012343,-0.7844787049999994,0.0005681224965012005,-2.3566232500000015,0.0005020955400009288,1.570485379999999,0.7859156499999999,0.0399999682,0.04,-9.797615649999981,0.022507031355075716,-0.016737767100027244,-0.008266643915013404,-0.003460143192193104,0.0002677784205004091
0.395,0.0007205394900014106,-0.7844725699999993,0.000579907041001372,-2.3566357000000013,0.0005112126600010614,1.5704745199999988,0.7859137899999998,0.0399999688,0.04,-9.79743609999998,0.022728637419666763,-0.017005205400031136,-0.008398231610015319,-0.0033380177104703115,0.00027179435700046755
0.3975,0.0007326558450015868,-0.7844664349999992,0.0005916915855015434,-2.3566481500000016,0.0005203297800011941,1.5704636599999986,0.7859119299999998,0.0399999694,0.04,-9.797256549999977,0.022950243484257806,-0.017272643700035027,-0.008529819305017235,-0.0032158922287475193,0.000275810293500526
0.4,0.0007447722000019531,-0.7844602999999991,0.0006034761300018991,-2.356660600000002,0.0005294469000014694,1.5704527999999982,0.7859100699999997,0.03999997,0.04,-9.797076999999966,0.023171849548841952,-0.017540082000041875,-0.008661407000020275,-0.0030937667470229326,0.0002798262300006487
0.4025,0.0007581937200019654,-0.7844540149999991,0.000616526665501911,-2.356674115000002,0.0005395444200014787,1.5704407999999983,0.7859080644999997,0.0399999694,0.04,-9.796846749999967,0.02334604533391754,-0.017827838100042136,-0.008800731350020402,-0.0029593090060901,0.00028428360300065275
0.405,0.0007716152400019776,-0.784447729999999,0.000629577201001923,-2.356687630000002,0.0005496419400014879,1.5704287999999982,0.7859060589999998,0.0399999688,0.04,-9.796616499999965,0.02352024111899313,-0.018115594200042398,-0.008940055700020528,-0.002824851265157268,0.0002887409760006568
0.40750000000000003,0.0007850367600019899,-0.784441444999999,0.0006426277365019349,-2.356701145000002,0.000559739460001497,1.570416799999998,0.7859040534999997,0.0399999682,0.04,-9.796386249999966,0.023694436904068715,-0.01840335030004266,-0.009079380050020656,-0.0026903935242244353,0.00029319834900066083
0.41000000000000003,0.0007984582800020021,-0.784435159999999,0.0006556782720019467,-2.356714660000002,0.0005698369800015063,1.5704047999999982,0.7859020479999997,0.0399999676,0.04,-9.796155999999964,0.023868632689144305,-0.01869110640004292,-0.009218704400020783,-0.002555935783291603,0.0002976557220006649
0.41250000000000003,0.0008118798000020143,-0.784428874999999,0.0006687288075019587,-2.356728175000002,0.0005799345000015154,1.570392799999998,0.7859000424999997,0.039999967,0.04,-9.795925749999965,0.024042828474219895,-0.018978862500043187,-0.009358028750020909,-0.0024214780423587705,0.00030211309500066897
0.41500000000000004,0.0008253013200020265,-0.784422589999999,0.0006817793430019706,-2.356741690000002,0.0005900320200015246,1.5703807999999981,0.7858980369999997,0.039999966399999996,0.04,-9.795695499999965,0.02421702425929548,-0.019266618600043448,-0.009497353100021037,-0.002287020301425938,0.00030657046800067303
0.4175,0.0008391815470021801,-0.784416234999999,0.0006952747630021195,-2.356755555000002,0.0006004737100016398,1.570368394999998,0.7858959379999997,0.0399999657,0.03999999975,-9.795479499999972,0.024407697655293457,-0.019561145700045388,-0.00963925965002167,-0.0021493194449945367,0.00031104123650066266
0.42,0.0008539791880019917,-0.7844097399999991,0.0007096599520019362,-2.356770120000002,0.0006116037400014981,1.5703551799999982,0.7858936519999997,0.039999964799999996,0.039999999,-9.795291999999975,0.02463132627311374,-0.019869214800041467,-0.009786330600019795,-0.0020051323575704127,0.00031553879600060536
0.4225,0.0008687768290018033,-0.7844032449999991,0.0007240451410017531,-2.356784685000002,0.0006227337700013564,1.5703419649999983,0.7858913659999998,0.0399999639,0.03999999825,-9.795104499999978,0.024854954890934023,-0.020177283900037542,-0.009933401550017923,-0.0018609452701462883,0.0003200363555005481
0.425,0.0008835744700016149,-0.7843967499999993,0.0007384303300015699,-2.3567992500000017,0.0006338638000012146,1.5703287499999985,0.7858890799999998,0.039999963,0.0399999975,-9.794916999999979,0.025078583508754304,-0.02048535300003362,-0.01008047250001605,-0.001716758182722164,0.00032453391500049085
0.4275,0.0008983721110014265,-0.7843902549999994,0.0007528155190013868,-2.3568138150000015,0.0006449938300010729,1.5703155349999987,0.7858867939999998,0.0399999621,0.03999999675,-9.794729499999981,0.02530221212657459,-0.0207934221000297,-0.010227543450014177,-0.00157257109529804,0.0003290314745004336
0.43,0.0009131697520012381,-0.7843837599999994,0.0007672007080012037,-2.3568283800000014,0.0006561238600009312,1.5703023199999988,0.7858845079999999,0.0399999612,0.039999996,-9.794541999999984,0.025525840744394873,-0.021101491200025777,-0.010374614400012305,-0.0014283840078739157,0.0003335290340003763
0.4325,0.0009279673930010497,-0.7843772649999995,0.0007815858970010205,-2.3568429450000012,0.0006672538900007896,1.570289104999999,0.7858822219999999,0.0399999603,0.03999999525,-9.794354499999987,0.025749469362215154,-0.021409560300021856,-0.010521685350010433,-0.0012841969204497915,0.00033802659350031905
0.435,0.000943729506001241,-0.7843705849999995,0.0007969064240012062,-2.3568582900000012,0.000679105755000933,1.570275009999999,0.7858797739999999,0.03999996,0.0399999955,-9.794183799999988,0.025936203263712848,-0.0217338773000254,-0.01067350920001178,-0.0011332868918425142,0.00034247661200033814
0.4375,0.0009599738550014774,-0.7843638124999994,0.0008126946200014359,-2.3568740250000015,0.0006913185375011108,1.5702604749999987,0.7858772449999998,0.03999996,0.03999999625,-9.794021499999985,0.026104489807054782,-0.022066318250030234,-0.010827709500014025,-0.0009790153926446691,0.00034690286000040255
0.44,0.0009762182040017138,-0.7843570399999993,0.0008284828160016657,-2.356889760000002,0.0007035313200012885,1.5702459399999984,0.7858747159999998,0.03999996,0.039999997,-9.793859199999984,0.026272776350396716,-0.022398759200035073,-0.010981909800016268,-0.000824743893446824,0.00035132910800046696
0.4425,0.0009924625530019502,-0.7843502674999993,0.0008442710120018954,-2.356905495000002,0.0007157441025014662,1.5702314049999984,0.7858721869999997,0.03999996,0.03999999775,-9.793696899999981,0.02644106289373865,-0.02273120015003991,-0.011136110100018512,-0.0006704723942489789,0.0003557553560005314
0.445,0.0010087069020021865,-0.7843434949999991,0.0008600592080021252,-2.356921230000002,0.000727956885001644,1.570216869999998,0.7858696579999996,0.03999996,0.0399999985,-9.793534599999978,0.026609349437080584,-0.02306364110004475,-0.011290310400020756,-0.0005162008950511338,0.0003601816040005958
0.4475,0.001024951251002423,-0.7843367224999991,0.0008758474040023549,-2.3569369650000023,0.0007401696675018218,1.5702023349999978,0.7858671289999997,0.03999996,0.03999999925,-9.793372299999977,0.02677763598042252,-0.023396082050049588,-0.011444510700023,-0.0003619293958532887,0.0003646078520006602
0.45,0.0010411956000029078,-0.7843299499999989,0.0008916356000028255,-2.3569527000000026,0.0007523824500021857,1.5701877999999974,0.7858645999999996,0.03999996,0.04,-9.79320999999997,0.026945922523774143,-0.023728523000059565,-0.011598711000026444,-0.00020765789665394858,0.0003690341000007893
0.4525,0.0010589568000026815,-0.784322892499999,0.0009088946450026057,-2.3569696500000026,0.0007657328385020157,1.5701719749999976,0.7858618624999996,0.0399999591,0.03999999925,-9.793028499999973,0.027173407096450053,-0.02409234410005493,-0.011760237750024386,-4.425406948287906e-05,0.0003738553520007279
0.455,0.0010767180000024554,-0.784315834999999,0.000926153690002386,-2.356986600000002,0.0007790832270018457,1.5701561499999979,0.7858591249999997,0.0399999582,0.0399999985,-9.792846999999975,0.02740089166912596,-0.024456165200050298,-0.01192176450002233,0.00011914975768819044,0.00037867660400066653
0.4575,0.0010944792000022294,-0.7843087774999992,0.0009434127350021664,-2.357003550000002,0.0007924336155016757,1.570140324999998,0.7858563874999996,0.0399999573,0.03999999775,-9.792665499999977,0.02762837624180187,-0.024819986300045664,-0.012083291250020273,0.00028255358485926,0.00038349785600060515
0.46,0.001112240400002003,-0.7843017199999992,0.0009606717800019466,-2.357020500000002,0.0008057840040015058,1.5701244999999981,0.7858536499999997,0.0399999564,0.039999997,-9.792483999999979,0.02785586081447778,-0.025183807400041034,-0.012244818000018217,0.0004459574120303295,0.00038831910800054376
0.4625,0.001130001600001777,-0.7842946624999994,0.0009779308250017268,-2.3570374500000018,0.0008191343925013358,1.5701086749999984,0.7858509124999997,0.039999955499999996,0.03999999625,-9.792302499999982,0.028083345387153687,-0.0255476285000364,-0.01240634475001616,0.000609361239201399,0.0003931403600004824
0.465,0.0011477628000015508,-0.7842876049999994,0.000995189870001507,-2.3570544000000018,0.0008324847810011657,1.5700928499999987,0.7858481749999998,0.0399999546,0.0399999955,-9.792120999999984,0.028310829959829597,-0.025911449600031767,-0.012567871500014104,0.0007727650663724686,0.000397961612000421
0.4675,0.001166052805001531,-0.7842804424999994,0.0010129616450014875,-2.3570717450000016,0.0008462304230011504,1.5700765499999987,0.7858453604999998,0.039999953799999995,0.03999999525,-9.791948549999988,0.028516820073140596,-0.02628326355003069,-0.012731888150013373,0.0009394542692598363,0.0004027105635003644
0.47000000000000003,0.0011854004200015486,-0.7842730699999994,0.0010317588800015046,-2.3570898800000015,0.0008607665720011636,1.5700592999999985,0.7858423919999997,0.0399999532,0.039999996,-9.791794199999988,0.028679821267737028,-0.026671063200031042,-0.012900884600013526,0.001112714223577469,0.0004073149140003686
0.47250000000000003,0.0012047480350015662,-0.7842656974999994,0.0010505561150015218,-2.3571080150000014,0.0008753027210011768,1.5700420499999985,0.7858394234999998,0.0399999526,0.03999999675,-9.791639849999987,0.02884282246233346,-0.027058862850031395,-0.013069881050013681,0.0012859741778951017,0.0004119192645003728
0.47500000000000003,0.001224095650001584,-0.7842583249999994,0.001069353350001539,-2.3571261500000014,0.00088983887000119,1.5700247999999986,0.7858364549999998,0.039999952,0.0399999975,-9.791485499999988,0.029005823656929896,-0.02744666250003175,-0.013238877500013835,0.0014592341322127345,0.00041652361500037693
0.47750000000000004,0.0012434432650016015,-0.7842509524999993,0.001088150585001556,-2.3571442850000013,0.0009043750190012033,1.5700075499999986,0.7858334864999997,0.0399999514,0.03999999825,-9.791331149999987,0.029168824851526328,-0.027834462150032102,-0.013407873950013988,0.001632494086530367,0.0004211279655003811
0.48,0.0012627908800016186,-0.7842435799999994,0.0011069478200015728,-2.3571624200000016,0.0009189111680012161,1.5699902999999986,0.7858305179999997,0.039999950799999996,0.039999999,-9.791176799999988,0.029331826046122757,-0.02822226180003245,-0.01357687040001414,0.0018057540408479961,0.0004257323160003852
0.4825,0.0012821384950016362,-0.7842362074999993,0.0011257450550015897,-2.3571805550000016,0.0009334473170012294,1.5699730499999986,0.7858275494999997,0.0399999502,0.03999999975,-9.791022449999987,0.029494827240719192,-0.028610061450032802,-0.013745866850014292,0.0019790139951656287,0.0004303366665003894
0.485,0.0013025897300019864,-0.7842285949999992,0.0011456122900019297,-2.357199570000002,0.0009488110300014922,1.5699548399999983,0.7858244089999996,0.0399999493,0.0399999995,-9.790838599999981,0.029702439345441065,-0.029020095200039835,-0.01391977180001668,0.0021586896386169875,0.0004352737920004827
0.4875,0.0013235927750022921,-0.7842208624999991,0.0011660145250022265,-2.3572190250000022,0.0009645885250017218,1.569936149999998,0.7858211824999997,0.03999994825,0.03999999875,-9.790639999999978,0.02993235690521714,-0.029441246000045964,-0.014096131000019246,0.002341573126633984,0.00044037730500055697
0.49,0.0013445958200025978,-0.784213129999999,0.0011864167600025234,-2.357238480000002,0.0009803660200019514,1.5699174599999977,0.7858179559999996,0.039999947200000004,0.039999998,-9.790441399999976,0.030162274464993217,-0.029862396800052093,-0.014272490200021814,0.0025244566146509803,0.00044548081800063126
0.4925,0.0013655988650029035,-0.784205397499999,0.0012068189950028203,-2.3572579350000025,0.000996143515002181,1.5698987699999973,0.7858147294999995,0.03999994615,0.03999999725,-9.790242799999973,0.030392192024769293,-0.03028354760005822,-0.01444884940002438,0.002707340102667977,0.00045058433100070554
0.495,0.0013866019100032092,-0.7841976649999989,0.0012272212300031172,-2.357277390000003,0.0010119210100024106,1.569880079999997,0.7858115029999995,0.0399999451,0.0399999965,-9.79004419999997,0.03062210958454537,-0.03070469840006435,-0.014625208600026947,0.002890223590684973,0.0004556878440007798
0.4975,0.0014076049550035149,-0.7841899324999987,0.001247623465003414,-2.357296845000003,0.0010276985050026402,1.569861389999997,0.7858082764999994,0.03999994405,0.03999999575,-9.789845599999968,0.030852027144321444,-0.031125849200070478,-0.014801567800029513,0.0030731070787019697,0.00046079135700085406
0.5,0.0014286080000041341,-0.7841821999999986,0.001268025700004015,-2.357316300000004,0.001043476000003104,1.5698426999999961,0.7858050499999993,0.039999943,0.039999995,-9.789646999999974,0.03108194470408461,-0.031547000000082176,-0.014977927000033375,0.003255990566720707,0.00046589487000088113
0.5025000000000001,0.001451334710003845,-0.7841740624999987,0.0012900989350037345,-2.3573375550000035,0.0010605409000028871,1.5698224799999965,0.7858015534999994,0.03999994195,0.03999999575,-9.789500299999975,0.031240881793227784,-0.031998774950076435,-0.015161405050031043,0.003448444197452496,0.00047073900000081957
0.505,0.0014740614200035552,-0.7841659249999988,0.001312172170003453,-2.357358810000003,0.0010776058000026695,1.5698022599999968,0.7857980569999995,0.0399999409,0.0399999965,-9.789353599999977,0.03139981888237096,-0.03245054990007067,-0.015344883100028702,0.0036408978281842765,0.0004755831300007578
0.5075000000000001,0.0014967881300032664,-0.7841577874999989,0.0013342454050031725,-2.3573800650000027,0.0010946707000024525,1.569782039999997,0.7857945604999995,0.03999993985,0.03999999725,-9.789206899999979,0.03155875597151413,-0.03290232485006493,-0.01552836115002637,0.0038333514589160653,0.0004804272600006962
0.51,0.0015195148400029765,-0.7841496499999989,0.001356318640002891,-2.357401320000003,0.001111735600002235,1.5697618199999974,0.7857910639999995,0.0399999388,0.039999998,-9.789060199999982,0.0317176930606573,-0.03335409980005917,-0.01571183920002403,0.004025805089647846,0.0004852713900006344
0.5125,0.0015422415500026866,-0.7841415124999991,0.0013783918750026095,-2.3574225750000024,0.0011288005000020173,1.5697415999999975,0.7857875674999996,0.03999993775,0.03999999875,-9.788913499999984,0.03187663014980047,-0.03380587475005341,-0.01589531725002169,0.004218258720379626,0.0004901155200005726
0.515,0.0015649682600023978,-0.7841333749999991,0.001400465110002329,-2.357443830000002,0.0011458654000018004,1.5697213799999978,0.7857840709999996,0.0399999367,0.0399999995,-9.788766799999985,0.032035567238943644,-0.03425764970004766,-0.016078795300019356,0.004410712351111415,0.000494959650000511
0.5175,0.0015882919950023855,-0.7841251099999992,0.0014231171700023167,-2.357465500000002,0.001163378345001791,1.5697006249999979,0.7857804779999996,0.039999936,0.04,-9.788627099999989,0.0322181230411157,-0.034721941650047605,-0.01626463380001854,0.004605445731450541,0.0004999564365005158
0.52,0.0016128097800024084,-0.7841165899999992,0.0014469268800023389,-2.3574880000000022,0.0011817873800018083,1.569678799999998,0.7857766919999997,0.039999936,0.04,-9.788501399999989,0.03244791626932494,-0.035211267600048064,-0.016455193200018717,0.0048047386110023765,0.0005052585360005207
0.5225,0.0016373275650024303,-0.7841080699999992,0.0014707365900023602,-2.3575105000000023,0.0012001964150018247,1.5696569749999978,0.7857729059999996,0.039999936,0.04,-9.788375699999989,0.03267770949753416,-0.0357005935500485,-0.01664575260001889,0.005004031490554204,0.0005105606355005255
0.525,0.0016618453500024531,-0.7840995499999992,0.0014945463000023823,-2.3575330000000023,0.0012186054500018418,1.5696351499999979,0.7857691199999997,0.039999936,0.04,-9.788249999999987,0.032907502725743394,-0.036189919500048955,-0.016836312000019064,0.00520332437010604,0.0005158627350005305
0.5275,0.0016863631350024749,-0.7840910299999991,0.0015183560100024034,-2.3575555000000024,0.0012370144850018582,1.5696133249999977,0.7857653339999996,0.039999936,0.04,-9.788124299999987,0.033137295953952615,-0.03667924545004939,-0.017026871400019235,0.005402617249657867,0.0005211648345005351
0.53,0.0017108809200024977,-0.7840825099999992,0.0015421657200024256,-2.3575780000000024,0.0012554235200018754,1.5695914999999978,0.7857615479999996,0.039999936,0.04,-9.787998599999987,0.03336708918216185,-0.037168571400049845,-0.01721743080001941,0.005601910129209703,0.0005264669340005401
0.5325,0.0017353987050025197,-0.7840739899999992,0.0015659754300024467,-2.3576005000000024,0.0012738325550018916,1.5695696749999977,0.7857577619999996,0.039999936,0.04,-9.787872899999988,0.03359688241037108,-0.03765789735005028,-0.017407990200019582,0.005801203008761529,0.0005317690335005449
0.535,0.001761155040002975,-0.7840651549999991,0.0015909857300028887,-2.3576239300000026,0.0012931699200022333,1.5695467499999973,0.7857537899999996,0.039999936,0.04,-9.78771739999998,0.03377727307381001,-0.038165411700058265,-0.017603185500022277,0.006007308838912551,0.0005371105160006047
0.5375,0.0017875306500033583,-0.7840561624999989,0.0016165963250032607,-2.357647825000003,0.0013129714500025212,1.569523274999997,0.7857497249999995,0.039999936,0.04,-9.787546999999979,0.033932962454875246,-0.03868202025006577,-0.017800698750025146,0.006216821144361575,0.0005424716900006826
0.54,0.0018139062600037426,-0.7840471699999988,0.001642206920003634,-2.3576717200000035,0.0013327729800028097,1.5694997999999967,0.7857456599999995,0.039999936,0.04,-9.787376599999977,0.034088651835940495,-0.0391986288000733,-0.017998212000028026,0.006426333449810609,0.0005478328640007607
0.5425,0.0018402818700041259,-0.7840381774999986,0.001667817515004006,-2.3576956150000035,0.0013525745100030975,1.5694763249999963,0.7857415949999994,0.039999936,0.04,-9.787206199999973,0.03424434121700573,-0.03971523735008081,-0.018195725250030895,0.006635845755259633,0.0005531940380008386
0.545,0.0018666574800045104,-0.7840291849999985,0.0016934281100043794,-2.357719510000004,0.001372376040003386,1.569452849999996,0.7857375299999994,0.039999936,0.04,-9.787035799999972,0.03440003059807097,-0.04023184590008834,-0.018393238500033774,0.0068453580607086666,0.0005585552120009168
0.5475,0.0018930330900048936,-0.7840201924999983,0.0017190387050047516,-2.3577434050000043,0.001392177570003674,1.5694293749999957,0.7857334649999993,0.039999936,0.04,-9.786865399999968,0.034555719979136215,-0.040748454450095846,-0.018590751750036643,0.007054870366157691,0.0005639163860009946
0.55,0.0019194087000056629,-0.7840111999999981,0.001744649300005498,-2.3577673000000052,0.001411979100004251,1.569405899999995,0.7857293999999991,0.039999936,0.04,-9.786694999999966,0.03471140936020823,-0.04126506300011159,-0.0187882650000409,0.0072643826716085255,0.0005692775600010809
0.5525,0.001947707835005302,-0.7840017349999983,0.0017721244700051476,-2.3577929800000046,0.00143322225000398,1.5693807299999953,0.7857250349999992,0.039999936,0.04,-9.786526399999968,0.03490094318989484,-0.04182273225010448,-0.018992670300038296,0.0074828926707095735,0.000574678980501012
0.555,0.0019760069700049425,-0.7839922699999984,0.0017995996400047983,-2.3578186600000044,0.0014544654000037101,1.5693555599999955,0.7857206699999992,0.039999936,0.04,-9.786357799999971,0.03509047701958145,-0.04238040150009739,-0.019197075600035696,0.007701402669810631,0.0005800804010009434
0.5575,0.0020043061050045814,-0.7839828049999985,0.001827074810004448,-2.357844340000004,0.0014757085500034391,1.569330389999996,0.7857163049999993,0.039999936,0.04,-9.786189199999972,0.03528001084926806,-0.042938070750090276,-0.01940148090003309,0.007919912668911679,0.0005854818215008745
0.56,0.0020326052400042216,-0.7839733399999986,0.0018545499800040987,-2.3578700200000036,0.001496951700003169,1.5693052199999962,0.7857119399999993,0.039999936,0.04,-9.786020599999974,0.035469544678954676,-0.04349574000008319,-0.01960588620003049,0.008138422668012738,0.0005908832420008058
0.5625,0.0020609043750038606,-0.7839638749999988,0.0018820251500037484,-2.3578957000000034,0.0015181948500028982,1.5692800499999966,0.7857075749999994,0.039999936,0.04,-9.785851999999977,0.035659078508641286,-0.04405340925007608,-0.019810291500027884,0.008356932667113785,0.0005962846625007369
0.5650000000000001,0.0020892035100035008,-0.7839544099999989,0.0019095003200033992,-2.357921380000003,0.001539438000002628,1.5692548799999968,0.7857032099999994,0.039999936,0.04,-9.785683399999979,0.0358486123383279,-0.04461107850006899,-0.020014696800025288,0.008575442666214843,0.0006016860830006682
0.5675,0.0021181654500036363,-0.7839447799999988,0.00193761796000353,-2.3579475950000033,0.001561177440002729,1.5692291299999968,0.7856987449999995,0.039999936,0.04,-9.78552017499998,0.036050383560386576,-0.04518122340007145,-0.02022138120002536,0.008796501066562787,0.0006070554185006369
0.5700000000000001,0.0021484530000040777,-0.7839348199999987,0.0019670205400039585,-2.3579748800000035,0.0015839094600030605,1.5692022199999964,0.7856940799999994,0.039999936,0.04,-9.785367699999979,0.0362766295671767,-0.04577631960008012,-0.02043262380002844,0.009022656269401888,0.0006123605840007143
0.5725,0.002178740550004518,-0.7839248599999985,0.0019964231200043855,-2.358002165000004,0.0016066414800033908,1.5691753099999959,0.7856894149999993,0.039999936,0.04,-9.785215224999977,0.036502875573966816,-0.046371415800088765,-0.020643866400031508,0.009248811472240978,0.0006176657495007914
0.5750000000000001,0.002209028100004959,-0.7839148999999984,0.0020258257000048143,-2.3580294500000045,0.001629373500003722,1.5691483999999956,0.7856847499999993,0.039999936,0.04,-9.785062749999975,0.036729121580756946,-0.04696651200009744,-0.020855109000034587,0.00947496667508008,0.0006229709150008686
0.5775,0.0022393156500053993,-0.7839049399999982,0.0020552282800052413,-2.358056735000005,0.0016521055200040523,1.5691214899999952,0.7856800849999992,0.039999936,0.04,-9.784910274999973,0.03695536758754706,-0.04756160820010609,-0.02106635160003766,0.009701121877919171,0.0006282760805009457
0.58,0.0022696032000058394,-0.7838949799999981,0.0020846308600056688,-2.358084020000005,0.0016748375400043826,1.569094579999995,0.785675419999999,0.039999936,0.04,-9.784757799999971,0.03718161359433718,-0.048156704400114735,-0.021277594200040727,0.009927277080758263,0.0006335812460010229
0.5825,0.002299890750006281,-0.7838850199999979,0.002114033440006097,-2.3581113050000053,0.001697569560004714,1.5690676699999944,0.7856707549999989,0.039999936,0.04,-9.78460532499997,0.0374078596011273,-0.04875180060012341,-0.021488836800043806,0.010153432283597365,0.0006388864115011001
0.585,0.002331546490006882,-0.7838747099999978,0.0021447622200066806,-2.358139720000006,0.0017213251300051643,1.569039559999994,0.7856658799999989,0.039999936,0.04,-9.784468449999974,0.037581035122306525,-0.049372752800134895,-0.02170451240004637,0.01038538496946323,0.0006441152500011046
0.5875,0.0023638863250069124,-0.7838642249999977,0.0021761541000067095,-2.358168700000006,0.001745592475005187,1.569010849999994,0.7856608999999989,0.039999936,0.04,-9.784339374999973,0.03772767540070564,-0.05000663300013549,-0.021922404500046573,0.010620236396839722,0.0006493059250011094
0.59,0.0023962261600069413,-0.7838537399999977,0.0022075459800067376,-2.358197680000006,0.0017698598200052084,1.568982139999994,0.785655919999999,0.039999936,0.04,-9.784210299999973,0.03787431567910475,-0.05064051320013605,-0.022140296600046766,0.010855087824216207,0.0006544966000011141
0.5925,0.0024285659950069715,-0.7838432549999977,0.002238937860006767,-2.358226660000006,0.001794127165005231,1.5689534299999939,0.7856509399999989,0.039999936,0.04,-9.784081224999973,0.03802095595750387,-0.05127439340013664,-0.02235818870004697,0.0110899392515927,0.0006596872750011189
0.595,0.002460905830007,-0.7838327699999977,0.0022703297400067947,-2.358255640000006,0.0018183945100052527,1.5689247199999938,0.7856459599999989,0.039999936,0.04,-9.783952149999973,0.038167596235902976,-0.0519082736001372,-0.022576080800047162,0.011324790678969184,0.0006648779500011235
0.5975,0.00249324566500703,-0.7838222849999977,0.002301721620006824,-2.3582846200000063,0.0018426618550052753,1.5688960099999938,0.7856409799999989,0.039999936,0.04,-9.783823074999972,0.038314236514302095,-0.05254215380013779,-0.022793972900047366,0.011559642106345677,0.0006700686250011283
0.6,0.0025255855000075205,-0.7838117999999975,0.0023331135000072994,-2.3583136000000064,0.001866929200005643,1.5688672999999933,0.7856359999999989,0.039999936,0.04,-9.78369399999996,0.038460876792719007,-0.05317603400014729,-0.023011865000048985,0.011794493533724058,0.0006752593000011795
0.6025,0.002560040500008023,-0.7838007599999974,0.002366555535007787,-2.358344350000007,0.0018927817600060198,1.568836669999993,0.7856307049999988,0.0399999351,0.04,-9.783507999999957,0.03868907801812231,-0.05385086045015713,-0.023236297400052258,0.012038030009773451,0.0006806631250012582
0.605,0.0025944955000085233,-0.7837897199999972,0.002399997570008273,-2.3583751000000075,0.0019186343200063953,1.5688060399999924,0.7856254099999987,0.039999934200000004,0.04,-9.783321999999954,0.0389172792435256,-0.05452568690016693,-0.023460729800055518,0.012281566485822836,0.0006860669500013368
0.6075,0.0026289505000090256,-0.7837786799999971,0.00243343960500876,-2.358405850000008,0.0019444868800067721,1.568775409999992,0.7856201149999986,0.0399999333,0.04,-9.783135999999951,0.0391454804689289,-0.05520051335017677,-0.02368516220005879,0.01252510296187223,0.0006914707750014155
0.61,0.002663405500009526,-0.783767639999997,0.002466881640009246,-2.3584366000000085,0.0019703394400071477,1.5687447799999914,0.7856148199999986,0.0399999324,0.04,-9.782949999999948,0.0393736816943322,-0.05587533980018657,-0.02390959460006205,0.012768639437921614,0.000696874600001494
0.6125,0.002697860500010028,-0.7837565999999968,0.0025003236750097335,-2.358467350000009,0.0019961920000075243,1.568714149999991,0.7856095249999985,0.0399999315,0.04,-9.782763999999945,0.039601882919735494,-0.05655016625019641,-0.02413402700006532,0.013012175913971007,0.0007022784250015729
0.615,0.002732315500010529,-0.7837455599999966,0.0025337657100102193,-2.3584981000000096,0.0020220445600079,1.5686835199999907,0.7856042299999985,0.039999930600000004,0.04,-9.782577999999942,0.039830084145138785,-0.057224992700206215,-0.024358459400068585,0.01325571239002039,0.0007076822500016514
0.6175,0.0027674961400113948,-0.7837343299999965,0.002567911085011059,-2.3585294700000103,0.002048439480008548,1.56865225999999,0.7855988324999983,0.03999992975,0.04,-9.782417449999965,0.040028506517453405,-0.05791213835022141,-0.02458506145007184,0.013501787837672856,0.0007129528430015567
0.62,0.0028041280600109276,-0.7837227199999965,0.0026034631400106054,-2.3585620800000098,0.0020759191200081977,1.5686197399999904,0.7855932299999984,0.039999929000000004,0.04,-9.782307799999966,0.040167371183675166,-0.05862392240021233,-0.024816002800068893,0.013752941228524242,0.0007179569720014928
0.6225,0.002840759980010462,-0.7837111099999967,0.0026390151950101536,-2.358594690000009,0.002103398760007848,1.5685872199999906,0.7855876274999984,0.039999928250000004,0.04,-9.782198149999969,0.04030623584989693,-0.059335706450203286,-0.025046944150065958,0.01400409461937564,0.0007229611010014292
0.625,0.002877391900009995,-0.7836994999999969,0.0026745672500097,-2.358627300000009,0.0021308784000074977,1.568554699999991,0.7855820249999985,0.0399999275,0.04,-9.78208849999997,0.04044510051611869,-0.06004749050019421,-0.025277885500063012,0.014255248010227026,0.0007279652300013654
0.6275000000000001,0.0029140238200095294,-0.7836878899999971,0.0027101193050092483,-2.3586599100000085,0.0021583580400071486,1.5685221799999916,0.7855764224999986,0.03999992675,0.04,-9.781978849999971,0.040583965182340455,-0.06075927455018516,-0.025508826850060076,0.014506401401078424,0.0007329693590013018
0.63,0.002950655740009062,-0.7836762799999972,0.0027456713600087952,-2.358692520000008,0.002185837680006798,1.568489659999992,0.7855708199999987,0.039999926,0.04,-9.781869199999973,0.040722829848562216,-0.061471058600176084,-0.02573976820005713,0.01475755479192981,0.000737973488001238
0.6325000000000001,0.0029872876600085963,-0.7836646699999973,0.002781223415008343,-2.3587251300000074,0.0022133173200064487,1.5684571399999923,0.7855652174999986,0.03999992525,0.04,-9.781759549999974,0.040861694514783976,-0.06218284265016703,-0.025970709550054195,0.01500870818278121,0.0007429776170011744
0.635,0.003025411390009333,-0.7836526599999971,0.0028182213900090573,-2.3587589600000083,0.0022419138800070003,1.5684232899999917,0.7855593679999986,0.0399999245,0.04,-9.781610499999958,0.041058722883517154,-0.06292756260018277,-0.026205939600056995,0.015265036840053918,0.0007480898190012405
0.6375000000000001,0.0030642810250098994,-0.7836404499999969,0.002855942325009607,-2.3587934000000086,0.0022710689000074256,1.5683887749999912,0.7855533949999984,0.03999992375,0.04,-9.781441749999956,0.04128483310347589,-0.06368875050019386,-0.026443314000060454,0.015523953130534618,0.0007532560575013158
0.64,0.003103150660010464,-0.7836282399999968,0.002893663260010155,-2.3588278400000093,0.002300223920007849,1.5683542599999907,0.7855474219999984,0.039999923,0.04,-9.781272999999954,0.041510943323434614,-0.06444993840020492,-0.026680688400063903,0.015782869421015304,0.0007584222960013908
0.6425,0.003142020295011029,-0.7836160299999966,0.0029313841950107033,-2.3588622800000096,0.0023293789400082726,1.5683197449999902,0.7855414489999983,0.03999992225,0.04,-9.781104249999952,0.04173705354339334,-0.06521112630021599,-0.026918062800067352,0.01604178571149599,0.0007635885345014659
0.645,0.0031808899300115956,-0.7836038199999964,0.0029691051300112527,-2.3588967200000104,0.0023585339600086974,1.5682852299999896,0.7855354759999982,0.0399999215,0.04,-9.780935499999948,0.041963163763352074,-0.06597231420022708,-0.027155437200070815,0.01630070200197669,0.0007687547730015412
0.6475,0.0032197595650121603,-0.7835916099999962,0.003006826065011801,-2.3589311600000107,0.0023876889800091214,1.5682507149999891,0.7855295029999981,0.03999992075,0.04,-9.780766749999946,0.0421892739833108,-0.06673350210023814,-0.027392811600074264,0.016559618292457376,0.0007739210115016163
0.65,0.003258629200013479,-0.7835793999999958,0.0030445470000130797,-2.358965600000012,0.0024168440000101083,1.568216199999988,0.7855235299999979,0.03999992,0.04,-9.78059799999996,0.04241538420323948,-0.06749469000026138,-0.02763018600007971,0.016818534582940716,0.0007790872500015827
0.6525,0.0032997962200129543,-0.783566580999996,0.0030844945500125703,-2.3590021100000116,0.0024477163700097147,1.5681796449999885,0.785517210499998,0.03999991895,0.04,-9.780480399999963,0.04254970476035523,-0.06829300050025121,-0.027873626850076605,0.01708550993361527,0.0007839210675015211
0.655,0.0033409632400124307,-0.7835537619999962,0.0031244421000120627,-2.359038620000011,0.0024785887400093224,1.5681430899999889,0.785510890999998,0.0399999179,0.04,-9.780362799999963,0.04268402531747099,-0.06909131100024106,-0.028117067700073512,0.017352485284289836,0.0007887548850014596
0.6575,0.003382130260011906,-0.7835409429999963,0.0031643896500115534,-2.3590751300000106,0.0025094611100089288,1.5681065349999894,0.7855045714999982,0.03999991685,0.04,-9.780245199999966,0.042818345874586744,-0.06988962150023087,-0.028360508550070405,0.01761946063496439,0.000793588702501398
0.66,0.0034232972800113826,-0.7835281239999965,0.0032043372000110457,-2.35911164000001,0.002540333480008536,1.5680699799999898,0.7854982519999982,0.0399999158,0.04,-9.780127599999966,0.0429526664317025,-0.07068793200022072,-0.028603949400067313,0.01788643598563896,0.0007984225200013366
0.6625,0.0034644643000108577,-0.7835153049999967,0.003244284750010536,-2.3591481500000095,0.0025712058500081424,1.5680334249999903,0.7854919324999983,0.03999991475,0.04,-9.780009999999969,0.04308698698881825,-0.07148624250021055,-0.028847390250064206,0.018153411336313513,0.0008032563375012749
0.665,0.0035056313200103346,-0.7835024859999968,0.0032842323000100283,-2.3591846600000093,0.00260207822000775,1.5679968699999909,0.7854856129999984,0.0399999137,0.04,-9.779892399999971,0.04322130754593401,-0.0722845530002004,-0.029090831100061113,0.018420386686988078,0.0008080901550012135
0.6675,0.0035475835850105686,-0.7834894454999968,0.003324940955010255,-2.359221820000009,0.0026335381000079246,1.5679596349999907,0.7854791699999983,0.039999912449999994,0.04,-9.779763849999963,0.04338548444216914,-0.07309976050020615,-0.029336292850060588,0.01868963018066372,0.0008129190975011703
0.67,0.0035911063400106092,-0.7834759619999968,0.0033671718200102944,-2.3592602800000093,0.002666173000007955,1.5679210399999906,0.7854724799999984,0.039999910799999996,0.04,-9.779613399999963,0.04360937401657787,-0.07394876200020695,-0.02958579640006082,0.018963409960336595,0.0008177382900011748
0.6725,0.0036346290950106477,-0.7834624784999967,0.003409402685010332,-2.359298740000009,0.002698807900007984,1.5678824449999906,0.7854657899999984,0.03999990915,0.04,-9.779462949999964,0.0438332635909866,-0.0747977635002077,-0.02983529995006104,0.019237189740009458,0.000822557482501179
0.675,0.0036781518500106883,-0.7834489949999968,0.0034516335500103714,-2.3593372000000095,0.0027314428000080144,1.5678438499999905,0.7854590999999984,0.039999907499999994,0.04,-9.779312499999962,0.04405715316539533,-0.07564676500020849,-0.030084803500061274,0.019510969519682335,0.0008273766750011835
0.6775,0.003721674605010727,-0.7834355114999967,0.0034938644150104086,-2.3593756600000093,0.0027640777000080435,1.5678052549999906,0.7854524099999983,0.039999905849999996,0.04,-9.779162049999963,0.04428104273980405,-0.07649576650020926,-0.030334307050061494,0.019784749299355198,0.0008321958675011878
0.68,0.003765197360010768,-0.7834220279999967,0.0035360952800104484,-2.3594141200000096,0.002796712600008074,1.5677666599999904,0.7854457199999983,0.0399999042,0.04,-9.779011599999961,0.044504932314212785,-0.07734476800021005,-0.030583810600061725,0.020058529079028074,0.0008370150600011923
0.6825,0.0038087201150108062,-0.7834085444999966,0.0035783261450104856,-2.3594525800000095,0.002829347500008103,1.5677280649999905,0.7854390299999984,0.039999902549999994,0.04,-9.778861149999962,0.04472882188862151,-0.0781937695002108,-0.03083331415006195,0.020332308858700937,0.0008418342525011966
0.685,0.003853851680011866,-0.7833946449999963,0.003622116160011513,-2.3594924100000103,0.0028631862600088966,1.5676880199999896,0.7854320999999982,0.039999900799999995,0.04,-9.77873709999997,0.044889845699105264,-0.07907172660023053,-0.031086724100065962,0.02061124984182231,0.0008465469600012036
0.6875,0.0038997876500125334,-0.7833805374999961,0.0036666857500121607,-2.359532925000011,0.002897626950009397,1.567647249999989,0.7854250499999981,0.039999899,0.04,-9.778626249999968,0.04501943662766168,-0.0799641615002435,-0.03134208725006967,0.020892771426665038,0.0008512064250012713
0.6900000000000001,0.003945723620013203,-0.783366429999996,0.0037112553400128106,-2.3595734400000117,0.0029320676400098993,1.5676064799999883,0.7854179999999981,0.0399998972,0.04,-9.778515399999968,0.04514902755621811,-0.08085659640025651,-0.0315974504000734,0.021174293011507774,0.0008558658900013393
0.6925,0.003991659590013871,-0.7833523224999958,0.003755824930013458,-2.3596139550000124,0.0029665083300103997,1.5675657099999878,0.7854109499999979,0.0399998954,0.04,-9.778404549999966,0.045278618484774526,-0.08174903130026948,-0.0318528135500771,0.0214558145963505,0.000860525355001407
0.6950000000000001,0.0040375955600145405,-0.7833382149999955,0.0038003945200141076,-2.359654470000013,0.0030009490200109015,1.567524939999987,0.7854038999999978,0.0399998936,0.04,-9.778293699999965,0.04540820941333095,-0.08264146620028248,-0.03210817670008083,0.02173733618119324,0.0008651848200014749
0.6975,0.0040835315300152076,-0.7833241074999953,0.0038449641100147553,-2.3596949850000137,0.003035389710011402,1.5674841699999864,0.7853968499999977,0.0399998918,0.04,-9.778182849999963,0.04553780034188737,-0.08353390110029546,-0.03236353985008454,0.022018857766035963,0.0008698442850015426
0.7000000000000001,0.004129467500016731,-0.7833099999999948,0.0038895337000162318,-2.359735500000015,0.0030698304000125413,1.567443399999985,0.7853897999999975,0.03999989,0.04,-9.778071999999941,0.04566739127047486,-0.08442633600032533,-0.032618903000090266,0.022300379350881194,0.0008745037500014229
0.7025,0.004177872575016113,-0.783295194999995,0.003936496450015633,-2.3597781750000144,0.0031061145900120784,1.5674004399999857,0.7853823674999976,0.039999888500000004,0.04,-9.777903099999945,0.04588685017086412,-0.08536758060031333,-0.032880072950086936,0.022589106019682392,0.0008786205375013704
0.705,0.004226277650015496,-0.7832803899999953,0.003983459200015034,-2.359820850000014,0.0031423987800116154,1.567357479999986,0.7853749349999977,0.039999887000000005,0.04,-9.777734199999946,0.04610630907125339,-0.08630882520030132,-0.033141242900083606,0.02287783268848359,0.0008827373250013179
0.7075,0.004274682725014881,-0.7832655849999954,0.004030421950014437,-2.359863525000013,0.0031786829700111547,1.5673145199999867,0.7853675024999978,0.0399998855,0.04,-9.777565299999948,0.046325767971642666,-0.08725006980028936,-0.03340241285008028,0.0231665593572848,0.0008868541125012655
0.71,0.004323087800014263,-0.7832507799999957,0.004077384700013838,-2.3599062000000126,0.0032149671600106918,1.5672715599999874,0.7853600699999977,0.039999884,0.04,-9.777396399999951,0.04654522687203193,-0.08819131440027735,-0.033663582800076954,0.023455286026085997,0.000890970900001213
0.7125,0.004371492875013648,-0.7832359749999959,0.004124347450013241,-2.359948875000012,0.0032512513500102306,1.5672285999999878,0.7853526374999978,0.0399998825,0.04,-9.777227499999952,0.046764685772421204,-0.08913255900026539,-0.03392475275007364,0.02374401269488721,0.0008950876875011607
0.715,0.004419897950013031,-0.783221169999996,0.004171310200012642,-2.3599915500000117,0.0032875355400097677,1.5671856399999884,0.7853452049999979,0.039999881,0.04,-9.777058599999956,0.04698414467281047,-0.09007380360025338,-0.0341859227000703,0.024032739363688407,0.0008992044750011082
0.7175,0.004469144520013295,-0.783206124999996,0.004219088490012898,-2.3600349100000115,0.0033244494000099645,1.5671419449999882,0.785337645499998,0.0399998796,0.04,-9.776916549999978,0.04717237465086879,-0.091030750000258,-0.034448971900069646,0.02432369850583629,0.0009033636125011078
0.72,0.0045200740800133395,-0.783190599999996,0.0042684978600129415,-2.360079640000012,0.0033626226000099987,1.5670967799999882,0.785329831999998,0.0399998784,0.04,-9.776828199999978,0.04729814678433848,-0.09201910000025887,-0.03471577960006988,0.02461912259467228,0.0009076074500011115
0.7225,0.0045710036400133875,-0.783175074999996,0.004317907230012987,-2.360124370000012,0.003400795800010034,1.567051614999988,0.7853220184999979,0.0399998772,0.04,-9.776739849999977,0.04742391891780818,-0.0930074500002598,-0.03498258730007013,0.02491454668350828,0.0009118512875011156
0.725,0.004621933200013433,-0.7831595499999959,0.004367316600013031,-2.360169100000012,0.003438969000010068,1.567006449999988,0.7853142049999979,0.039999876,0.04,-9.776651499999977,0.047549691051277876,-0.09399580000026067,-0.03524939500007037,0.025209970772344267,0.0009160951250011193
0.7275,0.00467286276001348,-0.7831440249999959,0.0044167259700130775,-2.3602138300000117,0.0034771422000101034,1.566961284999988,0.7853063914999979,0.0399998748,0.04,-9.776563149999978,0.04767546318474757,-0.09498415000026159,-0.035516202700070616,0.025505394861180267,0.0009203389625011232
0.73,0.004723792320013525,-0.7831284999999959,0.004466135340013121,-2.360258560000012,0.0035153154000101376,1.566916119999988,0.7852985779999979,0.0399998736,0.04,-9.776474799999978,0.04780123531821726,-0.09597250000026247,-0.035783010400070855,0.025800818950016253,0.000924582800001127
0.7325,0.004774721880013572,-0.7831129749999959,0.004515544710013167,-2.360303290000012,0.003553488600010173,1.566870954999988,0.7852907644999979,0.0399998724,0.04,-9.776386449999977,0.04792700745168696,-0.09696085000026339,-0.03604981810007111,0.026096243038852253,0.000928826637501131
0.735,0.004827369920014793,-0.7830969799999955,0.004566619750014351,-2.360349500000013,0.0035929487000110876,1.5668242699999868,0.7852826699999977,0.039999871299999996,0.04,-9.77623779999995,0.04811596199876202,-0.0979869330002889,-0.03632029230007529,0.026396564394319307,0.0009329786810011353
0.7375,0.004880877200015573,-0.7830807499999953,0.004618527625015108,-2.360396450000014,0.0036330522500116723,1.5667768249999863,0.7852744349999976,0.03999987025,0.04,-9.776058999999949,0.048336507752601864,-0.09903188250030413,-0.03659259975007926,0.02669933438309897,0.0009370848275011952
0.74,0.004934384480016351,-0.783064519999995,0.004670435500015862,-2.3604434000000145,0.0036731558000122552,1.5667293799999855,0.7852661999999975,0.0399998692,0.04,-9.775880199999946,0.0485570535064417,-0.10007683200031932,-0.036864907200083216,0.02700210437187862,0.0009411909740012548
0.7425,0.004987891760017131,-0.7830482899999949,0.004722343375016619,-2.3604903500000147,0.00371325935001284,1.5666819349999848,0.7852579649999974,0.03999986815,0.04,-9.775701399999942,0.04877759926028154,-0.10112178150033456,-0.03713721465008718,0.027304874360658284,0.0009452971205013147
0.745,0.0050413990400179085,-0.7830320599999946,0.004774251250017373,-2.3605373000000154,0.0037533629000134224,1.5666344899999842,0.7852497299999973,0.0399998671,0.04,-9.77552259999994,0.048998145014121364,-0.10216673100034973,-0.03740952210009114,0.027607644349437934,0.0009494032670013743
0.7475,0.005094906320018688,-0.7830158299999943,0.0048261591250181295,-2.360584250000016,0.003793466450014007,1.5665870449999835,0.7852414949999972,0.03999986605,0.04,-9.775343799999938,0.049218690767961204,-0.10321168050036497,-0.03768182955009511,0.027910414338217598,0.0009535094135014342
0.75,0.005148413600020423,-0.7829995999999938,0.004878067000019811,-2.3606312000000176,0.0038335700000153056,1.5665395999999818,0.7852332599999969,0.039999865,0.04,-9.77516499999997,0.04943923652176319,-0.10425663000039596,-0.03795413700010096,0.02821318432699967,0.0009576155600013378
0.7525000000000001,0.00520455125001971,-0.7829826049999941,0.004932523930019119,-2.360680370000017,0.003875641505014771,1.5664897849999826,0.785224649999997,0.03999986395,0.04,-9.77507964999997,0.0495557572693041,-0.10534503450038213,-0.03823165290009743,0.028522614855427862,0.000961292771001291
0.755,0.005260688900018994,-0.7829656099999943,0.004986980860018425,-2.3607295400000163,0.003917713010014234,1.5664399699999831,0.7852160399999971,0.0399998629,0.04,-9.774994299999971,0.049672278016845,-0.10643343900036825,-0.03850916880009389,0.02883204538385604,0.0009649699820012442
0.7575000000000001,0.00531682655001828,-0.7829486149999945,0.005041437790017732,-2.360778710000016,0.003959784515013699,1.5663901549999837,0.7852074299999972,0.03999986185,0.04,-9.774908949999972,0.0497887987643859,-0.10752184350035442,-0.03878668470009037,0.029141475912284234,0.0009686471930011974
0.76,0.005372964200017564,-0.7829316199999947,0.005095894720017037,-2.360827880000015,0.004001856020013163,1.5663403399999845,0.7851988199999973,0.0399998608,0.04,-9.774823599999973,0.049905319511926796,-0.10861024800034053,-0.03906420060008683,0.02945090644071241,0.0009723244040011505
0.7625000000000001,0.005429101850016851,-0.782914624999995,0.0051503516500163455,-2.3608770500000147,0.004043927525012628,1.566290524999985,0.7851902099999973,0.03999985975,0.04,-9.774738249999976,0.0500218402594677,-0.10969865250032669,-0.0393417165000833,0.029760336969140603,0.0009760016150011037
0.765,0.005485239500016135,-0.7828976299999951,0.005204808580015651,-2.360926220000014,0.004085999030012092,1.5662407099999858,0.7851815999999975,0.0399998587,0.04,-9.774652899999976,0.0501383610070086,-0.11078705700031281,-0.039619232400079765,0.030069767497568782,0.000979678826001057
0.7675000000000001,0.005542271155016426,-0.7828803699999951,0.005260131940015932,-2.3609761800000144,0.004128739015012308,1.5661901149999855,0.7851728469999975,0.0399998576,0.04,-9.774539899999954,0.05028913710272469,-0.11189503000032032,-0.03989853035007899,0.030381308589218746,0.0009833248200010007
0.77,0.005601090820016478,-0.7828625799999951,0.005317188160015983,-2.3610277200000143,0.004172815960012348,1.5661379599999854,0.7851638079999974,0.0399998564,0.04,-9.774371599999954,0.05050842389470515,-0.11304214000032134,-0.040181392400079244,0.030697070807306933,0.0009869083800010039
0.7725,0.005659910485016529,-0.782844789999995,0.005374244380016034,-2.3610792600000146,0.004216892905012387,1.5660858049999853,0.7851547689999975,0.039999855200000003,0.04,-9.774203299999954,0.050727710686685606,-0.11418925000032236,-0.04046425445007949,0.031012833025395124,0.0009904919400010072
0.775,0.005718730150016584,-0.7828269999999949,0.005431300600016087,-2.3611308000000144,0.004260969850012428,1.5660336499999852,0.7851457299999974,0.039999854,0.04,-9.774034999999953,0.05094699747866608,-0.11533636000032343,-0.040747116500079755,0.03132859524348333,0.0009940755000010105
0.7775,0.0057775498150166365,-0.7828092099999949,0.005488356820016138,-2.3611823400000147,0.004305046795012467,1.5659814949999853,0.7851366909999974,0.0399998528,0.04,-9.773866699999953,0.05116628427064654,-0.11648347000032445,-0.04102997855008001,0.031644357461571515,0.0009976590600010136
0.78,0.005836369480016691,-0.7827914199999949,0.005545413040016191,-2.3612338800000146,0.004349123740012509,1.5659293399999852,0.7851276519999975,0.039999851600000004,0.04,-9.773698399999953,0.05138557106262701,-0.11763058000032552,-0.041312840600080274,0.03196011967965972,0.001001242620001017
0.7825,0.005895189145016744,-0.7827736299999949,0.005602469260016242,-2.361285420000015,0.0043932006850125474,1.565877184999985,0.7851186129999974,0.0399998504,0.04,-9.773530099999952,0.05160485785460747,-0.11877769000032654,-0.04159570265008052,0.03227588189774791,0.00100482618000102
0.785,0.005955829930017579,-0.7827553799999947,0.005661290500017051,-2.3613385400000153,0.0044386408400131725,1.5658234299999843,0.7851093059999973,0.03999985,0.04,-9.77342559999998,0.05175140872600834,-0.11995873400034214,-0.041881855000082194,0.032595628127547516,0.0010079998400008478
0.7875,0.006017381275017633,-0.7827368999999946,0.005720994250017104,-2.3613924500000154,0.004484762600013213,1.5657688749999843,0.7850998649999973,0.03999985,0.04,-9.773352999999979,0.05186159163716604,-0.12115674500034321,-0.04216965250008245,0.032917366363200244,0.0010109685500008505
0.79,0.006078932620017691,-0.7827184199999947,0.00578069800001716,-2.3614463600000155,0.004530884360013256,1.5657143199999843,0.7850904239999973,0.03999985,0.04,-9.77328039999998,0.05197177454832375,-0.12235475600034433,-0.04245745000008272,0.03323910459885299,0.0010139372600008532
0.7925,0.006140483965017746,-0.7826999399999947,0.005840401750017213,-2.3615002700000156,0.004577006120013297,1.5656597649999842,0.7850809829999973,0.03999985,0.04,-9.773207799999978,0.05208195745948145,-0.1235527670003454,-0.042745247500082975,0.03356084283450572,0.001016905970000856
0.795,0.006202035310017803,-0.7826814599999946,0.005900105500017268,-2.3615541800000157,0.004623127880013339,1.5656052099999842,0.7850715419999973,0.03999985,0.04,-9.77313519999998,0.05219214037063916,-0.12475077800034651,-0.04303304500008324,0.03388258107015847,0.0010198746800008586
0.7975,0.0062635866550178575,-0.7826629799999946,0.005959809250017321,-2.361608090000016,0.004669249640013381,1.5655506549999842,0.7850621009999972,0.03999985,0.04,-9.77306259999998,0.05230232328179686,-0.12594878900034756,-0.043320842500083494,0.0342043193058112,0.0010228433900008613
0.8,0.006325138000018724,-0.7826444999999943,0.0060195130000181615,-2.3616620000000164,0.004715371400014029,1.5654960999999834,0.7850526599999971,0.03999985,0.04,-9.772989999999961,0.05241250619296914,-0.12714680000036233,-0.04360864000008521,0.0345260575414659,0.0010258121000006645
0.8025,0.0063894695500187814,-0.7826251724999943,0.006081911650018217,-2.3617182050000163,0.004763574680014072,1.5654390549999835,0.7850427884999971,0.0399998494,0.04,-9.772857699999962,0.052572731860028706,-0.12839168900036343,-0.04390139290008546,0.03485450856397196,0.0010280956250006666
0.805,0.006453801100018842,-0.7826058449999943,0.006144310300018275,-2.361774410000016,0.004811777960014117,1.5653820099999833,0.7850329169999971,0.0399998488,0.04,-9.772725399999961,0.05273295752708828,-0.1296365780003646,-0.04419414580008574,0.03518295958647804,0.0010303791500006687
0.8075,0.006518132650018898,-0.7825865174999943,0.0062067089500183305,-2.3618306150000166,0.004859981240014161,1.5653249649999832,0.7850230454999971,0.0399998482,0.04,-9.77259309999996,0.05289318319414785,-0.1308814670003657,-0.044486898700086,0.0355114106089841,0.0010326626750006708
0.81,0.0065824642000189585,-0.7825671899999943,0.006269107600018389,-2.3618868200000165,0.004908184520014206,1.5652679199999833,0.785013173999997,0.0399998476,0.04,-9.77246079999996,0.05305340886120742,-0.13212635600036687,-0.04477965160008627,0.03583986163149017,0.0010349462000006728
0.8125,0.006646795750019016,-0.7825478624999943,0.006331506250018444,-2.3619430250000164,0.004956387800014248,1.5652108749999831,0.7850033024999971,0.039999847,0.04,-9.77232849999996,0.05321363452826699,-0.13337124500036798,-0.04507240450008653,0.03616831265399623,0.001037229725000675
0.8150000000000001,0.0067111273000190754,-0.7825285349999943,0.006393904900018502,-2.3619992300000168,0.005004591080014293,1.5651538299999832,0.7849934309999971,0.0399998464,0.04,-9.77219619999996,0.05337386019532656,-0.13461613400036915,-0.04536515740008681,0.036496763676502314,0.0010395132500006772
0.8175,0.006776401650019974,-0.782508935499994,0.006457217075019373,-2.3620562650000174,0.005053499920014966,1.5650959599999823,0.7849834124999969,0.039999846,0.04,-9.772054249999952,0.0535530487076093,-0.13588447800039116,-0.045659499000088484,0.03682714402685566,0.0010417698600006552
0.8200000000000001,0.006843561600020037,-0.782488791999994,0.006522356300019434,-2.3621149600000173,0.005103819880015013,1.5650364399999823,0.7849730999999969,0.039999846,0.04,-9.77189299999995,0.05377016291028771,-0.1371997320003924,-0.04595701800008876,0.037161383032898454,0.0010439726400006573
0.8225,0.006910721550020096,-0.782468648499994,0.006587495525019491,-2.3621736550000176,0.005154139840015057,1.5649769199999821,0.7849627874999969,0.039999846,0.04,-9.771731749999951,0.05398727711296611,-0.13851498600039358,-0.046254537000089024,0.03749562203894123,0.0010461754200006591
0.8250000000000001,0.006977881500020159,-0.782448504999994,0.006652634750019552,-2.3622323500000175,0.005204459800015104,1.5649173999999821,0.7849524749999969,0.039999846,0.04,-9.771570499999951,0.054204391315644515,-0.1398302400003948,-0.0465520560000893,0.03782986104498402,0.0010483782000006612
0.8275,0.007045041450020218,-0.782428361499994,0.00671777397501961,-2.362291045000018,0.005254779760015149,1.5648578799999822,0.7849421624999968,0.039999846,0.04,-9.77140924999995,0.054421505518322914,-0.14114549400039597,-0.046849575000089565,0.0381641000510268,0.0010505809800006633
0.8300000000000001,0.007112201400020281,-0.7824082179999939,0.006782913200019671,-2.3623497400000177,0.005305099720015196,1.564798359999982,0.7849318499999969,0.039999846,0.04,-9.77124799999995,0.05463861972100132,-0.14246074800039718,-0.047147094000089845,0.03849833905706959,0.0010527837600006653
0.8325,0.00717936135002034,-0.7823880744999939,0.006848052425019728,-2.3624084350000176,0.0053554196800152404,1.564738839999982,0.7849215374999968,0.039999846,0.04,-9.77108674999995,0.05485573392367972,-0.14377600200039836,-0.047444613000090105,0.03883257806311237,0.0010549865400006672
0.835,0.007248437300021273,-0.7823673699999937,0.006915048770020632,-2.3624688000000185,0.005407173630015938,1.564677579999981,0.7849109299999967,0.0399998457,0.04,-9.770978799999975,0.05499678663912558,-0.14512138500041324,-0.04774515840009175,0.039170773327453924,0.0010567718400004789
0.8375,0.007318471250021339,-0.7823463849999936,0.0069829736750206955,-2.3625300000000187,0.0054596445750159876,1.564615449999981,0.7849001749999966,0.03999984525,0.04,-9.770897499999975,0.055099808611007065,-0.14648183250041452,-0.048047217000092034,0.03951094672094217,0.0010583484000004804
0.84,0.0073885052000214006,-0.7823253999999936,0.007050898580020756,-2.362591200000019,0.005512115520016033,1.564553319999981,0.7848894199999967,0.039999844799999996,0.04,-9.770816199999974,0.05520283058288854,-0.14784228000041572,-0.0483492756000923,0.03985112011443041,0.0010599249600004817
0.8425,0.007458539150021466,-0.7823044149999936,0.007118823485020819,-2.3626524000000186,0.005564586465016083,1.564491189999981,0.7848786649999967,0.03999984435,0.04,-9.770734899999974,0.055305852554770024,-0.149202727500417,-0.048651334200092586,0.04019129350791866,0.0010615015200004833
0.845,0.007528573100021529,-0.7822834299999936,0.00718674839002088,-2.362713600000019,0.0056170574100161295,1.5644290599999808,0.7848679099999967,0.0399998439,0.04,-9.770653599999974,0.0554088745266515,-0.1505631750004182,-0.04895339280009285,0.040531466901406896,0.0010630780800004846
0.8475,0.007598607050021594,-0.7822624449999935,0.007254673295020943,-2.362774800000019,0.005669528355016178,1.5643669299999807,0.7848571549999968,0.03999984345,0.04,-9.770572299999975,0.05551189649853298,-0.15192362250041946,-0.04925545140009313,0.04087164029489515,0.0010646546400004861
0.85,0.007668641000022559,-0.7822414599999933,0.007322598200021878,-2.3628360000000197,0.0057219993000168995,1.56430479999998,0.7848463999999966,0.039999843,0.04,-9.770490999999952,0.05561491847044685,-0.15328407000044067,-0.04955751000009476,0.04121181368838497,0.0010662312000000475
0.8525,0.007741594250022627,-0.7822196184999933,0.007393352150021944,-2.36289975000002,0.005776652655016951,1.56424010499998,0.7848352009999966,0.03999984105,0.04,-9.770337699999953,0.05582268126315354,-0.15470919750044201,-0.04986394575009504,0.041557089984524044,0.0010663850700000478
