rsonawane2002/My_IMU/logs_2/traj_300/clean_300.csv
time,j1,j2,j3,j4,j5,j6,j7,gripper1,gripper2,imu_ax,imu_ay,imu_az,imu_gx,imu_gy,imu_gz,quat_x,quat_y,quat_z,quat_w
542.4833333331686,0.00016700293,-0.785875,4.0107683e-05,-2.3551247,9.29385e-05,1.570997,0.786,0.04,0.04,0.0,-0.0,0.0,2.875329272945135e-08,-0.0011641195053377316,4.421952117202833e-08,0.9999995971961153,0.00020320632366974898,0.0008736418299892524,3.263050917662294e-05
542.4999999998353,0.00016701252,-0.78576016,4.011437e-05,-2.3552213,9.296987e-05,1.5709941,0.786,0.04,0.04,-0.2919984602042236,-3.9370225559255245e-05,0.02012840699916474,-6.152363724706789e-07,-0.0022392377712213236,-1.467571558947608e-07,0.9999996850595096,0.00020320391029308817,0.0007665025194767493,3.260276202021822e-05
542.5166666665019,0.00016706859,-0.7856543,4.011898e-05,-2.35531,9.296981e-05,1.5709913,0.786,0.04,0.04,0.023328723986382194,-2.5682377994098223e-05,-0.0016704438952075407,-5.233339016609968e-06,-0.0032351904916339044,-1.6993958864377075e-06,0.9999997558524215,0.00020317861504351163,0.0006677972601763198,3.256327744701754e-05
542.5333333331686,0.00016724871,-0.78555703,4.011916e-05,-2.355391,9.2891714e-05,1.5709884,0.786,0.04,0.04,0.022460743167163066,-7.393959169424945e-05,-0.0015249182636623004,-1.733497933157879e-05,-0.004162463866032925,-5.8596202473614595e-06,0.9999998122700149,0.00020309250006040624,0.0005771982371339603,3.2489483563740963e-05
542.5499999998352,0.00016766448,-0.7854678,4.0111765e-05,-2.3554652,9.2668575e-05,1.5709856,0.786,0.04,0.04,0.020650701857327647,-0.00014356430424540176,-0.0015267229488635792,-4.076657539300655e-05,-0.005031528161722173,-1.3748840627073994e-05,0.9999998568370732,0.00020289091940143926,0.0004940796150361591,3.234875528278086e-05
542.5666666665019,0.00016845834,-0.7853862,4.0092702e-05,-2.3555322,9.221591e-05,1.570986,0.786,0.04,0.04,0.021653116605135914,-0.00023374192049621266,0.001314272479846501,-7.836038695072762e-05,-0.005852178797641195,-2.6376653966733264e-05,0.9999998907720046,0.00020250413570616958,0.00042002093246056325,3.2100938948992824e-05
542.5833333331685,0.00016980017,-0.7853119,4.0057253e-05,-2.355597,9.143374e-05,1.5709866,0.7859984,0.04,0.04,0.011724937411172753,-0.0003403820810392983,-0.0031095460450547563,-0.00013331946825314244,-0.006614914919665287,-4.465954996741214e-05,0.9999999177822672,0.00020104431496591681,0.0003507306994308612,3.1695721372446214e-05
542.5999999998352,0.0001718846,-0.78524464,3.999993e-05,-2.3556552,9.020457e-05,1.5709876,0.7859965,0.04,0.04,0.019301513450931118,-0.0004621404249659309,-0.0007977417678439735,-0.0002010050166905273,-0.007364228845870446,-6.938407943716751e-05,0.9999999380851533,0.00019907158286591592,0.00028850369383906884,3.107753193683445e-05
542.6166666665018,0.00017492817,-0.7851839,3.9914936e-05,-2.355708,8.840115e-05,1.5709885,0.7859946,0.04,0.04,0.016502431230924763,-0.0005996816697259437,-0.00125204565994963,-0.0002906125071235368,-0.00808389278357043,-0.00010128807912337477,0.9999999532390267,0.00019662874602040606,0.0002322670502538886,3.018439754755809e-05
542.6333333331685,0.00017916698,-0.78512996,3.9795657e-05,-2.3557582,8.5892214e-05,1.5709932,0.78599197,0.04,0.039999995,0.012735714942646581,-0.000755092390646115,-4.9415147174158847e-05,-0.00040544387799855425,-0.008787788970314682,-0.00014024793370874357,0.9999999642622593,0.00019324256021122817,0.0001824678380554008,2.8953079619424293e-05
542.6499999998351,0.00018485484,-0.78508234,3.9635397e-05,-2.3558037,8.2507315e-05,1.570998,0.78598815,0.04,0.04,0.015125708166574547,-0.0009006453785429143,-0.0013713502653445175,-0.0005445589825893775,-0.009476404236710013,-0.00018915446611964532,0.9999999722922875,0.00018854991519997504,0.0001382716306748709,2.7300361226498172e-05
542.6666666665018,0.00019226022,-0.7850412,3.9426544e-05,-2.3558466,7.810684e-05,1.5710064,0.7859825,0.04,0.039999995,0.01281006575535315,-0.0010845835392304644,0.00023517567513398063,-0.0007085470365727306,-0.010164671213064743,-0.00024537056522034624,0.9999999780564154,0.0001820914990492754,0.0001004831246530377,2.515942333386172e-05
542.6833333331684,0.00020166546,-0.78500646,3.9161558e-05,-2.355888,7.251245e-05,1.5710182,0.78597677,0.04,0.039999995,0.010943697868315283,-0.0012547631777433334,-0.0003877443000677161,-0.0008959735642819989,-0.010844680696885238,-0.00031170481735283423,0.9999999821631793,0.0001746228361676893,6.83870768423632e-05,2.2443572441795275e-05
542.6999999998351,0.0002133644,-0.78497815,3.883231e-05,-2.3559241,6.554985e-05,1.5710306,0.78596914,0.04,0.039999995,0.015812449820118424,-0.0014402199020389472,-0.0009652223786238423,-0.001117368091523846,-0.011531970668094405,-0.0003877278919616826,0.9999999852980545,0.00016507582585134842,4.231137280899551e-05,1.906857061946961e-05
542.7166666665017,0.0002276611,-0.78495634,3.843063e-05,-2.3559594,5.7028545e-05,1.5710468,0.7859596,0.04,0.04,0.01001049939701737,-0.0016246802790248753,-0.0004149165988787118,-0.0013658969223607734,-0.012225611375140815,-0.00047452210917006487,0.9999999878985927,0.00015330139240928793,2.1868623478619923e-05,1.4941920100508135e-05
542.7333333331684,0.0002448679,-0.784941,3.79479e-05,-2.3559937,4.6781755e-05,1.5710669,0.78594816,0.04,0.039999995,0.01001030577290063,-0.001835570187313216,-0.00041305809133085347,-0.0016431439950001748,-0.012932847297401288,-0.0005700312850128308,0.9999999902444017,0.00013914633579592545,7.058869401150826e-06,9.983300871410306e-06
542.749999999835,0.00026530508,-0.7849326,3.7375594e-05,-2.3560252,3.4595752e-05,1.5710907,0.7859348,0.04,0.04,0.013712552852807036,-0.002020672555867986,0.00020799615090272283,-0.0019511667418982675,-0.013659646322714068,-0.0006784423771506649,0.999999992493764,0.00012245340297637958,-9.55542737238288e-07,4.08936195164243e-06
542.7666666665017,0.00028929798,-0.78493094,3.6704692e-05,-2.3560545,2.0292146e-05,1.5711194,0.78591883,0.04,0.04,0.012639440132522495,-0.0022370541305246575,0.0007894340067648997,-0.0022911252206386473,-0.014399145549505448,-0.0007959164316590138,0.9999999947196317,0.00010270542089830319,-2.085150018180954e-06,-2.8258068583630987e-06
542.7833333331683,0.00031717776,-0.78493637,3.592607e-05,-2.3560824,3.6913116e-06,1.5711538,0.78590006,0.04,0.039999995,0.012046188255099288,-0.0024587298765553762,0.000800124952293757,-0.002661385136301914,-0.015151520430897899,-0.000922709104580224,0.9999999967616408,7.96505579385616e-05,3.84891936640982e-06,-1.0848640557750214e-05
542.799999999835,0.00034927914,-0.78494906,3.5030676e-05,-2.35611,-1.5413458e-05,1.5711929,0.78587866,0.04,0.03999999,0.009954220706309691,-0.0026638284532545255,-0.00045723085457805013,-0.0030627106942889056,-0.015922941869758452,-0.0010613681066641522,0.9999999982557729,5.3213973243498705e-05,1.5922867735151824e-05,-2.007958108085937e-05
542.8166666665016,0.0003859399,-0.7849694,3.4009416e-05,-2.3561373,-3.7233098e-05,1.5712378,0.7858542,0.04,0.03999999,0.011095238667624407,-0.0028698752138729463,0.00024702438414792027,-0.0034969194170217576,-0.016723056605482775,-0.001211902210256461,0.9999999986547125,2.3021261667611195e-05,3.497124223412108e-05,-3.0620397662312274e-05
542.8333333331683,0.0004274999,-0.78499734,3.2853095e-05,-2.3561645,-6.197903e-05,1.5712886,0.7858265,0.04,0.039999995,0.010285802941778499,-0.0030774632487166552,3.291351131640141e-05,-0.003963299936379022,-0.01754983958712215,-0.0013743205889015977,0.9999999971852485,-1.1213590989328336e-05,6.0755716515471043e-05,-4.257348155553839e-05
542.849999999835,0.00047430026,-0.7850333,3.1552412e-05,-2.3561914,-8.985234e-05,1.5713458,0.7857952,0.04,0.04,0.011276288934203293,-0.0032943291093296832,0.0003811043151058513,-0.004461932860973028,-0.018407571320089064,-0.0015478539281673412,0.9999999927836197,-4.980698067730801e-05,9.387243627117363e-05,-5.6035621634204264e-05
542.8666666665016,0.00052668276,-0.7850773,3.0098003e-05,-2.356218,-0.0001210468,1.5714101,0.78576016,0.04,0.04,0.011532557430826706,-0.003517522494260938,0.0007905501985039365,-0.004992844464683647,-0.019294510921683664,-0.0017317493904776059,0.9999999840811822,-9.301604198476518e-05,0.00013464933948367417,-7.109997757345867e-05
542.8833333331683,0.0005849888,-0.78513014,2.8480566e-05,-2.3562448,-0.00015576488,1.5714817,0.78572124,0.04,0.04,0.012165028043709114,-0.003733604065245461,0.0004763294217058345,-0.005555755918346778,-0.020211466144043285,-0.001926802581377637,0.9999999693421249,-0.0001410679099090975,0.00018356339583629563,-8.786395129465173e-05
542.8999999998349,0.0006495593,-0.7851918,2.6690841e-05,-2.3562717,-0.00019420937,1.571561,0.78567827,0.04,0.04,0.011705844910392393,-0.003949326908897478,0.0006126117157556621,-0.006151727006316944,-0.02115780146300432,-0.002132974437370071,0.9999999465428586,-0.00019421935580513913,0.00024055515007703166,-0.00010642528590447497
542.9166666665016,0.00072073436,-0.7852624,2.471951e-05,-2.3562987,-0.0002365727,1.5716482,0.7856309,0.04,0.039999995,0.012490656849628579,-0.004171960018951361,0.0008486225530290881,-0.006780144734459358,-0.022136677104169458,-0.0023494507518198385,0.9999999131623718,-0.00025281606904425463,0.00030604199040562823,-0.00012687625536620886
542.9333333331682,0.00079885166,-0.7853425,2.2557455e-05,-2.3563259,-0.00028306557,1.5717437,0.7855789,0.04,0.039999995,0.012691267705355891,-0.00437847460292147,0.0006464091058422383,-0.007440902308001462,-0.023148692498246647,-0.0025777224409048527,0.9999998662718121,-0.00031711324561067746,0.00038026252322616706,-0.00014931832053655803
542.9499999998349,0.00088424695,-0.7854323,2.0195375e-05,-2.3563533,-0.00033388863,1.5718486,0.785522,0.04,0.039999995,0.01327092080267711,-0.0045911478784166,0.0014296045391493095,-0.008133613123776319,-0.02419349765674628,-0.0028168921024508374,0.999999802225273,-0.00038745452294040384,0.0004639023954420403,-0.0001738475633475332
542.9666666665015,0.0009772535,-0.78553224,1.7624345e-05,-2.3563814,-0.00038923926,1.5719628,0.78546,0.039999995,0.03999999,0.013019849617235124,-0.00480293630071828,0.0008190458353540819,-0.008857557524627127,-0.0252681125305899,-0.0030668600881113067,0.9999997171240862,-0.00046406317147879906,0.0005569320379626881,-0.0002005587831104405
542.9833333331682,0.001078202,-0.78564245,1.4835582e-05,-2.3564098,-0.00044934088,1.5720868,0.7853928,0.03999999,0.04,0.01405267339193994,-0.004993818304879436,0.0013491113360464269,-0.00961258501240109,-0.026374865759447384,-0.003329806106225562,0.9999996062519343,-0.0005471611991239586,0.0006598583610207515,-0.00022955945182655458
542.9999999998348,0.0011874188,-0.7857634,1.18199005e-05,-2.3564394,-0.00051437033,1.572221,0.7853201,0.039999988,0.04,0.013115495006443822,-0.0052135856497935755,0.0010013805810560328,-0.010399322027193007,-0.02751529354658732,-0.003602561110209643,0.9999994644978313,-0.0006370876669224207,0.0007726816256470822,-0.0002609338243702787
543.0166666665015,0.0013052268,-0.7858954,8.568457e-06,-2.3564713,-0.00058450195,1.5723653,0.78524166,0.039999984,0.039999995,0.01141389957468597,-0.005431034030817564,8.171048417882076e-05,-0.011216745275312637,-0.028688726955988893,-0.003883071486333512,0.9999992867196396,-0.0007340906517350471,0.000894865697064862,-0.0002947651798296571
543.0333333331681,0.001431945,-0.7860387,5.072428e-06,-2.3565056,-0.00065992255,1.5725206,0.7851573,0.039999984,0.03999999,0.011958938034650757,-0.005637165666147687,0.0007731029334712147,-0.012064371936778517,-0.02990538870045297,-0.004174019476469834,0.9999990662986927,-0.0008384163732844503,0.0010270367671169893,-0.00033114227565827017
543.0499999998348,0.0015678891,-0.7861938,1.3235027e-06,-2.3565407,-0.0007408379,1.5726873,0.78506684,0.039999984,0.039999995,0.015473457220727127,-0.005826507373410221,0.0013852158847971197,-0.012941950743948858,-0.031160034064204322,-0.004476614540183665,0.9999987949787701,-0.0009503389668781267,0.0011704171039774466,-0.0003701630164361516
543.0666666665014,0.0017133688,-0.78636074,-2.6868995e-06,-2.3565764,-0.00082742254,1.5728658,0.78497,0.039999988,0.04,0.015737976128105124,-0.006032362999995968,0.0017858514293367378,-0.01384920746196715,-0.03244540749560543,-0.004788362985618467,0.999998464318679,-0.0010701298018845318,0.0013253349295794157,-0.0004119099600870145
543.0833333331681,0.0018686906,-0.78654015,-6.967308e-06,-2.3566127,-0.000919842,1.5730567,0.78486663,0.03999999,0.039999995,0.016926433773600813,-0.006241357572804975,0.001809875108382819,-0.014785085468294108,-0.033761861674082586,-0.005108319022981561,0.9999980646101485,-0.0011979989057354196,0.0014923867440621561,-0.00045646071579451226
543.0999999998347,0.0020341552,-0.78673196,-1.1525856e-05,-2.3566515,-0.0010182847,1.5732598,0.78475654,0.039999995,0.039999995,0.013220670753155694,-0.00642559053932359,0.0008750069227181356,-0.015750148056543612,-0.035103919183970655,-0.005438723171075369,0.999997587737868,-0.0013342137998515957,0.0016704703408102575,-0.0005039055684133625
543.1166666665014,0.0022100594,-0.7869367,-1.6370554e-05,-2.356694,-0.0011229349,1.5734761,0.7846395,0.039999995,0.039999995,0.012467983193875654,-0.006610713955289391,0.0007557204546149165,-0.016743265756393216,-0.036487444875900166,-0.005779279464736966,0.9999970231554928,-0.0014790400957384866,0.0018597948504163431,-0.0005543317260408615
543.133333333168,0.0023966925,-0.78715473,-2.150935e-05,-2.3567371,-0.0012339575,1.5737053,0.78451514,0.04,0.039999995,0.017705538654011477,-0.006804113725162285,0.0017266973269203234,-0.01776387580338917,-0.037909180392740216,-0.006128231882649772,0.9999963565700305,-0.0016327681117577534,0.0020619105168189025,-0.0006078157436714696
543.1499999998347,0.0025943413,-0.7873862,-2.6950036e-05,-2.3567808,-0.0013515414,1.5739481,0.78438365,0.04,0.04,0.018447940049770573,-0.0069774409353415105,0.0021931819436549205,-0.018811132752311895,-0.039360070543894274,-0.006487746243494466,0.9999955743368835,-0.0017954793035407117,0.0022772948808221834,-0.0006644461928209225
543.1666666665013,0.0028032856,-0.7876316,-3.270022e-05,-2.3568273,-0.0014758433,1.5742049,0.78424466,0.04,0.04,0.015112411712436824,-0.007163583224618006,0.0010776287352465275,-0.01988581262398884,-0.04083659481388641,-0.006855209705148918,0.9999946641503561,-0.0019674908807086585,0.0025052034874453416,-0.0007242968571024406
543.183333333168,0.0030238,-0.78789115,-3.8767645e-05,-2.3568776,-0.0016070085,1.5744756,0.78409797,0.04,0.039999995,0.013767124722630086,-0.00735297681781653,0.0005030478973377939,-0.02098658028927956,-0.04234882406585953,-0.007229668799461001,0.9999936125131336,-0.002149027608486311,0.0027452794037600915,-0.0007874352455957426
543.1999999998346,0.0032561533,-0.7881651,-4.515937e-05,-2.3569286,-0.0017452254,1.574761,0.7839434,0.04,0.039999995,0.01948812919618792,-0.00751276316233165,0.0022921900519667915,-0.022113013611748594,-0.04390052300883186,-0.007614805897797128,0.9999923982704215,-0.002340310363942701,0.0029995201359186226,-0.0008539483153571087
543.2166666665013,0.003500608,-0.78845394,-5.188256e-05,-2.3569803,-0.0018906492,1.5750612,0.78378075,0.04,0.04,0.02013930042832346,-0.007684601428877436,0.0020539960804200064,-0.023264279660639396,-0.045477285373912504,-0.008008041515456648,0.9999910025810751,-0.002541587211778591,0.00326825427191325,-0.0009239076551364394
543.2333333331679,0.003757422,-0.78875774,-5.8944683e-05,-2.357037,-0.0020433946,1.5753765,0.78360987,0.04,0.03999999,0.013029661370245194,-0.007876703643405324,0.00036366785203245655,-0.024440127254897585,-0.04707573188093697,-0.008406067304822427,0.9999894133042168,-0.0027530468228573954,0.0035495455191552907,-0.0009973661750496913
543.2499999998346,0.004026847,-0.7890768,-6.6351975e-05,-2.3570957,-0.0022036696,1.5757076,0.7834306,0.04,0.04,0.018851232738814616,-0.008005267548566973,0.001988465267444006,-0.02563957151981275,-0.048717117019159595,-0.008816413807419834,0.9999876041964813,-0.0029749014534327343,0.0038453915376420065,-0.001074420144184609
543.2666666665012,0.0043091285,-0.78941137,-7.411162e-05,-2.357155,-0.002371582,1.5760545,0.7832427,0.04,0.04,0.021208324578525506,-0.008198153312663058,0.0024423592684286177,-0.026862598356566226,-0.05038503288098273,-0.00923100937434069,0.9999855506387144,-0.003207360650404161,0.004156568096519468,-0.0011551160567238859
543.2833333331679,0.0046045063,-0.789762,-8.2229984e-05,-2.3572187,-0.0025472722,1.5764173,0.78304625,0.04,0.039999995,0.015834922786606143,-0.008351473240406993,0.0005859341472014279,-0.028108337757741103,-0.052072805222132174,-0.009652868717129582,0.9999832359532489,-0.0034505443941858787,0.004481645788805051,-0.0012395188083151026
543.2999999998345,0.0049132127,-0.79012847,-9.0713744e-05,-2.3572853,-0.0027308809,1.5767963,0.7828409,0.04,0.039999995,0.01800631829700361,-0.008507765786148385,0.0014502852093256635,-0.02937671500910597,-0.05379750465356896,-0.010081683396168176,0.9999806337386593,-0.0037047156193476703,0.004821251430955902,-0.001327691398026471
543.3166666665012,0.0052354755,-0.79051155,-9.956883e-05,-2.3573527,-0.0029225484,1.5771921,0.78262657,0.04,0.039999995,0.022440800882339573,-0.008661505901256519,0.002314201685083006,-0.03066656264717406,-0.055552663498254704,-0.010518054804812245,0.999977710098356,-0.003970044834918427,0.00517711466143477,-0.0014196951220239592
543.3333333331678,0.0055715176,-0.7909113,-0.00010880135,-2.3574247,-0.0031224075,1.5776047,0.782403,0.04,0.039999995,0.01643598590868045,-0.008803966964931586,0.0006766539324853937,-0.031977818527546685,-0.05732483294450616,-0.01096094111488715,0.9999744464060435,-0.0042467638464891546,0.005547478258173999,-0.001515591216077123
543.3499999998345,0.0059215534,-0.7913278,-0.00011841716,-2.357499,-0.003330599,1.5780345,0.7821702,0.04,0.039999995,0.020687585438117218,-0.008946219536044766,0.002045934551175854,-0.033309310526400564,-0.05913186929484773,-0.01141079958928753,0.9999708069045793,-0.0045349769406454275,0.005933774031280927,-0.0016154406513365477
543.3666666665011,0.006285792,-0.79176134,-0.00012842206,-2.3575747,-0.0035472328,1.5784819,0.78192765,0.04,0.039999995,0.022073686507839696,-0.00910137675659995,0.002156374575701392,-0.034660982757723995,-0.060961554826823645,-0.011865884797482226,0.9999667566781301,-0.004835025249728359,0.006336569181493022,-0.0017192906863254273
543.3833333331678,0.0066644363,-0.7922122,-0.00013882143,-2.357656,-0.0037724415,1.578947,0.7816758,0.04,0.039999995,0.01583181383590926,-0.0092210316277745,0.0004381900742256306,-0.03603084232000031,-0.06281079018761614,-0.012327521315019383,0.9999622761826644,-0.005146803497638538,0.0067541071911306665,-0.001827200424673842
543.3999999998344,0.0070576835,-0.7926807,-0.00014962093,-2.3577385,-0.0040063304,1.5794301,0.7814142,0.04,0.039999995,0.023745282372966692,-0.009379007348541031,0.0024234838603920394,-0.03742072340877743,-0.06469652405676322,-0.01279384223293026,0.9999573143304589,-0.005470643796781933,0.007188952063137452,-0.0019392116177280204
543.4166666665011,0.0074657253,-0.7931668,-0.00016082561,-2.3578224,-0.0042490247,1.5799311,0.7811428,0.039999995,0.039999995,0.023299867454817935,-0.009502156497794186,0.0020984700245474386,-0.0388286354118528,-0.06659592286587647,-0.013266360163362929,0.9999518364171611,-0.005806670245438443,0.007640866854609905,-0.0020553783880016313
543.4333333331678,0.007888745,-0.79367095,-0.00017244047,-2.3579118,-0.0045006434,1.5804504,0.7808613,0.039999988,0.039999995,0.016926271700845597,-0.0096114084479129,0.00035262680395664603,-0.040253985880205456,-0.06851384061972764,-0.01374454391800746,0.9999458178289147,-0.006155067077365828,0.00810818409391731,-0.0021757542221251297
543.4499999998344,0.008326924,-0.7941934,-0.00018447035,-2.3580031,-0.004761284,1.5809882,0.78056985,0.039999984,0.039999995,0.023485648291332595,-0.009759383857336351,0.001867729925919548,-0.04169641310699517,-0.07046439959792712,-0.014226572434747564,0.9999392041825581,-0.006515920633397011,0.008592961703311202,-0.002300375234001424
543.466666666501,0.008780435,-0.79473424,-0.0001969203,-2.3580997,-0.005031035,1.5815449,0.78026825,0.03999998,0.03999999,0.018110127240644758,-0.009881854707190045,0.0006592178820818972,-0.04315562912986985,-0.07243276948369608,-0.014712373252042044,0.9999319663440658,-0.0068893788613431815,0.009093830371627835,-0.002429277951802205
543.4833333331677,0.0092494385,-0.7952936,-0.00020979451,-2.3581982,-0.0053100167,1.582121,0.77995634,0.039999973,0.03999999,0.024152127679410995,-0.00999576969578286,0.0023385903573647226,-0.04463091149235756,-0.07442997875388141,-0.015203980662089016,0.9999240440861187,-0.007275608044660154,0.009612758497648975,-0.00256251050891885
543.4999999998344,0.009734098,-0.7958718,-0.00022309765,-2.3582978,-0.0055983136,1.5827163,0.77963394,0.03999997,0.03999999,0.025610821576682596,-0.010122534250439196,0.0022767532888989805,-0.046121400035934984,-0.07643957626321271,-0.015698894631671168,0.9999153877308974,-0.007674775603420793,0.010150105199281575,-0.0027001042294079194
543.516666666501,0.010234571,-0.79646885,-0.00023683385,-2.3584034,-0.005896018,1.5833309,0.77930105,0.039999966,0.03999999,0.017629761158732826,-0.010220838804332437,0.000102103665522435,-0.04762655109669783,-0.07845985487959936,-0.0161976346108584,0.999905974334905,-0.008086966523137987,0.010703547827214731,-0.00284209882450146
543.5333333331677,0.010751002,-0.7970851,-0.00025100706,-2.3585105,-0.00620322,1.5839648,0.77895755,0.03999996,0.03999999,0.025843554889903864,-0.010341130864338372,0.0019965285904532948,-0.04914568092572909,-0.08051230753072858,-0.016699804436047835,0.9998957294474176,-0.00851230425322417,0.011275621100701376,-0.00298852437010287
543.5499999998343,0.011283534,-0.79772085,-0.00026562146,-2.3586233,-0.0065199886,1.5846189,0.77860343,0.03999996,0.03999999,0.019113529138814478,-0.010449116775364774,0.0004546392276649769,-0.0506788028424016,-0.08257457388187472,-0.017204590451524487,0.9998846209844314,-0.008950867394731813,0.01186468786741245,-0.003139406553910709
543.566666666501,0.011832304,-0.7983758,-0.0002806807,-2.3587377,-0.0068464167,1.5852926,0.7782382,0.03999996,0.039999995,0.025583035022425094,-0.010557147299504379,0.0018597902218253637,-0.052225202331892664,-0.08466269863363693,-0.01771315754477381,0.9998725765435713,-0.009402984501015205,0.012472328595654818,-0.0032947804169171334
543.5833333331676,0.012397441,-0.7990503,-0.0002961883,-2.3588536,-0.0071825744,1.5859865,0.7778623,0.039999966,0.039999995,0.02668716972409335,-0.01066718019969333,0.002211196295864859,-0.05378263950316975,-0.08676210847753692,-0.018223122607811032,0.9998595350911275,-0.009868449796419222,0.01309920162358011,-0.0034546639192238183
543.5999999998343,0.0129790725,-0.7997445,-0.00031214772,-2.3589756,-0.0075285174,1.5867006,0.7774755,0.03999996,0.03999999,0.018725469831926134,-0.010756818285470766,-7.255663549976532e-05,-0.05535335662498027,-0.08886863879080778,-0.01873662903604592,0.9998454692747912,-0.01034751378334381,0.013742954138708564,-0.0036190800926638434
543.6166666665009,0.013577314,-0.80045867,-0.00032856234,-2.3590987,-0.007884336,1.5874357,0.7770776,0.039999966,0.03999999,0.02837053843631754,-0.01086814361265561,0.0026448065963302625,-0.05693521388105265,-0.09100372718447687,-0.019251629940230747,0.9998302773343039,-0.010840253920496564,0.014406806331801738,-0.0037880538362309213
543.6333333331676,0.014192279,-0.80119276,-0.00034543508,-2.359228,-0.0082500875,1.5881904,0.7766686,0.03999997,0.03999999,0.01884011043813416,-0.010921128045293833,-0.0007486497276110171,-0.058528286862939066,-0.09313678459071693,-0.019768993297756478,0.9998139468404496,-0.011346793674214964,0.015087333047053784,-0.003961610551899695
543.6499999998342,0.014824076,-0.80194706,-0.00036276912,-2.3593583,-0.008625834,1.5889664,0.77624834,0.03999997,0.03999999,0.028396331877500458,-0.011055042011117941,0.002340511367315834,-0.06013106548802527,-0.0953013657708931,-0.020288878743237305,0.999796363982294,-0.011867236642479285,0.01578802246124509,-0.004139759536384254
543.6666666665009,0.015472805,-0.8027216,-0.00038056693,-2.359495,-0.009011639,1.5897628,0.77581686,0.039999973,0.03999999,0.019684008340692394,-0.011101233666741851,-0.0003995236067977359,-0.06174352837863308,-0.0974661282643945,-0.020809811820111428,0.9997775083571045,-0.01240161298994885,0.016506045817201373,-0.004322525880503972
543.6833333331675,0.01613856,-0.80351657,-0.00039883127,-2.359633,-0.009407555,1.5905802,0.775374,0.039999973,0.039999988,0.02824215564372068,-0.011213826656517219,0.0017980819293494932,-0.06336532703027425,-0.09965685227134657,-0.02133212310462831,0.9997572697682684,-0.012950045808543368,0.01724408650475487,-0.004509915705550546
543.6999999998342,0.01682143,-0.80433196,-0.00041756456,-2.3597755,-0.00981365,1.5914187,0.7749198,0.039999977,0.039999988,0.02309100244093365,-0.011265428091000382,0.0004722096483833482,-0.06499525766463876,-0.10184904797433803,-0.021856500882029135,0.9997356039096851,-0.013512557164826144,0.018000686526395006,-0.004701952656388076
543.7166666665008,0.017521504,-0.8051679,-0.00043676898,-2.359921,-0.010229962,1.5922782,0.77445424,0.039999977,0.039999988,0.026125770451224106,-0.01136270367442932,0.0009232539175174637,-0.06663396832638427,-0.10405572161887386,-0.022381078443914112,0.9997124254318479,-0.01408921519253167,0.018776682005512843,-0.004898639126778509
543.7333333331675,0.018238857,-0.80602455,-0.0004564468,-2.3600693,-0.0106565505,1.5931591,0.77397716,0.039999977,0.039999984,0.026457368589771768,-0.01142419678098923,0.0010234300187317302,-0.0682801084156744,-0.10627059387465393,-0.022906465687300436,0.999687655678125,-0.01468011435302125,0.019572312919792088,-0.005099989639839749
543.7499999998341,0.01897356,-0.80690193,-0.0004766005,-2.3602226,-0.011093397,1.5940609,0.7734885,0.03999995,0.039999906,0.022778654074162574,-0.011514797695325735,-0.000250163800474823,-0.0699332871035214,-0.10849025192192344,-0.023422979370008847,0.9996612435195347,-0.015285322911803092,0.02038635923363872,-0.005305983948009193
543.7666666665008,0.01972568,-0.8078001,-0.0004972307,-2.3603783,-0.0115406625,1.5949844,0.7729884,0.03999995,0.039999906,0.02769127292168161,-0.01152554325123175,0.0012239607733333102,-0.07159270245160386,-0.11072711525421058,-0.023949988210655013,0.9996330785786293,-0.015904838979328175,0.021220521501743313,-0.005516681579333236
543.7833333331674,0.020495282,-0.80871934,-0.00051833957,-2.3605392,-0.011998325,1.5959293,0.77247655,0.03999995,0.039999906,0.0229772800310446,-0.01160214631192643,-0.00044830128669293146,-0.07325845951492413,-0.11296466077308846,-0.024477088685524746,0.9996031116949128,-0.01653878754485506,0.022073311162863055,-0.005732061644935221
543.7999999998341,0.021282421,-0.80965936,-0.0005399289,-2.3607023,-0.012466406,1.5968957,0.771953,0.039999947,0.039999902,0.028225724244679284,-0.011698834777093547,0.0010314329616400997,-0.07492904737442672,-0.1152178280939703,-0.025003888282228607,0.9995712281953401,-0.017187215354903453,0.02294627904806387,-0.0059521147714106885
543.8166666665007,0.022087146,-0.8106206,-0.0005620002,-2.3608708,-0.012944947,1.5978835,0.77141774,0.039999947,0.0399999,0.022925361113079745,-0.011710449870308906,-0.0008489433464209384,-0.07660455126492177,-0.11747116954074924,-0.025529569350144637,0.9995373813090731,-0.017850123499622384,0.02383784790822221,-0.006176849031123677
543.8333333331674,0.022909503,-0.8116028,-0.00058455445,-2.361041,-0.013433965,1.598893,0.7708707,0.03999995,0.0399999,0.029438029849182534,-0.011817275765323154,0.0011124490528757747,-0.0782842332806296,-0.11973891562332606,-0.026054607245072536,0.9995014384196792,-0.018527582129327622,0.024750015096761013,-0.00640625086486031
543.849999999834,0.02374953,-0.81260604,-0.00060759275,-2.3612163,-0.013933486,1.5999243,0.7703121,0.039999943,0.03999989,0.023913806534792137,-0.011829357650946365,-0.0005368770338298745,-0.07996732774319965,-0.12200257559716822,-0.026579856597489515,0.9994633539491645,-0.019219497875482893,0.025681144265226066,-0.006640319520175433
543.8666666665007,0.024607265,-0.8136305,-0.00063111586,-2.3613942,-0.014443548,1.6009774,0.76974154,0.03999994,0.039999887,0.02830093680186163,-0.011890636474755356,0.0003232171404521367,-0.08165450798278467,-0.12427683277550614,-0.027103876318718127,0.9994230026950653,-0.019926056936059467,0.026632546557731698,-0.0068790553719773806
543.8833333331673,0.025482737,-0.8146763,-0.0006551248,-2.3615766,-0.014964168,1.6020522,0.76915926,0.03999994,0.039999887,0.025115225483718362,-0.011913549838321255,-0.000677248550240428,-0.08334394587000218,-0.12655089189585195,-0.027626742262089138,0.9993803207267749,-0.020647187181875602,0.0276032407555484,-0.007122450794251442
543.899999999834,0.026375959,-0.81574345,-0.00067962025,-2.3617618,-0.015495351,1.6031488,0.7685652,0.03999994,0.039999884,0.02827262481730486,-0.011966456051971941,-0.00011799924397593031,-0.08503553759311938,-0.12883126285485774,-0.02814732180448161,0.9993351888452997,-0.02138291514221818,0.028594181097130026,-0.007370487292876557
543.9166666665006,0.027286964,-0.8168317,-0.0007046025,-2.361951,-0.016037108,1.6042672,0.76795924,0.03999994,0.039999884,0.025971776189881446,-0.012012208908141267,-0.0005340803193698562,-0.08672924208341123,-0.13111120297743212,-0.02866711972676469,0.9992875318293737,-0.022133288594971837,0.02960462375010565,-0.007623156757186782
543.9333333331673,0.028215757,-0.8179412,-0.000730072,-2.3621442,-0.016589453,1.6054076,0.7673415,0.039999943,0.039999887,0.026655609237069555,-0.012038563146763923,-0.0005486636501128572,-0.08842394121616058,-0.13339449256224245,-0.029185007366917187,0.9992372471567531,-0.02289827525090267,0.03063480819661224,-0.00788044490398003
543.949999999834,0.02916236,-0.81907207,-0.00075602904,-2.3623407,-0.017152378,1.6065698,0.7667119,0.039999943,0.039999884,0.027736203933592662,-0.012093456111696849,-0.0006857067132104433,-0.0901197228562853,-0.13567963439558245,-0.029700108271857824,0.9991842271284442,-0.023677907860665284,0.0316850031331475,-0.008142328507743038
543.9666666665006,0.03012676,-0.82022405,-0.0007824739,-2.3625412,-0.017725885,1.6077539,0.76607054,0.039999947,0.039999884,0.026306139829257447,-0.012103043625055071,-0.0008288224021102408,-0.09181548649827029,-0.13796353602979317,-0.030213052449637953,0.9991283867076952,-0.024472119531983964,0.032754762858644815,-0.008408790077317051
543.9833333331673,0.031108964,-0.8213973,-0.0008094066,-2.3627453,-0.018309966,1.6089598,0.76541716,0.03999995,0.039999884,0.02738959599044577,-0.01214389186726568,-0.0009721724561373435,-0.09351140533323112,-0.14024995174539867,-0.03072355209684597,0.9990696115972926,-0.02528105483867063,0.03384435474525899,-0.00867980996083587
543.9999999998339,0.03210896,-0.82259196,-0.0008368265,-2.3629537,-0.01890463,1.6101876,0.7647521,0.03999995,0.03999988,0.02642288941805404,-0.012141364802907909,-0.001369835669495778,-0.09520576152376713,-0.14253543971198646,-0.031231436118630405,0.9990078102667423,-0.026104525765805416,0.034953542402558074,-0.008955369009901756
544.0166666665006,0.03312674,-0.82380784,-0.0008647337,-2.363165,-0.019509863,1.6114373,0.7640751,0.039999947,0.039999876,0.028773725488662194,-0.01219231073829076,-0.0009408328086601969,-0.09689956865325391,-0.14482224668957933,-0.031737329202992486,0.9989428541887859,-0.02694263694602541,0.03608289085443588,-0.00923544082020195
544.0333333331672,0.03416229,-0.82504493,-0.00089312735,-2.3633802,-0.020125689,1.6127087,0.76338637,0.039999947,0.039999876,0.02675933066091929,-0.012160808914706694,-0.0016247635672872462,-0.09859111775510357,-0.14710430644198993,-0.03224100795708954,0.9988746609857485,-0.02779528736469165,0.03723174576642046,-0.009520018282798436
544.0499999998339,0.03521559,-0.8263033,-0.00092200714,-2.3635988,-0.020752061,1.6140018,0.7626859,0.03999995,0.039999876,0.028176495501197607,-0.012211852902905412,-0.0015376899585639592,-0.10028086516749134,-0.14938533592868108,-0.03273979423159994,0.9988031077176934,-0.028662458005660783,0.03840049405839992,-0.00980905554179603
544.0666666665005,0.0362866,-0.8275827,-0.00095137215,-2.3638213,-0.021388985,1.6153167,0.7619734,0.03999995,0.03999988,0.02727681921932401,-0.012197214824821376,-0.0015493455844284298,-0.10196833964369165,-0.15166231353799142,-0.033237003389624056,0.9987280880159686,-0.02954427497842209,0.039588895590178586,-0.010102542745133539
544.0833333331672,0.037375312,-0.82888335,-0.000981222,-2.3640473,-0.022036428,1.6166533,0.7612494,0.039999947,0.039999876,0.02786520366768741,-0.01222768828911397,-0.0019800470159481165,-0.10365141327850211,-0.15393623634340542,-0.033729656453724326,0.9986494969743225,-0.030440424722468686,0.040796982573987096,-0.010400430207737864
544.0999999998338,0.03848169,-0.830205,-0.0010115554,-2.3642771,-0.022694377,1.6180116,0.760514,0.039999943,0.039999872,0.027403677754200828,-0.012227230755537319,-0.002028314486368643,-0.10533251624235929,-0.1562059879676881,-0.03421868174603899,0.9985672270903608,-0.03135088345798408,0.04202460545711135,-0.010702692354992355
544.1166666665005,0.03960567,-0.831548,-0.001042371,-2.3645108,-0.023362815,1.6193916,0.7597667,0.039999947,0.039999876,0.027777602539735824,-0.012192402384696849,-0.002332910212610173,-0.10701070916658825,-0.1584725215709294,-0.03470393074829606,0.9984811511617068,-0.032275847432274005,0.04327187966027039,-0.01100930869712462
544.1333333331671,0.04074723,-0.8329115,-0.0010736678,-2.3647478,-0.024041707,1.6207931,0.7590076,0.039999947,0.039999876,0.027883935270756055,-0.012239965003318573,-0.001963269221394448,-0.10868367349021812,-0.16073213981824772,-0.03518512298272446,0.9983911613215645,-0.03321523716643382,0.0445386258869665,-0.011320239355079535
544.1499999998338,0.041906297,-0.8342962,-0.0011054444,-2.364989,-0.024731014,1.6222161,0.75823677,0.039999947,0.039999872,0.027006622643410694,-0.012182409797620308,-0.0029651167219535424,-0.11035115398656618,-0.16298839906621965,-0.03566107639810587,0.9982971512454426,-0.034168949595659005,0.04582463467016101,-0.011635443958414069
544.1666666665004,0.043082844,-0.83570194,-0.0011376997,-2.3652334,-0.025430696,1.6236606,0.7574542,0.039999947,0.03999987,0.02894237381716458,-0.01222701124998296,-0.0025544285710665804,-0.11201313320903028,-0.1652391878399027,-0.03613269325909247,0.9981989784797104,-0.03513698198799772,0.0471303801779573,-0.011954878632545006
544.1833333331671,0.044276807,-0.83712846,-0.0011704314,-2.3654819,-0.026140753,1.6251274,0.75666004,0.039999947,0.039999872,0.027554474199931178,-0.012214188335846199,-0.002278338672523361,-0.11366815023478855,-0.1674795375353289,-0.03660146196497598,0.9980965265005048,-0.036119245754688195,0.048455771679591454,-0.012278520459517299
544.1999999998337,0.04548811,-0.8385756,-0.0012036384,-2.3657331,-0.026861154,1.6266141,0.7558543,0.03999995,0.039999876,0.028547899692199508,-0.01209766997055245,-0.003777979665109399,-0.1153170153148255,-0.16971125020248723,-0.03706475235620841,0.9979897139677607,-0.03711564008127895,0.04980000339824052,-0.012606337193637086
544.2166666665004,0.046716712,-0.8400435,-0.0012373195,-2.3659887,-0.027591808,1.6281233,0.75503707,0.039999947,0.039999865,0.027343849872751846,-0.012225268155957592,-0.0025917126265095902,-0.1169589256763992,-0.17193736905214077,-0.0375213212503413,0.9978783828615032,-0.03812612545507272,0.05116378728334116,-0.01293825514975978
544.233333333167,0.047962528,-0.84153205,-0.0012714711,-2.3662472,-0.028332708,1.6296526,0.7542085,0.03999995,0.03999987,0.028978347579933228,-0.012090963055048226,-0.003919601537138995,-0.11859355353788706,-0.1741540933398844,-0.03797464886868109,0.9977624382025098,-0.03915053515196795,0.052546615582221116,-0.013274249521222348
544.2499999998337,0.049225472,-0.84304106,-0.0013060924,-2.3665094,-0.0290838,1.6312028,0.7533685,0.03999995,0.039999865,0.027427743403274363,-0.012081889915071392,-0.0037773765713344787,-0.1202210241866025,-0.17636101790855283,-0.03842218030118919,0.997641765236005,-0.04018888524091852,0.053948246057800804,-0.013614275859089442
544.2666666665003,0.050505478,-0.84457034,-0.0013411805,-2.3667755,-0.029845051,1.6327745,0.75251704,0.03999995,0.039999865,0.027578735456135206,-0.012086477551567082,-0.0034255143363859375,-0.12184008849967146,-0.17856072592518613,-0.0388657331795572,0.9975162262401721,-0.04124113350077046,0.05536888348659911,-0.013958296335324053
544.283333333167,0.05180245,-0.84611994,-0.0013767339,-2.3670447,-0.03061639,1.6343666,0.7516543,0.03999995,0.039999865,0.02864304153300523,-0.012022962656348807,-0.004078584711963984,-0.12345027130235174,-0.18074947664491273,-0.039303107806165305,0.9973857031927214,-0.04230711480981902,0.05680843562233918,-0.014306248473026773
544.2999999998336,0.053116318,-0.8476897,-0.0014127498,-2.367318,-0.03139778,1.6359797,0.75078046,0.03999995,0.03999986,0.027018515032883883,-0.012005308429443445,-0.004225997125240077,-0.12505178940067038,-0.18292817913620493,-0.039734042320635786,0.9972500916182733,-0.0433867331286534,0.05826651247831269,-0.014658092624327101
544.3166666665003,0.05444698,-0.8492796,-0.0014492254,-2.3675942,-0.032189123,1.637613,0.74989545,0.039999936,0.039999805,0.028624787221742665,-0.011973439378595158,-0.004432112966834545,-0.12664526047065916,-0.18509564394529682,-0.040151143297676856,0.9971092504233219,-0.0444799083917598,0.05974334715238398,-0.01501375838128564
544.3333333331669,0.05579435,-0.8508894,-0.0014861582,-2.367874,-0.032990452,1.639267,0.7489994,0.039999932,0.0399998,0.028103550862068616,-0.011890201557834129,-0.004469293291053944,-0.12822810389875092,-0.18725284337300901,-0.04057139795076685,0.9969630618999974,-0.04558652659861489,0.06123875743448153,-0.015373236078867822
544.3499999998336,0.057158303,-0.852519,-0.001523545,-2.3681571,-0.033801664,1.6409414,0.74809223,0.03999993,0.039999798,0.027663235761687943,-0.011845283345016111,-0.004669136756829673,-0.12980091801433058,-0.18939602549510648,-0.040985618423634414,0.9968114047173222,-0.04670656993589434,0.062752558181287,-0.015736460593367772
544.3666666665002,0.05853875,-0.8541684,-0.0015613844,-2.3684442,-0.034622673,1.6426362,0.74717414,0.03999993,0.03999979,0.027371771849882265,-0.011818857930790544,-0.005068061572810478,-0.13136291537421296,-0.1915280252642186,-0.04139291431146548,0.996654162819874,-0.04783985908280272,0.06428459678305651,-0.01610336092849523
544.3833333331669,0.059935596,-0.8558372,-0.0015996717,-2.3687346,-0.03545344,1.644351,0.7462451,0.03999993,0.03999979,0.027654828347323246,-0.011770215825484404,-0.00505430815660457,-0.13291410635656997,-0.19364711481889205,-0.04179479785348353,0.9964912149619798,-0.04898635454348537,0.06583468839756983,-0.01647389983373813
544.3999999998335,0.061348714,-0.85752565,-0.001638405,-2.369028,-0.036293898,1.646086,0.74530524,0.039999917,0.039999783,0.028505559864955288,-0.011694121970142607,-0.005253692194484572,-0.13445329990148105,-0.19575304158199844,-0.042191070869479604,0.9963224146085896,-0.05014587953558594,0.06740312509191065,-0.01684801596498168
544.4166666665002,0.062777996,-0.85923356,-0.0016775806,-2.3693252,-0.037143968,1.647841,0.74435455,0.039999913,0.039999776,0.02759087586601261,-0.011642432853430779,-0.005619632743947278,-0.1359811893029742,-0.1978436135418763,-0.042579329536308344,0.9961476508173254,-0.051318394961358774,0.06898954256926748,-0.017225653131222506
544.4333333331668,0.064223334,-0.86096054,-0.0017171955,-2.369625,-0.038003616,1.6496154,0.74339324,0.03999991,0.039999776,0.02826461712879258,-0.011559299092561703,-0.005743783911693612,-0.1374961287078882,-0.19991772135650637,-0.042962730084102244,0.9959668069661991,-0.052503698878421164,0.07059378707788003,-0.01760676721152643
544.4499999998335,0.06568458,-0.86270636,-0.0017572463,-2.3699288,-0.038872752,1.6514094,0.74242127,0.03999991,0.039999776,0.026462947833838513,-0.011474366283257403,-0.0060106003486382065,-0.13899895789943928,-0.20197682411864482,-0.04333844123399822,0.9957797871816815,-0.05370173900836091,0.07221531504813263,-0.017991301797863585
544.4666666665001,0.067161635,-0.8644713,-0.0017977292,-2.3702357,-0.03975127,1.6532229,0.7414388,0.0399999,0.039999764,0.0281763711594607,-0.011459754317663662,-0.006199007632812226,-0.1404882198426442,-0.20402424881200557,-0.04370717668914058,0.9955864276773088,-0.05491234351847048,0.0738546251958055,-0.018379170036521418
544.4833333331668,0.06865435,-0.86625487,-0.0018386412,-2.370546,-0.04063911,1.6550556,0.740446,0.039999902,0.03999976,0.026690098307868837,-0.011341309565494895,-0.006449717254475296,-0.14196451926202372,-0.2060524413072402,-0.04406764533119381,0.9953866487790367,-0.05613536423901934,0.0755110264424478,-0.01877032764229814
544.4999999998334,0.07016262,-0.8680569,-0.0018799793,-2.3708594,-0.041536175,1.6569073,0.73944277,0.039999895,0.03999975,0.027839831715548158,-0.011305120596204893,-0.006535779928062979,-0.1434272262493109,-0.20806716222048016,-0.04442188563627786,0.995180305062966,-0.057370711508441544,0.07718468812018185,-0.01916470181316033
544.5166666665001,0.071686275,-0.8698774,-0.0019217383,-2.3711762,-0.042442426,1.6587777,0.7384294,0.03999989,0.03999975,0.026568468100762743,-0.01114321332954249,-0.007125920730888247,-0.14487553877189854,-0.21006389959511604,-0.04477056457853279,0.994967307257913,-0.05861817134270147,0.07887512777757866,-0.01956225177340494
544.5333333331668,0.07322519,-0.8717161,-0.0019639153,-2.371496,-0.043357763,1.6606667,0.73740584,0.039999887,0.03999975,0.027569015590822588,-0.011094101231385461,-0.007017332448122637,-0.1463095325489508,-0.212046603479744,-0.04511189841743682,0.9947475088292013,-0.05987770315898187,0.0805824828435634,-0.019962910641234524
544.5499999998334,0.07477918,-0.87357306,-0.0020065056,-2.3718188,-0.044282105,1.6625744,0.73637223,0.03999989,0.03999975,0.027431897678997785,-0.010953330596492894,-0.0073051919475597415,-0.14772858651983575,-0.21400990530530312,-0.04544519524331594,0.9945207850929797,-0.06114907144438175,0.08230674481051323,-0.02036661086755302
544.5666666665,0.07634814,-0.8754478,-0.0020495052,-2.3721447,-0.045215342,1.6645005,0.7353286,0.039999887,0.039999746,0.026784760658626894,-0.01092529480140117,-0.0074154442480489635,-0.1491327195890254,-0.2159541513563819,-0.04577127132284319,0.994287038975679,-0.06243220052903868,0.084047457696431,-0.020773283728028228
544.5833333331667,0.077931955,-0.87734026,-0.0020929105,-2.3724735,-0.046157405,1.6664449,0.7342753,0.039999884,0.039999742,0.027249419186281543,-0.010865476831773552,-0.007532684220779018,-0.15052136253923987,-0.21788017127241127,-0.0460898996457457,0.9940461394221799,-0.06372685546720339,0.08580470284725028,-0.021182860085868803
544.5999999998334,0.07953044,-0.8792503,-0.0021367176,-2.3728056,-0.047108218,1.6684074,0.733212,0.039999876,0.039999742,0.026258751309748973,-0.010697703749140697,-0.007969438735333512,-0.15189385062107336,-0.21978558329851278,-0.046402705121360306,0.9937979834429207,-0.06503303932431462,0.08757805013984407,-0.021595301218769004
544.6166666665,0.08114342,-0.88117766,-0.002180922,-2.3731406,-0.04806766,1.670388,0.73213917,0.039999876,0.03999974,0.026896439487611445,-0.01060387499019072,-0.00798269996904466,-0.15324962703268621,-0.22167156538028518,-0.0467053284021251,0.9935424499924302,-0.06635042100660585,0.08936755074040861,-0.0220105104426513
544.6333333331667,0.08277073,-0.8831222,-0.002225519,-2.3734787,-0.049035676,1.6723858,0.73105675,0.03999987,0.03999974,0.02605079425777035,-0.010424352663848668,-0.008632535289199161,-0.15458873972231832,-0.22353749857543137,-0.04700274387911385,0.9932794570954836,-0.06767892192416013,0.0911726278153475,-0.022428454617488842
544.6499999998333,0.084412225,-0.88508373,-0.0022705037,-2.3738194,-0.05001214,1.674401,0.72996503,0.039999876,0.039999746,0.026856882513115465,-0.010375885096395449,-0.008531965418967502,-0.15591135806427286,-0.22538535173477864,-0.04729062035908413,0.9930088674216931,-0.06901828421320629,0.0929934792706289,-0.022849036725744645
544.6666666665,0.08606776,-0.8870621,-0.0023158728,-2.374163,-0.050996937,1.6764337,0.72886395,0.03999987,0.03999974,0.026323064271505103,-0.010298433062596452,-0.008705514358986477,-0.15721722313176212,-0.22721042485166812,-0.047570825402774686,0.9927305685686544,-0.07036843675589044,0.09482988321144507,-0.02327218485643821
544.6833333331666,0.08773711,-0.88905686,-0.002361621,-2.37451,-0.051990014,1.6784834,0.7277535,0.03999987,0.039999742,0.02456783452395861,-0.010072460683256679,-0.009105698701050713,-0.15850500668542267,-0.22901341015912213,-0.047844982925543726,0.992444500869014,-0.07172925387261156,0.09668111355373832,-0.023697871544533736
544.6999999998333,0.08942016,-0.89106804,-0.0024077431,-2.3748596,-0.05299122,1.6805495,0.72663426,0.03999986,0.03999973,0.02646954231719789,-0.010015536480417753,-0.0093874001138472,-0.1597750761415383,-0.23079906383270482,-0.04810819967219035,0.9921505332739309,-0.07310034812530344,0.09854742932603125,-0.024125973585432395
544.7166666664999,0.09111674,-0.8930954,-0.002454235,-2.375212,-0.05400046,1.6826327,0.72550595,0.03999985,0.039999716,0.025703403444055084,-0.009944998514424541,-0.00917882822848437,-0.16102773143445545,-0.23256098317757656,-0.04836366772264939,0.9918485354546889,-0.07448173866223244,0.10042875360381745,-0.02455644053651254
544.7333333331666,0.09282663,-0.8951386,-0.0025010912,-2.375567,-0.055017643,1.6847318,0.7243687,0.039999846,0.03999971,0.025465554415582403,-0.009689910391687262,-0.009892791539356516,-0.1622616134127386,-0.23430043091505404,-0.04861127350453408,0.9915384430069054,-0.07587320992723388,0.102324538300176,-0.024989216002819496
544.7499999998332,0.094549656,-0.8971976,-0.0025483079,-2.3759248,-0.05604264,1.6868472,0.72322273,0.039999835,0.03999967,0.025025856556659676,-0.00961212835654951,-0.009899710562910613,-0.1634773387565256,-0.2360183563317494,-0.048846391513915156,0.9912201505608661,-0.07727453504656483,0.10423468168116305,-0.025424210710617998
544.7666666664999,0.096285656,-0.899272,-0.0025958791,-2.3762853,-0.057075396,1.6889787,0.72206813,0.039999828,0.03999967,0.025155208550176056,-0.009468722508165772,-0.00994022722733412,-0.16467266787139986,-0.2377143792776752,-0.049079844846889674,0.9908935467910395,-0.07868556272223366,0.10615907971896249,-0.025861379317089855
544.7833333331665,0.09803442,-0.9013619,-0.0026438003,-2.3766484,-0.058115777,1.6911256,0.72090477,0.039999828,0.03999967,0.02495562745172819,-0.009265263470935314,-0.01056213500401082,-0.16584904267554845,-0.23938524131816388,-0.049303689000002884,0.9905585393315576,-0.08010620468484753,0.10809741731345514,-0.02630065585648477
544.7999999998332,0.099795796,-0.9034666,-0.0026920664,-2.3770142,-0.059163664,1.693288,0.71973324,0.03999982,0.03999967,0.024313153411359423,-0.009198985341538068,-0.010452483702971804,-0.1670039803436049,-0.24103429284913763,-0.049520326651406564,0.9902150695809361,-0.08153606288155328,0.11004933010313753,-0.02674194025212141
544.8166666664998,0.10156957,-0.90558636,-0.0027406714,-2.3773823,-0.060218923,1.6954656,0.71855325,0.039999813,0.039999664,0.025027265901300666,-0.009014623516856446,-0.010873543360911953,-0.16814049648959165,-0.24265926202180665,-0.04972748017050299,0.9898629907192382,-0.08297512831081139,0.11201497361261548,-0.02718516824915151
544.8333333331665,0.103355534,-0.90772027,-0.0027896115,-2.3777533,-0.061281476,1.697658,0.71736526,0.03999981,0.039999664,0.022947989793609125,-0.008835745080081059,-0.01083844119214028,-0.16925537823940584,-0.24426049908156178,-0.04992664039453157,0.9895023115059792,-0.08442304456721515,0.11399338894017617,-0.027630279554498177
544.8499999998331,0.105153516,-0.90986884,-0.002838879,-2.3781269,-0.062351182,1.6998652,0.7161693,0.039999798,0.039999656,0.02409874909625742,-0.008703466428311435,-0.011316653748494332,-0.17035059406039366,-0.245839940923754,-0.05011738083562497,0.9891328691360665,-0.08587967323262405,0.11598500181995185,-0.028077184205980127
544.8666666664998,0.106963314,-0.91203153,-0.0028884693,-2.3785024,-0.063427985,1.7020876,0.7149655,0.039999794,0.039999656,0.024993622234648072,-0.008572084905525412,-0.010853769752960929,-0.17142468293586804,-0.2473937046120317,-0.05030052132464427,0.9887545322955564,-0.08734478279423845,0.11799000295708639,-0.02852583015110551
544.8833333331664,0.10878474,-0.9142082,-0.0029383767,-2.3788803,-0.06451169,1.7043238,0.713754,0.03999979,0.039999656,0.023299529404230412,-0.008352156907749653,-0.01198631141141604,-0.17247793435142028,-0.24891800920516804,-0.050474720851732026,0.9883673148096157,-0.08881820845590188,0.12000733800645232,-0.028976122710244377
544.8999999998331,0.110617585,-0.91639847,-0.002988598,-2.3792613,-0.06560215,1.706574,0.71253496,0.039999783,0.039999653,0.021890116156120243,-0.008220251444285287,-0.011908545738315013,-0.17350968081490192,-0.25041783923154937,-0.050640491895572945,0.9879711581062617,-0.0902997078849895,0.12203666518917806,-0.02942797742900222
544.9166666664997,0.11246161,-0.9186023,-0.0030391254,-2.379644,-0.06669931,1.708838,0.7113084,0.039999776,0.03999965,0.024317003056761877,-0.00800341069970012,-0.011904514053928672,-0.17452046810298122,-0.2518949607695046,-0.05079758683447713,0.987565893752258,-0.0917890932270001,0.12407849634168683,-0.02988134212941345
544.9333333331664,0.11431665,-0.92081916,-0.0030899534,-2.380029,-0.06780306,1.7111155,0.7100744,0.03999976,0.039999645,0.022361716998497982,-0.007842081707909454,-0.012156160373910652,-0.17550876300946328,-0.25334396684765786,-0.05094811462309525,0.9871515100861381,-0.09328622904123833,0.12613204374148507,-0.03033616896575833
544.949999999833,0.116182484,-0.92304885,-0.003141076,-2.3804166,-0.068913236,1.7134066,0.7088333,0.03999976,0.039999645,0.02176787945256109,-0.007719325136339161,-0.01217354598006537,-0.17647511231735097,-0.25476544549651625,-0.05108719576495653,0.9867279411832707,-0.09479082969022246,0.1281971131618336,-0.03079235086568228
544.9666666664997,0.1180589,-0.9252912,-0.003192489,-2.3808062,-0.07002973,1.7157102,0.7075851,0.039999753,0.039999645,0.022400600548877492,-0.007437202796974074,-0.012803953583784278,-0.17741830666317382,-0.2561627584614862,-0.0512201418273719,0.9862951293097773,-0.09630266063537397,0.13027341923586294,-0.031249827118796255
544.9833333331663,0.119945675,-0.92754614,-0.0032441854,-2.381198,-0.0711524,1.7180268,0.7063301,0.039999746,0.03999964,0.022243071901151268,-0.0073051875872851,-0.012766711462197655,-0.17833952202592349,-0.25753342653303746,-0.05134278599362401,0.9858529715111005,-0.09782146314338588,0.13236106182559426,-0.0317085039637895
544.999999999833,0.12184259,-0.92981297,-0.003296159,-2.3815913,-0.07228114,1.7203557,0.7050684,0.039999742,0.039999645,0.022009639353859356,-0.007108065268641994,-0.012703315338846721,-0.17923830951876615,-0.25887585544957764,-0.051457941542664316,0.9854014329187573,-0.09934705200717814,0.13445957677857734,-0.032168330259256014
545.0166666664996,0.123749435,-0.93209165,-0.0033484034,-2.3819876,-0.0734158,1.7226969,0.7038001,0.03999973,0.039999645,0.01973369642973566,-0.006890095497696924,-0.013272404867148424,-0.1801137945307038,-0.2601890723213789,-0.05156547059398567,0.9849405202573372,-0.10087924374954484,0.13656823520942726,-0.032629233327009184
545.0333333331663,0.12566599,-0.9343819,-0.003400914,-2.3823855,-0.07455627,1.7250499,0.7025254,0.039999727,0.03999964,0.021452860085968695,-0.006707226871530136,-0.013278558907625637,-0.180967085070128,-0.26147861464865496,-0.051661358332728585,0.9844701214681594,-0.10241774458739307,0.13868728402530328,-0.03309112841508608
545.049999999833,0.12759204,-0.9366837,-0.0034536845,-2.3827853,-0.07570237,1.7274145,0.70124435,0.039999716,0.03999964,0.020983864788570727,-0.006517633311366178,-0.013606942855659554,-0.18179665071480933,-0.26274041671214965,-0.051751314435336475,0.9839901756602368,-0.10396237246941194,0.14081652359553268,-0.03355392670219297
545.0666666664996,0.1295273,-0.9389966,-0.0035067084,-2.3831868,-0.07685401,1.7297907,0.6999571,0.03999971,0.039999638,0.02086860328063267,-0.0062583378978881,-0.01348808073911023,-0.18260277267255565,-0.26397137726204206,-0.051832053636367705,0.9835006257808507,-0.10551291598847952,0.14295575355474355,-0.03401758624415242
545.0833333331663,0.13147168,-0.9413202,-0.0035599787,-2.3835907,-0.078011036,1.7321779,0.6986638,0.0399997,0.039999634,0.01880571098444861,-0.006191059432389401,-0.01387092773701415,-0.18338494902371527,-0.26517330957918894,-0.05190334826483238,0.9830015151515791,-0.10706919035765877,0.14510410141149782,-0.03448201617389518
545.0999999998329,0.1334248,-0.94365436,-0.0036134904,-2.3839958,-0.079173334,1.7345757,0.6973646,0.03999968,0.03999963,0.020844076316572924,-0.005797510727477417,-0.013977071868098712,-0.18414232977052652,-0.2663491640912406,-0.05196912543483169,0.9824927196404236,-0.10863084236435376,0.14726198580234307,-0.034947152649756445
545.1166666664996,0.13538654,-0.9459988,-0.0036672365,-2.384403,-0.08034073,1.7369843,0.69605976,0.039999675,0.039999608,0.018640660753765914,-0.005731149771097399,-0.014131593963018219,-0.1848781405121628,-0.26749294400853424,-0.05201812552195201,0.9819742641166224,-0.11019773427025778,0.14942867866619544,-0.035412906776970884
545.1333333331662,0.13735658,-0.94835323,-0.0037212109,-2.384812,-0.081513144,1.739403,0.6947495,0.03999965,0.03999959,0.01865117391690596,-0.005372679665273383,-0.014313503128149385,-0.1855879297103984,-0.2686100359504865,-0.05206429020985534,0.981446121175548,-0.11176951431244217,0.15160398305060283,-0.035879231081851946
545.1499999998329,0.13933474,-0.9507173,-0.0037754076,-2.385223,-0.08269041,1.7418317,0.6934337,0.039999645,0.039999586,0.01845612847750644,-0.005243285534188569,-0.01437746086425662,-0.18627456265282874,-0.26969761114585905,-0.052100250678334264,0.9809082541968185,-0.11334607603033645,0.15378760876094094,-0.03634604914797105
545.1666666664995,0.1413208,-0.95309085,-0.0038298192,-2.3856354,-0.083872385,1.7442702,0.6921126,0.039999634,0.039999582,0.018400056173106805,-0.0050461186624967125,-0.01452124750345174,-0.1869357152280456,-0.2707564575446346,-0.05212900221741297,0.9803606075941513,-0.11492717537184566,0.15597950450460876,-0.03681328039135057
545.1833333331662,0.14331451,-0.95547354,-0.00388444,-2.386049,-0.08505891,1.7467178,0.69078636,0.039999623,0.039999582,0.018390905954523973,-0.004782444234367744,-0.014831543183602136,-0.18757130665315425,-0.2717849110734503,-0.05215119667551754,0.9798031833879357,-0.11651257576707202,0.15817926427494472,-0.0372808511762606
545.1999999998328,0.14531562,-0.95786506,-0.0039392626,-2.386464,-0.086249895,1.7491747,0.68945533,0.03999962,0.039999586,0.017751498191387327,-0.004554742789780741,-0.014664888907822693,-0.18818219512539802,-0.2727838735431448,-0.05216280677813037,0.9792359643500234,-0.1181019116000221,0.16038672289415426,-0.037748691622017744
545.2166666664995,0.1473239,-0.9602652,-0.0039942833,-2.3868806,-0.08744515,1.7516403,0.6881195,0.039999608,0.03999958,0.0172345231410187,-0.004334517687076822,-0.015067465205720332,-0.18876903587584803,-0.2737507253261564,-0.052165612975862544,0.9786589479749892,-0.11969505831467674,0.16260147138292697,-0.03821672497272244
545.2333333331661,0.14933914,-0.9626738,-0.0040494907,-2.3872986,-0.08864457,1.7541146,0.6867791,0.039999597,0.03999958,0.01697120106647354,-0.004109628442025559,-0.015053653086471996,-0.1893300830238548,-0.2746873161137865,-0.05216171467552357,0.9780721115843735,-0.1212917135069374,0.1648233722908993,-0.0386848901005491
545.2499999998328,0.15136106,-0.9650903,-0.0041048815,-2.3877182,-0.089848004,1.756597,0.685434,0.039999586,0.03999957,0.01567225021719132,-0.003853566150655019,-0.015227995292743657,-0.18986615469243256,-0.27559140456064907,-0.052148634584498366,0.9774754974991539,-0.12289180668905375,0.16705174941100517,-0.03915314363118915
545.2666666664994,0.15338941,-0.9675144,-0.004160451,-2.388139,-0.091055304,1.7590873,0.6840848,0.039999574,0.039999574,0.016093795826011004,-0.003597760763882074,-0.015245690040210924,-0.19037546928644014,-0.27646722998538464,-0.05212800180610369,0.9768690998166882,-0.12449485728699691,0.1692865582222374,-0.03962137728162039
545.2833333331661,0.15542394,-0.969946,-0.0042161886,-2.3885612,-0.09226633,1.7615852,0.68273157,0.03999956,0.03999957,0.015374466836837186,-0.0033513633777376706,-0.015475504977291443,-0.19086032707936146,-0.2773127230973347,-0.05209920265637578,0.9762529274452619,-0.12610065240843613,0.1715274814878744,-0.04008952744981991
545.2999999998327,0.15746444,-0.9723848,-0.004272088,-2.3889844,-0.093480915,1.7640907,0.6813744,0.039999552,0.039999567,0.0157905178428841,-0.00319766510070707,-0.01538298410552752,-0.19132110006337336,-0.2781266982702828,-0.052059749879007716,0.9756269345095199,-0.12770903558160634,0.17377449308739726,-0.040557520173097036
545.3166666664994,0.15951067,-0.97483027,-0.004328145,-2.389409,-0.09469889,1.766603,0.68001324,0.03999954,0.03999957,0.014026246419129862,-0.002941169740892924,-0.01554576888218584,-0.19175517511504547,-0.27890651131857613,-0.05201495493277099,0.974991215623121,-0.12931983053904558,0.1760268047937136,-0.04102529562620114
545.333333333166,0.16156234,-0.97728235,-0.0043843524,-2.3898342,-0.095920175,1.769122,0.6786485,0.039999522,0.039999567,0.015596211045032504,-0.002599658295981966,-0.015697077258414183,-0.19216273615037008,-0.27965884102548444,-0.05196121395900287,0.9743456997774703,-0.13093267189535554,0.17828471802744356,-0.0414927954393267
545.3499999998327,0.16361925,-0.97974074,-0.004440701,-2.390261,-0.09714461,1.7716473,0.6772803,0.039999515,0.039999567,0.012809693983539816,-0.00240691705291618,-0.01590519280900704,-0.1925455783100215,-0.2803755917147204,-0.05189795554380146,0.9736905222745167,-0.13254735097821105,0.18054730394729257,-0.04195995255957626
545.3666666664993,0.16568112,-0.9822051,-0.0044971844,-2.3906884,-0.09837196,1.7741789,0.67590874,0.039999504,0.039999567,0.01410385090117039,-0.002218842397404275,-0.0157592416560437,-0.19290196494812617,-0.2810622691111105,-0.051828080892999694,0.9730256171921975,-0.13416365833611038,0.18281476848417724,-0.04242666017601864
545.383333333166,0.16774777,-0.98467493,-0.004553798,-2.3911173,-0.09960219,1.776716,0.6745342,0.03999949,0.039999567,0.011878930696296308,-0.0019317930959258933,-0.015886393641784124,-0.19323185012637503,-0.2817177307586784,-0.0517499610681693,0.9723511368515189,-0.13578128689468505,0.18508621796523939,-0.04289289815466065
545.3999999998326,0.16981882,-0.9871502,-0.004610534,-2.3915472,-0.100835085,1.7792587,0.67315656,0.03999948,0.039999567,0.012667979194036505,-0.0016273772936600817,-0.015926333574745044,-0.19353729866623717,-0.28234205682626273,-0.05166182841772897,0.9716670228312096,-0.1374000587355783,0.1873618250991319,-0.043358587353782764
545.4166666664993,0.17189401,-0.9896305,-0.004667384,-2.3919775,-0.1020705,1.7818065,0.6717761,0.03999946,0.039999563,0.012799426242082745,-0.001316130496986645,-0.01606681737593707,-0.19381534270492767,-0.28293531599005745,-0.05156794170075979,0.970973321155831,-0.13901964063006408,0.18964133511972966,-0.043823659554056864
545.4333333331659,0.17397322,-0.99211556,-0.0047243433,-2.3924088,-0.103308305,1.7843596,0.670393,0.03999944,0.03999956,0.01167388385518997,-0.0012870540515352857,-0.015730658039370127,-0.19406756502212094,-0.2834943978850154,-0.05146605151035925,0.9702700536057021,-0.14063989930070245,0.19192449248419646,-0.04428804562588135
545.4499999998326,0.17605618,-0.9946051,-0.0047814017,-2.392841,-0.104548365,1.7869166,0.66900754,0.039999437,0.039999563,0.010619671896261451,-0.0008444130797841121,-0.0164879283408359,-0.19429443575583388,-0.2840197653220955,-0.051354031834950215,0.9695573866046727,-0.1422604856459943,0.19421049011140804,-0.044751690859337834
545.4666666664992,0.17814262,-0.99709874,-0.0048385565,-2.3932736,-0.10579049,1.7894782,0.6676199,0.039999414,0.03999956,0.011736300652920306,-0.0007504836324390141,-0.015845553978532934,-0.1944861896456279,-0.2845214415674333,-0.051256047460543824,0.9688352408479329,-0.1438811614711368,0.1964997120952285,-0.04521449558865844
545.4833333331659,0.18023218,-0.9995962,-0.004895798,-2.3937068,-0.107034564,1.7920436,0.66622996,0.0399994,0.039999563,0.010119502637850886,-0.0002775903489821152,-0.016144968622811007,-0.19466017676567063,-0.2849814846324144,-0.05113185639039376,0.9681037489296357,-0.1455017533466951,0.19879142776037909,-0.045676463637330675
545.4999999998325,0.18232475,-1.0020972,-0.0049531194,-2.3941407,-0.10828038,1.7946126,0.6648381,0.03999939,0.039999563,0.009798064938992823,-0.0002316480698510981,-0.016178028734659122,-0.19480853971057643,-0.2854087336785636,-0.0509976781022399,0.967362948556267,-0.1471220285432006,0.20108547451265735,-0.0461374730330808
545.5166666664992,0.18441994,-1.0046016,-0.005010514,-2.3945749,-0.109527856,1.7971851,0.6634444,0.039999373,0.039999567,0.010050628714086685,0.00020933901624664575,-0.016132985508110487,-0.19492909225299573,-0.28580517790358806,-0.05085841197053569,0.9666128856762767,-0.1487416611284152,0.2033817109326175,-0.04659750151523394
545.5333333331658,0.18651761,-1.0071088,-0.0050679753,-2.3950098,-0.110776804,1.7997606,0.6620491,0.039999362,0.03999957,0.008495623688942189,0.00030198420836458073,-0.016022035074270136,-0.19502452094096695,-0.2861653767865038,-0.05071002455151859,0.9658536794098809,-0.1503604855716617,0.20567956358617476,-0.04705647109643784
545.5499999998325,0.18861747,-1.0096184,-0.0051254956,-2.3954449,-0.11202704,1.8023387,0.6606523,0.039999347,0.039999567,0.0085367007554904,0.0005648080764086849,-0.015949462781494894,-0.1950940398914155,-0.28649378671669457,-0.050552882307470876,0.9650853944546489,-0.1519782894871575,0.20797877408086796,-0.04751431854390579
545.5666666664991,0.19071919,-1.0121303,-0.0051830676,-2.3958807,-0.11327846,1.8049192,0.6592543,0.039999332,0.039999567,0.007303728647878316,0.0009426522760119793,-0.016032902227847146,-0.19513666662480578,-0.2867888488743331,-0.05038918599024708,0.9643081609006557,-0.15359469771683446,0.21027891804165222,-0.04797099416211259
545.5833333331658,0.19282262,-1.0146445,-0.005240685,-2.396317,-0.1145309,1.8075019,0.6578552,0.039999306,0.039999563,0.007676963817049298,0.001129756979642571,-0.016335645672560517,-0.19515280194659532,-0.2870524985163341,-0.05022067888402585,0.9635219758508181,-0.1552095806600266,0.21258003059093605,-0.048426425821351954
545.5999999998324,0.1949274,-1.0171599,-0.005298341,-2.3967538,-0.11578422,1.8100861,0.6564552,0.0399993,0.03999957,0.005959599397176163,0.0014264445074879673,-0.0156809434629146,-0.19514365793784677,-0.2872816859682562,-0.05004191590236717,0.9627270671419698,-0.15682265187025787,0.21488121758021403,-0.04888059312084764
545.6166666664991,0.19703336,-1.019677,-0.005356029,-2.3971906,-0.11703821,1.812672,0.6550543,0.039999284,0.039999563,0.0073800234355658745,0.001590697960526799,-0.01609571064231652,-0.19510985754843027,-0.2874790302510277,-0.04985393482659213,0.9619233362840549,-0.1584337886823538,0.21718297769841716,-0.04933339552429885
545.6333333331658,0.19914019,-1.0221952,-0.0054137395,-2.3976278,-0.11829275,1.8152587,0.65365285,0.03999926,0.039999563,0.005257224904209323,0.001964118003114357,-0.016051846126297065,-0.19504725856400318,-0.2876418918814922,-0.049662437512520044,0.9611110502955768,-0.1600426089660624,0.2194843670388918,-0.04978478623642409
545.6499999998324,0.20124763,-1.0247144,-0.005471466,-2.398065,-0.11954771,1.8178462,0.652251,0.03999924,0.039999563,0.00588861681536379,0.002244755597352599,-0.016052451684300806,-0.19495895712227962,-0.2877745782137521,-0.04946423006151612,0.9602902185510206,-0.1616489085635954,0.2217854793557585,-0.05023472566231222
545.666666666499,0.20335545,-1.0272337,-0.005529204,-2.3985023,-0.120802924,1.8204339,0.65084904,0.03999923,0.039999567,0.0047466294466946835,0.0024241977811395587,-0.015721239993427005,-0.19484641990668988,-0.2878701843935664,-0.049255768402562294,0.9594610238190968,-0.1632524231493001,0.22408571814593614,-0.050683143459266056
545.6833333331657,0.20546338,-1.0297532,-0.0055869427,-2.3989396,-0.1220582,1.8230218,0.64944696,0.039999217,0.039999563,0.004535930698645885,0.0026242907021217787,-0.01564686148667338,-0.1947089328711707,-0.2879333628560059,-0.04904044816735657,0.9586235148514324,-0.16485300471591074,0.22638500167600287,-0.05112997776429716
545.6999999998324,0.20757109,-1.0322726,-0.005644679,-2.3993762,-0.12331342,1.8256094,0.6480449,0.03999919,0.039999567,0.0052741266142408705,0.0030502042562219334,-0.015716095368500937,-0.1945429594851201,-0.2879635669387103,-0.04882272143476757,0.9577777498383346,-0.16645036914413178,0.22868330732971642,-0.051575202133790056
545.716666666499,0.20967843,-1.0347914,-0.0057024024,-2.399813,-0.12456843,1.8281969,0.64664316,0.03999917,0.039999567,0.002859196452398294,0.003077208175247814,-0.015293350077127954,-0.19435182485665065,-0.2879576984925446,-0.04859765165159641,0.9569239420530258,-0.1680443151810097,0.23097992896835293,-0.052018743495180986
545.7333333331657,0.2117851,-1.0373095,-0.0057601077,-2.4002495,-0.12582305,1.8307836,0.6452417,0.03999916,0.039999567,0.0033908264911897135,0.0034429507001887405,-0.015557264554200145,-0.19413734866501725,-0.2879178095687147,-0.04836120331037139,0.9560621360565418,-0.1696346978439263,0.23327483937071627,-0.05246056235849065
545.7499999998323,0.21389084,-1.0398262,-0.0058177887,-2.4006858,-0.12707713,1.8333691,0.643841,0.03999914,0.03999957,0.001982806551348304,0.003600097949077452,-0.014961004569613578,-0.19389427132626208,-0.2878433137638424,-0.04812278276735852,0.9551925901262582,-0.17122112553909768,0.2355673379423341,-0.05290057874708863
545.766666666499,0.21599536,-1.0423416,-0.0058754366,-2.4011219,-0.1283306,1.835953,0.64244115,0.03999912,0.039999574,0.0019930868227824305,0.004088265588614304,-0.015483533378835013,-0.1936271377097787,-0.287737109972711,-0.047876835341195065,0.954315371432146,-0.17280343650141358,0.2378573436284384,-0.053338806357566416
545.7833333331656,0.21809848,-1.0448552,-0.0059330435,-2.4015574,-0.12958321,1.8385353,0.64104223,0.0399991,0.03999957,0.0017828263501495911,0.004062742380492312,-0.014924681619765678,-0.1933354912091577,-0.2875961014405738,-0.04762348646479765,0.9534305717539018,-0.17438145265089533,0.24014472532611775,-0.053775131003420976
545.7999999998323,0.2201999,-1.0473672,-0.005990604,-2.4019928,-0.13083485,1.8411156,0.63964444,0.039999086,0.03999958,0.00107314765473987,0.004486012448562393,-0.015214436311206114,-0.19301777663548692,-0.2874207391213691,-0.047365062556341715,0.95253833794983,-0.17595492412168837,0.2424291774062306,-0.054209531959285545
545.8166666664989,0.22229932,-1.0498766,-0.0060481103,-2.402428,-0.13208534,1.8436931,0.63824785,0.039999057,0.039999574,-0.0004953135285923338,0.00469492919868697,-0.014683547676153097,-0.19267444569245734,-0.28721007433240564,-0.047101626158138184,0.9516389373745638,-0.17752370150059166,0.24470987202555627,-0.05464198762285015
545.8333333331656,0.22439659,-1.0523837,-0.006105555,-2.4028625,-0.1333345,1.846268,0.63685286,0.039999038,0.039999574,0.0003243482730397318,0.00488231466423128,-0.014938842260225904,-0.19230714608507404,-0.286969015725647,-0.04682896815770772,0.9507323834094317,-0.17908745576966634,0.24698714923844414,-0.05507237450515368
545.8499999998322,0.22649133,-1.0548874,-0.0061629307,-2.4032967,-0.13458225,1.8488399,0.6354595,0.039999027,0.039999574,-0.0012177606103502825,0.005137330056659284,-0.01414691226084841,-0.19191568455485053,-0.28669166270660623,-0.046550394096256956,0.9498189335825307,-0.18064605155478217,0.24926023837730402,-0.05550072999430582
545.8666666664989,0.22858334,-1.0573877,-0.006220233,-2.40373,-0.13582838,1.8514087,0.63406795,0.039999012,0.039999582,-0.00045423768946228904,0.005281378189431196,-0.013987805315029966,-0.19149887458513581,-0.28638443678934433,-0.04626692953685526,0.9488986241762292,-0.18219923022889037,0.25152935787419717,-0.05592694938804678
545.8833333331655,0.23067237,-1.0598845,-0.006277453,-2.404163,-0.1370728,1.8539737,0.63267833,0.039998986,0.039999582,-0.0024424821984947442,0.005653301001129485,-0.014253205207892528,-0.19105681325875545,-0.2860401326748909,-0.04597933005270453,0.9479717186793247,-0.18374687592255298,0.25379374459575077,-0.05635105479878728
545.8999999998322,0.23275815,-1.0623776,-0.006334584,-2.4045951,-0.13831526,1.8565348,0.631291,0.039998963,0.039999586,-0.002094214258807625,0.005828060655951872,-0.013976341331067843,-0.19059015132662552,-0.2856644875300315,-0.045684825097830936,0.9470383377350463,-0.18528865290203086,0.2560533886943708,-0.05677291699323485
545.9166666664988,0.23484044,-1.0648664,-0.006391619,-2.4050262,-0.13955568,1.8590914,0.6299059,0.03999895,0.039999582,-0.0020331370683024375,0.006124886075270508,-0.013910860202348552,-0.19010102580611185,-0.2852536024497181,-0.04538306093143138,0.9460986201939979,-0.18682442898761903,0.2583080446446781,-0.05719254909781813
545.9333333331655,0.23691894,-1.0673511,-0.0064485506,-2.4054565,-0.1407939,1.8616433,0.62852323,0.039998926,0.039999582,-0.0031242750051063695,0.006412099424599194,-0.013829897857320361,-0.18958692860380483,-0.28480791521357446,-0.04507771522105876,0.9451527420692325,-0.188353993077414,0.2605574124225167,-0.05760991479325988
545.9499999998321,0.23899347,-1.0698309,-0.006505373,-2.4058864,-0.14202976,1.8641905,0.6271434,0.039998908,0.03999959,-0.004525606071892341,0.006417899099514512,-0.013133015663369108,-0.1890484399261366,-0.2843292805170979,-0.04476756677039587,0.9442009490020267,-0.18987712909827195,0.26280097127847823,-0.05802493639943779
545.9666666664988,0.24106376,-1.0723053,-0.006562079,-2.4063153,-0.1432631,1.8667325,0.62576634,0.03999889,0.039999593,-0.004446727485429847,0.006622764226252298,-0.01282649583285167,-0.18848711139502095,-0.2838179670862446,-0.044451212321400826,0.9432433792937388,-0.19139370540200093,0.2650385341100382,-0.05843759395990017
545.9833333331654,0.2431295,-1.0747749,-0.00661866,-2.4067433,-0.14449376,1.8692688,0.6243923,0.039998867,0.03999959,-0.004424153491155991,0.0071177041404052455,-0.013427914390606865,-0.18790181895931085,-0.28327395690016777,-0.04412968297723256,0.9422801709849035,-0.19290344975717658,0.2672700322583059,-0.05884784020748399
545.9999999998321,0.24519047,-1.0772386,-0.006675111,-2.4071698,-0.1457216,1.8717995,0.62302136,0.03999885,0.039999597,-0.004544879871648533,0.007123205588452364,-0.012464336078665816,-0.1872932865911726,-0.28269480690145066,-0.04380345352325151,0.941311476057448,-0.1944061873101236,0.26949528516109156,-0.05925563816238641
546.0166666664987,0.24724644,-1.0796959,-0.006731425,-2.4075952,-0.14694647,1.874324,0.62165385,0.039998822,0.039999593,-0.005997284544978498,0.007285447186508587,-0.012158104885662269,-0.18666106670657226,-0.28208053789118126,-0.04347371603429177,0.9403375808625328,-0.19590174364181942,0.27171365791740126,-0.05966095001623501
546.0333333331654,0.24929711,-1.0821474,-0.006787595,-2.4080198,-0.14816836,1.8768417,0.6202898,0.039998807,0.0399996,-0.007015951946209853,0.007809166911870724,-0.012535972032035048,-0.18600679779138807,-0.2814334020627746,-0.04313832293343401,0.9393586918926464,-0.1973899468326099,0.27392479610686554,-0.060063823829052995
546.049999999832,0.25134233,-1.0845922,-0.0068436125,-2.4084432,-0.14938691,1.8793527,0.6189295,0.03999879,0.0399996,-0.006769962835928567,0.007669362107987077,-0.011916697414449118,-0.18532989162405744,-0.28075601135668193,-0.04279685553089935,0.9383749372214188,-0.19887059284380812,0.276128698074028,-0.0604640934488632
546.0666666664987,0.2533818,-1.0870298,-0.0068994723,-2.408866,-0.15060201,1.8818567,0.61757296,0.039998766,0.039999597,-0.008782372809790218,0.007810742207040033,-0.011189446071302456,-0.18463120653034068,-0.28004294542477937,-0.0424511044546954,0.9373866282111535,-0.20034361779350016,0.2783246088201248,-0.06086177934846332
546.0833333331653,0.25541523,-1.0894603,-0.0069551687,-2.409287,-0.15181363,1.8843536,0.61622036,0.039998744,0.039999604,-0.006905520057376435,0.0081867729357199,-0.011298398237391538,-0.18390800025879217,-0.27930438558619797,-0.042101662304388526,0.9363937533255807,-0.2018087450926076,0.2805130375988216,-0.061256876136972935
546.099999999832,0.2574424,-1.0918835,-0.0070106927,-2.4097064,-0.15302147,1.8868426,0.6148719,0.03999872,0.039999597,-0.007646249290527152,0.00848055930425251,-0.011592690855066756,-0.18316448286146406,-0.27852557384254734,-0.04174572075039189,0.9353965861800477,-0.20326574829394725,0.282693523743516,-0.06164928034201491
546.1166666664986,0.25946307,-1.094299,-0.00706604,-2.4101248,-0.15422551,1.8893237,0.61352795,0.0399987,0.039999604,-0.009796094764968899,0.008536763964553384,-0.010579920748687854,-0.18239651224568973,-0.2777159797503114,-0.041390150738602874,0.9343954349591111,-0.20471446555980866,0.28486544069089764,-0.06203901528970184
546.1333333331653,0.26147705,-1.0967065,-0.007121202,-2.4105415,-0.15542555,1.8917964,0.6121883,0.03999868,0.039999604,-0.0089160978852032,0.008748654269055689,-0.010827435069327151,-0.18160979459162807,-0.2768742325896114,-0.04102674202039166,0.9333903839865897,-0.20615486638231664,0.28702883388781647,-0.062426041563247776
546.149999999832,0.26348403,-1.0991056,-0.007176172,-2.410957,-0.15662146,1.8942609,0.61085355,0.039998658,0.039999608,-0.01032466377592911,0.008795488102467108,-0.009851970101526497,-0.1807998762961031,-0.27599918161061504,-0.04066113945959356,0.9323817127463374,-0.20758657731825852,0.2891833720982158,-0.06281028542684487
546.1666666664986,0.26548377,-1.1014962,-0.007230944,-2.4113712,-0.15781315,1.8967161,0.6095233,0.03999864,0.03999962,-0.010754086406583596,0.009255452572554113,-0.010216776373317416,-0.17996849045073327,-0.27509223392397797,-0.04029420755925772,0.931369634332092,-0.20900969827329877,0.29132857907096604,-0.06319184510917293
546.1833333331653,0.26747605,-1.1038778,-0.007285514,-2.4117837,-0.1590004,1.8991624,0.6081981,0.039998613,0.039999615,-0.010787474940521236,0.00915525172386078,-0.0093923575531063,-0.179116923126844,-0.2741536747174784,-0.03991923964205416,0.9303543271519481,-0.21042389243010823,0.2934644675757178,-0.06357057271024588
546.1999999998319,0.26946068,-1.1062502,-0.007339871,-2.4121943,-0.16018303,1.9015989,0.60687804,0.03999859,0.039999615,-0.011111924403417461,0.009423623929019631,-0.009503614966788199,-0.1782450137263769,-0.2731830825910141,-0.03954134932214062,0.9293360282579343,-0.21182903792355903,0.2955906939158701,-0.06394643809065406
546.2166666664986,0.27143738,-1.1086133,-0.00739401,-2.4126031,-0.16136098,1.904026,0.6055634,0.039998572,0.03999962,-0.011547070275153004,0.009564659216018678,-0.009000091001465371,-0.17735260807770406,-0.27217936067043813,-0.03916042945876531,0.9283148885889293,-0.21322491606548938,0.2977072626480208,-0.06431942598943986
546.2333333331652,0.27340585,-1.1109663,-0.0074479287,-2.4130104,-0.16253413,1.9064431,0.60425395,0.039998546,0.03999962,-0.01279333837707064,0.00974274282340426,-0.0083530770674356,-0.17643926323730974,-0.27114496068635846,-0.038778311974831156,0.9272912028542983,-0.21461156464824746,0.2998135361768301,-0.064689604678063
546.2499999998319,0.27536598,-1.1133094,-0.0075016157,-2.4134161,-0.16370228,1.90885,0.60295016,0.039998524,0.039999623,-0.013516288870141224,0.00977120357123773,-0.00823158925642442,-0.17550595695895757,-0.27007811356135647,-0.038391143690988394,0.926265210638409,-0.2159887458735957,0.3019093034886405,-0.06505684963121672
546.2666666664985,0.27731746,-1.1156422,-0.0075550657,-2.41382,-0.16486531,1.9112458,0.601652,0.0399985,0.039999627,-0.01341995680821384,0.010133528149128268,-0.008171193807782196,-0.1745528040295123,-0.26898126489587376,-0.03800090792542886,0.9252371275158953,-0.2173563227430319,0.3039943340866648,-0.06542118672851538
546.2833333331652,0.27926013,-1.1179644,-0.007608274,-2.414222,-0.16602308,1.913631,0.60035986,0.039998475,0.039999623,-0.013727423105036607,0.010079791475067768,-0.007541934133614703,-0.1735806877438276,-0.26785425528204637,-0.03760622876209315,0.9242071264879003,-0.2187141250926373,0.30606858097552925,-0.06578254003583786
546.2999999998318,0.28119367,-1.1202757,-0.007661232,-2.4146223,-0.16717547,1.9160049,0.5990738,0.03999846,0.03999963,-0.014850394902188313,0.010336731659646436,-0.007214730571170058,-0.17258926536389244,-0.26669658018473374,-0.037209882420563896,0.9231755070296792,-0.22006199373119142,0.3081315951976043,-0.06614092663795666
546.3166666664985,0.28311795,-1.1225759,-0.0077139353,-2.4150202,-0.16832232,1.9183675,0.5977939,0.03999844,0.03999963,-0.014012983252964517,0.010363997366563682,-0.0068890386011766225,-0.17157968725404932,-0.2655076990774349,-0.03681001260601082,0.92214236142357,-0.2213998849343173,0.3101834897173083,-0.06649630761196954
546.3333333331651,0.28503272,-1.1248647,-0.007766378,-2.4154165,-0.16946356,1.9207182,0.59652036,0.039998416,0.039999638,-0.016015766173271828,0.010581638638568203,-0.006602257531485023,-0.17054979641295145,-0.2642887197364306,-0.03640927149187791,0.9211080755197228,-0.22272761589767737,0.3122235997386145,-0.06684868057898125
546.3499999998318,0.28693762,-1.1271418,-0.0078185545,-2.4158103,-0.170599,1.9230573,0.59525335,0.03999839,0.039999638,-0.014846849561367392,0.010719732566311091,-0.006053006296991015,-0.16950266426314525,-0.26304053785280745,-0.036004818277609305,0.9200727047793065,-0.2240449973959686,0.3142522622709811,-0.06719801127639319
546.3666666664984,0.2888326,-1.129407,-0.007870455,-2.416202,-0.1717285,1.925384,0.593993,0.039998375,0.03999964,-0.01621697958240631,0.010761187684849016,-0.005883103985371285,-0.1684384342036349,-0.2617587026567729,-0.03559817827898141,0.9190365907621545,-0.22535198746729992,0.31626887050022523,-0.06754426798275212
546.3833333331651,0.2907175,-1.1316601,-0.007922079,-2.4165921,-0.17285194,1.9276981,0.5927394,0.03999836,0.039999653,-0.01764191779742852,0.010750540179496615,-0.005396710769667301,-0.16735551435992632,-0.26044693763069704,-0.03519008681289308,0.9180000149867312,-0.2266485790789536,0.3182729811986556,-0.06788743274548434
546.3999999998317,0.2925919,-1.1339005,-0.007973419,-2.41698,-0.17396918,1.9299997,0.5914926,0.039998338,0.039999653,-0.017209031945064623,0.010998273614162835,-0.004723521514327089,-0.16625498839480057,-0.2591090915126156,-0.034778226022223704,0.9169631324502964,-0.2279345763676538,0.32026464930440585,-0.06822753864067105
546.4166666664984,0.29445562,-1.1361281,-0.008024467,-2.4173653,-0.17508008,1.9322879,0.5902531,0.039998304,0.039999653,-0.017193660726766424,0.011172843371137775,-0.004698948322245933,-0.16513546765972353,-0.2577427513675624,-0.03436646655945508,0.9159262442228125,-0.22920968029813438,0.3222436181990429,-0.0685644815593992
546.433333333165,0.29630858,-1.1383433,-0.008075216,-2.4177482,-0.17618454,1.934563,0.5890206,0.039998297,0.039999656,-0.016950929809000925,0.01128816748387218,-0.004921749061104208,-0.16400354323774513,-0.25634452818814646,-0.03394984295365921,0.9148893459419178,-0.23047402657830995,0.32421016651886825,-0.06889829954765302
546.4499999998317,0.29815036,-1.1405452,-0.008125662,-2.4181292,-0.17728242,1.9368243,0.5877957,0.039998267,0.039999664,-0.019564329906529565,0.011385388828347165,-0.003698676151553393,-0.1628494454639982,-0.25491713496289264,-0.03353646168458499,0.9138530176491558,-0.23172731487834583,0.3261632460681415,-0.0692289721655366
546.4666666664983,0.29998094,-1.1427338,-0.008175802,-2.4185078,-0.1783736,1.939072,0.5865782,0.039998252,0.039999668,-0.01854993424785789,0.011302876097449288,-0.003530253353245527,-0.16168411227950408,-0.2534626493150621,-0.03311745191172463,0.9128172638428304,-0.2329695890412951,0.3281032026625441,-0.06955646494036505
546.483333333165,0.30180004,-1.144909,-0.008225629,-2.418884,-0.17945796,1.9413054,0.5853682,0.039998226,0.039999664,-0.01912553889060753,0.011613281722977487,-0.0035204281054301845,-0.16050159000404068,-0.2519782426007242,-0.0326981476537956,0.9117823638326393,-0.23420074251358902,0.33002970713577084,-0.06988079577198111
546.4999999998316,0.3036075,-1.1470695,-0.0082751345,-2.4192579,-0.18053553,1.943525,0.584166,0.039998207,0.03999968,-0.020320561334807863,0.011219418351735011,-0.0016543305773275563,-0.15930050341734095,-0.25046662840872613,-0.03228066407653542,0.9107486129890587,-0.23542075097733467,0.3319423302564693,-0.07020201800289372
546.5166666664983,0.30540317,-1.1492162,-0.008324313,-2.4196296,-0.18160598,1.9457299,0.5829717,0.03999818,0.03999968,-0.02035509179889594,0.011598559393471986,-0.0027305767273277937,-0.15808662425948083,-0.24892860107425677,-0.0318571217840212,0.9097161970854937,-0.23662945541669023,0.33384108866914686,-0.07051999082321796
546.5333333331649,0.30718675,-1.1513485,-0.008373166,-2.4199982,-0.18266924,1.94792,0.5817854,0.039998166,0.039999682,-0.019388966739342095,0.011744573372779454,-0.002047482814893087,-0.1568575400056554,-0.2473611991180817,-0.03143230937356882,0.9086852712758989,-0.2378267023550815,0.33572604525286165,-0.07083473690236174
546.5499999998316,0.3089581,-1.1534662,-0.008421681,-2.4203644,-0.18372522,1.9500948,0.5806072,0.03999814,0.03999969,-0.021300282071345933,0.011742648234031039,-0.0016253372607799577,-0.1556111131146372,-0.24576570267677655,-0.031010782170240912,0.9076561915025524,-0.23901250788484038,0.33759660291439164,-0.07114627750166484
546.5666666664982,0.31071705,-1.1555691,-0.0084698545,-2.4207284,-0.18477379,1.9522545,0.5794373,0.039998114,0.039999694,-0.022115087461704874,0.011650641282298646,-0.0008829206248117671,-0.15435027484223685,-0.24414664780358725,-0.03058712528359287,0.906629208173249,-0.2401867709359882,0.33945255719823103,-0.0714545685458407
546.5833333331649,0.31246325,-1.1576566,-0.008517688,-2.4210896,-0.18581481,1.9543989,0.5782759,0.039998103,0.03999971,-0.021445204805559115,0.011808465690915648,-0.0004108691351145666,-0.15307628489353658,-0.2424998827493961,-0.03016127958064343,0.905604504941189,-0.2413493308927286,0.34129392019113197,-0.07175960666297936
546.5999999998315,0.31419668,-1.159729,-0.008565161,-2.4214478,-0.1868482,1.956527,0.57712287,0.039998077,0.039999712,-0.021268433430421396,0.01204891187732704,-0.0008872383148172958,-0.1517882673934667,-0.24082743248565217,-0.029736195555210627,0.9045822541333842,-0.24250022079685737,0.34312059361321856,-0.07206140894371417
546.6166666664982,0.31591713,-1.1617852,-0.008612279,-2.4218037,-0.18787386,1.9586395,0.57597864,0.03999805,0.039999716,-0.023971083395046833,0.011502496881676816,0.0011036400739294905,-0.1504856373731655,-0.23912894981206495,-0.029310834023416193,0.9035628830160897,-0.243639386184436,0.34493188368580674,-0.07235994439110985
546.6333333331648,0.31762433,-1.1638261,-0.008659037,-2.4221559,-0.18889168,1.9607358,0.5748434,0.03999804,0.03999972,-0.02035844733234704,0.012272898237661312,-0.00018814844562342614,-0.14917333607701594,-0.2374070520457963,-0.028880060168183418,0.9025463016770904,-0.24476644319836818,0.34672869750924235,-0.07265515767356708
546.6499999998315,0.3193181,-1.1658511,-0.00870543,-2.4225059,-0.18990149,1.9628155,0.5737168,0.039998017,0.03999973,-0.02440718354383975,0.011996323308777201,0.0009929134268782391,-0.1478454042714155,-0.23565517887563137,-0.028456072490478032,0.9015330088609006,-0.24588172386377052,0.3485098666761777,-0.0729471358817111
546.6666666664981,0.32099837,-1.1678598,-0.008751448,-2.4228532,-0.19090329,1.9648788,0.57259923,0.039997995,0.03999974,-0.02392069509871142,0.011823833524571281,0.001625384881287495,-0.14650526765687116,-0.23388139943282266,-0.028029589342596625,0.9005231533499679,-0.24698511369400486,0.3502754820010102,-0.07323585599383367
546.6833333331648,0.3226649,-1.1698523,-0.008797094,-2.4231975,-0.19189693,1.9669249,0.5714908,0.03999798,0.039999753,-0.023443119420107905,0.012217185937238306,0.0014149275645136683,-0.14515184581480806,-0.23208320180678577,-0.027603231354182883,0.8995169613415364,-0.2480764009982548,0.35202550484259876,-0.0735212858086366
546.6999999998314,0.32431749,-1.1718279,-0.0088423565,-2.423539,-0.19288228,1.968954,0.57039165,0.039997958,0.03999976,-0.024476091121483634,0.011952955311034241,0.002413845644366752,-0.1437873839639941,-0.23026086246099137,-0.027176649082945932,0.8985146943784139,-0.249155630760605,0.35375962145610995,-0.07380342724820041
546.7166666664981,0.32595602,-1.1737869,-0.008887234,-2.4238777,-0.19385928,1.9709661,0.569302,0.039997943,0.03999977,-0.02477782184269195,0.011965978157160717,0.0026908664568559004,-0.1424131928304889,-0.22841547163127657,-0.026747821240863695,0.8975165319258717,-0.25022267490254646,0.35547786076269505,-0.07408224073250214
546.7333333331648,0.32758036,-1.1757287,-0.008931722,-2.4242132,-0.19482772,1.9729607,0.56822175,0.039997924,0.039999772,-0.024351784082021766,0.011950290404263986,0.0030050608079923435,-0.14102782343956533,-0.2265456095596693,-0.026320278197984867,0.8965226692185331,-0.25127759963380786,0.35718006786351325,-0.0743577206520245
546.7499999998314,0.32919034,-1.1776533,-0.008975813,-2.4245462,-0.19578765,1.9749373,0.56715083,0.039997905,0.03999978,-0.026579821861894004,0.0120336641608626,0.003506364530325712,-0.13962944360967422,-0.22465374300331747,-0.025894623139815116,0.8955334853103941,-0.25232048232939014,0.3588655970258427,-0.07462998161709342
546.766666666498,0.3307857,-1.1795608,-0.00901951,-2.4248755,-0.1967389,1.9768962,0.56608987,0.03999788,0.03999978,-0.02367640788105696,0.012268734497258849,0.0033568231128766612,-0.1382205295406615,-0.22274186266672746,-0.02546676961714764,0.894548952925714,-0.2533508598952596,0.3605352591265234,-0.07489886205018001
546.7833333331647,0.3323663,-1.1814504,-0.0090628015,-2.4252024,-0.19768138,1.9788371,0.5650386,0.039997872,0.039999783,-0.027300892172954505,0.01181707943803123,0.004854154251354714,-0.1368056349753436,-0.22080134315946615,-0.02503914093572686,0.8935695418288843,-0.2543690592201276,0.3621880147217717,-0.07516447045703695
546.7999999998314,0.33393204,-1.1833223,-0.009105688,-2.4255257,-0.19861503,1.9807593,0.56399727,0.039997835,0.03999978,-0.025469579348769145,0.012234162595942122,0.004165511843057246,-0.13537592166504625,-0.2188467836777071,-0.024614617775513076,0.8925953628911694,-0.2553748900828916,0.3638241139973039,-0.07542677067467225
546.816666666498,0.3354828,-1.1851763,-0.009148162,-2.425846,-0.1995397,1.9826634,0.5629659,0.039997824,0.039999794,-0.02665393791199122,0.011798611537097714,0.005315876313938261,-0.13393797366280452,-0.21686827428065375,-0.024190874671146834,0.8916265934122499,-0.25636840198478356,0.36544347091231205,-0.07568573149145726
546.8333333331647,0.33701843,-1.1870124,-0.009190219,-2.4261632,-0.20045535,1.9845488,0.5619446,0.0399978,0.03999979,-0.026037345947704793,0.012125954104499903,0.004966697276054255,-0.13249231422660498,-0.21486939496345064,-0.023765707249408345,0.890663395102074,-0.25734952850227916,0.3670461059348356,-0.07594137820039246
546.8499999998313,0.3385387,-1.1888304,-0.009231857,-2.426477,-0.2013619,1.9864155,0.5609336,0.03999779,0.039999798,-0.026545699622060326,0.012019373158705937,0.005757711376075392,-0.13103759254097047,-0.21284676224231325,-0.023342253249900732,0.8897060332718282,-0.2583181576605028,0.3686318279800671,-0.0761936951634885
546.866666666498,0.34004372,-1.1906297,-0.009273074,-2.4267879,-0.20225924,1.9882636,0.5599328,0.03999777,0.039999805,-0.027773061146474376,0.011554842747393823,0.006577917380590215,-0.12957325805436998,-0.21080541947006975,-0.02292170593912568,0.8887547248217879,-0.2592745059383466,0.3702003340660851,-0.07644267351900658
546.8833333331646,0.34153315,-1.1924102,-0.009313863,-2.4270952,-0.20314732,1.9900923,0.55894244,0.039997738,0.0399998,-0.02725417835893751,0.011928946207628854,0.00664044814695508,-0.12809790288455175,-0.2087446061386668,-0.022503927785151624,0.8878097314064268,-0.26021839989943446,0.37175147829898525,-0.07668835345960341
546.8999999998313,0.3430066,-1.1941721,-0.0093542235,-2.4273999,-0.20402606,1.9919018,0.55796224,0.039997723,0.039999805,-0.028721985936419614,0.012055293345056284,0.007164887948141185,-0.1266181198167886,-0.20666485013232894,-0.022083661955901113,0.8868712735594987,-0.2611498888986603,0.37328504652839734,-0.07693083712960887
546.9166666664979,0.34446445,-1.1959149,-0.009394148,-2.4277005,-0.20489533,1.9936914,0.5569929,0.039997704,0.039999798,-0.02699699808865752,0.011658204610412448,0.007230541153013803,-0.12513232508606112,-0.2045665950434693,-0.021662198256865203,0.8859394927611217,-0.26206882797299863,0.3748012150184767,-0.07716990211020636
546.9333333331646,0.34590617,-1.1976389,-0.0094336355,-2.4279985,-0.20575505,1.9954616,0.5560341,0.039997686,0.03999981,-0.029153281339411308,0.011901911846753932,0.007717776253679531,-0.12363575087868381,-0.20245312591853448,-0.021246679307214432,0.8850146475824766,-0.2629752934219014,0.3762996510624234,-0.07740569245493464
546.9499999998312,0.34733188,-1.1993433,-0.009472683,-2.4282925,-0.20660524,1.9972122,0.55508566,0.039997663,0.039999817,-0.027211205697508234,0.01159659588551576,0.00825882364356989,-0.12213262379741788,-0.20032221212544987,-0.020832643513540035,0.8840967181145921,-0.26386942406816966,0.3777806554936471,-0.07763824055019622
546.9666666664979,0.3487413,-1.2010283,-0.0095112845,-2.4285834,-0.20744574,1.9989426,0.5541484,0.03999765,0.039999817,-0.029409457939344463,0.01171252673915768,0.008659594431326134,-0.12062356956542085,-0.1981699428407074,-0.02041763467995647,0.8831862193080923,-0.2647509076241928,0.3792436158628258,-0.07786744354179136
546.9833333331645,0.3501344,-1.202694,-0.009549438,-2.428871,-0.20827648,2.0006533,0.5532219,0.039997637,0.03999983,-0.028581444085462593,0.01156872146147181,0.008775550314621405,-0.11910939693812095,-0.19600582058315522,-0.020005158260013742,0.8822830953605122,-0.26561993507752474,0.38068887611196955,-0.07809333732842089
546.9999999998312,0.35151106,-1.20434,-0.009587143,-2.4291549,-0.20909745,2.0023437,0.5523063,0.039997626,0.039999835,-0.028949823614343728,0.011553155129598314,0.009345064293397876,-0.11759036341335707,-0.19382092760827413,-0.019594265096045227,0.8813876285352078,-0.26647648574260796,0.38211613493987545,-0.07831596408116948
547.0166666664978,0.35287115,-1.2059662,-0.009624394,-2.429436,-0.20990853,2.0040135,0.551402,0.039997593,0.039999835,-0.03041454303729374,0.01147288431490312,0.009721091610881416,-0.11606181490780947,-0.19162464267095397,-0.01918771049105763,0.8805001456007867,-0.2673204873216162,0.3835250472032782,-0.07853527120250094
547.0333333331645,0.35421458,-1.2075726,-0.009661192,-2.4297128,-0.21070972,2.0056632,0.5505084,0.039997578,0.039999846,-0.027699354965715628,0.01154037155547405,0.009704682013600419,-0.11452999951548454,-0.18941534235635282,-0.018782654071490434,0.8796204565455268,-0.2681520790210401,0.3849162743345411,-0.0787513599612665
547.0499999998311,0.3555413,-1.2091589,-0.00969753,-2.4299872,-0.21150097,2.0072923,0.5496261,0.039997566,0.03999985,-0.031707292911242746,0.011125097204967016,0.010832821834361184,-0.1129952829408933,-0.18718542813644293,-0.018376965615142397,0.8787491442245025,-0.2689712638889141,0.38628882741676723,-0.07896418517077126
547.0666666664978,0.3568511,-1.210725,-0.009733405,-2.4302576,-0.21228215,2.008901,0.54875517,0.03999754,0.039999858,-0.02871213407869,0.011304898202332825,0.01064610580112646,-0.11145268709199638,-0.18494970740435257,-0.01797534948101432,0.8778861119792684,-0.2697778818164341,0.38764338412974525,-0.0791737053383279
547.0833333331644,0.35814402,-1.2122706,-0.009768816,-2.4305246,-0.21305326,2.0104885,0.54789543,0.039997526,0.03999987,-0.03057249400240103,0.011119376988816265,0.01120931913569656,-0.10990786655593492,-0.1826951264666963,-0.017576408899352948,0.8770316860999259,-0.2705721499824974,0.38897936828068197,-0.07937999926008957
547.0999999998311,0.35941994,-1.2137964,-0.009803759,-2.4307876,-0.21381418,2.0120552,0.5470469,0.03999751,0.039999876,-0.028723728476531818,0.011352257509808505,0.010634670038989213,-0.10835878140711072,-0.18043145632577007,-0.01717800647907242,0.8761857913387869,-0.2713539731287703,0.3902973510975657,-0.07958302613923451
547.1166666664977,0.36067876,-1.2153013,-0.009838236,-2.4310477,-0.21456495,2.0136006,0.54620975,0.0399975,0.039999884,-0.03214997187752644,0.010811333978016924,0.012394669873061481,-0.10680771284121304,-0.1781502214855514,-0.01678206570523952,0.8753489821553968,-0.2721235247616614,0.39159627333702884,-0.07978286419621351
547.1333333331644,0.3619204,-1.216786,-0.009872244,-2.4313045,-0.21530545,2.0151258,0.5453841,0.03999748,0.039999895,-0.029819953255483256,0.01088998720384926,0.011889190391389803,-0.10525132057874712,-0.17586415582465803,-0.016388549898542697,0.8745210063468472,-0.27288065015736174,0.39287714694376735,-0.07997942008491242
547.149999999831,0.36314473,-1.2182492,-0.009905777,-2.4315567,-0.21603563,2.0166287,0.5445699,0.03999747,0.039999902,-0.030320098927960615,0.010882314845550578,0.012699830340956453,-0.10369389007801,-0.1735615395949916,-0.01599649697004726,0.8737023963425599,-0.2736254453099901,0.39413901371561083,-0.08017278947039028
547.1666666664977,0.36435172,-1.2196927,-0.009938835,-2.431806,-0.21675554,2.0181108,0.5437672,0.039997444,0.0399999,-0.030802447187294746,0.011045874614729057,0.011917953689133398,-0.10213446553022104,-0.17125411761759324,-0.015606491025854732,0.8728929888519877,-0.27435790003963645,0.3953825578021527,-0.08036296214495632
547.1833333331643,0.36554134,-1.2211146,-0.0099714175,-2.4320514,-0.21746507,2.019571,0.54297596,0.039997436,0.039999906,-0.03088464597107432,0.010506958622447105,0.013504624487481465,-0.10057316903783885,-0.1689335104668259,-0.015218527789934305,0.8720931523132162,-0.275078176399938,0.3966071504678006,-0.08054997675166391
547.199999999831,0.36671352,-1.2225161,-0.010003523,-2.4322934,-0.21816419,2.0210106,0.5421965,0.03999743,0.039999913,-0.030511838465807628,0.0105198737116452,0.01312025562054675,-0.09901094229538494,-0.16660439271677324,-0.01483175534134764,0.8713027917895242,-0.27578611852212226,0.3978134313732714,-0.08073373315601441
547.2166666664976,0.36786819,-1.223897,-0.010035147,-2.4325316,-0.21885283,2.0224278,0.5414286,0.03999741,0.03999992,-0.03082834325778272,0.010910922568890813,0.012761299743124788,-0.09744477098917215,-0.16426575383263725,-0.01445108241416097,0.8705222442843058,-0.27648182271261906,0.39900087200018636,-0.0809143254239586
547.2333333331643,0.36900517,-1.2252564,-0.010066291,-2.432766,-0.21953104,2.0238245,0.54067236,0.039997388,0.039999917,-0.03031826527313264,0.010144863917976865,0.014486435474392323,-0.09587982969937987,-0.1619191709351756,-0.014071422990852615,0.8697514093528692,-0.2771653543215389,0.4001699324542143,-0.08109178412208681
547.249999999831,0.37012455,-1.2265948,-0.010096951,-2.4329967,-0.22019869,2.025199,0.53992796,0.039997373,0.039999917,-0.03168141412253078,0.010365273593787583,0.014021484809223494,-0.09431469968066157,-0.1595625893040844,-0.013693708314746159,0.8689907326607321,-0.2778367080483312,0.40131994657526554,-0.08126604882394821
547.2666666664976,0.3712264,-1.2279123,-0.010127128,-2.433224,-0.22085582,2.0265515,0.5391952,0.03999737,0.03999993,-0.03125615267527415,0.010235287587978537,0.014021659661156427,-0.09274955577984745,-0.15720044477585393,-0.013319152983398565,0.8682401713932988,-0.27849606644553127,0.4024511547155854,-0.0814371771452896
547.2833333331643,0.3723104,-1.2292084,-0.01015682,-2.4334478,-0.22150238,2.0278823,0.5384744,0.03999735,0.03999992,-0.03211062272439058,0.010052772176694091,0.015118217007081824,-0.09118397435701486,-0.15483291809440303,-0.012946898054037165,0.8675000108563184,-0.27914329127305876,0.4035633151663647,-0.08160517602128503
547.2999999998309,0.3733767,-1.2304834,-0.010186027,-2.4336677,-0.22213842,2.0291913,0.5377653,0.03999734,0.039999936,-0.030420350872706337,0.010216801721490976,0.014396607328670541,-0.0896176672315817,-0.1524644299237568,-0.012578951998852624,0.8667701294761774,-0.2797784852423943,0.4046568864658223,-0.0817700805864143
547.3166666664976,0.3744253,-1.2317374,-0.010214743,-2.4338844,-0.2227638,2.0304787,0.53706795,0.039997317,0.03999993,-0.03202890899021149,0.009678103407484429,0.015262172125307671,-0.08805431775334484,-0.15008646467139986,-0.01221273239617528,0.8660507008006794,-0.2804018598900247,0.40573162231421234,-0.08193186966708706
547.3333333331642,0.37545612,-1.23297,-0.010242977,-2.4340963,-0.22337858,2.0317445,0.5363827,0.03999731,0.039999936,-0.029180157545072305,0.009945826227347743,0.014907025129895501,-0.08649136327994388,-0.14770487388794679,-0.011848934110506637,0.8653416800313402,-0.28101310768756943,0.406788105828265,-0.08209048096438695
547.3499999998309,0.3764691,-1.2341812,-0.010270721,-2.4343054,-0.22398274,2.032988,0.53570896,0.039997295,0.039999936,-0.03334014854754486,0.009560639366390511,0.016061837391112554,-0.08493025344839722,-0.14531605937690822,-0.011490260097621517,0.8646435397705655,-0.2816127291465329,0.40782520257716975,-0.08224611880543882
547.3666666664975,0.37746426,-1.2353711,-0.010297975,-2.4345102,-0.22457632,2.0342097,0.53504735,0.039997272,0.03999994,-0.030132539929628166,0.009794114100736273,0.015366618419321298,-0.08336775441159373,-0.14292804346536592,-0.011134871193783716,0.8639560938385282,-0.282200374153841,0.408843828922203,-0.08239866685169657
547.3833333331642,0.37844154,-1.2365398,-0.010324741,-2.4347117,-0.22515924,2.0354102,0.53439754,0.039997265,0.03999994,-0.03144006415372047,0.009336642378182658,0.016163981479500045,-0.08181222771235772,-0.14053594403259217,-0.010780490136872222,0.8632794138769556,-0.28277631090680805,0.4098438875484951,-0.08254816415482913
547.3999999998308,0.37940097,-1.2376871,-0.010351021,-2.4349093,-0.22573146,2.0365882,0.5337596,0.03999726,0.039999943,-0.03162711173434474,0.009442625102829005,0.0161320877784199,-0.0802593010435099,-0.13813981527799282,-0.010429168168487046,0.8626137943307415,-0.28334057272415847,0.4108249757759165,-0.08269462471880955
547.4166666664975,0.38034254,-1.2388132,-0.01037681,-2.435103,-0.22629303,2.0377443,0.5331334,0.039997246,0.03999995,-0.030554106617586285,0.009399899714351845,0.016041643169018016,-0.07870647989278,-0.13574668299368903,-0.010083113050384986,0.8619591118349473,-0.283893213601175,0.41178754735667794,-0.08283808687963473
547.4333333331641,0.38126627,-1.2399178,-0.010402109,-2.4352942,-0.22684401,2.0388792,0.5325192,0.039997224,0.039999947,-0.03345559949234911,0.008707532302149046,0.01745770748282638,-0.077157542438602,-0.1333507385920622,-0.009739996049245449,0.8613156659654175,-0.2844343835094558,0.41273110146194847,-0.08297856907751544
547.4499999998308,0.38217214,-1.2410011,-0.010426921,-2.4354804,-0.22738436,2.0399916,0.53191686,0.03999721,0.03999995,-0.02902667735051878,0.009508968616261937,0.015844534931686027,-0.07561216764626875,-0.1309582172428771,-0.009398794418548736,0.8606832523876914,-0.2849639178716476,0.41365640766106104,-0.08311606927383183
547.4666666664974,0.3830602,-1.2420632,-0.010451242,-2.4356644,-0.22791414,2.0410824,0.5313264,0.0399972,0.039999958,-0.03412377455802584,0.00857567657940872,0.017705754673014162,-0.07407241428463703,-0.12856226136872909,-0.00906201129677885,0.8600623256857692,-0.2854821854497883,0.4145624738599938,-0.0832506636242646
547.4833333331641,0.38393041,-1.2431039,-0.010475078,-2.435843,-0.22843324,2.0421512,0.5307477,0.039997194,0.039999958,-0.027825151040872242,0.009200140400011936,0.016161939305670003,-0.0725384122841203,-0.1261729397305371,-0.008724773014550286,0.8594524045085921,-0.2859889223892579,0.4154507167191766,-0.08338226809431973
547.4999999998307,0.3847829,-1.2441233,-0.010498427,-2.4360194,-0.22894177,2.043198,0.530181,0.03999719,0.03999997,-0.034151868051957024,0.00839338947269952,0.017854825027874277,-0.07100681354086218,-0.12378187680989908,-0.00839518581758036,0.8588541404815458,-0.2864845085199689,0.4163197208501608,-0.08351096806420788
