rsonawane2002/My_IMU/logs_2/traj_300/imu_400hz_300.csv
time,j1,j2,j3,j4,j5,j6,j7,gripper1,gripper2,imu_ax,imu_ay,imu_az,imu_gx,imu_gy,imu_gz
0.0,0.00016700293,-0.785875,4.0107683e-05,-2.3551247,9.29385e-05,1.570997,0.786,0.04,0.04,-9.536127,0.0210635438561439,0.09987764,-3.9717597e-07,-0.0011641273740679,6.594131e-07
0.0025,0.0001670043685,-0.785857774,4.010868605e-05,-2.35513919,9.294320550000001e-05,1.570996565,0.786,0.04,0.04,-9.58085730000004,0.017999395122748757,0.08626120084998762,-4.516991895000496e-07,-0.0013254033285194466,6.749933300000141e-07
0.005,0.000167005807,-0.785840548,4.01096891e-05,-2.3551536800000004,9.294791100000001e-05,1.57099613,0.786,0.04,0.04,-9.625587600000081,0.014935246389353615,0.07264476169997523,-5.062224090000992e-07,-0.0014866792829709933,6.905735600000283e-07
0.0075,0.0001670072455,-0.7858233219999999,4.011069215000001e-05,-2.3551681700000002,9.295261650000002e-05,1.570995695,0.786,0.04,0.04,-9.670317900000123,0.011871097655958474,0.059028322549962854,-5.607456285001487e-07,-0.00164795523742254,7.061537900000424e-07
0.01,0.00016700868400000002,-0.785806096,4.011169520000001e-05,-2.35518266,9.295732200000003e-05,1.5709952600000001,0.786,0.04,0.04,-9.715048200000163,0.008806948922563331,0.04541188339995047,-6.152688480001983e-07,-0.0018092311918740866,7.217340200000567e-07
0.0125,0.00016701012250000001,-0.78578887,4.011269825000001e-05,-2.3551971500000004,9.296202750000002e-05,1.570994825,0.786,0.04,0.04,-9.759778500000204,0.005742800189168191,0.03179544424993809,-6.69792067500248e-07,-0.0019705071463256333,7.373142500000709e-07
0.015,0.000167011561,-0.785771644,4.0113701300000006e-05,-2.3552116400000003,9.296673300000003e-05,1.57099439,0.786,0.04,0.04,-9.804508800000244,0.0026786514557730484,0.018179005099925705,-7.243152870002975e-07,-0.00213178310077718,7.52894480000085e-07
0.0175,0.00016701532350000005,-0.785754867,4.011460050000001e-05,-2.3552257350000003,9.2969867e-05,1.57099396,0.786,0.04,0.04,-9.834239399999998,0.0006377284473273902,0.009023676899998516,-9.94886860004474e-07,-0.002289093681611991,7.061933959989095e-07
0.02,0.00016702373400000005,-0.785738988,4.0115292000000003e-05,-2.3552390400000003,9.2969858e-05,1.5709935400000001,0.786,0.04,0.04,-9.833970599999999,0.0006432568887248602,0.008790570599998304,-1.6975551400051127e-06,-0.0024384735152135468,5.349296839987539e-07
0.0225,0.00016703214450000008,-0.7857231089999999,4.0115983500000005e-05,-2.3552523450000002,9.2969849e-05,1.57099312,0.786,0.04,0.04,-9.833701799999998,0.0006487853301223302,0.008557464299998091,-2.4002234200057515e-06,-0.002587853348815103,3.636659719985982e-07
0.025,0.00016704055500000009,-0.7857072299999999,4.011667500000001e-05,-2.35526565,9.296984e-05,1.5709927,0.786,0.04,0.04,-9.833432999999998,0.0006543137715198003,0.00832435799999788,-3.1028917000063912e-06,-0.0027372331824166585,1.924022599984423e-07
0.0275,0.0001670489655000001,-0.7856913509999999,4.011736650000001e-05,-2.355278955,9.2969831e-05,1.57099228,0.786,0.04,0.04,-9.833164199999997,0.0006598422129172703,0.008091251699997668,-3.8055599800070297e-06,-0.0028866130160182146,2.1138547998286627e-08
0.03,0.0001670573760000001,-0.7856754719999999,4.011805800000001e-05,-2.35529226,9.2969822e-05,1.57099186,0.786,0.04,0.04,-9.832895399999998,0.0006653706543147403,0.007858145399997456,-4.508228260007668e-06,-0.0030359928496197703,-1.5012516400186905e-07
0.0325,0.0001670657865000001,-0.7856595929999999,4.0118749500000005e-05,-2.355305565,9.2969813e-05,1.57099144,0.786,0.04,0.04,-9.832626599999998,0.0006708990957122104,0.007625039099997244,-5.210896540008308e-06,-0.0031853726832213264,-3.213888760020248e-07
0.035,0.00016708660200000035,-0.7856445729999998,4.0118998e-05,-2.3553181,9.296200039999985e-05,1.57099101,0.786,0.04,0.04,-9.832364499999997,0.0006790322950110202,0.007407516099997329,-6.6616437700232376e-06,-0.0033278974238800316,-7.554848020072014e-07
0.0375,0.00016711362000000038,-0.7856299824999998,4.0119025e-05,-2.35533025,9.295028599999984e-05,1.570990575,0.786,0.04,0.04,-9.832105749999997,0.0006884678732604287,0.0071977847499971395,-8.486430475024894e-06,-0.0034669946180674975,-1.3209968350077146e-06
0.04,0.0001671406380000004,-0.7856153919999997,4.0119051999999995e-05,-2.3553424,9.293857159999983e-05,1.57099014,0.786,0.04,0.04,-9.831846999999996,0.0006979034515098373,0.006988053399996948,-1.0311217180026555e-05,-0.0036060918122549643,-1.8865088680082294e-06
0.0425,0.00016716765600000044,-0.7856008014999998,4.0119078999999996e-05,-2.35535455,9.292685719999982e-05,1.5709897050000001,0.786,0.04,0.04,-9.831588249999996,0.0007073390297592458,0.006778322049996757,-1.2136003885028218e-05,-0.0037451890064424307,-2.4520209010087442e-06
0.045,0.00016719467400000044,-0.7855862109999998,4.0119105999999997e-05,-2.3553667000000003,9.29151427999998e-05,1.57098927,0.786,0.04,0.04,-9.831329499999995,0.0007167746080086544,0.006568590699996567,-1.3960790590029874e-05,-0.003884286200629897,-3.017532934009258e-06
0.0475,0.00016722169200000046,-0.7855716204999997,4.0119133e-05,-2.35537885,9.290342839999979e-05,1.570988835,0.786,0.04,0.04,-9.831070749999995,0.000726210186258063,0.006358859349996376,-1.5785577295031534e-05,-0.004023383394817363,-3.5830449670097726e-06
0.05,0.00016724871000000114,-0.7855570299999998,4.011915999999998e-05,-2.355391,9.289171399999939e-05,1.5709884,0.786,0.04,0.04,-9.830811999999996,0.0007356457645075468,0.0061491279999964545,-1.761036400006411e-05,-0.004162480589004671,-4.148557000020511e-06
0.0525,0.0001673110755000012,-0.7855436454999998,4.011805074999998e-05,-2.3554021300000003,9.285824314999936e-05,1.57098798,0.786,0.04,0.04,-9.830579349999995,0.0007492196105888342,0.005954222949996278,-2.1134455900067306e-05,-0.004292827984320564,-5.276082775021534e-06
0.055,0.00016737344100000126,-0.7855302609999998,4.011694149999998e-05,-2.35541326,9.282477229999932e-05,1.57098756,0.786,0.04,0.04,-9.830346699999996,0.0007627934566701215,0.0057593178999961,-2.4658547800070513e-05,-0.004423175379636458,-6.4036085500225614e-06
0.0575,0.00016743580650000132,-0.7855168764999997,4.011583224999998e-05,-2.35542439,9.27913014499993e-05,1.57098714,0.786,0.04,0.04,-9.830114049999995,0.0007763673027514089,0.005564412849995923,-2.8182639700073724e-05,-0.004553522774952351,-7.531134325023587e-06
0.06,0.00016749817200000135,-0.7855034919999997,4.011472299999997e-05,-2.3554355200000003,9.275783059999927e-05,1.57098672,0.786,0.04,0.04,-9.829881399999996,0.0007899411488326962,0.005369507799995746,-3.170673160007692e-05,-0.004683870170268245,-8.658660100024611e-06
0.0625,0.0001675605375000014,-0.7854901074999997,4.0113613749999974e-05,-2.35544665,9.272435974999923e-05,1.5709863,0.786,0.04,0.04,-9.829648749999995,0.0008035149949139836,0.005174602749995569,-3.5230823500080125e-05,-0.0048142175655841385,-9.786185875025638e-06
0.065,0.00016762290300000146,-0.7854767229999997,4.0112504499999974e-05,-2.35545778,9.26908888999992e-05,1.57098588,0.786,0.04,0.04,-9.829416099999996,0.0008170888409952709,0.0049796976999953915,-3.875491540008333e-05,-0.0049445649609000325,-1.0913711650026664e-05
0.0675,0.0001677041730000029,-0.7854637199999998,4.011081184999993e-05,-2.35546855,9.264594174999833e-05,1.57098562,0.786,0.04,0.04,-9.829193449999996,0.0008317946339961267,0.004789568514995565,-4.29869450001387e-05,-0.005072501767429739,-1.22789234250452e-05
0.07,0.00016782325200000303,-0.7854514799999998,4.010795239999993e-05,-2.3554786,9.257804199999827e-05,1.57098568,0.786,0.04,0.04,-9.828990799999994,0.0008487643208358722,0.004608991059995401,-4.863485000014385e-05,-0.005195617396387596,-1.4119507200046876e-05
0.0725,0.00016794233100000312,-0.7854392399999998,4.010509294999993e-05,-2.3554886500000003,9.25101422499982e-05,1.57098574,0.786,0.04,0.04,-9.828788149999994,0.0008657340076756176,0.004428413604995238,-5.4282755000148954e-05,-0.005318733025345452,-1.5960090975048542e-05
0.075,0.00016806141000000324,-0.7854269999999997,4.0102233499999924e-05,-2.3554987,9.244224249999814e-05,1.5709858,0.786,0.04,0.04,-9.828585499999994,0.000882703694515363,0.004247836149995073,-5.99306600001541e-05,-0.0054418486543033094,-1.780067475005022e-05
0.0775,0.00016818048900000334,-0.7854147599999997,4.009937404999992e-05,-2.3555087500000003,9.237434274999808e-05,1.57098586,0.786,0.04,0.04,-9.828382849999993,0.0008996733813551084,0.004067258694994909,-6.557856500015924e-05,-0.005564964283261167,-1.9641258525051895e-05
0.08,0.00016829956800000346,-0.7854025199999997,4.009651459999992e-05,-2.3555188,9.230644299999803e-05,1.57098592,0.786,0.04,0.04,-9.828180199999993,0.0009166430681948539,0.0038866812399947445,-7.122647000016438e-05,-0.005688079912219024,-2.148184230005357e-05
0.0825,0.00016841864700000355,-0.7853902799999997,4.0093655149999915e-05,-2.3555288500000002,9.223854324999797e-05,1.57098598,0.786,0.04,0.04,-9.827977549999993,0.0009336127550345994,0.0037061037849945803,-7.687437500016953e-05,-0.005811195541176881,-2.3322426075055244e-05
0.085,0.00016859252300000622,-0.7853787699999997,4.008915709999984e-05,-2.35553868,9.213769299999638e-05,1.57098606,0.78599984,0.04,0.04,-9.827767499999993,0.0009525185800163346,0.003527689029994516,-8.42582140002552e-05,-0.005928508285436559,-2.573106740008327e-05
0.08750000000000001,0.0001687937975000064,-0.7853676249999997,4.008383974999983e-05,-2.3555484,9.202036749999627e-05,1.57098615,0.7859996,0.04,0.04,-9.827553749999993,0.0009723924740689326,0.0033503556249943546,-9.25100200002627e-05,-0.006042919587347543,-2.8423737500085723e-05
0.09,0.0001689950720000066,-0.7853564799999997,4.007852239999983e-05,-2.3555581200000004,9.190304199999616e-05,1.5709862399999999,0.78599936,0.04,0.04,-9.827339999999992,0.0009922663681215305,0.003173022219994194,-0.00010076182600027017,-0.006157330889258526,-3.111640760008816e-05
0.0925,0.00016919634650000676,-0.7853453349999996,4.007320504999982e-05,-2.3555678400000004,9.178571649999606e-05,1.57098633,0.78599912,0.04,0.04,-9.827126249999992,0.0010121402621741287,0.0029956888149940326,-0.00010901363200027768,-0.00627174219116951,-3.380907770009061e-05
0.095,0.00016939762100000696,-0.7853341899999996,4.006788769999981e-05,-2.3555775600000004,9.166839099999595e-05,1.5709864199999999,0.78599888,0.04,0.04,-9.826912499999992,0.0010320141562267268,0.002818355409993871,-0.00011726543800028518,-0.006386153493080494,-3.650174780009306e-05
0.0975,0.00016959889550000715,-0.7853230449999996,4.006257034999981e-05,-2.3555872800000004,9.155106549999584e-05,1.57098651,0.78599864,0.04,0.04,-9.826698749999991,0.001051888050279325,0.00264102200499371,-0.0001255172440002927,-0.006500564794991478,-3.9194417900095514e-05
0.1,0.0001698001700000114,-0.7853118999999996,4.0057252999999687e-05,-2.3555970000000004,9.143373999999329e-05,1.5709866,0.7859984,0.04,0.04,-9.826484999999996,0.0010717619443320378,0.0024636885999944954,-0.00013376905000036965,-0.006614976096902389,-4.188708800013327e-05
0.10250000000000001,0.00017011283450001167,-0.7853018109999996,4.004865454999968e-05,-2.35560573,9.124936449999313e-05,1.5709867499999999,0.7859981149999999,0.04,0.04,-9.826398449999997,0.0010947902279448587,0.0023123821149943573,-0.0001439295835003789,-0.006727369595323202,-4.5550038050136605e-05
0.105,0.00017042549900001195,-0.7852917219999996,4.004005609999967e-05,-2.3556144600000004,9.106498899999297e-05,1.5709868999999999,0.78599783,0.04,0.04,-9.826311899999997,0.0011178185115576795,0.0021610756299942206,-0.0001540901170003881,-0.006839763093744013,-4.921298810013992e-05
0.1075,0.00017073816350001223,-0.7852816329999996,4.003145764999966e-05,-2.35562319,9.088061349999279e-05,1.57098705,0.785997545,0.04,0.04,-9.826225349999996,0.0011408467951705005,0.002009769144994083,-0.00016425065050039734,-0.006952156592164825,-5.2875938150143255e-05
0.11,0.00017105082800001253,-0.7852715439999997,4.002285919999965e-05,-2.3556319200000004,9.069623799999263e-05,1.5709872,0.7859972599999999,0.04,0.04,-9.826138799999997,0.0011638750787833214,0.001858462659993945,-0.0001744111840004066,-0.007064550090585638,-5.653888820014659e-05
0.1125,0.0001713634925000128,-0.7852614549999997,4.001426074999965e-05,-2.3556406500000007,9.051186249999246e-05,1.57098735,0.785996975,0.04,0.04,-9.826052249999996,0.0011869033623961426,0.0017071561749938072,-0.00018457171750041587,-0.00717694358900645,-6.020183825014992e-05
0.115,0.0001716761570000131,-0.7852513659999996,4.000566229999964e-05,-2.3556493800000005,9.032748699999229e-05,1.5709875,0.7859966899999999,0.04,0.04,-9.825965699999996,0.0012099316460089636,0.0015558496899936696,-0.00019473225100042512,-0.007289337087427262,-6.386478830015326e-05
0.11750000000000001,0.00017203677850001953,-0.7852416029999997,3.999568029999945e-05,-2.3556578400000006,9.011439899998844e-05,1.570987645,0.785996405,0.04,0.04,-9.825851899999993,0.0012333360617058878,0.0014077653499939451,-0.00020598816800057484,-0.007400248269555065,-6.788818975020281e-05
0.12,0.00017249331400001993,-0.7852324919999997,3.998293119999944e-05,-2.3556657600000004,8.984388599998819e-05,1.57098778,0.78599612,0.04,0.04,-9.825683599999993,0.0012574927415708746,0.0012661252999938168,-0.000219434852000587,-0.0075081948190974124,-7.26324940002071e-05
0.1225,0.00017294984950002036,-0.7852233809999997,3.997018209999943e-05,-2.35567368,8.957337299998796e-05,1.570987915,0.7859958349999999,0.04,0.04,-9.825515299999992,0.0012816494214358616,0.0011244852499936878,-0.00023288153600059926,-0.00761614136863976,-7.737679825021143e-05
0.125,0.00017340638500002077,-0.7852142699999997,3.995743299999942e-05,-2.3556816000000005,8.930285999998771e-05,1.57098805,0.78599555,0.04,0.04,-9.825346999999992,0.0013058061013008486,0.000982845199993559,-0.0002463282200006115,-0.007724087918182109,-8.212110250021575e-05
0.1275,0.00017386292050002117,-0.7852051589999997,3.9944683899999406e-05,-2.3556895200000003,8.903234699998746e-05,1.570988185,0.7859952649999999,0.04,0.04,-9.825178699999991,0.0013299627811658354,0.00084120514999343,-0.00025977490400062376,-0.007832034467724456,-8.686540675022006e-05
0.13,0.0001743194560000216,-0.7851960479999996,3.993193479999939e-05,-2.35569744,8.876183399998721e-05,1.5709883199999999,0.78599498,0.04,0.04,-9.825010399999991,0.0013541194610308224,0.000699565099993301,-0.00027322158800063595,-0.007939981017266805,-9.160971100022438e-05
0.1325,0.000174775991500022,-0.7851869369999996,3.9919185699999386e-05,-2.3557053600000004,8.849132099998697e-05,1.570988455,0.785994695,0.04,0.04,-9.82484209999999,0.0013782761408958095,0.0005579250499931722,-0.0002866682720006482,-0.008047927566809153,-9.63540152502287e-05
0.135,0.00017535205100003122,-0.7851785059999996,3.990300809999912e-05,-2.3557130200000005,8.815025639998152e-05,1.57098897,0.785994337,0.04,0.0399999995,-9.824698499999993,0.0014043297618639861,0.0004237945759935964,-0.0003026364100008462,-0.008154308982198617,-0.00010180700800028523
0.1375,0.0001759878725000318,-0.7851704149999996,3.9885116249999104e-05,-2.3557205500000005,8.777391599998118e-05,1.5709896749999999,0.7859939425,0.04,0.03999999875,-9.824567249999994,0.0014313318533835508,0.0002934188899934777,-0.00031986527500086194,-0.008259907830511807,-0.00010761434500029052
0.14,0.0001766236940000324,-0.7851623239999996,3.986722439999909e-05,-2.3557280800000004,8.739757559998084e-05,1.57099038,0.785993548,0.04,0.039999998,-9.824435999999993,0.0014583339449031154,0.00016304320399335902,-0.0003370941400008776,-0.008365506678824998,-0.00011342168200029581
0.14250000000000002,0.00017725951550003296,-0.7851542329999996,3.984933254999907e-05,-2.3557356100000004,8.702123519998048e-05,1.570991085,0.7859931535,0.04,0.03999999725,-9.824304749999994,0.0014853360364226798,3.266751799324037e-05,-0.0003543230050008933,-0.00847110552713819,-0.0001192290190003011
0.145,0.00017789533700003355,-0.7851461419999995,3.9831440699999055e-05,-2.3557431400000004,8.664489479998014e-05,1.5709917899999999,0.785992759,0.04,0.0399999965,-9.824173499999993,0.0015123381279422443,-9.770816800687692e-05,-0.0003715518700009088,-0.00857670437545138,-0.0001250363560003063
0.1475,0.00017853115850003412,-0.7851380509999996,3.981354884999904e-05,-2.3557506700000004,8.62685543999798e-05,1.570992495,0.7859923645,0.04,0.03999999575,-9.824042249999993,0.0015393402194618087,-0.00022808385400699556,-0.00038878073500092446,-0.00868230322376457,-0.0001308436930003116
0.15,0.00017916698000004658,-0.7851299599999996,3.9795656999998684e-05,-2.3557582000000004,8.58922139999723e-05,1.5709932,0.78599197,0.04,0.039999995,-9.823910999999997,0.0015663423109812807,-0.00035845954000689835,-0.00040600960000113876,-0.008787902072077636,-0.00013665103000039865
0.1525,0.00018002015900004734,-0.7851228169999996,3.9771617999998665e-05,-2.355765025,8.538447914997182e-05,1.57099392,0.785991397,0.04,0.03999999575,-9.823831499999995,0.0015916474163545637,-0.0004848779140070134,-0.0004268784550011578,-0.0088911933824477,-0.00014395701100040532
0.155,0.00018087333800004813,-0.7851156739999996,3.9747578999998646e-05,-2.3557718500000004,8.487674429997137e-05,1.5709946399999999,0.785990824,0.04,0.0399999965,-9.823751999999995,0.0016169525217278467,-0.0006112962880071286,-0.00044774731000117677,-0.008994484692817764,-0.00015126299200041198
0.1575,0.0001817265170000489,-0.7851085309999996,3.972353999999862e-05,-2.3557786750000003,8.436900944997091e-05,1.57099536,0.785990251,0.04,0.03999999725,-9.823672499999995,0.00164225762710113,-0.0007377146620072437,-0.00046861616500119574,-0.009097776003187829,-0.00015856897300041862
0.16,0.00018257969600004968,-0.7851013879999996,3.96995009999986e-05,-2.3557855000000005,8.386127459997045e-05,1.57099608,0.785989678,0.04,0.039999998,-9.823592999999995,0.001667562732474413,-0.0008641330360073588,-0.0004894850200012148,-0.009201067313557892,-0.00016587495400042528
0.1625,0.00018343287500005044,-0.7850942449999996,3.967546199999858e-05,-2.3557923250000004,8.335353974996998e-05,1.5709967999999999,0.785989105,0.04,0.03999999875,-9.823513499999995,0.001692867837847696,-0.0009905514100074738,-0.0005103538750012338,-0.009304358623927957,-0.00017318093500043194
0.165,0.00018428605400005123,-0.7850871019999995,3.965142299999856e-05,-2.3557991500000006,8.284580489996952e-05,1.57099752,0.785988532,0.04,0.0399999995,-9.823433999999995,0.001718172943220979,-0.001116969784007589,-0.0005312227300012527,-0.00940764993429802,-0.00018048691600043858
0.1675,0.0001852251090000677,-0.7850802829999997,3.9624954349998095e-05,-2.3558058450000003,8.228729124995978e-05,1.57099842,0.7859878674999999,0.04,0.03999999975,-9.823350149999994,0.0017448630242159952,-0.0012357726200063117,-0.0005533343580014989,-0.00951092033647628,-0.0001881608055005125
0.17,0.00018633591600006872,-0.7850741119999997,3.9593626399998066e-05,-2.3558122800000003,8.162721999995918e-05,1.57099968,0.78598702,0.04,0.039999999,-9.823257599999994,0.001774323056453722,-0.001339344380006406,-0.0005779315320015213,-0.009614148922270945,-0.00019657051200052016
0.17250000000000001,0.00018744672300006972,-0.7850679409999997,3.956229844999804e-05,-2.3558187150000003,8.096714874995857e-05,1.57100094,0.7859861724999999,0.04,0.03999999825,-9.823165049999993,0.001803783088691449,-0.0014429161400065004,-0.0006025287060015438,-0.009717377508065608,-0.0002049802185005278
0.17500000000000002,0.00018855753000007072,-0.7850617699999995,3.953097049999801e-05,-2.3558251500000003,8.030707749995798e-05,1.5710022,0.785985325,0.04,0.0399999975,-9.823072499999993,0.0018332431209291758,-0.0015464879000065945,-0.000627125880001566,-0.009820606093860273,-0.00021338992500053545
0.1775,0.00018966833700007172,-0.7850555989999995,3.949964254999798e-05,-2.3558315850000002,7.964700624995738e-05,1.57100346,0.7859844775,0.04,0.03999999675,-9.822979949999993,0.0018627031531669022,-0.0016500596600066877,-0.0006517230540015882,-0.009923834679654936,-0.00022179963150054303
0.18,0.00019077914400007274,-0.7850494279999995,3.946831459999795e-05,-2.3558380200000006,7.898693499995678e-05,1.57100472,0.7859836299999999,0.04,0.039999996,-9.822887399999994,0.001892163185404629,-0.0017536314200067818,-0.0006763202280016106,-0.010027063265449599,-0.00023020933800055066
0.1825,0.00019188995100007374,-0.7850432569999996,3.943698664999792e-05,-2.3558444550000006,7.832686374995618e-05,1.57100598,0.7859827825,0.04,0.03999999525,-9.822794849999994,0.0019216232176423559,-0.0018572031800068761,-0.0007009174020016331,-0.010130291851244264,-0.00023861904450055832
0.185,0.00019320074400009494,-0.7850377259999997,3.940004539999732e-05,-2.3558507400000006,7.754740099994353e-05,1.57100758,0.7859819269999999,0.04,0.039999995,-9.822714499999995,0.0019497217261250453,-0.001958672290006758,-0.0007278563170018918,-0.010232716985053717,-0.00024804787900066885
0.1875,0.00019461153000009622,-0.7850325149999996,3.936029749999729e-05,-2.3558569500000006,7.670824249994276e-05,1.57100935,0.7859810675,0.04,0.039999995,-9.822640249999994,0.00197713947273042,-0.0020590900750068497,-0.0007559661025019174,-0.010334740392870684,-0.0002579862775006779
0.19,0.00019602231600009752,-0.7850273039999996,3.932054959999725e-05,-2.3558631600000006,7.5869083999942e-05,1.57101112,0.7859802079999999,0.04,0.039999995,-9.822565999999995,0.0020045572193357953,-0.0021595078600069413,-0.000784075888001943,-0.010436763800687652,-0.00026792467600068696
0.1925,0.0001974331020000988,-0.7850220929999996,3.928080169999722e-05,-2.3558693700000006,7.502992549994124e-05,1.57101289,0.7859793485,0.04,0.039999995,-9.822491749999994,0.00203197496594117,-0.0022599256450070325,-0.0008121856735019686,-0.01053878720850462,-0.000277863074500696
0.195,0.00019884388800010008,-0.7850168819999996,3.924105379999718e-05,-2.3558755800000006,7.419076699994047e-05,1.5710146600000001,0.7859784889999999,0.04,0.039999995,-9.822417499999995,0.0020593927125465454,-0.0023603434300071236,-0.0008402954590019942,-0.010640810616321588,-0.0002878014730007051
0.1975,0.00020025467400010136,-0.7850116709999996,3.9201305899997146e-05,-2.3558817900000006,7.335160849993971e-05,1.57101643,0.7859776294999999,0.04,0.039999995,-9.822343249999994,0.00208681045915192,-0.0024607612150072153,-0.0008684052445020198,-0.010742834024138555,-0.0002977398715007141
0.2,0.00020166546000012768,-0.7850064599999996,3.916155799999641e-05,-2.3558880000000006,7.251244999992401e-05,1.5710182000000001,0.7859767699999999,0.04,0.039999995,-9.822268999999999,0.0021142282057572894,-0.002561179000006209,-0.0008965150300024158,-0.010844857431955601,-0.00030767827000082945
0.2025,0.00020342030100012928,-0.7850022134999997,3.911217079999636e-05,-2.3558934150000006,7.146805999992305e-05,1.5710200600000002,0.7859756254999999,0.04,0.039999995,-9.822238099999998,0.0021415683673714292,-0.0026465072500062863,-0.000929715950502446,-0.010947950929410826,-0.00031907800750083983
0.20500000000000002,0.00020517514200013088,-0.7849979669999997,3.906278359999632e-05,-2.3558988300000006,7.04236699999221e-05,1.5710219200000002,0.7859744809999999,0.04,0.039999995,-9.822207199999998,0.002168908528985569,-0.002731835500006364,-0.0009629168710024762,-0.011051044426866049,-0.0003304777450008502
0.20750000000000002,0.00020692998300013248,-0.7849937204999997,3.901339639999627e-05,-2.3559042450000005,6.937927999992116e-05,1.5710237800000002,0.7859733364999999,0.04,0.039999995,-9.822176299999997,0.002196248690599709,-0.0028171637500064416,-0.0009961177915025065,-0.011154137924321274,-0.0003418774825008606
0.21,0.00020868482400013407,-0.7849894739999996,3.896400919999623e-05,-2.3559096600000005,6.833488999992021e-05,1.5710256400000002,0.7859721919999999,0.04,0.039999995,-9.822145399999998,0.002223588852213849,-0.0029024920000065187,-0.0010293187120025363,-0.011257231421776495,-0.00035327722000087086
0.2125,0.00021043966500013567,-0.7849852274999997,3.891462199999618e-05,-2.3559150750000004,6.729049999991926e-05,1.5710275000000002,0.7859710474999999,0.04,0.039999995,-9.822114499999998,0.0022509290138279887,-0.002987820250006596,-0.0010625196325025664,-0.01136032491923172,-0.00036467695750088124
0.215,0.00021219450600013727,-0.7849809809999997,3.886523479999614e-05,-2.355920490000001,6.624610999991832e-05,1.5710293600000003,0.7859699029999999,0.04,0.039999995,-9.822083599999997,0.0022782691754421286,-0.0030731485000066736,-0.0010957205530025967,-0.011463418416686943,-0.0003760766950008916
0.2175,0.0002140792350001697,-0.7849770594999997,3.881222599999523e-05,-2.3559258650000006,6.512378474989886e-05,1.5710314100000002,0.7859686629999998,0.04,0.03999999525,-9.822033849999993,0.0023052659467813967,-0.003150294160004809,-0.0011302768200029487,-0.011566825909548266,-0.0003880189590010308
0.22,0.00021622374000017166,-0.7849737879999997,3.8751973999995175e-05,-2.355931160000001,6.384558899989769e-05,1.5710338400000001,0.7859672319999998,0.04,0.039999996,-9.821946399999993,0.002331575937571166,-0.0032110746400048646,-0.0011675437800029826,-0.011670861393221566,-0.00040104627600104267
0.2225,0.00021836824500017358,-0.7849705164999998,3.869172199999512e-05,-2.3559364550000006,6.256739324989654e-05,1.5710362700000002,0.7859658009999998,0.04,0.03999999675,-9.821858949999992,0.0023578859283609347,-0.00327185512000492,-0.0012048107400030165,-0.011774896876894866,-0.0004140735930010545
0.225,0.00022051275000017554,-0.7849672449999998,3.863146999999507e-05,-2.3559417500000004,6.128919749989537e-05,1.5710387000000001,0.7859643699999999,0.04,0.0399999975,-9.821771499999992,0.002384195919150704,-0.0033326356000049754,-0.0012420777000030506,-0.011878932360568166,-0.0004271009100010664
0.2275,0.0002226572550001775,-0.7849639734999998,3.857121799999501e-05,-2.3559470450000006,6.001100174989421e-05,1.5710411300000002,0.7859629389999998,0.04,0.03999999825,-9.821684049999993,0.0024105059099404726,-0.0033934160800050306,-0.0012793446600030845,-0.011982967844241466,-0.0004401282270010782
0.23,0.00022480176000017944,-0.7849607019999998,3.8510965999994956e-05,-2.3559523400000004,5.873280599989304e-05,1.5710435600000001,0.7859615079999999,0.04,0.039999999,-9.821596599999992,0.0024368159007302414,-0.0034541965600050862,-0.0013166116200031184,-0.012087003327914765,-0.0004531555440010901
0.2325,0.0002269462650001814,-0.7849574304999998,3.8450713999994904e-05,-2.3559576350000007,5.745461024989188e-05,1.5710459900000002,0.7859600769999998,0.04,0.03999999975,-9.821509149999992,0.0024631258915200106,-0.0035149770400051414,-0.0013538785800031525,-0.012191038811588065,-0.00046618286100110195
0.23500000000000001,0.00022938178000022065,-0.7849548059999998,3.838235699999381e-05,-2.3559628300000006,5.600386599986859e-05,1.5710488100000002,0.7859584559999998,0.04,0.0399999995,-9.821467899999998,0.0024901139084272466,-0.0035740629200049796,-0.0013940138100035542,-0.01229644427076881,-0.00048009066000122676
0.23750000000000002,0.00023196280000022302,-0.7849525049999998,3.830994749999374e-05,-2.3559679750000004,5.446684749986719e-05,1.5710518250000003,0.7859567399999998,0.04,0.03999999875,-9.821449749999998,0.0025174409383930865,-0.0036323015000050323,-0.001435583175003592,-0.012402534717703017,-0.0004944387000012397
0.24,0.00023454382000022533,-0.7849502039999998,3.8237537999993676e-05,-2.3559731200000007,5.2929828999865805e-05,1.5710548400000002,0.7859550239999998,0.04,0.039999998,-9.821431599999999,0.002544767968358926,-0.0036905400800050846,-0.0014771525400036293,-0.012508625164637223,-0.0005087867400012527
0.2425,0.00023712484000022768,-0.7849479029999998,3.8165128499993616e-05,-2.3559782650000005,5.1392810499864406e-05,1.5710578550000003,0.7859533079999999,0.04,0.03999999725,-9.821413449999998,0.0025720949983247658,-0.0037487786600051377,-0.0015187219050036673,-0.01261471561157143,-0.0005231347800012657
0.245,0.00023970586000023004,-0.7849456019999999,3.809271899999355e-05,-2.3559834100000003,4.985579199986301e-05,1.5710608700000002,0.7859515919999999,0.04,0.0399999965,-9.821395299999997,0.0025994220282906056,-0.0038070172400051904,-0.001560291270003705,-0.012720806058505636,-0.0005374828200012788
0.2475,0.00024228688000023238,-0.7849433009999998,3.802030949999348e-05,-2.3559885550000006,4.831877349986161e-05,1.5710638850000003,0.7859498759999999,0.04,0.03999999575,-9.821377149999998,0.0026267490582564455,-0.0038652558200052436,-0.0016018606350037428,-0.012826896505439842,-0.0005518308600012919
0.25,0.0002448679000002788,-0.7849409999999999,3.79478999999922e-05,-2.3559937000000004,4.678175499983375e-05,1.5710669000000002,0.7859481599999998,0.04,0.039999995,-9.821359,0.0026540760882216193,-0.003923494400003671,-0.0016434300000042,-0.012932986952374314,-0.0005661789000014823
0.2525,0.0002479334770002816,-0.7849397399999999,3.7862054099992116e-05,-2.3559984250000006,4.495385454983209e-05,1.5710704700000002,0.7859461559999998,0.04,0.03999999575,-9.821349549999999,0.0026740781730058573,-0.0039638671400037085,-0.001689610230004242,-0.013042001146833139,-0.0005824770960014971
0.255,0.0002509990540002844,-0.7849384799999999,3.7776208199992036e-05,-2.3560031500000003,4.312595409983042e-05,1.5710740400000003,0.7859441519999998,0.04,0.0399999965,-9.821340099999999,0.0026940802577900954,-0.004004239880003745,-0.001735790460004284,-0.013151015341291964,-0.0005987752920015119
0.2575,0.00025406463100028715,-0.7849372199999999,3.769036229999196e-05,-2.3560078750000004,4.129805364982876e-05,1.5710776100000003,0.7859421479999998,0.04,0.03999999725,-9.821330649999998,0.002714082342574334,-0.004044612620003782,-0.0017819706900043262,-0.013260029535750787,-0.0006150734880015268
0.26,0.00025713020800028995,-0.7849359599999999,3.760451639999188e-05,-2.3560126000000006,3.94701531998271e-05,1.5710811800000004,0.7859401439999998,0.04,0.039999998,-9.821321199999998,0.002734084427358572,-0.004084985360003819,-0.0018281509200043682,-0.013369043730209612,-0.0006313716840015416
0.2625,0.00026019578500029275,-0.7849346999999999,3.75186704999918e-05,-2.3560173250000003,3.764225274982543e-05,1.5710847500000005,0.7859381399999998,0.04,0.03999999875,-9.82131175,0.00275408651214281,-0.004125358100003856,-0.0018743311500044103,-0.013478057924668437,-0.0006476698800015565
0.265,0.00026326136200029556,-0.7849334399999999,3.743282459999172e-05,-2.3560220500000004,3.581435229982377e-05,1.5710883200000003,0.7859361359999999,0.04,0.0399999995,-9.8213023,0.0027740885969270487,-0.004165730840003893,-0.0019205113800044523,-0.01358707211912726,-0.0006639680760015714
0.2675,0.0002665047250003502,-0.784932517,3.734204889999021e-05,-2.3560266650000004,3.3880571699791194e-05,1.5710921350000004,0.7859340014999998,0.04,0.04,-9.821284399999996,0.002796059998220477,-0.0042017714300026645,-0.0019682867100049603,-0.013696727389480507,-0.00068072458300172
0.27,0.0002701036600003535,-0.7849322679999999,3.724141359999011e-05,-2.3560310600000003,3.173503079978924e-05,1.5710964400000005,0.7859316059999998,0.04,0.04,-9.821249599999996,0.002821970032530565,-0.004229147720002689,-0.0020192522400050063,-0.013807664811622038,-0.0006983977120017361
0.2725,0.0002737025950003568,-0.784932019,3.714077829999002e-05,-2.3560354550000002,2.9589489899787286e-05,1.5711007450000005,0.7859292104999998,0.04,0.04,-9.821214799999996,0.002847880066840654,-0.004256524010002714,-0.002070217770005053,-0.01391860223376357,-0.0007160708410017521
0.275,0.00027730153000036004,-0.7849317699999999,3.704014299998993e-05,-2.35603985,2.7443948999785332e-05,1.5711050500000003,0.7859268149999997,0.04,0.04,-9.821179999999996,0.0028737901011507425,-0.004283900300002739,-0.0021211833000050993,-0.0140295396559051,-0.0007337439700017683
0.2775,0.00028090046500036335,-0.784931521,3.693950769998984e-05,-2.3560442450000005,2.5298408099783378e-05,1.5711093550000004,0.7859244194999997,0.04,0.04,-9.821145199999997,0.0028997001354608308,-0.004311276590002765,-0.002172148830005146,-0.01414047707804663,-0.0007514170990017843
0.28,0.0002844994000003666,-0.7849312719999999,3.683887239998975e-05,-2.3560486400000005,2.3152867199781424e-05,1.5711136600000004,0.7859220239999998,0.04,0.04,-9.821110399999997,0.0029256101697709195,-0.0043386528800027895,-0.002223114360005192,-0.014251414500188162,-0.0007690902280018004
0.28250000000000003,0.00028809833500036987,-0.784931023,3.673823709998965e-05,-2.3560530350000004,2.1007326299779474e-05,1.5711179650000004,0.7859196284999997,0.04,0.04,-9.821075599999997,0.002951520204081008,-0.004366029170002814,-0.0022740798900052384,-0.014362351922329692,-0.0007867633570018165
0.28500000000000003,0.0002920859580004336,-0.784931483,3.662682979998789e-05,-2.3560572900000003,1.8632062559741788e-05,1.5711228400000006,0.7859169529999996,0.04,0.0399999995,-9.821042349999997,0.0029739780817201696,-0.004384038910001382,-0.0023280709200057554,-0.014474575221550193,-0.0008053794450019792
0.28750000000000003,0.0002962679250004374,-0.7849322975,3.651003649998778e-05,-2.356061475,1.614193739973952e-05,1.5711280000000005,0.7859141374999997,0.04,0.03999999875,-9.821009874999996,0.0029947098810246685,-0.004397365375001394,-0.0023835747000058058,-0.014587441459309881,-0.0008244670125019967
0.29,0.00030044989200044117,-0.784933112,3.639324319998768e-05,-2.3560656600000005,1.3651812239737309e-05,1.5711331600000005,0.7859113219999997,0.04,0.039999998,-9.820977399999997,0.003015441680329167,-0.004410691840001406,-0.0024390784800058553,-0.014700307697069566,-0.0008435545800020136
0.2925,0.00030463185900044497,-0.7849339265,3.6276449899987575e-05,-2.3560698450000004,1.1161687079735041e-05,1.5711383200000006,0.7859085064999997,0.04,0.03999999725,-9.820944924999996,0.0030361734796336658,-0.004424018305001418,-0.0024945822600059057,-0.014813173934829255,-0.0008626421475020309
0.295,0.00030881382600044877,-0.7849347410000002,3.6159656599987465e-05,-2.3560740300000003,8.671561919732774e-06,1.5711434800000006,0.7859056909999997,0.04,0.0399999965,-9.820912449999996,0.0030569052789381646,-0.00443734477000143,-0.0025500860400059565,-0.014926040172588941,-0.0008817297150020484
0.2975,0.00031299579300045257,-0.7849355555000002,3.604286329998736e-05,-2.3560782150000006,6.1814367597305065e-06,1.5711486400000005,0.7859028754999997,0.04,0.03999999575,-9.820879974999995,0.0030776370782426635,-0.004450671235001442,-0.002605589820006007,-0.01503890641034863,-0.0009008172825020657
0.3,0.0003171777600005255,-0.7849363700000003,3.592606999998534e-05,-2.3560824000000005,3.6913115996872503e-06,1.5711538000000007,0.7859000599999997,0.04,0.039999995,-9.8208475,0.0030983688775466233,-0.004463997699999216,-0.002661093600006565,-0.015151772648108628,-0.0009199048500022794
0.3025,0.0003219929670005299,-0.7849382735000002,3.579176089998522e-05,-2.3560865400000006,8.255961596846418e-07,1.5711596650000006,0.7858968499999996,0.04,0.039999994250000004,-9.820841125,0.0031141595798561076,-0.004456813194999209,-0.00272124978000662,-0.01526749012993052,-0.0009407912475022985
0.305,0.00032680817400053424,-0.7849401770000003,3.565745179998509e-05,-2.3560906800000003,-2.0401192803179662e-06,1.5711655300000007,0.7858936399999996,0.04,0.039999993500000004,-9.82083475,0.003129950282165592,-0.0044496286899992025,-0.0027814059600066747,-0.015383207611752409,-0.0009616776450023175
0.3075,0.00033162338100053865,-0.7849420805000002,3.552314269998497e-05,-2.3560948200000005,-4.905834720320575e-06,1.5711713950000006,0.7858904299999996,0.04,0.039999992750000005,-9.820828375,0.0031457409844750763,-0.004442444184999196,-0.0028415621400067295,-0.0154989250935743,-0.0009825640425023365
0.31,0.00033643858800054305,-0.7849439840000002,3.538883359998485e-05,-2.3560989600000006,-7.771550160323184e-06,1.5711772600000007,0.7858872199999997,0.04,0.039999992,-9.820822,0.003161531686784561,-0.00443525967999919,-0.0029017183200067843,-0.01561464257539619,-0.0010034504400023554
0.3125,0.0003412537950005474,-0.7849458875000002,3.525452449998473e-05,-2.356103100000001,-1.0637265600325792e-05,1.5711831250000008,0.7858840099999996,0.04,0.03999999125,-9.820815625,0.0031773223890940454,-0.004428075174999184,-0.002961874500006839,-0.01573036005721808,-0.0010243368375023746
0.315,0.0003460690020005518,-0.7849477910000002,3.512021539998461e-05,-2.3561072400000005,-1.3502981040328401e-05,1.5711889900000007,0.7858807999999996,0.04,0.0399999905,-9.82080925,0.0031931130914035297,-0.004420890669999177,-0.003022030680006894,-0.015846077539039972,-0.0010452232350023935
0.3175,0.0003511121780006352,-0.7849500770000003,3.49796129999823e-05,-2.3561113650000007,-1.6504440000378048e-05,1.5711951450000008,0.7858774369999996,0.04,0.03999999,-9.820809650000001,0.003208268596792304,-0.0044068064499967795,-0.0030838291000075176,-0.01596323084087564,-0.0010667105000026207
0.32,0.0003566112920006402,-0.7849531280000004,3.4826423999982166e-05,-2.3561154600000007,-1.977738600038103e-05,1.5712018800000007,0.7858737679999995,0.04,0.03999999,-9.820823600000002,0.0032221537083403167,-0.004378922799996754,-0.003148912000007577,-0.016083255782737373,-0.0010893995000026415
0.3225,0.0003621104060006452,-0.7849561790000004,3.4673234999982024e-05,-2.3561195550000007,-2.305033200038401e-05,1.5712086150000009,0.7858700989999995,0.04,0.03999999,-9.820837550000002,0.003236038819888329,-0.004351039149996729,-0.003213994900007636,-0.016203280724599107,-0.0011120885000026621
0.325,0.0003676095200006502,-0.7849592300000003,3.452004599998189e-05,-2.3561236500000007,-2.632327800038699e-05,1.5712153500000008,0.7858664299999996,0.04,0.03999999,-9.820851500000002,0.0032499239314363417,-0.004323155499996703,-0.0032790778000076955,-0.01632330566646084,-0.0011347775000026827
0.3275,0.00037310863400065523,-0.7849622810000004,3.4366856999981745e-05,-2.3561277450000007,-2.959622400038997e-05,1.5712220850000007,0.7858627609999995,0.04,0.03999999,-9.820865450000001,0.0032638090429843543,-0.004295271849996678,-0.0033441607000077546,-0.016443330608322575,-0.0011574665000027035
0.33,0.0003786077480006602,-0.7849653320000004,3.42136679999816e-05,-2.3561318400000006,-3.2869170000392954e-05,1.5712288200000009,0.7858590919999995,0.04,0.03999999,-9.8208794,0.003277694154532367,-0.0042673881999966525,-0.003409243600007814,-0.01656335555018431,-0.0011801555000027241
0.3325,0.00038410686200066524,-0.7849683830000004,3.4060478999981466e-05,-2.356135935,-3.614211600039593e-05,1.5712355550000008,0.7858554229999996,0.04,0.03999999,-9.820893350000002,0.0032915792660803797,-0.004239504549996627,-0.003474326500007873,-0.016683380492046044,-0.0012028445000027447
0.335,0.0003900959000007598,-0.7849721940000005,3.389378389997886e-05,-2.3561400200000002,-3.970769120045241e-05,1.571242880000001,0.7858514299999995,0.04,0.0399999905,-9.820907000000002,0.0033025404205556676,-0.0041987873699942556,-0.0035426207600085195,-0.01680605337025241,-0.0012267350800029852
0.3375,0.0003963299000007655,-0.7849763850000006,3.37203357499787e-05,-2.3561441000000003,-4.3419581000455787e-05,1.571250500000001,0.7858472749999994,0.04,0.03999999125,-9.820920500000001,0.0033120395964953914,-0.0041516534249942125,-0.0036125207000085834,-0.016930050216630375,-0.0012512264500030073
0.34,0.00040256390000077116,-0.7849805760000005,3.354688759997854e-05,-2.3561481800000004,-4.7131470800459165e-05,1.5712581200000009,0.7858431199999995,0.04,0.039999992,-9.820934000000001,0.0033215387724351148,-0.0041045194799941695,-0.003682420640008647,-0.017054047063008337,-0.0012757178200030297
0.3425,0.00040879790000077684,-0.7849847670000005,3.337343944997839e-05,-2.3561522600000004,-5.084336060046254e-05,1.571265740000001,0.7858389649999995,0.04,0.039999992750000005,-9.8209475,0.0033310379483748385,-0.004057385534994126,-0.0037523205800087107,-0.0171780439093863,-0.001300209190003052
0.34500000000000003,0.0004150319000007825,-0.7849889580000006,3.3199991299978225e-05,-2.3561563400000005,-5.455525040046593e-05,1.5712733600000008,0.7858348099999994,0.04,0.039999993500000004,-9.820961000000002,0.0033405371243145623,-0.004010251589994084,-0.003822220520008774,-0.017302040755764265,-0.0013247005600030741
0.34750000000000003,0.0004212659000007882,-0.7849931490000005,3.302654314997807e-05,-2.3561604200000006,-5.8267140200469306e-05,1.571280980000001,0.7858306549999995,0.04,0.039999994250000004,-9.820974500000002,0.003350036300254286,-0.003963117644994041,-0.003892120460008838,-0.017426037602142227,-0.0013491919300030965
0.35000000000000003,0.00042749990000089393,-0.7849973400000007,3.285309499997516e-05,-2.3561645000000007,-6.197903000053242e-05,1.571288600000001,0.7858264999999994,0.04,0.039999995,-9.820988000000003,0.003359535476193583,-0.003915983699992178,-0.003962020400009516,-0.017550034448520786,-0.0013736833000033341
0.3525,0.00043451995400090016,-0.7850027340000006,3.265799254997498e-05,-2.3561685350000006,-6.616002650053613e-05,1.571297180000001,0.7858218049999994,0.04,0.03999999575,-9.821012900000003,0.0033656858722686785,-0.0038545588499921237,-0.004036748990009583,-0.01767871761696195,-0.0013998651550033573
0.355,0.00044154000800090656,-0.7850081280000007,3.24628900999748e-05,-2.356172570000001,-7.034102300053995e-05,1.571305760000001,0.7858171099999994,0.04,0.0399999965,-9.821037800000003,0.0033718362683437743,-0.0037931339999920676,-0.004111477580009651,-0.01780740078540312,-0.001426047010003381
0.3575,0.00044856006200091295,-0.7850135220000007,3.226778764997462e-05,-2.356176605000001,-7.452201950054375e-05,1.5713143400000011,0.7858124149999994,0.04,0.03999999725,-9.821062700000002,0.0033779866644188697,-0.0037317091499920116,-0.004186206170009719,-0.017936083953844283,-0.001452228865003405
0.36,0.00045558011600091935,-0.7850189160000007,3.207268519997445e-05,-2.3561806400000007,-7.870301600054755e-05,1.5713229200000012,0.7858077199999994,0.04,0.039999998,-9.821087600000004,0.0033841370604939655,-0.003670284299991956,-0.004260934760009787,-0.01806476712228545,-0.0014784107200034287
0.3625,0.00046260017000092574,-0.7850243100000007,3.187758274997427e-05,-2.3561846750000006,-8.288401250055136e-05,1.5713315000000012,0.7858030249999994,0.04,0.03999999875,-9.821112500000003,0.003390287456569061,-0.0036088594499919,-0.004335663350009855,-0.01819345029072662,-0.0015045925750034525
0.365,0.00046962022400093214,-0.7850297040000007,3.1682480299974095e-05,-2.3561887100000005,-8.706500900055516e-05,1.5713400800000012,0.7857983299999994,0.04,0.0399999995,-9.821137400000003,0.0033964378526441566,-0.003547434599991844,-0.004410391940009923,-0.018322133459167785,-0.0015307744300034763
0.3675,0.00047691938500105043,-0.7850355000000009,3.1479691549970834e-05,-2.3561927300000005,-9.141206300062558e-05,1.5713490150000013,0.7857934479999993,0.04,0.04,-9.821159300000001,0.0034012496238576303,-0.0034785088299887795,-0.004486731525010637,-0.01845226883890014,-0.0015574823300037112
0.37,0.0004847767600010576,-0.785042100000001,3.1261530199970636e-05,-2.3561967200000007,-9.609123200062983e-05,1.5713586600000014,0.7857881919999993,0.04,0.04,-9.821175200000003,0.0034033841453494675,-0.0033945812199887033,-0.00456629310001071,-0.018585308641213126,-0.0015852423200037366
0.3725,0.0004926341350010647,-0.7850487000000009,3.104336884997044e-05,-2.356200710000001,-0.00010077040100063409,1.5713683050000014,0.7857829359999993,0.04,0.04,-9.821191100000002,0.003405518666841304,-0.0033106536099886267,-0.004645854675010782,-0.01871834844352611,-0.0016130023100037617
0.375,0.0005004915100010719,-0.7850553000000009,3.082520749997024e-05,-2.3562047000000006,-0.00010544957000063835,1.5713779500000014,0.7857776799999994,0.04,0.04,-9.821207000000003,0.0034076531883331413,-0.0032267259999885505,-0.0047254162500108545,-0.0188513882458391,-0.001640762300003787
0.3775,0.0005083488850010791,-0.7850619000000009,3.0607046149970035e-05,-2.3562086900000008,-0.00011012873900064261,1.5713875950000014,0.7857724239999994,0.04,0.04,-9.821222900000002,0.0034097877098249784,-0.003142798389988474,-0.004804977825010927,-0.018984428048152084,-0.0016685222900038124
0.38,0.0005162062600010863,-0.785068500000001,3.038888479996984e-05,-2.3562126800000005,-0.00011480790800064687,1.5713972400000014,0.7857671679999993,0.04,0.04,-9.821238800000003,0.003411922231316815,-0.0030588707799883976,-0.004884539400010999,-0.019117467850465072,-0.0016962822800038375
0.3825,0.0005240636350010934,-0.7850751000000009,3.0170723449969643e-05,-2.3562166700000007,-0.00011948707700065112,1.5714068850000014,0.7857619119999993,0.04,0.04,-9.821254700000003,0.003414056752808652,-0.002974943169988321,-0.004964100975011072,-0.019250507652778057,-0.0017240422700038629
0.385,0.000532513364001225,-0.7850825840000011,2.993625929996602e-05,-2.3562206800000007,-0.0001245186080007294,1.5714172600000016,0.7857562679999992,0.04,0.04,-9.821276200000003,0.003412588220089182,-0.002880232189985979,-0.0050468562900118155,-0.019386552087981884,-0.0017529352900041261
0.3875,0.000541259270001233,-0.7850905100000011,2.9693643749965798e-05,-2.3562247000000007,-0.00012972632000073415,1.5714280000000016,0.7857504299999992,0.04,0.04,-9.821300500000003,0.0034093181602651893,-0.002780129524985888,-0.005131208475011892,-0.019524098839630192,-0.001782394825004153
0.39,0.0005500051760012409,-0.7850984360000012,2.9451028199965576e-05,-2.3562287200000007,-0.0001349340320007389,1.5714387400000016,0.7857445919999992,0.04,0.04,-9.821324800000005,0.0034060481004411962,-0.002680026859985797,-0.005215560660011969,-0.019661645591278497,-0.0018118543600041798
0.3925,0.0005587510820012489,-0.7851063620000012,2.9208412649965354e-05,-2.3562327400000007,-0.00014014174400074365,1.5714494800000016,0.7857387539999992,0.04,0.04,-9.821349100000004,0.003402778040617203,-0.0025799241949857055,-0.005299912845012045,-0.0197991923429268,-0.0018413138950042066
0.395,0.0005674969880012569,-0.7851142880000012,2.8965797099965136e-05,-2.3562367600000007,-0.00014534945600074839,1.5714602200000016,0.7857329159999992,0.04,0.04,-9.821373400000004,0.00339950798079321,-0.0024798215299856145,-0.005384265030012122,-0.019936739094575107,-0.0018707734300042334
0.3975,0.0005762428940012648,-0.7851222140000012,2.8723181549964914e-05,-2.3562407800000003,-0.00015055716800075312,1.5714709600000016,0.7857270779999992,0.04,0.04,-9.821397700000004,0.003396237920969217,-0.0023797188649855236,-0.005468617215012198,-0.02007428584622341,-0.0019002329650042603
0.4,0.0005849888000014096,-0.7851301400000014,2.848056599996093e-05,-2.3562448000000003,-0.0001557648800008392,1.5714817000000019,0.7857212399999991,0.04,0.04,-9.821422000000004,0.00339296786114452,-0.0022796161999811214,-0.005552969400012995,-0.020211832597872362,-0.0019296925000045336
0.4025,0.0005946743750014184,-0.7851393890000014,2.8212107249960686e-05,-2.3562488350000006,-0.00016153155350084446,1.5714935950000017,0.785714794499999,0.04,0.04,-9.821441500000002,0.0033848577062587076,-0.0021498916099810033,-0.005642271180013077,-0.020353796333095298,-0.001960846315004562
0.405,0.0006043599500014272,-0.7851486380000013,2.7943648499960444e-05,-2.3562528700000005,-0.0001672982270008497,1.5715054900000018,0.7857083489999991,0.04,0.04,-9.821461000000003,0.003376747551372895,-0.0020201670199808852,-0.005731572960013158,-0.020495760068318238,-0.0019920001300045903
0.40750000000000003,0.0006140455250014359,-0.7851578870000014,2.76751897499602e-05,-2.3562569050000004,-0.00017306490050085496,1.5715173850000017,0.785701903499999,0.04,0.04,-9.821480500000003,0.0033686373964870826,-0.0018904424299807671,-0.00582087474001324,-0.020637723803541178,-0.002023153945004619
0.41000000000000003,0.0006237311000014448,-0.7851671360000014,2.7406730999959953e-05,-2.3562609400000007,-0.0001788315740008602,1.5715292800000018,0.7856954579999991,0.04,0.04,-9.821500000000004,0.00336052724160127,-0.001760717839980649,-0.005910176520013321,-0.020779687538764118,-0.0020543077600046473
0.41250000000000003,0.0006334166750014535,-0.7851763850000014,2.713827224995971e-05,-2.3562649750000006,-0.00018459824750086546,1.571541175000002,0.785689012499999,0.04,0.04,-9.821519500000003,0.003352417086715458,-0.001630993249980531,-0.005999478300013403,-0.020921651273987055,-0.0020854615750046756
0.41500000000000004,0.0006431022500014623,-0.7851856340000014,2.6869813499959466e-05,-2.3562690100000006,-0.0001903649210008707,1.5715530700000018,0.785682566999999,0.04,0.04,-9.821539000000003,0.0033443069318296456,-0.0015012686599804128,-0.006088780080013484,-0.021063615009209995,-0.002116615390004704
0.4175,0.0006531180530016215,-0.7851953300000016,2.659227444995509e-05,-2.356273050000001,-0.00019632753650096512,1.571565360000002,0.7856759014999989,0.04,0.03999999975,-9.821561950000005,0.003334609197916295,-0.001364969529977302,-0.006179700590014301,-0.021207206323765077,-0.0021482935700049706
0.42,0.0006637943120016311,-0.7852059200000017,2.6296574799954823e-05,-2.3562771000000007,-0.0002026820360009709,1.571578440000002,0.785668795999999,0.04,0.039999999,-9.821591800000006,0.003321736305950033,-0.001215521319977166,-0.006273858560014387,-0.021354052796982236,-0.0021810204800050007
0.4225,0.0006744705710016409,-0.7852165100000016,2.600087514995455e-05,-2.356281150000001,-0.0002090365355009767,1.5715915200000021,0.7856616904999989,0.04,0.03999999825,-9.821621650000004,0.0033088634139837713,-0.00106607310997703,-0.006368016530014472,-0.021500899270199395,-0.0022137473900050303
0.425,0.0006851468300016506,-0.7852271000000016,2.5705175499954283e-05,-2.3562852000000007,-0.00021539103500098247,1.5716046000000021,0.785654584999999,0.04,0.0399999975,-9.821651500000005,0.00329599052201751,-0.0009166248999768939,-0.006462174500014558,-0.021647745743416553,-0.00224647430000506
0.4275,0.0006958230890016604,-0.7852376900000017,2.5409475849954014e-05,-2.3562892500000006,-0.00022174553450098825,1.5716176800000021,0.7856474794999989,0.04,0.03999999675,-9.821681350000006,0.003283117630051248,-0.0007671766899767579,-0.006556332470014644,-0.021794592216633712,-0.00227920121000509
0.43,0.0007064993480016701,-0.7852482800000017,2.5113776199953743e-05,-2.356293300000001,-0.00022810003400099404,1.5716307600000021,0.7856403739999989,0.04,0.039999996,-9.821711200000005,0.003270244738084986,-0.0006177284799766217,-0.00665049044001473,-0.02194143868985087,-0.0023119281200051195
0.4325,0.0007171756070016797,-0.7852588700000017,2.4818076549953474e-05,-2.3562973500000006,-0.00023445453350099982,1.5716438400000021,0.7856332684999989,0.04,0.03999999525,-9.821741050000005,0.003257371846118725,-0.0004682802699764857,-0.006744648410014815,-0.02208828516306803,-0.0023446550300051496
0.435,0.0007285460900018543,-0.785270410000002,2.450330449994868e-05,-2.3563014200000008,-0.00024122198700110364,1.5716577500000024,0.7856256999999988,0.04,0.039999995,-9.821769800000006,0.0032393834087964587,-0.0003025349339724811,-0.006842033410015667,-0.022238440066600022,-0.0023785794400054635
0.4375,0.000740263685001865,-0.7852824250000019,2.4178996249948383e-05,-2.3563055000000004,-0.00024819591750110996,1.5716720750000024,0.7856178999999988,0.04,0.039999995,-9.821798000000005,0.003218837198798005,-0.00012864103497232276,-0.006941031925015757,-0.02239024918528826,-0.002413102600005495
0.44,0.0007519812800018756,-0.7852944400000019,2.3854687999948088e-05,-2.3563095800000005,-0.00025516984800111634,1.5716864000000024,0.7856100999999988,0.04,0.039999995,-9.821826200000006,0.0031982909887995513,4.525286402783557e-05,-0.007040030440015847,-0.0225420583039765,-0.002447625760005526
0.4425,0.0007636988750018863,-0.785306455000002,2.3530379749947793e-05,-2.3563136600000005,-0.00026214377850112267,1.5717007250000024,0.7856022999999988,0.04,0.039999995,-9.821854400000005,0.0031777447788010975,0.00021914676302799385,-0.007139028955015937,-0.02269386742266474,-0.002482148920005558
0.445,0.000775416470001897,-0.785318470000002,2.3206071499947498e-05,-2.3563177400000006,-0.000269117709001129,1.5717150500000023,0.7855944999999988,0.04,0.039999995,-9.821882600000006,0.003157198568802644,0.0003930406620281522,-0.007238027470016027,-0.02284567654135298,-0.002516672080005589
0.4475,0.0007871340650019077,-0.785330485000002,2.2881763249947202e-05,-2.3563218200000007,-0.0002760916395011354,1.5717293750000023,0.7855866999999987,0.04,0.039999995,-9.821910800000005,0.00313665235880419,0.0005669345610283107,-0.007337025985016118,-0.022997485660041218,-0.0025511952400056204
0.45,0.0007988516600020971,-0.7853425000000023,2.2557454999941994e-05,-2.3563259000000008,-0.00028306557000124807,1.5717437000000027,0.7855788999999985,0.04,0.039999995,-9.821939000000006,0.0031161061488048725,0.0007408284600327698,-0.00743602450001699,-0.023149294778730258,-0.0025857184000059245
0.4525,0.0008116609535021087,-0.7853559700000022,2.2203142999941672e-05,-2.3563300100000006,-0.00029068902900125496,1.5717594350000026,0.7855703649999985,0.04,0.039999995,-9.821966450000005,0.0030902846832716294,0.000940994031032952,-0.0075398040250170845,-0.02330601206051899,-0.0026219074150059577
0.455,0.0008244702470021204,-0.7853694400000023,2.184883099994135e-05,-2.3563341200000005,-0.0002983124880012619,1.5717751700000027,0.7855618299999986,0.04,0.039999995,-9.821993900000004,0.003064463217738386,0.0011411596020331342,-0.007643583550017179,-0.023462729342307722,-0.0026580964300059904
0.4575,0.000837279540502132,-0.7853829100000023,2.1494518999941027e-05,-2.3563382300000004,-0.00030593594700126887,1.5717909050000027,0.7855532949999986,0.04,0.039999995,-9.822021350000005,0.0030386417522051423,0.0013413251730333164,-0.007747363075017274,-0.023619446624096454,-0.0026942854450060236
0.46,0.0008500888340021438,-0.7853963800000022,2.1140206999940705e-05,-2.3563423400000008,-0.0003135594060012758,1.5718066400000026,0.7855447599999986,0.04,0.039999995,-9.822048800000005,0.0030128202866718987,0.0015414907440334986,-0.007851142600017368,-0.02377616390588519,-0.0027304744600060563
0.4625,0.0008628981275021554,-0.7854098500000023,2.0785894999940382e-05,-2.3563464500000006,-0.0003211828650012828,1.5718223750000027,0.7855362249999986,0.04,0.039999995,-9.822076250000006,0.002986998821138655,0.0017416563150336808,-0.007954922125017463,-0.02393288118767392,-0.0027666634750060895
0.465,0.000875707421002167,-0.7854233200000023,2.043158299994006e-05,-2.3563505600000005,-0.0003288063240012897,1.5718381100000027,0.7855276899999986,0.04,0.039999995,-9.822103700000005,0.0029611773556054116,0.0019418218860338629,-0.008058701650017557,-0.024089598469462653,-0.0028028524900061223
0.4675,0.0008888972775023729,-0.7854372970000025,2.0066823499934406e-05,-2.3563547050000007,-0.00033665616150141213,1.5718543100000029,0.7855188999999985,0.03999999975,0.039999994750000004,-9.822131150000004,0.0029333110782262944,0.002149294665037774,-0.008164039650018447,-0.024247812200365038,-0.002839591320006436
0.47000000000000003,0.0009028482600023855,-0.7854522880000026,1.9681168999934056e-05,-2.356358920000001,-0.0003449587560014197,1.571871440000003,0.7855095999999985,0.039999999,0.039999994000000004,-9.822158600000005,0.0029013551771585556,0.0023713818600379763,-0.008272494600018545,-0.024409018829492445,-0.0028774297800064704
0.47250000000000003,0.0009167992425023982,-0.7854672790000026,1.9295514499933703e-05,-2.3563631350000005,-0.00035326135050142726,1.571888570000003,0.7855002999999985,0.03999999825,0.039999993250000004,-9.822186050000004,0.0028693992760908163,0.002593469055038178,-0.008380949550018644,-0.02457022545861985,-0.0029152682400065046
0.47500000000000003,0.000930750225002411,-0.7854822700000026,1.8909859999933353e-05,-2.3563673500000006,-0.0003615639450014348,1.571905700000003,0.7854909999999985,0.0399999975,0.0399999925,-9.822213500000005,0.0028374433750230775,0.0028155562500383805,-0.008489404500018742,-0.02473143208774726,-0.0029531067000065393
0.47750000000000004,0.0009447012075024236,-0.7854972610000026,1.8524205499933003e-05,-2.356371565000001,-0.0003698665395014424,1.571922830000003,0.7854816999999984,0.03999999675,0.03999999175,-9.822240950000005,0.0028054874739553383,0.003037643445038583,-0.008597859450018841,-0.024892638716874665,-0.0029909451600065736
0.48,0.000958652190002436,-0.7855122520000026,1.813855099993266e-05,-2.356375780000001,-0.0003781691340014497,1.571939960000003,0.7854723999999984,0.039999996,0.039999991,-9.822268400000004,0.0027735315728876003,0.00325973064003878,-0.008706314400018938,-0.02505384534600207,-0.0030287836200066074
0.4825,0.0009726031725024487,-0.7855272430000027,1.7752896499932306e-05,-2.3563799950000006,-0.0003864717285014573,1.571957090000003,0.7854630999999984,0.03999999525,0.03999999025,-9.822295850000005,0.002741575671819861,0.0034818178350389823,-0.008814769350019036,-0.025215051975129476,-0.0030666220800066417
0.485,0.0009873483500026717,-0.7855432610000029,1.7345468699926195e-05,-2.356384240000001,-0.0003952494220015906,1.5719752000000033,0.7854532799999983,0.039999994500000004,0.039999991,-9.822324500000006,0.002702950313679837,0.0037254312800448813,-0.008926324200019955,-0.02537947315725628,-0.003105779010007025
0.4875,0.0010024906250026854,-0.785559792500003,1.6927154249925813e-05,-2.356388500000001,-0.0004042646650015988,1.5719938000000033,0.7854431999999982,0.039999993750000004,0.0399999925,-9.822353750000005,0.0026609902270063085,0.0039798078500451126,-0.009039429000020058,-0.025545501615881518,-0.003145595175007061
0.49,0.0010176329000026992,-0.785576324000003,1.6508839799925434e-05,-2.3563927600000008,-0.000413279908001607,1.5720124000000033,0.7854331199999982,0.039999993000000005,0.039999994,-9.822383000000006,0.0026190301403327806,0.004234184420045344,-0.00915253380002016,-0.025711530074506755,-0.0031854113400070975
0.4925,0.001032775175002713,-0.7855928555000029,1.609052534992505e-05,-2.356397020000001,-0.00042229515100161523,1.5720310000000033,0.7854230399999982,0.03999999225,0.0399999955,-9.822412250000005,0.0025770700536592523,0.004488560990045576,-0.009265638600020264,-0.025877558533131992,-0.003225227505007134
0.495,0.0010479174500027267,-0.7856093870000029,1.567221089992467e-05,-2.356401280000001,-0.00043131039400162344,1.5720496000000033,0.7854129599999982,0.0399999915,0.039999997,-9.822441500000005,0.002535109966985724,0.0047429375600458075,-0.009378743400020368,-0.02604358699175723,-0.00326504367000717
0.4975,0.0010630597250027404,-0.785625918500003,1.525389644992429e-05,-2.356405540000001,-0.00044032563700163166,1.5720682000000032,0.7854028799999981,0.03999999075,0.0399999985,-9.822470750000004,0.0024931498803121956,0.004997314130046039,-0.00949184820002047,-0.026209615450382466,-0.0033048598350072064
0.5,0.00107820200000298,-0.7856424500000033,1.4835581999917717e-05,-2.356409800000001,-0.0004493408800017743,1.5720868000000034,0.785392799999998,0.03999999,0.04,-9.822500000000005,0.002451189793637424,0.005251690700051707,-0.009604953000021437,-0.02637564390900862,-0.003344676000007516
0.5025000000000001,0.001094584520002995,-0.7856605925000033,1.4383229774917295e-05,-2.356414240000001,-0.00045909529750178343,1.5721069300000037,0.785381894999998,0.0399999897,0.04,-9.822527750000004,0.0024023925186976583,0.005535957095051973,-0.009722804100021546,-0.02654671464118508,-0.0033859953900075546
0.505,0.0011109670400030096,-0.7856787350000033,1.3930877549916894e-05,-2.356418680000001,-0.00046884971500179206,1.5721270600000037,0.785370989999998,0.0399999894,0.04,-9.822555500000005,0.002353595243757895,0.005820223490052226,-0.00984065520002165,-0.02671778537336153,-0.0034273147800075914
0.5075000000000001,0.001127349560003025,-0.7856968775000034,1.3478525324916472e-05,-2.356423120000001,-0.0004786041325018012,1.5721471900000037,0.785360084999998,0.0399999891,0.04,-9.822583250000005,0.0023047979688181294,0.006104489885052491,-0.009958506300021762,-0.02688885610553799,-0.00346863417000763
0.51,0.0011437320800030395,-0.7857150200000034,1.3026173099916071e-05,-2.356427560000001,-0.0004883585500018099,1.5721673200000037,0.785349179999998,0.0399999888,0.04,-9.822611000000006,0.002256000693878366,0.006388756280052743,-0.010076357400021866,-0.02705992683771444,-0.0035099535600076662
0.5125,0.0011601146000030543,-0.7857331625000034,1.2573820874915669e-05,-2.356432000000001,-0.0004981129675018185,1.5721874500000037,0.785338274999998,0.0399999885,0.04,-9.822638750000005,0.0022072034189386026,0.006673022675052995,-0.01019420850002197,-0.02723099756989089,-0.003551272950007703
0.515,0.0011764971200030694,-0.7857513050000035,1.2121468649915246e-05,-2.356436440000001,-0.0005078673850018276,1.572207580000004,0.785327369999998,0.0399999882,0.04,-9.822666500000006,0.002158406143998837,0.00695728907005326,-0.01031205960002208,-0.027402068302067352,-0.0035925923400077415
0.5175,0.0011933092000033267,-0.7857700000000037,1.1657328324908187e-05,-2.356440995000001,-0.0005178769110019804,1.5722282150000042,0.7853161779999978,0.0399999878,0.03999999975,-9.822699600000009,0.002109905402167001,0.007249174400057816,-0.010431440150023048,-0.027574785519424397,-0.0036343108500080036
0.52,0.0012109804000033431,-0.7857898000000038,1.1169611799907733e-05,-2.356445780000001,-0.0005283966540019901,1.572249860000004,0.7853044119999978,0.0399999872,0.039999999,-9.822743400000007,0.0020619977265505167,0.007556297600058102,-0.010553879600023163,-0.02775079570713986,-0.0036768276000080434
0.5225,0.001228651600003359,-0.7858096000000038,1.0681895274907299e-05,-2.356450565000001,-0.0005389163970019995,1.5722715050000042,0.7852926459999977,0.0399999866,0.03999999825,-9.822787200000008,0.002014090050934034,0.007863420800058375,-0.010676319050023272,-0.02792680589485531,-0.003719344350008081
0.525,0.0012463228000033754,-0.7858294000000038,1.0194178749906845e-05,-2.356455350000001,-0.0005494361400020093,1.5722931500000041,0.7852808799999977,0.039999986,0.0399999975,-9.822831000000008,0.0019661823753175495,0.008170544000058661,-0.010798758500023386,-0.02810281608257077,-0.0037618611000081207
0.5275,0.001263994000003391,-0.7858492000000038,9.706462224906411e-06,-2.3564601350000007,-0.0005599558830020186,1.5723147950000043,0.7852691139999977,0.0399999854,0.03999999675,-9.822874800000008,0.001918274699701067,0.008477667200058934,-0.010921197950023494,-0.02827882627028622,-0.0038043778500081588
0.53,0.0012816652000034075,-0.7858690000000038,9.218745699905957e-06,-2.356464920000001,-0.0005704756260020284,1.5723364400000042,0.7852573479999977,0.0399999848,0.039999996,-9.822918600000008,0.0018703670240845824,0.00878479040005922,-0.01104363740002361,-0.02845483645800168,-0.0038468946000081985
0.5325,0.0012993364000034233,-0.7858888000000038,8.731029174905523e-06,-2.3564697050000007,-0.0005809953690020378,1.572358085000004,0.7852455819999977,0.039999984200000005,0.03999999525,-9.822962400000009,0.0018224593484680997,0.009091913600059493,-0.011166076850023719,-0.02863084664571713,-0.003889411350008236
0.535,0.0013178986200037,-0.7859097300000042,8.218854099897928e-06,-2.356474730000001,-0.000592044010002202,1.5723808300000046,0.7852332239999975,0.039999984,0.039999994500000004,-9.823023600000013,0.0017651171889034906,0.009422660600066678,-0.011291526400024711,-0.028811195492779957,-0.003932998170008588
0.5375,0.0013369063500037167,-0.7859312250000042,7.694449749897461e-06,-2.356479875000001,-0.000603357100002212,1.5724041250000045,0.7852205699999975,0.039999984,0.039999993750000004,-9.823093500000013,0.0017030577873689405,0.009765219500066981,-0.011418481000024823,-0.028993713669514563,-0.003977120025008628
0.54,0.0013559140800037345,-0.7859527200000043,7.170045399896972e-06,-2.356485020000001,-0.0006146701900022226,1.5724274200000046,0.7852079159999975,0.039999984,0.039999993000000005,-9.823163400000013,0.0016409983858343875,0.0101077784000673,-0.011545435600024943,-0.02917623184624918,-0.004021241880008668
0.5425,0.0013749218100037512,-0.7859742150000042,6.645641049896507e-06,-2.356490165000001,-0.0006259832800022326,1.5724507150000047,0.7851952619999975,0.039999984,0.03999999225,-9.823233300000012,0.0015789389842998374,0.010450337300067605,-0.011672390200025055,-0.029358750022983784,-0.004065363735008708
0.545,0.001393929540003769,-0.7859957100000042,6.121236699896018e-06,-2.356495310000001,-0.0006372963700022432,1.5724740100000048,0.7851826079999974,0.039999984,0.0399999915,-9.823303200000014,0.0015168795827652844,0.010792896200067924,-0.011799344800025173,-0.0295412681997184,-0.004109485590008749
0.5475,0.0014129372700037858,-0.7860172050000043,5.5968323498955525e-06,-2.3565004550000013,-0.0006486094600022533,1.5724973050000046,0.7851699539999974,0.039999984,0.03999999075,-9.823373100000014,0.0014548201812307343,0.011135455100068229,-0.011926299400025285,-0.029723786376453006,-0.004153607445008789
0.55,0.0014319450000040805,-0.7860387000000046,5.072427999887472e-06,-2.356505600000001,-0.0006599225500024288,1.5725206000000052,0.7851572999999973,0.039999984,0.03999999,-9.823443000000012,0.001392760779694218,0.01147801400007334,-0.0120532540000263,-0.02990630455318876,-0.0041977293000091875
0.5525,0.0014523366150040987,-0.7860619650000047,4.510089204886973e-06,-2.356510865000001,-0.0006720598525024395,1.572545605000005,0.7851437309999972,0.039999984,0.03999999075,-9.823503900000011,0.0013208894524578594,0.011844519200073666,-0.012184687300026417,-0.030094511248209117,-0.004243639560009228
0.555,0.0014727282300041177,-0.7860852300000047,3.9477504098864485e-06,-2.356516130000001,-0.0006841971550024509,1.572570610000005,0.7851301619999972,0.039999984,0.0399999915,-9.823564800000012,0.0012490181252214972,0.012211024400074008,-0.01231612060002654,-0.030282717943229485,-0.004289549820009271
0.5575,0.0014931198450041359,-0.7861084950000047,3.385411614885949e-06,-2.356521395000001,-0.0006963344575024616,1.572595615000005,0.7851165929999973,0.039999984,0.03999999225,-9.823625700000012,0.0011771467979851385,0.012577529600074333,-0.012447553900026657,-0.030470924638249842,-0.004335460080009312
0.56,0.0015135114600041547,-0.7861317600000047,2.8230728198854246e-06,-2.356526660000001,-0.000708471760002473,1.572620620000005,0.7851030239999972,0.039999984,0.039999993000000005,-9.823686600000011,0.0011052754707487763,0.012944034800074675,-0.01257898720002678,-0.030659131333270206,-0.004381370340009355
0.5625,0.0015339030750041729,-0.7861550250000048,2.2607340248849254e-06,-2.356531925000001,-0.0007206090625024838,1.5726456250000052,0.7850894549999973,0.039999984,0.039999993750000004,-9.823747500000012,0.0010334041435124176,0.013310540000075,-0.012710420500026897,-0.030847338028290563,-0.004427280600009395
0.5650000000000001,0.001554294690004192,-0.7861782900000048,1.6983952298844007e-06,-2.356537190000001,-0.0007327463650024951,1.572670630000005,0.7850758859999972,0.039999984,0.039999994500000004,-9.823808400000011,0.0009615328162760555,0.01367704520007534,-0.012841853800027019,-0.03103554472331093,-0.004473190860009438
0.5675,0.0015751630850045055,-0.7862021470000052,1.1229825898758036e-06,-2.356542485000001,-0.0007451671320026814,1.5726962250000054,0.785061997999997,0.039999984200000005,0.03999999525,-9.823858500000005,0.0008876732783231102,0.014055077550082807,-0.012974767300028053,-0.031225290428886793,-0.004519569485009769
0.5700000000000001,0.0015969850400045257,-0.7862271880000052,5.214222598752426e-07,-2.356547840000001,-0.0007581548280026936,1.5727230000000054,0.785047471999997,0.0399999848,0.039999996,-9.823887000000006,0.0008098373189406776,0.014456164200083181,-0.013110641200028179,-0.03141811415557083,-0.004566884840009813
0.5725,0.001618806995004545,-0.7862522290000052,-8.013807012529175e-08,-2.356553195000001,-0.0007711425240027051,1.5727497750000055,0.785032945999997,0.0399999854,0.03999999675,-9.823915500000005,0.0007320013595582485,0.014857250850083537,-0.0132465151000283,-0.03161093788225486,-0.004614200195009855
0.5750000000000001,0.0016406289500045656,-0.7862772700000052,-6.816984001258527e-07,-2.3565585500000013,-0.0007841302200027172,1.5727765500000055,0.785018419999997,0.039999986,0.0399999975,-9.823944000000006,0.0006541654001758158,0.015258337500083912,-0.013382389000028427,-0.03180376160893889,-0.004661515550009899
0.5775,0.001662450905004585,-0.7863023110000052,-1.283258730126387e-06,-2.356563905000001,-0.0007971179160027287,1.5728033250000055,0.7850038939999969,0.0399999866,0.03999999825,-9.823972500000007,0.0005763294407933868,0.01565942415008427,-0.013518262900028548,-0.03199658533562292,-0.004708830905009941
0.58,0.0016842728600046043,-0.7863273520000053,-1.8848190601269216e-06,-2.356569260000001,-0.0008101056120027402,1.5728301000000056,0.7849893679999969,0.0399999872,0.039999999,-9.824001000000006,0.0004984934814109577,0.016060510800084624,-0.013654136800028669,-0.03218940906230694,-0.004756146260009983
0.5825,0.0017060948150046246,-0.7863523930000053,-2.4863793901274823e-06,-2.356574615000001,-0.0008230933080027523,1.5728568750000056,0.7849748419999969,0.0399999878,0.03999999975,-9.824029500000007,0.00042065752202852507,0.016461597450085,-0.013790010700028795,-0.03238223278899098,-0.0048034616150100275
0.585,0.001728900980004958,-0.7863786810000057,-3.1149403501366354e-06,-2.356580030000001,-0.0008366644860029501,1.572884890000006,0.7849596629999966,0.0399999882,0.0399999995,-9.824060800000007,0.0003373995423133552,0.01688330930009194,-0.013928737550029826,-0.032578162103933314,-0.004851622100010339
0.5875,0.00175219925000498,-0.7864055925000057,-3.7570016251372346e-06,-2.356585475000001,-0.000850527405002963,1.5729135250000061,0.7849441574999967,0.0399999885,0.03999999875,-9.824093500000007,0.00025143055243439995,0.01731533375009234,-0.014068890875029957,-0.03277564421300334,-0.004900205150010385
0.59,0.0017754975200050007,-0.7864325040000057,-4.399062900137804e-06,-2.356590920000001,-0.0008643903240029754,1.5729421600000062,0.7849286519999966,0.0399999888,0.039999998,-9.824126200000007,0.00016546156255544862,0.017747358200092725,-0.014209044200030082,-0.032973126322073346,-0.0049487882000104275
0.5925,0.0017987957900050223,-0.7864594155000058,-5.0411241751384035e-06,-2.356596365000001,-0.0008782532430029883,1.5729707950000062,0.7849131464999967,0.0399999891,0.03999999725,-9.824158900000008,7.949257267649343e-05,0.018179382650093126,-0.014349197525030211,-0.03317060843114336,-0.004997371250010473
0.595,0.001822094060005043,-0.7864863270000059,-5.683185450138974e-06,-2.3566018100000012,-0.0008921161620030006,1.572999430000006,0.7848976409999966,0.0399999894,0.0399999965,-9.824191600000006,-6.476417202457908e-06,0.01861140710009351,-0.014489350850030336,-0.03336809054021337,-0.005045954300010516
0.5975,0.0018453923300050647,-0.7865132385000059,-6.325246725139572e-06,-2.356607255000001,-0.0009059790810030135,1.5730280650000061,0.7848821354999966,0.0399999897,0.03999999575,-9.824224300000006,-9.24454070814131e-05,0.019043431550093914,-0.014629504175030467,-0.03356557264928339,-0.005094537350010561
0.6,0.0018686906000054174,-0.7865401500000063,-6.967308000149249e-06,-2.3566127000000012,-0.000919842000003223,1.5730567000000066,0.7848666299999965,0.03999999,0.039999995,-9.824257000000003,-0.00017841439696291559,0.019475456000102642,-0.014769657500031542,-0.03376305475835424,-0.005143120400010954
0.6025,0.0018935102900054406,-0.7865689215000063,-7.651090200149887e-06,-2.3566185200000014,-0.0009346084050032369,1.5730871650000067,0.7848501164999964,0.03999999075,0.039999995,-9.824270350000003,-0.00027607139202106667,0.01994571020010308,-0.014914172525031678,-0.0339643707499349,-0.005193304640011001
0.605,0.0019183299800054625,-0.7865976930000064,-8.334872400150494e-06,-2.356624340000001,-0.0009493748100032499,1.5731176300000067,0.7848336029999964,0.0399999915,0.039999995,-9.824283700000002,-0.0003737283870792134,0.020415964400103497,-0.015058687550031806,-0.03416568674151556,-0.005243488880011045
0.6075,0.0019431496700054857,-0.7866264645000064,-9.018654600151132e-06,-2.3566301600000013,-0.0009641412150032637,1.5731480950000067,0.7848170894999963,0.03999999225,0.039999995,-9.824297050000002,-0.00047138538213736445,0.020886218600103937,-0.015203202575031941,-0.03436700273309622,-0.005293673120011092
0.61,0.0019679693600055076,-0.7866552360000064,-9.70243680015174e-06,-2.3566359800000014,-0.0009789076200032768,1.5731785600000068,0.7848005759999963,0.039999993000000005,0.039999995,-9.824310400000003,-0.0005690423771955112,0.021356472800104356,-0.01534771760003207,-0.034568318724676875,-0.005343857360011137
0.6125,0.001992789050005531,-0.7866840075000064,-1.0386219000152377e-05,-2.356641800000001,-0.0009936740250032906,1.5732090250000068,0.7847840624999963,0.039999993750000004,0.039999995,-9.824323750000003,-0.0006666993722536623,0.021826727000104792,-0.015492232625032205,-0.03476963471625754,-0.0053940416000111836
0.615,0.0020176087400055527,-0.7867127790000065,-1.1070001200152984e-05,-2.3566476200000013,-0.0010084404300033038,1.5732394900000068,0.7847675489999962,0.039999994500000004,0.039999995,-9.824337100000003,-0.0007643563673118091,0.02229698120010521,-0.015636747650032333,-0.03497095070783819,-0.005444225840011228
0.6175,0.0020429504100059276,-0.7867421970000069,-1.1768090900163266e-05,-2.356653625000001,-0.0010235172100035266,1.5732706150000073,0.784750687999996,0.039999995,0.039999995,-9.824369650000015,-0.0008648917079210051,0.022777662450112677,-0.015782660300033412,-0.0351743416861165,-0.005494933225011628
0.62,0.002069336040005951,-0.786772908000007,-1.2494795600163911e-05,-2.3566600000000015,-0.0010392147400035405,1.5733030600000073,0.7847331319999961,0.039999995,0.039999995,-9.824440600000017,-0.0009711837396264745,0.023279197800113123,-0.015931368200033543,-0.03538188263778591,-0.005546686900011673
0.6225,0.0020957216700059757,-0.786803619000007,-1.3221500300164589e-05,-2.3566663750000014,-0.0010549122700035552,1.5733355050000073,0.784715575999996,0.039999995,0.039999995,-9.824511550000016,-0.0010774757713319487,0.02378073315011359,-0.01608007610003368,-0.035589423589455334,-0.005598440575011722
0.625,0.0021221073000059995,-0.786834330000007,-1.3948205000165234e-05,-2.3566727500000013,-0.0010706098000035692,1.5733679500000073,0.784698019999996,0.039999995,0.039999995,-9.824582500000016,-0.0011837678030374179,0.024282268500114036,-0.016228784000033813,-0.03579696454112474,-0.005650194250011767
0.6275000000000001,0.002148492930006024,-0.7868650410000071,-1.4674909700165912e-05,-2.3566791250000017,-0.0010863073300035838,1.5734003950000073,0.784680463999996,0.039999995,0.039999995,-9.824653450000016,-0.001290059834742892,0.024783803850114503,-0.01637749190003395,-0.03600450549279416,-0.005701947925011816
0.63,0.0021748785600060475,-0.786895752000007,-1.5401614400166557e-05,-2.3566855000000015,-0.0011020048600035978,1.5734328400000073,0.784662907999996,0.039999995,0.039999995,-9.824724400000017,-0.0013963518664483615,0.02528533920011495,-0.016526199800034086,-0.03621204644446357,-0.005753701600011862
0.6325000000000001,0.002201264190006072,-0.7869264630000071,-1.6128319100167234e-05,-2.3566918750000014,-0.0011177023900036125,1.5734652850000075,0.784645351999996,0.039999995,0.039999995,-9.824795350000016,-0.0015026438981538357,0.02578687455011542,-0.016674907700034224,-0.036419587396132984,-0.00580545527501191
0.635,0.002228722710006467,-0.7869585030000076,-1.688443360017807e-05,-2.3566983100000014,-0.0011340371600038473,1.5734990200000079,0.7846270639999957,0.0399999955,0.039999995,-9.824867300000017,-0.0016144787892963157,0.026312160500124093,-0.016826354900035305,-0.03663095906381762,-0.005858077250012257
0.6375000000000001,0.0022567176750064935,-0.7869912075000076,-1.765525300017879e-05,-2.3567047750000016,-0.0011506905500038628,1.5735334000000079,0.7846084099999957,0.03999999625,0.039999995,-9.824939750000016,-0.0017290851101544327,0.026849321750124593,-0.016979171750035445,-0.0368442460895079,-0.005911133375012307
0.64,0.002284712640006518,-0.7870239120000077,-1.8426072400179476e-05,-2.3567112400000014,-0.0011673439400038776,1.573567780000008,0.7845897559999957,0.039999997,0.039999995,-9.825012200000018,-0.0018436914310125444,0.02738648300012507,-0.01713198860003558,-0.03705753311519816,-0.0059641895000123535
0.6425,0.002312707605006543,-0.7870566165000077,-1.9196891800180158e-05,-2.3567177050000017,-0.0011839973300038923,1.573602160000008,0.7845711019999957,0.03999999775,0.039999995,-9.825084650000017,-0.0019582977518706563,0.02792364425012555,-0.017284805450035717,-0.03727082014088842,-0.0060172456250124
0.645,0.0023407025700065693,-0.7870893210000077,-1.9967711200180877e-05,-2.3567241700000015,-0.001200650720003908,1.573636540000008,0.7845524479999957,0.0399999985,0.039999995,-9.825157100000018,-0.002072904072728773,0.02846080550012605,-0.01743762230003586,-0.0374841071665787,-0.00607030175001245
0.6475,0.002368697535006594,-0.7871220255000078,-2.0738530600181563e-05,-2.3567306350000017,-0.0012173041100039226,1.573670920000008,0.7845337939999956,0.03999999925,0.039999995,-9.825229550000017,-0.002187510393586885,0.028997966750126527,-0.017590439150035993,-0.03769739419226896,-0.006123357875012497
0.65,0.002396692500007011,-0.7871547300000082,-2.1509350000192992e-05,-2.3567371000000015,-0.001233957500004171,1.5737053000000087,0.7845151399999953,0.04,0.039999995,-9.825302000000006,-0.0023021167144477318,0.029535128000135826,-0.01774325600003708,-0.03791068121796026,-0.0061764140000129305
0.6525,0.002426339820007037,-0.7871894505000082,-2.2325452900193715e-05,-2.3567436550000016,-0.0012515950850041867,1.5737417200000088,0.7844954164999953,0.04,0.03999999575,-9.825324950000006,-0.002428267430544004,0.030109493750136336,-0.01790005820003722,-0.03812832348053846,-0.006231094805012979
0.655,0.0024559871400070647,-0.7872241710000083,-2.3141555800194477e-05,-2.3567502100000017,-0.001269232670004203,1.5737781400000088,0.7844756929999953,0.04,0.0399999965,-9.825347900000006,-0.0025544181466402817,0.03068385950013687,-0.018056860400037365,-0.03834596574311667,-0.00628577561001303
0.6575,0.002485634460007091,-0.7872588915000084,-2.39576587001952e-05,-2.356756765000002,-0.0012868702550042188,1.5738145600000086,0.7844559694999953,0.04,0.03999999725,-9.825370850000006,-0.0026805688627365536,0.031258225250137384,-0.018213662600037504,-0.03856360800569487,-0.006340456415013079
0.66,0.002515281780007119,-0.7872936120000084,-2.4773761600195962e-05,-2.3567633200000015,-0.0013045078400042351,1.5738509800000087,0.7844362459999953,0.04,0.039999998,-9.825393800000006,-0.0028067195788328315,0.03183259100013792,-0.01837046480003765,-0.03878125026827308,-0.00639513722001313
0.6625,0.0025449291000071454,-0.7873283325000084,-2.5589864500196688e-05,-2.3567698750000017,-0.0013221454250042508,1.5738874000000087,0.7844165224999953,0.04,0.03999999875,-9.825416750000006,-0.0029328702949291035,0.032406956750138424,-0.01852726700003779,-0.03899889253085128,-0.0064498180250131786
0.665,0.002574576420007173,-0.7873630530000084,-2.6405967400197447e-05,-2.356776430000002,-0.0013397830100042674,1.5739238200000087,0.7843967989999953,0.04,0.0399999995,-9.825439700000006,-0.003059021011025381,0.032981322500138965,-0.018684069200037935,-0.039216534793429486,-0.006504498830013229
0.6675,0.0026047885150076106,-0.787398470000009,-2.7237545200209445e-05,-2.356783125000002,-0.0013577564950045277,1.5739609400000094,0.784376700499995,0.04,0.04,-9.825459650000003,-0.0031883352436454125,0.033567315850147945,-0.01884223675003907,-0.039435460045987414,-0.006559589365013576
0.67,0.00263613016000764,-0.787435280000009,-2.810007280021025e-05,-2.3567901000000018,-0.001376401780004545,1.5739994600000093,0.7843558519999949,0.04,0.04,-9.825473600000004,-0.003323976509306064,0.03417656440014851,-0.01900313500003922,-0.03965695127850201,-0.006615499360013629
0.6725,0.002667471805007668,-0.7874720900000091,-2.8962600400211015e-05,-2.3567970750000016,-0.0013950470650045616,1.5740379800000095,0.7843350034999949,0.04,0.04,-9.825487550000004,-0.0034596177749667096,0.034785812950149056,-0.019164033250039365,-0.0398784425110166,-0.006671409355013678
0.675,0.002698813450007697,-0.7875089000000091,-2.982512800021182e-05,-2.356804050000002,-0.001413692350004579,1.5740765000000094,0.7843141549999949,0.04,0.04,-9.825501500000003,-0.0035952590406273612,0.03539506150014962,-0.019324931500039513,-0.04009993374353119,-0.0067273193500137305
0.6775,0.002730155095007725,-0.7875457100000091,-3.0687655600212586e-05,-2.3568110250000016,-0.0014323376350045955,1.5741150200000096,0.7842933064999948,0.04,0.04,-9.825515450000003,-0.0037309003062880068,0.036004310050150166,-0.019485829750039655,-0.04032142497604578,-0.00678322934501378
0.68,0.0027614967400077543,-0.7875825200000091,-3.155018320021339e-05,-2.356818000000002,-0.0014509829200046128,1.5741535400000095,0.7842724579999949,0.04,0.04,-9.825529400000002,-0.003866541571948658,0.03661355860015073,-0.019646728000039807,-0.040542916208560376,-0.006839139340013832
0.6825,0.002792838385007782,-0.7876193300000092,-3.241271080021415e-05,-2.3568249750000017,-0.0014696282050046295,1.5741920600000097,0.7842516094999948,0.04,0.04,-9.825543350000004,-0.004002182837609304,0.03722280715015128,-0.01980762625003995,-0.040764407441074964,-0.0068950493350138815
0.685,0.002825337040008244,-0.7876575550000097,-3.330696250022682e-05,-2.356832330000002,-0.0014889598200049034,1.57423197000001,0.7842299909999946,0.04,0.0399999995,-9.825588700000015,-0.004143958631938978,0.037860528000162486,-0.01997111890004107,-0.04098947606986451,-0.006951689900014207
0.6875,0.002858414200008273,-0.7876964875000098,-3.421707625022763e-05,-2.3568398750000017,-0.001508634600004921,1.5742725750000102,0.7842079874999945,0.04,0.03999999875,-9.825649750000014,-0.004288801690599727,0.03851248500016306,-0.020135908750041214,-0.04121633339678951,-0.007008695750014258
0.6900000000000001,0.002891491360008304,-0.7877354200000097,-3.512719000022848e-05,-2.3568474200000016,-0.0015283093800049392,1.5743131800000103,0.7841859839999945,0.04,0.039999998,-9.825710800000016,-0.004433644749260482,0.03916444200016367,-0.02030069860004137,-0.04144319072371453,-0.0070657016000143106
0.6925,0.0029245685200083335,-0.7877743525000098,-3.603730375022929e-05,-2.356854965000002,-0.0015479841600049566,1.5743537850000102,0.7841639804999945,0.04,0.03999999725,-9.825771850000015,-0.004578487807921231,0.03981639900016425,-0.020465488450041515,-0.041670048050639535,-0.0071227074500143615
0.6950000000000001,0.0029576456800083644,-0.7878132850000098,-3.694741750023014e-05,-2.356862510000002,-0.001567658940004975,1.5743943900000104,0.7841419769999944,0.04,0.0399999965,-9.825832900000016,-0.004723330866581985,0.04046835600016486,-0.02063027830004167,-0.041896905377564554,-0.007179713300014414
0.6975,0.0029907228400083935,-0.7878522175000099,-3.785753125023095e-05,-2.3568700550000017,-0.0015873337200049925,1.5744349950000103,0.7841199734999944,0.04,0.03999999575,-9.825893950000015,-0.004868173925242734,0.041120313000165436,-0.020795068150041816,-0.04212376270448956,-0.007236719150014465
0.7000000000000001,0.0030238000000088767,-0.7878911500000104,-3.8767645000244184e-05,-2.3568776000000016,-0.0016070085000052803,1.5744756000000109,0.7840979699999941,0.04,0.039999995,-9.825955000000018,-0.005013016983907114,0.04177227000017552,-0.02095985800004295,-0.04235062003141608,-0.0072937250000149395
0.7025,0.0030586529950089075,-0.7879322425000105,-3.9726403750245035e-05,-2.3568852500000017,-0.0016277410350052986,1.574518410000011,0.7840747844999941,0.04,0.039999995,-9.826025500000018,-0.00517209237445477,0.042461436600176136,-0.021128484550043097,-0.04258337598299967,-0.007352383100014992
0.705,0.0030935059900089384,-0.7879733350000105,-4.0685162500245886e-05,-2.356892900000002,-0.0016484735700053172,1.574561220000011,0.7840515989999941,0.04,0.039999995,-9.82609600000002,-0.005331167765002426,0.043150603200176746,-0.021297111100043245,-0.04281613193458325,-0.007411041200015044
0.7075,0.003128358985008971,-0.7880144275000105,-4.164392125024678e-05,-2.356900550000002,-0.0016692061050053364,1.574604030000011,0.7840284134999941,0.04,0.039999995,-9.826166500000019,-0.00549024315555009,0.04383976980017739,-0.021465737650043403,-0.04304888788616685,-0.0074696993000150985
0.71,0.003163211980009002,-0.7880555200000106,-4.260268000024763e-05,-2.3569082000000017,-0.001689938640005355,1.574646840000011,0.784005227999994,0.04,0.039999995,-9.826237000000019,-0.0056493185460977455,0.044528936400178,-0.021634364200043554,-0.04328164383775043,-0.007528357400015151
0.7125,0.0031980649750090345,-0.7880966125000106,-4.356143875024852e-05,-2.356915850000002,-0.001710671175005374,1.5746896500000112,0.7839820424999939,0.04,0.039999995,-9.826307500000018,-0.005808393936645409,0.045218103000178644,-0.02180299075004371,-0.04351439978933403,-0.007587015500015205
0.715,0.0032329179700090653,-0.7881377050000107,-4.452019750024938e-05,-2.356923500000002,-0.0017314037100053924,1.5747324600000112,0.7839588569999939,0.04,0.039999995,-9.82637800000002,-0.005967469327193066,0.045907269600179254,-0.02197161730004386,-0.04374715574091762,-0.0076456736000152575
0.7175,0.0032683760350095716,-0.7881795420000113,-4.549552950026325e-05,-2.356931185000002,-0.0017524965900056941,1.5747760100000119,0.7839352674999935,0.04,0.03999999525,-9.826430950000004,-0.0061297618784450034,0.046608840300189615,-0.022141479800044984,-0.04398117195821018,-0.007704749550015639
0.72,0.0033050442400096042,-0.7882228680000113,-4.650400800026414e-05,-2.356938940000002,-0.0017743101600057134,1.5748210400000118,0.7839108699999936,0.04,0.039999996,-9.826448800000005,-0.0062984887510979335,0.04733521920019026,-0.022313814200045138,-0.04421770870691767,-0.007764661200015692
0.7225,0.0033417124450096387,-0.7882661940000114,-4.751248650026508e-05,-2.3569466950000018,-0.0017961237300057338,1.5748660700000119,0.7838864724999935,0.04,0.03999999675,-9.826466650000006,-0.0064672156237508705,0.048061598100190936,-0.0224861486000453,-0.04445424545562519,-0.007824572850015749
0.725,0.003378380650009671,-0.7883095200000114,-4.852096500026598e-05,-2.356954450000002,-0.0018179373000057533,1.5749111000000118,0.7838620749999936,0.04,0.0399999975,-9.826484500000005,-0.006635942496403801,0.04878797700019158,-0.02265848300004545,-0.04469078220433269,-0.007884484500015802
0.7275,0.0034150488550097054,-0.7883528460000114,-4.952944350026692e-05,-2.356962205000002,-0.0018397508700057734,1.574956130000012,0.7838376774999936,0.04,0.03999999825,-9.826502350000005,-0.006804669369056738,0.04951435590019226,-0.02283081740004561,-0.044927318953040196,-0.007944396150015857
0.73,0.003451717060009738,-0.7883961720000116,-5.0537922000267814e-05,-2.356969960000002,-0.0018615644400057929,1.575001160000012,0.7838132799999935,0.04,0.039999999,-9.826520200000004,-0.006973396241709668,0.05024073480019291,-0.023003151800045765,-0.0451638557017477,-0.00800430780001591
0.7325,0.003488385265009772,-0.7884394980000116,-5.1546400500268756e-05,-2.356977715000002,-0.0018833780100058132,1.575046190000012,0.7837888824999936,0.04,0.03999999975,-9.826538050000005,-0.007142123114362605,0.05096711370019358,-0.023175486200045926,-0.045400392450455206,-0.008064219450015966
0.735,0.0035262894000103,-0.7884843200000122,-5.2588772300283246e-05,-2.3569859700000024,-0.0019059237400061262,1.5750927300000126,0.7837636619999931,0.04,0.039999999,-9.826546800000001,-0.007315966673242517,0.051723573400206294,-0.02335026670004706,-0.04563910216099468,-0.008124634900016222
0.7375,0.0035648115000103363,-0.7885298900000123,-5.364809075028423e-05,-2.3569944750000023,-0.0019288355500061477,1.5751400250000127,0.7837380299999932,0.04,0.0399999975,-9.826551000000002,-0.007492368575232857,0.05249507350020701,-0.023526270250047224,-0.04587889835244884,-0.008185302250016277
0.74,0.0036033336000103706,-0.7885754600000122,-5.470740920028518e-05,-2.3570029800000025,-0.0019517473600061679,1.5751873200000126,0.7837123979999931,0.04,0.039999996,-9.826555200000001,-0.007668770477223188,0.053266573600207694,-0.023702273800047382,-0.046118694543902994,-0.008245969600016332
0.7425,0.0036418557000104062,-0.7886210300000123,-5.5766727650286163e-05,-2.3570114850000023,-0.0019746591700061894,1.5752346150000127,0.7836867659999931,0.04,0.0399999945,-9.8265594,-0.007845172379213528,0.05403807370020842,-0.023878277350047546,-0.04635849073535716,-0.008306636950016388
0.745,0.0036803778000104406,-0.7886666000000123,-5.68260461002871e-05,-2.357019990000002,-0.0019975709800062096,1.5752819100000128,0.783661133999993,0.04,0.039999993,-9.826563600000002,-0.008021574281203859,0.0548095738002091,-0.024054280900047704,-0.04659828692681131,-0.008367304300016441
0.7475,0.003718899900010476,-0.7887121700000124,-5.788536455028809e-05,-2.3570284950000024,-0.002020482790006231,1.5753292050000127,0.7836355019999931,0.04,0.0399999915,-9.826567800000001,-0.008197976183194199,0.05558107390020982,-0.02423028445004787,-0.046838083118265476,-0.008427971650016498
0.75,0.0037574220000110266,-0.7887577400000131,-5.894468300030316e-05,-2.3570370000000023,-0.0020433946000065592,1.5753765000000135,0.7836098699999927,0.04,0.03999999,-9.826572000000022,-0.008374378085191309,0.056352574000222436,-0.024406288000048983,-0.047077879309721384,-0.008488639000017074
0.7525000000000001,0.0037978357500110644,-0.7888055990000131,-6.0055776800304196e-05,-2.3570458050000025,-0.002067435850006582,1.5754261650000136,0.7835829794999927,0.04,0.0399999915,-9.826652250000022,-0.008575623948182112,0.057167795650223195,-0.024585813250049153,-0.047324094921417856,-0.008551220500017134
0.755,0.0038382495000111004,-0.7888534580000132,-6.116687060030518e-05,-2.3570546100000023,-0.0020914771000066033,1.5754758300000136,0.7835560889999926,0.04,0.039999993,-9.826732500000022,-0.008776869811172906,0.05798301730022392,-0.024765338500049312,-0.04757031053311432,-0.008613802000017188
0.7575000000000001,0.003878663250011138,-0.7889013170000132,-6.227796440030622e-05,-2.3570634150000025,-0.0021155183500066255,1.5755254950000137,0.7835291984999926,0.04,0.039999994500000004,-9.826812750000022,-0.00897811567416371,0.05879823895022468,-0.02494486375004948,-0.04781652614481079,-0.008676383500017247
0.76,0.003919077000011174,-0.7889491760000132,-6.33890582003072e-05,-2.3570722200000023,-0.002139559600006647,1.5755751600000139,0.7835023079999925,0.04,0.039999996,-9.826893000000021,-0.009179361537154502,0.059613460600225404,-0.025124389000049638,-0.04806274175650725,-0.008738965000017303
0.7625000000000001,0.0039594907500112115,-0.7889970350000133,-6.450015200030824e-05,-2.3570810250000025,-0.0021636008500066695,1.5756248250000138,0.7834754174999925,0.04,0.0399999975,-9.826973250000023,-0.009380607400145305,0.060428682250226164,-0.025303914250049804,-0.04830895736820373,-0.008801546500017361
0.765,0.003999904500011248,-0.7890448940000133,-6.561124580030923e-05,-2.3570898300000023,-0.002187642100006691,1.575674490000014,0.7834485269999925,0.04,0.039999999,-9.827053500000023,-0.0095818532631361,0.06124390390022689,-0.025483439500049963,-0.04855517297990019,-0.008864128000017417
0.7675000000000001,0.004040961075011824,-0.789093528500014,-6.673995725032503e-05,-2.3570986650000023,-0.002212065220007033,1.5757249450000146,0.7834212049999921,0.04,0.04,-9.82712070000001,-0.009780976269448544,0.062069257450236136,-0.025664138600051112,-0.048802722431789146,-0.008926933600017664
0.77,0.004083303300011862,-0.789143714000014,-6.790390400032606e-05,-2.3571075600000024,-0.0022372520800070556,1.5757769800000145,0.7833930199999921,0.04,0.04,-9.827161800000011,-0.009975853562409593,0.06291487480023689,-0.025847185400051275,-0.04905293956405971,-0.00899018740001772
0.7725,0.004125645525011899,-0.7891938995000141,-6.906785075032709e-05,-2.3571164550000026,-0.002262438940007078,1.5758290150000147,0.7833648349999921,0.04,0.04,-9.827202900000012,-0.01017073085537064,0.06376049215023763,-0.026030232200051438,-0.04930315669633027,-0.009053441200017776
0.775,0.004167987750011939,-0.7892440850000141,-7.023179750032817e-05,-2.3571253500000027,-0.0022876258000071015,1.5758810500000147,0.783336649999992,0.04,0.04,-9.827244000000013,-0.010365608148331696,0.06460610950023843,-0.02621327900005161,-0.049553373828600845,-0.009116695000017834
0.7775,0.004210329975011976,-0.7892942705000142,-7.13957442503292e-05,-2.3571342450000023,-0.002312812660007124,1.5759330850000146,0.783308464999992,0.04,0.04,-9.827285100000012,-0.010560485441292745,0.06545172685023917,-0.026396325800051773,-0.04980359096087141,-0.00917994880001789
0.78,0.0042526722000120155,-0.7893444560000142,-7.25596910003303e-05,-2.3571431400000025,-0.0023379995200071475,1.5759851200000148,0.783280279999992,0.04,0.04,-9.827326200000012,-0.010755362734253801,0.06629734420023997,-0.026579372600051943,-0.050053808093141985,-0.00924320260001795
0.7825,0.004295014425012053,-0.7893946415000143,-7.372363775033133e-05,-2.3571520350000026,-0.00236318638000717,1.5760371550000147,0.7832520949999919,0.04,0.04,-9.827367300000013,-0.010950240027214848,0.06714296155024072,-0.026762419400052105,-0.050304025225412545,-0.009306456400018006
0.785,0.004338666280012654,-0.7894464330000149,-7.492345640034779e-05,-2.3571613700000027,-0.0023891510200075264,1.5760907800000155,0.7832230549999916,0.04,0.0399999995,-9.8273807,-0.01115864422178445,0.06802153460025562,-0.026947724500053245,-0.05055621750660021,-0.009370466900018389
0.7875,0.004382972950012693,-0.789499027500015,-7.614121100034887e-05,-2.357170925000003,-0.0024155045500075497,1.5761452000000156,0.7831935874999916,0.04,0.03999999875,-9.827380250000001,-0.011373811867149641,0.06891658550025642,-0.02713415875005341,-0.05080939736224513,-0.009434855750018446
0.79,0.004427279620012735,-0.789551622000015,-7.735896560035e-05,-2.357180480000003,-0.0024418580800075742,1.5761996200000155,0.7831641199999916,0.04,0.039999998,-9.827379800000001,-0.011588979512514842,0.06981163640025725,-0.027320593000053583,-0.051062577217890065,-0.009499244600018506
0.7925,0.004471586290012774,-0.7896042165000151,-7.857672020035109e-05,-2.3571900350000026,-0.002468211610007598,1.5762540400000156,0.7831346524999915,0.04,0.03999999725,-9.82737935,-0.011804147157880033,0.07070668730025804,-0.02750702725005375,-0.05131575707353499,-0.009563633450018563
0.795,0.004515892960012815,-0.7896568110000152,-7.979447480035222e-05,-2.3571995900000027,-0.0024945651400076225,1.5763084600000157,0.7831051849999915,0.04,0.0399999965,-9.8273789,-0.012019314803245234,0.07160173820025888,-0.027693461500053924,-0.05156893692917992,-0.009628022300018623
0.7975,0.004560199630012854,-0.7897094055000152,-8.10122294003533e-05,-2.357209145000003,-0.0025209186700076457,1.5763628800000158,0.7830757174999915,0.04,0.03999999575,-9.82737845,-0.012234482448610424,0.07249678910025968,-0.02787989575005409,-0.05182211678482485,-0.00969241115001868
0.8,0.004604506300013478,-0.789762000000016,-8.222998400037039e-05,-2.357218700000003,-0.002547272200008016,1.5764173000000166,0.7830462499999911,0.04,0.039999995,-9.82737800000002,-0.012449650093979142,0.07339184000027468,-0.028066330000055244,-0.052075296640471405,-0.00975680000001906
0.8025,0.004650812260013519,-0.789816970500016,-8.350254800037152e-05,-2.3572286900000026,-0.00257481350500804,1.5764741500000166,0.7830154474999911,0.04,0.039999995,-9.82745090000002,-0.012676895642719383,0.07433559875027552,-0.028256139850055415,-0.0523340415210287,-0.009822290450019118
0.805,0.004697118220013562,-0.7898719410000161,-8.477511200037271e-05,-2.3572386800000027,-0.002602354810008066,1.5765310000000166,0.782984644999991,0.04,0.039999995,-9.827523800000021,-0.012904141191459636,0.07527935750027641,-0.02844594970005559,-0.052592786401585996,-0.00988778090001918
0.8075,0.004743424180013603,-0.7899269115000161,-8.604767600037384e-05,-2.357248670000003,-0.0026298961150080908,1.5765878500000168,0.782953842499991,0.04,0.039999995,-9.82759670000002,-0.013131386740199877,0.07622311625027724,-0.02863575955005576,-0.05285153128214329,-0.009953271350019239
0.81,0.004789730140013646,-0.7899818820000162,-8.732024000037503e-05,-2.357258660000003,-0.0026574374200081163,1.5766447000000168,0.7829230399999909,0.04,0.039999995,-9.827669600000021,-0.01335863228894013,0.07716687500027812,-0.02882556940005594,-0.05311027616270059,-0.0100187618000193
0.8125,0.004836036100013688,-0.7900368525000162,-8.859280400037616e-05,-2.357268650000003,-0.002684978725008141,1.5767015500000168,0.7828922374999908,0.04,0.039999995,-9.82774250000002,-0.013585877837680371,0.07811063375027896,-0.029015379250056105,-0.05336902104325788,-0.010084252250019358
0.8150000000000001,0.0048823420600137305,-0.7900918230000162,-8.986536800037734e-05,-2.3572786400000028,-0.0027125200300081665,1.576758400000017,0.7828614349999908,0.04,0.039999995,-9.827815400000022,-0.013813123386420623,0.07905439250027985,-0.029205189100056282,-0.053627765923815185,-0.010149742700019419
0.8175,0.004929325840014377,-0.790147624000017,-9.115649830039504e-05,-2.357288670000003,-0.0027404642750085504,1.5768160900000177,0.7828301834999903,0.04,0.039999995,-9.827876700000012,-0.014045131439414918,0.08001024650029147,-0.029396064950057404,-0.053888023272235,-0.01021562840001983
0.8200000000000001,0.0049776652600144215,-0.7902050860000172,-9.248476120039627e-05,-2.357298780000003,-0.0027692144000085774,1.5768754600000177,0.7827980339999904,0.04,0.039999995,-9.827914800000011,-0.014286664500904598,0.08099029100029238,-0.029589072800057584,-0.054151305556375824,-0.010282304600019892
0.8225,0.005026004680014465,-0.7902625480000172,-9.381302410039745e-05,-2.357308890000003,-0.002797964525008603,1.5769348300000179,0.7827658844999904,0.04,0.039999995,-9.827952900000012,-0.014528197562394268,0.08197033550029326,-0.029782080650057753,-0.05441458784051664,-0.010348980800019952
0.8250000000000001,0.005074344100014509,-0.7903200100000172,-9.51412870003987e-05,-2.357319000000003,-0.00282671465000863,1.5769942000000179,0.7827337349999903,0.04,0.039999995,-9.827991000000011,-0.01476973062388395,0.08295038000029417,-0.029975088500057933,-0.054677870124657475,-0.010415657000020014
0.8275,0.0051226835200145525,-0.7903774720000173,-9.646954990039987e-05,-2.357329110000003,-0.002855464775008655,1.577053570000018,0.7827015854999904,0.04,0.039999995,-9.82802910000001,-0.01501126368537362,0.08393042450029503,-0.030168096350058106,-0.054941152408798294,-0.010482333200020073
0.8300000000000001,0.005171022940014597,-0.7904349340000173,-9.779781280040111e-05,-2.3573392200000027,-0.002884214900008682,1.577112940000018,0.7826694359999903,0.04,0.039999995,-9.828067200000012,-0.0152527967468633,0.08491046900029595,-0.030361104200058286,-0.055204434692939126,-0.010549009400020135
0.8325,0.0052193623600146405,-0.7904923960000173,-9.912607570040229e-05,-2.357349330000003,-0.0029129650250087078,1.577172310000018,0.7826372864999903,0.04,0.039999995,-9.828105300000011,-0.015494329808352969,0.08589051350029682,-0.030554112050058455,-0.055467716977079945,-0.010615685600020195
0.835,0.005269079710015311,-0.7905515250000181,-0.00010049208200042067,-2.357359900000003,-0.0029425343100091066,1.5772333600000188,0.7826042129999898,0.04,0.039999995,-9.828114499999998,-0.015744062513190063,0.08690464350031323,-0.0307492515000596,-0.05573271177717174,-0.01068303560002056
0.8375,0.005319486025015358,-0.7906114875000182,-0.00010187696000042196,-2.3573707000000033,-0.0029725131750091343,1.5772952500000188,0.7825706774999898,0.04,0.039999995,-9.828109249999999,-0.01599789503969529,0.08793581625031419,-0.03094545675005978,-0.055998562835237874,-0.010750722500020623
0.84,0.005369892340015402,-0.7906714500000183,-0.00010326183800042319,-2.3573815000000033,-0.003002492040009161,1.5773571400000188,0.7825371419999897,0.04,0.039999995,-9.828103999999998,-0.016251727566200507,0.0889669890003151,-0.031141662000059956,-0.05626441389330399,-0.010818409400020684
0.8425,0.0054202986550154495,-0.7907314125000183,-0.00010464671600042448,-2.3573923000000034,-0.003032470905009189,1.577419030000019,0.7825036064999897,0.04,0.039999995,-9.828098749999999,-0.01650556009270573,0.08999816175031607,-0.03133786725006014,-0.056530264951370125,-0.010886096300020747
0.845,0.005470704970015495,-0.7907913750000184,-0.00010603159400042571,-2.3574031000000035,-0.0030624497700092153,1.577480920000019,0.7824700709999897,0.04,0.039999995,-9.828093499999998,-0.016759392619210948,0.09102933450031697,-0.03153407250006031,-0.05679611600943625,-0.010953783200020807
0.8475,0.005521111285015542,-0.7908513375000185,-0.000107416472000427,-2.3574139000000036,-0.0030924286350092435,1.577542810000019,0.7824365354999896,0.04,0.039999995,-9.828088249999999,-0.017013225145716175,0.09206050725031793,-0.031730277750060494,-0.057061967067502384,-0.01102147010002087
