rsonawane2002/My_IMU/logs_2/traj_492/clean_492.csv
time,j1,j2,j3,j4,j5,j6,j7,gripper1,gripper2,imu_ax,imu_ay,imu_az,imu_gx,imu_gy,imu_gz,quat_x,quat_y,quat_z,quat_w
2664.083333339644,0.00016700293,-0.785875,4.0107683e-05,-2.3551247,9.29385e-05,1.570997,0.786,0.04,0.04,0.0,-0.0,0.0,2.875329272945135e-08,-0.0011641195053377316,4.421952117202833e-08,0.9999995971961153,0.00020320632366974898,0.0008736418299892524,3.263050917662294e-05
2664.100000006311,0.00016700037,-0.78576016,4.0108458e-05,-2.3552213,9.2984345e-05,1.5709941,0.786,0.04,0.04,-0.2919984590193714,-2.9730010596868165e-05,0.020128410208397618,1.0577744452850296e-07,-0.00223839123891805,9.300180772175401e-07,0.9999996850575497,0.00020321207255299693,0.0007665025160843452,3.261208256280204e-05
2664.1166666729778,0.00016696016,-0.7856542,4.0066214e-05,-2.35531,9.3098366e-05,1.5709913,0.786,0.04,0.04,0.023196981871764777,4.149016913692076e-05,-0.0016027031378040846,1.4896743039472962e-07,-0.0032327311717100893,6.792479831058508e-06,0.999999755874738,0.0002032514627429363,0.000667737625391638,3.2646146261227954e-05
2664.1333333396447,0.00016681834,-0.78555673,3.9910705e-05,-2.355391,9.3396775e-05,1.5709884,0.786,0.04,0.04,0.02239488465052286,0.00010867629910796825,-0.0014910721533478721,3.8566272161713735e-07,-0.004155280134642102,2.2206651460165927e-05,0.9999998122867361,0.00020338132530024205,0.0005770491070328337,3.281550400304621e-05
2664.1500000063115,0.00016648178,-0.78546685,3.954138e-05,-2.3554652,9.404264e-05,1.5709856,0.786,0.04,0.04,0.020123720856490834,0.00020898954239434745,-0.0012560368904956931,1.8015682810069197e-07,-0.005012943222465424,5.069716717513519e-05,0.9999998568824032,0.0002036838186697267,0.0004936024554514888,3.3236894436357836e-05
2664.1666666729784,0.00016583121,-0.7853838,3.882977e-05,-2.355532,9.5252944e-05,1.570986,0.7859981,0.04,0.04,0.021201968985873343,0.0003304939647539554,0.0018604238347874613,-8.511965533655524e-07,-0.0058174918109812354,9.77980990902192e-05,0.9999998909937895,0.00020331041638394588,0.00041894736920617927,3.406443234767839e-05
2664.1833333396453,0.00016472356,-0.7853073,3.762265e-05,-2.3555937,9.7286655e-05,1.5709869,0.7859962,0.04,0.039999995,0.01580670532903561,0.0004774442361125898,-0.0012129267922045273,4.86779772013949e-06,-0.006557540874479482,0.00016577114533909292,0.999999917368863,0.00020334058525526698,0.00035022273155845864,3.54811472322864e-05
2664.200000006312,0.00016299509,-0.7852364,3.5745154e-05,-2.3556514,0.00010040569,1.5709878,0.7859924,0.04,0.04,0.013187298613104304,0.000670037465147266,-0.0013368295190829826,7.942460465585298e-06,-0.007261161577538019,0.0002553015819560761,0.9999999376760058,0.00020296447978795435,0.00028641523644362514,3.7679128184469315e-05
2664.216666672979,0.00016046241,-0.78517026,3.300191e-05,-2.3557022,0.00010495087,1.5709921,0.78598857,0.04,0.04,0.01801575360953489,0.0008488702338758187,0.002888415373680786,1.547031486425686e-05,-0.007943108303146408,0.0003731971892188216,0.9999999520286711,0.0002032966391232071,0.00023008777758683487,4.089922613702341e-05
2664.233333339646,0.00015692608,-0.78510886,2.9180266e-05,-2.3557484,0.00011127641,1.5709969,0.78598285,0.04,0.039999995,0.013121219515710436,0.0010574281958929197,-0.0003381172491989659,1.789181830241115e-05,-0.008581049853276903,0.0005199921005514627,0.999999962294264,0.00020355847521444706,0.00017864752782882707,4.539249374119738e-05
2664.250000006313,0.0001521719,-0.78505135,2.4052237e-05,-2.3557909,0.000119726385,1.5710051,0.7859752,0.039999995,0.039999995,0.011861824398118337,0.0013069945907319424,0.0020732717354920993,2.2458400698520257e-05,-0.009203062808070886,0.0006961645766369512,0.9999999690678043,0.0002039379830919464,0.00013277990208127252,5.141193500334197e-05
2664.2666666729797,0.000145972,-0.78499717,1.7375643e-05,-2.355827,0.00013071587,1.5710137,0.7859643,0.03999999,0.03999999,0.014337288727239716,0.0015359566652122414,0.0011400301648700761,2.719173287616804e-05,-0.009805053788690225,0.0009056602028831417,0.9999999732279798,0.00020394934530927974,9.185906711834848e-05,5.9250451615404684e-05
2664.2833333396466,0.00013808746,-0.7849458,8.896416e-06,-2.3558614,0.00014466119,1.5710261,0.78595096,0.039999988,0.039999988,0.007546785815870649,0.0017903729061322484,0.0021000335480581,3.68149461913279e-05,-0.010394603553566664,0.001149543357330118,0.9999999752289513,0.0002042196057389393,5.519957235459333e-05,6.920589958064775e-05
2664.3000000063134,0.00012826936,-0.78489673,-1.6500585e-06,-2.355889,0.0001619955,1.5710423,0.7859339,0.039999984,0.03999998,0.015122162605529788,0.0020554991930677347,0.004510561151982451,4.602160298251964e-05,-0.010983015151431321,0.001429983808871629,0.9999999754827787,0.00020434111491927413,2.494730641024763e-05,8.158910833502557e-05
2664.3166666729803,0.00011626006,-0.7848496,-1.4537194e-05,-2.355914,0.00018316614,1.5710623,0.78591335,0.03999998,0.039999977,0.007773068426319973,0.0023309370210060692,0.002932177511194567,5.815357930974495e-05,-0.01155132782890171,0.0017464730960729024,0.9999999743854414,0.0002046293194772499,-1.132751676165768e-06,9.671956780327897e-05
2664.333333339647,0.000101794765,-0.78480405,-3.0046565e-05,-2.3559341,0.00020863395,1.5710862,0.78588873,0.039999973,0.03999997,0.011494934098577048,0.0026137047977610193,0.004172317218120725,7.066803002898762e-05,-0.012124420121959472,0.0021009008892878484,0.9999999721314937,0.0002050483259327278,-2.199724333402433e-05,0.00011492744229930628
2664.350000006314,8.4602005e-05,-0.78475946,-4.8466365e-05,-2.35595,0.00023887087,1.5711141,0.7858594,0.039999966,0.039999958,0.009225189676964618,0.002903850716061543,0.004295306410950772,8.419452342223644e-05,-0.012694817653047514,0.0024949880365554527,0.9999999688255087,0.00020550855064635422,-3.83312058159422e-05,0.00013655012216770581
2664.366666672981,6.440561e-05,-0.78471553,-7.008984e-05,-2.3559618,0.0002743555,1.5711483,0.7858251,0.039999966,0.03999996,0.010018563910874079,0.0032007125470104327,0.0062604832516077735,9.981552419476708e-05,-0.013270200505420163,0.0029268698899607842,0.9999999644478827,0.00020610354986382143,-4.903139819574111e-05,0.00016193048492576137
2664.383333339648,4.0924908e-05,-0.7846719,-9.5215095e-05,-2.3559694,0.0003155772,1.5711874,0.78578526,0.03999997,0.03999996,0.008765520337572497,0.0035005932691193763,0.005291188388834023,0.00011604359180155061,-0.013844503315816168,0.0034005572409513828,0.9999999587693633,0.00020684135250954335,-5.511034429411912e-05,0.00019141780692440895
2664.4000000063147,1.3875996e-05,-0.7846281,-0.00012414351,-2.3559732,0.00036302742,1.5712332,0.78573936,0.03999997,0.03999996,0.008400431956845367,0.0038071473434897595,0.00678766300106215,0.0001337799334797593,-0.014429147490557993,0.003913914879034784,0.9999999514717223,0.00020767356234093398,-5.6030604993527434e-05,0.00022536374179804044
2664.4166666729816,-1.702754e-05,-0.7845838,-0.00015717927,-2.3559723,0.00041720434,1.5712855,0.78568697,0.039999966,0.039999958,0.009654983687146235,0.004115511609031681,0.00729655629896353,0.00015329709007036885,-0.015020837815619584,0.004468130328615391,0.9999999420259361,0.00020864336578453228,-5.152270845201934e-05,0.0002641239878560049
2664.4333333396485,-5.2073985e-05,-0.7845385,-0.00019462833,-2.3559685,0.00047860862,1.5713449,0.78562766,0.039999966,0.039999958,0.005973363905709128,0.004426431585288246,0.007099660474318981,0.00017397261860834824,-0.015621779917327699,0.005063418180128381,0.9999999296376026,0.0002097960110181875,-4.256857230136391e-05,0.00030805574186976327
2664.4500000063153,-9.155277e-05,-0.78449196,-0.00023679798,-2.355959,0.00054774305,1.5714118,0.78556085,0.039999966,0.039999954,0.010762412743003935,0.004740865338040317,0.008964106462117094,0.00019621474568306402,-0.016240369992925947,0.0057007489344966435,0.9999999134317643,0.00021108821926121773,-2.7556927380583244e-05,0.00035751761257436587
2664.4666666729822,-0.0001357537,-0.784444,-0.00028399605,-2.3559456,0.0006251098,1.5714868,0.785486,0.03999997,0.039999958,0.007439437635525792,0.005056413392147104,0.00847558385095315,0.00021982374783000545,-0.01686716751426039,0.006378433663617372,0.9999998921634176,0.00021250750108314475,-7.3496892936934635e-06,0.00041286765094282517
2664.483333339649,-0.00018496666,-0.78439415,-0.00033653041,-2.355927,0.00071121287,1.5715702,0.7854028,0.039999966,0.039999954,0.009525569572521597,0.005373226040140654,0.009620906745078095,0.00024565242589945097,-0.0175096869067886,0.0070972575151564245,0.9999998643337713,0.0002141606494423635,1.8741359618047186e-05,0.0004744643470174354
2664.500000006316,-0.00023948081,-0.78434205,-0.00039470798,-2.3559046,0.00080655445,1.5716622,0.7853105,0.039999966,0.03999995,0.006750242252162586,0.00568920157648829,0.009480959442931258,0.00027258308964003483,-0.018164228630484378,0.007857955408651219,0.9999998281924177,0.00021594577594063417,4.997453261977482e-05,0.0005426648164051465
2664.516666672983,-0.00029958435,-0.7842874,-0.0004588349,-2.3558776,0.000911634,1.571764,0.78520894,0.039999966,0.03999995,0.007980626964076976,0.006008471456943739,0.01077023714952663,0.00030164243100379816,-0.018842361890341254,0.008658578352165856,0.9999997815920164,0.0002179989849459684,8.70987201387534e-05,0.0006178237409982246
2664.5333333396497,-0.00036556408,-0.7842302,-0.0005292156,-2.3558457,0.00102695,1.5718758,0.7850974,0.039999966,0.03999995,0.008872064298826032,0.006326075508190122,0.011161822604388583,0.00033189598574156435,-0.019535869115800568,0.009499702494953459,0.9999997220277067,0.00022024658005813694,0.00013047612780910223,0.0007002941763346415
2664.5500000063166,-0.00043770476,-0.78416955,-0.00060615287,-2.355809,0.0011529973,1.5719979,0.7849755,0.039999966,0.039999947,0.0076254505028350295,0.006643335319277497,0.011704124064526589,0.0003643286124550213,-0.020246547934656446,0.010381860411048669,0.9999996466627753,0.00022273326776158485,0.00017969473541930178,0.000790426478494379
2664.5666666729835,-0.0005162892,-0.78410584,-0.0006899465,-2.3557673,0.0012902656,1.572131,0.7848428,0.039999966,0.039999947,0.008632175938050324,0.006961727012860389,0.012263751600638528,0.00039846576405065757,-0.020979815210010883,0.011302909763518956,0.9999995520885517,0.00022547219309805618,0.0002354459883157567,0.0008885663580273295
2664.5833333396504,-0.0006015972,-0.78403854,-0.0007808944,-2.3557205,0.0014392417,1.5722755,0.7846987,0.039999966,0.039999947,0.008188372926309917,0.007278065965357601,0.012710441138596984,0.00043412186310160493,-0.021728753699331353,0.012263274819167832,0.9999994345422094,0.00022847491581935806,0.0002976175015811563,0.000995056931585145
2664.6000000063173,-0.00069390604,-0.7839673,-0.0008792908,-2.3556685,0.0016004075,1.5724322,0.7845428,0.03999997,0.039999947,0.008471836560675072,0.00759452290264675,0.013640684203175546,0.00047188498194129444,-0.022499413929443268,0.013263292257519469,0.9999992896512562,0.00023172149728246268,0.00036657466142367054,0.0011102365280430068
2664.616666672984,-0.0007934897,-0.7838922,-0.000985427,-2.3556113,0.0017742371,1.5726012,0.7843746,0.039999973,0.03999995,0.008624036131821278,0.00791084103229855,0.013783372480768996,0.000512074583870939,-0.023290441248411786,0.01430071417401392,0.9999991125179367,0.00023524903064476706,0.0004424751498942594,0.0012344379184006534
2664.633333339651,-0.0009006193,-0.7838125,-0.0010995906,-2.3555484,0.0019612014,1.5727829,0.7841938,0.039999977,0.039999954,0.008730210254515036,0.00822609084396441,0.014578712276991368,0.0005541375472581395,-0.024099588824081086,0.015375787977011737,0.9999988977188279,0.0002391525483391422,0.0005253285882889231,0.0013679901542534992
2664.650000006318,-0.0010155619,-0.78372824,-0.0012220658,-2.3554797,0.002161765,1.5729779,0.78399986,0.039999984,0.039999958,0.008970380344730522,0.008539888041041903,0.015109939250201876,0.0005978108700938171,-0.02492991905492399,0.01648876345834968,0.9999986390731596,0.00024337541034210206,0.0006155035179675183,0.0015112166151925236
2664.666666672985,-0.0011385801,-0.78363913,-0.0013531322,-2.3554056,0.0023763843,1.5731868,0.78379226,0.03999999,0.039999966,0.00846689237461451,0.00885207674304233,0.015491204639461742,0.0006438743339533363,-0.02578231871142302,0.017637249073805386,0.9999983299029266,0.0002479178218799159,0.000713011977017052,0.0016644344480852863
2664.6833333396517,-0.0012699345,-0.78354514,-0.0014930659,-2.3553257,0.0026055097,1.5734092,0.7835706,0.03999999,0.03999996,0.008746379756252587,0.009164031520603536,0.01545246258849442,0.0006920550860421495,-0.026656148836689715,0.018822264042174876,0.999997962902219,0.00025280715876039407,0.0008178374178751073,0.0018279556642910423
2664.7000000063185,-0.00140988,-0.78344584,-0.0016421378,-2.3552399,0.0028495847,1.5736463,0.78333455,0.03999999,0.03999996,0.009048080268425629,0.009476761285423874,0.016592588246577833,0.0007431130013030689,-0.027554437194172915,0.020041353280824264,0.9999975296492266,0.0002581283261381069,0.0009304413325166443,0.0020020849477372276
2664.7166666729854,-0.0015586674,-0.7833408,-0.0018006145,-2.3551476,0.0031090465,1.5738984,0.7830836,0.03999999,0.039999958,0.009529611647596248,0.009786956658652153,0.017306818228934873,0.0007958948005100022,-0.028473655867712656,0.021295488846793442,0.9999970210877628,0.00026384350448794246,0.0010510484116037322,0.0021871212682706594
2664.7333333396523,-0.001716544,-0.78323,-0.0019687584,-2.3550494,0.0033843224,1.5741663,0.7828174,0.039999995,0.03999996,0.008900996751659562,0.010097807308542218,0.017656228102969074,0.0008511813648491139,-0.02941410938135367,0.022582167143786365,0.99999642742594,0.00027000259291168544,0.0011797654387434514,0.0023833563447610124
2664.750000006319,-0.0018837512,-0.78311336,-0.0021468264,-2.354945,0.0036758322,1.5744498,0.7825355,0.04,0.03999996,0.009225172194349263,0.010404403563414807,0.01770515928087857,0.0009088729009594822,-0.030377520183866427,0.023902297066043243,0.9999957381323487,0.0002765907010783092,0.0013166412699937163,0.0025910751609186486
2664.766666672986,-0.002060527,-0.78299093,-0.0023350727,-2.3548346,0.0039839884,1.5747492,0.78223747,0.04,0.039999966,0.00902409051983799,0.010713282222632554,0.017827148337135057,0.0009694979215365586,-0.031364327549865866,0.025253180823265456,0.9999949417340817,0.00028365152650997315,0.0014617858515653032,0.002810556917455212
2664.783333339653,-0.0022471028,-0.78286237,-0.0025337432,-2.354717,0.0043091965,1.5750655,0.7819229,0.04,0.039999966,0.010948636819962942,0.011023797060095769,0.019182066960632405,0.0010326757800941458,-0.0323755887691694,0.026635318780571363,0.9999940246816749,0.0002911643891684667,0.0016160560257414034,0.003042069553100524
2664.80000000632,-0.002443709,-0.78272766,-0.002743081,-2.3545928,0.004651852,1.5753988,0.7815915,0.04,0.039999958,0.010242449594666247,0.011332236892081567,0.019141125409083415,0.001099440215601634,-0.03340602639400539,0.02804796396743218,0.9999929736576995,0.00029922718356501426,0.0017793563815021714,0.0032858772332219704
2664.8166666729867,-0.0026505683,-0.782586,-0.002963323,-2.3544612,0.0050123422,1.5757495,0.78124285,0.039999995,0.03999995,0.010678604594183128,0.011643269574860421,0.020196835861541196,0.0011685789450312754,-0.03445567262287471,0.029489751570511303,0.9999917740455491,0.0003078443674140003,0.001951831989061094,0.003542234459701825
2664.8333333396536,-0.0028678977,-0.7824378,-0.003194702,-2.354323,0.005391046,1.5761182,0.78087664,0.04,0.039999954,0.010214408297182231,0.011947215579589422,0.02004375305431072,0.001240844343037957,-0.03552675255869518,0.030959402255395636,0.9999904100352351,0.0003170465384848723,0.0021336893209682587,0.003811389370839643
2664.8500000063204,-0.0030959104,-0.78228277,-0.0034374443,-2.3541772,0.0057883332,1.5765047,0.78049237,0.04,0.03999995,0.010994197432445674,0.012253829256928216,0.02038451341483949,0.001316165225027588,-0.036618893460579865,0.032456753942412056,0.9999888649811732,0.0003268002357404914,0.0023250178353534335,0.004093581236072208
2664.8666666729873,-0.0033348156,-0.78212076,-0.0036917706,-2.3540244,0.0062045655,1.5769097,0.7800898,0.04,0.039999954,0.010722584217126574,0.012562533050391247,0.020871248875375947,0.0013953310048160257,-0.03773345240617613,0.03398051057553886,0.9999871208182806,0.00033719104152073816,0.0025260277618945506,0.004389041297734101
2664.883333339654,-0.0035848147,-0.7819513,-0.003957898,-2.3538644,0.0066400985,1.5773332,0.77966845,0.04,0.039999947,0.010270597777450874,0.012865703658375416,0.02122437837461799,0.0014776935850127695,-0.038868091937231515,0.035529311859684755,0.9999851592720456,0.00034818087204229603,0.0027365742920607418,0.004697996050037834
2664.900000006321,-0.0038461077,-0.7817747,-0.0042360346,-2.3536968,0.0070952736,1.5777762,0.7792282,0.04,0.03999995,0.011724803044854681,0.013181508744333943,0.021881921001964955,0.001564529007642347,-0.040029115453331085,0.03710298517045599,0.9999829582021327,0.0003599076051294225,0.002957497378688476,0.005020655443537315
2664.916666672988,-0.0041188854,-0.7815907,-0.0045263898,-2.3535218,0.0075704227,1.5782386,0.7787686,0.04,0.03999995,0.011099035114781053,0.013490243095118544,0.02190278107463417,0.0016546815614661217,-0.04120698188119625,0.03869979601196809,0.9999804969754572,0.00037232733153717487,0.0031885969343841843,0.005357227890052227
2664.933333339655,-0.004403338,-0.7813989,-0.0048291627,-2.3533392,0.0080658775,1.5787205,0.77828944,0.04,0.039999954,0.011088512791967986,0.013797071050798086,0.02223869164379444,0.0017489237109557347,-0.04240739822480695,0.04031961981317741,0.9999777534357673,0.0003855429002841114,0.0034298234107444313,0.0057079156965299475
2664.9500000063217,-0.004699647,-0.781199,-0.0051445444,-2.353149,0.008581949,1.579223,0.77779025,0.04,0.039999947,0.01122865009053342,0.014116434658999893,0.0233738152666918,0.0018469169144021969,-0.043630918700118454,0.04196092141421366,0.9999747022575837,0.00039950640609797794,0.0036817263219453334,0.006072901347687773
2664.9666666729886,-0.0050079892,-0.7809913,-0.0054727267,-2.352951,0.009118952,1.5797453,0.77727085,0.04,0.03999994,0.011334902819948312,0.014411231597709264,0.022363663451296922,0.0019496220529919284,-0.04487467445427628,0.043622460003935944,0.9999713196545985,0.00041430932961716654,0.0039439925356065525,0.006452374671323866
2664.9833333396555,-0.0053285374,-0.78077555,-0.0058138906,-2.352745,0.009677184,1.5802886,0.77673084,0.04,0.039999943,0.01226644212624084,0.014738858511197193,0.023832799203549193,0.0020565972887728705,-0.04614319285652409,0.04530382223394958,0.9999675763462949,0.00042992892790444235,0.004217444417186394,0.006846501283279452
2665.0000000063224,-0.00566146,-0.78055173,-0.0061682165,-2.3525307,0.010256933,1.5808527,0.7761701,0.04,0.03999994,0.012683636148569377,0.015054527129051715,0.023628449058343826,0.002168698362888327,-0.04743055727478565,0.0470038379904021,0.9999634444501061,0.0004464840207208086,0.004502101180323117,0.007255446262024322
2665.0166666729892,-0.0060069165,-0.78031963,-0.0065358737,-2.3523083,0.01085848,1.581438,0.7755882,0.04,0.03999994,0.012188328197715315,0.015362659220443178,0.023911293227230068,0.0022851349632790827,-0.04873770184084375,0.048721374343912785,0.9999588950139724,0.00046397141382997314,0.0047979554531173245,0.007679364324749014
2665.033333339656,-0.006365065,-0.78007925,-0.00691703,-2.352078,0.011482099,1.5820448,0.7749851,0.04,0.03999994,0.012039174731537372,0.015681002912182763,0.024234287258351195,0.002407049491434568,-0.050068107634187425,0.050455001218049855,0.9999538965723054,0.00048247824990026026,0.005105240162069627,0.00811840301346896
2665.050000006323,-0.006736057,-0.77983034,-0.0073118485,-2.3518395,0.0121280495,1.5826732,0.7743603,0.04,0.039999936,0.01216979838143395,0.016000923551761064,0.024286234780235283,0.0025334458549136282,-0.051418237503345315,0.05220443781014837,0.9999484177664136,0.0005019958057766655,0.005423893429776706,0.008572700083350532
2665.06666667299,-0.007120038,-0.7795728,-0.0077204825,-2.3515925,0.012796588,1.5833238,0.7737136,0.04,0.03999993,0.013192043786158791,0.016331115717012346,0.025171437132054386,0.0026657054861582985,-0.05279013535103346,0.05396837381097834,0.999942421965727,0.0005225444028364441,0.005754570960340341,0.009042378764766568
2665.0833333396567,-0.0075171487,-0.7793065,-0.008143081,-2.351336,0.013487961,1.5839967,0.7730449,0.04,0.03999994,0.014723270258776289,0.016661597949462793,0.02556043796499985,0.002803491683724596,-0.05418211826179657,0.05574521102988617,0.99993587176422,0.0005442561137463886,0.006097691550195162,0.009527554889407276
2665.1000000063236,-0.007927526,-0.77903146,-0.008579795,-2.3510714,0.014202402,1.5846919,0.7723539,0.04,0.039999932,0.012501282543952996,0.016973782118472232,0.025047948237144624,0.0029471096516870826,-0.05558979793810425,0.05753511642521778,0.9999287337372731,0.0005671491768854838,0.006452753866334424,0.010028347616886073
2665.1166666729905,-0.0083513,-0.77874744,-0.0090307575,-2.3507981,0.014940141,1.5854095,0.7716405,0.04,0.039999925,0.013061382221390971,0.017295558594211842,0.025413330498591513,0.0030962633726560954,-0.057019137082327545,0.05933634965774419,0.9999209694239055,0.0005913211840530794,0.006819913880112517,0.010544857527829476
2665.1333333396574,-0.008788598,-0.77845454,-0.009496104,-2.350516,0.015701395,1.5861503,0.7709039,0.04,0.03999992,0.013918989411054739,0.01764180041177732,0.025961858556766693,0.0032514855360639833,-0.05847116038582651,0.061147539059588474,0.9999125358519493,0.0006165447619788304,0.007199780700930787,0.011077169157286102
2665.1500000063243,-0.009239543,-0.77815276,-0.009975968,-2.350226,0.01648637,1.5869142,0.77014476,0.04,0.039999925,0.01278218904801065,0.017968759689671564,0.025622651912193817,0.0034146405241063243,-0.059941019771304165,0.06296771142032431,0.9999033940178123,0.0006433062820821407,0.00759206445424134,0.01162537509114279
2665.166666672991,-0.009704246,-0.7778417,-0.010470464,-2.3499265,0.017295271,1.5877013,0.7693623,0.04,0.03999993,0.01448044979264207,0.01830509888066361,0.02645904829694512,0.0035827377446362163,-0.06143191337839618,0.06479667220784725,0.9998934982098368,0.0006713340409976354,0.007997290512088251,0.012189540301664466
2665.183333339658,-0.010182817,-0.7775213,-0.010979712,-2.3496175,0.018128287,1.5885117,0.7685564,0.04,0.039999925,0.014980798286678976,0.018651162136774403,0.02654154719505808,0.003758778992505256,-0.06294222861844025,0.06663277014689864,0.9998828029988109,0.0007007762640688457,0.008415654516869127,0.012769727441157931
2665.200000006325,-0.010675363,-0.7771917,-0.011503829,-2.3492992,0.018985607,1.5893458,0.767727,0.04,0.039999917,0.014892533331734015,0.01899767903343688,0.026729035281913838,0.00394196358291897,-0.0644705404803994,0.06847497737675241,0.9998712609875912,0.0007316957317650699,0.008847385656648686,0.013365995641291395
2665.216666672992,-0.011181985,-0.7768527,-0.012042919,-2.3489718,0.019867402,1.5902038,0.766874,0.04,0.039999917,0.014488104885601594,0.019334460324262233,0.026753267305501538,0.004132551000181506,-0.0660158199693488,0.07032155797225927,0.9998588255176044,0.0007642067018791579,0.009292446602778373,0.013978392568824168
2665.2333333396587,-0.011702779,-0.7765042,-0.012597081,-2.3486364,0.020773835,1.5910856,0.7659972,0.04,0.039999917,0.012753426722689198,0.019653330974568443,0.02640547709147345,0.004330371482560283,-0.06757971985318267,0.07217299577882919,0.9998454529454488,0.0007983342683084553,0.00975035691987582,0.014606965004452944
2665.2500000063255,-0.012237834,-0.77614623,-0.013166419,-2.348291,0.021705069,1.5919917,0.7650964,0.04,0.039999917,0.01635013043734812,0.020062033941944078,0.02753997553706089,0.004535963896326559,-0.06916886117882189,0.07402651567803796,0.9998310812698257,0.0008341869616058346,0.01022242531081023,0.01525172382680541
2665.2666666729924,-0.012787235,-0.7757787,-0.013751021,-2.3479364,0.022661246,1.5929221,0.7641715,0.04,0.03999991,0.014756509907809523,0.02038683539868375,0.027119766054650718,0.004748919378422721,-0.07077170534334537,0.07588387265360075,0.9998156629310787,0.0008717534462785685,0.010708236575757526,0.0159126953422058
2665.2833333396593,-0.013351066,-0.7754016,-0.0143509675,-2.347572,0.023642508,1.593877,0.7632223,0.04,0.03999992,0.016065766979567186,0.02076162944815458,0.027525475561041013,0.004970209002245499,-0.07239376143248996,0.0777410981467464,0.9997991400094217,0.0009111367946517897,0.011208270158503493,0.016589880837919593
2665.300000006326,-0.0139294015,-0.7750148,-0.014966349,-2.347199,0.024648989,1.5948565,0.7622487,0.04,0.039999966,0.014555223703105469,0.021106798985218167,0.02727836962213015,0.005200136474247885,-0.07403223286884912,0.07959921750841549,0.9997814610435724,0.0009524168989259998,0.011722233942766662,0.017283295027909002
2665.316666672993,-0.014522313,-0.7746183,-0.0155972345,-2.3468163,0.025680816,1.5958606,0.7612506,0.04,0.03999996,0.015791253370123215,0.021472305992728535,0.027504343641426843,0.005438450013718857,-0.07569116014761706,0.08145628506214636,0.9997625661719447,0.0009956581970729747,0.012250493648466653,0.017992925037676806
2665.33333333966,-0.015129867,-0.77421224,-0.016243696,-2.3464246,0.026738092,1.5968895,0.7602278,0.04,0.03999996,0.01530583789051132,0.021839332521016858,0.027360900654938014,0.005685813592380386,-0.07736683452375269,0.08330879258704657,0.9997423977131972,0.0010408715250811115,0.012793090697884748,0.018718750800511826
2665.350000006327,-0.015752124,-0.77379626,-0.0169058,-2.3460224,0.02782094,1.5979432,0.7591804,0.04,0.039999958,0.01754733813033038,0.022242391815376072,0.028123335011587258,0.005942404705418389,-0.07906126722357006,0.08516022112846651,0.9997208882187146,0.0010882673155420664,0.013350690912335688,0.019460739595339442
2665.3666666729937,-0.016389145,-0.77337044,-0.017583609,-2.3456118,0.028929451,1.5990217,0.758108,0.04,0.039999958,0.0140519203956746,0.02255640346681652,0.027098620612853175,0.00620780896983416,-0.0807702064141766,0.08700632972927523,0.9996979895078284,0.0011377408286130705,0.013922360002904555,0.02021888255473739
2665.3833333396606,-0.017040975,-0.7729347,-0.018277181,-2.3451908,0.03006371,1.6001252,0.7570108,0.04,0.03999995,0.017810929966688427,0.02301442811933757,0.02824281585320776,0.006483462544155542,-0.08250182620539552,0.08884837952611505,0.9996736236945627,0.0011895234408231651,0.014509333334730123,0.020993102904221572
2665.4000000063274,-0.017707663,-0.7724889,-0.018986555,-2.3447602,0.0312238,1.601254,0.75588864,0.04,0.039999947,0.01631386370353205,0.02335070083609725,0.02798420084839659,0.006768249028377103,-0.08424824552463049,0.090683574060346,0.9996477311332312,0.0012436453165500779,0.0151113334254188,0.02178335577030498
2665.4166666729943,-0.018389257,-0.7720333,-0.019711792,-2.34432,0.032409806,1.602408,0.7547413,0.04,0.039999947,0.01664997084724895,0.02375654039608044,0.027828596072132505,0.007063225749440544,-0.08601061408452537,0.09251175097405989,0.9996202441406755,0.0013001409287583267,0.0157285623237274,0.02258958753342912
2665.433333339661,-0.019085793,-0.77156776,-0.020452928,-2.3438704,0.03362179,1.6035875,0.75356877,0.04,0.03999995,0.016757079875495684,0.024137383260603232,0.02789695602403164,0.007368643970398395,-0.08778954903934552,0.09433072064377404,0.9995910946085053,0.0013590917120480963,0.016361162821709227,0.02341172356342189
2665.450000006328,-0.019797305,-0.7710921,-0.02120999,-2.3434112,0.0348598,1.6047921,0.75237113,0.04,0.039999947,0.01653960216865258,0.024525695171604203,0.027804120435415136,0.007685195050638291,-0.08958425679148808,0.09614149586455538,0.9995602174188284,0.0014206658320393465,0.017009009362982285,0.024249681703235226
2665.466666672995,-0.020523818,-0.77060664,-0.02198302,-2.342942,0.036123905,1.6060221,0.7511482,0.04,0.039999943,0.01792309312005358,0.02493217552702598,0.027955235495880082,0.008011642250389556,-0.09139764810576073,0.09794170420998632,0.9995275335924815,0.0014848810873269195,0.01767272722315104,0.02510337489628519
2665.483333339662,-0.021265361,-0.770111,-0.022772035,-2.3424633,0.03741413,1.6072778,0.74990004,0.04,0.039999947,0.016982053804981412,0.025337620610810588,0.028031887583157555,0.008349192153361287,-0.09322550218329845,0.09973146980405934,0.9994929758091493,0.0015518519070980429,0.01835216610837165,0.02597269841507614
2665.5000000063287,-0.022021957,-0.7696052,-0.023577068,-2.3419747,0.038730524,1.6085588,0.74862653,0.04,0.03999994,0.01738681461924685,0.025745258552521688,0.027931057808228132,0.008697928095034432,-0.09506844315607522,0.10150889992858847,0.9994564710872375,0.0016216551596952263,0.01904741764257604,0.026857559783765052
2665.5166666729956,-0.022793619,-0.7690895,-0.024398133,-2.3414767,0.040073097,1.6098652,0.7473277,0.04,0.039999943,0.017461317640399265,0.02614530970008362,0.027583346872783743,0.009057932233508384,-0.09692766279862484,0.10327325423396802,0.9994179446295719,0.0016943882249707083,0.01975863301378369,0.027757835332957104
2665.5333333396625,-0.02358036,-0.7685638,-0.025235241,-2.3409684,0.041441888,1.6111972,0.7460035,0.04,0.03999994,0.01878989739361181,0.026585215805420212,0.028067853900282103,0.009429480361734244,-0.09880262678513906,0.10502354309976963,0.9993773123007607,0.0017701515043485193,0.020486352766331158,0.02867339485468878
2665.5500000063294,-0.024382187,-0.76802796,-0.026088394,-2.3404503,0.042836893,1.6125548,0.74465394,0.04,0.03999994,0.017936804280260787,0.026980826708663044,0.027766427213071765,0.009812653483811482,-0.10069083656577735,0.10675901226161796,0.9993345037299785,0.0018490145699678901,0.021230345056783347,0.02960410864470396
2665.5666666729962,-0.0251991,-0.76748204,-0.026957605,-2.339923,0.044258144,1.6139381,0.7432789,0.04,0.039999932,0.0174144633231732,0.02737491546408559,0.027619887665975007,0.010207886265376262,-0.10259354327040479,0.10847819542603321,0.9992894419119962,0.0019310507794143795,0.02199064855760481,0.03054985600807756
2665.583333339663,-0.026031101,-0.7669262,-0.027842872,-2.3393862,0.04570561,1.6153466,0.74187875,0.04,0.039999932,0.01756380287969428,0.027782208691246035,0.0269966193889859,0.010615643151383206,-0.10451031330310194,0.11018112577213131,0.9992420519721497,0.002016491758513697,0.022767177822176302,0.03151048945175297
2665.60000000633,-0.026878182,-0.7663602,-0.028744182,-2.338839,0.047179293,1.6167806,0.7404531,0.04,0.039999932,0.01960171163704061,0.028280131220397714,0.02795190998461372,0.011034644109683703,-0.10644577501367203,0.11186605187760643,0.9991922389313707,0.0021052807228071698,0.023560751020833347,0.03248581942520588
2665.616666672997,-0.02774033,-0.76578414,-0.029661538,-2.338282,0.048679177,1.6182406,0.7390019,0.04,0.03999993,0.018739920655663767,0.028700020358113365,0.027653664167770486,0.011466853043728811,-0.10839119942733083,0.1135328183548863,0.9991399241326221,0.002197457734838396,0.024371322032629514,0.03347569037590742
2665.6333333396637,-0.028617542,-0.7651979,-0.030594917,-2.337716,0.050205242,1.619727,0.73752546,0.04,0.039999932,0.01772699971474001,0.029129727525624427,0.02775411982616216,0.011912602294759295,-0.11034824831985726,0.11517994749086419,0.9990850266834876,0.00229327966535882,0.025198898238376552,0.034479934060309525
2665.6500000063306,-0.029509796,-0.7646018,-0.031544305,-2.3371406,0.051757436,1.6212369,0.73602384,0.04,0.039999917,0.018147194231521446,0.02941397370654214,0.025447402264999752,0.012371003095760127,-0.11231903117360216,0.11680640222683356,0.999027487701716,0.002392825988773253,0.026042568848330436,0.035498419795326565
2665.6666666729975,-0.03041707,-0.7639956,-0.032509673,-2.3365545,0.053335734,1.6227728,0.7344968,0.04,0.03999992,0.02035219363518692,0.030056880564954813,0.02782510226488899,0.012842111120797861,-0.11431000117998674,0.11841198287840535,0.9989671866965127,0.0024960730792094343,0.026903989110633856,0.03653087588291009
2665.6833333396644,-0.031339336,-0.76337916,-0.033490986,-2.3359587,0.0549401,1.624334,0.73294455,0.04,0.039999917,0.019018561540629086,0.030391908936668738,0.026890821383029895,0.013327480498157337,-0.11630820669523301,0.11999535475224882,0.9989040543678056,0.002603238763711899,0.027782573812064157,0.03757714608477078
2665.7000000063313,-0.032276567,-0.76275283,-0.034488223,-2.335354,0.05657048,1.6259205,0.73136735,0.04,0.039999906,0.01790825582645983,0.030798498072665687,0.026279161452125166,0.013826342127806895,-0.11831958534522088,0.12155561611411253,0.9988380107409693,0.0027145005417404154,0.028678186522429566,0.03863704703541396
2665.716666672998,-0.033228736,-0.7621166,-0.03550136,-2.3347392,0.058226816,1.6275326,0.7297649,0.04,0.03999991,0.020595577752646754,0.03136999600879681,0.02686329750725136,0.014337489615121088,-0.12034591844790343,0.12309203460664038,0.9987689480830199,0.002829783793806187,0.029591741547266327,0.0397103198302165
2665.733333339665,-0.0341958,-0.76147044,-0.03653034,-2.3341143,0.059909027,1.6291695,0.72813743,0.04,0.039999913,0.020016906031705695,0.031733550479656064,0.026158161643352607,0.014863277842746686,-0.1223805583768272,0.12460403579505157,0.9986967913054836,0.002949287881876387,0.03052286211861665,0.040796759984208605
2665.750000006332,-0.03517772,-0.7608144,-0.037575122,-2.3334806,0.061617047,1.6308317,0.7264851,0.04,0.03999991,0.01845299902780706,0.03215891651953476,0.025883341782884095,0.015403144997005708,-0.12442525113745663,0.12609087235732805,0.9986214577223759,0.0030731399712499003,0.03147144495430628,0.04189615900821977
2665.766666672999,-0.036174428,-0.76014847,-0.03863567,-2.332837,0.063350804,1.6325191,0.72480774,0.04,0.039999917,0.020047445103577033,0.032643960305158565,0.02606139225604931,0.015956556378256853,-0.12648300337684926,0.12755241527169925,0.9985428490941085,0.003201360493037827,0.032437924431302056,0.04300826516616404
2665.7833333396657,-0.037185907,-0.7594726,-0.039711915,-2.3321843,0.06511019,1.6342314,0.72310555,0.04,0.039999913,0.019357915119666558,0.033075980430482405,0.0255144484583969,0.01652453875942457,-0.12855028986989245,0.12898529471118225,0.9984608852644458,0.0033340811510590043,0.03342210642209585,0.044132837005200376
2665.8000000063325,-0.038212094,-0.758787,-0.040803812,-2.331522,0.06689514,1.6359684,0.7213786,0.04,0.03999991,0.01998700972767331,0.033519573778093004,0.025234357922632178,0.017107316956201754,-0.13062775108149074,0.13039174530522626,0.9983754727462774,0.0034714157264172777,0.0344241845990774,0.045269638900595176
2665.8166666729994,-0.039252926,-0.7580914,-0.041911304,-2.3308501,0.068705566,1.6377301,0.7196271,0.04,0.039999906,0.01993364231678285,0.03397103918627575,0.0251986554204775,0.017704880435577122,-0.1327166150854729,0.1317687599461721,0.998286522769373,0.0036134860703675668,0.03544420267740306,0.046418419533807945
2665.8333333396663,-0.040308338,-0.75738627,-0.043034326,-2.3301687,0.07054133,1.6395167,0.7178511,0.04,0.039999902,0.020667870997836957,0.034464115098057496,0.024967144404519637,0.018316871046414163,-0.13481466740821246,0.13311676681589119,0.9981939328951522,0.0037604345371621156,0.03648261726601243,0.047578882929529734
2665.850000006333,-0.04137827,-0.75667113,-0.044172794,-2.3294778,0.072402366,1.641328,0.71605045,0.04,0.039999895,0.02017708780814864,0.03487254515566959,0.024931236156344738,0.01894348755102633,-0.1369193167601087,0.1344350861059515,0.9980976222614136,0.003912200826358457,0.03753921297969127,0.04875078060577126
2665.866666673,-0.042462677,-0.75594646,-0.04532667,-2.3287778,0.074288495,1.6431637,0.71422553,0.04,0.039999895,0.01997088256286972,0.03537642207341596,0.02410427235230994,0.019586042240421375,-0.13903310136682157,0.13572266591762625,0.9979975022331122,0.0040690558302591134,0.03861399465452057,0.04993383359947346
2665.883333339667,-0.04356147,-0.75521225,-0.046495847,-2.328069,0.07619962,1.6450236,0.71237653,0.04,0.039999884,0.019620894952776524,0.03572465779475009,0.02367185115406123,0.02024323393474281,-0.14115477231017576,0.136979521262318,0.997893488217164,0.004231118787441187,0.0397068530578769,0.05112777745831987
2665.900000006334,-0.04467457,-0.7544685,-0.04768028,-2.3273501,0.07813564,1.6469078,0.7105035,0.04,0.039999884,0.021906580013197896,0.03632560830201942,0.024085729691503133,0.020915389597336353,-0.14328585398378768,0.13820414196536016,0.9977854623797973,0.004398468219259354,0.040818573642553486,0.05233229009556057
2665.9166666730007,-0.04580191,-0.75371534,-0.048879843,-2.3266222,0.08009641,1.6488159,0.70860636,0.04,0.039999887,0.02035367158974566,0.03661700788208516,0.023096659252352936,0.02160220876103716,-0.1454197051532379,0.13939598855195973,0.9976733560872433,0.0045710717997818374,0.04194863636721248,0.05354709855024319
2665.9333333396676,-0.04694342,-0.7529528,-0.05009448,-2.3258853,0.082081765,1.6507483,0.7066855,0.04,0.03999988,0.020747909900542538,0.03720354666058162,0.02321371176023934,0.022305521448371016,-0.14756118329406295,0.14055590849314015,0.9975570649926051,0.004749210653280429,0.04309742750821872,0.05477187986260692
2665.9500000063344,-0.048098996,-0.7521808,-0.051324103,-2.325139,0.08409156,1.6527044,0.70474094,0.04,0.039999876,0.020950540063191525,0.03762143043003208,0.022772494043477032,0.023023388144393434,-0.14970600391705977,0.14168045164605952,0.9974365047985877,0.004932931689710829,0.044264836294002526,0.05600633310605574
2665.9666666730013,-0.04926855,-0.75139946,-0.052568603,-2.324384,0.08612565,1.6546841,0.70277274,0.04,0.039999887,0.020356697500067966,0.037999212217934564,0.022223978288460344,0.023757046724262626,-0.15185552376807068,0.1427704366676576,0.9973115916423243,0.005122265431160775,0.045450752627879176,0.057250158587255906
2665.983333339668,-0.050452,-0.75060874,-0.053827908,-2.3236196,0.08818388,1.6566873,0.7007814,0.04,0.0399999,0.02129259128214045,0.0385401916709438,0.022134773098425597,0.02450687587465769,-0.15401226925407197,0.14382581524936394,0.9971822234505611,0.0053175183865781265,0.046655465949380893,0.058503031797075784
2666.000000006335,-0.051649258,-0.74980885,-0.05510189,-2.3228462,0.0902661,1.6587137,0.6987667,0.04,0.039999895,0.02114118306897339,0.038913979153722134,0.02155254231304138,0.02527090073005496,-0.15617110196876838,0.1448470708319571,0.9970483137635721,0.005518587173918342,0.0478789586163536,0.05976462614820511
2666.016666673002,-0.052860204,-0.749,-0.05639045,-2.3220642,0.09237213,1.6607634,0.6967291,0.04,0.039999906,0.02072553770564589,0.039316571990502536,0.02099632863312717,0.02605132480927995,-0.15833268407803763,0.14583048735164453,0.9969097738231562,0.00572572987116536,0.04912121874251331,0.061034619213658284
2666.033333339669,-0.054084748,-0.7481818,-0.057693493,-2.3212738,0.09450176,1.6628363,0.69466865,0.04,0.039999902,0.019933689056594872,0.03980854732266309,0.02093536258611639,0.02684690819295117,-0.16049754386267853,0.14677700198259502,0.9967665265278808,0.0059389990595531345,0.050382039607895134,0.062312679036153396
2666.0500000063357,-0.05532279,-0.7473545,-0.059010904,-2.3204749,0.09665486,1.6649318,0.69258547,0.04,0.039999906,0.02050421239756517,0.04017783129415253,0.02015995116744218,0.027658277917505733,-0.1626665564755347,0.14768656478758133,0.9966184843567949,0.006158474388654482,0.05166141722776308,0.06359848898824817
2666.0666666730026,-0.05657423,-0.7465184,-0.060342565,-2.3196669,0.09883126,1.66705,0.69047976,0.04,0.0399999,0.021928169076934623,0.040699598500905376,0.020108711883626285,0.028485095962994908,-0.1648397821998125,0.14855886813131008,0.9964655314674843,0.006384260643897672,0.052959966160282444,0.06489166200334674
2666.0833333396695,-0.057838947,-0.74567324,-0.061688375,-2.31885,0.10103068,1.6691909,0.68835175,0.04,0.039999887,0.021363642122551596,0.041191040453725236,0.01979359706318906,0.02932808084837557,-0.16701143443425714,0.14939078302241343,0.9963075906463221,0.006616497649273991,0.05427752113628562,0.066191823352116
2666.1000000063364,-0.05911684,-0.7448195,-0.06304819,-2.3180246,0.10325297,1.6713538,0.68620163,0.04,0.039999887,0.02135006546795104,0.04148308123147343,0.01877801854850425,0.03018606551888378,-0.16918204223617386,0.1501860266477561,0.9961445788761395,0.006855256443034815,0.055613981955848754,0.06749865514062729
2666.1166666730032,-0.060407788,-0.7439571,-0.064421915,-2.3171911,0.10549795,1.6735388,0.68402946,0.04,0.039999884,0.020481085707801938,0.04189210838623225,0.018409944094988084,0.031059336299366844,-0.17135109336850302,0.1509438864784373,0.9959764198850778,0.007100595062152002,0.056969159779017814,0.06881182614012696
2666.13333333967,-0.061711673,-0.7430859,-0.065809436,-2.3163493,0.107765436,1.6757462,0.68183553,0.04,0.039999876,0.021085168472412263,0.042429732628157524,0.018538394755496235,0.031949148944954514,-0.17352124969696806,0.1516616032754206,0.9958030090417641,0.007352692615730122,0.058343417580880116,0.07013095407628496
2666.150000006337,-0.06302836,-0.7422064,-0.06721056,-2.3154993,0.110055156,1.6779749,0.6796198,0.04,0.039999865,0.02086483616161594,0.042624006516883695,0.017170844826797094,0.03285370797941231,-0.17568818959503985,0.15233658855838456,0.9956242844714633,0.007611439040285603,0.05973641101583503,0.07145566013528794
2666.166666673004,-0.06435776,-0.7413184,-0.06862523,-2.3146415,0.1123669,1.680225,0.6773828,0.04,0.039999865,0.02040182047382544,0.04316422270141951,0.01687444220555001,0.03377552197857758,-0.17785359599348294,0.15297458705613842,0.9954401644721362,0.00787718580910169,0.06114804523699028,0.07278561302283737
2666.1833333396708,-0.06569973,-0.74042165,-0.07005325,-2.3137755,0.11470047,1.6824965,0.6751246,0.04,0.03999987,0.020608147790657227,0.04356604807032316,0.016974495524779698,0.03471205974062827,-0.18001909305908367,0.15357281049778326,0.995250563044673,0.008149889876526527,0.06257844575916557,0.07412040326812255
2666.2000000063376,-0.0670541,-0.7395168,-0.0714945,-2.3129017,0.11705565,1.6847888,0.6728459,0.04,0.039999858,0.02081286843469421,0.04378703759673891,0.015692987148763216,0.03566504461939611,-0.18218074718983499,0.15412643961291989,0.9950553980264945,0.008429897804812252,0.06402752791201391,0.07545970680311113
2666.2166666730045,-0.0684208,-0.73860365,-0.07294887,-2.3120203,0.11943219,1.6871017,0.6705462,0.04,0.03999985,0.020211314191076468,0.044304749157622614,0.015332652231259125,0.03663083285740716,-0.1843390141757678,0.154643613063757,0.9948546026599105,0.00871695303149483,0.06549513989528058,0.07680313109721526
2666.2333333396714,-0.06979965,-0.73768234,-0.07441617,-2.3111293,0.12182986,1.6894355,0.6682262,0.04,0.039999843,0.023938831810044192,0.04488665636300654,0.015890568941889782,0.03761337631965632,-0.18649488279563955,0.1551160246480735,0.9946480283870901,0.009011358541609305,0.06698245533316195,0.07815014856319856
2666.2500000063383,-0.07119051,-0.73675317,-0.0758963,-2.310231,0.12424842,1.6917894,0.665886,0.04,0.039999828,0.020294132535259024,0.04497789453056511,0.014052075548964815,0.03861038159638047,-0.18863621023155486,0.15554605591629106,0.9944356616473444,0.009313151762061425,0.06848828818152876,0.07950053100595578
2666.266666673005,-0.0725933,-0.73581594,-0.077389084,-2.309325,0.1266876,1.6941636,0.6635258,0.04,0.039999813,0.020619542432287474,0.04547098241572539,0.014033823283465807,0.039621281265363906,-0.19077402511884958,0.15593858539038194,0.994217418638368,0.0096224482367665,0.0700127931700472,0.08085382958474586
2666.283333339672,-0.0740078,-0.73487085,-0.0788944,-2.3084118,0.1291472,1.6965576,0.661146,0.04,0.039999794,0.01993014820897976,0.045663508101144445,0.013184954292766449,0.0406474975594885,-0.19290253324046933,0.15628466087833714,0.9939932347860446,0.00993934298960604,0.0715557109514603,0.08220972503749949
2666.300000006339,-0.07543393,-0.73391813,-0.08041205,-2.307491,0.1316269,1.6989713,0.6587465,0.04,0.03999979,0.02099818560510336,0.04612864619789603,0.01264687600524006,0.04168742257160449,-0.19502608717902775,0.15659288995667228,0.9937630252400091,0.010263790097653602,0.07311728620105407,0.08356773741851373
2666.316666673006,-0.076871514,-0.7329577,-0.081941895,-2.306563,0.13412651,1.7014042,0.6563278,0.04,0.039999772,0.020475730587454777,0.04637258155072571,0.012114351451986138,0.04274290537680768,-0.19713912846360138,0.15685546210156864,0.9935267247233279,0.010595984110003343,0.07469730323848613,0.08492752951884758
2666.3333333396727,-0.07832039,-0.7319898,-0.08348378,-2.3056276,0.13664581,1.7038563,0.6538901,0.04,0.03999977,0.02028995693579283,0.046667569354647,0.011500299093625266,0.04381246056306233,-0.19924424308357475,0.15707553247644776,0.9932842604776911,0.010935975666760182,0.07629573107386403,0.08628872315318535
2666.3500000063395,-0.07978043,-0.7310142,-0.08503754,-2.3046854,0.13918446,1.7063274,0.65143347,0.04,0.039999757,0.01958755384370292,0.0470322108715282,0.011020410989170948,0.04489586691575018,-0.2013379421617062,0.15725342011856386,0.9930355832060385,0.011283797339781314,0.07791229535452768,0.0876509020879227
2666.3666666730064,-0.08125146,-0.73003155,-0.086603,-2.3037362,0.1417422,1.708817,0.6489585,0.04,0.039999753,0.02026867678655009,0.047243567675986364,0.009935503155200642,0.04599393987354927,-0.2034231831801308,0.15738857890471908,0.992780611485095,0.011639612320426807,0.0795471153896421,0.08901366927330823
2666.3833333396733,-0.08273333,-0.72904164,-0.08818003,-2.3027797,0.14431877,1.711325,0.64646536,0.04,0.039999753,0.020870217674850977,0.047726836211126056,0.00992155671899475,0.047105082603647486,-0.2054961274493911,0.15748093213394732,0.9925192646432948,0.012003485832983166,0.08120035232304756,0.09037659222610633
2666.40000000634,-0.08422587,-0.72804457,-0.08976842,-2.3018157,0.14691384,1.713851,0.6439543,0.04,0.039999742,0.020809862879689334,0.047924420012895874,0.00908838603295159,0.04822902671137182,-0.2075536181061668,0.15753108037910032,0.9922514927620399,0.012375425349889335,0.08287179809996492,0.09173924481153849
2666.416666673007,-0.085728936,-0.72704035,-0.091368005,-2.3008454,0.14952715,1.7163949,0.6414255,0.04,0.039999727,0.019180454457501384,0.04815108938511781,0.008450913170254815,0.04936639216988706,-0.2095963042589279,0.15753802188109944,0.9919772546965898,0.012755543275816645,0.0845610725283216,0.09310127439093256
2666.433333339674,-0.087242365,-0.72602934,-0.092978634,-2.299868,0.15215847,1.7189561,0.6388792,0.04,0.039999723,0.02023416500152031,0.04838010179675223,0.0075575751277146,0.05051633762545468,-0.21162685314098567,0.15750335653125225,0.991696476063402,0.013143818034354503,0.0862682689644948,0.09446229502176764
2666.450000006341,-0.088765964,-0.7250114,-0.09460012,-2.2988842,0.15480745,1.7215346,0.6363159,0.04,0.039999727,0.01966417851431146,0.04865653103395262,0.007177797030144539,0.05167945958399614,-0.21364054878912964,0.15742682321548027,0.991409107934163,0.013540448120567447,0.08799320874429616,0.09582187738071052
2666.4666666730077,-0.09029958,-0.72398674,-0.09623229,-2.2978938,0.15747388,1.72413,0.6337357,0.04,0.039999716,0.0193420165192304,0.04880509043503345,0.006367826021680401,0.05285491589085879,-0.21563968637183864,0.15730469528720398,0.9911150986156336,0.013945419701825574,0.0897357138958213,0.09717966977238768
2666.4833333396746,-0.091843046,-0.72295564,-0.09787494,-2.296897,0.1601574,1.726742,0.63113886,0.04,0.039999697,0.019575467100496624,0.0490344229995221,0.005551365401568198,0.05404209991104322,-0.2176207008093657,0.15714193858179992,0.9908143937190612,0.014358716414470821,0.0914957633109529,0.0985352209019908
2666.5000000063415,-0.09339622,-0.7219181,-0.099527925,-2.2958937,0.16285768,1.7293707,0.62852573,0.04,0.039999697,0.019623704534543762,0.04942473623722743,0.00523802231728876,0.055241573807625316,-0.21958488996844175,0.15693762224101176,0.9905069290805388,0.014780501586755526,0.09327341032111923,0.09988809310099214
2666.5166666730083,-0.094958894,-0.72087413,-0.10119103,-2.2948847,0.16557445,1.7320154,0.6258968,0.04,0.039999682,0.018034421708401638,0.04932981008358983,0.00412763990547127,0.056452291812623526,-0.22152675549594295,0.15668924617375818,0.9901927015714294,0.015210893592285543,0.095067938441273,0.10123798472571789
2666.533333339675,-0.096530914,-0.71982396,-0.10286405,-2.2938702,0.16830744,1.7346756,0.6232522,0.04,0.03999968,0.017757085616310064,0.04940301438448591,0.0032680883047753184,0.057673511748353626,-0.22345401884748586,0.15639952413959973,0.9898716698607392,0.015649848618352738,0.09687917663554121,0.10258452407529106
2666.550000006342,-0.098112054,-0.71876776,-0.10454682,-2.2928488,0.17105629,1.7373515,0.6205921,0.04,0.039999668,0.020551120610079465,0.049917581301936464,0.003268246009624498,0.05890536330013274,-0.2253640314347658,0.1560690619003253,0.9895437219883687,0.01609731172966959,0.09870790075483074,0.10392713388263036
2666.566666673009,-0.099702165,-0.71770555,-0.10623918,-2.2918215,0.17382069,1.7400427,0.61791694,0.04,0.039999656,0.018657463884252934,0.04994741862250074,0.00228414703671298,0.060148454832227014,-0.22724686143903708,0.15569404855598382,0.9892088560312935,0.016553429613998374,0.10055344465573055,0.10526551137547846
2666.583333339676,-0.10130107,-0.7166376,-0.10794091,-2.2907891,0.1766004,1.7427489,0.615227,0.04,0.039999668,0.01719680047882477,0.04985330291220058,0.00119728060905544,0.0614012205725018,-0.2291078362743972,0.1552788189530611,0.9888670559322336,0.0170182541751437,0.10241534963211676,0.10659934744865168
2666.6000000063427,-0.10290862,-0.7155637,-0.10965183,-2.289752,0.17939505,1.7454693,0.61252266,0.04,0.03999965,0.0161081962888332,0.04992163352906531,0.00039898214971856305,0.06266329167923111,-0.23094788554399917,0.15482528165358425,0.9885183292468943,0.017491891298475892,0.10429299489726575,0.10792829887054521
2666.6166666730096,-0.1045246,-0.7144842,-0.111371696,-2.288708,0.1822043,1.748204,0.6098041,0.04,0.03999965,0.02037677279389527,0.05040394405116111,0.0004404198182150765,0.06393503248852947,-0.23277039250094583,0.15432770790576916,0.9881625370635411,0.017974184072333033,0.10618751712047018,0.10925172885986564
2666.6333333396765,-0.106148794,-0.71339923,-0.11310033,-2.2876587,0.18502781,1.7509526,0.60707164,0.04,0.039999638,0.017348636583314203,0.05017726769340203,-0.0007928033137982737,0.0652154701356523,-0.23456267343710113,0.1537894835220552,0.9877997142992277,0.018465218484903758,0.10809799153171017,0.11056936448890065
2666.6500000063434,-0.10778103,-0.7123087,-0.114837565,-2.2866051,0.1878653,1.7537148,0.6043258,0.04,0.03999962,0.015338868380254667,0.05007763294672396,-0.0017213959282003088,0.06650558599737327,-0.23632880334149992,0.1532095623950418,0.9874298747718221,0.018965157099383782,0.11002370074197396,0.11188096575977567
2666.6666666730102,-0.10942115,-0.7112131,-0.11658317,-2.2855458,0.19071645,1.7564901,0.6015666,0.04,0.03999961,0.018304501824273345,0.05035594490118145,-0.002268513581982212,0.06780268020525773,-0.2380758812294641,0.15259068759007569,0.9870529231175388,0.01947384867332511,0.11196530295988821,0.11318598462738709
2666.683333339677,-0.111068934,-0.7101122,-0.118336946,-2.2844813,0.19358088,1.7592787,0.5987947,0.04,0.039999608,0.017105470589973137,0.05042651979908219,-0.0026101531769961994,0.06910768075953831,-0.23979388367487217,0.15193471825440058,0.986668852060506,0.019991469138302184,0.11392242934402759,0.11448404966479189
2666.700000006344,-0.112724185,-0.70900655,-0.120098695,-2.2834125,0.19645828,1.7620798,0.59601015,0.04,0.039999604,0.01574667577490807,0.050129350977481946,-0.004096756135130164,0.07041916934550267,-0.24148303039051855,0.15123740864519006,0.9862776751702106,0.020517910801108995,0.11589453530407408,0.11577486550998554
2666.716666673011,-0.11438671,-0.7078959,-0.12186819,-2.2823381,0.19934832,1.764893,0.5932133,0.04,0.039999593,0.017277340437127364,0.050308783821889635,-0.004319111332784509,0.07173764173544411,-0.24314482280227911,0.15050197110763613,0.9858793496029717,0.021053159694198794,0.11788172406672855,0.11705798402658246
2666.7333333396778,-0.11605631,-0.70678043,-0.123645276,-2.2812605,0.20225064,1.7677186,0.5904045,0.04,0.03999957,0.013686907973387008,0.05002295932077239,-0.005477671193032663,0.07306379445681903,-0.2447764904630677,0.149724616136228,0.9854739243679043,0.02159731986719238,0.11988310857873577,0.11833317558054206
2666.7500000063446,-0.11773281,-0.70566046,-0.1254297,-2.2801776,0.20516492,1.7705555,0.5875842,0.04,0.03999954,0.017042117375698496,0.05023945056063239,-0.005945349417779688,0.07439474506069389,-0.2463838871836429,0.14891430386607077,0.9850613145225382,0.022150360729356937,0.12189924109297298,0.11959992964732723
2666.7666666730115,-0.11941602,-0.70453596,-0.12722126,-2.2790911,0.20809084,1.7734038,0.5847527,0.04,0.039999533,0.013845423344616137,0.04984889275009008,-0.006985374052592697,0.0757313751906161,-0.24795770511367604,0.14806427076964201,0.9846415833474982,0.02271233842010507,0.123929167360417,0.12085803036528478
2666.7833333396784,-0.121105716,-0.7034071,-0.12901972,-2.2780004,0.21102802,1.7762629,0.58191025,0.04,0.039999522,0.01507914026843693,0.04986180417994035,-0.007583585307124885,0.07707314607246774,-0.24950505417716323,0.14717502180844444,0.9842146957875738,0.023283176366726263,0.12597299845050156,0.12210704302143903
2666.8000000063453,-0.12280169,-0.70227414,-0.13082492,-2.2769053,0.21397607,1.7791327,0.5790572,0.04,0.039999504,0.01522858329638943,0.049893617009436064,-0.00825562541169056,0.07841937402103386,-0.2510200841188413,0.1462495075241647,0.9837806321684887,0.023862863173441554,0.1280306938083771,0.12334655639408844
2666.816666673012,-0.124503784,-0.7011371,-0.13263665,-2.2758062,0.21693464,1.782013,0.5761942,0.04,0.039999504,0.014656773806231982,0.049806477329888965,-0.008948856651702641,0.07976937934183514,-0.2525007016453315,0.14528815020164776,0.9833393949000743,0.024451580835038136,0.13010193047916085,0.12457625101847779
2666.833333339679,-0.12621176,-0.69999623,-0.13445458,-2.2747035,0.21990336,1.7849027,0.573321,0.04,0.03999949,0.013381394379363698,0.049104966173549314,-0.01034627563203383,0.08112061339509924,-0.25394793964546836,0.14429298192580678,0.9828910636822898,0.025048884480782043,0.132185911862483,0.125795846612076
2666.850000006346,-0.1279254,-0.69885135,-0.13627857,-2.273597,0.22288194,1.7878025,0.5704383,0.04,0.03999948,0.013907377171484825,0.0494146916773186,-0.010087810083470039,0.08247741144854676,-0.25536506689387695,0.1432627241605203,0.9824355714138908,0.025655113951268564,0.13428295659270953,0.1270049239893071
2666.866666673013,-0.12964447,-0.6977029,-0.13810842,-2.2724872,0.22587007,1.7907109,0.5675466,0.04,0.03999947,0.012843193257694452,0.04873780610592515,-0.011810095194197956,0.08383519411811546,-0.2567450906264713,0.14219928330769793,0.9819729836141505,0.026270164064444032,0.13639223792988409,0.12820333601130834
2666.8833333396797,-0.13136888,-0.696551,-0.13994391,-2.2713733,0.22886732,1.7936292,0.56464595,0.04,0.039999463,0.014730980445465391,0.04931719762423792,-0.011503745458418813,0.08519429879920495,-0.2580942657732968,0.14110373009205263,0.9815032011081547,0.026894023860774944,0.13851458833922323,0.12939044212088074
2666.9000000063465,-0.13309833,-0.69539577,-0.14178483,-2.2702563,0.23187329,1.7965558,0.56173676,0.04,0.039999455,0.012192028637070251,0.04847019000754349,-0.013067366002061931,0.08655433465169443,-0.2593988317788976,0.13997141984131026,0.9810263543574845,0.027526610519235134,0.14064871800254952,0.13056613609058385
2666.9166666730134,-0.13483267,-0.6942373,-0.14363094,-2.269136,0.23488769,1.79949,0.5588193,0.039999988,0.03999944,0.01242833802312937,0.04812597251478423,-0.013942489018714532,0.08791383924037861,-0.2606706606579586,0.13881181760765382,0.9805424597176499,0.028167800657124636,0.14279436884756697,0.1317301329325475
2666.9333333396803,-0.13657163,-0.6930758,-0.14548196,-2.268013,0.23791012,1.8024318,0.55589414,0.039999988,0.039999433,0.011193119600383383,0.0476879955731202,-0.014667892808151173,0.08927619716643065,-0.26190587631816836,0.1376155323373284,0.980051556169979,0.02881768479435513,0.14495111510051548,0.13288213771238278
2666.950000006347,-0.13831499,-0.69191116,-0.14733769,-2.2668872,0.24094026,1.8053812,0.5529616,0.03999999,0.039999433,0.011350910949969872,0.04750371845335666,-0.0150037973407402,0.09063644311610315,-0.26310715216278935,0.13639326457127246,0.9795536494254913,0.029476208289623867,0.1471188460783564,0.1340218122942721
2666.966666673014,-0.14006262,-0.6907439,-0.149198,-2.2657585,0.24397771,1.8083382,0.55002207,0.039999984,0.03999942,0.011891020554211096,0.04755627784389649,-0.01571168693987879,0.09199713783105934,-0.26427019926821427,0.1351339744897073,0.9790487094566005,0.030143438207226828,0.14929770392200853,0.13514878189620658
2666.983333339681,-0.14181425,-0.6895737,-0.15106258,-2.2646272,0.24702214,1.8113028,0.54707575,0.03999998,0.039999414,0.010805734779362197,0.04714805329233407,-0.015879999715395776,0.09335270244726133,-0.2653917072577137,0.13385204417112923,0.9785367927160196,0.030819261758598362,0.1514872466324091,0.13626273339923975
2667.000000006348,-0.1435697,-0.688401,-0.1529312,-2.2634933,0.25007308,1.8142729,0.54412305,0.039999973,0.039999403,0.010307210499505004,0.04623775197316049,-0.01788549891330593,0.0947054591890209,-0.26647097587118146,0.13253909411159637,0.9780180177695551,0.03150347166165411,0.15368651719826,0.1373635418254876
2667.0166666730147,-0.14532869,-0.68722606,-0.15480365,-2.2623572,0.25313026,1.8172492,0.5411643,0.03999995,0.039999373,0.010004370500427129,0.045948783291827056,-0.018161545522477063,0.09605711140701215,-0.26751388017350897,0.1311961368051665,0.9774923654373857,0.03219605715400796,0.1558956158707943,0.1384508807036851
2667.0333333396816,-0.14709106,-0.68604875,-0.15667972,-2.2612185,0.25619337,1.820231,0.53819984,0.039999913,0.03999933,0.010156940049022012,0.045648283851146276,-0.018687222599145237,0.09740435358040671,-0.26851579040390816,0.12983003858854145,0.9769598781998537,0.0328969912660634,0.15811418499967964,0.13952450987283355
2667.0500000063485,-0.14885655,-0.6848695,-0.15855914,-2.2600782,0.2592618,1.8232188,0.53523016,0.039999876,0.039999288,0.00907983889595343,0.04526370304974159,-0.019335617782689773,0.0987474419154544,-0.2694763873956678,0.12843568794383287,0.97642059627994,0.03360626514793304,0.16034206217125774,0.14058400051855752
2667.0666666730153,-0.15062499,-0.6836882,-0.16044167,-2.2589364,0.26233527,1.8262111,0.5322556,0.039999835,0.039999243,0.0074755927955916235,0.04429069189973989,-0.020571233696076163,0.10008529414260842,-0.27039394132144295,0.12701582560872599,0.9758746662217683,0.034323746217248506,0.16257810033425868,0.1416293668836726
2667.083333339682,-0.15239614,-0.6825051,-0.16232714,-2.2577927,0.26541346,1.8292079,0.5292766,0.039999783,0.039999187,0.008559326425228164,0.04417789587017329,-0.02089654384069828,0.10141881844438455,-0.2712745235209594,0.12556919105420078,0.9753220618162715,0.035049449554321974,0.1648225158416583,0.14266026108213328
2667.100000006349,-0.15416983,-0.68132025,-0.16421536,-2.256647,0.2684961,1.8322086,0.526293,0.039999727,0.03999913,0.008369467925106733,0.043618970267222945,-0.021704598117588958,0.10274479486241407,-0.2721131241150852,0.12410014895308911,0.9747628417700488,0.035783007910614284,0.16707498910759297,0.1436764652402943
2667.116666673016,-0.15594578,-0.6801341,-0.16610605,-2.2554996,0.2715827,1.8352133,0.52330554,0.039999664,0.039999068,0.008656129734996298,0.043133867353084554,-0.02228832200221742,0.10406644581582553,-0.2729070836359322,0.12260515909430537,0.9741970232322114,0.036524529540259955,0.1693354489350829,0.14467765688355266
2667.133333339683,-0.1577238,-0.6789463,-0.16799888,-2.2543507,0.2746728,1.8382217,0.5203151,0.039999597,0.039998997,0.006947739327456404,0.0424876364919613,-0.02259685111747345,0.10537974850323363,-0.2736564623057941,0.121091273040304,0.9736247216112036,0.037274190826872874,0.1716031367084788,0.1456636524240668
2667.1500000063497,-0.15950374,-0.67775744,-0.16989373,-2.253201,0.27776617,1.8412335,0.5173213,0.039999533,0.03999893,0.006156276649660342,0.04189636768374694,-0.023706743306828315,0.10668362873524083,-0.27436379942600286,0.11955357032360141,0.9730459944290021,0.038031601658724275,0.17387777254600484,0.1466342736722434
2667.1666666730166,-0.16128533,-0.6765674,-0.17179033,-2.2520506,0.28086236,1.8442482,0.5143251,0.03999947,0.039998863,0.00550189268304635,0.04115737944849207,-0.02422840118412317,0.1079782113717133,-0.27502673291551843,0.11799744945707638,0.9724609304812196,0.03879693634781682,0.17615876020663934,0.14758938857547846
2667.1833333396835,-0.16306837,-0.6753765,-0.17368846,-2.2508993,0.2839609,1.8472645,0.5113261,0.039999403,0.039998792,0.005672779904219993,0.040384205172738774,-0.025408022756145954,0.1092623621553995,-0.2756462003417174,0.11641994384836712,0.9718696404581959,0.039569612743290954,0.17844567560755323,0.14852874657778137
2667.2000000063504,-0.16485257,-0.6741848,-0.17558789,-2.2497473,0.28706154,1.8502837,0.5083249,0.03999934,0.039998725,0.005677341605636599,0.04013777055327794,-0.025097221136705095,0.11053946706157973,-0.27622529532287543,0.1148232810771974,0.9712720939151915,0.04034980953066487,0.18073876496081615,0.14945203676389737
2667.2166666730172,-0.16663775,-0.6729924,-0.17748846,-2.2485943,0.29016382,1.8533039,0.50532275,0.03999927,0.03999865,0.005097122845798552,0.03914742837916041,-0.02643615458242099,0.11180508313460763,-0.2767556971761045,0.11320949111858755,0.9706684389170753,0.0411376665553214,0.18303701704615377,0.15035931787394222
2667.233333339684,-0.1684237,-0.6717996,-0.17938976,-2.2474403,0.29326743,1.856325,0.5023191,0.039999206,0.039998587,0.0053388104465312836,0.03831695845832872,-0.02685120053402823,0.11305750759454553,-0.27724317902275813,0.11157657203063454,0.9700587316073911,0.04193262422126802,0.18534041929994438,0.15125026027051472
2667.250000006351,-0.17021015,-0.6706065,-0.18129165,-2.246286,0.29637194,1.8593482,0.4993143,0.03999913,0.03999851,0.004875678930194027,0.03816223400268104,-0.026757404012878183,0.11429957150377629,-0.27768467532351787,0.10992879666366873,0.9694429828001877,0.04273473854898423,0.18764907491845342,0.1521245210440241
2667.266666673018,-0.17199694,-0.6694132,-0.18319394,-2.2451315,0.299477,1.8623714,0.4963092,0.039999064,0.03999844,0.0030578064528441473,0.03678092638129682,-0.028241029549302965,0.11552783417471824,-0.278075593251344,0.10826782471780526,0.9688213912423381,0.043544005701543306,0.1899616959191558,0.15298230460495263
2667.2833333396848,-0.17378387,-0.6682197,-0.18509635,-2.2439768,0.3025822,1.8653948,0.4933038,0.039998986,0.039998356,0.0031869065038936384,0.036345483196886796,-0.02837372867239285,0.11674283542518865,-0.27842332539180203,0.10659097329159384,0.968194026594968,0.04436020011605687,0.19227815912540044,0.1538233045894957
2667.3000000063516,-0.17557065,-0.66702616,-0.1869987,-2.2428224,0.3056872,1.8684181,0.49029878,0.03999892,0.039998285,0.0023094383677424446,0.03538261131306175,-0.028973686787781006,0.11794411111971588,-0.278725433298994,0.10490100406049752,0.9675609771729112,0.04518332053094962,0.1945980019087513,0.15464747217824226
2667.3166666730185,-0.17735709,-0.66583306,-0.18890068,-2.241668,0.30879167,1.871441,0.48729426,0.039998848,0.039998215,0.0030518017209324455,0.034608053177681564,-0.0295336213127273,0.11913057347563379,-0.27898265334572464,0.1031968072353382,0.9669222795040304,0.046013101660031835,0.19692122416832009,0.15545459577125298
2667.3333333396854,-0.17914297,-0.6646402,-0.1908021,-2.240514,0.31189504,1.8744619,0.4842907,0.03999877,0.039998133,0.0008350911026688834,0.03332645890182784,-0.030604621507257512,0.12030090474531259,-0.2791915530067531,0.10148230960171643,0.966278194398358,0.04684935561292972,0.19924649215402782,0.1562447575863498
2667.3500000063523,-0.18092808,-0.6634478,-0.19270274,-2.239361,0.3149971,1.8774819,0.48128852,0.039998695,0.039998055,0.00065333265997225,0.03295792219102922,-0.030422392201812087,0.12145782305485445,-0.27935991869822663,0.0997557973364013,0.9656287060618666,0.0476921921422854,0.2015740279839939,0.1570177317383503
2667.366666673019,-0.18271224,-0.6622562,-0.19460225,-2.2382088,0.31809738,1.8805008,0.47828797,0.039998624,0.039997984,0.0011289307992434772,0.03207156346396456,-0.030917131286312127,0.12259714477711277,-0.2794819582905717,0.098017746250781,0.9649738999732734,0.048541318171140706,0.20390367777922522,0.1577732644927041
2667.383333339686,-0.18449514,-0.6610653,-0.19650055,-2.237057,0.3211955,1.883517,0.4752894,0.03999855,0.039997905,0.0005926075742124226,0.030986685342027087,-0.03171124112539836,0.12371882433192834,-0.2795569076248464,0.0962725542640302,0.9643139372999965,0.04939651642408347,0.20623465082624692,0.15851146107685626
2667.400000006353,-0.18627658,-0.65987533,-0.19839732,-2.235906,0.32429117,1.8865303,0.4722934,0.039998475,0.03999783,0.00011587655794897955,0.02989953986908267,-0.03221606029346624,0.12482399677973643,-0.27958573757236604,0.09451853737492627,0.9636489220716841,0.05025771675968917,0.20856653628923558,0.1592322732252954
2667.41666667302,-0.18805641,-0.6586866,-0.20029232,-2.2347555,0.3273839,1.8895416,0.46930024,0.03999841,0.03999776,0.0007297449396759248,0.029682862848906533,-0.031995177199051206,0.12591075753610748,-0.2795696906886761,0.09275712181605164,0.9629788486500814,0.051124874613617095,0.21089969331112618,0.15993531070272926
2667.4333333396867,-0.18983439,-0.65749913,-0.20218539,-2.2336063,0.33047342,1.8925496,0.4663102,0.039998338,0.039997686,-0.0008826442704723547,0.02825661130848589,-0.03302184649582873,0.12697644687011245,-0.2795028594242505,0.09099121394837109,0.9623039231054571,0.05199775252117487,0.21323309529006065,0.16062079685275277
2667.4500000063535,-0.19161025,-0.656313,-0.20407625,-2.232459,0.33355924,1.8955538,0.4633237,0.03999827,0.03999762,-0.0027114275860551373,0.026938696448192134,-0.03344889408172236,0.12802357765110106,-0.2793904650198759,0.0892183626031881,0.9616243437190019,0.05287619356781659,0.21556592515840448,0.16128875233995388
2667.4666666730204,-0.19338386,-0.65512836,-0.20596468,-2.2313135,0.33664116,1.8985542,0.46034116,0.0399982,0.039997548,-0.0021793197806374565,0.026311618035945727,-0.033611565037627855,0.12905096145733463,-0.27923448352192004,0.0874404446249015,0.9609401460077983,0.053760140478548775,0.21789817184157037,0.1619390928538854
2667.4833333396873,-0.1951549,-0.6539453,-0.20785044,-2.230169,0.33971858,1.9015504,0.45736283,0.03999813,0.039997473,-0.0015437263915174526,0.025430027186423843,-0.033814915975316495,0.1300564766792794,-0.2790336788564548,0.08565860977727596,0.9602514381607324,0.05464929354213743,0.22022967441820235,0.16257158648190292
2667.500000006354,-0.19692321,-0.65276426,-0.2097333,-2.229026,0.34279123,1.904542,0.45438907,0.039998062,0.039997406,-0.0018895699177345904,0.024324508296691416,-0.03441117384359593,0.13104081429197345,-0.278785268288574,0.08387442954590194,0.9595583257604846,0.0555434812322627,0.22256005961388606,0.16318627706091093
2667.516666673021,-0.19868858,-0.65158504,-0.21161303,-2.2278852,0.3458587,1.9075283,0.4514203,0.03999799,0.039997336,-0.00393928710811231,0.023042682698026784,-0.03475920882403116,0.1320032577677353,-0.27848943643605806,0.08208884382063789,0.958861026194079,0.056442607947301555,0.22488841636654758,0.1637832855888884
2667.533333339688,-0.20045073,-0.6504082,-0.21348944,-2.226747,0.3489207,1.910509,0.44845688,0.03999793,0.039997272,-0.004423646176965335,0.021763199850555193,-0.03541154266177848,0.13294306643779652,-0.2781506662307323,0.08030275414174146,0.9581596429340496,0.057346474381385765,0.22721439755499973,0.16436270280157275
2667.550000006355,-0.20220955,-0.6492336,-0.21536225,-2.22561,0.3519768,1.913485,0.44549918,0.039997876,0.039997216,-0.0017326809870876758,0.02192997666391472,-0.03455437582686738,0.1338610213164835,-0.27776710630875506,0.07851411753084606,0.9574541178326683,0.05825503125847806,0.229538747226905,0.16492400401349563
2667.5666666730217,-0.20396477,-0.64806134,-0.21723127,-2.2244751,0.35502666,1.916454,0.44254753,0.039997805,0.039997146,-0.004694285890405325,0.019607740420912734,-0.03601856957411442,0.1347522083082398,-0.2773317807390039,0.07672932836935831,0.9567448120265669,0.05916788859401897,0.23185976458491997,0.16546774666441902
2667.5833333396886,-0.20571616,-0.6468917,-0.21909621,-2.2233438,0.3580698,1.9194163,0.43960235,0.03999773,0.03999707,-0.007020424629233801,0.018367290784604418,-0.03608803448293951,0.13562073923579224,-0.2768538961643607,0.07494479297539847,0.956031893207972,0.06008502351661544,0.2341768981340111,0.1659939441621942
2667.6000000063555,-0.20746355,-0.64572465,-0.22095692,-2.2222145,0.36110604,1.922373,0.43666393,0.03999768,0.03999702,-0.0036365296454121676,0.018611451302208426,-0.03524698357422196,0.13646587490286016,-0.2763358642857065,0.07316111585435876,0.9553152385442832,0.06100636956528314,0.23649110746343374,0.16650217406467077
2667.6166666730223,-0.20920667,-0.6445605,-0.22281317,-2.2210882,0.36413485,1.9253222,0.43373266,0.039997622,0.039996963,-0.0065999979225850325,0.016325607206202353,-0.03659291063342618,0.13728224081073417,-0.2757667536542657,0.07138290409014379,0.9545952044424255,0.06193157304392688,0.23880085298827344,0.16699289963319253
2667.633333339689,-0.21094534,-0.6433994,-0.22466469,-2.2199652,0.36715597,1.9282637,0.43080893,0.039997566,0.039996907,-0.007053576137971973,0.015199565727641584,-0.03656834041656509,0.13807355054451698,-0.2751552193500578,0.06960832672150749,0.9538719048986645,0.06286050992306189,0.24110584989444386,0.16746615921995722
2667.650000006356,-0.21267937,-0.6422413,-0.2265113,-2.2188442,0.3701689,1.9311972,0.427893,0.039997514,0.03999685,-0.00482081738928386,0.014836982176658076,-0.036384118566790136,0.1388390714983403,-0.2745033117277815,0.06783630821719919,0.9531453863959588,0.06379291429233153,0.24340632711992305,0.16792169721682362
2667.666666673023,-0.21440852,-0.6410864,-0.22835276,-2.2177265,0.37317333,1.9341223,0.4249853,0.039997466,0.039996803,-0.007558294028653378,0.01306241239583672,-0.03677480126857979,0.1395767825420664,-0.2738033407155656,0.06607264876294665,0.9524158856807157,0.06472865341971608,0.24570134543773423,0.16835982590741638
2667.68333333969,-0.21613261,-0.6399349,-0.23018879,-2.2166116,0.376169,1.9370385,0.42208612,0.039997406,0.039996743,-0.0068270357707067575,0.011923692708093458,-0.03691663555629443,0.14028722227391824,-0.2730616110951022,0.06431591268766797,0.9516835048262633,0.06566748162576469,0.2479907253766473,0.1687805931548236
2667.7000000063567,-0.21785142,-0.63878703,-0.23201917,-2.2155004,0.3791555,1.9399456,0.41919583,0.039997354,0.03999669,-0.008167940725778422,0.01054922524994506,-0.03713242114009585,0.14097106411955518,-0.27227670434421253,0.06256451888399504,0.950948429635354,0.06660921550578566,0.25027390351791595,0.1691841298753016
2667.7166666730236,-0.21956477,-0.6376426,-0.23384382,-2.2143924,0.38213247,1.9428444,0.41631484,0.039997313,0.03999665,-0.007720138284650346,0.010445663815816797,-0.03641562462415315,0.14162662579276264,-0.2714490254261004,0.060821788164029014,0.9502106772753616,0.06755395243695031,0.25255109886523813,0.16957026497592548
2667.7333333396905,-0.22127233,-0.63650215,-0.23566234,-2.2132885,0.38509944,1.9457325,0.41344348,0.03999727,0.039996605,-0.009793171570482428,0.007538935230488875,-0.03764820865519436,0.1422504318122109,-0.2705761618138004,0.059089038723764004,0.9494706397008862,0.06850107526708,0.2548208459125676,0.16993952901443257
2667.7500000063574,-0.22297402,-0.63536566,-0.23747462,-2.212188,0.38805622,1.9486104,0.41058213,0.039997224,0.03999656,-0.008185979784425257,0.0073299759655975905,-0.03715418629157696,0.14284770509904252,-0.26966659098364787,0.05736421131211839,0.9487282854057891,0.06945059032980812,0.2570835707202848,0.17029178970091627
2667.7666666730242,-0.2246696,-0.63423324,-0.2392804,-2.2110922,0.39100254,1.9514788,0.40773097,0.039997187,0.039996523,-0.010720632589267254,0.006026436859041251,-0.03685666559030132,0.14341556838400696,-0.2687141185387505,0.0556498942700585,0.9479838034334607,0.07040242213071114,0.25933869918351193,0.17062721497979988
2667.783333339691,-0.2263589,-0.6331051,-0.24107952,-2.21,0.39393783,1.9543362,0.4048905,0.03999716,0.039996497,-0.00905341430144091,0.004854548129884506,-0.03733398912799668,0.14395159816527314,-0.26772106955667124,0.053945423497726436,0.9472373454104351,0.07135621291441668,0.2615859537365193,0.1709458719772428
2667.800000006358,-0.2280417,-0.6319813,-0.2428717,-2.2089121,0.39686164,1.9571823,0.40206093,0.03999713,0.03999647,-0.010596616377567258,0.003435154138342611,-0.037201449286894395,0.14445759424250046,-0.2666858999741718,0.052252445864971526,0.94648913328284,0.0723117102856563,0.2638247507713117,0.171247884697934
2667.816666673025,-0.22971775,-0.6308619,-0.24465682,-2.2078285,0.39977387,1.960017,0.3992427,0.0399971,0.03999644,-0.010829321632632727,0.0023425474945826252,-0.03697209572595117,0.14493319496356136,-0.2656126761293646,0.050573255488561245,0.9457392753174474,0.07326885264833458,0.266054800864429,0.1715334990333234
2667.8333333396918,-0.2313869,-0.6297471,-0.24643455,-2.2067494,0.40267408,1.9628401,0.39643615,0.03999707,0.03999641,-0.011070978967575584,0.0010579161108137392,-0.03694193525363154,0.14537760417789103,-0.2645010025749487,0.048906062594759526,0.9449879199570456,0.07422741692313613,0.2682758463195436,0.17180277062290933
2667.8500000063586,-0.23304895,-0.628637,-0.24820475,-2.205675,0.40556186,1.9656513,0.39364147,0.03999705,0.039996393,-0.01134467437751141,-4.17512657446828e-05,-0.03681903638215189,0.145789612560988,-0.2633500720476531,0.04725239185460744,0.9442352365033508,0.07518713415797947,0.27048755155415316,0.17205579751002406
2667.8666666730255,-0.23470372,-0.6275319,-0.24996719,-2.204605,0.40843698,1.9684504,0.39085913,0.03999704,0.039996386,-0.011627336709452152,-0.0012612033693404356,-0.036715564169553794,0.14617053684569303,-0.26216018503094096,0.04561288053729797,0.9434813442968535,0.07614791250114983,0.2726896606315223,0.1722927664476499
2667.8833333396924,-0.23635095,-0.6264318,-0.25172165,-2.20354,0.41129917,1.9712363,0.38808945,0.039997023,0.039996367,-0.012154208150727541,-0.0030473454857515847,-0.03683878609941349,0.14651662256137793,-0.26093124704282317,0.04399090214165338,0.9427264670374486,0.07710939900742186,0.2748815213438728,0.1725140520522393
2667.9000000063593,-0.23799054,-0.62533677,-0.25346786,-2.2024798,0.41414797,1.9740095,0.38533273,0.03999701,0.039996356,-0.01219163492560682,-0.003747407774490341,-0.03622410536050502,0.1468327943673004,-0.2596666022489307,0.042380796762158876,0.9419707221460641,0.07807149226563309,0.2770630811536611,0.17271956975594752
2667.916666673026,-0.23962227,-0.62424713,-0.25520593,-2.2014246,0.41698304,1.9767693,0.38258934,0.039996997,0.039996345,-0.012496644325343809,-0.00473824937805567,-0.03658979709220134,0.14711434136819368,-0.258363847144621,0.04078912879079063,0.9412142456184902,0.07903406918467523,0.27923399854842473,0.17290961166918076
2667.933333339693,-0.24124587,-0.62316287,-0.25693533,-2.200375,0.4198041,1.9795154,0.3798595,0.03999698,0.039996333,-0.01423170820991082,-0.006866178701303571,-0.036064370259758505,0.14736190086682172,-0.2570230886778302,0.03921288710084171,0.9404573111387837,0.07999676923627694,0.28139354762305746,0.17308447126613363
2667.95000000636,-0.24286123,-0.62208414,-0.2586559,-2.199331,0.42261076,1.9822474,0.37714347,0.03999697,0.039996322,-0.013888373352166639,-0.007869032332141757,-0.03599080099347951,0.14757695106164476,-0.25564945923588234,0.03765285064533186,0.9397000621627173,0.08095934754541634,0.2835415309823341,0.17324427097194253
2667.966666673027,-0.24446817,-0.6210112,-0.26036745,-2.1982923,0.4254027,1.9849653,0.37444174,0.039996967,0.039996322,-0.013075838661835704,-0.008717174121541937,-0.03560631308936468,0.14775943598381588,-0.2542437268371401,0.03611090861562971,0.9389425560956949,0.08192172423832135,0.2856780524509964,0.17338903598010258
2667.9833333396937,-0.24606645,-0.61994386,-0.26206994,-2.1972585,0.42817965,1.9876686,0.3717545,0.039996956,0.03999631,-0.01337061125536998,-0.009800388679692684,-0.03526989351037013,0.14790635129981528,-0.2527994281024328,0.03458827644598128,0.9381849797105843,0.08288364224971453,0.28780268099924233,0.17351905515683322
2668.0000000063606,-0.24765599,-0.6188824,-0.26376295,-2.1962306,0.43094134,1.9903572,0.36908197,0.03999695,0.03999631,-0.014901945163448005,-0.01155083715416172,-0.03506241750739214,0.14801828878005635,-0.25132062913567227,0.03308560988995123,0.937427552785839,0.08384487436185327,0.28991488910642793,0.17363460886472376
2668.0166666730274,-0.24923648,-0.61782694,-0.26544654,-2.1952093,0.4336874,1.9930302,0.3664248,0.039996956,0.039996315,-0.01626341948672838,-0.012855161513281033,-0.03498933287324757,0.1480964681373434,-0.24980877984643562,0.03160257889976008,0.9366704982856674,0.0848053929493069,0.2920139919771582,0.17373615472191564
2668.0333333396943,-0.25080785,-0.61677754,-0.2671204,-2.194193,0.43641746,1.9956875,0.363783,0.03999696,0.039996322,-0.013509395839594873,-0.013544764131290243,-0.034494596812728595,0.1481405000369889,-0.24826895563889534,0.0301351932889262,0.9359138498069037,0.0857647495927579,0.29410041897523886,0.17382352264725517
2668.050000006361,-0.25236985,-0.6157346,-0.26878428,-2.1931832,0.43913132,1.9983293,0.36115694,0.039996948,0.039996315,-0.016177719319365735,-0.015298038614586229,-0.03423417918766436,0.14814984691959482,-0.2466946538837779,0.028689302489488436,0.9351578335879831,0.08672288439435956,0.2961735121848745,0.17389714857187502
2668.066666673028,-0.25392225,-0.6146977,-0.27043793,-2.1921787,0.44182867,2.000955,0.35854703,0.039996948,0.03999632,-0.014264832518406934,-0.016190149053207925,-0.03330836333228504,0.14812377601619614,-0.2450895311344358,0.027263542558111684,0.934402546823953,0.08767949910673743,0.2982333465971668,0.17395705476569878
2668.083333339695,-0.25546485,-0.6136675,-0.27208135,-2.1911812,0.44450912,2.0035641,0.35595337,0.03999695,0.039996326,-0.017153453463647494,-0.018069938773690453,-0.03379027401864132,0.14806188135774448,-0.24345139593639503,0.025860424223843863,0.933648302843428,0.08863434218097493,0.30027897309717455,0.17400384564554472
2668.100000006362,-0.25699773,-0.61264366,-0.2737142,-2.19019,0.4471723,2.0061564,0.35337636,0.039996956,0.03999633,-0.016728108113106543,-0.018588228876825763,-0.03294163648299708,0.14796557272572486,-0.24178524280000235,0.024478358564610513,0.9328952266100616,0.08958738420415031,0.3023103343382699,0.1740375204141429
2668.1166666730287,-0.25852036,-0.6116267,-0.27533644,-2.1892056,0.44981816,2.008732,0.3508163,0.03999696,0.039996337,-0.016491732054380037,-0.02022987935378362,-0.032540137308489925,0.14783469407024402,-0.24009265971406143,0.023116526591151917,0.9321433977199293,0.09053832425419388,0.30432739818446125,0.17405841732781666
2668.1333333396956,-0.26003298,-0.6106167,-0.27694777,-2.1882274,0.45244625,2.0112898,0.34827346,0.039996978,0.03999636,-0.016059914403943054,-0.021233393605679662,-0.03261634612554687,0.14766830530103045,-0.23837094821878108,0.02177618236035142,0.9313930251508215,0.09148689932749302,0.3063297986001118,0.17406675283194523
2668.1500000063625,-0.26153517,-0.6096135,-0.27854806,-2.1872556,0.45505634,2.01383,0.34574798,0.039997004,0.039996386,-0.016769118668857885,-0.022412510981917322,-0.03162462498194074,0.1474662120848996,-0.23662069037043987,0.020459427012350363,0.9306442724513841,0.09243289188949014,0.30831729402064656,0.17406276126204026
2668.1666666730293,-0.26302686,-0.6086173,-0.28013712,-2.1862907,0.4576481,2.0163531,0.34324023,0.039997023,0.039996408,-0.01707094152636479,-0.023101511121459417,-0.03104169726064754,0.14723025510273724,-0.23484313593297645,0.019164483113065366,0.9298972245069642,0.09337632108755976,0.31028991213739926,0.1740465022347836
2668.183333339696,-0.26450777,-0.60762817,-0.28171477,-2.1853328,0.4602212,2.0188577,0.34075055,0.039997045,0.039996434,-0.017964331714193094,-0.025197270997900922,-0.030830065485343283,0.1469556261635675,-0.23303662036391856,0.01789423609979753,0.9291522030247051,0.09431674368430049,0.3122468130691358,0.17401857143217545
2668.200000006363,-0.26597786,-0.6066464,-0.2832811,-2.1843817,0.46277553,2.021344,0.3382792,0.03999708,0.03999647,-0.017347881793083886,-0.025533475466665845,-0.030627151231144012,0.14664763616161602,-0.23120710343157663,0.01664589913556684,0.9284092177771461,0.09525418815035656,0.31418818712001895,0.17397915697140365
2668.21666667303,-0.26743692,-0.6056721,-0.28483558,-2.1834376,0.4653106,2.0238116,0.33582637,0.03999711,0.039996505,-0.017442840903258983,-0.02719961025650086,-0.02984612576084622,0.14630253464563986,-0.22935135915553034,0.015420436778948044,0.9276684966434876,0.0961882303147361,0.31611375495924543,0.17392837206648354
2668.233333339697,-0.26888472,-0.6047053,-0.28637818,-2.1825004,0.46782625,2.0262601,0.33339226,0.03999714,0.039996542,-0.01772138588393979,-0.028386973684380035,-0.02929647317460038,0.14592240619660332,-0.22746993975714888,0.014220159334190496,0.9269302093236036,0.09711862590115997,0.31802322357375956,0.17386658337393524
2668.2500000063637,-0.27032128,-0.60374606,-0.28790864,-2.1815708,0.47032222,2.0286894,0.3309773,0.039997168,0.03999657,-0.018992683445961944,-0.029648517375990835,-0.028919819664019464,0.14550781063931,-0.22556446716723677,0.013044343021175932,0.9261945564647192,0.09804534495981813,0.3199161392300006,0.1737941822012556
2668.2666666730306,-0.27174628,-0.6027944,-0.2894269,-2.1806488,0.47279823,2.0310988,0.32858175,0.039997198,0.039996605,-0.01939267594708305,-0.030954539518224244,-0.0282246311198886,0.1450584086095,-0.22363900081932575,0.011891372504258913,0.9254617375637304,0.09896813778752658,0.32179214671146594,0.1737115261668505
2668.2833333396975,-0.27315962,-0.60185075,-0.2909328,-2.1797345,0.475254,2.033489,0.3262057,0.039997224,0.039996635,-0.0185586705915064,-0.03153511830936706,-0.027797526691863972,0.14457437011466034,-0.22169277894470552,0.010761727371746244,0.9247317872864254,0.09988682594047546,0.32365153116234546,0.1736186336827359
2668.3000000063644,-0.27456117,-0.6009149,-0.2924262,-2.1788278,0.4776893,2.0358593,0.32384944,0.039997254,0.03999667,-0.019107133072537863,-0.0327170158285206,-0.027027488732866978,0.14405486448259242,-0.21972367965975473,0.009656855238193669,0.9240049127649279,0.10080122386730726,0.3254939033111943,0.17351585910335054
2668.3166666730312,-0.27595082,-0.599987,-0.29390696,-2.1779287,0.480104,2.0382092,0.32151332,0.03999728,0.0399967,-0.01926529326707893,-0.0339652207284602,-0.026634041734885372,0.14350098136879275,-0.21773510398794213,0.008576545843310721,0.9232812764653533,0.10171116712494113,0.32731895065803734,0.1734036549519982
2668.333333339698,-0.2773285,-0.59906715,-0.29537478,-2.1770377,0.48249772,2.040539,0.31919748,0.039997306,0.03999673,-0.01974416789543021,-0.034920343038102875,-0.025882127196852345,0.1429119286596066,-0.21572664059471097,0.007519520513065803,0.9225610300131409,0.10261647886232118,0.3291266001919981,0.17328209720870705
2668.350000006365,-0.27869394,-0.5981552,-0.29682973,-2.1761549,0.48487028,2.0428479,0.31690213,0.03999735,0.039996777,-0.02063072832649837,-0.036103557281785825,-0.025249613761024747,0.14228818790178482,-0.21369931263002032,0.006487763585882388,0.9218444130501978,0.10351695580208328,0.3309162968102112,0.17315173257874747
2668.366666673032,-0.28004703,-0.5972516,-0.29827154,-2.1752794,0.4872214,2.0451357,0.31462756,0.039997384,0.039996818,-0.018483833347904266,-0.037004984032229515,-0.024804055342864118,0.14163110372385845,-0.21165664181050126,0.005477848090992565,0.921131439893678,0.10441228102415026,0.3326884420752503,0.17301256174126822
2668.3833333396988,-0.28138775,-0.5963565,-0.29970014,-2.1744123,0.48955077,2.0474026,0.31237388,0.03999742,0.03999686,-0.020124733336990275,-0.03792420546330222,-0.02438906752055825,0.14093974596249642,-0.209594608802621,0.004494444725569664,0.9204223136608147,0.10530240835800124,0.3344426354301177,0.17286494993443519
2668.4000000063656,-0.2827158,-0.5954696,-0.30111533,-2.1735535,0.4918583,2.049648,0.3101415,0.03999745,0.039996892,-0.02089872978872087,-0.039345585397454474,-0.02322417778728436,0.1402131634810434,-0.20751445710372451,0.003537428713969837,0.9197172546892852,0.10618716149836646,0.3361784225388319,0.1727093696908969
2668.4166666730325,-0.2840311,-0.5945913,-0.30251694,-2.172703,0.4941438,2.0518723,0.3079305,0.03999748,0.039996926,-0.02001329609675473,-0.04017507477753757,-0.022794786056112848,0.1394542673264512,-0.2054213566182498,0.002602895399953363,0.9190163045895074,0.10706630447982898,0.337896049605846,0.17254593013004357
2668.4333333396994,-0.2853335,-0.5937216,-0.30390483,-2.1718607,0.49640697,2.0540748,0.3057411,0.039997526,0.039996978,-0.019913368154833577,-0.041083207377756725,-0.02212261094434176,0.13866206547053472,-0.20331176503423978,0.0016921005074008802,0.918319639832331,0.10793962050607317,0.339595308028738,0.17237489430914582
2668.4500000063663,-0.286623,-0.59286046,-0.30527896,-2.1710265,0.49864757,2.0562556,0.3035735,0.039997566,0.039997023,-0.020026552633423123,-0.04164708213324486,-0.021390424451506185,0.13783577682463338,-0.20118585724646157,0.0008085397344827772,0.9176273838321723,0.10880702686303374,0.3412761115164076,0.1721964896703494
2668.466666673033,-0.28789935,-0.5920081,-0.3066392,-2.1702006,0.5008656,2.0584135,0.30142793,0.039997604,0.039997064,-0.020535713514879816,-0.04349133776845315,-0.02107448025689962,0.13697586680002055,-0.19904534839047333,-4.911403589829416e-05,0.9169397499743271,0.10966819489252025,0.3429379894716396,0.17201138719045414
2668.4833333397,-0.28916252,-0.5911646,-0.30798537,-2.1693828,0.50306046,2.0605493,0.29930463,0.039997637,0.039997105,-0.01981527062793198,-0.04358309304652863,-0.02019923522385003,0.13608610362511722,-0.1968924076788295,-0.000885629176504657,0.9162568114396218,0.11052306073905518,0.344581187285384,0.1718194223723372
2668.500000006367,-0.2904123,-0.5903301,-0.30931732,-2.1685743,0.50523216,2.0626624,0.29720366,0.039997675,0.039997146,-0.021962660182106575,-0.045390575505732667,-0.019616344658635043,0.1351624494084446,-0.1947263577484693,-0.0016941544819532237,0.9155788350879505,0.1113713824139858,0.3462050855979785,0.17162124176303384
2668.516666673034,-0.29164878,-0.5895044,-0.31063503,-2.1677742,0.50738066,2.064753,0.2951253,0.039997723,0.039997198,-0.020389759362515747,-0.045186382810280534,-0.018660941430903577,0.13420811683770964,-0.19254936028677958,-0.002478731394690653,0.9149057938033036,0.11221321659800612,0.34781004195300025,0.17141691049172506
2668.5333333397007,-0.2928717,-0.58868766,-0.31193832,-2.1669831,0.5095056,2.066821,0.29306963,0.039997768,0.03999725,-0.021661450883003752,-0.046579682096625774,-0.017993138440397516,0.13322143083237784,-0.19035926266619158,-0.003239447668908619,0.9142379357267755,0.11304828066326555,0.34939564924164884,0.1712067855201141
2668.5500000063676,-0.29408097,-0.5878802,-0.31322706,-2.1662009,0.51160693,2.0688655,0.29103705,0.039997805,0.039997295,-0.021029066321487377,-0.04796628325551833,-0.01769190715168456,0.1322038536824298,-0.18816037143847097,-0.003976048753973654,0.9135753889043373,0.11387632145952854,0.35096175069180646,0.17099134992881196
2668.5666666730344,-0.29527655,-0.58708197,-0.31450123,-2.165427,0.5136843,2.070887,0.2890276,0.039997842,0.039997336,-0.019872982488022828,-0.047690040585579574,-0.016856710072987724,0.13115557303739944,-0.1859521684466297,-0.00468875851652947,0.9129181557189723,0.1146972956022071,0.35250875214267025,0.17077046291155773
2668.5833333397013,-0.29645815,-0.58629286,-0.31576067,-2.1646621,0.51573765,2.0728858,0.2870413,0.039997887,0.039997388,-0.02139886234369115,-0.04903275360215176,-0.01572323119822805,0.1300764490845657,-0.1837316740362412,-0.005376015777119308,0.9122664431201952,0.11551100209861326,0.35403627489520256,0.17054460181820533
2668.600000006368,-0.29762587,-0.5855131,-0.31700528,-2.1639068,0.5177669,2.0748596,0.28507853,0.03999793,0.039997436,-0.022842242110998612,-0.05087776462970872,-0.015705086141970526,0.12896659954993406,-0.18150309504963646,-0.006038037392654006,0.9116205846407895,0.1163171878718168,0.3555434708381769,0.170314596582677
2668.616666673035,-0.29877955,-0.58474267,-0.31823492,-2.1631606,0.5197717,2.0768104,0.28313935,0.03999799,0.039997503,-0.021210327679010987,-0.05035753745586957,-0.014461778685781468,0.12783113988235764,-0.1792701168519095,-0.006680200372968646,0.9109804875527209,0.11711588352441786,0.3570310773262042,0.1700800721654125
2668.633333339702,-0.29991907,-0.58398175,-0.31944972,-2.162423,0.521752,2.0787375,0.2812239,0.039998032,0.039997548,-0.02008411309901703,-0.050858701369937975,-0.01414965534780599,0.12666510738587344,-0.177030811589271,-0.007297854739023835,0.910346187633174,0.11790690344335701,0.35849923975815107,0.16984132558059162
2668.650000006369,-0.30104443,-0.5832303,-0.32064942,-2.1616948,0.52370757,2.0806408,0.2793322,0.039998077,0.0399976,-0.02214718742119537,-0.05212794211024718,-0.013292131803233076,0.12546961672137752,-0.17478092176857016,-0.007890788468547107,0.909717974770793,0.11869007844022912,0.359947392014729,0.16959878136523857
2668.6666666730357,-0.30215555,-0.58248836,-0.32183373,-2.160976,0.5256384,2.0825195,0.27746466,0.03999812,0.03999765,-0.021894783239240212,-0.05343160397950353,-0.01248141820777704,0.12424534759012916,-0.17252573559076084,-0.008459341511651338,0.9090959923799634,0.11946521602710335,0.3613753336279104,0.16935290680588674
2668.6833333397026,-0.3032523,-0.581756,-0.3230028,-2.1602664,0.5275442,2.084374,0.27562127,0.03999817,0.039997704,-0.021639775844040088,-0.05355194227723015,-0.011940185302083961,0.12299541724948307,-0.17026707601246827,-0.009006805809433732,0.9084803129254647,0.12023220847272068,0.36278319183197766,0.16910379296995234
2668.7000000063695,-0.3043347,-0.58103323,-0.32415643,-2.1595654,0.5294249,2.0862038,0.27380216,0.03999822,0.03999776,-0.020251095393009066,-0.05400136926545507,-0.011235648529162034,0.12171949249893929,-0.16800439984796026,-0.009531547967585471,0.9078709735136241,0.12099086571185028,0.3641711782471461,0.1688515880879026
2668.7166666730363,-0.3054025,-0.5803202,-0.32529464,-2.1588743,0.53128046,2.0880098,0.27200738,0.039998267,0.039997812,-0.022032188319753843,-0.05478538448420167,-0.010294358130136239,0.12041593829574045,-0.16573619601113473,-0.01003142218667543,0.9072681068790992,0.12174119858645654,0.3655391074589708,0.16859663022981075
2668.733333339703,-0.30645573,-0.57961684,-0.32641742,-2.158193,0.53311074,2.0897906,0.2702372,0.039998315,0.03999787,-0.02315323578780948,-0.05598812626597116,-0.009987783256448779,0.11908669844152088,-0.16346422007681297,-0.010509726261239662,0.9066719780629316,0.122483065775096,0.3668863543878045,0.1683396143449622
2668.75000000637,-0.3074943,-0.57892334,-0.32752463,-2.1575212,0.5349155,2.0915468,0.2684916,0.03999836,0.039997917,-0.02117715347322857,-0.05591784990534032,-0.009171020716647327,0.1177337284816179,-0.1611946967246218,-0.010968578722159634,0.9060825385436784,0.12321626276583575,0.3682135126084287,0.1680803232648802
2668.766666673037,-0.30851814,-0.5782396,-0.32861623,-2.156858,0.53669477,2.093278,0.26677066,0.03999841,0.039997973,-0.019990542376246978,-0.0564627174993837,-0.008459804620031264,0.11635557083264228,-0.15892014648220437,-0.0114044052985472,0.9054998441198997,0.12394056601320823,0.3695207012903515,0.16781900879533762
2668.783333339704,-0.30952722,-0.5775657,-0.3296921,-2.1562045,0.5384484,2.0949838,0.26507458,0.039998453,0.039998025,-0.02231937713887966,-0.05758798922887998,-0.007785964961359859,0.114954724207525,-0.1566423519627617,-0.011817537985717913,0.9049241450185074,0.12465597151158181,0.3708073532136331,0.16755622140561396
2668.8000000063707,-0.31052154,-0.57690173,-0.33075213,-2.1555607,0.54017633,2.0966654,0.26340336,0.039998494,0.039998073,-0.021698481504373035,-0.05744131633994565,-0.006953916762619805,0.11353089337541078,-0.15436538694650317,-0.01221031808527647,0.9043554068685256,0.12536250713969854,0.3720738643494232,0.16729189860659605
2668.8166666730376,-0.31150094,-0.57624775,-0.33179644,-2.1549268,0.54187834,2.0983214,0.26175708,0.03999854,0.03999812,-0.022087181494567787,-0.05855780595930282,-0.006619743055513716,0.1120827936543221,-0.1520874007636424,-0.012580787635848767,0.9037938552824294,0.12605985997093838,0.37331984450996397,0.16702656241714023
2668.8333333397045,-0.3124655,-0.57560354,-0.33282483,-2.1543021,0.54355454,2.0999522,0.26013586,0.039998595,0.039998185,-0.02126378472380175,-0.058645068635987396,-0.005637666389524121,0.11061457974361447,-0.14981133587856466,-0.012931950158906943,0.9032394955010197,0.12674801466063124,0.3745455215096193,0.16676032760743512
2668.8500000063714,-0.3134151,-0.5749695,-0.3338374,-2.1536872,0.5452049,2.1015582,0.25853983,0.039998647,0.039998244,-0.02136649192134854,-0.05887731638671845,-0.005249679819852027,0.10912562851253388,-0.14753700268498865,-0.013263537148226649,0.9026923321885166,0.12742702299788647,0.375751056788499,0.16649339488483958
2668.8666666730383,-0.31434968,-0.57434535,-0.33483398,-2.1530826,0.546829,2.1031382,0.25696898,0.0399987,0.0399983,-0.023180068462291814,-0.060365838846809794,-0.004480362422265571,0.10761302251288965,-0.1452619344072163,-0.01357328213545243,0.9021527448199903,0.12809651985045695,0.37693569478028877,0.16622631746044278
2668.883333339705,-0.3152693,-0.57373124,-0.33581454,-2.1524868,0.5484271,2.1046937,0.25542334,0.03999875,0.03999836,-0.019388909999129567,-0.05920585278800239,-0.003724067171040346,0.1060844779025762,-0.14299411976643311,-0.01386679634103485,0.9016204017595527,0.12875659396386085,0.378100666420145,0.1659586595945224
2668.900000006372,-0.3161739,-0.5731272,-0.3367791,-2.1519012,0.54999906,2.106222,0.2539029,0.039998803,0.03999842,-0.02336731853733731,-0.061666599611409634,-0.0035725589119017798,0.10453363745433698,-0.14072292263274827,-0.014137097944110302,0.9010958713752085,0.1294068423734952,0.37924448245576214,0.16569164814297777
2668.916666673039,-0.31706336,-0.57253313,-0.33772752,-2.151326,0.551545,2.1077268,0.252408,0.039998855,0.03999848,-0.02161213259994632,-0.05995790749601104,-0.001915101339311498,0.10297051982896875,-0.13846270044403208,-0.014393585791426241,0.9005787449706399,0.13004787754028252,0.3803684818577029,0.16542457998629195
2668.9333333397058,-0.31793767,-0.57194924,-0.33865997,-2.1507602,0.5530647,2.1092043,0.25093842,0.03999891,0.03999854,-0.021747567211072294,-0.06218864100042687,-0.0024723183292607587,0.10138273348435793,-0.13620225754106888,-0.014628241531415846,0.9000694948727564,0.13067882283889226,0.3814716542600447,0.16515848950946288
2668.9500000063726,-0.31879684,-0.57137537,-0.33957633,-2.150204,0.55455816,2.1106577,0.24949415,0.039998967,0.039998602,-0.020353365309144777,-0.060454432855139295,-0.00105689642357909,0.09978458352700104,-0.1339507394693814,-0.014849198153275116,0.8995678050363093,0.13130014770069434,0.38255515406334073,0.16489266040520534
2668.9666666730395,-0.3196409,-0.5708117,-0.34047663,-2.1496575,0.5560252,2.1120849,0.24807534,0.03999901,0.03999865,-0.021530406639946875,-0.06206059283355714,-0.0010642550522854677,0.09816689693680937,-0.1317001272804423,-0.015049023069549953,0.8990740115599903,0.13191149336621288,0.38361821257104844,0.16462790358598375
2668.9833333397064,-0.32046986,-0.5702581,-0.34136072,-2.1491208,0.5574662,2.1134865,0.24668199,0.039999053,0.039998703,-0.02116843271831037,-0.062141842053908825,-5.388296868691356e-05,0.09653436753737452,-0.12945581545885493,-0.015231658366993061,0.8985880552428277,0.13251292081287538,0.38466113609119906,0.1643643610202093
2669.0000000063733,-0.3212837,-0.5697143,-0.34222874,-2.148594,0.5588807,2.114863,0.24531412,0.039999094,0.03999875,-0.021561272361525496,-0.061736839489623385,0.000528847677450095,0.09488853694214662,-0.127217970844926,-0.015398540792187257,0.8981100630132838,0.13310446132362774,0.38568387179645797,0.1641020052470893
2669.01666667304,-0.3220824,-0.56918097,-0.34308055,-2.1480768,0.5602689,2.1162128,0.24397168,0.03999914,0.0399988,-0.020951413201553137,-0.06325933204465173,0.0005678795447883189,0.0932261731883305,-0.1249885226383428,-0.015547448775846295,0.8976401239766088,0.13368569487442222,0.3866863542289253,0.16384140583608106
2669.033333339707,-0.32286602,-0.5686577,-0.34391627,-2.1475694,0.5616309,2.117538,0.2426547,0.039999176,0.039998844,-0.020675385254653733,-0.062016588906455006,0.0015536980931818434,0.09155511903991405,-0.12276630284522598,-0.01568108047138838,0.8971780961140945,0.13425701649375396,0.3876690992415866,0.16358235500353072
2669.050000006374,-0.32363445,-0.56814444,-0.3447359,-2.147072,0.56296664,2.118837,0.24136312,0.039999213,0.03999889,-0.02177385187431824,-0.06319108637213855,0.0020735325330756282,0.08986900623821348,-0.12055046317096384,-0.015798975526745924,0.8967242491094685,0.13481810560835691,0.3886315868466844,0.16332540881400465
2669.066666673041,-0.3243877,-0.56764144,-0.34553936,-2.146584,0.564276,2.1201112,0.24009696,0.039999247,0.03999893,-0.019453893699949987,-0.06257396482527433,0.002468784588560702,0.08817289435014918,-0.11834401378774308,-0.015902181980938998,0.8962784171920636,0.13536894210107567,0.38957457429925474,0.1630702285816741
2669.0833333397077,-0.3251258,-0.5671485,-0.3463268,-2.1461062,0.5655591,2.1213593,0.23885617,0.039999288,0.03999898,-0.02200280628135154,-0.06349967886869479,0.0029860125913883095,0.08646535698506672,-0.11614452471533067,-0.015987939399700037,0.895840863484548,0.13590950559123482,0.39049736187812195,0.16281757880349523
2669.1000000063746,-0.32584885,-0.56666553,-0.34709823,-2.1456382,0.566816,2.122582,0.23764075,0.03999933,0.039999027,-0.020958656669778364,-0.06299838366354837,0.003555291296164498,0.08474979186052092,-0.11395748645249953,-0.016061151450052394,0.8954115291959637,0.13643983977162805,0.39140031846803325,0.16256738359572706
2669.1166666730414,-0.3265569,-0.56619257,-0.34785363,-2.1451797,0.5680466,2.123779,0.23645063,0.039999366,0.039999068,-0.02030543536992724,-0.06301057949269495,0.003924410420230728,0.08302559146530415,-0.11178208744987156,-0.016120460926771833,0.8949904258552871,0.1369598513425249,0.39228363045807124,0.16231971544529228
2669.1333333397083,-0.32724994,-0.5657298,-0.348593,-2.1447315,0.56925124,2.124951,0.23528577,0.039999403,0.039999112,-0.02120537894918506,-0.06340922990977216,0.004371296780147915,0.08129362833371259,-0.10961656437849668,-0.016166274952603806,0.8945775962007442,0.13746959378594947,0.39314725381784305,0.16207489619158458
2669.150000006375,-0.32792795,-0.5652769,-0.34931648,-2.1442924,0.57042974,2.1260977,0.23414612,0.03999944,0.039999157,-0.01918407848018333,-0.06264868004088875,0.004963150940229255,0.07955445421004292,-0.10746203406749602,-0.016199439292099202,0.8941729558211899,0.13796899141681815,0.39399168262531625,0.16183274238390227
2669.166666673042,-0.328591,-0.5648341,-0.35002398,-2.1438627,0.57158244,2.1272187,0.23303165,0.039999478,0.0399992,-0.019993137703000485,-0.06361562374199714,0.00527154751330805,0.07780773773986005,-0.10531724219849017,-0.0162176653176423,0.8937766191413344,0.13845792747959734,0.3948166625630486,0.1615938128670662
2669.183333339709,-0.3292391,-0.5644012,-0.35071555,-2.143443,0.57270926,2.1283145,0.23194222,0.039999515,0.03999924,-0.020983777240202173,-0.06347322997182214,0.0059306739641273865,0.07605665707239015,-0.10318534969845841,-0.016223944312378336,0.8933886695710516,0.1389364711741104,0.3956221356602143,0.16135819729844175
2669.200000006376,-0.32987234,-0.5639781,-0.3513913,-2.1430328,0.5738101,2.1293852,0.23087777,0.03999956,0.03999929,-0.019637340416966964,-0.06280839337964306,0.006262167593273915,0.07430312426401044,-0.10106749599194303,-0.016220510141936196,0.8930090557523619,0.1394046027070217,0.3964084711386776,0.16112574933221768
2669.2166666730427,-0.33049077,-0.56356484,-0.35205123,-2.1426327,0.5748854,2.1304312,0.22983822,0.039999597,0.039999336,-0.021033681721549513,-0.06319687910243399,0.006709673394089677,0.07254504236787403,-0.0989620337452907,-0.01620348275963342,0.8926377951113879,0.13986246714882875,0.39717557243766044,0.16089692874800146
