rsonawane2002/My_IMU/logs_2/traj_492/imu_400hz_492.csv
time,j1,j2,j3,j4,j5,j6,j7,gripper1,gripper2,imu_ax,imu_ay,imu_az,imu_gx,imu_gy,imu_gz
0.0,0.00016700293,-0.785875,4.0107683e-05,-2.3551247,9.29385e-05,1.570997,0.786,0.04,0.04,-9.478993,-0.0019873951096087,0.07871556,2.7935795e-07,-0.0011641271412372,9.727319e-07
0.0025,0.000167002546,-0.7858577740000002,4.010779925e-05,-2.35513919,9.294537674999992e-05,1.570996565,0.786,0.04,0.04,-9.53231859999932,-0.001593775558290372,0.06826853655013303,2.31765375500606e-07,-0.001325277052817613,1.1025915949983465e-06
0.005,0.000167002162,-0.7858405480000005,4.01079155e-05,-2.35515368,9.295225349999983e-05,1.57099613,0.786,0.04,0.04,-9.585644199998642,-0.001200156006972044,0.05782151310026605,1.8417280100121198e-07,-0.0014864269643980262,1.232451289996693e-06
0.0075,0.00016700177800000002,-0.7858233220000007,4.010803175e-05,-2.35516817,9.295913024999974e-05,1.5709956950000001,0.786,0.04,0.04,-9.638969799997962,-0.000806536455653716,0.04737448965039907,1.36580226501818e-07,-0.001647576875978439,1.3623109849950394e-06
0.01,0.00016700139400000003,-0.785806096000001,4.0108147999999994e-05,-2.3551826599999997,9.296600699999965e-05,1.5709952600000001,0.786,0.04,0.04,-9.692295399997285,-0.00041291690433538776,0.03692746620053209,8.898765200242398e-08,-0.0018087267875588524,1.492170679993386e-06
0.0125,0.00016700101000000002,-0.7857888700000011,4.010826425e-05,-2.355197149999999,9.297288374999956e-05,1.570994825,0.786,0.04,0.04,-9.745620999996605,-1.9297353017059746e-05,0.026480442750665106,4.139507750302997e-08,-0.0019698766991392653,1.6220303749917326e-06
0.015,0.00016700062600000004,-0.7857716440000013,4.0108380499999994e-05,-2.355211639999999,9.297976049999949e-05,1.57099439,0.786,0.04,0.04,-9.798946599995926,0.00037432219830126805,0.01603341930079813,-6.1974969963640205e-09,-0.0021310266107196782,1.751890069990079e-06
0.0175,0.00016699835950000053,-0.7857548620000014,4.0106345800000564e-05,-2.355225734999999,9.299004604999848e-05,1.57099396,0.786,0.04,0.04,-9.83438555000003,0.0006327731069187694,0.009001060435018096,-3.859017914982237e-08,-0.0022881709621154077,2.15175068991623e-06
0.02,0.00016699232800000062,-0.7857389680000016,4.0100009200000644e-05,-2.355239039999999,9.300714919999826e-05,1.5709935400000001,0.786,0.04,0.04,-9.834051200000035,0.0006208867300313508,0.008798030740020682,-4.0583076599797e-08,-0.0024373041931387085,3.0916131599042625e-06
0.0225,0.0001669862965000007,-0.7857230740000019,4.009367260000073e-05,-2.3552523449999985,9.302425234999804e-05,1.57099312,0.786,0.04,0.04,-9.83371685000004,0.0006090003531439321,0.008595001045023266,-4.257597404977162e-08,-0.00258643742416201,4.031475629892295e-06
0.025,0.00016698026500000076,-0.7857071800000021,4.008733600000081e-05,-2.3552656499999984,9.304135549999783e-05,1.5709927000000001,0.786,0.04,0.04,-9.833382500000042,0.0005971139762565135,0.008391971350025852,-4.4568871499746245e-08,-0.002735570655185311,4.9713380998803285e-06
0.0275,0.00016697423350000085,-0.7856912860000023,4.008099940000089e-05,-2.355278954999998,9.305845864999761e-05,1.57099228,0.786,0.04,0.04,-9.833048150000046,0.0005852275993690948,0.008188941655028438,-4.656176894972087e-08,-0.0028847038862086123,5.9112005698683605e-06
0.03,0.00016696820200000093,-0.7856753920000024,4.007466280000097e-05,-2.355292259999998,9.307556179999739e-05,1.5709918600000001,0.786,0.04,0.04,-9.83271380000005,0.0005733412224816762,0.007985911960031022,-4.855466639969549e-08,-0.003033837117231913,6.8510630398563925e-06
0.0325,0.000166962170500001,-0.7856594980000026,4.006832620000105e-05,-2.3553055649999974,9.309266494999716e-05,1.57099144,0.786,0.04,0.04,-9.832379450000055,0.0005614548455942576,0.0077828822650336076,-5.054756384967012e-08,-0.0031829703482552144,7.790925509844427e-06
0.035,0.00016694597800000378,-0.7856444530000026,4.005066310000416e-05,-2.3553180999999976,9.312820689999202e-05,1.57099101,0.786,0.04,0.04,-9.832126450000038,0.000544803592496133,0.007576919100036977,-3.1862997705173684e-08,-0.0033249391941106814,9.68303609957784e-06
0.0375,0.00016692470500000406,-0.7856298325000027,4.002733675000445e-05,-2.3553302499999975,9.317296824999145e-05,1.5709905750000002,0.786,0.04,0.04,-9.83191412500004,0.0005257699012908353,0.007369489200039618,-2.839699755543295e-09,-0.003463325847379494,1.205127074954768e-05
0.04,0.00016690343200000433,-0.785615212000003,4.000401040000475e-05,-2.3553423999999974,9.321772959999088e-05,1.5709901400000001,0.786,0.04,0.04,-9.831701800000044,0.0005067362100855377,0.0071620593000422585,2.6183598194087186e-08,-0.003601712500648307,1.4419505399517527e-05
0.0425,0.0001668821590000046,-0.7856005915000032,3.998068405000505e-05,-2.3553545499999973,9.326249094999031e-05,1.5709897050000001,0.786,0.04,0.04,-9.831489475000046,0.00048770251888024,0.0069546294000449,5.520689614371765e-08,-0.0037400991539171197,1.6787740049487376e-05
0.045,0.00016686088600000487,-0.7855859710000034,3.995735770000534e-05,-2.355366699999997,9.330725229998974e-05,1.57098927,0.786,0.04,0.04,-9.831277150000048,0.0004686688276749424,0.006747199500047541,8.423019409334806e-08,-0.0038784858071859328,1.9155974699457216e-05
0.0475,0.00016683961300000515,-0.7855713505000036,3.993403135000564e-05,-2.355378849999997,9.335201364998918e-05,1.570988835,0.786,0.04,0.04,-9.831064825000052,0.00044963513646964476,0.006539769600050182,1.1325349204297853e-07,-0.004016872460454746,2.1524209349427062e-05
0.05,0.00016681834000000542,-0.7855567300000038,3.991070500000594e-05,-2.355390999999997,9.339677499998861e-05,1.5709884,0.786,0.04,0.04,-9.830852500000054,0.00043060144526434706,0.006332339700052824,1.4227678999260898e-07,-0.004155259113723559,2.3892443999396908e-05
0.0525,0.0001667678560000135,-0.7855432480000036,3.985530625001481e-05,-2.355402129999997,9.34936547499741e-05,1.5709879800000002,0.786,0.04,0.04,-9.830604625000067,0.0004033048084311239,0.0061692733350436025,1.0647144950957407e-07,-0.004283910500782594,2.8218050098843365e-05
0.055,0.00016671737200001414,-0.7855297660000038,3.979990750001552e-05,-2.3554132599999966,9.359053449997286e-05,1.57098756,0.786,0.04,0.04,-9.83035675000007,0.0003760081715957965,0.006006206970045679,7.066610901002995e-08,-0.004412561887839152,3.254365619878829e-05
0.0575,0.0001666668880000148,-0.785516284000004,3.974450875001622e-05,-2.3554243899999965,9.368741424997163e-05,1.5709871400000002,0.786,0.04,0.04,-9.830108875000073,0.000348711534760469,0.005843140605047755,3.486076851048581e-08,-0.004541213274895708,3.686926229873322e-05
0.06,0.00016661640400001543,-0.7855028020000042,3.968911000001693e-05,-2.3554355199999963,9.378429399997039e-05,1.57098672,0.786,0.04,0.04,-9.829861000000076,0.00032141489792514164,0.005680074240049832,-9.445719890582091e-10,-0.004669864661952266,4.1194868398678134e-05
0.0625,0.00016656592000001609,-0.7854893200000044,3.9633711250017634e-05,-2.355446649999996,9.388117374996916e-05,1.5709863000000002,0.786,0.04,0.04,-9.82961312500008,0.00029411826108981416,0.005517007875051908,-3.674991248860233e-08,-0.004798516049008822,4.552047449862306e-05
0.065,0.00016651543600001672,-0.7854758380000045,3.957831250001834e-05,-2.355457779999996,9.397805349996792e-05,1.57098588,0.786,0.04,0.04,-9.829365250000082,0.00026682162425448674,0.005353941510053984,-7.255525298814648e-08,-0.00492716743606538,4.984608059856799e-05
0.0675,0.00016644925150003355,-0.7854626975000043,3.950579950003669e-05,-2.3554685399999964,9.410315519993758e-05,1.5709856199999999,0.7859999050000002,0.04,0.04,-9.829115850000086,0.00023835295434000586,0.005201299885045308,-1.4945514594530723e-07,-0.005053161713253172,5.5101281397554163e-05
0.07,0.0001663516660000348,-0.7854502400000045,3.9399058000038054e-05,-2.3554785599999963,9.428470079993527e-05,1.57098568,0.7859996200000001,0.04,0.04,-9.82886340000009,0.0002075402182636367,0.005069507740046986,-3.085441439432817e-07,-0.005173841770695315,6.221567159746358e-05
0.0725,0.00016625408050003604,-0.7854377825000046,3.9292316500039416e-05,-2.3554885799999963,9.446624639993295e-05,1.57098574,0.7859993350000002,0.04,0.04,-9.828610950000094,0.00017672748218726766,0.004937715595048665,-4.676331419412553e-07,-0.005294521828137458,6.933006179737295e-05
0.075,0.00016615649500003728,-0.7854253250000047,3.918557500004077e-05,-2.3554985999999962,9.464779199993065e-05,1.5709857999999999,0.7859990500000001,0.04,0.04,-9.828358500000096,0.0001459147461108985,0.0048059234500503435,-6.267221399392299e-07,-0.0054152018855796015,7.644445199728238e-05
0.0775,0.00016605890950003853,-0.7854128675000049,3.907883350004213e-05,-2.355508619999996,9.482933759992834e-05,1.57098586,0.7859987650000001,0.04,0.04,-9.8281060500001,0.00011510201003452929,0.004674131305052022,-7.858111379372043e-07,-0.005535881943021745,8.35588421971918e-05
0.08,0.00016596132400003975,-0.785400410000005,3.897209200004349e-05,-2.355518639999996,9.501088319992602e-05,1.57098592,0.7859984800000002,0.04,0.04,-9.827853600000104,8.428927395816012e-05,0.004542339160053699,-9.449001359351788e-07,-0.005656562000463888,9.067323239710121e-05
0.0825,0.000165863738500041,-0.7853879525000051,3.886535050004485e-05,-2.355528659999996,9.519242879992372e-05,1.57098598,0.7859981950000001,0.04,0.04,-9.827601150000106,5.347653788179092e-05,0.004410547015055377,-1.1039891339331531e-06,-0.005777242057906032,9.778762259701063e-05
0.085,0.00016572044500007193,-0.7853761500000049,3.8709058000078385e-05,-2.355538169999996,9.545631509986794e-05,1.57098609,0.7859979100000002,0.04,0.0399999995,-9.82739450000008,1.6457214968890807e-05,0.004267727300064216,-5.879862203695157e-07,-0.005891466746058677,0.00010698506239556737
0.08750000000000001,0.00016555429750007402,-0.7853646750000051,3.852799000008069e-05,-2.355547424999996,9.576137174986405e-05,1.570986225,0.7859976250000001,0.04,0.03999999875,-9.827210750000082,-2.3665401368201856e-05,0.004119393800066104,2.6556264961961686e-07,-0.006002463749560409,0.00011722402699543701
0.09,0.00016538815000007614,-0.7853532000000053,3.8346922000083e-05,-2.355556679999996,9.606642839986017e-05,1.57098636,0.7859973400000002,0.04,0.039999998,-9.827027000000085,-6.37880177052943e-05,0.003971060300067994,1.1191115196087446e-06,-0.00611346075306214,0.00012746299159530658
0.0925,0.00016522200250007827,-0.7853417250000054,3.81658540000853e-05,-2.3555659349999956,9.637148504985628e-05,1.5709864949999999,0.7859970550000002,0.04,0.03999999725,-9.826843250000087,-0.00010391063404238695,0.0038227268000698826,1.9726603895978773e-06,-0.0062244577565638715,0.00013770195619517624
0.095,0.0001650558550000804,-0.7853302500000056,3.798478600008761e-05,-2.3555751899999957,9.66765416998524e-05,1.57098663,0.7859967700000001,0.04,0.0399999965,-9.826659500000089,-0.0001440332503794796,0.003674393300071771,2.82620925958701e-06,-0.006335454760065603,0.00014794092079504587
0.0975,0.00016488970750008249,-0.7853187750000057,3.7803718000089915e-05,-2.3555844449999954,9.698159834984852e-05,1.570986765,0.7859964850000002,0.04,0.03999999575,-9.826475750000093,-0.0001841558667165723,0.00352605980007366,3.6797581295761424e-06,-0.006446451763567335,0.0001581798853949155
0.1,0.0001647235600000846,-0.7853073000000059,3.7622650000092216e-05,-2.355593699999995,9.728665499984464e-05,1.5709869,0.7859962000000001,0.04,0.039999995,-9.826292000000095,-0.00022427848305366495,0.0033777263000755483,4.533306999565275e-06,-0.006557448767069067,0.00016841884999478515
0.10250000000000001,0.00016446428950013533,-0.7852966650000056,3.7341025600147016e-05,-2.3556023549999954,9.775451024975576e-05,1.570987035,0.7859956300000003,0.04,0.03999999575,-9.826131050000084,-0.00026956323415464924,0.0032779100600521084,4.9877746747627466e-06,-0.0066629980923056725,0.0001818900424929674
0.105,0.00016420501900013865,-0.7852860300000057,3.705940120015061e-05,-2.3556110099999956,9.82223654997498e-05,1.57098717,0.7859950600000003,0.04,0.0399999965,-9.825970100000086,-0.0003148479852582624,0.00317809382005338,5.442242349756958e-06,-0.006768547417539504,0.00019536123499279583
0.1075,0.00016394574850014194,-0.7852753950000059,3.677777680015419e-05,-2.3556196649999954,9.869022074974385e-05,1.5709873049999998,0.7859944900000003,0.04,0.03999999725,-9.825809150000088,-0.00036013273636187587,0.003078277580054651,5.8967100247511714e-06,-0.006874096742773335,0.0002088324274926243
0.11,0.00016368647800014526,-0.7852647600000059,3.649615240015778e-05,-2.3556283199999952,9.915807599973789e-05,1.57098744,0.7859939200000003,0.04,0.039999998,-9.82564820000009,-0.0004054174874654893,0.0029784613400559217,6.351177699745385e-06,-0.006979646068007166,0.0002223036199924528
0.1125,0.00016342720750014855,-0.785254125000006,3.6214528000161363e-05,-2.355636974999995,9.962593124973193e-05,1.570987575,0.7859933500000004,0.04,0.03999999875,-9.825487250000092,-0.0004507022385691027,0.0028786451000571926,6.805645374739599e-06,-0.007085195393240997,0.00023577481249228128
0.115,0.00016316793700015184,-0.7852434900000062,3.593290360016495e-05,-2.3556456299999953,0.00010009378649972597,1.5709877099999998,0.7859927800000004,0.04,0.0399999995,-9.825326300000095,-0.0004959869896727161,0.0027788288600584634,7.260113049733813e-06,-0.007190744718474828,0.00024924600499210976
0.11750000000000001,0.00016286845600022734,-0.7852330930000059,3.560799180024625e-05,-2.3556539399999954,0.000100632948999592,1.5709880149999995,0.7859922085000004,0.04,0.04,-9.825180050000071,-0.0005407808843038758,0.0026833241750519937,7.935961174330575e-06,-0.007295205513885408,0.0002641346299893935
0.12,0.00016248855400023218,-0.785223172000006,3.519650520025149e-05,-2.3556615599999957,0.00010131472599958331,1.5709886599999996,0.7859916340000004,0.04,0.04,-9.825063200000072,-0.0005845930659875028,0.0025964426000531005,9.054570199316327e-06,-0.007397489249643665,0.00028185811998916776
0.1225,0.00016210865200023703,-0.7852132510000062,3.478501860025673e-05,-2.3556691799999956,0.00010199650299957463,1.5709893049999994,0.7859910595000004,0.04,0.04,-9.824946350000072,-0.00062840524767113,0.0025095610250542065,1.0173179224302084e-05,-0.007499772985401923,0.0002995816099889421
0.125,0.00016172875000024188,-0.7852033300000063,3.437353200026197e-05,-2.3556767999999955,0.00010267827999956595,1.5709899499999995,0.7859904850000003,0.04,0.04,-9.824829500000074,-0.0006722174293547572,0.002422679450055313,1.129178824928784e-05,-0.0076020567211601804,0.00031730509998871646
0.1275,0.0001613488480002467,-0.7851934090000064,3.396204540026721e-05,-2.3556844199999953,0.00010336005699955727,1.5709905949999996,0.7859899105000003,0.04,0.04,-9.824712650000075,-0.0007160296110383844,0.002335797875056419,1.2410397274273599e-05,-0.0077043404569184385,0.00033502858998849075
0.13,0.00016096894600025154,-0.7851834880000066,3.355055880027245e-05,-2.355692039999995,0.00010404183399954858,1.5709912399999995,0.7859893360000004,0.04,0.04,-9.824595800000077,-0.0007598417927220115,0.0022489163000575254,1.3529006299259358e-05,-0.007806624192676696,0.0003527520799882651
0.1325,0.0001605890440002564,-0.7851735670000067,3.313907220027769e-05,-2.355699659999995,0.00010472361099953991,1.5709918849999995,0.7859887615000004,0.04,0.04,-9.824478950000078,-0.0008036539744056387,0.0021620347250586314,1.4647615324245115e-05,-0.007908907928434954,0.00037047556998803945
0.135,0.00016010877700036474,-0.7851641200000063,3.261974560039415e-05,-2.355706819999995,0.0001055834239993476,1.5709925799999995,0.7859879980000006,0.04,0.0399999995,-9.824302000000142,-0.0008472385932391706,0.002079799830054945,1.52520234997612e-05,-0.008006783388489197,0.0003910883699848339
0.1375,0.00015957832750037148,-0.7851549100000065,3.204649900040145e-05,-2.355713749999995,0.00010653225499933552,1.5709932999999994,0.7859871400000006,0.04,0.03999999875,-9.824095000000144,-0.000890709430647307,0.001999888275055963,1.5599331249756778e-05,-0.0081024547106847,0.00041314582498455307
0.14,0.00015904787800037824,-0.7851457000000066,3.147325240040875e-05,-2.3557206799999952,0.00010748108599932345,1.5709940199999994,0.7859862820000006,0.04,0.039999998,-9.823888000000148,-0.0009341802680554437,0.00191997672005698,1.5946638999752355e-05,-0.008198126032880202,0.0004352032799842722
0.14250000000000002,0.000158517428500385,-0.7851364900000067,3.090000580041605e-05,-2.355727609999995,0.00010842991699931137,1.5709947399999995,0.7859854240000006,0.04,0.03999999725,-9.82368100000015,-0.00097765110546358,0.0018400651650579975,1.6293946749747933e-05,-0.008293797355075705,0.0004572607349839914
0.145,0.00015798697900039176,-0.7851272800000069,3.032675920042335e-05,-2.355734539999995,0.00010937874799929927,1.5709954599999993,0.7859845660000007,0.04,0.0399999965,-9.823474000000152,-0.0010211219428717163,0.0017601536100590159,1.6641254499743506e-05,-0.008389468677271205,0.0004793181899837103
0.1475,0.0001574565295003985,-0.7851180700000069,2.975351260043065e-05,-2.3557414699999946,0.0001103275789992872,1.5709961799999994,0.7859837080000006,0.04,0.03999999575,-9.823267000000156,-0.0010645927802798527,0.0016802420550600333,1.6988562249739084e-05,-0.008485139999466708,0.0005013756449834295
0.15,0.00015692608000040525,-0.785108860000007,2.9180266000437946e-05,-2.3557483999999946,0.00011127640999927511,1.5709968999999995,0.7859828500000007,0.04,0.039999995,-9.823060000000158,-0.0011080636176879891,0.0016003305000610508,1.7335869999734664e-05,-0.00858081132166221,0.0005234330999831486
0.1525,0.00015621295300055388,-0.7851002335000067,2.8411061650597448e-05,-2.355754774999995,0.00011254390624901552,1.5709981299999989,0.7859817025000009,0.03999999925,0.039999995,-9.822978700000062,-0.0011615492752337622,0.0015452206050428044,1.799701749948648e-05,-0.008674103999437873,0.0005498957399794462
0.155,0.00015549982600056297,-0.7850916070000068,2.7641857300607242e-05,-2.355761149999995,0.00011381140249899938,1.570999359999999,0.7859805550000009,0.0399999985,0.039999995,-9.822897400000064,-0.001215034932787186,0.001490110710043506,1.8658164999478063e-05,-0.008767396677211721,0.0005763583799791093
0.1575,0.00015478669900057204,-0.7850829805000069,2.6872652950617036e-05,-2.3557675249999948,0.00011507889874898325,1.571000589999999,0.785979407500001,0.03999999775,0.039999995,-9.822816100000065,-0.0012685205903406101,0.0014350008150442078,1.9319312499469643e-05,-0.008860689354985568,0.0006028210199787725
0.16,0.00015407357200058114,-0.785074354000007,2.610344860062683e-05,-2.355773899999995,0.00011634639499896712,1.5710018199999989,0.7859782600000009,0.039999997,0.039999995,-9.822734800000067,-0.0013220062478940342,0.0013798909200449093,1.9980459999461226e-05,-0.008953982032759416,0.0006292836599784355
0.1625,0.0001533604450005902,-0.7850657275000071,2.533424425063662e-05,-2.355780274999995,0.00011761389124895097,1.571003049999999,0.7859771125000009,0.03999999625,0.039999995,-9.822653500000067,-0.0013754919054474583,0.001324781025045611,2.064160749945281e-05,-0.009047274710533263,0.0006557462999780986
0.165,0.0001526473180005993,-0.7850571010000073,2.456503990064642e-05,-2.355786649999995,0.00011888138749893484,1.571004279999999,0.785975965000001,0.0399999955,0.039999995,-9.822572200000069,-0.0014289775630008821,0.0012696711300463127,2.1302754999444393e-05,-0.009140567388307111,0.0006822089399777617
0.1675,0.00015186190500080183,-0.785048641000007,2.3718407300863483e-05,-2.3557927049999954,0.00012027585924857874,1.571005529999999,0.7859746550000014,0.039999994750000004,0.039999994750000004,-9.822486650000082,-0.0014804195903298058,0.001215803220044303,2.1969285749416038e-05,-0.009232861688282697,0.0007103372629728756
0.17,0.00015093192000083906,-0.7850405140000074,2.271691820090356e-05,-2.3557981199999953,0.00012192428199851278,1.571006819999999,0.7859730200000015,0.039999994000000004,0.039999994000000004,-9.822392600000086,-0.0015277743571941158,0.0011644192800463592,2.2646582999388935e-05,-0.009323159232654133,0.0007417969519716166
0.17250000000000001,0.00015000193500087626,-0.7850323870000077,2.1715429100943635e-05,-2.355803534999995,0.00012357270474844682,1.5710081099999988,0.7859713850000015,0.039999993250000004,0.039999993250000004,-9.82229855000009,-0.0015751291240584258,0.0011130353400484155,2.332388024936183e-05,-0.00941345677702557,0.0007732566409703577
0.17500000000000002,0.00014907195000091346,-0.785024260000008,2.071394000098371e-05,-2.355808949999995,0.00012522112749838084,1.5710093999999988,0.7859697500000016,0.039999992500000005,0.039999992500000005,-9.822204500000094,-0.0016224838909227358,0.0010616514000504717,2.4001177499334725e-05,-0.009503754321397006,0.0008047163299690988
0.1775,0.0001481419650009507,-0.7850161330000084,1.9712450901023798e-05,-2.3558143649999947,0.00012686955024831484,1.5710106899999987,0.7859681150000016,0.03999999175,0.03999999175,-9.822110450000096,-0.0016698386577870454,0.0010102674600525284,2.4678474749307615e-05,-0.009594051865768442,0.0008361760189678396
0.18,0.0001472119800009879,-0.7850080060000086,1.8710961801063877e-05,-2.3558197799999943,0.0001285179729982489,1.5710119799999986,0.7859664800000017,0.039999991,0.039999991,-9.8220164000001,-0.0017171934246513554,0.0009588835200545847,2.5355771999280512e-05,-0.009684349410139879,0.0008676357079665806
0.1825,0.00014628199500102513,-0.784999879000009,1.7709472701103953e-05,-2.355825194999994,0.00013016639574818292,1.5710132699999986,0.7859648450000017,0.03999999025,0.03999999025,-9.821922350000104,-0.0017645481915156654,0.0009074995800566409,2.603306924925341e-05,-0.009774646954511315,0.0008990953969653217
0.185,0.00014518354600130798,-0.7849920330000085,1.6527720301406638e-05,-2.3558304399999943,0.00013211040199768658,1.571014939999998,0.7859629660000022,0.039999989799999996,0.039999989799999996,-9.821807500000139,-0.0018099149805002762,0.0008751410300252663,2.7190744898454035e-05,-0.009863692801347843,0.0009339924539595049
0.1875,0.00014400086500129076,-0.7849843275000085,1.5255836251388127e-05,-2.3558355999999945,0.00013420219999771702,1.571016799999998,0.7859609650000021,0.0399999895,0.0399999895,-9.821682250000137,-0.001854287780540047,0.0008522951750249339,2.858860974847438e-05,-0.009952112799413774,0.0009706081949600378
0.19,0.00014281818400127357,-0.7849766220000083,1.3983952201369617e-05,-2.3558407599999946,0.00013629399799774746,1.571018659999998,0.7859589640000021,0.0399999892,0.0399999892,-9.821557000000135,-0.0018986605805798177,0.0008294493200246013,2.9986474598494724e-05,-0.010040532797479707,0.0010072239359605706
0.1925,0.00014163550300125635,-0.7849689165000082,1.2712068151351109e-05,-2.355845919999995,0.0001383857959977779,1.571020519999998,0.7859569630000021,0.0399999889,0.0399999889,-9.821431750000134,-0.0019430333806195884,0.0008066034650242689,3.138433944851507e-05,-0.010128952795545638,0.0010438396769611035
0.195,0.00014045282200123913,-0.7849612110000082,1.1440184101332597e-05,-2.355851079999995,0.00014047759399780834,1.571022379999998,0.785954962000002,0.0399999886,0.0399999886,-9.821306500000132,-0.001987406180659359,0.0007837576100239364,3.278220429853541e-05,-0.01021737279361157,0.0010804554179616364
0.1975,0.00013927014100122194,-0.784953505500008,1.0168300051314088e-05,-2.3558562399999947,0.00014256939199783878,1.571024239999998,0.785952961000002,0.0399999883,0.0399999883,-9.82118125000013,-0.00203177898069913,0.0007609117550236039,3.418006914855575e-05,-0.010305792791677502,0.0011170711589621692
0.2,0.00013808746000120472,-0.7849458000000079,8.896416001295578e-06,-2.355861399999995,0.00014466118999786925,1.571026099999998,0.785950960000002,0.039999988,0.039999988,-9.821056000000128,-0.0020761517807389007,0.0007380659000232714,3.55779339985761e-05,-0.010394212789743434,0.0011536868999627021
0.2025,0.00013661474500147874,-0.7849384395000074,7.314444826588421e-06,-2.355865539999996,0.00014726133649738926,1.5710285299999975,0.7859484010000025,0.0399999874,0.0399999868,-9.820999600000057,-0.0021089904708457776,0.0007145878700235737,3.6899238398673314e-05,-0.010482444334686574,0.0011957871899577282
0.20500000000000002,0.0001351420300014573,-0.7849310790000074,5.732473651565399e-06,-2.355869679999996,0.0001498614829974271,1.5710309599999976,0.7859458420000025,0.0399999868,0.0399999856,-9.820943200000055,-0.0021418291609409056,0.000691109840023232,3.822054279869254e-05,-0.010570675879629524,0.0012378874799583407
0.20750000000000002,0.00013366931500143585,-0.7849237185000072,4.150502476542377e-06,-2.3558738199999962,0.00015246162949746493,1.5710333899999978,0.7859432830000025,0.039999986200000004,0.0399999844,-9.820886800000055,-0.0021746678510360332,0.0006676318100228904,3.954184719871177e-05,-0.010658907424572471,0.0012799877699589534
0.21,0.00013219660000141444,-0.7849163580000071,2.568531301519372e-06,-2.355877959999996,0.00015506177599750273,1.5710358199999976,0.7859407240000025,0.0399999856,0.0399999832,-9.820830400000053,-0.002207506541131161,0.0006441537800225489,4.086315159873098e-05,-0.01074713896951542,0.0013220880599595657
0.2125,0.000130723885001393,-0.784908997500007,9.865601264963499e-07,-2.355882099999996,0.00015766192249754056,1.5710382499999977,0.7859381650000024,0.039999985,0.039999981999999996,-9.820774000000053,-0.002240345231226289,0.0006206757500222073,4.218445599875021e-05,-0.010835370514458369,0.0013641883499601784
0.215,0.00012925117000137158,-0.7849016370000069,-5.954110485266729e-07,-2.3558862399999962,0.00016026206899757842,1.5710406799999979,0.7859356060000023,0.0399999844,0.0399999808,-9.820717600000052,-0.0022731839213214165,0.0005971977200218656,4.350576039876944e-05,-0.010923602059401316,0.0014062886399607909
0.2175,0.00012766889500168423,-0.7848943735000067,-2.2944152731926545e-06,-2.3558902499999963,0.00016305403199703093,1.5710432999999973,0.7859328725000029,0.0399999838,0.03999997985,-9.820647200000092,-0.0023105492349279754,0.0005787807550077553,4.496834864836835e-05,-0.011010834295222899,0.0014501905699555845
0.22,0.00012586750000175633,-0.784887304000007,-4.227485598115299e-06,-2.355893999999996,0.00016622962799690385,1.571046299999997,0.785929790000003,0.0399999832,0.039999979399999996,-9.820548800000095,-0.002356967795594943,0.0005704859200080872,4.6713504598298514e-05,-0.011096067912793458,0.0014976957799536835
0.2225,0.0001240661050018284,-0.7848802345000072,-6.160555923037944e-06,-2.355897749999996,0.00016940522399677677,1.571049299999997,0.785926707500003,0.039999982600000004,0.03999997895,-9.8204504000001,-0.0024033863562619106,0.0005621910850084192,4.845866054822868e-05,-0.011181301530364018,0.0015452009899517825
0.225,0.0001222647100019005,-0.7848731650000075,-8.093626247960589e-06,-2.355901499999996,0.00017258081999664971,1.5710522999999967,0.7859236250000032,0.039999982,0.0399999785,-9.820352000000103,-0.002449804916928878,0.0005538962500087511,5.020381649815884e-05,-0.011266535147934577,0.0015927061999498815
0.2275,0.00012046331500197259,-0.7848660955000077,-1.0026696572883233e-05,-2.3559052499999957,0.00017575641599652263,1.5710552999999967,0.7859205425000033,0.0399999814,0.039999978049999996,-9.820253600000107,-0.0024962234775958454,0.000545601415009083,5.1948972448089005e-05,-0.011351768765505137,0.0016402114099479804
0.23,0.00011866192000204467,-0.784859026000008,-1.1959766897805876e-05,-2.3559089999999956,0.00017893201199639555,1.5710582999999965,0.7859174600000035,0.0399999808,0.0399999776,-9.820155200000112,-0.002542642038262813,0.000537306580009415,5.369412839801917e-05,-0.011437002383075694,0.0016877166199460794
0.2325,0.00011686052500211676,-0.7848519565000084,-1.3892837222728521e-05,-2.3559127499999954,0.00018210760799626847,1.5710612999999964,0.7859143775000036,0.0399999802,0.03999997715,-9.820056800000115,-0.0025890605989297806,0.000529011745009747,5.543928434794933e-05,-0.011522236000646254,0.0017352218299441784
0.23500000000000001,0.00011481353050259701,-0.7848450450000082,-1.608813109721555e-05,-2.355916009999996,0.00018571292099542767,1.5710646899999956,0.7859108880000044,0.0399999793,0.039999976300000004,-9.820003000000037,-0.0026250876951593284,0.0005320119899896496,5.720987919786557e-05,-0.011607947014169267,0.0017865212699363297
0.23750000000000002,0.00011264373625262463,-0.7848382125000083,-1.841453674718593e-05,-2.3559190249999964,0.00018953309249537903,1.5710682749999956,0.7859071950000044,0.03999997825,0.03999997525,-9.819971500000038,-0.0026559190591423807,0.0005406597749895395,5.8993193497842866e-05,-0.011693896725669783,0.0018397178249356524
0.24,0.00011047394200265228,-0.7848313800000084,-2.0740942397156285e-05,-2.3559220399999963,0.00019335326399533035,1.5710718599999955,0.7859035020000045,0.0399999772,0.0399999742,-9.819940000000038,-0.002686750423125433,0.0005493075599894292,6.077650779782014e-05,-0.011779846437170298,0.0018929143799349744
0.2425,0.00010830414775267991,-0.7848245475000084,-2.3067348047126663e-05,-2.355925054999996,0.00019717343549528171,1.5710754449999955,0.7858998090000046,0.03999997615,0.03999997315,-9.819908500000038,-0.0027175817871084853,0.0005579553449893192,6.255982209779743e-05,-0.011865796148670813,0.0019461109349342971
0.245,0.00010613435350270753,-0.7848177150000085,-2.5393753697097042e-05,-2.355928069999996,0.00020099360699523308,1.5710790299999955,0.7858961160000046,0.0399999751,0.0399999721,-9.819877000000039,-0.0027484131510915376,0.0005666031299892091,6.434313639777472e-05,-0.01195174586017133,0.00199930748993362
0.2475,0.00010396455925273515,-0.7848108825000086,-2.7720159347067424e-05,-2.355931084999996,0.00020481377849518445,1.5710826149999955,0.7858924230000047,0.039999974050000005,0.039999971050000006,-9.819845500000039,-0.00277924451507459,0.0005752509149890989,6.612645069775202e-05,-0.012037695571671845,0.0020525040449329425
0.25,0.00010179476500276279,-0.7848040500000086,-3.0046564997037803e-05,-2.355934099999996,0.0002086339499951358,1.5710861999999954,0.7858887300000047,0.039999973,0.03999997,-9.81981400000004,-0.0028100758790576426,0.0005838986999889889,6.790976499772931e-05,-0.012123645283172361,0.002105700599932265
0.2525,9.921585100331655e-05,-0.7847973615000086,-3.280953499644675e-05,-2.355936484999997,0.0002131694879941672,1.5710903849999946,0.7858843305000057,0.039999971950000004,0.039999968200000006,-9.81974290000009,-0.0028332334709986486,0.0006070871399701791,6.982485474753714e-05,-0.012209166539722953,0.002164846439923937
0.255,9.663693700334938e-05,-0.7847906730000087,-3.5572504996411574e-05,-2.3559388699999966,0.00021770502599410943,1.5710945699999945,0.7858799310000057,0.0399999709,0.0399999664,-9.819671800000092,-0.0028563910629298838,0.0006302755799698839,7.173994449751276e-05,-0.012294687796273,0.002223992279923184
0.2575,9.405802300338221e-05,-0.7847839845000087,-3.83354749963764e-05,-2.3559412549999967,0.0002222405639940517,1.5710987549999946,0.7858755315000058,0.039999969850000004,0.03999996460000001,-9.819600700000093,-0.002879548654861119,0.0006534640199695887,7.365503424748838e-05,-0.012380209052823044,0.002283138119922431
0.26,9.147910900341505e-05,-0.7847772960000088,-4.109844499634121e-05,-2.355943639999997,0.00022677610199399394,1.5711029399999945,0.7858711320000058,0.0399999688,0.039999962800000004,-9.819529600000093,-0.002902706246792354,0.0006766524599692934,7.5570123997464e-05,-0.012465730309373091,0.002342283959921678
0.2625,8.890019500344788e-05,-0.7847706075000089,-4.3861414996306036e-05,-2.3559460249999966,0.0002313116399939362,1.5711071249999944,0.7858667325000058,0.03999996775,0.03999996100000001,-9.819458500000096,-0.002925863838723589,0.0006998408999689982,7.748521374743961e-05,-0.012551251565923138,0.0024014297999209247
0.265,8.632128100348071e-05,-0.784763919000009,-4.662438499627086e-05,-2.3559484099999968,0.00023584717799387845,1.5711113099999943,0.785862333000006,0.0399999667,0.039999959200000004,-9.819387400000096,-0.0029490214306548248,0.000723029339968703,7.940030349741523e-05,-0.012636772822473183,0.002460575639920172
0.2675,8.359218525412738e-05,-0.784757263500009,-4.954753874558097e-05,-2.3559505899999977,0.00024064510149274826,1.571115809999993,0.785857685000007,0.039999966,0.0399999581,-9.81931790000009,-0.0029658247018176814,0.0007490504249568299,8.141252399699385e-05,-0.012722547352196365,0.002521611604911693
0.27,8.056272600416596e-05,-0.7847506740000091,-5.2791059995539674e-05,-2.3559523599999976,0.0002459677959926805,1.5711209399999928,0.785852540000007,0.039999966,0.0399999584,-9.819251600000092,-0.002969919331366109,0.0007807367999564266,8.361900599696576e-05,-0.012808828428268911,0.002586427819910868
0.2725,7.753326675420453e-05,-0.7847440845000091,-5.603458124549838e-05,-2.3559541299999975,0.0002512904904926127,1.571126069999993,0.7858473950000071,0.039999966,0.039999958700000005,-9.819185300000093,-0.002974013960914537,0.0008124231749560231,8.582548799693766e-05,-0.012895109504341458,0.002651244034910043
0.275,7.45038075042431e-05,-0.7847374950000092,-5.9278102495457086e-05,-2.3559558999999974,0.000256613184992545,1.5711311999999928,0.7858422500000072,0.039999966,0.039999959,-9.819119000000093,-0.002978108590462965,0.0008441095499556197,8.803196999690957e-05,-0.012981390580414004,0.0027160602499092176
0.2775,7.147434825428167e-05,-0.7847309055000093,-6.252162374541578e-05,-2.355957669999998,0.0002619358794924772,1.5711363299999928,0.7858371050000073,0.039999966,0.0399999593,-9.819052700000094,-0.002982203220011393,0.0008757959249552162,9.023845199688148e-05,-0.01306767165648655,0.0027808764649083924
0.28,6.844488900432024e-05,-0.7847243160000095,-6.576514499537449e-05,-2.3559594399999977,0.0002672585739924094,1.5711414599999927,0.7858319600000073,0.039999966,0.0399999596,-9.818986400000096,-0.0029862978495598207,0.0009074822999548128,9.244493399685338e-05,-0.013153952732559097,0.0028456926799075672
0.28250000000000003,6.541542975435882e-05,-0.7847177265000095,-6.90086662453332e-05,-2.3559612099999976,0.0002725812684923417,1.5711465899999926,0.7858268150000075,0.039999966,0.0399999599,-9.818920100000096,-0.0029903924791082484,0.0009391686749544094,9.465141599682528e-05,-0.013240233808631643,0.002910508894906742
0.28500000000000003,6.205753980511248e-05,-0.7847111670000095,-7.260236549452945e-05,-2.3559625599999987,0.00027847766999102475,1.5711522099999915,0.7858211160000087,0.039999966399999996,0.03999996,-9.818880300000039,-0.003002189844823915,0.0009815237799307769,9.690243599670022e-05,-0.013326398096853594,0.0029795050898968156
0.28750000000000003,5.8535434505157326e-05,-0.7847046225000096,-7.637115374448147e-05,-2.3559636999999984,0.00028466092499094604,1.5711580749999914,0.7858151400000088,0.039999967,0.03999996,-9.81885375000004,-0.0030178385786482106,0.0010292132499301696,9.917572499667128e-05,-0.013412503991149868,0.0030505912748959104
0.29,5.501332920520225e-05,-0.7846980780000097,-8.01399419944334e-05,-2.3559648399999986,0.00029084417999086716,1.5711639399999913,0.7858091640000089,0.0399999676,0.03999996,-9.81882720000004,-0.0030334873124725063,0.0010769027199295615,0.00010144901399664229,-0.013498609885446138,0.003121677459895004
0.2925,5.149122390524709e-05,-0.7846915335000098,-8.390873024438541e-05,-2.3559659799999983,0.00029702743499078845,1.5711698049999911,0.7858031880000089,0.0399999682,0.03999996,-9.818800650000039,-0.003049136046296802,0.0011245921899289543,0.00010372230299661335,-0.013584715779742412,0.0031927636448940986
0.295,4.796911860529194e-05,-0.7846849890000098,-8.767751849433742e-05,-2.3559671199999985,0.00030321068999070974,1.571175669999991,0.7857972120000091,0.0399999688,0.03999996,-9.81877410000004,-0.0030647847801210976,0.001172281659928347,0.00010599559199658441,-0.013670821674038686,0.0032638498298931938
0.2975,4.4447013305336775e-05,-0.7846784445000099,-9.144630674428944e-05,-2.3559682599999987,0.000309393944990631,1.571181534999991,0.7857912360000091,0.0399999694,0.03999996,-9.81874755000004,-0.0030804335139453937,0.0012199711299277398,0.00010826888099655545,-0.01375692756833496,0.0033349360148922885
0.3,4.092490800538162e-05,-0.78467190000001,-9.521509499424147e-05,-2.3559693999999984,0.00031557719999055227,1.571187399999991,0.7857852600000091,0.03999997,0.03999996,-9.818721000000041,-0.0030960822477696893,0.0012676605999271326,0.00011054216999652651,-0.013843033462631233,0.0034060221998913833
0.3025,3.6867571206251086e-05,-0.7846653300000102,-9.955435724331455e-05,-2.3559699699999994,0.0003226947329890341,1.5711942699999892,0.7857783750000107,0.03999997,0.03999996,-9.818692800000044,-0.0030908884364259518,0.0013322595549004734,0.0001130152874961897,-0.013930703839152047,0.0034830608948813076
0.305,3.2810234406302744e-05,-0.7846587600000102,-0.0001038936194932593,-2.3559705399999995,0.00032981226598894346,1.5712011399999892,0.7857714900000107,0.03999997,0.03999996,-9.818664600000044,-0.003085694625050368,0.0013968585098996507,0.00011548840499615821,-0.01401837421567525,0.0035600995898803266
0.3075,2.8752897606354402e-05,-0.7846521900000103,-0.00010823288174320406,-2.355971109999999,0.00033692979898885286,1.5712080099999892,0.7857646050000108,0.03999997,0.03999996,-9.818636400000045,-0.003080500813674784,0.0014614574648988284,0.00011796152249612672,-0.014106044592198455,0.0036371382848793456
0.31,2.469556080640606e-05,-0.7846456200000104,-0.0001125721439931488,-2.3559716799999992,0.0003440473319887622,1.5712148799999892,0.7857577200000109,0.03999997,0.03999996,-9.818608200000044,-0.0030753070022992,0.0015260564198980057,0.00012043463999609524,-0.014193714968721658,0.003714176979878365
0.3125,2.063822400645772e-05,-0.7846390500000104,-0.00011691140624309356,-2.3559722499999993,0.0003511648649886716,1.571221749999989,0.785750835000011,0.03999997,0.03999996,-9.818580000000045,-0.0030701131909236165,0.0015906553748971832,0.00012290775749606377,-0.014281385345244863,0.003791215674877384
0.315,1.6580887206509377e-05,-0.7846324800000106,-0.00012125066849303832,-2.3559728199999994,0.00035828239798858097,1.571228619999989,0.7857439500000111,0.03999997,0.03999996,-9.818551800000046,-0.0030649193795480325,0.0016552543298963608,0.00012538087499603228,-0.014369055721768066,0.0038682543698764036
0.3175,1.2330819207496022e-05,-0.7846258850000108,-0.00012579529799198677,-2.3559731550000005,0.0003657362659868587,1.5712358149999872,0.7857367405000127,0.0399999698,0.0399999599,-9.81851865000007,-0.0030499629560483397,0.001719750884896035,0.00012793347599561518,-0.014457076508408275,0.003947335924865512
0.32,7.695288807555043e-06,-0.7846192400000109,-0.0001307506619919237,-2.3559730200000004,0.00037386280398675524,1.5712436599999873,0.7857288820000128,0.039999969200000006,0.0399999596,-9.81847560000007,-0.0030154813081587186,0.0017840426398952167,0.00013064504399558065,-0.01454579811528758,0.0040305031998644535
0.3225,3.059758407614063e-06,-0.784612595000011,-0.0001357060259918606,-2.3559728850000003,0.0003819893419866518,1.5712515049999871,0.7857210235000129,0.039999968600000005,0.0399999593,-9.818432550000072,-0.0029809996602690974,0.001848334394894398,0.00013335661199554612,-0.014634519722166886,0.004113670474863394
0.325,-1.5757719923269177e-06,-0.7846059500000111,-0.0001406613899917975,-2.3559727500000003,0.0003901158799865483,1.571259349999987,0.785713165000013,0.039999968000000004,0.039999959,-9.818389500000071,-0.0029465180123794768,0.0019126261498935795,0.0001360681799955116,-0.014723241329046191,0.0041968377498623356
0.3275,-6.211302392267898e-06,-0.7845993050000112,-0.00014561675399173441,-2.355972615,0.00039824241798644487,1.5712671949999868,0.7857053065000131,0.0399999674,0.039999958700000005,-9.818346450000073,-0.0029120363644898556,0.001976917904892761,0.0001387797479954771,-0.014811962935925497,0.004280005024861276
0.33,-1.0846832792208875e-05,-0.7845926600000113,-0.0001505721179916713,-2.35597248,0.0004063689559863414,1.5712750399999866,0.7856974480000132,0.0399999668,0.0399999584,-9.818303400000072,-0.002877554716600235,0.0020412096598919423,0.00014149131599544256,-0.014900684542804802,0.004363172299860218
0.3325,-1.5482363192149856e-05,-0.7845860150000113,-0.00015552748199160822,-2.355972345,0.00041449549398623795,1.5712828849999867,0.7856895895000133,0.0399999662,0.0399999581,-9.818260350000074,-0.002843073068710614,0.002105501414891124,0.00014420288399540803,-0.014989406149684107,0.004446339574859158
0.335,-2.0532184491030542e-05,-0.7845792700000116,-0.00016092417599041563,-2.355971920000001,0.00042334476798428476,1.5712914399999847,0.7856810390000152,0.039999966,0.039999958,-9.81823850000002,-0.0028207381721862654,0.002190509029837287,0.00014700986599512931,-0.015079038403774532,0.004533615379847584
0.3375,-2.5789151240963607e-05,-0.7845724750000117,-0.00016654153499034413,-2.355971350000001,0.0004325554099841675,1.5713003499999847,0.7856721425000153,0.039999966,0.039999958,-9.81822725000002,-0.0028044766513909527,0.0022858745748360726,0.00014986455499509297,-0.015169125981473996,0.004622945449846447
0.34,-3.1046117990896676e-05,-0.7845656800000118,-0.0001721588939902726,-2.3559707800000007,0.0004417660519840502,1.5713092599999845,0.7856632460000154,0.039999966,0.039999958,-9.81821600000002,-0.0027882151305956395,0.002381240119834859,0.00015271924399505663,-0.015259213559173458,0.00471227551984531
0.3425,-3.6303084740829745e-05,-0.7845588850000119,-0.0001777762529902011,-2.355970210000001,0.000450976693983933,1.5713181699999843,0.7856543495000154,0.039999966,0.039999958,-9.81820475000002,-0.0027719536098003267,0.0024766056648336445,0.00015557393299502027,-0.015349301136872922,0.004801605589844172
0.34500000000000003,-4.1560051490762814e-05,-0.784552090000012,-0.00018339361199012956,-2.355969640000001,0.00046018733598381567,1.5713270799999843,0.7856454530000156,0.039999966,0.039999958,-9.81819350000002,-0.0027556920890050136,0.0025719712098324302,0.00015842862199498393,-0.015439388714572384,0.004890935659843035
0.34750000000000003,-4.681701824069588e-05,-0.784545295000012,-0.00018901097099005803,-2.355969070000001,0.00046939797798369845,1.5713359899999841,0.7856365565000157,0.039999966,0.039999958,-9.818182250000019,-0.002739430568209701,0.002667336754831216,0.0001612833109949476,-0.015529476292271848,0.004980265729841898
0.35000000000000003,-5.207398499062895e-05,-0.7845385000000121,-0.00019462832998998653,-2.355968500000001,0.0004786086199835811,1.571344899999984,0.7856276600000158,0.039999966,0.039999958,-9.818171000000019,-0.0027231690474143876,0.0027627022998300017,0.00016413799999491125,-0.01561956386997131,0.00506959579984076
0.3525,-5.7995802739206687e-05,-0.7845315190000127,-0.000200953777488471,-2.3559670750000024,0.0004889787844810989,1.5713549349999816,0.7856176385000182,0.039999966,0.0399999574,-9.818178199999986,-0.0026756084524961355,0.0028633794348165023,0.00016719656899442535,-0.015712324576283236,0.005165233519825688
0.355,-6.391762048896971e-05,-0.784524538000013,-0.0002072792249882179,-2.3559656500000026,0.000499348948980684,1.5713649699999812,0.7856076170000186,0.039999966,0.0399999568,-9.818185399999987,-0.0026280478575220886,0.0029640565698124733,0.00017025513799430296,-0.01580508528259993,0.005260871239821861
0.3575,-6.983943823873274e-05,-0.7845175570000132,-0.00021360467248796478,-2.355964225000003,0.000509719113480269,1.5713750049999808,0.7855975955000191,0.039999966,0.0399999562,-9.818192599999986,-0.002580487262548042,0.0030647337048084447,0.00017331370699418056,-0.015897845988916623,0.0053565089598180335
0.36,-7.576125598849578e-05,-0.7845105760000136,-0.00021993011998771165,-2.3559628000000026,0.000520089277979854,1.5713850399999805,0.7855875740000194,0.039999966,0.0399999556,-9.818199799999986,-0.0025329266675739952,0.0031654108398044157,0.00017637227599405817,-0.015990606695233316,0.005452146679814206
0.3625,-8.168307373825881e-05,-0.7845035950000139,-0.00022625556748745852,-2.355961375000003,0.000530459442479439,1.57139507499998,0.7855775525000198,0.039999966,0.039999955,-9.818206999999985,-0.0024853660725999483,0.003266087974800387,0.00017943084499393578,-0.01608336740155001,0.005547784399810379
0.365,-8.760489148802183e-05,-0.7844966140000141,-0.0002325810149872054,-2.3559599500000026,0.0005408296069790241,1.5714051099999795,0.7855675310000202,0.039999966,0.039999954399999996,-9.818214199999984,-0.0024378054776259014,0.0033667651097963585,0.00018248941399381339,-0.0161761281078667,0.005643422119806552
0.3675,-9.376281648644437e-05,-0.7844895620000147,-0.0002391578834855252,-2.355958330000004,0.000551611387476273,1.571415549999977,0.7855571075000229,0.039999966199999994,0.03999995419999999,-9.81820745000007,-0.002385243075096314,0.00347241662476365,0.00018560486299339774,-0.016269293054746118,0.005741077899792086
0.37,-0.00010039295598654086,-0.7844823680000146,-0.0002462375939856282,-2.355956320000004,0.0005632163999764419,1.5714267999999771,0.7855458800000228,0.039999966799999995,0.039999954799999994,-9.81817280000007,-0.0023226770573633883,0.003588016899765332,0.0001888340719934447,-0.016363266482758435,0.005842769799793566
0.3725,-0.00010702309548663735,-0.7844751740000145,-0.00025331730448573125,-2.355954310000004,0.0005748214124766108,1.5714380499999772,0.7855346525000226,0.039999967399999996,0.039999955399999995,-9.818138150000069,-0.002260111039630463,0.0037036171747670144,0.0001920632809934917,-0.016457239910770752,0.005944461699795046
0.375,-0.00011365323498673384,-0.7844679800000144,-0.0002603970149858343,-2.355952300000004,0.0005864264249767797,1.5714492999999774,0.7855234250000225,0.039999968,0.039999955999999996,-9.818103500000069,-0.0021975450218975376,0.003819217449768697,0.0001952924899935387,-0.01655121333878307,0.006046153599796526
0.3775,-0.00012028337448683033,-0.7844607860000143,-0.00026747672548593733,-2.355950290000004,0.0005980314374769486,1.5714605499999776,0.7855121975000223,0.0399999686,0.0399999566,-9.818068850000069,-0.002134979004164612,0.003934817724770379,0.0001985216989935857,-0.016645186766795387,0.006147845499798006
0.38,-0.00012691351398692681,-0.7844535920000142,-0.00027455643598604037,-2.3559482800000042,0.0006096364499771174,1.5714717999999777,0.7855009700000222,0.0399999692,0.0399999572,-9.818034200000067,-0.002072412986431687,0.004050417999772061,0.0002017509079936327,-0.016739160194807704,0.0062495373997994855
0.3825,-0.0001335436534870233,-0.7844463980000141,-0.0002816361464861434,-2.355946270000004,0.0006212414624772863,1.571483049999978,0.785489742500022,0.0399999698,0.0399999578,-9.817999550000067,-0.002009846968698761,0.004166018274773743,0.0002049801169936797,-0.01683313362282002,0.006351229299800965
0.385,-0.00014067499598552499,-0.7844390150000147,-0.0002892494859845481,-2.3559437400000056,0.0006337201069746745,1.5714951399999755,0.7854776800000245,0.039999969600000004,0.039999957600000004,-9.81797470000004,-0.0019213710447899526,0.004285340929762374,0.00020840763599308467,-0.01692867428045457,0.006457036539788491
0.3875,-0.000148056939985431,-0.7844315375000148,-0.00029712963998444774,-2.3559409500000057,0.0006466355674745101,1.5715076499999754,0.7854652000000246,0.039999969,0.039999957,-9.81795475000004,-0.001819940167679384,0.004406524774760831,0.00021193430999303975,-0.01702499855290712,0.006564901449787118
0.39,-0.000155438883985337,-0.7844240600000149,-0.0003050097939843474,-2.3559381600000053,0.0006595510279743457,1.571520159999975,0.7854527200000248,0.0399999684,0.0399999564,-9.817934800000039,-0.0017185092905688153,0.004527708619759288,0.00021546098399299486,-0.017121322825359667,0.006672766359785745
0.3925,-0.00016282082798524302,-0.784416582500015,-0.0003128899479842471,-2.3559353700000054,0.0006724664884741812,1.571532669999975,0.7854402400000249,0.0399999678,0.0399999558,-9.81791485000004,-0.001617078413458247,0.004648892464757745,0.00021898765799294997,-0.017217647097812216,0.006780631269784371
0.395,-0.00017020277198514903,-0.784409105000015,-0.0003207701019841468,-2.3559325800000055,0.0006853819489740168,1.571545179999975,0.7854277600000251,0.0399999672,0.0399999552,-9.81789490000004,-0.0015156475363476783,0.004770076309756202,0.00022251433199290505,-0.017313971370264764,0.0068884961797829975
0.3975,-0.00017758471598505504,-0.7844016275000152,-0.00032865025598404645,-2.3559297900000056,0.0006982974094738524,1.5715576899999746,0.7854152800000253,0.0399999666,0.0399999546,-9.81787495000004,-0.0014142166592371096,0.004891260154754659,0.00022604100599286017,-0.017410295642717313,0.006996361089781624
0.4,-0.00018496665998496105,-0.7843941500000152,-0.00033653040998394613,-2.3559270000000057,0.0007112128699736878,1.5715701999999745,0.7854028000000254,0.039999966,0.039999954,-9.81785500000004,-0.001312785782126541,0.005012443999753116,0.00022956767999281528,-0.01750661991516986,0.007104225999780251
0.4025,-0.00019314378248323695,-0.7843863350000161,-0.0003452570454821105,-2.355923640000007,0.0007255141069706825,1.5715839999999717,0.7853889550000284,0.039999966,0.039999953399999996,-9.817851100000007,-0.0012343188749371664,0.005170372249676248,0.0002332226849925073,-0.01760474434102321,0.007218372249766001
0.405,-0.00020132090498313287,-0.7843785200000162,-0.0003539836809819994,-2.355920280000007,0.0007398153439705005,1.5715977999999715,0.7853751100000286,0.039999966,0.0399999528,-9.817847200000008,-0.0011558519677945757,0.005328300499674237,0.00023687768999246074,-0.017702868766880226,0.007332518499764548
0.40750000000000003,-0.00020949802748302873,-0.7843707050000163,-0.00036271031648188825,-2.355916920000007,0.0007541165809703184,1.5716115999999714,0.7853612650000287,0.039999966,0.0399999522,-9.817843300000009,-0.0010773850606519847,0.005486228749672226,0.0002405326949924142,-0.01780099319273724,0.007446664749763095
0.41000000000000003,-0.00021767514998292464,-0.7843628900000164,-0.00037143695198177715,-2.355913560000007,0.0007684178179701364,1.5716253999999712,0.7853474200000289,0.039999966,0.0399999516,-9.817839400000008,-0.0009989181535093937,0.0056441569996702155,0.00024418769999236766,-0.017899117618594258,0.007560810999761642
0.41250000000000003,-0.0002258522724828205,-0.7843550750000164,-0.00038016358748166606,-2.355910200000007,0.0007827190549699542,1.571639199999971,0.7853335750000291,0.039999966,0.039999951,-9.817835500000008,-0.0009204512463668027,0.005802085249668205,0.0002478427049923211,-0.017997242044451273,0.007674957249760188
0.41500000000000004,-0.00023402939498271642,-0.7843472600000165,-0.0003888902229815549,-2.3559068400000074,0.0007970202919697721,1.5716529999999709,0.7853197300000293,0.039999966,0.0399999504,-9.817831600000009,-0.0008419843392242117,0.005960013499666195,0.0002514977099922746,-0.018095366470308287,0.007789103499758735
0.4175,-0.0002424859869808293,-0.7843393175000174,-0.000397914325979546,-2.3559032500000088,0.0008118084274664837,1.5716672899999675,0.7853054220000324,0.039999966,0.03999995,-9.817835699999957,-0.0007504737007137976,0.006119310949655446,0.00025524565899163505,-0.018194673582695258,0.007905246999744538
0.42,-0.00025150151798071453,-0.7843311200000176,-0.00040753336397942355,-2.355899200000009,0.000827570359966283,1.5716825599999673,0.7852901880000326,0.039999966,0.03999995,-9.817855799999958,-0.0006328755992186041,0.006281346799653383,0.00025917949599158494,-0.01829634606816473,0.008025384999743009
0.4225,-0.0002605170489805997,-0.7843229225000177,-0.0004171524019793011,-2.3558951500000087,0.0008433322924660824,1.571697829999967,0.7852749540000328,0.039999966,0.03999995,-9.817875899999956,-0.0005152774977234104,0.00644338264965132,0.0002631133329915349,-0.0183980185536342,0.00814552299974148
0.425,-0.000269532579980485,-0.7843147250000178,-0.00042677143997917863,-2.355891100000009,0.0008590942249658817,1.571713099999967,0.785259720000033,0.039999966,0.03999995,-9.817895999999957,-0.0003976793962282168,0.006605418499649257,0.0002670471699914848,-0.01849969103910367,0.00826566099973995
0.4275,-0.0002785481109803702,-0.7843065275000178,-0.00043639047797905617,-2.3558870500000086,0.000874856157465681,1.5717283699999667,0.7852444860000332,0.039999966,0.03999995,-9.817916099999957,-0.0002800812947330232,0.006767454349647194,0.0002709810069914347,-0.01860136352457314,0.00838579899973842
0.43,-0.00028756364198025537,-0.7842983300000179,-0.00044600951597893366,-2.355883000000009,0.0008906180899654803,1.5717436399999665,0.7852292520000334,0.039999966,0.03999995,-9.817936199999956,-0.00016248319323782965,0.006929490199645131,0.0002749148439913846,-0.018703036010042612,0.008505936999736891
0.4325,-0.0002965791729801406,-0.784290132500018,-0.0004556285539788112,-2.355878950000009,0.0009063800224652797,1.5717589099999663,0.7852140180000335,0.039999966,0.03999995,-9.817956299999956,-4.488509174263599e-05,0.007091526049643068,0.00027884868099133456,-0.01880470849551208,0.008626074999735361
0.435,-0.000306182322978073,-0.784281680000019,-0.0004658729699766104,-2.3558744100000104,0.0009231655999616771,1.5717751799999629,0.785197786000037,0.039999966,0.03999995,-9.817962100000004,8.779661698864585e-05,0.007261257699615429,0.00028287491399097743,-0.018907910398908507,0.008750264899720365
0.4375,-0.000316079282477947,-0.784273100000019,-0.000476430074976476,-2.3558696250000106,0.0009404629999614569,1.5717919499999626,0.7851810550000372,0.039999966,0.03999995,-9.817960750000003,0.00022802012941287465,0.0074348372496132195,0.00028694734499092555,-0.01901187701127601,0.008876480749718758
0.44,-0.000325976241977821,-0.7842645200000192,-0.0004869871799763416,-2.355864840000011,0.0009577603999612366,1.5718087199999624,0.7851643240000374,0.039999966,0.03999995,-9.817959400000003,0.00036824364183710346,0.007608416799611009,0.0002910197759908737,-0.019115843623643512,0.009002696599717152
0.4425,-0.000335873201477695,-0.7842559400000193,-0.0004975442849762072,-2.3558600550000106,0.0009750577999610164,1.5718254899999622,0.7851475930000377,0.039999966,0.03999995,-9.817958050000003,0.0005084671542613322,0.0077819963496088,0.00029509220699082183,-0.019219810236011013,0.009128912449715544
0.445,-0.00034577016097756897,-0.7842473600000194,-0.0005081013899760728,-2.355855270000011,0.000992355199960796,1.571842259999962,0.7851308620000379,0.039999966,0.03999995,-9.817956700000003,0.0006486906666855611,0.00795557589960659,0.00029916463799077,-0.019323776848378514,0.009255128299713937
0.4475,-0.00035566712047744296,-0.7842387800000196,-0.0005186584949759383,-2.355850485000011,0.001009652599960576,1.5718590299999617,0.7851141310000381,0.039999966,0.03999995,-9.817955350000004,0.0007889141791097899,0.008129155449604379,0.0003032370689907181,-0.019427743460746015,0.009381344149712331
0.45,-0.00036556407997731695,-0.7842302000000196,-0.0005292155999758039,-2.3558457000000113,0.0010269499999603557,1.5718757999999615,0.7850974000000382,0.039999966,0.03999995,-9.817954000000004,0.0009291376915340187,0.00830273499960217,0.0003073094999906663,-0.019531710073113516,0.009507559999710723
0.4525,-0.0003763851819750611,-0.784221102500021,-0.0005407561904734029,-2.3558401950000127,0.0010458570949564256,1.5718941149999577,0.7850791150000421,0.039999966,0.039999949550000004,-9.81793660000004,0.0011163170445121513,0.008483586849583198,0.00031166677498995794,-0.019638253841303552,0.009639931399694929
0.455,-0.0003872062839749233,-0.7842120050000211,-0.000552296780973256,-2.355834690000013,0.0010647641899561848,1.5719124299999574,0.7850608300000423,0.039999966,0.0399999491,-9.817919200000041,0.001303496397597903,0.008664438699580897,0.0003160240499899025,-0.019744797609499497,0.009772302799693244
0.4575,-0.00039802738597478557,-0.7842029075000212,-0.000563837371473109,-2.355829185000013,0.0010836712849559443,1.5719307449999573,0.7850425450000426,0.039999966,0.03999994865,-9.81790180000004,0.001490675750683655,0.008845290549578593,0.000320381324989847,-0.01985134137769544,0.009904674199691559
0.46,-0.0004088484879746478,-0.7841938100000213,-0.0005753779619729621,-2.3558236800000127,0.0011025783799557035,1.571949059999957,0.7850242600000429,0.039999966,0.0399999482,-9.817884400000041,0.0016778551037694067,0.009026142399576291,0.00032473859998979155,-0.019957885145891384,0.010037045599689874
0.4625,-0.00041966958997451,-0.7841847125000214,-0.0005869185524728152,-2.355818175000013,0.0011214854749554627,1.5719673749999568,0.7850059750000431,0.039999966,0.03999994775,-9.81786700000004,0.0018650344568551585,0.009206994249573988,0.00032909587498973605,-0.020064428914087325,0.010169416999688189
0.465,-0.00043049069197437223,-0.7841756150000215,-0.0005984591429726682,-2.355812670000013,0.001140392569955222,1.5719856899999565,0.7849876900000433,0.039999966,0.039999947300000005,-9.817849600000041,0.00205221380994091,0.009387846099571686,0.00033345314998968055,-0.02017097268228327,0.010301788399686504
0.4675,-0.00044163398197193305,-0.7841663645000228,-0.0006103425514700726,-2.3558069150000147,0.0011598607149509736,1.5720045549999524,0.7849688650000475,0.039999966,0.039999947,-9.817849299999919,0.002229742984841945,0.009582441049471214,0.00033788074998912276,-0.020278644934034813,0.010436105899670917
0.47000000000000003,-0.00045342164797178297,-0.7841568080000229,-0.0006229115959699125,-2.355800660000015,0.0011804509599507114,1.572024519999952,0.7849489600000477,0.039999966,0.039999947,-9.817883199999919,0.0023879718031671153,0.009804522199468386,0.0003424489999890646,-0.020388574152921692,0.010574315599669157
0.47250000000000003,-0.0004652093139716329,-0.784147251500023,-0.0006354806404697524,-2.355794405000015,0.0012010412049504493,1.572044484999952,0.784929055000048,0.039999966,0.039999947,-9.817917099999919,0.002546200621492286,0.01002660334946556,0.00034701724998900647,-0.020498503371808575,0.010712525299667397
0.47500000000000003,-0.0004769969799714828,-0.7841376950000232,-0.0006480496849695925,-2.355788150000015,0.0012216314499501873,1.5720644499999517,0.7849091500000481,0.039999966,0.039999947,-9.817950999999917,0.0027044294398174563,0.01024868449946273,0.0003515854999889483,-0.020608432590695454,0.010850734999665637
0.47750000000000004,-0.0004887846459713328,-0.7841281385000233,-0.0006606187294694324,-2.3557818950000153,0.001242221694949925,1.5720844149999513,0.7848892450000484,0.039999966,0.039999947,-9.817984899999917,0.0028626582581426263,0.010470765649459904,0.0003561537499888901,-0.020718361809582333,0.010988944699663878
0.48,-0.0005005723119711824,-0.7841185820000234,-0.0006731877739692721,-2.355775640000015,0.0012628119399496623,1.5721043799999512,0.7848693400000486,0.039999966,0.039999947,-9.818018799999917,0.0030208870764677933,0.010692846799457072,0.00036072199998883186,-0.020828291028469212,0.011127154399662114
0.4825,-0.0005123599779710323,-0.7841090255000235,-0.0006857568184691121,-2.3557693850000154,0.0012834021849494003,1.572124344999951,0.7848494350000489,0.039999966,0.039999947,-9.818052699999916,0.003179115894792964,0.010914927949454244,0.0003652902499887737,-0.020938220247356094,0.011265364099660356
0.485,-0.0005248199999683909,-0.784099110000025,-0.0006990412899663013,-2.3557626200000175,0.0013051632099448,1.5721454499999463,0.7848283900000533,0.039999966,0.039999947,-9.818063500000001,0.0033712132828733715,0.011141486799434825,0.00036998028298826434,-0.021049709804078703,0.01140750499964403
0.4875,-0.000537616199968228,-0.7840890150000251,-0.0007126834749661275,-2.3557556000000175,0.0013275096249445156,1.572167124999946,0.7848067750000536,0.039999966,0.039999947,-9.818062750000001,0.00358024495601899,0.011370284499431912,0.0003747312074882038,-0.021161979529727818,0.011551611499642195
0.49,-0.0005504123999680651,-0.7840789200000252,-0.0007263256599659538,-2.3557485800000175,0.001349856039944231,1.5721887999999458,0.7847851600000539,0.039999966,0.039999947,-9.818062000000001,0.0037892766291646087,0.011599082199429,0.00037948213198814334,-0.021274249255376933,0.01169571799964036
0.4925,-0.0005632085999679021,-0.7840688250000253,-0.0007399678449657801,-2.3557415600000176,0.0013722024549439465,1.5722104749999455,0.7847635450000542,0.039999966,0.039999947,-9.818061250000001,0.003998308302310227,0.011827879899426085,0.00038423305648808287,-0.02138651898102605,0.011839824499638526
0.495,-0.0005760047999677393,-0.7840587300000255,-0.0007536100299656064,-2.3557345400000176,0.001394548869943662,1.5722321499999452,0.7847419300000544,0.039999966,0.039999947,-9.818060500000001,0.004207339975455846,0.012056677599423173,0.00038898398098802234,-0.021498788706675164,0.01198393099963669
0.4975,-0.0005888009999675763,-0.7840486350000255,-0.0007672522149654327,-2.3557275200000176,0.0014168952849433775,1.572253824999945,0.7847203150000548,0.039999966,0.039999947,-9.818059750000002,0.004416371648601465,0.01228547529942026,0.00039373490548796187,-0.021611058432324283,0.012128037499634856
0.5,-0.0006015971999674134,-0.7840385400000257,-0.000780894399965259,-2.3557205000000176,0.001439241699943093,1.5722754999999446,0.784698700000055,0.039999966,0.039999947,-9.818059000000002,0.004625403321747083,0.012514272999417347,0.0003984858299879014,-0.0217233281579734,0.012272143999633021
0.5025000000000001,-0.0006154435259645632,-0.7840278540000273,-0.0007956538599622262,-2.3557127000000198,0.0014634165699381294,1.5722990049999397,0.7846753150000598,0.0399999666,0.039999947,-9.818073999999962,0.004860372794190644,0.012758536449374858,0.0004035060104871519,-0.021838866825851063,0.012422204449615951
0.505,-0.0006292898519643866,-0.7840171680000274,-0.0008104133199620379,-2.35570490000002,0.0014875914399378211,1.5723225099999394,0.7846519300000602,0.0399999672,0.039999947,-9.818088999999961,0.005095342266700247,0.013002799899371743,0.00040852619098708784,-0.02195440549373705,0.012572264899614037
0.5075000000000001,-0.0006431361779642106,-0.7840064820000276,-0.0008251727799618503,-2.35569710000002,0.0015117663099375137,1.572346014999939,0.7846285450000604,0.0399999678,0.039999947,-9.81810399999996,0.005330311739209861,0.013247063349368638,0.00041354637148702407,-0.022069944161623042,0.01272232534961213
0.51,-0.000656982503964034,-0.7839957960000278,-0.0008399322399616621,-2.3556893000000203,0.0015359411799372054,1.5723695199999388,0.7846051600000608,0.0399999684,0.039999947,-9.81811899999996,0.005565281211719464,0.013491326799365521,0.00041856655198696004,-0.022185482829509027,0.012872385799610217
0.5125,-0.0006708288299638575,-0.7839851100000279,-0.0008546916999614739,-2.3556815000000206,0.0015601160499368971,1.5723930249999385,0.784581775000061,0.039999969,0.039999947,-9.81813399999996,0.005800250684229067,0.013735590249362406,0.000423586732486896,-0.02230102149739501,0.013022446249608303
0.515,-0.0006846751559636815,-0.783974424000028,-0.0008694511599612862,-2.3556737000000205,0.00158429091993659,1.5724165299999382,0.7845583900000613,0.0399999696,0.039999947,-9.818148999999961,0.00603522015673868,0.013979853699359302,0.0004286069129868322,-0.022416560165281003,0.013172506699606396
0.5175,-0.0006988852229606287,-0.7839635450000297,-0.000884597609958038,-2.355665640000023,0.0016090989799312748,1.572440649999933,0.7845343900000665,0.03999997015,0.03999994715,-9.818158450000004,0.006288189114241038,0.01422367149935971,0.00043373228298593643,-0.0225331141610298,0.013324437049589697
0.52,-0.0007138227719604388,-0.7839522800000299,-0.0009005180399578357,-2.355657060000023,0.0016351734199309435,1.5724659999999329,0.7845091600000668,0.039999970600000004,0.0399999476,-9.818156800000004,0.006577157042155206,0.014466597999356623,0.00043906803198586863,-0.022651698812528275,0.013480107199587718
0.5225,-0.0007287603209602482,-0.78394101500003,-0.0009164384699576326,-2.355648480000023,0.001661247859930611,1.5724913499999325,0.7844839300000671,0.03999997105,0.03999994805,-9.818155150000004,0.00686612497006936,0.014709524499353525,0.00044440378098580056,-0.022770283464026743,0.013635777349585732
0.525,-0.0007436978699600584,-0.7839297500000302,-0.0009323588999574303,-2.355639900000023,0.0016873222999302794,1.5725166999999323,0.7844587000000675,0.0399999715,0.0399999485,-9.818153500000005,0.007155092897983527,0.014952450999350438,0.0004497395299857327,-0.022888868115525214,0.013791447499583753
0.5275,-0.0007586354189598679,-0.7839184850000303,-0.0009482793299572272,-2.355631320000023,0.0017133967399299468,1.5725420499999319,0.7844334700000678,0.03999997195,0.039999948949999996,-9.818151850000005,0.007444060825897682,0.015195377499347339,0.0004550752789856647,-0.023007452767023682,0.013947117649581769
0.53,-0.0007735729679596781,-0.7839072200000304,-0.0009641997599570249,-2.3556227400000234,0.0017394711799296155,1.5725673999999317,0.7844082400000681,0.0399999724,0.0399999494,-9.818150200000005,0.007733028753811849,0.015438303999344252,0.00046041102798559684,-0.023126037418522156,0.01410278779957979
0.5325,-0.0007885105169594876,-0.7838959550000306,-0.0009801201899568219,-2.3556141600000235,0.001765545619929283,1.5725927499999313,0.7843830100000685,0.03999997285,0.03999994985,-9.818148550000005,0.008021996681726004,0.015681230499341153,0.0004657467769855288,-0.02324462207002062,0.014258457949577804
0.535,-0.0008042026599562134,-0.7838842300000326,-0.0009968433599533385,-2.355605010000026,0.001792933529923583,1.5726193699999258,0.7843565200000739,0.0399999734,0.0399999504,-9.818164749999932,0.008290098606837965,0.015964406999173553,0.00047123775398482656,-0.023365017212596755,0.014417895399560428
0.5375,-0.0008202720999560085,-0.7838722750000328,-0.0010139678999531202,-2.355595575000026,0.0018209781749232252,1.5726466249999254,0.7843294000000742,0.039999974,0.039999951,-9.818189874999932,0.008547767530421285,0.016267708499169687,0.0004768063449847555,-0.023486317600722777,0.01457921649955837
0.54,-0.0008363415399558042,-0.7838603200000329,-0.0010310924399529026,-2.355586140000026,0.0018490228199228688,1.5726738799999251,0.7843022800000746,0.0399999746,0.0399999516,-9.818214999999931,0.008805436454004613,0.01657100999916583,0.00048237493598468476,-0.023607617988848806,0.01474053759955632
0.5425,-0.0008524109799555993,-0.7838483650000331,-0.0010482169799526841,-2.355576705000026,0.0018770674649225111,1.5727011349999247,0.784275160000075,0.039999975199999996,0.039999952199999994,-9.818240124999932,0.009063105377587932,0.01687431149916196,0.00048794352698461373,-0.023728918376974828,0.014901858699554262
0.545,-0.000868480419955395,-0.7838364100000332,-0.0010653415199524665,-2.355567270000026,0.0019051121099221545,1.5727283899999243,0.7842480400000753,0.0399999758,0.039999952799999995,-9.81826524999993,0.009320774301171262,0.017177612999158105,0.0004935121179845429,-0.023850218765100857,0.015063179799552212
0.5475,-0.0008845498599551901,-0.7838244550000334,-0.001082466059952248,-2.355557835000026,0.0019331567549217968,1.572755644999924,0.7842209200000757,0.0399999764,0.039999953399999996,-9.81829037499993,0.00957844322475458,0.01748091449915424,0.0004990807089844719,-0.02397151915322688,0.015224500899550153
0.55,-0.0009006192999549858,-0.7838125000000336,-0.0010995905999520304,-2.3555484000000266,0.0019612013999214402,1.5727828999999236,0.784193800000076,0.039999977,0.039999954,-9.81831549999993,0.00983611214833791,0.017784215999150383,0.0005046492999844012,-0.02409281954135291,0.015385821999548103
0.5525,-0.000917860689951483,-0.7837998610000356,-0.0011179618799483037,-2.355538095000029,0.0019912859399153424,1.5728121499999177,0.784164709000082,0.039999978049999996,0.0399999546,-9.818327124999968,0.010152590320486281,0.01808228819916123,0.0005104069689837981,-0.024217283259726954,0.015552831849530038
0.555,-0.0009351020799512639,-0.7837872220000357,-0.0011363331599480702,-2.3555277900000293,0.00202137047991496,1.5728413999999173,0.7841356180000822,0.0399999791,0.0399999552,-9.818338749999969,0.010469068492799403,0.01838036039915744,0.0005161646379837248,-0.02434174697810987,0.015719841699527917
0.5575,-0.000952343469951044,-0.7837745830000359,-0.0011547044399478359,-2.3555174850000293,0.0020514550199145767,1.572870649999917,0.7841065270000827,0.039999980149999996,0.0399999558,-9.818350374999968,0.010785546665112514,0.018678432599153638,0.0005219223069836514,-0.024466210696492775,0.015886851549525786
0.56,-0.0009695848599508249,-0.7837619440000361,-0.0011730757199476024,-2.3555071800000293,0.0020815395599141943,1.5728998999999164,0.784077436000083,0.0399999812,0.0399999564,-9.818361999999967,0.011102024837425636,0.018976504799149852,0.0005276799759835782,-0.02459067441487569,0.016053861399523663
0.5625,-0.000986826249950605,-0.7837493050000361,-0.001191446999947368,-2.3554968750000294,0.0021116240999138106,1.572929149999916,0.7840483450000834,0.039999982249999996,0.039999957,-9.818373624999968,0.011418503009738745,0.01927457699914605,0.0005334376449835048,-0.024715138133258596,0.016220871249521533
0.5650000000000001,-0.0010040676399503858,-0.7837366660000363,-0.0012098182799471346,-2.35548657000003,0.002141708639913428,1.5729583999999157,0.7840192540000838,0.0399999833,0.0399999576,-9.818385249999967,0.011734981182051867,0.019572649199142263,0.0005391953139834316,-0.02483960185164151,0.01638788109951941
0.5675,-0.0010217128099466648,-0.7837237845000385,-0.0012286191199431754,-2.3554759950000324,0.0021724959649069503,1.5729883449999094,0.78398948000009,0.0399999843,0.0399999584,-9.818393,0.012072095506662113,0.019871343699133064,0.0005450551069824726,-0.0249651723537625,0.016556667899501873
0.5700000000000001,-0.0010401655399464302,-0.7837104180000388,-0.0012482790799429257,-2.3554648800000324,0.002204688859906541,1.573019679999909,0.7839583400000903,0.0399999852,0.039999959599999996,-9.818393,0.012450482136402673,0.02017128279912925,0.0005511191479823955,-0.02509295642338841,0.016729008599499683
0.5725,-0.0010586182699461948,-0.783697051500039,-0.0012679390399426749,-2.3554537650000325,0.0022368817549061307,1.5730510149999086,0.7839272000000908,0.039999986099999996,0.0399999608,-9.818393,0.012828868766143217,0.020471221899125425,0.0005571831889823182,-0.02522074049301432,0.016901349299497485
0.5750000000000001,-0.0010770709999459603,-0.7836836850000392,-0.001287598999942425,-2.3554426500000325,0.0022690746499057215,1.5730823499999083,0.7838960600000912,0.039999987,0.03999996199999999,-9.818393,0.013207255395883778,0.020771160999121616,0.0005632472299822412,-0.025348524562640227,0.01707368999949529
0.5775,-0.001095523729945725,-0.7836703185000393,-0.0013072589599421743,-2.355431535000033,0.002301267544905311,1.573113684999908,0.7838649200000916,0.0399999879,0.039999963199999995,-9.818393,0.01358564202562432,0.02107110009911779,0.0005693112709821638,-0.025476308632266135,0.017246030699493094
0.58,-0.0011139764599454895,-0.7836569520000395,-0.0013269189199419235,-2.355420420000033,0.0023334604399049006,1.5731450199999075,0.783833780000092,0.0399999888,0.0399999644,-9.818393,0.013964028655364866,0.021371039199113963,0.0005753753119820865,-0.02560409270189204,0.017418371399490897
0.5825,-0.0011324291899452552,-0.7836435855000397,-0.0013465788799416735,-2.355409305000033,0.0023656533349044914,1.573176354999907,0.7838026400000924,0.039999989699999995,0.03999996559999999,-9.818393,0.014342415285105426,0.02167097829911015,0.0005814393529820094,-0.02573187677151795,0.017590712099488707
0.585,-0.0011517155399409357,-0.7836297310000422,-0.0013671255699370779,-2.3553976100000362,0.0023992968398969723,1.5732090399999,0.7837700940000997,0.03999999,0.039999965400000004,-9.818420249999878,0.0146970429447449,0.02201264269891325,0.0005876778649810372,-0.02586180269678899,0.017766704099466953
0.5875,-0.0011714186999401475,-0.7836156325000428,-0.0013881156249362385,-2.3553856250000362,0.002433665649895598,1.5732423999998986,0.783736845000101,0.03999999,0.0399999645,-9.818461124999876,0.015039791119175033,0.02237516974889875,0.0005940036124807843,-0.02599279954989692,0.017944521749459843
0.59,-0.0011911218599393587,-0.7836015340000434,-0.001409105679935398,-2.3553736400000367,0.0024680344598942217,1.5732757599998972,0.7837035960001023,0.03999999,0.0399999636,-9.818501999999874,0.01538253929360515,0.022737696798884235,0.000600329359980531,-0.026123796403004846,0.018122339399452722
0.5925,-0.0012108250199385708,-0.783587435500044,-0.0014300957349345587,-2.355361655000037,0.002502403269892847,1.5733091199998959,0.7836703470001036,0.03999999,0.0399999627,-9.818542874999872,0.01572528746803528,0.023100223848869735,0.0006066551074802779,-0.026254793256112775,0.01830015704944561
0.595,-0.001230528179937782,-0.7835733370000445,-0.0014510857899337182,-2.3553496700000376,0.002536772079891471,1.5733424799998945,0.783637098000105,0.03999999,0.039999961800000004,-9.81858374999987,0.016068035642465398,0.02346275089885522,0.0006129808549800247,-0.0263857901092207,0.01847797469943849
0.5975,-0.0012502313399369938,-0.783559238500045,-0.0014720758449328786,-2.355337685000038,0.0025711408898900965,1.5733758399998934,0.7836038490001064,0.03999999,0.039999960900000006,-9.818624624999869,0.01641078381689553,0.02382527794884072,0.0006193066024797717,-0.02651678696232863,0.01865579234943138
0.6,-0.001269934499936205,-0.7835451400000456,-0.0014930658999320382,-2.3553257000000385,0.0026055096998887205,1.573409199999892,0.7835706000001077,0.03999999,0.03999996,-9.818665499999867,0.016753531991325645,0.024187804998826206,0.0006256323499795184,-0.026647783815436556,0.01883360999942426
0.6025,-0.0012909263249323386,-0.783530245000048,-0.001515426684927926,-2.355312830000041,0.0026421209498819933,1.5734447649998853,0.7835351925001142,0.03999999,0.03999996,-9.818685374999935,0.01715918788555637,0.024554157648819158,0.0006323312974784077,-0.02678243741349683,0.019016544599410358
0.605,-0.0013119181499326436,-0.7835153500000478,-0.001537787469928251,-2.3552999600000413,0.002678732199882525,1.5734803299998859,0.7834997850001136,0.03999999,0.03999996,-9.818705249999935,0.01756484377999076,0.024920510298824482,0.000639030244978505,-0.026917091011568937,0.019199479199413016
0.6075,-0.0013329099749329494,-0.7835004550000475,-0.0015601482549285769,-2.355287090000041,0.002715343449883059,1.5735158949998864,0.7834643775001131,0.03999999,0.03999996,-9.818725124999936,0.01797049967442517,0.02528686294882982,0.0006457291924786027,-0.02705174460964105,0.019382413799415684
0.61,-0.0013539017999332544,-0.7834855600000473,-0.0015825090399289017,-2.355274220000041,0.002751954699883591,1.573551459999887,0.7834289700001126,0.03999999,0.03999996,-9.818744999999936,0.01837615556885956,0.025653215598835145,0.0006524281399787,-0.027186398207713156,0.019565348399418342
0.6125,-0.0013748936249335605,-0.7834706650000471,-0.0016048698249292277,-2.3552613500000406,0.0027885659498841243,1.5735870249998876,0.783393562500112,0.03999999,0.03999996,-9.818764874999937,0.018781811463293965,0.026019568248840483,0.0006591270874787977,-0.027321051805785267,0.019748282999421007
0.615,-0.0013958854499338655,-0.7834557700000468,-0.0016272306099295525,-2.3552484800000406,0.0028251771998846565,1.573622589999888,0.7833581550001115,0.03999999,0.03999996,-9.818784749999937,0.019187467357728354,0.026385920898845807,0.000665826034978895,-0.027455705403857375,0.019931217599423665
0.6175,-0.0014173193699298092,-0.7834405880000495,-0.0016500616349252382,-2.3552352850000435,0.002862557789877598,1.573658904999881,0.7833220025001183,0.03999999,0.0399999599,-9.818803449999947,0.019604390858221746,0.02675735649879986,0.0006725926999782927,-0.027591409626914767,0.020115906699408114
0.62,-0.0014396374799295246,-0.7834248320000498,-0.0016738331399249351,-2.3552214400000437,0.002901477059877102,1.5736967199998806,0.7832843600001188,0.03999999,0.0399999596,-9.818819799999948,0.020043849571151594,0.02713895799879499,0.0006794947999782048,-0.02772921509997242,0.020304104799405715
0.6225,-0.001461955589929241,-0.7834090760000499,-0.001697604644924633,-2.355207595000044,0.0029403963298766074,1.5737345349998801,0.7832467175001193,0.03999999,0.039999959300000006,-9.818836149999948,0.02048330828408146,0.02752055949879014,0.000686396899978117,-0.02786702057303008,0.020492302899403323
0.625,-0.0014842736999289563,-0.7833933200000501,-0.0017213761499243298,-2.355193750000044,0.0029793155998761108,1.5737723499998797,0.7832090750001198,0.03999999,0.039999959,-9.818852499999947,0.020922766997011302,0.027902160998785275,0.0006932989999780289,-0.02800482604608773,0.02068050099940092
0.6275000000000001,-0.0015065918099286726,-0.7833775640000503,-0.0017451476549240276,-2.3551799050000444,0.0030182348698756163,1.5738101649998792,0.7831714325001203,0.03999999,0.039999958700000005,-9.818868849999948,0.021362225709941167,0.028283762498780424,0.0007002010999779413,-0.02814263151914539,0.020868699099398532
0.63,-0.001528909919928388,-0.7833618080000505,-0.0017689191599237245,-2.3551660600000446,0.00305715413987512,1.5738479799998788,0.7831337900001207,0.03999999,0.0399999584,-9.818885199999947,0.02180168442287101,0.028665363998775558,0.0007071031999778532,-0.028280436992203044,0.02105689719939613
0.6325000000000001,-0.0015512280299281042,-0.7833460520000507,-0.0017926906649234223,-2.355152215000045,0.003096073409874625,1.5738857949998781,0.7830961475001212,0.03999999,0.0399999581,-9.818901549999946,0.022241143135800875,0.029046965498770706,0.0007140052999777655,-0.0284182424652607,0.021245095299393738
0.635,-0.0015744550599234104,-0.7833297200000537,-0.0018174288899184294,-2.3551377800000477,0.003136574089866457,1.57392518999987,0.7830569800001291,0.0399999905,0.0399999582,-9.818905300000008,0.022727202994964217,0.029426189898777374,0.0007211166459766624,-0.02855817209883624,0.021436545499375563
0.6375000000000001,-0.0015981365499231092,-0.7833131000000539,-0.001842650474918109,-2.355123050000048,0.0031778654748659324,1.5739653749998694,0.7830170500001297,0.03999999125,0.0399999585,-9.818902750000008,0.023236563427582548,0.02980422574877257,0.0007283326149765707,-0.028699163812686144,0.021629621749373107
0.64,-0.0016218180399228074,-0.7832964800000541,-0.0018678720599177871,-2.355108320000048,0.003219156859865406,1.574005559999869,0.7829771200001302,0.039999992,0.0399999588,-9.818900200000007,0.023745923860200857,0.030182261598767746,0.0007355485839764787,-0.02884015552653604,0.021822697999370644
0.6425,-0.001645499529922505,-0.7832798600000543,-0.0018930936449174653,-2.355093590000048,0.0032604482448648792,1.5740457449998684,0.7829371900001306,0.03999999275,0.0399999591,-9.818897650000007,0.024255284292819163,0.030560297448762926,0.0007427645529763866,-0.028981147240385936,0.02201577424936818
0.645,-0.0016691810199222041,-0.7832632400000545,-0.0019183152299171449,-2.3550788600000483,0.0033017396298643544,1.574085929999868,0.7828972600001312,0.0399999935,0.0399999594,-9.818895100000008,0.024764644725437497,0.03093833329875812,0.0007499805219762949,-0.02912213895423584,0.022208850499365728
0.6475,-0.001692862509921902,-0.7832466200000547,-0.001943536814916823,-2.3550641300000486,0.003343031014863828,1.5741261149998673,0.7828573300001317,0.03999999425,0.0399999597,-9.818892550000008,0.025274005158055803,0.0313163691487533,0.0007571964909762029,-0.029263130668085734,0.022401926749363265
0.65,-0.001716543999921601,-0.783230000000055,-0.0019687583999165024,-2.355049400000049,0.0033843223998633026,1.574166299999867,0.7828174000001322,0.039999995,0.03999996,-9.818890000000009,0.025783365590674134,0.031694404998748496,0.0007644124599761111,-0.02940412238193564,0.02259500299936081
0.6525,-0.0017416250799166479,-0.7832125040000582,-0.0019954685999112338,-2.355033740000052,0.0034280488698546835,1.5742088249998587,0.7827751150001405,0.03999999575,0.03999996,-9.818936349999845,0.026252599617769483,0.03214475899850334,0.0007719298209750175,-0.029548540897187444,0.02279310379934165
0.655,-0.0017667061599163291,-0.7831950080000584,-0.0020221787999108944,-2.355018080000052,0.0034717753398541278,1.574251349999858,0.782732830000141,0.0399999965,0.03999996,-9.818982699999845,0.026721833644732008,0.03259511299849761,0.000779447181974922,-0.029692959412450596,0.02299120459933913
0.6575,-0.0017917872399160091,-0.7831775120000586,-0.0020488889999105537,-2.3550024200000523,0.0035155018098535704,1.5742938749998576,0.7826905450001416,0.03999999725,0.03999996,-9.819029049999845,0.027191067671694512,0.03304546699849187,0.000786964542974826,-0.029837377927713744,0.023189305399336606
0.66,-0.0018168683199156904,-0.7831600160000588,-0.002075599199910214,-2.3549867600000525,0.0035592282798530142,1.574336399999857,0.7826482600001422,0.039999998,0.03999996,-9.819075399999843,0.02766030169865704,0.033495820998486144,0.0007944819039747306,-0.0299817964429769,0.023387406199334087
0.6625,-0.0018419493999153706,-0.783142520000059,-0.0021023093999098736,-2.3549711000000526,0.003602954749852457,1.5743789249998565,0.7826059750001427,0.03999999875,0.03999996,-9.819121749999843,0.028129535725619544,0.0339461749984804,0.0008019992649746346,-0.030126214958240048,0.02358550699933156
0.665,-0.0018670304799150517,-0.7831250240000592,-0.0021290195999095337,-2.3549554400000527,0.003646681219851901,1.574421449999856,0.7825636900001433,0.0399999995,0.03999996,-9.819168099999843,0.02859876975258207,0.034396528998474674,0.0008095166259745391,-0.030270633473503204,0.023783607799329046
0.6675,-0.0018925899899098523,-0.7831072385000624,-0.0021562387149040027,-2.354939480000056,0.003691240009842854,1.5744647699998473,0.782520598500152,0.04,0.0399999603,-9.819206149999927,0.02909169858137853,0.034847459898463044,0.0008171585199731731,-0.030416221729908134,0.023983246899310827
0.67,-0.0019191063599095152,-0.7830888740000627,-0.002184475659903644,-2.3549229200000563,0.0037374634398422667,1.5745096799998468,0.7824758940001526,0.04,0.039999961199999996,-9.819227599999927,0.029632017014567014,0.0352995445984573,0.0008250494799730728,-0.03056414946863239,0.02418596259930825
0.6725,-0.001945622729909177,-0.7830705095000629,-0.0022127126049032836,-2.3549063600000566,0.0037836868698416775,1.574554589999846,0.7824311895001531,0.04,0.039999962099999994,-9.819249049999927,0.030172335447755473,0.035751629298451534,0.0008329404399729721,-0.030712077207356636,0.024388678299305667
0.675,-0.0019721390999088402,-0.7830521450000631,-0.0022409495499029247,-2.354889800000057,0.0038299102998410896,1.5745994999998456,0.7823864850001537,0.04,0.039999963,-9.819270499999925,0.030712653880943953,0.03620371399844579,0.0008408313999728719,-0.030860004946080894,0.02459139399930309
0.6775,-0.001998655469908502,-0.7830337805000633,-0.0022691864949025645,-2.354873240000057,0.0038761337298405005,1.5746444099998451,0.7823417805001542,0.04,0.0399999639,-9.819291949999926,0.03125297231413241,0.036655798698440024,0.0008487223599727712,-0.03100793268480514,0.024794109699300505
0.68,-0.002025171839908165,-0.7830154160000635,-0.0022974234399022056,-2.354856680000057,0.003922357159839913,1.5746893199998446,0.7822970760001549,0.04,0.039999964799999996,-9.819313399999926,0.031793290747320894,0.03710788339843428,0.000856613319972671,-0.031155860423529396,0.02499682539929793
0.6825,-0.0020516882099078267,-0.7829970515000638,-0.002325660384901846,-2.3548401200000573,0.003968580589839323,1.574734229999844,0.7822523715001554,0.04,0.039999965699999994,-9.819334849999926,0.03233360918050936,0.037559968098428514,0.0008645042799725703,-0.03130378816225364,0.02519954109929534
0.685,-0.002079184579902361,-0.7829780740000672,-0.0023549397498960315,-2.3548228400000615,0.004016509209829812,1.5747808299998345,0.7822060130001646,0.04,0.039999966,-9.819360849999901,0.03289848863877158,0.03802930469833248,0.0008726037899713786,-0.03145416863209757,0.025405385899276392
0.6875,-0.002107170949902004,-0.7829587900000675,-0.0023847403248956514,-2.3548052000000617,0.00406529042482919,1.574828274999834,0.7821588275001652,0.04,0.039999966,-9.819389124999901,0.033475648609762994,0.038507267248326385,0.000880807574971274,-0.03160577546752054,0.025612795249273745
0.6900000000000001,-0.0021351573199016485,-0.7829395060000678,-0.0024145408998952726,-2.354787560000062,0.00411407163982857,1.5748757199998333,0.7821116420001658,0.04,0.039999966,-9.819417399999901,0.03405280858075443,0.038985229798320316,0.0008890113599711697,-0.03175738230294351,0.025820204599271108
0.6925,-0.0021631436899012912,-0.7829202220000681,-0.0024443414748948926,-2.354769920000062,0.004162852854827948,1.5749231649998328,0.7820644565001664,0.04,0.039999966,-9.819445674999901,0.034629968551745834,0.03946319234831422,0.0008972151449710651,-0.03190898913836648,0.026027613949268464
0.6950000000000001,-0.0021911300599009357,-0.7829009380000683,-0.002474142049894514,-2.354752280000062,0.004211634069827328,1.5749706099998322,0.782017271000167,0.04,0.039999966,-9.819473949999901,0.035207128522737274,0.03994115489830814,0.0009054189299709608,-0.03206059597378945,0.026235023299265827
0.6975,-0.002219116429900579,-0.7828816540000685,-0.0025039426248941337,-2.3547346400000624,0.004260415284826706,1.5750180549998314,0.7819700855001676,0.04,0.039999966,-9.8195022249999,0.03578428849372868,0.040419117448302046,0.0009136227149708562,-0.03221220280921242,0.026442432649263183
0.7000000000000001,-0.002247102799900223,-0.7828623700000688,-0.002533743199893755,-2.354717000000063,0.004309196499826085,1.5750654999998308,0.7819229000001682,0.04,0.039999966,-9.8195304999999,0.036361448464720114,0.040897079998295977,0.0009218264999707519,-0.032363809644635394,0.026649841999260546
0.7025,-0.002276593729894483,-0.7828421635000723,-0.00256514386988765,-2.3546983700000665,0.0043605948248161,1.5751154949998212,0.7818731900001779,0.04,0.0399999648,-9.819519625000039,0.03701689205829232,0.04136843609831351,0.0009305082449689372,-0.03251828197334568,0.026861825599241534
0.705,-0.0023060846598941067,-0.7828219570000726,-0.0025965445398872496,-2.354679740000067,0.004411993149815444,1.5751654899998204,0.7818234800001784,0.04,0.0399999636,-9.81950875000004,0.03767233565214362,0.0418397921983075,0.0009391899899688264,-0.03267275430206618,0.02707380919923883
0.7075,-0.002335575589893732,-0.7828017505000728,-0.0026279452098868505,-2.354661110000067,0.0044633914748147905,1.57521548499982,0.7817737700001791,0.04,0.039999962400000005,-9.819497875000039,0.038327779245994946,0.04231114829830151,0.0009478717349687161,-0.032827226630786695,0.027285792799236135
0.71,-0.0023650665198933557,-0.7827815440000732,-0.0026593458798864497,-2.3546424800000674,0.004514789799814135,1.5752654799998194,0.7817240600001798,0.04,0.0399999612,-9.81948700000004,0.038983222839846246,0.0427825043982955,0.0009565534799686053,-0.0329816989595072,0.027497776399233433
0.7125,-0.0023945574498929812,-0.7827613375000734,-0.0026907465498860507,-2.3546238500000674,0.004566188124813481,1.5753154749998186,0.7816743500001804,0.04,0.03999996000000001,-9.819476125000039,0.03963866643369758,0.043253860498289505,0.000965235224968495,-0.03313617128822771,0.02770975999923074
0.715,-0.002424048379892605,-0.7827411310000736,-0.0027221472198856503,-2.3546052200000678,0.004617586449812826,1.575365469999818,0.7816246400001811,0.04,0.039999958800000006,-9.81946525000004,0.04029411002754888,0.043725216598283496,0.0009739169699683843,-0.033290643616948216,0.027921743599228034
0.7175,-0.00245405196488661,-0.7827205770000777,-0.002754093099879274,-2.354586220000072,0.004669876509802396,1.5754163349998078,0.7815740675001911,0.03999999975,0.039999957600000004,-9.819469049999878,0.040933949870627144,0.04422437129797275,0.0009826955599672121,-0.03344608135463899,0.02813518569920935
0.72,-0.002485080859886214,-0.7826993280000779,-0.002787129399878853,-2.3545664800000723,0.004723950039801707,1.5754689399998072,0.7815217700001917,0.039999999,0.03999995640000001,-9.819502199999878,0.04154258221164665,0.04477912319796567,0.0009916678399670977,-0.033603449910301994,0.028351544799206593
0.7225,-0.00251610975488582,-0.7826780790000782,-0.002820165699878433,-2.3545467400000724,0.00477802356980102,1.5755215449998066,0.7814694725001925,0.03999999825,0.039999955200000006,-9.819535349999878,0.04215121455266618,0.04533387509795862,0.0010006401199669837,-0.033760818465965,0.028567903899203842
0.725,-0.002547138649885424,-0.7826568300000785,-0.0028532019998780116,-2.354527000000073,0.004832097099800331,1.5755741499998057,0.7814171750001931,0.0399999975,0.039999954000000004,-9.819568499999878,0.04275984689368569,0.04588862699795154,0.0010096123999668693,-0.03391818702162801,0.02878426299920108
0.7275,-0.0025781675448850296,-0.7826355810000788,-0.0028862382998775917,-2.354507260000073,0.0048861706297996434,1.575626754999805,0.7813648775001938,0.03999999675,0.0399999528,-9.819601649999877,0.04336847923470523,0.04644337889794449,0.0010185846799667553,-0.034075555577291014,0.029000622099198334
0.73,-0.0026091964398846338,-0.782614332000079,-0.0029192745998771704,-2.354487520000073,0.0049402441597989535,1.5756793599998045,0.7813125800001944,0.039999996,0.03999995160000001,-9.819634799999877,0.04397711157572474,0.04699813079793742,0.001027556959966641,-0.03423292413295402,0.029216981199195573
0.7325,-0.0026402253348842396,-0.7825930830000792,-0.0029523108998767505,-2.3544677800000735,0.004994317689798267,1.5757319649998036,0.7812602825001952,0.03999999525,0.039999950400000005,-9.819667949999877,0.04458574391674427,0.047552882697930364,0.0010365292399665267,-0.03439029268861703,0.029433340299192822
0.735,-0.0026723012398779645,-0.7825711800000832,-0.0029864608998700754,-2.3544473800000776,0.005050212579787349,1.575786369999793,0.7812062290002056,0.0399999955,0.0399999504,-9.819687599999952,0.04524699151258574,0.04810068979796229,0.0010457689599649106,-0.03454979509055102,0.0296524889991744
0.7375,-0.0027049006498775503,-0.7825489500000835,-0.0030211677498696342,-2.354426650000078,0.005107018149786627,1.575841674999792,0.7811512975002064,0.03999999625,0.039999951,-9.819700499999952,0.045934546736280384,0.04864502449795537,0.0010551423999647916,-0.03471036441563844,0.029873032499171597
0.74,-0.0027375000598771344,-0.7825267200000837,-0.0030558745998691913,-2.354405920000078,0.005163823719785903,1.5758969799997915,0.781096366000207,0.039999997,0.03999995159999999,-9.819713399999952,0.046622101959975,0.04918935919794843,0.0010645158399646719,-0.03487093374072586,0.030093575999168783
0.7425,-0.0027700994698767203,-0.782504490000084,-0.00309058144986875,-2.354385190000078,0.005220629289785181,1.575952284999791,0.7810414345002078,0.03999999775,0.039999952199999994,-9.819726299999951,0.04730965718366965,0.04973369389794151,0.0010738892799645528,-0.035031503065813284,0.03031411949916598
0.745,-0.0028026988798763044,-0.7824822600000844,-0.0031252882998683076,-2.3543644600000784,0.005277434859784456,1.57600758999979,0.7809865030002084,0.0399999985,0.039999952799999995,-9.819739199999951,0.047997212407364265,0.05027802859793457,0.0010832627199644333,-0.0351920723909007,0.030534662999163166
0.7475,-0.00283529828987589,-0.7824600300000846,-0.0031599951498678665,-2.3543437300000787,0.005334240429783734,1.5760628949997895,0.7809315715002092,0.03999999925,0.039999953399999996,-9.81975209999995,0.04868476763105891,0.05082236329792765,0.001092636159964314,-0.03535264171598813,0.030755206499160363
0.75,-0.0028678976998754743,-0.7824378000000849,-0.003194701999867424,-2.354323000000079,0.0053910459997830095,1.5761181999997889,0.7808766400002098,0.04,0.039999954,-9.81976499999995,0.04937232285475352,0.05136669799792071,0.0011020095999641946,-0.03551321104107554,0.030975749999157552
0.7525000000000001,-0.0029020996048689184,-0.782414545500089,-0.00323111334486045,-2.3543011300000836,0.005450639079771604,1.5761761749997778,0.7808189995002209,0.04,0.0399999534,-9.81978584999992,0.05010013915319448,0.051945137297783085,0.0011117700249625923,-0.03567694481399485,0.031200446099138832
0.755,-0.002936301509868482,-0.7823912910000894,-0.003267524689859986,-2.354279260000084,0.0055102321597708444,1.5762341499997772,0.7807613590002217,0.04,0.0399999528,-9.81980669999992,0.0508279554517892,0.052523576597775706,0.0011215304499624678,-0.035840678586926245,0.03142514219913597
0.7575000000000001,-0.0029705034148680472,-0.7823680365000897,-0.003303936034859523,-2.3542573900000843,0.005569825239770087,1.5762921249997763,0.7807037185002224,0.04,0.0399999522,-9.81982754999992,0.05155577175038395,0.053102015897768355,0.0011312908749623438,-0.03600441235985764,0.031649838299133114
0.76,-0.003004705319867611,-0.78234478200009,-0.0033403473798590587,-2.354235520000085,0.005629418319769326,1.5763500999997757,0.7806460780002231,0.04,0.0399999516,-9.81984839999992,0.05228358804897867,0.053680455197760976,0.0011410512999622193,-0.036168146132789035,0.031874534399130246
0.7625000000000001,-0.0030389072248671765,-0.7823215275000903,-0.003376758724858596,-2.354213650000085,0.005689011399768569,1.5764080749997749,0.7805884375002239,0.04,0.039999951,-9.819869249999918,0.05301140434757341,0.054258894497753625,0.0011508117249620952,-0.036331879905720434,0.03209923049912739
0.765,-0.0030731091298667403,-0.7822982730000906,-0.0034131700698581315,-2.354191780000085,0.005748604479767809,1.5764660499997742,0.7805307970002247,0.04,0.039999950400000005,-9.819890099999919,0.05373922064616813,0.054837333797746246,0.0011605721499619707,-0.036495613678651825,0.032323926599124524
0.7675000000000001,-0.003107855659859593,-0.7822746695000953,-0.0034501606148505297,-2.35416956000009,0.005809144814755376,1.576524949999762,0.7804722415002366,0.04,0.039999950199999995,-9.819900850000037,0.05449485107938474,0.05541476074774553,0.0011705005449597836,-0.03666047584199988,0.03254994514910408
0.77,-0.003143691439858158,-0.7822503680000962,-0.003488309559849002,-2.3541466400000908,0.005871579659752876,1.5765856999997596,0.7804118560002391,0.04,0.039999950799999996,-9.819891400000037,0.055306109782822487,0.05599016299772249,0.0011807648799593725,-0.036827594786220885,0.03277860859909493
0.7725,-0.0031795272198567232,-0.7822260665000972,-0.0035264585048474747,-2.3541237200000915,0.005934014504750376,1.5766464499997572,0.7803514705002415,0.04,0.0399999514,-9.819881950000038,0.056117368486260234,0.056565565247699456,0.0011910292149589616,-0.036994713730441886,0.03300727204908577
0.775,-0.00321536299985529,-0.7822017650000981,-0.0035646074498459487,-2.3541008000000927,0.005996449349747879,1.5767071999997548,0.7802910850002439,0.04,0.039999952,-9.819872500000038,0.05692862718969802,0.05714096749767644,0.0012012935499585511,-0.0371618326746629,0.03323593549907662
0.7775,-0.003251198779853855,-0.7821774635000991,-0.0036027563948444214,-2.3540778800000934,0.006058884194745379,1.5767679499997522,0.7802306995002463,0.04,0.03999995259999999,-9.819863050000038,0.057739885893135764,0.0577163697476534,0.00121155788495814,-0.0373289516188839,0.03346459894906747
0.78,-0.0032870345598524217,-0.7821531620001001,-0.0036409053398428954,-2.3540549600000946,0.006121319039742882,1.5768286999997498,0.7801703140002487,0.04,0.039999953199999994,-9.81985360000004,0.058551144596573554,0.05829177199763039,0.0012218222199577296,-0.037496070563104916,0.03369326239905832
0.7825,-0.0033228703398509867,-0.782128860500101,-0.003679054284841368,-2.3540320400000954,0.006183753884740383,1.5768894499997475,0.7801099285002512,0.04,0.039999953799999995,-9.819844150000039,0.0593624033000113,0.05886717424760735,0.0012320865549573187,-0.03766318950732592,0.03392192584904917
0.785,-0.0033598155098439318,-0.7821038140001058,-0.003718383339833863,-2.3540084000001,0.006248118799728108,1.5769520499997356,0.7800476650002631,0.04,0.0399999533,-9.819864499999854,0.06014001443665489,0.05949880109725427,0.0012426172899556184,-0.03783230110932122,0.034153092599032715
0.7875,-0.0033973153748444768,-0.7820783950001055,-0.003758302449834443,-2.3539844000001,0.006313448749729057,1.5770155749997365,0.7799844625002621,0.04,0.039999952250000005,-9.819899749999854,0.06090080178958553,0.06015854024726386,0.0012532812249557734,-0.03800240904022236,0.03438551099903609
0.79,-0.003434815239845023,-0.782052976000105,-0.0037982215598350248,-2.353960400000099,0.006378778699730009,1.5770790999997375,0.7799212600002612,0.04,0.0399999512,-9.819934999999855,0.06166158914251621,0.060818279397273474,0.0012639451599559288,-0.03817251697112351,0.034617929399039474
0.7925,-0.003472315104845568,-0.7820275570001046,-0.003838140669835605,-2.353936400000099,0.006444108649730959,1.5771426249997385,0.7798580575002603,0.04,0.039999950150000005,-9.819970249999855,0.06242237649544686,0.06147801854728306,0.001274609094956084,-0.03834262490202465,0.03485034779904285
0.795,-0.003509814969846115,-0.7820021380001043,-0.0038780597798361866,-2.3539124000000986,0.006509438599731911,1.5772061499997394,0.7797948550002594,0.04,0.0399999491,-9.820005499999855,0.06318316384837754,0.06213775769729268,0.0012852730299562393,-0.0385127328329258,0.03508276619904624
0.7975,-0.00354731483484666,-0.7819767190001039,-0.003917978889836767,-2.353888400000098,0.00657476854973286,1.5772696749997401,0.7797316525002584,0.04,0.039999948050000005,-9.820040749999857,0.06394395120130818,0.06279749684730226,0.0012959369649563942,-0.03868284076382694,0.035315184599049615
0.8,-0.003584814699847206,-0.7819513000001036,-0.0039578979998373485,-2.3538644000000977,0.006640098499733812,1.577333199999741,0.7796684500002575,0.04,0.03999994700000001,-9.820075999999856,0.06470473855423886,0.06345723599731189,0.0013066008999565496,-0.03885294869472809,0.035547602999053005
0.8025,-0.0036240086498398037,-0.7819248100001083,-0.003999618489829476,-2.3538392600001026,0.006708374764720936,1.5773996499997285,0.7796024125002698,0.04,0.03999994745,-9.820104799999882,0.06555249876927532,0.06411374609731667,0.0013178535699540073,-0.039027017354253714,0.03578375954903476
0.805,-0.0036632025998393058,-0.7818983200001086,-0.0040413389798289465,-2.353814120000103,0.006776651029720069,1.5774660999997276,0.7795363750002707,0.04,0.0399999479,-9.820133599999883,0.06640025898466619,0.06477025619730832,0.0013291062399538643,-0.03920108601379548,0.03601991609903176
0.8075,-0.0037023965498388057,-0.781871830000109,-0.004083059469828414,-2.3537889800001035,0.006844927294719198,1.5775325499997266,0.7794703375002716,0.04,0.03999994835,-9.820162399999882,0.06724801920005702,0.06542676629729995,0.0013403589099537207,-0.03937515467333724,0.03625607264902875
0.81,-0.0037415904998383074,-0.7818453400001093,-0.004124779959827884,-2.3537638400001035,0.00691320355971833,1.5775989999997257,0.7794043000002724,0.04,0.0399999488,-9.820191199999881,0.0680957794154479,0.0660832763972916,0.0013516115799535777,-0.03954922333287901,0.03649222919902575
0.8125,-0.0037807844498378073,-0.7818188500001096,-0.004166500449827352,-2.353738700000104,0.00698147982471746,1.577665449999725,0.7793382625002733,0.04,0.03999994925,-9.820219999999882,0.06894353963083873,0.06673978649728322,0.0013628642499534343,-0.03972329199242077,0.036728385749022735
0.8150000000000001,-0.0038199783998373094,-0.78179236000011,-0.004208220939826822,-2.353713560000104,0.007049756089716592,1.577731899999724,0.7792722250002742,0.04,0.039999949699999995,-9.82024879999988,0.0697912998462296,0.06739629659727488,0.0013741169199532912,-0.03989736065196254,0.036964542299019736
0.8175,-0.003859746584829637,-0.7817655000001149,-0.004250552359818659,-2.353688050000109,0.007119031054703246,1.5777993199997111,0.7792052200002871,0.04,0.03999995,-9.820260400000095,0.07066867947188449,0.0680522549972734,0.0013855105449513871,-0.04007227346227539,0.03720185474900228
0.8200000000000001,-0.0039006632398291166,-0.7817379000001153,-0.004294105639818105,-2.3536618000001095,0.00719030341970234,1.5778686799997104,0.779136280000288,0.04,0.03999995,-9.820237600000096,0.07160529791917636,0.06870710999726508,0.0013971860799512387,-0.04024887457416203,0.03744147899899924
0.8225,-0.003941579894828595,-0.7817103000001157,-0.00433765891981755,-2.35363555000011,0.007261575784701431,1.5779380399997094,0.7790673400002889,0.04,0.03999995,-9.820214800000096,0.07254191636646817,0.06936196499725672,0.0014088616149510896,-0.040425475686048665,0.037681103248996185
0.8250000000000001,-0.003982496549828075,-0.781682700000116,-0.004381212199816996,-2.35360930000011,0.007332848149700525,1.5780073999997084,0.7789984000002897,0.04,0.03999995,-9.820192000000096,0.07347853481376003,0.0700168199972484,0.0014205371499509413,-0.0406020767979353,0.03792072749899314
0.8275,-0.004023413204827553,-0.7816551000001163,-0.004424765479816441,-2.3535830500001107,0.007404120514699616,1.5780767599997076,0.7789294600002906,0.04,0.03999995,-9.820169200000096,0.07441515326105184,0.07067167499724004,0.0014322126849507922,-0.04077867790982193,0.03816035174899008
