rsonawane2002/My_IMU/logs_2/traj_1500/imu_400hz_1500.csv
time,j1,j2,j3,j4,j5,j6,j7,gripper1,gripper2,imu_ax,imu_ay,imu_az,imu_gx,imu_gy,imu_gz
0.0,0.00016703313,-0.78463066,4.018289e-05,-2.3561552,9.3351664e-05,1.5709763,0.7860001,1.2118691e-05,1.21186895e-05,-9.809999,0.0006323276320472,-0.0050887167,0.0,-0.0,0.0
0.0025,0.000166977051,-0.784628341,4.009508375e-05,-2.3561570599999997,0.00010352607939999989,1.570976315,0.785999965,0.00048217063234999536,0.0004824117260749954,-9.853200243168338,-0.0038812785320021513,-0.020928508957811308,-0.00026223763831501246,-0.0021271744850846494,0.0002150604514276179
0.005,0.000166920972,-0.784626022,4.00072775e-05,-2.35615892,0.0001137004947999998,1.5709763300000001,0.78599983,0.0009522225736999908,0.0009527047626499909,-9.896401486336677,-0.008394884696051503,-0.03676830121562262,-0.0005244752766300249,-0.004254348970169299,0.0004301209028552358
0.0075,0.000166864893,-0.784623703,3.991947125e-05,-2.3561607799999997,0.00012387491019999968,1.570976345,0.785999695,0.0014222745150499862,0.0014229977992249862,-9.939602729505015,-0.012908490860100852,-0.05260809347343392,-0.0007867129149450372,-0.006381523455253948,0.0006451813542828537
0.01,0.000166808814,-0.784621384,3.9831665000000004e-05,-2.35616264,0.00013404932559999962,1.57097636,0.78599956,0.0018923264563999816,0.0018932908357999817,-9.982803972673354,-0.017422097024150204,-0.06844788573124523,-0.0010489505532600499,-0.008508697940338598,0.0008602418057104716
0.0125,0.000166752735,-0.784619065,3.9743858750000006e-05,-2.3561644999999998,0.0001442237409999995,1.5709763749999999,0.785999425,0.002362378397749977,0.002363583872374977,-10.026005215841694,-0.021935703188199554,-0.08428767798905654,-0.0013111881915750623,-0.010635872425423248,0.0010753022571380895
0.015,0.000166696656,-0.784616746,3.965605250000001e-05,-2.35616636,0.00015439815639999938,1.57097639,0.78599929,0.0028324303390999724,0.002833876908949972,-10.069206459010033,-0.0264493093522489,-0.10012747024686783,-0.0015734258298900745,-0.012763046910507897,0.0012903627085657074
0.0175,0.000166664711,-0.784614485,3.960086075e-05,-2.35616818,0.0001606313300000001,1.570976395,0.7859992,0.0032931983849999722,0.003294798869999972,-10.084422293664392,-0.029086779611551004,-0.10701172384562845,-0.0014871170176138497,-0.014125214627012727,0.0014361205686276445
0.02,0.00016668103399999998,-0.78461234,3.9610898000000005e-05,-2.35616992,0.00015898202000000009,1.57097638,0.7859992,0.003735398639999973,0.0037369786799999736,-10.04366731129078,-0.027971978061357507,-0.09598490012628247,-0.000703715304154947,-0.01395736880635747,0.0014432732459581795
0.0225,0.000166697357,-0.784610195,3.962093525e-05,-2.3561716600000002,0.00015733271000000008,1.570976365,0.7859992,0.0041775988949999746,0.004179158489999975,-10.00291232891717,-0.026857176511164007,-0.08495807640693648,7.968640930395535e-05,-0.013789522985702215,0.0014504259232887146
0.025,0.00016671368,-0.78460805,3.96309725e-05,-2.3561734,0.00015568340000000008,1.57097635,0.7859992,0.004619799149999977,0.004621338299999977,-9.962157346543558,-0.025742374960970506,-0.07393125268759049,0.000863088122762859,-0.01362167716504696,0.0014575786006192496
0.0275,0.00016673000299999999,-0.784605905,3.9641009750000004e-05,-2.35617514,0.00015403409000000007,1.5709763350000001,0.7859992,0.005061999404999978,0.005063518109999978,-9.921402364169946,-0.02462757341077701,-0.0629044289682445,0.0016464898362217617,-0.013453831344391704,0.0014647312779497846
0.03,0.000166746326,-0.78460376,3.9651047e-05,-2.35617688,0.00015238478000000006,1.57097632,0.7859992,0.0055041996599999796,0.005505697919999979,-9.880647381796333,-0.02351277186058351,-0.05187760524889852,0.002429891549680664,-0.013285985523736448,0.0014718839552803195
0.0325,0.000166762649,-0.784601615,3.966108425e-05,-2.35617862,0.00015073547000000006,1.570976305,0.7859992,0.005946399914999982,0.005947877729999981,-9.839892399422721,-0.022397970310390012,-0.040850781529552516,0.0032132932631395673,-0.013118139703081193,0.0014790366326108545
0.035,0.000166788779,-0.78459959,3.96631747e-05,-2.3561803500000003,0.00014923897300000004,1.57097613,0.7859992,0.006365018299999985,0.006366477499999985,-9.822741087945094,-0.02272233474373703,-0.032509865080438814,0.003374439075221396,-0.012980454016825295,0.001390776342029405
0.0375,0.0001668198125,-0.7845976250000001,3.9661291750000005e-05,-2.356182075,0.00014781888250000005,1.570975875,0.7859992,0.006771845749999985,0.006773287249999985,-9.817391611915461,-0.023766282168854437,-0.025511902266441528,0.0032244569366146306,-0.01285784839776908,0.0012548095674919549
0.04,0.000166850846,-0.78459566,3.96594088e-05,-2.3561838,0.00014639879200000004,1.57097562,0.7859992,0.007178673199999987,0.007180096999999988,-9.812042135885827,-0.024810229593971847,-0.01851393945244422,0.003074474798007865,-0.012735242778712864,0.0011188427929545042
0.0425,0.0001668818795,-0.784593695,3.965752585e-05,-2.356185525,0.00014497870150000005,1.570975365,0.7859992,0.007585500649999989,0.007586906749999989,-9.806692659856195,-0.025854177019089257,-0.011515976638446914,0.002924492659401099,-0.012612637159656648,0.0009828760184170536
0.045,0.000166912913,-0.7845917299999999,3.96556429e-05,-2.35618725,0.00014355861100000004,1.57097511,0.7859992,0.007992328099999989,0.00799371649999999,-9.80134318382656,-0.026898124444206663,-0.004518013824449628,0.002774510520794334,-0.012490031540600433,0.0008469092438796034
0.0475,0.0001669439465,-0.784589765,3.9653759950000005e-05,-2.356188975,0.00014213852050000002,1.570974855,0.7859992,0.008399155549999992,0.008400526249999991,-9.795993707796928,-0.027942071869324073,0.0024799489895476826,0.002624528382187568,-0.012367425921544217,0.0007109424693421529
0.05,0.00016697498,-0.7845878,3.9651877e-05,-2.3561907,0.00014071843000000003,1.5709746,0.7859992,0.008805982999999993,0.008807335999999994,-9.790644231767294,-0.028986019294441483,0.009477911803544986,0.0024745462435808024,-0.012244820302488002,0.0005749756948047023
0.0525,0.000167035088,-0.784586,3.9629268850000005e-05,-2.356192395,0.00013952914150000003,1.570974165,0.7859992,0.009180267649999994,0.009181604449999995,-9.80047360843058,-0.02807122166517912,0.003309469852786213,0.002261882752324193,-0.012339843397081484,0.00010260304693718216
0.055,0.000167095196,-0.7845842,3.96066607e-05,-2.35619409,0.00013833985300000003,1.57097373,0.7859992,0.009554552299999996,0.009555872899999996,-9.810302985093868,-0.02715642403591672,-0.0028589720979727944,0.002049219261067582,-0.012434866491674969,-0.0003697696009303449
0.0575,0.000167155304,-0.7845824,3.958405255e-05,-2.356195785,0.00013715056450000002,1.570973295,0.7859992,0.009928836949999999,0.009930141349999998,-9.820132361757157,-0.026241626406654322,-0.0090274140487318,0.0018365557698109712,-0.012529889586268455,-0.000842142248797872
0.06,0.000167215412,-0.7845806,3.9561444400000004e-05,-2.35619748,0.00013596127600000002,1.5709728600000001,0.7859992,0.010303121599999998,0.010304409799999999,-9.829961738420444,-0.025326828777391924,-0.01519585599949079,0.0016238922785543608,-0.01262491268086194,-0.0013145148966653977
0.0625,0.00016727552000000002,-0.7845788,3.953883625e-05,-2.356199175,0.0001347719875,1.5709724250000001,0.7859992,0.01067740625,0.01067867825,-9.839791115083731,-0.024412031148129523,-0.021364297950249796,0.0014112287872977498,-0.012719935775455424,-0.0017868875445329249
0.065,0.00016733562800000002,-0.7845770000000001,3.95162281e-05,-2.3562008700000003,0.00013358269899999998,1.57097199,0.7859992,0.011051690900000001,0.011052946700000002,-9.84962049174702,-0.023497233518867126,-0.027532739901008806,0.0011985652960411388,-0.01281495887004891,-0.002259260192400452
0.0675,0.000167411458,-0.7845752500000001,3.948294135e-05,-2.356202425,0.0001324742515,1.57097156,0.7859992,0.011415995775000003,0.011417235800000003,-9.854166234462665,-0.02309240494873485,-0.03168625604386468,0.000950421743866417,-0.012789893920077396,-0.0025970054861434253
0.07,0.00016751873200000002,-0.7845736,3.94282974e-05,-2.3562037,0.000131527486,1.5709711400000002,0.7859992,0.011760341100000005,0.011761566200000005,-9.84814470928303,-0.02370751449686279,-0.03180992057091442,0.0006313180698554756,-0.012524652880975895,-0.002665496071637301
0.0725,0.00016762600600000001,-0.78457195,3.937365345e-05,-2.3562049750000003,0.00013058072049999998,1.57097072,0.7859992,0.012104686425000004,0.012105896600000004,-9.842123184103396,-0.02432262404499072,-0.03193358509796416,0.0003122143958445361,-0.012259411841874396,-0.0027339866571311757
0.075,0.00016773328,-0.7845702999999999,3.93190095e-05,-2.35620625,0.000129633955,1.5709703,0.7859992,0.012449031750000006,0.012450227000000006,-9.836101658923761,-0.024937733593118662,-0.0320572496250139,-6.8892781664054315e-06,-0.011994170802772895,-0.002802477242625051
0.0775,0.000167840554,-0.78456865,3.926436555e-05,-2.356207525,0.0001286871895,1.57096988,0.7859992,0.012793377075000008,0.012794557400000007,-9.830080133744126,-0.025552843141246596,-0.03218091415206364,-0.0003259929521773467,-0.011728929763671394,-0.002870967828118926
0.08,0.000167947828,-0.784567,3.92097216e-05,-2.3562088,0.00012774042399999998,1.57096946,0.7859992,0.01313772240000001,0.013138887800000009,-9.824058608564492,-0.026167952689374534,-0.03230457867911338,-0.0006450966261882882,-0.011463688724569893,-0.002939458413612802
0.0825,0.00016805510200000002,-0.7845653499999999,3.9155077649999996e-05,-2.356210075,0.0001267936585,1.57096904,0.7859992,0.013482067725000012,0.013483218200000011,-9.818037083384857,-0.026783062237502472,-0.032428243206163124,-0.0009642003001992295,-0.01119844768546839,-0.003007948999106677
0.085,0.00016820818900000002,-0.7845638039999999,3.90700664e-05,-2.35621119,0.000126021565,1.57096861,0.7859992,0.013808050150000011,0.01380918670000001,-9.815593497507647,-0.024172907198840795,-0.029935179266112305,-0.0011975001203033465,-0.011183009245889833,-0.002888806485534603
0.08750000000000001,0.00016838418250000002,-0.78456231,3.896987149999999e-05,-2.356212225,0.00012533680749999998,1.570968175,0.7859992,0.014124851125000013,0.014125974250000011,-9.81493888128165,-0.019950119866784535,-0.026133751092511398,-0.0013878980134540574,-0.011292472106072728,-0.0026758474224295664
0.09,0.000168560176,-0.7845608159999999,3.8869676599999995e-05,-2.35621326,0.00012465205,1.57096774,0.7859992,0.014441652100000013,0.014442761800000013,-9.814284265055655,-0.0157273325347283,-0.022332322918910512,-0.0015782959066047671,-0.011401934966255625,-0.002462888359324532
0.0925,0.0001687361695,-0.784559322,3.87694817e-05,-2.356214295,0.00012396729249999997,1.5709673050000001,0.7859992,0.014758453075000014,0.014759549350000014,-9.813629648829657,-0.011504545202672042,-0.01853089474530961,-0.001768693799755478,-0.01151139782643852,-0.002249929296219496
0.095,0.000168912163,-0.784557828,3.8669286799999994e-05,-2.35621533,0.00012328253499999998,1.5709668700000001,0.7859992,0.015075254050000014,0.015076336900000015,-9.81297503260366,-0.007281757870615784,-0.014729466571708701,-0.0019590916929061886,-0.011620860686621416,-0.00203697023311446
0.0975,0.00016908815650000002,-0.784556334,3.8569091899999996e-05,-2.356216365,0.00012259777749999996,1.570966435,0.7859992,0.015392055025000016,0.015393124450000016,-9.812320416377665,-0.0030589705385595245,-0.010928038398107794,-0.0021494895860568997,-0.011730323546804311,-0.0018240111700094242
0.1,0.00016926415000000002,-0.78455484,3.846889699999999e-05,-2.3562174,0.00012191301999999997,1.570966,0.7859992,0.015708856000000018,0.015709912000000017,-9.811665800151667,0.001163816793496557,-0.007126610224507198,-0.002339887479207567,-0.011839786406987246,-0.0016110521069044122
0.10250000000000001,0.0001695334555,-0.784553469,3.830762674999999e-05,-2.3562182249999997,0.00012151693899999997,1.5709655500000002,0.7859992,0.01600031605000002,0.016001359000000017,-9.81317411643327,0.0021888519549219916,-0.00889004916903521,-0.001742329449444174,-0.012653426790275445,-0.0018309157721052532
0.105,0.000169802761,-0.784552098,3.814635649999999e-05,-2.35621905,0.00012112085799999998,1.5709651,0.7859992,0.016291776100000016,0.016292806000000017,-9.814682432714871,0.0032138871163474203,-0.010653488113563214,-0.0011447714196807846,-0.013467067173563638,-0.0020507794373060932
0.1075,0.0001700720665,-0.784550727,3.798508624999999e-05,-2.356219875,0.00012072477699999998,1.57096465,0.7859992,0.016583236150000017,0.016584253000000018,-9.816190748996473,0.004238922277772855,-0.012416927058091227,-0.0005472133899173922,-0.014280707556851836,-0.002270643102506934
0.11,0.00017034137200000002,-0.784549356,3.7823815999999985e-05,-2.3562207,0.00012032869599999997,1.5709642000000001,0.7859992,0.016874696200000018,0.01687570000000002,-9.817699065278076,0.005263957439198289,-0.01418036600261924,5.0344639846000745e-05,-0.015094347940140035,-0.002490506767707775
0.1125,0.00017061067750000002,-0.784547985,3.766254574999999e-05,-2.356221525,0.00011993261499999997,1.57096375,0.7859992,0.017166156250000023,0.01716714700000002,-9.819207381559677,0.0062889926006237246,-0.015943804947147252,0.0006479026696093932,-0.015907988323428233,-0.002710370432908616
0.115,0.00017087998300000003,-0.784546614,3.750127549999998e-05,-2.35622235,0.00011953653399999997,1.5709633,0.7859992,0.017457616300000024,0.01745859400000002,-9.82071569784128,0.007314027762049159,-0.017707243891675266,0.0012454606993727861,-0.01672162870671643,-0.002930234098109457
0.11750000000000001,0.00017118952400000002,-0.7845452865,3.731388979999998e-05,-2.356223115,0.0001192476152,1.5709628400000002,0.785999295,0.017741304900000022,0.017742270050000022,-9.819753903965637,0.0067396691394922895,-0.017985100254027876,0.0015389387560781145,-0.017074554924790767,-0.0026616661692485293
0.12,0.00017157953600000002,-0.784544046,3.707427319999998e-05,-2.3562237600000002,0.00011917302079999999,1.57096236,0.78599958,0.01800945060000002,0.01801040420000002,-9.813851889775506,0.0029665229489719775,-0.015291791452030764,0.001224256866667535,-0.016506052812437715,-0.0014162350522644203
0.1225,0.00017196954800000004,-0.7845428055,3.683465659999998e-05,-2.3562244050000003,0.00011909842639999999,1.57096188,0.785999865,0.01827759630000002,0.018278538350000022,-9.807949875585376,-0.0008066232415483536,-0.012598482650033637,0.0009095749772569534,-0.015937550700084655,-0.00017080393528030435
0.125,0.00017235956000000003,-0.7845415649999999,3.6595039999999973e-05,-2.3562250500000004,0.000119023832,1.5709614,0.78600015,0.018545742000000025,0.018546672500000024,-9.802047861395245,-0.004579769432068687,-0.00990517384803651,0.0005948930878463721,-0.0153690485877316,0.0010746271817038116
0.1275,0.00017274957200000003,-0.7845403245,3.6355423399999977e-05,-2.356225695,0.0001189492376,1.57096092,0.786000435,0.018813887700000025,0.018814806650000026,-9.796145847205114,-0.008352915622589017,-0.007211865046039384,0.00028021119843579063,-0.014800546475378542,0.0023200582986879267
0.13,0.00017313958400000002,-0.7845390839999999,3.611580679999997e-05,-2.35622634,0.00011887464319999999,1.5709604400000001,0.78600072,0.019082033400000028,0.019082940800000024,-9.790243833014983,-0.012126061813109351,-0.004518556244042259,-3.4470690974790826e-05,-0.014232044363025484,0.0035654894156720426
0.1325,0.00017352959600000002,-0.7845378435,3.5876190199999976e-05,-2.356226985,0.00011880004879999998,1.57095996,0.786001005,0.019350179100000028,0.019351074950000026,-9.784341818824855,-0.015899208003629685,-0.0018252474420451317,-0.0003491525803853723,-0.013663542250672428,0.0048109205326561585
0.135,0.00017401994300000006,-0.784536697,3.557176959999996e-05,-2.35622758,0.00011896550060000002,1.57095913,0.78600129,0.019604025300000025,0.019604910300000025,-9.785847732523917,-0.01853300676682141,-3.200551936656678e-05,-0.0006016865702563236,-0.013453728937577597,0.004627090772934614
0.1375,0.00017456045750000005,-0.7845355975,3.523494699999996e-05,-2.35622815,0.00011925097550000003,1.570958125,0.786001575,0.01985072175000003,0.019851596250000027,-9.791057610167577,-0.020597131816349104,0.0013112029636529242,-0.0008231466103574746,-0.013423260024111797,0.0037286305748605755
0.14,0.00017510097200000005,-0.784534498,3.4898124399999955e-05,-2.3562287200000003,0.00011953645040000003,1.57095712,0.78600186,0.02009741820000003,0.02009828220000003,-9.796267487811237,-0.0226612568658768,0.002654411446672415,-0.0010446066504586256,-0.013392791110645997,0.0028301703767865368
0.14250000000000002,0.00017564148650000007,-0.7845333985,3.456130179999996e-05,-2.3562292900000004,0.00011982192530000004,1.570956115,0.786002145,0.02034411465000003,0.020344968150000028,-9.801477365454897,-0.024725381915404493,0.003997619929691907,-0.0012660666905597766,-0.013362322197180197,0.0019317101787124976
0.145,0.00017618200100000007,-0.784532299,3.4224479199999956e-05,-2.35622986,0.00012010740020000003,1.57095511,0.78600243,0.020590811100000026,0.020591654100000027,-9.806687243098557,-0.026789506964932163,0.005340828412711383,-0.001487526730660925,-0.013331853283714397,0.0010332499806384688
0.1475,0.00017672251550000006,-0.7845311995,3.388765659999996e-05,-2.35623043,0.00012039287510000003,1.570954105,0.786002715,0.02083750755000003,0.02083834005000003,-9.811897120742216,-0.028853632014459858,0.006684036895730874,-0.0017089867707620761,-0.013301384370248597,0.00013478978256442967
0.15,0.00017726303000000008,-0.7845301,3.355083399999994e-05,-2.356231,0.00012067835000000008,1.5709531,0.786003,0.021084204000000027,0.021085026000000028,-9.817106998385876,-0.03091775706398687,0.008027245378749954,-0.0019304468108631754,-0.013270915456782753,-0.0007636704155094141
0.1525,0.0001779860000000001,-0.7845290905,3.309655839999994e-05,-2.35623154,0.00012136759250000009,1.57095208,0.786003285,0.02131116720000003,0.02131197945000003,-9.816921053961067,-0.027404744782478764,0.0060098700732051005,-0.0017278580519200645,-0.012889886766076877,-6.06400119286609e-05
0.155,0.0001787089700000001,-0.784528081,3.264228279999994e-05,-2.3562320800000003,0.00012205683500000009,1.57095106,0.78600357,0.02153813040000003,0.02153893290000003,-9.816735109536259,-0.02389173250097066,0.003992494767660246,-0.0015252692929769536,-0.012508858075371,0.0006423903916520923
0.1575,0.00017943194000000012,-0.7845270715,3.218800719999994e-05,-2.35623262,0.0001227460775000001,1.57095004,0.786003855,0.02176509360000003,0.02176588635000003,-9.816549165111452,-0.020378720219462555,0.001975119462115392,-0.0013226805340338427,-0.012127829384665124,0.0013454207952328455
0.16,0.0001801549100000001,-0.7845260620000001,3.173373159999994e-05,-2.35623316,0.0001234353200000001,1.57094902,0.78600414,0.02199205680000003,0.02199283980000003,-9.816363220686643,-0.01686570793795445,-4.225584342946141e-05,-0.0011200917750907318,-0.011746800693959248,0.002048451198813599
0.1625,0.0001808778800000001,-0.7845250525,3.1279455999999936e-05,-2.3562337,0.00012412456250000012,1.570948,0.786004425,0.022219020000000034,0.022219793250000033,-9.816177276261834,-0.013352695656446343,-0.002059631148974315,-0.0009175030161476209,-0.011365772003253371,0.0027514816023943523
0.165,0.00018160085000000012,-0.784524043,3.082518039999993e-05,-2.35623424,0.0001248138050000001,1.57094698,0.78600471,0.022445983200000033,0.022446746700000034,-9.815991331837026,-0.009839683374938239,-0.00407700645451917,-0.00071491425720451,-0.010984743312547493,0.003454512005975105
0.1675,0.00018239593650000015,-0.7845230815,3.032458514999991e-05,-2.35623461,0.00012565361600000018,1.570945885,0.786004995,0.022666894600000032,0.02266764855000003,-9.817120458922226,-0.006704199091018411,-0.003936492621352697,-0.0005839381297654319,-0.0109226819892042,0.0037214254431903325
0.17,0.00018333525600000016,-0.784522216,2.9731350599999906e-05,-2.3562346400000003,0.0001267945640000002,1.57094464,0.78600528,0.022875702400000034,0.02287644720000003,-9.820879729027435,-0.0043237708022746246,0.0005197994892334823,-0.000596187265334322,-0.011498555400585631,0.003116104947675105
0.17250000000000001,0.00018427457550000017,-0.7845213505,2.9138116049999903e-05,-2.35623467,0.00012793551200000018,1.570943395,0.786005565,0.023084510200000033,0.023085245850000033,-9.824638999132647,-0.0019433425135308392,0.004976091599819662,-0.0006084364009032121,-0.012074428811967063,0.0025107844521598767
0.17500000000000002,0.00018521389500000015,-0.784520485,2.85448814999999e-05,-2.3562347000000003,0.0001290764600000002,1.5709421499999998,0.78600585,0.023293318000000035,0.023294044500000034,-9.828398269237857,0.0004370857752129453,0.00943238371040584,-0.000620685536472102,-0.012650302223348496,0.001905463956644649
0.1775,0.00018615321450000016,-0.7845196195,2.7951646949999903e-05,-2.35623473,0.00013021740800000018,1.5709409049999998,0.786006135,0.023502125800000034,0.023502843150000032,-9.832157539343068,0.0028175140639567055,0.013888675820991972,-0.000632934672040992,-0.013226175634729921,0.0013001434611294282
0.18,0.00018709253400000015,-0.784518754,2.7358412399999903e-05,-2.35623476,0.0001313583560000002,1.5709396599999998,0.78600642,0.023710933600000032,0.023711641800000034,-9.835916809448278,0.00519794235270049,0.01834496793157815,-0.0006451838076098821,-0.013802049046111355,0.0006948229656142
0.1825,0.00018803185350000016,-0.7845178885,2.67651778499999e-05,-2.3562347900000002,0.00013249930400000017,1.5709384149999999,0.786006705,0.023919741400000034,0.023920440450000035,-9.83967607955349,0.007578370641444276,0.02280126004216433,-0.0006574329431787721,-0.014377922457492786,8.950247009897232e-05
0.185,0.0001891391120000002,-0.784517074,2.6064261799999868e-05,-2.35623462,0.00013397606800000028,1.57093691,0.78600718,0.02411741450000003,0.024118105000000032,-9.843582733380904,0.008544691295360824,0.01760030313216187,-0.000811327417105699,-0.014761007725837489,-0.00017902301952129734
0.1875,0.00019033034000000022,-0.784516285,2.5309504999999864e-05,-2.3562343500000003,0.00013562074000000027,1.5709352749999999,0.78600775,0.024309520250000032,0.024310202500000034,-9.84756307906942,0.008803958131864296,0.007570721711868789,-0.0010360445602115899,-0.0150476989226639,-0.00027915100619421777
0.19,0.00019152156800000022,-0.784515496,2.4554748199999863e-05,-2.35623408,0.0001372654120000003,1.57093364,0.78600832,0.024501626000000033,0.024502300000000036,-9.851543424757937,0.009063224968367768,-0.002458859708424292,-0.001260761703317481,-0.015334390119490312,-0.0003792789928671382
0.1925,0.00019271279600000023,-0.784514707,2.379999139999986e-05,-2.35623381,0.0001389100840000003,1.570932005,0.78600889,0.024693731750000034,0.024694397500000034,-9.855523770446453,0.009322491804871238,-0.012488441128717373,-0.001485478846423372,-0.015621081316316723,-0.00047940697954005864
0.195,0.00019390402400000023,-0.784513918,2.3045234599999854e-05,-2.35623354,0.0001405547560000003,1.57093037,0.78600946,0.024885837500000035,0.024886495000000036,-9.85950411613497,0.00958175864137471,-0.022518022549010454,-0.0017101959895292629,-0.015907772513143136,-0.0005795349662129791
0.1975,0.00019509525200000024,-0.784513129,2.229047779999985e-05,-2.35623327,0.00014219942800000032,1.570928735,0.78601003,0.025077943250000036,0.025078592500000038,-9.863484461823486,0.00984102547787818,-0.032547603969303535,-0.0019349131326351539,-0.016194463709969548,-0.0006796629528858996
0.2,0.0001962864800000003,-0.78451234,2.1535720999999812e-05,-2.356233,0.00014384410000000043,1.5709271,0.7860106,0.025270049000000034,0.025270690000000033,-9.867464807512,0.010100292314380904,-0.042577185389593764,-0.002159630275740926,-0.016481154906795845,-0.0007797909395587577
0.2025,0.0001977666080000003,-0.7845116965000001,2.0595949549999805e-05,-2.356232445,0.00014604798700000045,1.570924955,0.786011176,0.025446787850000034,0.025447420900000035,-9.858598347008774,0.006618100319195008,-0.038374061965229175,-0.0017893814718938192,-0.016205053621001178,-0.0005676562763522317
0.20500000000000002,0.00019924673600000032,-0.784511053,1.96561780999998e-05,-2.35623189,0.00014825187400000045,1.5709228100000001,0.786011752,0.025623526700000038,0.025624151800000036,-9.849731886505548,0.0031359083240091127,-0.034170938540864594,-0.0014191326680467126,-0.01592895233520651,-0.00035552161314570573
0.20750000000000002,0.00020072686400000032,-0.7845104095000001,1.8716406649999798e-05,-2.356231335,0.00015045576100000045,1.570920665,0.786012328,0.025800265550000038,0.025800882700000038,-9.840865426002322,-0.00034628367117678187,-0.029967815116500013,-0.001048883864199606,-0.015652851049411845,-0.00014338694993917974
0.21,0.00020220699200000031,-0.784509766,1.7776635199999804e-05,-2.3562307799999997,0.00015265964800000045,1.57091852,0.786012904,0.025977004400000038,0.025977613600000036,-9.831998965499096,-0.0038284756663626383,-0.025764691692135473,-0.0006786350603525033,-0.015376749763617182,6.874771326734381e-05
0.2125,0.0002036871200000003,-0.7845091225,1.68368637499998e-05,-2.356230225,0.00015486353500000045,1.5709163750000001,0.78601348,0.026153743250000038,0.026154344500000037,-9.82313250499587,-0.007310667661548533,-0.02156156826777089,-0.0003083862565053967,-0.015100648477822515,0.00028088237647386986
0.215,0.00020516724800000033,-0.784508479,1.5897092299999797e-05,-2.35622967,0.00015706742200000047,1.57091423,0.786014056,0.02633048210000004,0.02633107540000004,-9.814266044492644,-0.010792859656734427,-0.017358444843406304,6.186254734170992e-05,-0.014824547192027849,0.0004930170396803957
0.2175,0.0002067564320000004,-0.7845078725,1.4887530749999746e-05,-2.35622906,0.00015947720250000062,1.57091196,0.786014703,0.026502508450000035,0.026503094150000035,-9.806893126627973,-0.011585626620154556,-0.012889617678301062,0.0003904356595793589,-0.014610589628909465,0.0006606046462889022
0.22,0.0002085637280000004,-0.78450734,1.3738388999999741e-05,-2.35622834,0.00016229877000000062,1.57090944,0.786015492,0.026665109800000038,0.026665688600000036,-9.802507294040407,-0.006999543520048432,-0.00788938303171502,0.0006356573885981751,-0.01452091951114352,0.0007390981397014576
0.2225,0.00021037102400000041,-0.7845068075,1.2589247249999736e-05,-2.35622762,0.00016512033750000065,1.57090692,0.786016281,0.026827711150000037,0.026828283050000037,-9.798121461452839,-0.0024134604199423076,-0.0028891483851289784,0.0008808791176169912,-0.014431249393377574,0.0008175916331140129
0.225,0.00021217832000000044,-0.784506275,1.1440105499999731e-05,-2.3562269,0.00016794190500000065,1.5709044,0.78601707,0.026990312500000037,0.026990877500000038,-9.793735628865273,0.0021726226801638184,0.002111086261457064,0.0011261008466358071,-0.01434157927561163,0.0008960851265265683
0.2275,0.00021398561600000044,-0.7845057425,1.0290963749999725e-05,-2.35622618,0.00017076347250000068,1.57090188,0.786017859,0.02715291385000004,0.02715347195000004,-9.789349796277707,0.006758705780269944,0.007111320908043105,0.0013713225756546233,-0.014251909157845685,0.0009745786199391237
0.23,0.00021579291200000045,-0.7845052100000001,9.14182199999972e-06,-2.35622546,0.00017358504000000068,1.57089936,0.786018648,0.02731551520000004,0.02731606640000004,-9.784963963690139,0.011344788880376067,0.012111555554629146,0.0016165443046734394,-0.014162239040079738,0.0010530721133516791
0.2325,0.00021760020800000045,-0.7845046775000001,7.992680249999715e-06,-2.35622474,0.0001764066075000007,1.57089684,0.786019437,0.027478116550000042,0.02747866085000004,-9.780578131102573,0.015930871980482195,0.017111790201215192,0.0018617660336922555,-0.014072568922313794,0.0011315656067642343
0.23500000000000001,0.00021965184300000055,-0.7845042200000001,6.687290569999653e-06,-2.3562236700000003,0.00017968069800000088,1.57089406,0.78602027,0.02763204710000004,0.027632584800000037,-9.783865295225429,0.015822659878727535,0.016617624357575956,0.001772935638370286,-0.01425437971179367,0.001311839605095718
0.23750000000000002,0.00022182564750000057,-0.7845038,5.303776924999647e-06,-2.356222425,0.0001831810500000009,1.57089115,0.786021125,0.02778164225000004,0.027782173500000038,-9.790988957703492,0.013367300176045099,0.013376258268827147,0.0015170791808781098,-0.014571930954896306,0.001543003855886609
0.24,0.00022399945200000056,-0.78450338,3.9202632799996554e-06,-2.35622118,0.00018668140200000087,1.5708882400000002,0.78602198,0.027931237400000038,0.027931762200000036,-9.798112620181556,0.010911940473362691,0.010134892180078374,0.0012612227233859364,-0.01488948219799894,0.0017741681066774976
0.2425,0.00022617325650000055,-0.78450296,2.536749634999649e-06,-2.356219935,0.00019018175400000088,1.57088533,0.786022835,0.02808083255000004,0.028081350900000038,-9.805236282659617,0.008456580770680254,0.006893526091329564,0.0010053662658937603,-0.015207033441101577,0.0020053323574683885
0.245,0.00022834706100000057,-0.78450254,1.1532359899996431e-06,-2.35621869,0.0001936821060000009,1.57088242,0.7860236899999999,0.02823042770000004,0.02823093960000004,-9.81235994513768,0.0060012210679978185,0.003652160002580755,0.0007495098084015842,-0.015524584684204213,0.00223649660825928
0.2475,0.0002305208655000006,-0.78450212,-2.3027765500036262e-07,-2.356217445,0.00019718245800000092,1.5708795100000001,0.786024545,0.02838002285000004,0.02838052830000004,-9.819483607615744,0.003545861365315383,0.0004107939138319437,0.000493653350909408,-0.01584213592730685,0.002467660859050171
0.25,0.0002326946700000007,-0.7845017,-1.6137913000004378e-06,-2.3562162,0.00020068281000000114,1.5708766,0.7860254,0.028529618000000038,0.02853011700000004,-9.826607270093806,0.0010905016626345542,-0.002830572174916741,0.00023779689341726166,-0.01615968717040926,0.0026988251098408757
0.2525,0.00023527525800000066,-0.7845013925,-3.2572932550004234e-06,-2.35621452,0.0002049253920000011,1.5708731200000001,0.786026501,0.028667246900000037,0.028667740050000036,-9.82328603259997,0.004672380255720773,-0.005612120771867121,9.395431885349294e-05,-0.015621289201835238,0.00223176620987148
0.255,0.00023785584600000064,-0.7845010849999999,-4.900795210000408e-06,-2.35621284,0.00020916797400000105,1.57086964,0.786027602,0.028804875800000036,0.028805363100000033,-9.819964795106134,0.00825425884880699,-0.008393669368817502,-4.988825571027578e-05,-0.015082891233261217,0.001764707309902084
0.2575,0.0002404364340000006,-0.7845007775,-6.544297165000394e-06,-2.35621116,0.000213410556000001,1.57086616,0.786028703,0.028942504700000034,0.028942986150000034,-9.816643557612299,0.01183613744189321,-0.011175217965767882,-0.0001937308302740445,-0.014544493264687196,0.001297648409932688
0.26,0.0002430170220000006,-0.78450047,-8.18779912000038e-06,-2.35620948,0.000217653138000001,1.57086268,0.786029804,0.029080133600000033,0.02908060920000003,-9.813322320118465,0.015418016034979427,-0.013956766562718262,-0.0003375734048378132,-0.014006095296113175,0.0008305895099632924
0.2625,0.00024559761000000056,-0.7845001625,-9.831301075000364e-06,-2.3562078,0.00022189572000000095,1.5708592000000001,0.7860309050000001,0.029217762500000032,0.02921823225000003,-9.810001082624629,0.018999894628065648,-0.016738315159668643,-0.000481415979401582,-0.013467697327539156,0.00036353060999389647
0.265,0.00024817819800000056,-0.784499855,-1.147480303000035e-05,-2.35620612,0.0002261383020000009,1.57085572,0.786032006,0.02935539140000003,0.02935585530000003,-9.806679845130793,0.022581773221151867,-0.019519863756619023,-0.0006252585539653507,-0.012929299358965135,-0.00010352828997549964
0.2675,0.00025090803450000067,-0.7844995755,-1.3213670350000412e-05,-2.356204345,0.00023065003750000107,1.57085202,0.7860331215,0.02948935060000003,0.029489808800000027,-9.805058124394277,0.024739756808822903,-0.02103007317443868,-0.000700741946076087,-0.01270225300692549,-0.00018421656107135248
0.27,0.0002539363680000007,-0.784499352,-1.5143268400000446e-05,-2.35620238,0.00023570008000000115,1.57084788,0.786034266,0.02961597040000003,0.02961642320000003,-9.806835437172397,0.024049950385666242,-0.019997604233999263,-0.0006395069732808859,-0.01309790988795401,0.0005078364255791598
0.2725,0.00025696470150000076,-0.7844991285,-1.707286645000048e-05,-2.356200415,0.00024075012250000127,1.57084374,0.7860354105,0.029742590200000033,0.029743037600000032,-9.808612749950518,0.02336014396250958,-0.018965135293559844,-0.0005782720004856847,-0.013493566768982532,0.001199889412229672
0.275,0.0002599930350000008,-0.784498905,-1.9002464500000514e-05,-2.35619845,0.00024580016500000136,1.5708396,0.786036555,0.029869210000000035,0.029869652000000035,-9.810390062728638,0.022670337539352915,-0.017932666353120425,-0.0005170370276904837,-0.013889223650011055,0.0018919423988801843
0.2775,0.00026302136850000086,-0.7844986815,-2.0932062550000548e-05,-2.356196485,0.00025085020750000145,1.57083546,0.7860376995,0.029995829800000037,0.029996266400000037,-9.812167375506759,0.021980531116196255,-0.016900197412681006,-0.0004558020548952826,-0.014284880531039577,0.0025839953855306967
0.28,0.0002660497020000009,-0.7844984580000001,-2.286166060000058e-05,-2.35619452,0.00025590025000000153,1.57083132,0.786038844,0.03012244960000004,0.03012288080000004,-9.813944688284877,0.02129072469303959,-0.015867728472241587,-0.0003945670821000815,-0.014680537412068099,0.0032760483721812087
0.28250000000000003,0.00026907803550000096,-0.7844982345,-2.4791258650000618e-05,-2.356192555,0.0002609502925000016,1.57082718,0.7860399885,0.03024906940000004,0.030249495200000042,-9.815722001062998,0.02060091826988293,-0.01483525953180217,-0.00033333210930488045,-0.015076194293096621,0.003968101358831721
0.28500000000000003,0.00027243262800000115,-0.784498118,-2.6929266900000716e-05,-2.3561902299999997,0.0002665833520000019,1.57082255,0.7860413230000001,0.030368937100000035,0.030369357800000038,-9.816886804470597,0.01807542524337674,-0.015522106685542564,-0.0005228274116185307,-0.015267780856335239,0.004222673705002192
0.28750000000000003,0.0002759503500000011,-0.784498055,-2.9171480250000696e-05,-2.356187725,0.00027250792000000187,1.570817675,0.7860427525,0.030485428750000036,0.030485844500000036,-9.817745353192937,0.014632088915197131,-0.017068611886371605,-0.0008376878514864228,-0.015357332260679053,0.004258505730932962
0.29,0.00027946807200000096,-0.784497992,-3.141369360000063e-05,-2.35618522,0.0002784324880000017,1.5708128,0.786044182,0.03060192040000003,0.030602331200000034,-9.818603901915276,0.011188752587017597,-0.018615117087200615,-0.001152548291354308,-0.015446883665022865,0.00429433775686373
0.2925,0.000282985794000001,-0.784497929,-3.3655906950000604e-05,-2.356182715,0.0002843570560000016,1.570807925,0.7860456115,0.03071841205000003,0.030718817900000032,-9.819462450637616,0.007745416258837987,-0.020161622288029653,-0.0014674087312222003,-0.015536435069366679,0.0043301697827945
0.295,0.00028650351600000094,-0.784497866,-3.589812030000059e-05,-2.3561802099999998,0.00029028162400000155,1.57080305,0.786047041,0.03083490370000003,0.030835304600000033,-9.820320999359954,0.004302079930658377,-0.021708127488858697,-0.0017822691710900926,-0.015625986473710492,0.0043660018087252695
0.2975,0.0002900212380000009,-0.784497803,-3.814033365000056e-05,-2.356177705,0.0002962061920000015,1.570798175,0.7860484704999999,0.03095139535000003,0.03095179130000003,-9.821179548082293,0.0008587436024787704,-0.023254632689687738,-0.0020971296109579844,-0.015715537878054308,0.0044018338346560396
0.3,0.00029353896000000097,-0.78449774,-4.038254700000063e-05,-2.3561752,0.0003021307600000017,1.5707933,0.7860499,0.031067887000000027,0.03106827800000003,-9.822038096804633,-0.0025845927256998346,-0.024801137890515842,-0.0024119900508256424,-0.01580508928239793,0.004437665860586579
0.3025,0.00029758817100000105,-0.784497785,-4.296419940000067e-05,-2.35617232,0.0003089980720000018,1.5707876600000001,0.7860515455,0.031175060650000027,0.03117544730000003,-9.823168711386794,-0.0019085284997611878,-0.022520645031078847,-0.001767242792518841,-0.015111026850102268,0.0035314686562890277
0.305,0.00030163738200000113,-0.7844978300000001,-4.554585180000072e-05,-2.35616944,0.0003158653840000019,1.57078202,0.786053191,0.03128223430000003,0.03128261660000003,-9.824299325968955,-0.0012324642738225408,-0.02024015217164185,-0.0011224955342120395,-0.014416964417806606,0.0026252714519914766
0.3075,0.0003056865930000012,-0.784497875,-4.812750420000077e-05,-2.35616656,0.00032273269600000204,1.57077638,0.7860548365,0.03138940795000003,0.03138978590000003,-9.825429940551116,-0.0005564000478838938,-0.017959659312204855,-0.00047774827590523795,-0.013722901985510943,0.0017190742476939254
0.31,0.0003097358040000013,-0.7844979200000001,-5.0709156600000815e-05,-2.35616368,0.0003296000080000022,1.5707707400000002,0.786056482,0.03149658160000003,0.03149695520000003,-9.826560555133277,0.00011966417805475303,-0.01567916645276786,0.00016699898240156354,-0.013028839553215281,0.0008128770433963742
0.3125,0.0003137850150000013,-0.784497965,-5.329080900000086e-05,-2.3561608,0.00033646732000000226,1.5707651,0.7860581275,0.03160375525000004,0.03160412450000003,-9.827691169715438,0.0007957284039934003,-0.013398673593330865,0.000811746240708365,-0.012334777120919618,-9.332016090117697e-05
0.315,0.0003178342260000014,-0.78449801,-5.587246140000091e-05,-2.35615792,0.0003433346320000024,1.57075946,0.7860597730000001,0.03171092890000004,0.03171129380000003,-9.828821784297599,0.0014717926299320475,-0.011118180733893871,0.0014564934990151665,-0.011640714688623956,-0.0009995173651987281
0.3175,0.00032207475200000165,-0.784498103,-5.857628185000108e-05,-2.35615485,0.00035053931950000287,1.570753595,0.7860614715,0.031815244600000035,0.031815605200000034,-9.82975307426499,0.0013282638652510107,-0.008979218618252374,0.001759032148159186,-0.01131406455393998,-0.0013151081726954948
0.32,0.00032669790800000166,-0.784498292,-6.152443840000109e-05,-2.3561514,0.0003584187580000029,1.57074728,0.786063276,0.03191384440000004,0.031914200800000035,-9.830285715002844,-0.00045445088066671676,-0.007123317990201416,0.0013771535789787594,-0.011722239014478171,-0.00044948618659262094
0.3225,0.00033132106400000173,-0.784498481,-6.44725949500011e-05,-2.35614795,0.00036629819650000294,1.570740965,0.7860650805,0.03201244420000004,0.032012796400000036,-9.8308183557407,-0.002237165626584445,-0.005267417362150458,0.0009952750097983326,-0.012130413475016363,0.0004161357995102527
0.325,0.00033594422000000174,-0.7844986700000001,-6.742075150000112e-05,-2.3561444999999996,0.00037417763500000294,1.57073465,0.786066885,0.03211104400000003,0.03211139200000004,-9.831350996478553,-0.004019880372502172,-0.0034115167340995,0.0006133964406179061,-0.012538587935554554,0.0012817577856131265
0.3275,0.00034056737600000176,-0.784498859,-7.036890805000112e-05,-2.3561410499999997,0.000382057073500003,1.570728335,0.7860686895,0.032209643800000035,0.03220998760000004,-9.831883637216409,-0.0058025951184199,-0.0015556161060485407,0.00023151787143747935,-0.012946762396092746,0.0021473797717160006
0.33,0.00034519053200000177,-0.784499048,-7.331706460000115e-05,-2.3561376,0.00038993651200000307,1.57072202,0.786070494,0.032308243600000036,0.03230858320000004,-9.832416277954263,-0.007585309864337628,0.0003002845220024166,-0.0001503606977429474,-0.013354936856630938,0.003013001757818874
0.3325,0.0003498136880000018,-0.784499237,-7.626522115000115e-05,-2.35613415,0.00039781595050000307,1.570715705,0.7860722984999999,0.03240684340000004,0.03240717880000004,-9.832948918692118,-0.009368024610255356,0.0021561851500533757,-0.0005322392669233741,-0.01376311131716913,0.0038786237439217474
0.335,0.00035484798600000206,-0.78449949,-7.947587600000132e-05,-2.3561303299999996,0.0004064170170000035,1.5707088,0.786074254,0.032500186000000035,0.032500517000000034,-9.829645397808132,-0.007352071383177462,-0.0002775167859678596,-0.0003714649761922592,-0.014318418906887929,0.004658637177148661
0.3375,0.0003600878550000021,-0.784499775,-8.281778000000133e-05,-2.356126325,0.00041537889750000356,1.5707016,0.786076285,0.032590900000000034,0.032591226500000035,-9.824423796113232,-0.0034367841696051104,-0.004856020004021405,6.063574449414772e-05,-0.014947293061196902,0.005395846333937669
0.34,0.0003653277240000021,-0.78450006,-8.615968400000135e-05,-2.35612232,0.0004243407780000036,1.5706944,0.786078316,0.03268161400000003,0.032681936000000036,-9.819202194418331,0.0004785030439672412,-0.009434523222074949,0.0004927364651805546,-0.015576167215505875,0.006133055490726677
0.3425,0.0003705675930000021,-0.784500345,-8.950158800000137e-05,-2.356118315,0.00043330265850000365,1.5706872,0.7860803470000001,0.03277232800000004,0.03277264550000004,-9.813980592723428,0.004393790257539594,-0.014013026440128494,0.0009248371858669615,-0.01620504136981485,0.006870264647515686
0.34500000000000003,0.00037580746200000214,-0.78450063,-9.284349200000139e-05,-2.3561143099999997,0.0004422645390000037,1.57068,0.786082378,0.03286304200000004,0.03286335500000004,-9.808758991028528,0.008309077471111946,-0.01859152965818204,0.0013569379065533685,-0.016833915524123822,0.007607473804304694
0.34750000000000003,0.0003810473310000022,-0.784500915,-9.61853960000014e-05,-2.356110305,0.00045122641950000374,1.5706728,0.7860844090000001,0.032953756000000035,0.03295406450000004,-9.803537389333627,0.0122243646846843,-0.023170032876235584,0.0017890386272397753,-0.017462789678432795,0.008344682961093702
0.35000000000000003,0.0003862872000000025,-0.7845012,-9.952730000000159e-05,-2.3561063,0.00046018830000000427,1.5706656,0.78608644,0.033044470000000034,0.033044774000000034,-9.798315787638728,0.016139651898254236,-0.027748536094285615,0.0022211393479258422,-0.018091663832741266,0.009081892117882321
0.3525,0.0003921866625000024,-0.784501611,-0.00010329030350000152,-2.356101725,0.0004703034000000041,1.5706575150000002,0.786088738,0.03312792730000003,0.033128228900000035,-9.798736758729326,0.014330400867559503,-0.023991000679403192,0.0018472281846961189,-0.017532422820949002,0.008896688730689405
0.355,0.0003980861250000024,-0.784502022,-0.00010705330700000154,-2.35609715,0.00048041850000000416,1.57064943,0.7860910360000001,0.03321138460000003,0.03321168380000004,-9.799157729819926,0.01252114983686473,-0.020233465264520686,0.0014733170214663873,-0.01697318180915672,0.008711485343496484
0.3575,0.00040398558750000247,-0.784502433,-0.00011081631050000156,-2.356092575,0.0004905336000000042,1.570641345,0.786093334,0.03329484190000003,0.03329513870000003,-9.799578700910525,0.010711898806169958,-0.01647592984963818,0.0010994058582366555,-0.016413940797364444,0.008526281956303563
0.36,0.0004098850500000025,-0.784502844,-0.00011457931400000158,-2.356088,0.0005006487000000043,1.57063326,0.786095632,0.03337829920000004,0.033378593600000034,-9.799999672001123,0.008902647775475184,-0.012718394434755672,0.0007254946950069239,-0.015854699785572166,0.008341078569110642
0.3625,0.0004157845125000025,-0.7845032550000001,-0.00011834231750000159,-2.356083425,0.0005107638000000043,1.570625175,0.7860979300000001,0.03346175650000004,0.033462048500000036,-9.800420643091721,0.007093396744780411,-0.008960859019873164,0.0003515835317771921,-0.015295458773779889,0.008155875181917722
0.365,0.00042168397500000256,-0.784503666,-0.0001221053210000016,-2.3560788500000003,0.0005208789000000043,1.57061709,0.786100228,0.033545213800000036,0.03354550340000004,-9.800841614182321,0.005284145714085638,-0.0052033236049906575,-2.23276314525395e-05,-0.014736217761987611,0.007970671794724802
0.3675,0.0004278176225000029,-0.7845041245000001,-0.00012601782750000184,-2.35607407,0.000531402285000005,1.570608675,0.786102624,0.033626446050000036,0.03362673270000004,-9.800293272847867,0.003653762186895576,-0.0036331009287735405,-0.00015662389796154987,-0.014293675480955469,0.007972293514966387
0.37,0.000434419640000003,-0.784504678,-0.0001302293400000019,-2.35606888,0.0005427422400000051,1.5705996,0.7861052159999999,0.03370322820000003,0.03370351080000004,-9.79780630666331,0.0023811136667142435,-0.00643750372987875,0.00018830962896995625,-0.014084530661443145,0.00834756545007627
0.3725,0.0004410216575000031,-0.7845052315000001,-0.00013444085250000198,-2.35606369,0.0005540821950000054,1.5705905249999998,0.786107808,0.033780010350000035,0.03378028890000004,-9.795319340478754,0.0011084651465329107,-0.00924190653098396,0.0005332431559014624,-0.01387538584193082,0.008722837385186151
0.375,0.00044762367500000323,-0.784505785,-0.00013865236500000205,-2.3560585,0.0005654221500000056,1.57058145,0.7861104,0.03385679250000004,0.03385706700000004,-9.792832374294196,-0.00016418337364842214,-0.01204630933208917,0.0008781766828329685,-0.013666241022418498,0.009098109320296033
0.3775,0.00045422569250000335,-0.7845063385000001,-0.00014286387750000215,-2.35605331,0.0005767621050000057,1.570572375,0.786112992,0.03393357465000004,0.03393384510000004,-9.79034540810964,-0.0014368318938297545,-0.014850712133194381,0.0012231102097644748,-0.013457096202906174,0.009473381255405915
0.38,0.0004608277100000035,-0.784506892,-0.00014707539000000222,-2.35604812,0.000588102060000006,1.5705632999999999,0.786115584,0.03401035680000004,0.03401062320000004,-9.787858441925083,-0.002709480414011087,-0.01765511493429959,0.001568043736695981,-0.01324795138339385,0.009848653190515796
0.3825,0.00046742972750000354,-0.7845074455000001,-0.0001512869025000023,-2.35604293,0.0005994420150000062,1.570554225,0.786118176,0.03408713895000004,0.03408740130000004,-9.785371475740527,-0.003982128934192419,-0.0204595177354048,0.0019129772636274868,-0.013038806563881527,0.010223925125625678
0.385,0.00047452875600000397,-0.784508087,-0.00015581566800000255,-2.35603728,0.0006116460600000069,1.57054447,0.786120976,0.034159825700000035,0.03416008540000004,-9.78929501783947,0.0016498543055449818,-0.026226317102402558,0.001988528193400538,-0.013156375723295253,0.010453023713284205
0.3875,0.0004818762900000039,-0.7845087725000001,-0.0001605030600000025,-2.3560314,0.0006242821500000068,1.5705343749999998,0.78612388,0.034230464750000036,0.03423072250000004,-9.796423814080152,0.01073415342523324,-0.033474314752342936,0.0019293878245946934,-0.0134373018721716,0.010609035627217232
0.39,0.0004892238240000039,-0.784509458,-0.00016519045200000246,-2.35602552,0.0006369182400000066,1.5705242799999999,0.786126784,0.03430110380000004,0.03430135960000004,-9.803552610320834,0.019818452544921504,-0.040722312402283314,0.001870247455788849,-0.013718228021047947,0.010765047541150262
0.3925,0.0004965713580000038,-0.7845101435,-0.00016987784400000243,-2.35601964,0.0006495543300000065,1.570514185,0.786129688,0.03437174285000004,0.03437199670000003,-9.810681406561516,0.02890275166460976,-0.0479703100522237,0.0018111070869830045,-0.013999154169924295,0.01092105945508329
0.395,0.0005039188920000037,-0.784510829,-0.00017456523600000237,-2.35601376,0.0006621904200000065,1.57050409,0.786132592,0.034442381900000034,0.03444263380000003,-9.8178102028022,0.03798705078429802,-0.055218307702164085,0.00175196671817716,-0.014280080318800643,0.011077071369016318
0.3975,0.0005112664260000036,-0.7845115145,-0.00017925262800000234,-2.35600788,0.0006748265100000063,1.5704939949999999,0.786135496,0.034513020950000035,0.03451327090000003,-9.824938999042882,0.04707134990398628,-0.062466305352104456,0.0016928263493713157,-0.014561006467676989,0.011233083282949348
0.4,0.000518613960000004,-0.7845122,-0.00018394002000000255,-2.356002,0.0006874626000000068,1.5704839,0.7861384,0.03458366000000004,0.03458390800000003,-9.832067795283557,0.05615564902366809,-0.0697143030020354,0.0016336859805654034,-0.014841932616553154,0.011389095196881924
0.4025,0.0005267498985000041,-0.784513025,-0.00018913067550000264,-2.3559955500000003,0.0007014668250000071,1.57047274,0.7861416295,0.03464864900000003,0.03464889340000003,-9.826402322870502,0.05203113873370482,-0.05765379621275916,0.0014356150781167198,-0.014748332649469047,0.010618769037943
0.405,0.0005348858370000043,-0.78451385,-0.00019432133100000273,-2.3559891,0.0007154710500000074,1.57046158,0.786144859,0.03471363800000003,0.034713878800000035,-9.820736850457449,0.04790662844374155,-0.0455932894234829,0.0012375441756680363,-0.01465473268238494,0.009848442879004077
0.40750000000000003,0.0005430217755000044,-0.7845146749999999,-0.00019951198650000282,-2.35598265,0.0007294752750000076,1.57045042,0.7861480885,0.034778627000000034,0.03477886420000003,-9.815071378044394,0.043782118153778284,-0.03353278263420665,0.0010394732732193527,-0.014561132715300833,0.009078116720065154
0.41000000000000003,0.0005511577140000046,-0.7845155,-0.0002047026420000029,-2.3559762,0.0007434795000000078,1.57043926,0.7861513179999999,0.034843616000000036,0.03484384960000003,-9.809405905631339,0.03965760786381502,-0.021472275844930395,0.0008414023707706692,-0.014467532748216728,0.00830779056112623
0.41250000000000003,0.0005592936525000046,-0.784516325,-0.000209893297500003,-2.35596975,0.000757483725000008,1.5704281,0.7861545475,0.03490860500000004,0.034908835000000034,-9.803740433218284,0.035533097573851744,-0.009411769055654134,0.0006433314683219856,-0.014373932781132621,0.007537464402187305
0.41500000000000004,0.0005674295910000048,-0.78451715,-0.0002150839530000031,-2.3559633,0.0007714879500000083,1.57041694,0.786157777,0.03497359400000004,0.034973820400000036,-9.798074960805229,0.03140858728388847,0.0026487377336221196,0.00044526056587330205,-0.014280332814048514,0.006767138243248381
0.4175,0.0005758425455000052,-0.784518015,-0.00022045144300000333,-2.355956575,0.000785972117000009,1.5704054,0.7861611165,0.035036850150000035,0.035037073300000034,-9.794662039343121,0.02702498700877058,0.006709578754333749,0.0004712598653749358,-0.014088204321573644,0.006338672498143243
0.42,0.0005848095320000051,-0.78451896,-0.00022617260200000328,-2.3559493,0.0008014161680000089,1.5703931,0.786164676,0.035096640600000034,0.03509686120000004,-9.795754219782896,0.022123206763344512,-0.005228911762040961,0.0009453995687760115,-0.013699018778317758,0.006593927580703826
0.4225,0.000593776518500005,-0.784519905,-0.00023189376100000322,-2.355942025,0.0008168602190000086,1.5703808000000001,0.7861682354999999,0.035156431050000034,0.035156649100000034,-9.796846400222671,0.017221426517918442,-0.017167402278415667,0.0014195392721770873,-0.013309833235061871,0.006849182663264408
0.425,0.0006027435050000049,-0.78452085,-0.00023761492000000316,-2.35593475,0.0008323042700000085,1.5703685,0.786171795,0.03521622150000003,0.03521643700000003,-9.797938580662446,0.01231964627249238,-0.029105892794790374,0.001893678975578163,-0.012920647691805984,0.007104437745824991
0.4275,0.0006117104915000049,-0.784521795,-0.0002433360790000031,-2.3559274749999997,0.0008477483210000084,1.5703562,0.7861753545,0.03527601195000003,0.035276224900000035,-9.799030761102221,0.00741786602706631,-0.041044383311165084,0.0023678186789792386,-0.012531462148550098,0.007359692828385574
0.43,0.0006206774780000047,-0.78452274,-0.00024905723800000307,-2.3559202,0.0008631923720000083,1.5703439000000001,0.786178914,0.03533580240000003,0.03533601280000003,-9.800122941541996,0.0025160857816402434,-0.052982873827539786,0.0028419583823803144,-0.012142276605294211,0.0076149479109461566
0.4325,0.0006296444645000047,-0.784523685,-0.000254778397000003,-2.3559129249999997,0.0008786364230000081,1.5703316,0.7861824734999999,0.03539559285000003,0.03539580070000003,-9.801215121981771,-0.002385694463785823,-0.0649213643439145,0.00331609808578139,-0.011753091062038326,0.00787020299350674
0.435,0.0006391938240000052,-0.78452474,-0.0002608713120000033,-2.3559051899999996,0.0008950880360000089,1.5703185000000002,0.786186258,0.035452195500000026,0.03545240100000003,-9.80302377582982,-0.006322495934761495,-0.06431249160451188,0.0027885479537507764,-0.011826802814517472,0.007814071661442988
0.4375,0.0006490343700000052,-0.78452585,-0.00026715010500000334,-2.3558972249999997,0.000912043430000009,1.570305,0.786190155,0.03550720425000003,0.035507407500000025,-9.805190666382002,-0.009776808018513116,-0.057429937237235454,0.0017601529040055016,-0.012131963214863588,0.007602247122067437
0.44,0.0006588749160000053,-0.78452696,-0.0002734288980000034,-2.35588926,0.0009289988240000091,1.5702915,0.786194052,0.03556221300000003,0.03556241400000003,-9.807357556934184,-0.013231120102264737,-0.05054738286995902,0.0007317578542602272,-0.012437123615209704,0.007390422582691886
0.4425,0.0006687154620000054,-0.78452807,-0.0002797076910000034,-2.355881295,0.0009459542180000091,1.570278,0.786197949,0.03561722175000003,0.03561742050000003,-9.809524447486368,-0.016685432186016355,-0.043664828502682586,-0.0002966371954850476,-0.01274228401555582,0.007178598043316335
0.445,0.0006785560080000054,-0.78452918,-0.00028598648400000344,-2.35587333,0.0009629096120000092,1.5702645,0.786201846,0.035672230500000034,0.03567242700000003,-9.81169133803855,-0.020139744269767976,-0.036782274135406155,-0.0013250322452303225,-0.013047444415901936,0.006966773503940784
0.4475,0.0006883965540000055,-0.78453029,-0.0002922652770000035,-2.355865365,0.0009798650060000092,1.570251,0.786205743,0.035727239250000035,0.03572743350000003,-9.813858228590732,-0.023594056353519598,-0.029899719768129718,-0.002353427294975597,-0.013352604816248052,0.0067549489645652334
0.45,0.000698237100000006,-0.7845314,-0.0002985440700000038,-2.3558574,0.0009968204000000102,1.5702375,0.78620964,0.03578224800000003,0.035782440000000026,-9.816025119142914,-0.02704836843726583,-0.02301716540085582,-0.003381822344720259,-0.013657765216593941,0.006543124425189872
0.4525,0.0007089934350000061,-0.78453266,-0.00030540744750000385,-2.3558487,0.0010153583000000104,1.57022277,0.7862138940000001,0.03583285530000003,0.03583304550000003,-9.816001863608992,-0.0208010232629583,-0.02070946051161593,-0.0033074819544357086,-0.013552611304518942,0.006672700770551943
0.455,0.000719749770000006,-0.78453392,-0.0003122708250000039,-2.35584,0.0010338962000000103,1.57020804,0.786218148,0.035883462600000034,0.03588365100000003,-9.81597860807507,-0.014553678088650768,-0.01840175562237604,-0.0032331415641511582,-0.013447457392443941,0.006802277115914013
0.4575,0.0007305061050000061,-0.78453518,-0.0003191342025000039,-2.3558313,0.0010524341000000105,1.5701933099999998,0.786222402,0.03593406990000003,0.03593425650000003,-9.815955352541149,-0.008306332914343236,-0.016094050733136148,-0.003158801173866608,-0.01334230348036894,0.006931853461276083
0.46,0.0007412624400000062,-0.78453644,-0.00032599758000000393,-2.3558226,0.0010709720000000105,1.5701785799999999,0.786226656,0.03598467720000003,0.03598486200000003,-9.815932097007227,-0.002058987740035701,-0.013786345843896259,-0.0030844607835820576,-0.01323714956829394,0.007061429806638154
0.4625,0.0007520187750000061,-0.7845377,-0.00033286095750000396,-2.3558139,0.0010895099000000107,1.57016385,0.78623091,0.03603528450000003,0.03603546750000003,-9.815908841473306,0.0041883574342718305,-0.01147864095465637,-0.0030101203932975072,-0.01313199565621894,0.007191006152000225
0.465,0.0007627751100000062,-0.78453896,-0.000339724335000004,-2.3558052,0.0011080478000000107,1.57014912,0.786235164,0.036085891800000026,0.03608607300000003,-9.815885585939384,0.010435702608579366,-0.009170936065416479,-0.002935780003012957,-0.01302684174414394,0.007320582497362295
0.4675,0.0007738506600000069,-0.784540272,-0.0003467914810000044,-2.355796205,0.0011271369150000117,1.570133955,0.786239555,0.03613514970000003,0.03613532900000003,-9.817693073477017,0.015187816899047663,-0.007213883675567525,-0.003036742900794615,-0.01282510228777805,0.007465572425060018
0.47000000000000003,0.0007855646400000069,-0.784541688,-0.00035426616400000444,-2.35578662,0.0011473284600000118,1.57011792,0.78624422,0.036181708800000024,0.03618188600000003,-9.823162047157751,0.01694946942184536,-0.0059581362844985985,-0.003488312374707767,-0.012430191742830887,0.0076413895174289636
0.47250000000000003,0.000797278620000007,-0.784543104,-0.00036174084700000447,-2.355777035,0.001167520005000012,1.570101885,0.786248885,0.03622826790000003,0.03622844300000003,-9.828631020838486,0.01871112194464306,-0.004702388893429672,-0.003939881848620919,-0.012035281197883725,0.00781720660979791
0.47500000000000003,0.0008089926000000071,-0.7845445200000001,-0.0003692155300000045,-2.35576745,0.001187711550000012,1.57008585,0.7862535500000001,0.03627482700000003,0.03627500000000003,-9.834099994519221,0.020472774467440755,-0.003446641502360747,-0.004391451322534071,-0.011640370652936563,0.007993023702166856
0.47750000000000004,0.000820706580000007,-0.784545936,-0.0003766902130000045,-2.355757865,0.0012079030950000122,1.570069815,0.786258215,0.036321386100000026,0.03632155700000003,-9.839568968199956,0.022234426990238455,-0.0021908941112918218,-0.004843020796447222,-0.011245460107989403,0.008168840794535802
0.48,0.0008324205600000069,-0.784547352,-0.0003841648960000044,-2.3557482800000002,0.0012280946400000119,1.57005378,0.78626288,0.03636794520000003,0.03636811400000003,-9.84503794188069,0.023996079513036114,-0.0009351467202229234,-0.005294590270360364,-0.01085054956304225,0.008344657886904744
0.4825,0.0008441345400000069,-0.7845487680000001,-0.00039163957900000446,-2.3557386950000003,0.001248286185000012,1.570037745,0.7862675450000001,0.036414504300000025,0.03641467100000003,-9.850506915561425,0.025757732035833814,0.0003206006708460019,-0.005746159744273517,-0.010455639018095087,0.00852047497927369
0.485,0.0008565146460000076,-0.784550286,-0.00039953947000000487,-2.35572849,0.001269626910000013,1.57002076,0.7862724600000001,0.036458580600000026,0.03645874600000003,-9.848640287196995,0.024912458388723153,0.001101077997286993,-0.005321355271728647,-0.010725243746809488,0.008525753044931963
0.4875,0.0008692278150000077,-0.784551855,-0.00040765196500000485,-2.355717975,0.0012915422250000133,1.5700033,0.7862775000000001,0.03650141550000002,0.036501580000000027,-9.843105857809991,0.022763721656661788,0.0016439202914146505,-0.004458363825955933,-0.011327106112353786,0.008445761597235127
0.49,0.0008819409840000077,-0.784553424,-0.0004157644600000049,-2.35570746,0.0013134575400000133,1.5699858400000002,0.7862825400000001,0.036544250400000027,0.036544414000000025,-9.837571428422988,0.020614984924600423,0.0021867625855423083,-0.003595372380183219,-0.011928968477898084,0.008365770149538291
0.4925,0.0008946541530000078,-0.784554993,-0.0004238769550000049,-2.355696945,0.0013353728550000135,1.5699683800000002,0.78628758,0.03658708530000002,0.036587248000000024,-9.832036999035983,0.01846624819253906,0.0027296048796699654,-0.002732380934410505,-0.012530830843442382,0.008285778701841457
0.495,0.0009073673220000078,-0.784556562,-0.00043198945000000495,-2.35568643,0.0013572881700000135,1.5699509200000001,0.78629262,0.03662992020000003,0.03663008200000002,-9.82650256964898,0.016317511460477694,0.0032724471737976234,-0.0018693894886377916,-0.01313269320898668,0.008205787254144621
0.4975,0.0009200804910000078,-0.7845581309999999,-0.000440101945000005,-2.355675915,0.0013792034850000135,1.5699334600000001,0.78629766,0.036672755100000023,0.03667291600000003,-9.820968140261975,0.01416877472841633,0.0038152894679252805,-0.0010063980428650773,-0.013734555574530977,0.008125795806447785
0.5,0.0009327936600000085,-0.7845597,-0.00044821444000000545,-2.3556654,0.0014011188000000148,1.569916,0.7863027,0.03671559000000003,0.036715750000000026,-9.815433710874975,0.012020037996357166,0.004358131762050529,-0.0001434065970933147,-0.014336417940074972,0.008045804358751284
0.5025000000000001,0.0009465470760000089,-0.7845614295,-0.0004569909640000057,-2.355654075,0.0014248278150000154,1.56989716,0.7863081510000001,0.036754998000000025,0.03675515605000002,-9.814529565962278,0.013412399748537758,0.0010270193081842105,-0.0008104546031436925,-0.014451842626280225,0.008503538768020926
0.505,0.0009603004920000086,-0.784563159,-0.00046576748800000555,-2.35564275,0.001448536830000015,1.5698783200000002,0.786313602,0.03679440600000002,0.036794562100000025,-9.813625421049583,0.014804761500718288,-0.0023040931456819605,-0.0014775026091940408,-0.014567267312485473,0.008961273177290549
0.5075000000000001,0.000974053908000009,-0.7845648885,-0.0004745440120000058,-2.355631425,0.0014722458450000156,1.56985948,0.786319053,0.03683381400000003,0.03683396815000003,-9.812721276136887,0.01619712325289888,-0.005635205599548279,-0.002144550615244418,-0.014682691998690725,0.009419007586560191
0.51,0.0009878073240000087,-0.7845666179999999,-0.00048332053600000564,-2.3556201,0.001495954860000015,1.56984064,0.786324504,0.036873222000000025,0.036873374200000024,-9.811817131224192,0.01758948500507941,-0.00896631805341445,-0.0028115986212947663,-0.014798116684895973,0.009876741995829812
0.5125,0.0010015607400000084,-0.7845683474999999,-0.0004920970600000054,-2.355608775,0.0015196638750000146,1.5698218,0.786329955,0.03691263000000002,0.03691278025000003,-9.810912986311497,0.01898184675725994,-0.012297430507280622,-0.003478646627345115,-0.014913541371101222,0.010334476405099435
0.515,0.0010153141560000087,-0.7845700769999999,-0.0005008735840000057,-2.35559745,0.0015433728900000154,1.56980296,0.786335406,0.03695203800000003,0.03695218630000002,-9.8100088413988,0.020374208509440533,-0.01562854296114694,-0.004145694633395492,-0.015028966057306475,0.010792210814369077
0.5175,0.0010294278700000092,-0.7845718635,-0.000509880103000006,-2.355585805,0.001567702810000016,1.56978363,0.786340998,0.03699039550000002,0.03699054205000002,-9.809036435266034,0.01971040595251169,-0.017447224214035013,-0.004409854298259098,-0.014896952038188634,0.011214635471016988
0.52,0.0010442621800000097,-0.784573764,-0.0005193466120000063,-2.35557352,0.0015932745400000167,1.56976332,0.786346872,0.03702665200000002,0.037026797200000024,-9.80792750669313,0.01493427477737568,-0.016241043064975508,-0.003868237280751504,-0.014270060608426007,0.011566440622421691
0.5225,0.0010590964900000094,-0.7845756644999999,-0.0005288131210000061,-2.355561235,0.0016188462700000162,1.56974301,0.786352746,0.037062908500000026,0.03706305235000002,-9.806818578120224,0.010158143602239881,-0.015034861915916053,-0.0033266202632439333,-0.013643169178663409,0.01191824577382638
0.525,0.0010739308000000099,-0.784577565,-0.0005382796300000064,-2.3555489499999998,0.001644418000000017,1.5697227,0.78635862,0.037099165000000024,0.037099307500000026,-9.80570964954732,0.005382012427103868,-0.013828680766856546,-0.002785003245736339,-0.013016277748900781,0.012270050925231084
0.5275,0.0010887651100000095,-0.7845794655,-0.0005477461390000062,-2.355536665,0.0016699897300000166,1.56970239,0.786364494,0.03713542150000002,0.03713556265000002,-9.804600720974413,0.0006058812519680705,-0.012622499617797094,-0.0022433862282287688,-0.012389386319138183,0.012621856076635773
0.53,0.0011035994200000098,-0.784581366,-0.0005572126480000065,-2.35552438,0.0016955614600000172,1.56968208,0.786370368,0.03717167800000003,0.03717181780000003,-9.803491792401507,-0.004170249923167942,-0.011416318468737585,-0.0017017692107211741,-0.011762494889375558,0.012973661228040478
0.5325,0.0011184337300000097,-0.7845832665,-0.0005666791570000063,-2.355512095,0.0017211331900000167,1.56966177,0.786376242,0.037207934500000026,0.037208072950000025,-9.802382863828603,-0.008946381098303743,-0.010210137319678132,-0.0011601521932136038,-0.011135603459612958,0.013325466379445167
0.535,0.0011340153200000108,-0.784585285,-0.000576622739000007,-2.3554992599999998,0.0017479924200000188,1.56964041,0.78638242,0.03724225850000002,0.03724239570000003,-9.802903807133193,-0.006793491697363627,-0.010348864459711215,-0.0007460794214911104,-0.010501218705572614,0.012961659251344017
0.5375,0.0011499705500000105,-0.7845873625,-0.0005868048575000068,-2.35548615,0.0017754954000000183,1.569618525,0.7863887500000001,0.03727561625000002,0.03727575225000002,-9.80423968637653,-0.0011760920083960825,-0.011160045744288541,-0.00039577877266099167,-0.00986308728939345,0.012240045983491045
0.54,0.001165925780000011,-0.78458944,-0.000596986976000007,-2.35547304,0.001802998380000019,1.56959664,0.78639508,0.03730897400000002,0.037309108800000025,-9.805575565619867,0.004441307680571712,-0.011971227028865902,-4.54781238308573e-05,-0.009224955873214258,0.01151843271563804
0.5425,0.0011818810100000107,-0.7845915175,-0.0006071690945000068,-2.35545993,0.0018305013600000185,1.569574755,0.7864014100000001,0.03734233175000002,0.03734246535000002,-9.806911444863202,0.010058707369539257,-0.012782408313443228,0.00030482252499926146,-0.008586824457035094,0.010796819447785069
0.545,0.001197836240000011,-0.784593595,-0.0006173512130000072,-2.35544682,0.0018580043400000194,1.56955287,0.78640774,0.037375689500000024,0.03737582190000002,-9.808247324106539,0.01567610705850705,-0.01359358959802059,0.0006551231738293958,-0.007948693040855902,0.010075206179932064
0.5475,0.0012137914700000108,-0.7845956725,-0.000627533331500007,-2.35543371,0.001885507320000019,1.569530985,0.7864140700000001,0.03740904725000002,0.037409178450000025,-9.809583203349876,0.021293506747474596,-0.014404770882597916,0.0010054238226595146,-0.007310561624676738,0.009353592912079092
0.55,0.001229746700000012,-0.78459775,-0.0006377154500000078,-2.3554206,0.001913010300000021,1.5695091,0.7864204,0.03744240500000002,0.03744253500000002,-9.810919082593209,0.02691090643643935,-0.01521595216717911,0.001355724471488938,-0.0066724302084984425,0.008631979644227041
0.5525,0.0012468626150000117,-0.7846000075,-0.0006486384575000076,-2.35540647,0.0019425117750000206,1.569485625,0.78642718,0.03747309275000002,0.037473221700000024,-9.809593120381589,0.028242541022304567,-0.0214219202662645,0.0007054666222833396,-0.007294943660116127,0.00925246026027782
0.555,0.0012639785300000122,-0.784602265,-0.0006595614650000079,-2.35539234,0.0019720132500000214,1.5694621500000001,0.78643396,0.03750378050000002,0.03750390840000002,-9.808267158169967,0.02957417560816985,-0.027627888365350167,5.5208773077712256e-05,-0.007917457111733838,0.009872940876328626
0.5575,0.0012810944450000119,-0.7846045225,-0.0006704844725000077,-2.35537821,0.0020015147250000208,1.569438675,0.78644074,0.03753446825000002,0.03753459510000002,-9.806941195958347,0.03090581019403507,-0.033833856464435555,-0.0005950490761278862,-0.00853997056335152,0.010493421492379406
0.56,0.0012982103600000124,-0.78460678,-0.000681407480000008,-2.35536408,0.002031016200000022,1.5694152000000001,0.78644752,0.03756515600000002,0.037565281800000024,-9.805615233746725,0.03223744477990035,-0.040039824563521224,-0.0012453069253335132,-0.009162484014969233,0.011113902108430213
0.5625,0.0013153262750000123,-0.7846090375,-0.0006923304875000078,-2.35534995,0.002060517675000021,1.569391725,0.7864543,0.03759584375000002,0.03759596850000002,-9.804289271535104,0.03356907936576557,-0.046245792662606616,-0.0018955647745391119,-0.009784997466586917,0.01173438272448099
0.5650000000000001,0.0013324421900000126,-0.784611295,-0.000703253495000008,-2.35533582,0.0020900191500000218,1.56936825,0.78646108,0.03762653150000002,0.037626655200000025,-9.802963309323482,0.03490071395163086,-0.05245176076169228,-0.002545822623744739,-0.010407510918204629,0.012354863340531798
0.5675,0.0013499579700000132,-0.78461361,-0.0007144317870000084,-2.35532133,0.002120209115000023,1.569344225,0.786468015,0.037656401200000016,0.037656524000000025,-9.804230611215473,0.033581041641662764,-0.05542898269742778,-0.0029006807153690154,-0.010798784921915643,0.013039453678965114
0.5700000000000001,0.0013682734800000136,-0.78461604,-0.0007261206480000087,-2.35530612,0.002151776060000024,1.5693191,0.78647526,0.03768463480000002,0.03768475700000002,-9.810684441314669,0.02695875554004506,-0.05194871230648443,-0.002664739291832564,-0.010727580029814826,0.013852263462163127
0.5725,0.0013865889900000134,-0.78461847,-0.0007378095090000086,-2.35529091,0.002183343005000023,1.5692939750000001,0.7864825049999999,0.037712868400000016,0.03771299000000002,-9.817138271413864,0.02033646943842765,-0.04846844191554123,-0.0024287978682961233,-0.010656375137714013,0.014665073245361102
0.5750000000000001,0.0014049045000000138,-0.7846209000000001,-0.0007494983700000088,-2.3552757,0.0022149099500000237,1.56926885,0.78648975,0.03774110200000002,0.037741223000000025,-9.823592101513059,0.01371418333680995,-0.04498817152459787,-0.0021928564447596718,-0.010585170245613196,0.015477883028559113
0.5775,0.0014232200100000136,-0.7846233300000001,-0.0007611872310000086,-2.35526049,0.002246476895000023,1.569243725,0.786496995,0.03776933560000002,0.03776945600000002,-9.830045931612254,0.007091897235192542,-0.04150790113365468,-0.001956915021223231,-0.010513965353512383,0.016290692811757088
0.58,0.0014415355200000132,-0.7846257600000001,-0.0007728760920000084,-2.35524528,0.0022780438400000227,1.5692186000000001,0.78650424,0.03779756920000002,0.03779768900000002,-9.83649976171145,0.00046961113357513184,-0.03802763074271148,-0.0017209735976867902,-0.01044276046141157,0.017103502594955064
0.5825,0.0014598510300000138,-0.7846281900000001,-0.0007845649530000087,-2.3552300699999997,0.0023096107850000235,1.569193475,0.786511485,0.03782580280000002,0.03782592200000002,-9.842953591810645,-0.006152674968042567,-0.03454736035176813,-0.001485032174150339,-0.010371555569310752,0.017916312378153075
0.585,0.0014789919100000144,-0.784630733,-0.000796780746000009,-2.3552142,0.0023425984900000245,1.5691672300000001,0.786519064,0.03785252960000002,0.03785264770000002,-9.838758829468404,-0.006736277946444796,-0.029552255489151382,-0.0014322029782494782,-0.0106319891413349,0.018189204981726242
0.5875,0.0014985454750000148,-0.7846333325,-0.0008092600050000094,-2.3551979999999997,0.0023762965750000254,1.569140425,0.78652681,0.03787850300000002,0.037878619750000016,-9.829239770905463,-0.004300539363249386,-0.023799733390700132,-0.0014709298961661044,-0.011058241945420997,0.0181921389954879
0.59,0.0015180990400000143,-0.784635932,-0.0008217392640000092,-2.3551818,0.0024099946600000246,1.56911362,0.786534556,0.03790447640000002,0.03790459180000002,-9.819720712342521,-0.0018648007800540836,-0.01804721129224914,-0.0015096568140827286,-0.011484494749507074,0.018195073009249562
0.5925,0.001537652605000015,-0.7846385315,-0.0008342185230000096,-2.3551656,0.002443692745000026,1.569086815,0.786542302,0.03793044980000002,0.037930563850000015,-9.81020165377958,0.0005709378031413265,-0.012294689193797888,-0.0015483837319993548,-0.01191074755359317,0.018198007023011224
0.595,0.0015572061700000145,-0.784641131,-0.0008466977820000093,-2.3551493999999997,0.002477390830000025,1.56906001,0.7865500480000001,0.03795642320000002,0.03795653590000002,-9.800682595216639,0.003006676386336629,-0.006542167095346895,-0.001587110649915979,-0.012337000357679248,0.01820094103677288
0.5975,0.0015767597350000151,-0.7846437304999999,-0.0008591770410000096,-2.3551332,0.002511088915000026,1.569033205,0.786557794,0.03798239660000002,0.037982507950000015,-9.791163536653697,0.005442414969532039,-0.0007896449968956484,-0.001625837567832605,-0.012763253161765343,0.018203875050534543
0.6,0.0015963133000000157,-0.78464633,-0.0008716563000000101,-2.355117,0.002544787000000027,1.5690064,0.78656554,0.03800837000000002,0.03800848000000002,-9.78164447809077,0.007878153552727609,0.004962877101548316,-0.0016645644857486818,-0.013189505965851086,0.018206809064296788
0.6025,0.0016171427650000163,-0.7846491379999999,-0.0008849501445000104,-2.3550997049999998,0.002580680935000028,1.5689779,0.786573799,0.038032267250000015,0.03803237650000001,-9.791356677436724,0.010671914474128848,0.0014069988420846906,-0.0009780579313976184,-0.01317107865789226,0.018982571935874257
0.605,0.001637972230000016,-0.784651946,-0.0008982439890000102,-2.35508241,0.0026165748700000277,1.5689494,0.786582058,0.03805616450000002,0.038056273000000015,-9.801068876782676,0.013465675395529963,-0.0021488794173787767,-0.0002915513770465857,-0.013152651349933436,0.019758334807451695
0.6075,0.0016588016950000164,-0.784654754,-0.0009115378335000106,-2.355065115,0.0026524688050000283,1.5689209,0.786590317,0.03808006175000002,0.03808016950000002,-9.81078107612863,0.016259436316931206,-0.005704757676842402,0.0003949551773044775,-0.01313422404197461,0.020534097679029164
0.61,0.001679631160000016,-0.7846575619999999,-0.0009248316780000103,-2.35504782,0.002688362740000028,1.5688924,0.786598576,0.03810395900000002,0.03810406600000002,-9.820493275474583,0.01905319723833232,-0.00926063593630587,0.0010814617316555104,-0.013115796734015785,0.021309860550606602
0.6125,0.0017004606250000168,-0.78466037,-0.0009381255225000106,-2.3550305249999997,0.0027242566750000285,1.5688639,0.7866068350000001,0.03812785625000002,0.03812796250000002,-9.830205474820534,0.02184695815973356,-0.012816514195769492,0.001767968286006574,-0.01309736942605696,0.02208562342218407
0.615,0.0017212900900000164,-0.784663178,-0.0009514193670000104,-2.35501323,0.002760150610000028,1.5688354,0.786615094,0.03815175350000002,0.03815185900000002,-9.839917674166488,0.024640719081134674,-0.01637239245523296,0.002454474840357607,-0.013078942118098135,0.022861386293761506
0.6175,0.001742557270000018,-0.7846660525,-0.0009649926835000114,-2.35499555,0.002796797750000031,1.5688062999999999,0.78662353,0.038175013600000016,0.03817511820000002,-9.843869786526906,0.027324811912222434,-0.018618291679545772,0.00269352410635998,-0.01298431264508592,0.022956904803326832
0.62,0.0017646998800000175,-0.78466906,-0.0009791249440000112,-2.3549770999999997,0.00283495130000003,1.568776,0.78663232,0.038196999400000015,0.03819710280000002,-9.836301724916298,0.02978956856268391,-0.018244232833566406,0.0020376587956682218,-0.012737278841967485,0.02169193458887282
0.6225,0.0017868424900000183,-0.7846720675,-0.0009932572045000115,-2.35495865,0.0028731048500000313,1.5687457,0.78664111,0.038218985200000014,0.03821908740000002,-9.82873366330569,0.032254325213145495,-0.01787017398758702,0.001381793484976434,-0.012490245038849037,0.020426964374418752
0.625,0.0018089851000000177,-0.784675075,-0.0010073894650000112,-2.3549401999999997,0.0029112584000000304,1.5687153999999999,0.7866499,0.03824097100000002,0.03824107200000002,-9.821165601695082,0.03471908186360697,-0.017496115141607652,0.0007259281742846759,-0.012243211235730602,0.019161994159964738
0.6275000000000001,0.0018311277100000183,-0.7846780825,-0.0010215217255000117,-2.35492175,0.0029494119500000316,1.5686851,0.78665869,0.03826295680000002,0.03826305660000002,-9.813597540084475,0.037183838514068555,-0.01712205629562827,7.006286359288825e-05,-0.011996177432612156,0.01789702394551067
0.63,0.001853270320000018,-0.78468109,-0.0010356539860000113,-2.3549033,0.002987565500000031,1.5686548,0.78666748,0.03828494260000002,0.03828504120000002,-9.806029478473866,0.03964859516453004,-0.0167479974496489,-0.0005858024470988704,-0.011749143629493721,0.01663205373105666
0.6325000000000001,0.0018754129300000185,-0.7846840975,-0.0010497862465000118,-2.35488485,0.003025719050000032,1.5686244999999999,0.7866762700000001,0.038306928400000016,0.03830702580000002,-9.798461416863258,0.04211335181499162,-0.016373938603669515,-0.001241667757790658,-0.011502109826375274,0.015367083516602589
0.635,0.0018984553000000192,-0.78468722,-0.0010644929200000122,-2.35486563,0.003065420730000033,1.5685929399999998,0.786685406,0.03832774250000001,0.03832783960000002,-9.79860819604188,0.045963328509401165,-0.014698501334871881,-0.0019082702895932288,-0.01140454817030039,0.015456119508072476
0.6375000000000001,0.00192194755000002,-0.7846904,-0.0010794868000000126,-2.354846025,0.0031058964750000344,1.5685607499999998,0.786694715,0.038347970750000016,0.03834806800000002,-9.802612395615101,0.05050591522578236,-0.012372374854667438,-0.0025802414319512166,-0.011381722587747006,0.01622215860250182
0.64,0.0019454398000000196,-0.78469358,-0.0010944806800000124,-2.3548264199999998,0.0031463722200000335,1.5685285599999998,0.7867040240000001,0.03836819900000001,0.038368296400000015,-9.806616595188322,0.05504850194216335,-0.0100462483744631,-0.003252212574309175,-0.011358897005193621,0.016988197696931134
0.6425,0.001968932050000019,-0.78469676,-0.0011094745600000121,-2.354806815,0.0031868479650000326,1.5684963699999999,0.786713333,0.038388427250000016,0.03838852480000002,-9.810620794761544,0.059591088658544344,-0.007720121894258761,-0.003924183716667133,-0.011336071422640237,0.017754236791360442
0.645,0.0019924243000000196,-0.78469994,-0.0011244684400000125,-2.35478721,0.003227323710000034,1.5684641799999999,0.786722642,0.038408655500000013,0.03840875320000001,-9.814624994334766,0.06413367537492554,-0.005393995414054319,-0.004596154859025121,-0.01131324584008685,0.018520275885789788
0.6475,0.0020159165500000195,-0.78470312,-0.001139462320000012,-2.3547676049999997,0.003267799455000033,1.5684319899999999,0.786731951,0.03842888375000002,0.038428981600000016,-9.818629193907988,0.06867626209130653,-0.0030678689338499796,-0.005268126001383078,-0.011290420257533466,0.0192863149802191
0.65,0.002039408800000021,-0.7847063,-0.0011544562000000134,-2.354748,0.003308275200000036,1.5683998,0.78674126,0.038449112000000014,0.03844921000000001,-9.822633393481205,0.07321884880768616,-0.0007417424536502612,-0.005940097143740043,-0.011267594674980399,0.020052354074648223
0.6525,0.0020642866750000205,-0.78470969,-0.001170334765000013,-2.354727225,0.0033511347000000353,1.5683657199999999,0.786751112,0.038467719800000015,0.03846781720000001,-9.819793661599949,0.07589985719453497,-0.0040142005200731025,-0.005399078035495588,-0.011620677525800446,0.02055233834505914
0.655,0.0020891645500000213,-0.78471308,-0.0011862133300000134,-2.3547064499999997,0.0033939942000000365,1.5683316399999998,0.786760964,0.038486327600000016,0.03848642440000001,-9.816953929718695,0.07858086558138391,-0.007286658586496089,-0.0048580589272511085,-0.01197376037662051,0.021052322615470086
0.6575,0.002114042425000021,-0.78471647,-0.0012020918950000133,-2.354685675,0.003436853700000036,1.56829756,0.786770816,0.038504935400000016,0.03850503160000002,-9.81411419783744,0.08126187396823273,-0.010559116652918931,-0.004317039819006653,-0.01232684322744056,0.021552306885881008
0.66,0.0021389203000000217,-0.7847198599999999,-0.0012179704600000136,-2.3546649,0.003479713200000037,1.56826348,0.786780668,0.03852354320000002,0.03852363880000002,-9.811274465956185,0.08394288235508167,-0.013831574719341919,-0.0037760207107621737,-0.012679926078260625,0.02205229115629195
0.6625,0.002163798175000021,-0.78472325,-0.0012338490250000133,-2.354644125,0.003522572700000036,1.5682293999999999,0.7867905199999999,0.03854215100000002,0.038542246000000016,-9.80843473407493,0.08662389074193048,-0.01710403278576476,-0.0032350016025177184,-0.013033008929080672,0.02255227542670287
0.665,0.002188676050000022,-0.7847266399999999,-0.0012497275900000139,-2.35462335,0.0035654322000000373,1.56819532,0.786800372,0.03856075880000002,0.038560853200000016,-9.805595002193677,0.08930489912877942,-0.020376490852187748,-0.002693982494273239,-0.013386091779900737,0.023052259697113813
0.6675,0.0022140274850000223,-0.784730105,-0.0012659085450000141,-2.35460219,0.0036091064800000384,1.56816058,0.7868104149999999,0.03857887080000001,0.038578964600000015,-9.804872426230341,0.08972387016799753,-0.023307361438579748,-0.0021820999822817653,-0.013475208989121223,0.023263538689612537
0.67,0.0022403260400000228,-0.78473372,-0.0012826942800000145,-2.35458026,0.003654410320000039,1.56812452,0.78682084,0.03859599120000001,0.038596084400000015,-9.808384162102831,0.0856187665119715,-0.025555057064912796,-0.0017284906627960091,-0.013036394915144602,0.022897407126289085
0.6725,0.002266624595000022,-0.784737335,-0.001299480015000014,-2.35455833,0.0036997141600000377,1.56808846,0.786831265,0.038613111600000014,0.038613204200000015,-9.81189589797532,0.08151366285594566,-0.027802752691245748,-0.0012748813433102733,-0.012597580841168,0.022531275562965646
0.675,0.0022929231500000225,-0.78474095,-0.0013162657500000142,-2.3545363999999998,0.0037450180000000383,1.5680524,0.78684169,0.038630232000000014,0.038630324000000014,-9.81540763384781,0.07740855919991964,-0.030050448317578797,-0.0008212720238245173,-0.01215876676719138,0.02216514399964219
0.6775,0.0023192217050000217,-0.784744565,-0.0013330514850000137,-2.35451447,0.0037903218400000367,1.56801634,0.786852115,0.038647352400000015,0.038647443800000014,-9.8189193697203,0.0733034555438938,-0.03229814394391174,-0.00036766270433878125,-0.011719952693214778,0.02179901243631875
0.68,0.0023455202600000218,-0.78474818,-0.0013498372200000139,-2.35449254,0.0038356256800000372,1.56798028,0.78686254,0.038664472800000016,0.038664563600000014,-9.82243110559279,0.06919835188786777,-0.0345458395702448,8.594661514697496e-05,-0.011281138619238157,0.021432880872995295
0.6825,0.002371818815000021,-0.784751795,-0.0013666229550000134,-2.35447061,0.0038809295200000356,1.56794422,0.786872965,0.03868159320000002,0.038681683400000014,-9.82594284146528,0.06509324823184193,-0.03679353519657774,0.0005395559346327108,-0.010842324545261557,0.02106674930967186
0.685,0.002399087520000023,-0.78475554,-0.0013840281700000145,-2.35444787,0.003927902270000039,1.56790686,0.786883766,0.03869780100000001,0.03869789040000002,-9.825374469412163,0.06348430140547053,-0.03690338237851482,0.00026563952117023324,-0.010669493682331627,0.02134683420302648
0.6875,0.002426841300000023,-0.7847593500000001,-0.0014017431250000145,-2.354424725,0.003975709475000039,1.56786885,0.7868947550000001,0.03871355250000001,0.038713641000000014,-9.82276604339625,0.06312343299392198,-0.035944305338257806,-0.0003720397587650239,-0.010629654424924568,0.021950027324718947
0.6900000000000001,0.002454595080000024,-0.78476316,-0.0014194580800000153,-2.35440158,0.004023516680000041,1.5678308399999998,0.786905744,0.03872930400000001,0.03872939160000002,-9.820157617380337,0.0627625645823734,-0.03498522829800075,-0.0010097190387003095,-0.010589815167517506,0.022553220446411438
0.6925,0.002482348860000024,-0.7847669700000001,-0.0014371730350000152,-2.354378435,0.004071323885000041,1.56779283,0.786916733,0.038745055500000014,0.03874514220000001,-9.817549191364424,0.062401696170824854,-0.034026151257743734,-0.0016473983186355667,-0.010549975910110447,0.023156413568103905
0.6950000000000001,0.002510102640000025,-0.78477078,-0.001454887990000016,-2.35435529,0.004119131090000043,1.56775482,0.7869277219999999,0.038760807000000015,0.038760892800000016,-9.814940765348512,0.06204082775927629,-0.033067074217486676,-0.002285077598570852,-0.010510136652703384,0.0237596066897964
0.6975,0.0025378564200000246,-0.78477459,-0.001472602945000016,-2.3543321450000003,0.004166938295000043,1.5677168099999998,0.786938711,0.038776558500000016,0.03877664340000001,-9.812332339332599,0.061679959347727735,-0.03210799717722966,-0.0029227568785061093,-0.010470297395296325,0.024362799811488867
0.7000000000000001,0.0025656102000000272,-0.7847784,-0.0014903179000000173,-2.354309,0.004214745500000047,1.5676788,0.7869497,0.03879231000000002,0.038792394000000015,-9.809723913316692,0.06131909093617966,-0.031148920136974054,-0.0035604361584402697,-0.010430458137889521,0.024965992933180622
0.7025,0.0025948530900000264,-0.784782426,-0.0015089836150000168,-2.354284625,0.004265114225000046,1.56763875,0.78696128,0.038806800000000016,0.03880688415000001,-9.812740338464659,0.061488916018865226,-0.03174234861935053,-0.002991515843339067,-0.010665939308686694,0.02477694697242193
0.705,0.0026240959800000255,-0.784786452,-0.0015276493300000163,-2.3542602500000003,0.004315482950000045,1.5675986999999998,0.78697286,0.038821290000000015,0.03882137430000002,-9.815756763612628,0.061658741101550785,-0.03233577710172702,-0.002422595528237865,-0.010901420479483866,0.024587901011663235
0.7075,0.002653338870000026,-0.784790478,-0.0015463150450000164,-2.354235875,0.004365851675000045,1.5675586499999998,0.78698444,0.038835780000000014,0.038835864450000014,-9.818773188760597,0.06182856618423636,-0.032929205584103526,-0.0018536752131366372,-0.011136901650281049,0.02439885505090453
0.71,0.002682581760000025,-0.784794504,-0.001564980760000016,-2.3542115000000003,0.004416220400000044,1.5675185999999999,0.78699602,0.03885027000000001,0.03885035460000001,-9.821789613908566,0.06199839126692192,-0.033522634066480005,-0.001284754898035435,-0.011372382821078221,0.024209809090145838
0.7125,0.0027118246500000254,-0.78479853,-0.001583646475000016,-2.354187125,0.004466589125000044,1.56747855,0.7870076,0.03886476000000001,0.038864844750000016,-9.824806039056535,0.062168216349607494,-0.03411606254885651,-0.0007158345829342072,-0.011607863991875404,0.024020763129387137
0.715,0.0027410675400000245,-0.7848025559999999,-0.0016023121900000156,-2.35416275,0.004516957850000042,1.5674385,0.7870191799999999,0.03887925000000001,0.038879334900000014,-9.827822464204504,0.06233804143229306,-0.034709491031233,-0.00014691426783300507,-0.011843345162672577,0.02383171716862844
0.7175,0.0027708177900000264,-0.784806653,-0.0016213018750000168,-2.354137975,0.004568199500000046,1.5673977499999998,0.78703096,0.03889335450000001,0.03889343945000001,-9.829659378309618,0.06169799765288751,-0.03473290873867881,0.0003299470880869059,-0.011777950930358523,0.023642094097279125
0.72,0.0028015827600000264,-0.784810892,-0.0016409395000000168,-2.3541124,0.004621187000000046,1.5673556,0.78704314,0.03890668800000001,0.03890677280000001,-9.829137270329033,0.05943821614930599,-0.03361630489626763,0.0006226905256448696,-0.011110805891824312,0.023451316804748597
0.7225,0.0028323477300000277,-0.784815131,-0.0016605771250000176,-2.354086825,0.004674174500000047,1.5673134499999999,0.78705532,0.03892002150000001,0.038920106150000015,-9.828615162348447,0.05717843464572436,-0.03249970105385639,0.0009154339632028463,-0.01044366085329007,0.02326053951221806
0.725,0.0028631127000000277,-0.78481937,-0.0016802147500000174,-2.35406125,0.004727162000000047,1.5672712999999998,0.7870675,0.03893335500000001,0.038933439500000014,-9.82809305436786,0.054918653142142844,-0.03138309721144521,0.00120817740076081,-0.009776515814755858,0.02306976221968753
0.7275,0.0028938776700000285,-0.7848236089999999,-0.0016998523750000182,-2.354035675,0.004780149500000049,1.56722915,0.78707968,0.038946688500000014,0.03894677285000001,-9.827570946387276,0.052658871638561214,-0.030266493369033972,0.0015009208383187866,-0.009109370776221617,0.02287898492715699
0.73,0.0029246426400000285,-0.7848278479999999,-0.0017194900000000182,-2.3540101,0.004833137000000049,1.5671869999999999,0.78709186,0.03896002200000001,0.03896010620000001,-9.82704883840669,0.050399090134979695,-0.02914988952662279,0.0017936642758767504,-0.008442225737687404,0.022688207634626464
0.7325,0.00295540761000003,-0.784832087,-0.001739127625000019,-2.353984525,0.00488612450000005,1.5671448499999998,0.78710404,0.038973355500000015,0.03897343955000001,-9.826526730426103,0.04813930863139807,-0.028033285684211554,0.002086407713434727,-0.007775080699153162,0.022497430342095927
0.735,0.0029872090400000304,-0.7848364849999999,-0.0017594269900000194,-2.35395814,0.004940894500000052,1.56710128,0.78711664,0.038985977200000015,0.03898606060000001,-9.828999880795923,0.048967127313588314,-0.02731385204603789,0.0016126326796386328,-0.007736188133697849,0.022487953387782016
0.7375,0.003019528700000031,-0.7848409625,-0.0017800572250000197,-2.35393135,0.004996555750000053,1.567057,0.78712945,0.03899824300000001,0.03899832550000001,-9.832970660340939,0.05133874608865786,-0.0267930035099821,0.0007555984101671315,-0.008011421804780637,0.022569126602576026
0.74,0.00305184836000003,-0.78484544,-0.001800687460000019,-2.3539045599999997,0.0050522170000000515,1.56701272,0.78714226,0.03901050880000001,0.03901059040000001,-9.836941439885953,0.05371036486372731,-0.026272154973926338,-0.0001014358593043321,-0.008286655475863415,0.022650299817370035
0.7425,0.0030841680200000303,-0.7848499175,-0.0018213176950000194,-2.35387777,0.005107878250000052,1.56696844,0.78715507,0.03902277460000001,0.03902285530000001,-9.840912219430969,0.056081983638796865,-0.025751306437870554,-0.0009584701287758332,-0.008561889146946203,0.022731473032164044
0.745,0.0031164876800000296,-0.784854395,-0.0018419479300000189,-2.35385098,0.00516353950000005,1.5669241600000001,0.78716788,0.03903504040000001,0.03903512020000001,-9.844882998975985,0.05845360241386631,-0.025230457901814787,-0.0018155043982472966,-0.008837122818028979,0.022812646246958054
0.7475,0.00314880734000003,-0.7848588725,-0.001862578165000019,-2.35382419,0.005219200750000051,1.5668798800000001,0.78718069,0.03904730620000001,0.03904738510000001,-9.848853778520999,0.060825221188935866,-0.024709609365759003,-0.0026725386677187986,-0.009112356489111769,0.022893819461752063
0.75,0.00318112700000003,-0.78486335,-0.0018832084000000194,-2.3537974,0.005274862000000052,1.5668356,0.7871935,0.03905957200000001,0.03905965000000001,-9.852824558066008,0.06319683996400394,-0.02418876082970816,-0.0035295729371889583,-0.0093875901601944,0.02297499267654725
0.7525000000000001,0.003215032520000032,-0.7848680524999999,-0.0019048516450000201,-2.35376911,0.005333251540000054,1.56678913,0.787206925,0.03907085680000001,0.03907093480000001,-9.84891626006008,0.06402030273984993,-0.02920755403388551,-0.0029199048703936843,-0.00950023650605402,0.02438156218946754
0.755,0.0032489380400000313,-0.784872755,-0.00192649489000002,-2.35374082,0.005391641080000054,1.56674266,0.78722035,0.03908214160000001,0.03908221960000001,-9.845007962054149,0.06484376551569589,-0.034226347238062636,-0.0023102368035984367,-0.009612882851913633,0.02578813170238777
0.7575000000000001,0.0032828435600000326,-0.7848774574999999,-0.0019481381350000208,-2.3537125299999997,0.005450030620000056,1.56669619,0.787233775,0.03909342640000001,0.03909350440000001,-9.84109966404822,0.0656672282915419,-0.039245140442239985,-0.0017005687368031623,-0.009725529197773253,0.02719470121530806
0.76,0.0033167490800000326,-0.78488216,-0.001969781380000021,-2.3536842399999998,0.005508420160000056,1.56664972,0.7872472,0.03910471120000001,0.03910478920000001,-9.83719136604229,0.06649069106738785,-0.04426393364641711,-0.0010909006700079152,-0.009838175543632867,0.028601270728228288
0.7625000000000001,0.003350654600000034,-0.7848868625,-0.0019914246250000217,-2.35365595,0.005566809700000059,1.56660325,0.7872606249999999,0.039115996000000014,0.039116074000000015,-9.833283068036362,0.06731415384323385,-0.04928272685059447,-0.0004812326032126407,-0.009950821889492487,0.03000784024114858
0.765,0.0033845601200000333,-0.7848915649999999,-0.0020130678700000216,-2.35362766,0.005625199240000058,1.56655678,0.78727405,0.03912728080000001,0.03912735880000001,-9.829374770030434,0.06813761661907981,-0.054301520054771596,0.00012843546358260642,-0.010063468235352101,0.03141440975406881
0.7675000000000001,0.003419004660000036,-0.7848963449999999,-0.002035055290000023,-2.35359892,0.005684515950000063,1.56650957,0.7872876879999999,0.039138265200000015,0.039138343200000016,-9.826264782303406,0.06880844460130121,-0.057861006883236935,0.00048131237936317446,-0.010034574183374483,0.03215967572595385
0.77,0.0034545272400000357,-0.7849012799999999,-0.002057731060000023,-2.35356928,0.005745687000000062,1.56646088,0.787301752,0.03914864880000001,0.03914872680000001,-9.824751415134177,0.06917400299627481,-0.05850188096029165,0.0003206069931166973,-0.009722599335723704,0.0315823346157745
0.7725,0.003490049820000035,-0.7849062149999999,-0.0020804068300000226,-2.35353964,0.005806858050000061,1.5664121899999999,0.787315816,0.039159032400000016,0.039159110400000016,-9.823238047964947,0.06953956139124841,-0.05914275503734636,0.00015990160687022015,-0.009410624488072925,0.03100499350559514
0.775,0.0035255724000000364,-0.78491115,-0.0021030826000000232,-2.35351,0.005868029100000062,1.5663635,0.78732988,0.03916941600000001,0.03916949400000001,-9.821724680795718,0.06990511978622202,-0.059783629114401104,-8.037793762641137e-07,-0.00909864964042213,0.030427652395415762
0.7775,0.003561094980000036,-0.784916085,-0.002125758370000023,-2.35348036,0.005929200150000061,1.56631481,0.787343944,0.03917979960000001,0.03917987760000001,-9.820211313626489,0.07027067818119562,-0.060424503191455814,-0.00016150916562274133,-0.008786674792771352,0.029850311285236405
0.78,0.0035966175600000367,-0.78492102,-0.0021484341400000236,-2.35345072,0.005990371200000063,1.56626612,0.787358008,0.03919018320000001,0.039190261200000014,-9.81869794645726,0.07063623657616924,-0.06106537726851056,-0.0003222145518692256,-0.008474699945120559,0.029272970175057023
0.7825,0.003632140140000036,-0.784925955,-0.002171109910000023,-2.35342108,0.0060515422500000615,1.56621743,0.787372072,0.03920056680000001,0.03920064480000001,-9.81718457928803,0.07100179497114284,-0.061706251345565274,-0.0004829199381157028,-0.00816272509746978,0.02869562906487767
0.785,0.0036687607900000386,-0.78493105,-0.0021944868800000245,-2.35339048,0.0061146021700000655,1.56616725,0.787386577,0.03921039670000001,0.03921047470000001,-9.818303040618371,0.0693376351908119,-0.06283261830520666,-0.0005742444300904184,-0.008340095981072835,0.028745038938001094
0.7875,0.003705930475000037,-0.7849362249999999,-0.002218214450000024,-2.3533594,0.006178606525000064,1.566116325,0.7874013025000001,0.03921994975000001,0.03922002775000001,-9.820737416198492,0.06665861632283347,-0.06420173170614019,-0.0006308784749294065,-0.008762139730301672,0.029107824302774463
0.79,0.0037431001600000376,-0.7849414,-0.002241942020000024,-2.35332832,0.006242610880000065,1.5660654,0.787416028,0.03922950280000001,0.03922958080000001,-9.823171791778613,0.06397959745485493,-0.06557084510707378,-0.0006875125197683973,-0.009184183479530527,0.029470609667547845
0.7925,0.0037802698450000367,-0.784946575,-0.0022656695900000233,-2.35329724,0.006306615235000063,1.566014475,0.7874307535,0.03923905585000001,0.03923913385000001,-9.825606167358732,0.0613005785868765,-0.06693995850800731,-0.0007441465646073856,-0.009606227228759364,0.029833395032321217
0.795,0.003817439530000037,-0.78495175,-0.0022893971600000235,-2.35326616,0.006370619590000064,1.56596355,0.7874454790000001,0.03924860890000001,0.03924868690000001,-9.828040542938853,0.05862155971889796,-0.06830907190894091,-0.0008007806094463764,-0.01002827097798822,0.0301961803970946
0.7975,0.003854609215000036,-0.784956925,-0.002313124730000023,-2.3532350799999997,0.006434623945000061,1.565912625,0.7874602045,0.03925816195000001,0.03925823995000001,-9.830474918518973,0.05594254085091953,-0.06967818530987445,-0.0008574146542853645,-0.010450314727217056,0.03055896576186797
0.8,0.0038917789000000383,-0.7849621,-0.0023368523000000243,-2.353204,0.006498628300000065,1.5658617,0.78747493,0.03926771500000001,0.03926779300000001,-9.832909294099093,0.05326352198294871,-0.07104729871080112,-0.000914048699124099,-0.010872358476444879,0.03092175112664099
0.8025,0.003930624925000038,-0.7849675,-0.002361650360000024,-2.3531716,0.0065655166600000646,1.5658084499999998,0.787490326,0.03927650275000001,0.03927658060000001,-9.834515329001464,0.05849014816682381,-0.06533574644094121,-0.0007082805702371799,-0.010236345706093811,0.030911273483790636
0.805,0.00396947095000004,-0.7849729,-0.002386448420000025,-2.3531391999999998,0.006632405020000068,1.5657552,0.787505722,0.03928529050000001,0.03928536820000001,-9.836121363903835,0.06371677435069914,-0.059624194171081064,-0.0005025124413502516,-0.009600332935742716,0.03090079584094028
0.8075,0.0040083169750000395,-0.7849783,-0.002411246480000025,-2.3531068,0.006699293380000067,1.56570195,0.787521118,0.03929407825000001,0.03929415580000001,-9.837727398806207,0.06894340053457425,-0.053912641901221164,-0.0002967443124633325,-0.00896432016539165,0.030890318198089926
0.81,0.004047163000000041,-0.7849837000000001,-0.0024360445400000257,-2.3530743999999997,0.0067661817400000695,1.5656487,0.787536514,0.03930286600000001,0.03930294340000001,-9.839333433708578,0.07417002671844958,-0.04820108963136101,-9.097618357640429e-05,-0.008328307395040552,0.03087984055523957
0.8125,0.00408600902500004,-0.7849891,-0.0024608426000000258,-2.353042,0.006833070100000069,1.56559545,0.78755191,0.03931165375000001,0.03931173100000001,-9.840939468610948,0.07939665290232469,-0.042489537361501115,0.00011479194531051481,-0.0076922946246894865,0.030869362912389214
0.8150000000000001,0.004124855050000042,-0.7849945,-0.0024856406600000268,-2.3530096,0.006899958460000072,1.5655421999999999,0.787567306,0.03932044150000001,0.039320518600000014,-9.84254550351332,0.08462327908620002,-0.03677798509164096,0.0003205600741974431,-0.007056281854338391,0.03085888526953886
0.8175,0.004164269430000043,-0.784999985,-0.0025108016850000276,-2.352976725,0.006967824495000075,1.56548818,0.7875829194999999,0.03932899500000001,0.03932907190000001,-9.843020521163169,0.08662755112163764,-0.034172655414051095,0.00029256678132783746,-0.006639393264101598,0.03097151471841611
0.8200000000000001,0.0042048205200000445,-0.7850056400000001,-0.0025366886400000283,-2.3529429,0.007037645880000077,1.56543262,0.787598968,0.03933708000000001,0.03933715660000001,-9.841233504307983,0.08218711486023145,-0.037779770920971234,-0.00020294935505256576,-0.006660753034091224,0.0313303583507474
0.8225,0.004245371610000044,-0.785011295,-0.002562575595000028,-2.352909075,0.007107467265000076,1.5653770599999999,0.7876150165,0.03934516500000001,0.03934524130000001,-9.839446487452799,0.07774667859882546,-0.04138688642789121,-0.000698465491432947,-0.006682112804080848,0.03168920198307867
0.8250000000000001,0.004285922700000045,-0.78501695,-0.0025884625500000287,-2.35287525,0.007177288650000078,1.5653215,0.787631065,0.039353250000000006,0.03935332600000001,-9.837659470597613,0.07330624233741928,-0.04499400193481136,-0.0011939816278133503,-0.006703472574070474,0.03204804561540995
0.8275,0.0043264737900000445,-0.785022605,-0.002614349505000028,-2.352841425,0.007247110035000077,1.56526594,0.7876471134999999,0.039361335000000004,0.03936141070000001,-9.835872453742427,0.06886580607601328,-0.04860111744173134,-0.0016894977641937314,-0.006724832344060098,0.03240688924774122
0.8300000000000001,0.004367024880000046,-0.7850282599999999,-0.0026402364600000288,-2.3528075999999998,0.007316931420000079,1.56521038,0.787663162,0.03936942000000001,0.03936949540000001,-9.834085436887241,0.06442536981460709,-0.052208232948651484,-0.0021850139005741343,-0.0067461921140497235,0.0327657328800725
0.8325,0.004407575970000045,-0.785033915,-0.0026661234150000285,-2.3527737749999997,0.007386752805000077,1.56515482,0.7876792105,0.03937750500000001,0.03937758010000001,-9.832298420032057,0.0599849335532011,-0.055815348455571456,-0.002680530036954516,-0.006767551884039348,0.03312457651240377
0.835,0.004449282230000046,-0.7850397269999999,-0.0026927481600000293,-2.35273896,0.007458561640000079,1.56509769,0.78769573,0.0393851595,0.03938523480000001,-9.82884078291752,0.06129198034464245,-0.05406855780913804,-0.003084471239765088,-0.006994185410441526,0.033605817758369586
0.8375,0.004491566075000047,-0.7850456175,-0.00271974180000003,-2.35270365,0.007531364200000081,1.565039775,0.787712485,0.03939259875000001,0.03939267450000001,-9.824547835673313,0.06547276866249349,-0.04964481408604092,-0.0034426249757909975,-0.00732345581504949,0.034148257811152403
0.84,0.004533849920000046,-0.785051508,-0.0027467354400000296,-2.35266834,0.00760416676000008,1.56498186,0.78772924,0.039400038000000005,0.03940011420000001,-9.820254888429105,0.06965355698034435,-0.04522107036294399,-0.0038007787118168913,-0.007652726219657439,0.034690697863935194
0.8425,0.004576133765000047,-0.7850573985,-0.00277372908000003,-2.35263303,0.007676969320000082,1.5649239449999999,0.787745995,0.03940747725,0.0394075539,-9.815961941184897,0.0738343452981954,-0.040797326639846865,-0.004158932447842801,-0.007981996624265403,0.035233137916718005
0.845,0.004618417610000047,-0.785063289,-0.0028007227200000295,-2.35259772,0.0077497718800000805,1.56486603,0.7877627500000001,0.03941491650000001,0.0394149936,-9.811668993940689,0.07801513361604624,-0.03637358291674994,-0.004517086183868695,-0.008311267028873352,0.035775577969500795
0.8475,0.004660701455000048,-0.7850691795,-0.0028277163600000303,-2.35256241,0.007822574440000082,1.564808115,0.787779505,0.039422355750000006,0.039422433300000004,-9.807376046696481,0.08219592193389728,-0.03194983919365282,-0.004875239919894603,-0.008640537433481317,0.03631801802228361
