rsonawane2002/My_IMU/logs_2/traj_356/clean_356.csv
time,j1,j2,j3,j4,j5,j6,j7,gripper1,gripper2,imu_ax,imu_ay,imu_az,imu_gx,imu_gy,imu_gz,quat_x,quat_y,quat_z,quat_w
1161.283333332606,0.00016700293,-0.785875,4.0107683e-05,-2.3551247,9.29385e-05,1.570997,0.786,0.04,0.04,0.0,-0.0,0.0,2.875329272945135e-08,-0.0011641195053377316,4.421952117202833e-08,0.9999995971961153,0.00020320632366974898,0.0008736418299892524,3.263050917662294e-05
1161.2999999992726,0.0001670129,-0.78576016,4.0104744e-05,-2.3552213,9.29781e-05,1.5709941,0.786,0.04,0.04,-0.2919984590129765,-3.4530435765714376e-05,0.02012840838265806,6.525935386312338e-08,-0.0022386661936349083,7.242454715685924e-07,0.9999996850586137,0.00020320712349204567,0.0007665025166808083,3.2610278678525895e-05
1161.3166666659392,0.00016707221,-0.7856543,4.0033272e-05,-2.35531,9.3043105e-05,1.5709913,0.786,0.04,0.04,0.023328732210803338,7.414673327713972e-06,-0.0016704344189877318,1.2618770818188267e-06,-0.0032286256094904244,5.169783776265354e-06,0.9999997558444681,0.00020320710052224562,0.0006677972352715384,3.263021722062413e-05
1161.333333332606,0.00016726014,-0.785557,3.9781404e-05,-2.355391,9.317975e-05,1.5709884,0.786,0.04,0.04,0.022394888739452057,1.764264147972503e-05,-0.0014910475726104266,4.501603762480661e-06,-0.00414229283193197,1.6840898890854798e-05,0.9999998122555833,0.0002032061990991232,0.0005771683368678715,3.2752857704191613e-05
1161.3499999992725,0.0001676896,-0.7854675,3.918898e-05,-2.3554654,9.345419e-05,1.5709856,0.786,0.04,0.04,0.020047870137585022,3.296217543791321e-05,-0.0015317274746573517,1.0662971845643629e-05,-0.004983520526222396,3.885556119160147e-05,0.9999998568824804,0.00020320463815504556,0.0004938111268334728,3.30675807482617e-05
1161.3666666659392,0.00016850338,-0.7853854,3.8051912e-05,-2.3555334,9.3950526e-05,1.5709857,0.786,0.04,0.04,0.01999462388577733,5.340419867255709e-05,0.0008970769781013743,2.0344598559568376e-05,-0.005760438898355211,7.40184588615839e-05,0.9999998910781777,0.00020320330068828525,0.0004188282487726819,3.3689009357449706e-05
1161.3833333326058,0.00016987101,-0.7853099,3.6127054e-05,-2.3555987,9.477907e-05,1.5709863,0.786,0.04,0.039999995,0.011990321278654292,7.194955353591564e-05,-0.002292336239428927,3.496206454645485e-05,-0.0064631847497169945,0.0001256047104649014,0.9999999179428691,0.00020320351051598582,0.00034873277828700633,3.475683550601445e-05
1161.3999999992725,0.00017198647,-0.785241,3.3136304e-05,-2.3556578,9.603339e-05,1.5709871,0.786,0.04,0.04,0.017860526658042275,0.00011604732658078323,-0.0007961508254661354,5.538016525708309e-05,-0.007126131891261349,0.00019354562662392914,0.9999999380397584,0.00020320657089034053,0.00028513398473515396,3.641674911178476e-05
1161.4166666659391,0.00017506498,-0.78517795,2.8769953e-05,-2.3557155,9.785009e-05,1.570988,0.7860019,0.04,0.04,0.008927670613378957,0.00014289170559221272,-0.002606754060408001,8.218418663554544e-05,-0.007733051364063846,0.0002822340798331902,0.9999999530388146,0.00020416827103830832,0.00022523034281121107,3.8845569422302684e-05
1161.4333333326058,0.00017934087,-0.78512067,2.2690348e-05,-2.3557687,0.00010038034,1.5709925,0.7860038,0.04,0.039999995,0.015187253832138481,0.00016939193730982531,0.0013060777565465642,0.00010772689421201691,-0.00831186808326452,0.00039340076234258806,0.9999999632390318,0.00020513722995479144,0.00017221065155284334,4.223912233272975e-05
1161.4499999992724,0.00018506567,-0.7850686,1.4535565e-05,-2.3558195,0.000103750215,1.5709972,0.78600574,0.04,0.04,0.0098982884838561,0.00022559082631061077,-0.0016215723008361493,0.00014108647869423135,-0.008832864989171393,0.0005263011159018594,0.9999999700801471,0.00020611577201351316,0.0001231541983354952,4.678714491857339e-05
1161.466666665939,0.00019250534,-0.7850214,3.9213223e-06,-2.35587,0.000108138884,1.5710053,0.7860095,0.04,0.039999995,0.006932676997872811,0.0002518834733916339,-0.00022407671798063689,0.00018393294877328104,-0.009323701332715368,0.0006854859069659028,0.9999999739020697,0.00020803091367036482,7.83588519528862e-05,5.271517014400353e-05
1161.4833333326058,0.00020193974,-0.7849793,-9.555025e-06,-2.35592,0.000113684044,1.5710139,0.7860133,0.039999995,0.04,0.006496641210995691,0.0003157758513138418,-0.0022804482580296437,0.000227786503485293,-0.009782873142356334,0.0008681937832583837,0.9999999754701341,0.00020999106704030308,3.654303673206826e-05,6.023362430097679e-05
1161.4999999992724,0.00021365948,-0.7849416,-2.6313595e-05,-2.3559697,0.00012057584,1.5710262,0.7860171,0.03999999,0.039999995,0.006923338138786761,0.0003485753657584377,0.00042404609124080395,0.0002819923057655915,-0.010222227184280097,0.001079578539171345,0.9999999751127803,0.0002119699145944542,-9.52280506762344e-07,6.958654456550225e-05
1161.516666665939,0.00022796531,-0.7849085,-4.6788435e-05,-2.3560193,0.00012899186,1.5710409,0.78602284,0.03999999,0.039999995,0.005763044607132173,0.0003965370551575623,-0.0007986718926211722,0.00034765847108875073,-0.010630921828682973,0.001318882776633973,0.9999999730097802,0.0002149243668711875,-3.499159888860288e-05,8.101569845578725e-05
1161.5333333326057,0.00024516621,-0.7848797,-7.1425995e-05,-2.3560693,0.00013911558,1.5710573,0.78602976,0.03999999,0.03999999,0.004566080978318787,0.0004454087420061026,-0.0013538530017065398,0.0004165740915181911,-0.011016768319703083,0.0015877600218885096,0.9999999694468247,0.00021850030618402908,-6.62009502664167e-05,9.477024939169211e-05
1161.5499999992724,0.0002655786,-0.784855,-0.00010068319,-2.3561199,0.00015113335,1.5710776,0.7860374,0.039999988,0.039999988,0.004944080386293237,0.0004959793658145082,0.0002928527548462512,0.0004928621627543356,-0.011385679943769874,0.001885159482195693,0.9999999646943605,0.00022246294463625787,-9.368647963047153e-05,0.0001111051730264228
1161.566666665939,0.0002895245,-0.7848344,-0.00013502556,-2.3561711,0.00016523665,1.5711017,0.7860469,0.039999984,0.039999984,0.004472628422025338,0.0005468497602061724,0.00022100218115550518,0.0005795487101472829,-0.011731458515935133,0.0022124983983351195,0.9999999587407515,0.00022741213421654898,-0.00011759754689882846,0.00013028059501825174
1161.5833333326057,0.00031733105,-0.7848178,-0.0001749257,-2.3562284,0.00018161922,1.571131,0.7860582,0.03999998,0.03999998,-0.003987427431839663,0.0005979585081958283,-0.0010673019624096725,0.0006714299715698987,-0.012053248303320514,0.0025702291485302717,0.9999999513792355,0.00023326241437040786,-0.00013984184281372488,0.00015255960075919475
1161.5999999992723,0.00034932888,-0.78480506,-0.00022086184,-2.3562865,0.00020047706,1.5711653,0.7860707,0.039999977,0.039999977,0.004180504894257808,0.0006509276630490082,0.0011388056975425442,0.0007704326817338857,-0.012372459551799891,0.0029587215311715296,0.9999999428670313,0.00023977933239517586,-0.00015815476220480522,0.00017821020468388292
1161.616666665939,0.00038585186,-0.7847962,-0.00027331643,-2.3563488,0.00022200822,1.5712044,0.7860849,0.03999997,0.039999966,-0.0010960806546389534,0.0007028478524929765,-0.00046402648803400837,0.000879296486057827,-0.012666798643038216,0.003379101703602648,0.9999999327551193,0.00024717546166834145,-0.00017417594052515783,0.0002075013004745672
1161.6333333326056,0.00042723576,-0.7847912,-0.0003327748,-2.3564148,0.00024641101,1.5712483,0.786101,0.03999996,0.039999958,-0.000691487534631996,0.0007559479606475818,-0.00035649755167899144,0.0009966608860415278,-0.012952814768559133,0.0038298536582872036,0.9999999207398851,0.00025557401135117993,-0.00018778675815476023,0.00024070372147883128
1161.6499999992723,0.0004738176,-0.78479004,-0.00039972446,-2.3564873,0.0002738855,1.5712981,0.78611916,0.039999958,0.039999954,-0.004771022106986322,0.0008077543283727031,-0.0006465212759154682,0.0011222539751889172,-0.013228366207414188,0.004311960750613016,0.9999999062616829,0.0002650687194710168,-0.00019970316081646352,0.00027808963817756567
1161.666666665939,0.00052593485,-0.78479266,-0.00047465385,-2.356562,0.00030463195,1.5713539,0.7861395,0.03999995,0.039999947,0.002388513066531317,0.0008622143246591468,0.0013504443161727053,0.0012555252252159934,-0.013502007194523767,0.0048254945248126895,0.9999998892192247,0.00027569375911354246,-0.00020783977654958362,0.0003199329879624607
1161.6833333326056,0.0005839251,-0.78479934,-0.00055805076,-2.3566432,0.00033885008,1.571416,0.7861621,0.039999947,0.039999943,-0.00486685759173433,0.0009125986192477255,-0.000587664573803437,0.0013972956301081428,-0.013754397133801272,0.005370440031649203,0.9999998685782017,0.0002875128225452685,-0.00021413468125697476,0.00036650551762884554
1161.6999999992722,0.0006481253,-0.7848099,-0.0006504027,-2.356732,0.00037673992,1.5714847,0.7861872,0.039999947,0.039999943,-0.006205423985261582,0.000963566159350738,-0.000630773695475817,0.00154702171220611,-0.014003494247140987,0.005946756878511192,0.9999998434473156,0.0003006495060962051,-0.00021891679467333957,0.00041807972405759504
1161.7166666659389,0.0007188708,-0.7848243,-0.0007521951,-2.3568282,0.00041850028,1.5715605,0.78621477,0.039999947,0.039999943,-0.0064230968739753536,0.001014613164112188,-0.00029404173316205373,0.0017047081429344723,-0.01425403267623845,0.006554328983902411,0.9999998129315462,0.0003151083838222093,-0.00022200851368872745,0.000474927151292544
1161.7333333326055,0.00079649576,-0.78484267,-0.0008639106,-2.3569317,0.00046432915,1.571644,0.7862449,0.039999943,0.03999994,-0.005397397273321225,0.001064402116437047,0.00024212325244743482,0.0018706240518607045,-0.01450398617576848,0.007193022460552059,0.9999997760461317,0.00033092347135990597,-0.00022290458947155558,0.0005373182359386029
1161.7499999992722,0.00088133174,-0.7848651,-0.0009860296,-2.3570428,0.0005144231,1.5717351,0.7862781,0.039999947,0.039999943,-0.0060396601128331895,0.0011143740962044242,4.905605242022659e-05,0.0020453155540244524,-0.014749206148233406,0.007862631165205657,0.9999997314208537,0.00034833790955186524,-0.00022172593405039907,0.0006055217016561489
1161.7666666659388,0.0009737078,-0.78489155,-0.001119028,-2.357162,0.00056897756,1.5718343,0.78631413,0.039999943,0.039999936,-0.006776193214141912,0.0011617552184367953,1.2058613707566224e-05,0.0022268713010516247,-0.01499132723729361,0.008563807212858775,0.9999996776100608,0.0003672368918358242,-0.00021859348028509547,0.0006798041851569222
1161.7833333326055,0.0010739499,-0.78492206,-0.001263378,-2.3572888,0.0006281845,1.5719422,0.78635323,0.039999947,0.039999943,-0.005741442144113762,0.0012118711771129972,0.0007599746951747477,0.0024169270731309476,-0.01523146576592739,0.009293708690736016,0.9999996130224865,0.00038777455993749374,-0.0002129132877343551,0.0007604299439716737
1161.7999999992721,0.0011823815,-0.78495663,-0.0014195465,-2.3574238,0.00069223705,1.572059,0.78639555,0.039999947,0.039999943,-0.006478363339179616,0.0012555116112328334,0.0007230901045929272,0.002614648747278694,-0.015463249844723956,0.010054618405178552,0.9999995357058535,0.000410014738078972,-0.00020480687688367914,0.0008476615686858296
1161.8166666659388,0.0012993211,-0.7849954,-0.0015879954,-2.3575673,0.0007613242,1.5721848,0.7864412,0.03999995,0.039999943,-0.007159235528808594,0.0013010988211497806,0.00044116170196950577,0.002820047321051122,-0.015691283263257763,0.010846202116879994,0.9999994434517204,0.00043402205899728064,-0.00019445564388860948,0.0009417579860079946
1161.8333333326054,0.0014250847,-0.7850384,-0.0017691815,-2.3577197,0.00083563174,1.5723203,0.78649026,0.039999954,0.039999947,-0.007171097990221753,0.0013455742473109469,0.0008886321110956885,0.0030331123980244443,-0.01591594293553488,0.011666419475473273,0.9999993339067337,0.00045983113119281107,-0.00018150480569474058,0.001042975275580899
1161.849999999272,0.0015599834,-0.7850858,-0.0019635544,-2.3578844,0.000915345,1.5724657,0.7865429,0.039999958,0.03999995,-0.013186052096614276,0.0013791036368578915,-0.0007577979641792965,0.003253865319951072,-0.01613224237417033,0.012515769016181014,0.9999992040382402,0.0004875356378158817,-0.00016771591262333598,0.001151565569363603
1161.8666666659387,0.0017043238,-0.7851377,-0.002171558,-2.3580587,0.0010006459,1.572621,0.7865992,0.039999958,0.03999995,-0.008054002040291941,0.0014251658405893346,0.0006089730044234187,0.00348231079379679,-0.01636037056212853,0.013393844272842135,0.9999990511497673,0.000517200325741801,-0.00015145336065457024,0.0012677796606139816
1161.8833333326054,0.0018584076,-0.785194,-0.0023936308,-2.3582435,0.0010917129,1.5727872,0.78665936,0.03999996,0.039999954,-0.009611900582062738,0.0014646481944238093,0.0009014713841404287,0.003717880618110621,-0.01658401820239934,0.014300237531721674,0.9999988718897156,0.0005488908770762787,-0.00013287004068032152,0.0013918633745827122
1161.899999999272,0.0020225325,-0.78525496,-0.0026302026,-2.3584409,0.0011887234,1.5729641,0.7867235,0.039999966,0.039999954,-0.012905432254650684,0.0014937707359281198,-0.00035775650002456416,0.003960592344431202,-0.01680377629796435,0.015235409091192548,0.9999986624747471,0.0005827007954362161,-0.00011292393120720757,0.0015240592789355276
1161.9166666659387,0.0021969911,-0.7853205,-0.0028816964,-2.358649,0.0012918501,1.5731522,0.78679156,0.039999966,0.039999954,-0.009648793302741154,0.001534210059679869,0.0009254610685793807,0.004210424644651087,-0.017030402580807128,0.016197186858756856,0.9999984191110372,0.0006186058779781382,-9.048706670644537e-05,0.0016646063453695514
1161.9333333326053,0.0023820708,-0.7853909,-0.0031485283,-2.3588698,0.0014012633,1.5733516,0.7868638,0.039999973,0.03999996,-0.0125943488955782,0.001561294250911234,1.8331424977979793e-05,0.004467417173603368,-0.017251147224685435,0.017185980955457723,0.9999981373261994,0.000656730046830612,-6.633947202122858e-05,0.001813738914934788
1161.949999999272,0.002578054,-0.78546596,-0.0034311065,-2.359103,0.0015171304,1.5735627,0.7869404,0.039999977,0.039999966,-0.012278856581504627,0.0015917234150633185,0.0004925278231260322,0.0047315492641658435,-0.017477612914423884,0.01820133344151901,0.9999978123881422,0.0006971681779942764,-4.0278117248026544e-05,0.001971687889813851
1161.9666666659386,0.0027852168,-0.78554595,-0.003729832,-2.359349,0.0016396154,1.5737863,0.7870213,0.039999977,0.039999966,-0.012539177172787852,0.001621064952633442,0.0006417916038614635,0.005002035656066924,-0.017703809555795258,0.01924278887435863,0.9999974392232454,0.0007398968024030973,-1.2040601939676321e-05,0.0021386805973797785
1161.9833333326053,0.00300383,-0.785631,-0.004045098,-2.3596091,0.0017688792,1.574022,0.78710663,0.039999977,0.03999996,-0.014478071365586764,0.0016423952498855615,-5.410895151936046e-05,0.005279372801849607,-0.017929639977891456,0.020310700596285924,0.9999970122441847,0.0007850105176204549,1.7770500761073247e-05,0.002314939610546365
1161.999999999272,0.0032341601,-0.7857211,-0.0043772873,-2.3598816,0.001905079,1.5742702,0.7871966,0.039999977,0.03999996,-0.011609639620258072,0.0016710532484221071,0.0007892570752954242,0.005563637349962133,-0.01816190900001593,0.021402874837109384,0.9999965254443305,0.0008325739633570855,5.0042275561848845e-05,0.0025006830332172554
1162.0166666659386,0.0034764677,-0.78581625,-0.0047267764,-2.3601682,0.002048369,1.5745317,0.7872912,0.03999998,0.039999966,-0.014255768529247703,0.0016847996326239349,0.0006884296614773078,0.005853961189245451,-0.01839054692840689,0.022519683031604253,0.9999959723550497,0.0008826527963514425,8.43201643706061e-05,0.002696124594641316
1162.0333333326053,0.0037310058,-0.78591657,-0.005093936,-2.3604693,0.0021989,1.574806,0.7873906,0.039999984,0.03999997,-0.01499006135758929,0.0017044826681820134,0.00010437340611790802,0.006150631634221703,-0.018620679855736948,0.02366062665977313,0.9999953461294756,0.0009352534472923434,0.00012026843356747655,0.0029014747773181307
1162.049999999272,0.0039980244,-0.7860223,-0.005479121,-2.3607852,0.002356821,1.575094,0.78749484,0.039999988,0.039999973,-0.014875825822358024,0.0017126749395772554,0.0004830993894922031,0.006453996727314902,-0.01885522800780014,0.024825194623147223,0.9999946392878,0.0009904696901860298,0.00015829559412603155,0.003116938876630782
1162.0666666659386,0.0042777634,-0.78613347,-0.0058826883,-2.3611157,0.0025222735,1.5753958,0.78760403,0.039999988,0.03999997,-0.0144414973659579,0.0017379476220853209,0.0006789224706427177,0.006763431066740163,-0.019091388559234902,0.026013730942734258,0.9999938438723968,0.001048340693477861,0.00019857131330681501,0.0033427187336718773
1162.0833333326052,0.004570462,-0.78625,-0.0063049775,-2.3614612,0.0026953982,1.5757117,0.78771836,0.039999988,0.03999997,-0.015252143177635347,0.0017399144381125518,0.0006724093258192454,0.0070787122340554565,-0.019326844793726254,0.02722402750322633,0.9999929513984354,0.0011089603146967346,0.0002409366181898751,0.003579009641366193
1162.0999999992719,0.0048763514,-0.7863721,-0.0067463233,-2.361822,0.0028763327,1.5760418,0.78783786,0.03999999,0.039999973,-0.015366292226048905,0.001745840694495444,0.000518136988114648,0.0073998367274882215,-0.019563206899131477,0.02845640146801287,0.9999919528544885,0.001172364066760091,0.00028544069841904165,0.0038260047529049797
1162.1166666659385,0.0051956545,-0.78649974,-0.0072070514,-2.3621979,0.0030652096,1.5763865,0.78796256,0.039999995,0.039999977,-0.015395263307582674,0.0017551378949522134,0.0008499407563755668,0.007726273657821855,-0.01980045734706519,0.029710351638572524,0.9999908386832863,0.0012385606841780318,0.0003321918397658812,0.004083890976851924
1162.1333333326052,0.0055285897,-0.786633,-0.0076874774,-2.36259,0.0032621592,1.5767457,0.7880927,0.039999988,0.03999997,-0.016793305935447478,0.0017480725999418408,0.00040347671264040486,0.008058868571986089,-0.02003759747961914,0.030985361110430952,0.999989598758774,0.0013076750394313728,0.0003808501386435924,0.004352851183927896
1162.1499999992718,0.0058753723,-0.786772,-0.0081879115,-2.3629982,0.0034673074,1.5771201,0.78822815,0.039999995,0.039999977,-0.016220338529926437,0.0017500635474233285,0.0007431582355499344,0.00839626024437898,-0.020276448034091357,0.03228091633122668,0.9999882223246668,0.0013796844276402207,0.0004317312463788928,0.0046330649643611796
1162.1666666659385,0.0062362077,-0.78691715,-0.008708648,-2.363423,0.0036807782,1.5775094,0.7883692,0.04,0.03999998,-0.016988557476382837,0.0017356047266014508,0.00018270605288694952,0.008739248429890595,-0.020516814076979584,0.03359735109080815,0.9999866980406268,0.0014546828680371531,0.000484672764723632,0.004924706272341537
1162.1833333326051,0.006611296,-0.7870681,-0.009249987,-2.363865,0.0039026882,1.5779142,0.78851587,0.04,0.039999977,-0.01758586588351818,0.0017379698937378119,0.000593315371233416,0.009087384849156235,-0.020757864148136716,0.0349322957239523,0.9999850139317412,0.0015327418766288416,0.0005396308693006453,0.005227945370792934
1162.1999999992718,0.0070008324,-0.7872252,-0.009812202,-2.3643234,0.0041331532,1.5783349,0.78866804,0.04,0.03999998,-0.01681691563344412,0.0017229043471353803,0.0008331724913990257,0.009440318819931983,-0.021000212040361732,0.036286424516108653,0.9999831573836979,0.0016137771328140673,0.0005970088187689089,0.005542946217155855
1162.2166666659384,0.0074050063,-0.78738827,-0.010395568,-2.3647988,0.0043722875,1.5787712,0.7888259,0.04,0.039999984,-0.01737887641874991,0.0017041220196592488,0.0005778036463288672,0.009798629952915935,-0.021241882551741673,0.0376589776772934,0.9999811151671949,0.0016979145056021953,0.0006565225911445622,0.005869869963814989
1162.233333332605,0.007823998,-0.7875572,-0.011000352,-2.365292,0.004620197,1.5792234,0.78898954,0.04,0.039999984,-0.01913959194652648,0.0016839104874824366,0.0004162408601793288,0.010162167104061837,-0.02148282485544486,0.039049606243293844,0.9999788737765923,0.0017851646669947243,0.0007177092129881104,0.006208871161120622
1162.2499999992717,0.008257988,-0.78773254,-0.011626806,-2.3658025,0.0048769875,1.579692,0.7891591,0.04,0.03999998,-0.017089727212171724,0.0016682279156147485,0.0008527607130437431,0.010530834698058784,-0.02172859409522855,0.04045766087174516,0.999976417830079,0.0018756519526684863,0.000781504844697751,0.006560103936187293
1162.2666666659384,0.008707143,-0.787914,-0.01227518,-2.366331,0.00514276,1.5801767,0.7893347,0.04,0.039999988,-0.01923922990501037,0.0016347534757408383,0.0003457506485116113,0.010903561964715125,-0.021971699210743465,0.041882928098940245,0.9999737326997167,0.001969415801725071,0.0008470572448888294,0.0069237133114577664
1162.283333332605,0.009171631,-0.78810173,-0.012945713,-2.3668776,0.0054176114,1.5806781,0.78951615,0.04,0.039999988,-0.018397844935713614,0.0016139217105865487,0.0007629367807515663,0.011280141752327989,-0.022217700601276723,0.04332420282331598,0.9999708022540819,0.0020663757598218253,0.0009148850722179595,0.007299843549815034
1162.2999999992717,0.009651606,-0.78829604,-0.013638631,-2.367442,0.005701636,1.5811964,0.7897036,0.04,0.039999984,-0.018076518926712914,0.0015880732352240717,0.0008051822530719122,0.011662244772959574,-0.022462720246966456,0.0447816628548703,0.9999676094719598,0.0021666309094882943,0.0009852069528607998,0.0076886334739010975
1162.3166666659383,0.01014722,-0.7884967,-0.014354159,-2.3680248,0.0059949225,1.5817316,0.7898973,0.04,0.03999999,-0.019615218346991092,0.0015440084883040078,0.0005165702213982826,0.012048654853922704,-0.0227035417708742,0.04625320843983575,0.999964137304736,0.0022703093916248587,0.0010574654759867644,0.00809021423872793
1162.333333332605,0.010658627,-0.7887038,-0.015092504,-2.368626,0.0062975604,1.5822836,0.7900972,0.04,0.04,-0.018993297868075132,0.001499187814558902,0.0006118284267220275,0.012438390488093264,-0.02294747474899762,0.04773821229481996,0.9999603675970221,0.0023773561054549405,0.0011319083479662973,0.00850471614271113
1162.3499999992716,0.011185964,-0.78891736,-0.015853876,-2.3692462,0.0066096373,1.5828531,0.7903033,0.04,0.04,-0.019740162795378602,0.0014600839004653976,0.0007761855086663161,0.012832621937539718,-0.023189574776673244,0.049243006215366376,0.9999562814389027,0.0024878454907106165,0.0012084834754521772,0.008932267538868811
1162.3666666659383,0.011729362,-0.7891376,-0.016638465,-2.369885,0.006931227,1.5834398,0.7905156,0.04,0.03999999,-0.019129596949496452,0.0014212669083674308,0.0006611701418357541,0.01323049281289984,-0.023431651314823856,0.05075909219302613,0.9999518592165375,0.002601754784419889,0.0012873472794409423,0.009372985565630845
1162.383333332605,0.012288952,-0.78936446,-0.017446456,-2.3705428,0.007262405,1.5840439,0.79073423,0.04,0.04,-0.020030014060967716,0.0013637846042835987,0.00046970419733671775,0.013632575986343992,-0.023670849070367,0.052285094341987,0.9999470809024218,0.002719152463286773,0.0013682074646108036,0.009826983918823137
1162.3999999992716,0.012864858,-0.7895979,-0.018278036,-2.3712199,0.0076032486,1.5846658,0.79095936,0.04,0.04,-0.020269208123324667,0.0013146973902361872,0.0007980375830163311,0.014038334387325721,-0.02390989451315494,0.05382889993689138,0.9999419249652814,0.002840142298755173,0.0014512174274543032,0.010294379846713908
1162.4166666659382,0.013457197,-0.7898383,-0.019133365,-2.3719158,0.007953825,1.5853053,0.7911908,0.04,0.039999995,-0.019226331367172556,0.0012612058068843524,0.0006719948185907043,0.01444722033973522,-0.024148418830762776,0.0553840759474717,0.9999363695147357,0.002964639421140844,0.0015366208840564498,0.010775278699463648
1162.433333332605,0.014066079,-0.79008526,-0.020012606,-2.3726315,0.008314202,1.5859629,0.79142886,0.04,0.04,-0.021157616721811934,0.0011855739631964901,0.0006877771878022187,0.014860126507655018,-0.024382972811231605,0.056948559969102336,0.9999303923237635,0.0030928072218637977,0.0016239131191347574,0.011269780695049502
1162.4499999992715,0.014691612,-0.790339,-0.020915922,-2.3733666,0.0086844405,1.5866385,0.79167336,0.04,0.039999995,-0.020106205903802632,0.0011435817941544968,0.0007715645462536003,0.015276002028979805,-0.024617822275984677,0.05852825455213917,0.9999239697477749,0.0032245682854550838,0.0017134254018769948,0.011777990347072718
1162.4666666659382,0.015333893,-0.7905996,-0.02184345,-2.3741217,0.009064598,1.5873319,0.79192436,0.04,0.04,-0.021323734315892295,0.0010570368227713622,0.00031198469208071344,0.015695263248400954,-0.024848461760231314,0.06011609160438306,0.9999170783865894,0.003359960026151653,0.001804741845895726,0.01229999700485583
1162.4833333326048,0.015993021,-0.79086703,-0.022795325,-2.3748965,0.009454734,1.5880436,0.7921819,0.04,0.04,-0.020829522961052227,0.000984188156468932,0.0006817685701987486,0.016117824214810034,-0.025081756797655265,0.061714235172511483,0.9999096928243218,0.003499022117765906,0.0018981309517319682,0.01283589260938315
1162.4999999992715,0.016669076,-0.7911414,-0.023771677,-2.375691,0.0098549,1.5887733,0.79244614,0.04,0.039999995,-0.020460313306402966,0.0009305638225737267,0.0005759662714766023,0.01654362457430782,-0.025310470316441843,0.06332376274137896,0.9999017871702119,0.0036418297377510405,0.001993591724157515,0.01338576415504887
1162.5166666659381,0.017362146,-0.7914227,-0.024772622,-2.3765054,0.0102651445,1.5895218,0.79271704,0.04,0.04,-0.02096878334247876,0.0008364587357803308,0.0009350222142545661,0.016972158250704042,-0.025537224985033385,0.06493904658675059,0.9998933346175162,0.0037883937955659574,0.002091301612430042,0.013949692379381942
1162.5333333326048,0.018072313,-0.7917111,-0.02579827,-2.37734,0.010685514,1.5902885,0.7929946,0.04,0.03999999,-0.02152891284565861,0.0007386623907488024,0.00034001323896415414,0.01740344052357774,-0.025760649277017687,0.06656913318340808,0.9998843088501917,0.003938718702934931,0.0021908411413192807,0.014527753620125946
1162.5499999992714,0.018799638,-0.7920065,-0.02684874,-2.3781946,0.0111160455,1.591074,0.7932789,0.04,0.04,-0.020592223075310834,0.0007041216509741724,0.0009095800101110996,0.01783783874204574,-0.025981032430381794,0.06820127204577797,0.9998746808011725,0.0040928304595539665,0.0022926541853942,0.015120025409004895
1162.566666665938,0.019544194,-0.7923088,-0.02792412,-2.3790698,0.011556789,1.591878,0.7935699,0.04,0.039999984,-0.02241952594912444,0.0005609526701253961,0.00043049294708996655,0.018274555972394045,-0.026196753324294046,0.06984815384875462,0.9998644229260484,0.004250793914187121,0.002396109847136354,0.015726575452393365
1162.5833333326048,0.020306045,-0.7926182,-0.029024493,-2.3799648,0.012007774,1.592701,0.7938677,0.04,0.03999998,-0.0205481695003229,0.000499039272324614,0.0009486035605021925,0.018713634300180762,-0.026411082438412302,0.07149965079725179,0.9998535042933827,0.004412589493639478,0.0025018590024181177,0.0163474679303881
1162.5999999992714,0.021085242,-0.7929348,-0.030149937,-2.38088,0.012469036,1.5935426,0.7941723,0.04,0.039999984,-0.021365373431647683,0.00039109157305618897,0.0005952479747106665,0.01915550666473279,-0.02662024073739999,0.07315786645648459,0.9998418951270583,0.00457826010272215,0.002609597092903481,0.016982764385608973
1162.616666665938,0.021881837,-0.7932582,-0.031300534,-2.3818166,0.0129406005,1.594403,0.79448366,0.04,0.039999988,-0.023317761697305706,0.00026377544985901197,0.0003855482425318968,0.019599395034751266,-0.02682388538599768,0.07482278437837046,0.9998295660163607,0.004747821307694855,0.0027187210012560937,0.017632517360927177
1162.6333333326047,0.022695864,-0.7935888,-0.032476343,-2.3827739,0.013422498,1.5952824,0.7948019,0.04,0.039999988,-0.022102395908096817,0.0001893066197253615,0.0004939403781989427,0.020045679593701876,-0.027028559010635965,0.0764939519096762,0.9998164837862796,0.004921319808285813,0.002829669196166001,0.018296784767408824
1162.6499999992714,0.023527374,-0.7939267,-0.03367742,-2.3837512,0.013914754,1.5961804,0.7951269,0.04,0.04,-0.020962289776993437,8.805521792189935e-05,0.0005231510898484615,0.020493979852060515,-0.02722918976024229,0.07817201838750704,0.9998026154688262,0.005098729273901905,0.0029426118588706143,0.018975618486199376
1162.666666665938,0.024376396,-0.79427165,-0.03490383,-2.3847487,0.014417384,1.5970973,0.7954588,0.04,0.04,-0.021590621826383938,-5.464291581713798e-07,0.0007054617939816765,0.020944357273349444,-0.02742398499697775,0.07985382060217303,0.9997879279355154,0.005280105698061628,0.0030573895184296557,0.01966906219316023
1162.6833333326047,0.025242964,-0.7946237,-0.036155593,-2.3857672,0.0149304075,1.598033,0.7957975,0.04,0.04,-0.022780722705828538,-0.0001789422163226556,0.00032248044994354075,0.021396746480919417,-0.027612990825821762,0.08154100584644666,0.9997723884664285,0.005465449081656921,0.003173633584741098,0.020377148385838612
1162.6999999992713,0.026127098,-0.7949829,-0.03743276,-2.3868065,0.015453841,1.5989879,0.7961432,0.04,0.04,-0.022123476754365434,-0.00025101317964494607,0.0007130885544048837,0.02185091793041034,-0.027801045457381993,0.08323178385025763,0.9997559606043617,0.005654816741837104,0.003291718775985326,0.021099925856885977
1162.716666665938,0.027028816,-0.7953494,-0.038735345,-2.3878665,0.01598769,1.5999618,0.7964956,0.04,0.04,-0.022245907838436274,-0.0003904590641062855,0.00031370069102365505,0.02230662071811354,-0.027981384031857393,0.08492572806709564,0.9997386101352689,0.0058481531341045175,0.0034113951433928946,0.021837419556728885
1162.7333333326046,0.027948137,-0.795723,-0.04006338,-2.3889468,0.01653197,1.6009545,0.79685503,0.04,0.04,-0.0216258067493591,-0.0004871719942237812,0.0007114747812897448,0.022764501654133625,-0.028159612064364774,0.08662457152002642,0.9997202995306891,0.006045568096242534,0.0035328256134923406,0.022589664801581855
1162.7499999992713,0.028885063,-0.7961036,-0.041416876,-2.390047,0.01708667,1.6019663,0.79722124,0.04,0.04,-0.02138599510661532,-0.0005868458177311214,0.0008752506449605235,0.023223190297853566,-0.028328438225894967,0.08832408334332677,0.9997009924356313,0.0062469915872100405,0.003656027378699307,0.023356675344096148
1162.766666665938,0.029839605,-0.79649144,-0.042795833,-2.3911686,0.017651808,1.6029972,0.7975942,0.04,0.04,-0.023054639370778673,-0.0007922297746695839,0.00030977980081114964,0.023683676730803047,-0.02849183694588605,0.09002150315121729,0.9996806525493136,0.006452399555596208,0.0037806275954774897,0.024138482005666307
1162.7833333326046,0.030811748,-0.7968866,-0.044200227,-2.3923109,0.018227385,1.6040472,0.7979742,0.04,0.04,-0.022247790423324254,-0.0009158337117363968,0.00040183986578234965,0.024146167693519814,-0.02865038885776602,0.09173494175374874,0.9996592398928194,0.006661984489315083,0.0039067843675369964,0.02493509766334187
1162.7999999992712,0.0318015,-0.7972888,-0.045630075,-2.3934743,0.018813387,1.6051164,0.7983611,0.04,0.04,-0.02345973623723019,-0.0010589368110287128,0.00043360199311059944,0.024609017375927158,-0.028802624057377643,0.09343642423274756,0.9996367178577561,0.0068756486691866426,0.004034095373756353,0.025746530649123633
1162.8166666659379,0.032808837,-0.7976982,-0.04708537,-2.3946586,0.019409819,1.6062046,0.7987549,0.04,0.04,-0.0223900897854179,-0.00115715290062747,0.0003994461985179498,0.025073525352881033,-0.02895122148871173,0.09514595664959541,0.9996130452131128,0.007093413921525788,0.004162840069986927,0.02657280717683441
1162.8333333326045,0.03383375,-0.7981147,-0.04856608,-2.3958638,0.020016665,1.6073117,0.7991556,0.04,0.04,-0.023111245127060975,-0.001336239888626023,0.0001834157611790843,0.025538810079403153,-0.029093361256764108,0.09686059163821856,0.9995881831533747,0.007315346760659338,0.004292639933200665,0.02741392063004803
1162.8499999992712,0.034876216,-0.7985385,-0.05007216,-2.3970888,0.02063391,1.6084375,0.79956305,0.04,0.04,-0.02094851640954687,-0.0014236832598605448,0.0005593522912850091,0.026004318792426553,-0.029231361052281878,0.09857155590331992,0.9995620891343541,0.007541339728295619,0.004424073917048885,0.02826987319470238
1162.8666666659378,0.03593622,-0.79896945,-0.051603578,-2.3983345,0.02126154,1.6095824,0.7999776,0.04,0.04,-0.02263657812755504,-0.0016281251024655857,0.00040827500140672157,0.02647160127826649,-0.029360517900587628,0.10028167408621078,0.9995347219999217,0.00777158794879101,0.004556728179228428,0.02914066172196675
1162.8833333326045,0.037013717,-0.7994073,-0.053160295,-2.3996012,0.021899533,1.6107461,0.8003988,0.04,0.04,-0.023425041387836743,-0.0017808954754457151,0.0002190884054176223,0.02693863590077344,-0.029480908020918087,0.10198863712459713,0.9995060432284492,0.008005908412792575,0.004690199658947301,0.030026271953986227
1162.8999999992711,0.038108688,-0.7998523,-0.05474227,-2.4008884,0.02254788,1.6119289,0.80082685,0.04,0.04,-0.022306143952333102,-0.0019171148553466522,0.000482490506747979,0.02740695275875253,-0.029599348512030367,0.1036982436147927,0.9994760072595624,0.008244372817132826,0.004824910211234702,0.030926711283108265
1162.9166666659378,0.03922106,-0.8003046,-0.056349427,-2.4021955,0.023206549,1.6131306,0.8012618,0.04,0.04,-0.021064175723273237,-0.0020016799343360037,0.0005722829852006228,0.02787596536286932,-0.02970912706834479,0.10540439256127707,0.9994445691115119,0.008487066322829046,0.004961103046628478,0.031841960292938815
1162.9333333326044,0.040350825,-0.8007641,-0.057981726,-2.403523,0.023875516,1.614351,0.8017036,0.04,0.04,-0.022395620780879533,-0.002227968116940565,0.0002340568421077549,0.028344920746353593,-0.029807908380607748,0.10710545756493706,0.9994116871158543,0.008733963630665182,0.005098336518440827,0.032772007876917086
1162.949999999271,0.041497927,-0.8012305,-0.059639074,-2.4048715,0.024554754,1.61559,0.80215204,0.04,0.04,-0.02369756950530988,-0.0024601565905790074,-0.00013498164905811905,0.028813616383333407,-0.029898350868236223,0.10880763300771126,0.9993773215695053,0.008984984774485661,0.005235992744746444,0.03371681421992212
1162.9666666659377,0.0426623,-0.8017038,-0.06132141,-2.40624,0.025244238,1.6168476,0.8026072,0.04,0.04,-0.02202462892044732,-0.0025239850170326317,0.00048524498179602915,0.029283409558416323,-0.02998499698081742,0.11050718381590129,0.9993414242741904,0.009240168306695266,0.005374611942525,0.034676368981825446
1162.9833333326044,0.0438439,-0.80218416,-0.06302864,-2.4076293,0.025943927,1.6181239,0.80306923,0.04,0.04,-0.023197575110422974,-0.0027721487156483204,-4.1272435669093e-05,0.02975370391607198,-0.03006397633732793,0.11220194814470277,0.999303951491023,0.009499632084962807,0.0055137754784832385,0.03565063540317853
1162.999999999271,0.04504266,-0.80267155,-0.064760685,-2.4090383,0.026653789,1.6194187,0.8035379,0.04,0.04,-0.02160100734203141,-0.002858907694333959,0.00040375259375835526,0.030223306001964843,-0.03013658210991011,0.11389508464461962,0.9992648560821276,0.009763253907633026,0.005653907766785608,0.036639590599032275
1163.0166666659377,0.046258517,-0.8031659,-0.06651745,-2.4104676,0.027373776,1.6207321,0.8040132,0.04,0.04,-0.022563502825145854,-0.0030649657417652215,8.454138349378582e-05,0.030693164946213568,-0.030200261534221756,0.11558269583177595,0.999224094235767,0.010031049220133516,0.005794623053297895,0.03764319186685176
1163.0333333326043,0.0474914,-0.8036672,-0.06829882,-2.4119165,0.028103847,1.622064,0.80449516,0.04,0.04,-0.021401206544324758,-0.0032048124758706636,0.0005309729036451216,0.031163165022949635,-0.030255225729962858,0.11727131804309662,0.999181617232627,0.010303064925858115,0.00593624882075537,0.03866139660518919
1163.049999999271,0.048741236,-0.8041753,-0.07010469,-2.413386,0.028843967,1.623414,0.8049838,0.04,0.04,-0.02370781059868321,-0.0034877735062180393,-0.00041303258433433854,0.03163262316234475,-0.030299372720840177,0.1189483180277826,0.999137383655501,0.010579310627954353,0.006077861440421263,0.03969416038901051
1163.0666666659376,0.050007947,-0.8046903,-0.07193495,-2.4148753,0.02959409,1.6247824,0.80547917,0.04,0.04,-0.021622415715305543,-0.00356496633048195,0.00032750446234963704,0.03210199549031191,-0.030339791966704922,0.12062277244025478,0.9990913415019627,0.010859843565455293,0.0062201143334037305,0.04074144463837815
1163.0833333326043,0.05129144,-0.80521226,-0.07378953,-2.4163833,0.030354165,1.6261691,0.8059809,0.04,0.04,-0.020340469414792395,-0.0036261761051183117,0.0005097316902569204,0.03257009302817597,-0.03036967073753785,0.12229364376588803,0.9990434419324177,0.011144520966535083,0.006363311197379364,0.04180321823567753
1163.099999999271,0.052591637,-0.8057409,-0.07566823,-2.4179113,0.03112414,1.6275735,0.80648935,0.04,0.04,-0.022908701793955544,-0.00401588742226025,-0.00032115264687604395,0.03303795418184923,-0.03038629567404085,0.12396195491598744,0.9989936438366085,0.011433473915045346,0.006506401956347522,0.04287938877680042
1163.1166666659376,0.05390844,-0.80627644,-0.07757094,-2.4194589,0.03190396,1.6289959,0.8070042,0.04,0.04,-0.02178682094533535,-0.004127137289528654,-5.6707744899853196e-05,0.033504965525863475,-0.030397526708026132,0.12562064991463293,0.9989418968860599,0.011726611276874131,0.006649805886313797,0.04396991375151665
1163.1333333326043,0.055241767,-0.8068186,-0.07949755,-2.4210262,0.032693572,1.6304365,0.8075256,0.04,0.04,-0.02248789051653155,-0.004307141547309212,0.00011595196862668189,0.03397164533977416,-0.030399164847076013,0.1272726937883951,0.9988881530506791,0.012024001067855847,0.006793309830110218,0.04507473832287158
1163.149999999271,0.05659152,-0.8073675,-0.08144786,-2.4226139,0.03349292,1.631894,0.80805326,0.04,0.04,-0.023677012849931955,-0.004674987418940707,-0.0012810922055184193,0.03443674125929871,-0.030390958407104103,0.12891408094651335,0.9988323734881588,0.012325507896479801,0.0069359617919591224,0.04619376539237242
1163.1666666659376,0.05795757,-0.8079231,-0.0834218,-2.424219,0.034301933,1.6333694,0.80858743,0.04,0.04,-0.018475446807242335,-0.004425868087552104,0.0010484108351471733,0.03490235659611522,-0.03038319757751462,0.13055082744048738,0.9987744916086896,0.012631323727497331,0.007079689740546706,0.04732697503403897
1163.1833333326042,0.059339844,-0.80848515,-0.08541915,-2.4258432,0.035120554,1.6348639,0.809128,0.04,0.04,-0.021674118885051108,-0.004873572158212158,0.000840776905097762,0.035365361683169845,-0.03035545020265084,0.13217627264224313,0.9987144645575576,0.012941392398069355,0.007223865681884074,0.04847426545003328
1163.1999999992709,0.060738213,-0.809054,-0.08743979,-2.4274864,0.035948716,1.636374,0.80967474,0.04,0.04,-0.021613800631858915,-0.005063598868098457,-0.0014815421889302627,0.03582680649552347,-0.030313763828528267,0.13380199427655992,0.9986522538740816,0.013255579721334471,0.007367208832695967,0.04963556862254767
1163.2166666659375,0.06215258,-0.80962914,-0.08948352,-2.429149,0.036786355,1.6379017,0.81022775,0.04,0.04,-0.022476478913668885,-0.005330312073513477,-0.00017747006464396975,0.03628804157031299,-0.030267884399224287,0.135413173619701,0.9985878084143802,0.013573966922832914,0.007510040221006861,0.05081078235986565
1163.2333333326042,0.063582815,-0.81021076,-0.091550216,-2.4308302,0.03763341,1.639447,0.810787,0.04,0.04,-0.021389779397296138,-0.005415639494586039,-1.7047637301814689e-06,0.03674783918377941,-0.030215331874986782,0.13701303033864692,0.9985210741306042,0.013896593441870025,0.007652710733075141,0.05199985794414966
1163.2499999992708,0.06502879,-0.81079876,-0.093639694,-2.4325302,0.0384898,1.641009,0.8113524,0.04,0.04,-0.021458363561044358,-0.0056058699807681744,-0.0005672180127591631,0.03720565992471473,-0.03014993373237474,0.13860750748768585,0.9984520073951579,0.014223373678311845,0.00779474337101122,0.0532026930292688
1163.2666666659375,0.0664904,-0.8113931,-0.095751725,-2.434248,0.039355468,1.6425879,0.81192386,0.04,0.04,-0.020243625374405383,-0.005818983212885903,-3.423474184138797e-05,0.03766248498597101,-0.03007814977621065,0.14019381653245777,0.9983805557140549,0.014554337897088107,0.007936517094745877,0.05441919621674939
1163.2833333326041,0.06796751,-0.81199366,-0.09788615,-2.4359844,0.040230297,1.6441836,0.81250143,0.04,0.04,-0.021617767671955335,-0.006041007309855878,-0.000504654945032712,0.038117569954357694,-0.029993923809582115,0.1417667050584512,0.9983066750028289,0.014889479806417541,0.008077520599219058,0.055649256031503155
1163.2999999992708,0.06945999,-0.8126005,-0.10004281,-2.4377387,0.041114222,1.645796,0.81308496,0.04,0.04,-0.02049662173086997,-0.006136981800354546,-0.00035318958178098825,0.03857072654982793,-0.029901631476929966,0.14333239511328896,0.9982303139892098,0.015228771793511113,0.008217928990215584,0.056892797310173625
1163.3166666659374,0.070967674,-0.8132136,-0.102221474,-2.4395113,0.04200719,1.6474247,0.8136744,0.04,0.04,-0.021384492669640487,-0.006438007206562707,-0.0007345774954314876,0.039022226109715445,-0.029798272337936554,0.1448883974908562,0.9981514271210691,0.015572194356170067,0.008357380184688908,0.05814971621216416
1163.333333332604,0.07249044,-0.81383294,-0.104421936,-2.4413013,0.04290911,1.6490695,0.8142699,0.04,0.04,-0.01988935078853782,-0.006547431106965901,-0.0005463319514786846,0.039471895585357755,-0.029686270231085547,0.1464270643264627,0.9980699617388878,0.01591984564609158,0.00849609986602498,0.05941991481150327
1163.3499999992707,0.07402819,-0.8144584,-0.106644005,-2.4431088,0.0438199,1.6507308,0.81487113,0.04,0.04,-0.019999941485937534,-0.006774570724137063,-0.0002411649364209012,0.03991867251374236,-0.02956332536403069,0.1479565017290863,0.9979858714851313,0.016271562537515032,0.008634119497298606,0.06070328285321236
1163.3666666659374,0.075580716,-0.81508946,-0.108887486,-2.4449334,0.044739485,1.652408,0.81547815,0.04,0.04,-0.02027376490927324,-0.006916062113573179,-0.00040620602461682864,0.0403640160834129,-0.0294277082560487,0.14947664744935318,0.9978991107495246,0.01662742418195752,0.008770985910814077,0.061999704326179
1163.383333332604,0.077147916,-0.8157266,-0.11115216,-2.4467757,0.045667745,1.6541008,0.8160908,0.04,0.04,-0.020809089689377558,-0.0072126069996139575,-0.0010519122810803694,0.040806585834057635,-0.029283233268606462,0.15098078654893884,0.9978096352943786,0.016987344438503076,0.008906455331780161,0.06330905856234076
1163.3999999992707,0.07872961,-0.81636965,-0.113437794,-2.4486356,0.046604626,1.6558098,0.8167092,0.04,0.04,-0.020702896782309743,-0.0073970375245785425,-0.0006355888419573574,0.04124729416655328,-0.02913040657955869,0.1524764886069886,0.9977173927992238,0.017351404646536714,0.009040726955259901,0.06463124723252502
1163.4166666659373,0.08032568,-0.8170186,-0.115744166,-2.4505115,0.047550008,1.6575341,0.8173332,0.04,0.04,-0.018192450502452218,-0.007440053963345822,-0.0003890872937839518,0.04168540124479722,-0.02896767388503134,0.15395657062924722,0.9976223343054966,0.01771952869432877,0.009174124420827186,0.0659661416092685
1163.433333332604,0.08193593,-0.81767356,-0.11807105,-2.4524038,0.048503824,1.6592739,0.8179628,0.04,0.04,-0.018971201124440285,-0.007672011257948974,-0.0007184511915392378,0.04212060093883305,-0.02878995583601225,0.15542310541337828,0.9975244130170383,0.018091752301047207,0.00930637275102196,0.06731363427946657
1163.4499999992706,0.08356019,-0.8183344,-0.120418236,-2.4543128,0.049465965,1.6610285,0.81859803,0.04,0.04,-0.01963185470807982,-0.007897234634503952,-0.0012211110500759403,0.0425523209479974,-0.028601141350471287,0.1568703706514915,0.9974235859740942,0.018468085746593397,0.009437017904359768,0.06867359495838402
1163.4666666659373,0.085198335,-0.8190011,-0.122785464,-2.456239,0.05043631,1.6627982,0.8192386,0.04,0.04,-0.020505252859082113,-0.008215820701044235,-0.001416945818877302,0.04298117141351473,-0.028402697849096936,0.15830848020552207,0.9973198131882918,0.018848403986672015,0.009565792017045972,0.07004586720366039
1163.483333332604,0.08685017,-0.8196732,-0.1251725,-2.458181,0.05141477,1.6645826,0.8198846,0.04,0.04,-0.018596744652810138,-0.008205090826274297,-0.0006892487079079856,0.04340741436826798,-0.0281946483989038,0.15973040463220717,0.9972130440507752,0.01923278829332409,0.009693016061367922,0.07143031617657104
1163.4999999992706,0.08851553,-0.8203508,-0.12757905,-2.4601383,0.052401252,1.6663818,0.8205359,0.04,0.04,-0.018069624776062554,-0.008426873269085089,-0.0006705730630773843,0.043829936967090845,-0.02797677427122562,0.16113937116905366,0.9971032326457534,0.01962117570438415,0.009818805856986529,0.07282680799615608
1163.5166666659372,0.090194255,-0.82103384,-0.13000494,-2.4621112,0.053395662,1.6681954,0.8211922,0.04,0.04,-0.018447650513975233,-0.008594303867882902,-0.0009948902042200558,0.04424940203360132,-0.027745802669957215,0.16253235157675527,0.9969903386880652,0.02001344435141092,0.00994277824083602,0.0742352191934768
1163.533333332604,0.09188618,-0.8217222,-0.13244994,-2.4640996,0.054397907,1.6700231,0.8218537,0.04,0.04,-0.01850487358066033,-0.008797778882314172,-0.0011403182458291639,0.044666097612780495,-0.027503705114798535,0.16391146650874058,0.9968743157160012,0.02040969929216465,0.010064800879882534,0.0756554203200693
1163.5499999992705,0.09359108,-0.82241595,-0.13491367,-2.4661036,0.05540788,1.6718649,0.8225205,0.04,0.04,-0.018551858055770865,-0.009089783992861922,-0.001291386702173547,0.04507932403524673,-0.0272505040558257,0.16527344591817703,0.9967551227016261,0.02080999094659526,0.010184747111541947,0.07708722702979266
1163.5666666659372,0.09530882,-0.8231148,-0.13739593,-2.4681227,0.056425452,1.6737206,0.8231921,0.04,0.04,-0.01846599473112054,-0.009218961534175618,-0.001201975307685288,0.04548820284968286,-0.026988942981983566,0.16661911523964085,0.9966327217727177,0.021214107472734285,0.010302509335731793,0.078530489858572
1163.5833333326038,0.097039215,-0.8238188,-0.1398965,-2.470157,0.057450503,1.6755903,0.8238687,0.04,0.04,-0.01807123441008862,-0.009349874216476456,-0.0011334916287575325,0.045894302255995195,-0.026717086417534466,0.1679460251731385,0.9965070669571137,0.021622133826099125,0.010418136913712042,0.07998506896030022
1163.5999999992705,0.09878207,-0.8245278,-0.14241502,-2.4722059,0.058482952,1.6774732,0.82455033,0.04,0.04,-0.018030639423516348,-0.009634385622092623,-0.001542813672816834,0.04629645857046044,-0.026433123164819036,0.16926185644221292,0.9963781206819335,0.02203410754271784,0.01053126574803791,0.08145078988492546
1163.6166666659371,0.10053719,-0.825242,-0.1449513,-2.4742687,0.059522692,1.6793693,0.82523656,0.04,0.04,-0.016202875362614222,-0.00956283612883746,-0.0011544782985595248,0.046694142075438136,-0.026142646590363083,0.17055699827754348,0.9962458359412187,0.022449839865776783,0.01064241520802958,0.08292754704151765
1163.6333333326038,0.10230437,-0.82596105,-0.14750502,-2.476346,0.06056961,1.6812788,0.8259278,0.04,0.04,-0.0177335034213133,-0.009937540567002412,-0.0013973977591064113,0.04708846806101834,-0.025836532748020127,0.1718353730560301,0.9961101757054209,0.02286954991936757,0.010751060636636691,0.08441514223045679
1163.6499999992704,0.10408343,-0.82668495,-0.15007591,-2.4784374,0.061623577,1.6832007,0.8266234,0.04,0.04,-0.017302937766383586,-0.010071824490695547,-0.0018753609547284,0.047477125642071044,-0.025521321978303133,0.17309567757527342,0.9959711116141006,0.023292898831307963,0.0108569001629543,0.08591340648035702
1163.666666665937,0.10587418,-0.82741356,-0.1526637,-2.480543,0.06268447,1.6851354,0.82732373,0.04,0.04,-0.017323047090789245,-0.010280337759646652,-0.001628764490879675,0.04786346586156392,-0.02519735136069974,0.17433680532865165,0.9958285997808972,0.023720114611072568,0.010959973139208433,0.08742216543899559
1163.6833333326038,0.10767644,-0.82814676,-0.15526806,-2.4826617,0.0637522,1.6870824,0.82802844,0.04,0.04,-0.016337540057009825,-0.010397189104546789,-0.0015090124769745472,0.048244627390765335,-0.024865121063876186,0.1755594362016829,0.9956826052694132,0.02415099746225889,0.01106035645007138,0.08894125814653828
1163.6999999992704,0.10948998,-0.8288848,-0.15788873,-2.4847934,0.06482659,1.6890417,0.82873756,0.04,0.04,-0.015300574901466746,-0.010418371309349472,-0.0014975513427328835,0.04862214619795238,-0.024521112418565735,0.17676247574650195,0.9955330869485558,0.024585592721048363,0.011158285383328356,0.09047051502306228
1163.716666665937,0.1113146,-0.8296273,-0.16052537,-2.4869382,0.06590757,1.6910127,0.82945126,0.04,0.04,-0.01629968244236668,-0.010771845079665665,-0.0019875117535761433,0.04899497757945046,-0.024165294096713114,0.17794539823184424,0.9953800162976008,0.025023973730893306,0.01125309946809335,0.09200973669381302
1163.7333333326037,0.1131501,-0.83037424,-0.1631778,-2.4890964,0.06699499,1.6929959,0.830169,0.04,0.04,-0.016568029856456334,-0.01083029623240861,-0.0018403094318442115,0.04936188437452135,-0.023799898561429056,0.17911058685789155,0.9952233584106395,0.02546595029268631,0.011344881149187174,0.09355878323946422
1163.7499999992704,0.114996284,-0.83112556,-0.1658456,-2.491266,0.06808874,1.6949904,0.8308907,0.04,0.04,-0.013663422134113645,-0.010855087234072636,-0.0013933587226011568,0.0497249032426035,-0.02342639101740973,0.1802559495814277,0.9950630798958023,0.02591140906181419,0.011434058470605144,0.09511744432858873
1163.766666665937,0.11685291,-0.83188105,-0.1685285,-2.4934485,0.06918872,1.6969965,0.83161646,0.04,0.04,-0.016253673484523112,-0.011250778710344966,-0.002029625569610616,0.05008414066489946,-0.023038132553813234,0.18138235162086092,0.994899153692391,0.02636045718559652,0.011519886315051566,0.09668553407009232
1163.7833333326037,0.118719794,-0.83264065,-0.17122622,-2.495643,0.07029478,1.6990134,0.83234626,0.04,0.04,-0.014910100361764655,-0.011257199904271542,-0.002058551394945596,0.05043836859373427,-0.022641928826245453,0.18248655744694242,0.9947315469555194,0.026813083707028548,0.011602398192015306,0.09826287391376975
1163.7999999992703,0.12059673,-0.83340436,-0.17393848,-2.497849,0.071406804,1.7010413,0.83308005,0.04,0.04,-0.014415669002709741,-0.011344658426258591,-0.0018183884853861798,0.05078754975991826,-0.022236586333763755,0.18357092925375296,0.9945602241680467,0.027269292199051578,0.011681778923642642,0.09984929767878457
1163.816666665937,0.12248349,-0.8341721,-0.17666492,-2.500067,0.072524674,1.70308,0.83381754,0.04,0.04,-0.014997356738288836,-0.011661793268795406,-0.002272468963804286,0.0511307787607614,-0.0218200234779099,0.1846350289736763,0.9943851666440296,0.02772891170312284,0.011757664682738122,0.10144459145412357
1163.8333333326036,0.12437984,-0.83494383,-0.1794052,-2.502296,0.07364822,1.7051289,0.83455884,0.04,0.04,-0.013672921904683832,-0.011625954348039313,-0.00218535300355871,0.05146911245282318,-0.02139355422087784,0.18567231645747473,0.994206345572143,0.0281920050465543,0.011830120490349767,0.10304853965352054
1163.8499999992703,0.12628557,-0.83571947,-0.18215902,-2.504536,0.07477733,1.7071877,0.8353039,0.04,0.04,-0.01374269210669965,-0.011796658134745341,-0.002434621155877892,0.05180237224394818,-0.02095899619210749,0.18669109297271785,0.9940237348494279,0.02865854557784029,0.011898978714223421,0.10466096037642515
1163.866666665937,0.12820049,-0.83649886,-0.18492612,-2.506787,0.07591187,1.7092566,0.8360527,0.04,0.04,-0.014226186785792905,-0.011998528529645613,-0.0023144721103651733,0.052129704217660965,-0.02051448175706462,0.18768996541675526,0.9938373066655356,0.029128564101634506,0.01196415624417204,0.10628167103755916
1163.8833333326036,0.13012435,-0.8372818,-0.18770607,-2.5090482,0.07705173,1.7113354,0.8368053,0.04,0.04,-0.012493909815725068,-0.01200436944598371,-0.0019759143973008264,0.052450153354732174,-0.020061963205028566,0.1886674568903683,0.9936470370754658,0.029602050507655235,0.01202587826867421,0.10791043771923557
1163.8999999992702,0.13205689,-0.8380682,-0.1904986,-2.51132,0.078196734,1.7134233,0.83756155,0.04,0.04,-0.014161794129985417,-0.012265332993867395,-0.0029282268356078944,0.05276401775165528,-0.019597895602822588,0.1896201390065584,0.9934529153452262,0.03007898105467963,0.012083300135203015,0.10954703897698793
1163.9166666659369,0.13399796,-0.838858,-0.19330347,-2.5136015,0.079346776,1.7155206,0.8383204,0.04,0.04,-0.011864191640920119,-0.012111645778251079,-0.0019738954277093157,0.053070924578339146,-0.019130241428040193,0.19055128034406738,0.9932549180566119,0.03055883333808812,0.012137294414457246,0.11119132855427542
1163.9333333326035,0.13594727,-0.8396514,-0.19612023,-2.5158927,0.08050174,1.7176266,0.8390827,0.04,0.04,-0.012430508021310516,-0.012428187485497011,-0.0029444821477042638,0.05337462988747153,-0.01864851255717255,0.19146020702535005,0.9930530208048723,0.031042025251591648,0.012187234585096704,0.11284308508617204
1163.9499999992702,0.13790461,-0.84044796,-0.19894855,-2.5181935,0.08166149,1.7197411,0.8398483,0.04,0.04,-0.01245563355316559,-0.0125814842747346,-0.0027202780502166846,0.0536712234225126,-0.018160920981211637,0.19234498293336677,0.9928472140097194,0.031528422488470924,0.012233008050242416,0.1145020599053555
1163.9666666659368,0.13986975,-0.8412479,-0.2017881,-2.5205035,0.08282587,1.7218643,0.8406167,0.04,0.04,-0.011726703736258948,-0.012595533856120389,-0.0026632788524549866,0.05396150368868888,-0.017664853348067805,0.193208587443699,0.9926374785187009,0.032017861335722035,0.01227488899832634,0.11616806745229437
1163.9833333326035,0.14184245,-0.84205073,-0.20463863,-2.5228221,0.08399474,1.7239957,0.84138817,0.04,0.04,-0.011262852257232225,-0.012550860972952715,-0.00254091169624715,0.05424654635674236,-0.017159980568065086,0.1940466933857273,0.9924237969905758,0.032510469121474046,0.012312623305842766,0.11784089218789238
1163.9999999992701,0.14382248,-0.8428567,-0.20749967,-2.5251493,0.08516795,1.7261348,0.84216243,0.04,0.04,-0.011016020232412771,-0.012807654218770226,-0.003004668335737648,0.05452412509161133,-0.016646555173102887,0.19486195321586575,0.9922061646575554,0.03300605695333985,0.012346159645991863,0.11952028849501825
1164.0166666659368,0.14580962,-0.8436656,-0.21037094,-2.5274851,0.08634539,1.7282815,0.8429394,0.04,0.04,-0.011296933971882694,-0.012945020366152138,-0.003080135986066601,0.05479621309626974,-0.016125347101162354,0.19565419536131073,0.9919845698250402,0.033504582332306763,0.01237528816871593,0.1212060577467506
1164.0333333326034,0.14780365,-0.8444772,-0.21325214,-2.5298285,0.0875269,1.7304356,0.84371924,0.04,0.04,-0.00996671975910246,-0.012807081305341028,-0.002665515458755152,0.05506229987283072,-0.015597909019171768,0.19642048638997675,0.991758992191133,0.0340061948041821,0.012400200250674422,0.12289798678868423
1164.04999999927,0.14980423,-0.84529155,-0.2161429,-2.5321796,0.08871237,1.732597,0.8445016,0.04,0.04,-0.009840281446082955,-0.01286961245513668,-0.0028790044148685467,0.055320224402524126,-0.015060749834784753,0.1971629878065699,0.9915294257091213,0.034510713879544075,0.012420892715315143,0.1245958667236564
1164.0666666659367,0.15181123,-0.8461086,-0.21904284,-2.5345383,0.08990162,1.7347654,0.8452863,0.04,0.04,-0.01002503259746046,-0.013097872758545404,-0.003092654225111957,0.055571209774512464,-0.01451600787954592,0.19788073926996913,0.99129587276344,0.035017995732679066,0.012437164547790404,0.12629944400133705
1164.0833333326034,0.15382436,-0.84692806,-0.22195166,-2.5369046,0.09109451,1.7369405,0.84607345,0.04,0.04,-0.010441495031598969,-0.013198644714362828,-0.0033279756066928456,0.055816349598287046,-0.013962668075830256,0.19857260536596172,0.9910583288051564,0.03552812447848911,0.012448656798589114,0.12800848495659375
1164.09999999927,0.15584338,-0.8477498,-0.22486895,-2.539277,0.0922909,1.7391223,0.84686315,0.04,0.04,-0.007993564707153844,-0.012955363908299933,-0.0025075298145882385,0.05605453622453294,-0.013405577515989503,0.19924140997083994,0.9908167765974858,0.03604117517456343,0.012456021482312014,0.12972276760012683
1164.1166666659367,0.1578681,-0.848574,-0.22779441,-2.5416567,0.093490645,1.7413096,0.84765494,0.04,0.04,-0.009903011095957481,-0.013438142473037873,-0.00398899802009911,0.05628327788679641,-0.012837682711469608,0.19988307342950473,0.9905712374288657,0.036556808755694434,0.012458279045890922,0.1314420579398389
1164.1333333326033,0.15989819,-0.8494004,-0.23072767,-2.5440426,0.09469363,1.7435029,0.84844875,0.04,0.04,-0.008265429588560913,-0.013160289407894432,-0.0032595121411960193,0.056507146980545195,-0.012267360072439101,0.20050046054232834,0.9903216962561758,0.037075086693745166,0.012455951810404976,0.13316615611873284
1164.14999999927,0.16193344,-0.850229,-0.23366837,-2.5464349,0.095899664,1.7457017,0.8492446,0.04,0.04,-0.008790596329855127,-0.013375260721981697,-0.0036468277134105165,0.05672340074430303,-0.011689403558393305,0.20109178438210665,0.9900681626087341,0.03759596490624136,0.012448751196848743,0.1348947938393956
1164.1666666659366,0.16397366,-0.8510595,-0.23661615,-2.548833,0.097108625,1.747906,0.8500425,0.04,0.04,-0.007942821949558088,-0.013374317515731093,-0.0032420885913930775,0.056932657364129995,-0.011107777018057902,0.2016564487788569,0.9898106356672234,0.038119470334417586,0.012436772294828072,0.1366277358238701
1164.1833333326033,0.16601846,-0.851892,-0.23957062,-2.5512362,0.09832037,1.7501156,0.8508423,0.04,0.04,-0.00691847365157372,-0.013169833342399628,-0.003174002951866761,0.05713390017770252,-0.010519234595812957,0.20219734624964794,0.9895491139890694,0.03864554156870844,0.012420290359261527,0.13836476974902367
1164.19999999927,0.16806774,-0.85272646,-0.24253146,-2.553645,0.09953472,1.7523296,0.8516437,0.04,0.04,-0.007720091375373883,-0.013533042223683178,-0.004172214557440768,0.05732644239798177,-0.009923828118637512,0.20270980069057498,0.9892836237769549,0.0391739185494092,0.012398615929627268,0.14010563926998143
1164.2166666659366,0.17012118,-0.8535624,-0.2454983,-2.556059,0.100751564,1.7545482,0.8524467,0.04,0.04,-0.007658825612111286,-0.013494150337022004,-0.0036771379777089663,0.05751336354006928,-0.00932469137368061,0.20319715520792286,0.989014170170065,0.039704693442693985,0.012371805936508624,0.14185008614487649
1164.2333333326033,0.17217857,-0.8544,-0.24847078,-2.5584764,0.101970755,1.7567714,0.8532511,0.04,0.04,-0.004607228091235704,-0.013047911470925877,-0.0027318895154060385,0.05769234049966229,-0.00872253863634917,0.20365840467677257,0.9887407445331107,0.04023778867953316,0.012340748899914423,0.14359793305922144
1164.24999999927,0.17423962,-0.8552391,-0.25144854,-2.560899,0.10319214,1.7589985,0.854057,0.04,0.04,-0.007368798230200646,-0.013624605163425896,-0.004321361802395174,0.05786277212184436,-0.008108851035212028,0.2040936379849055,0.9884633795603172,0.04077315835915248,0.012304278682394343,0.1453488959425626
1164.2666666659366,0.17630404,-0.8560796,-0.25443116,-2.5633254,0.10441556,1.7612292,0.8548644,0.04,0.04,-0.005536324703081519,-0.013319567129281562,-0.0037526941824017612,0.05802648450412502,-0.007495723256632711,0.2045003066170045,0.9881820840315272,0.04131082172910324,0.01226278450241158,0.14710271555420568
1164.2833333326032,0.17837167,-0.8569215,-0.25741854,-2.5657556,0.105640836,1.7634627,0.855673,0.04,0.04,-0.005698625802041946,-0.013260287001287674,-0.004363268180762603,0.058181078696362756,-0.0068781094635963075,0.20488033106927808,0.9878968678264956,0.041850617903339875,0.012215943684170545,0.1488592457310372
1164.2999999992699,0.18044221,-0.85776436,-0.26041013,-2.5681887,0.10686788,1.7656997,0.8564825,0.04,0.04,-0.004255771623906668,-0.013136268352949287,-0.0031481273496059003,0.058328352387042974,-0.006258631768052927,0.20523366532000686,0.9876077512992404,0.04239245357539404,0.012164382841815247,0.15061818364192786
1164.3166666659365,0.18251543,-0.85860866,-0.26340532,-2.5706255,0.10809648,1.7679396,0.8572933,0.04,0.04,-0.005581587038561153,-0.013741894716795544,-0.004633286318012075,0.058467666888537474,-0.005632231684698175,0.20555885863586926,0.9873147726532373,0.04293632874396139,0.01210742195459342,0.15237920366076924
1164.3333333326032,0.18459107,-0.8594537,-0.26640394,-2.5730646,0.10932651,1.7701821,0.85810477,0.04,0.04,-0.003457163521058959,-0.013100316527345224,-0.003372563502068715,0.058598878311515085,-0.005004422821313914,0.20585873851098435,0.9870179457041932,0.04348206096063861,0.01204559298077015,0.1541421062598774
1164.3499999992698,0.18666884,-0.8602996,-0.26940563,-2.5755062,0.11055787,1.772427,0.85891724,0.04,0.04,-0.0041797998904025135,-0.01330079233321374,-0.004169337760639991,0.0587226984897416,-0.004371055607576724,0.20613236024757925,0.9867172843277856,0.044029788745883265,0.011978488035333263,0.15590668470652672
1164.3666666659365,0.18874852,-0.86114633,-0.27241024,-2.577951,0.11179033,1.7746736,0.85973054,0.04,0.04,-0.005214689543975304,-0.013328632631293136,-0.004883666060151448,0.058837922313098735,-0.0037368426498217283,0.20637475895856972,0.9864128165827807,0.04457942387840942,0.011905618004701664,0.15767271960558307
1164.3833333326031,0.19082984,-0.86199385,-0.27541718,-2.580397,0.113023765,1.7769222,0.86054444,0.04,0.04,-0.0018267905372404414,-0.012873751773337383,-0.0035132553634298347,0.058944733494341275,-0.0031047743173011483,0.20659204890379984,0.986104562380518,0.04513083938260835,0.011828059551876317,0.15943994604924344
1164.3999999992698,0.19291255,-0.862842,-0.27842602,-2.5828445,0.114258066,1.7791725,0.8613588,0.04,0.04,-0.002825122474159336,-0.013170102291787389,-0.004129311664802238,0.05904289550088141,-0.0024663579942913877,0.20678190075914857,0.9857925617399336,0.04568392390910782,0.011745363052109001,0.1612080976913383
1164.4166666659364,0.19499642,-0.8636906,-0.28143653,-2.5852933,0.11549305,1.7814239,0.8621737,0.04,0.04,-0.0024277670420014275,-0.01297927974230062,-0.004238660495592406,0.059131935945572534,-0.001824125562523371,0.206943621582176,0.9854768416712644,0.04623867598171899,0.011657365952660665,0.1629769468119122
1164.433333332603,0.19708115,-0.86453956,-0.28444836,-2.5877435,0.11672855,1.7836764,0.8629888,0.04,0.04,-0.0028529032634283524,-0.013000362977083624,-0.004453267771342695,0.05921347736645721,-0.001181701521727807,0.20707719769849248,0.9851574386698838,0.046795018672935534,0.01156395588375806,0.16474623572364921
1164.4499999992697,0.19916649,-0.8653888,-0.28746086,-2.5901947,0.11796447,1.7859292,0.8638042,0.04,0.04,-0.0022219915473575824,-0.013192668287059783,-0.004726758206441417,0.05928618181186526,-0.0005393842562728263,0.20718447347726077,0.9848344041084504,0.0473527868105743,0.011465021606146597,0.16651565495531176
1164.4666666659364,0.2012522,-0.8662382,-0.29047385,-2.592646,0.119200595,1.7881823,0.8646198,0.04,0.04,-0.0007942136722283166,-0.012680951629887027,-0.004174275981472242,0.05935113537340109,0.00010293748114252599,0.20726337242293946,0.9845077593613252,0.047912007224718924,0.01136091574874925,0.16828499907713565
1164.483333332603,0.20333803,-0.8670876,-0.29348695,-2.5950973,0.12043676,1.7904354,0.86543536,0.04,0.04,-0.0012555987381812628,-0.012731801081961036,-0.004473169254204379,0.05940798632314387,0.0007452920766472665,0.20731285840417218,0.9841775488768837,0.048472576413987285,0.011251473032470856,0.1700540090003139
1164.4999999992697,0.20542374,-0.86793697,-0.2964999,-2.5975485,0.12167286,1.7926885,0.8662509,0.04,0.04,-0.0005879724431334665,-0.012554925321547894,-0.004348902240125518,0.05945610953620927,0.0013880962484126014,0.20733671854726302,0.9838437984426381,0.04903446971651835,0.011136779114070967,0.17182250491872716
1164.5166666659363,0.20750904,-0.8687861,-0.29951233,-2.5999997,0.12290874,1.7949413,0.86706626,0.04,0.04,-0.00117084607968998,-0.012591639698436574,-0.00461509560008011,0.05949555818395081,0.002030499053703741,0.20733208678353288,0.9835065564028698,0.049597663572154546,0.011016611648212148,0.17359020579671178
1164.533333332603,0.20959371,-0.8696351,-0.30252358,-2.602449,0.12414423,1.7971936,0.8678815,0.04,0.04,0.00225060707810254,-0.012115986374808263,-0.003590953646237516,0.05952611250691091,0.0026704566694707305,0.20729847674650204,0.9831658645796187,0.050162023318132846,0.010891904412170252,0.175356837791738
1164.5499999992696,0.21167742,-0.8704839,-0.30553356,-2.6048973,0.12537916,1.7994449,0.8686963,0.04,0.04,0.0003120759708652443,-0.012191054395507828,-0.004692525514760071,0.05954619526080591,0.00331780857728102,0.20723751049843903,0.9828217697915514,0.05072747629558939,0.010761885134782073,0.17712220019192584
1164.5666666659363,0.21376,-0.871332,-0.30854177,-2.6073442,0.12661344,1.8016948,0.86951053,0.04,0.04,0.000650329957685436,-0.012276418455078875,-0.004574104591092976,0.05955824028952379,0.003962289050317064,0.2071494196196081,0.982474333908437,0.0512938810310461,0.01062645850805214,0.17888599542592135
1164.583333332603,0.21584113,-0.87217945,-0.31154802,-2.6097896,0.12784687,1.8039433,0.87032425,0.04,0.04,0.0007151098275537393,-0.011938330620475668,-0.004536960668355405,0.05956206189045954,0.004604126297201708,0.2070324783445413,0.9821235886119506,0.051861324286232365,0.010485725818325329,0.18064802597682927
1164.5999999992696,0.21792062,-0.87302625,-0.31455174,-2.6122334,0.12907928,1.80619,0.87113726,0.04,0.04,0.0010617072201402067,-0.012110455044289647,-0.004795812277702538,0.05955635125212047,0.005244374700282439,0.20688830058589971,0.9817696077643592,0.05242956032435469,0.010339631760638327,0.18240797814093943
1164.6166666659362,0.21999814,-0.87387234,-0.31755272,-2.6146746,0.13031061,1.8084347,0.8719496,0.04,0.04,0.0026083142967481265,-0.011511397919158894,-0.004326046113134474,0.059542316288142716,0.0058820392674491795,0.20671678388266782,0.9814124082510209,0.052998707820906064,0.010188542497755625,0.18416572835904374
1164.633333332603,0.22207347,-0.8747176,-0.32055044,-2.617113,0.13154064,1.8106768,0.872761,0.04,0.04,0.0023596840055928325,-0.011655340253685642,-0.0047928175222589076,0.059518861530543796,0.0065176252111011634,0.20651583210983804,0.9810520763104547,0.053568490748063885,0.010032188735064096,0.18592093899048734
1164.6499999992695,0.22414637,-0.87556183,-0.3235446,-2.619549,0.13276921,1.8129159,0.8735716,0.04,0.04,0.002105503680005505,-0.011615715255577919,-0.005057453731804884,0.05948680546235974,0.007150508289720747,0.20628906215754875,0.9806886679873378,0.05413893483640706,0.009870346841264423,0.18767335577868713
1164.6666666659362,0.22621664,-0.876405,-0.32653466,-2.6219816,0.13399619,1.815153,0.874381,0.04,0.04,0.003657163531611829,-0.011312608007826852,-0.0038971332107395895,0.059446595130242134,0.007777252079831334,0.2060316808776177,0.9803222369043422,0.054709914639347115,0.009703893251930754,0.18942273233901297
1164.6833333326028,0.22828388,-0.8772471,-0.3295207,-2.6244106,0.13522142,1.8173863,0.8751893,0.04,0.04,0.0034887555336649,-0.010801197200349666,-0.005048577627952966,0.05939682630975056,0.008405772204702622,0.20574723277160611,0.9799528166266955,0.05528147243160352,0.009532120821147998,0.19116896888316062
1164.6999999992695,0.23034792,-0.87808776,-0.33250186,-2.6268358,0.13644476,1.8196157,0.87599635,0.04,0.04,0.0036551852834465492,-0.011185852113471118,-0.004865590370606299,0.05933809239997264,0.00902849668856305,0.20543608772781763,0.9795805195176301,0.05585335752538115,0.009355062871828053,0.1929116145631885
1164.7166666659361,0.23240855,-0.878927,-0.33547807,-2.6292572,0.13766605,1.8218415,0.87680197,0.04,0.04,0.0037023421444626337,-0.010852736993707812,-0.004806394602518971,0.05927120524791558,0.009644306695174548,0.20509799298129455,0.9792053834242991,0.056425543364836454,0.009172836848016518,0.19465054377785374
1164.7333333326028,0.23446542,-0.8797648,-0.3384489,-2.6316736,0.13888514,1.8240634,0.87760615,0.04,0.04,0.005774027209959343,-0.010170688471897171,-0.004070985091031432,0.05919647270953075,0.010255998984502773,0.20473148551654072,0.9788274541008776,0.0569980754298404,0.008986054059135665,0.19638555274799271
1164.7499999992694,0.2365184,-0.88060105,-0.341414,-2.6340861,0.14010186,1.8262812,0.87840885,0.04,0.04,0.003558354522437135,-0.01079688403962109,-0.005216592183221458,0.05911096023414618,0.01086664578269711,0.20433830401267544,0.9784468268659975,0.05757076648431644,0.008793950077655321,0.19811633018078267
1164.766666665936,0.23856717,-0.88143563,-0.34437293,-2.6364932,0.14131613,1.8284949,0.87920994,0.04,0.04,0.006399014937330527,-0.009951071872041362,-0.0039213031757689976,0.05901776780660359,0.011468508677603809,0.20391782305468148,0.9780635452146781,0.05814362805826034,0.008597443631997518,0.19984269814359665
1164.7833333326028,0.24061143,-0.88226837,-0.34732533,-2.6388943,0.14252777,1.8307034,0.8800093,0.04,0.04,0.006699903684448394,-0.009715356690642718,-0.004427072633483853,0.05891392873500218,0.012070093001732951,0.20346924657922952,0.9776776912980489,0.058716523240124496,0.00839619336452488,0.20156439609637034
1164.7999999992694,0.24265097,-0.88309944,-0.35027096,-2.6412904,0.14373665,1.8329065,0.88080674,0.04,0.04,0.005273401745675699,-0.00996498311809646,-0.005286096422185693,0.058800730032754184,0.012667921793925313,0.2029945035792483,0.9772893353098374,0.05928930084842597,0.008189830973928423,0.20328123514771274
1164.816666665936,0.24468566,-0.88392824,-0.3532094,-2.6436813,0.14494257,1.8351048,0.8816021,0.04,0.04,0.005287249920282733,-0.009858876726298593,-0.004572261919277842,0.05868012615736298,0.013256381227278444,0.20249226945453486,0.976898568162838,0.05986188777272478,0.007978572597095342,0.20499288839614774
1164.8333333326027,0.2467151,-0.88475496,-0.35614032,-2.6460662,0.14614539,1.8372973,0.8823955,0.04,0.04,0.006423933472166077,-0.009363047105662159,-0.004897144605431336,0.058551656908471736,0.013837015303502315,0.20196249419230666,0.9765054507565719,0.06043429647115989,0.0077624158668196264,0.2066991663085529
1164.8499999992694,0.24873905,-0.8855795,-0.35906333,-2.6484437,0.14734499,1.8394839,0.8831869,0.04,0.04,0.008821537514469568,-0.00862327214055103,-0.0039274843917080915,0.05841403055617297,0.014410824527275837,0.20140601932673158,0.9761100371096162,0.06100650275571068,0.007542068904693499,0.20839990228408983
1164.866666665936,0.25075728,-0.88640183,-0.3619781,-2.6508145,0.14854123,1.8416642,0.88397604,0.04,0.04,0.007457680932998478,-0.0088350119680225,-0.004625840207683751,0.058266191904521696,0.014979668358398271,0.20082378138108653,0.9757124183830735,0.06157836222961252,0.007317102471284415,0.2100948403212169
1164.8833333326027,0.25276962,-0.8872216,-0.36488423,-2.6531787,0.14973402,1.843838,0.8847627,0.04,0.04,0.0071216133122664615,-0.008974902127753537,-0.00485009945525583,0.058109052099421236,0.015543002166299003,0.2002145894822618,0.9753126945334301,0.0621496330815681,0.007087312402785922,0.2117837127653402
1164.8999999992693,0.25477585,-0.888039,-0.36778134,-2.6555355,0.15092313,1.8460053,0.88554704,0.04,0.04,0.008661222599326557,-0.008397636929610708,-0.0042997994111226845,0.05794545309055534,0.016095466999160354,0.19957841134316362,0.9749109245169169,0.06272037440078426,0.006853292401016656,0.21346633522844333
1164.916666665936,0.25677568,-0.8888536,-0.3706692,-2.6578844,0.15210842,1.8481658,0.8863289,0.04,0.04,0.008850506257274127,-0.007977324777627692,-0.0041828632229901075,0.05777233906905663,0.016641879780810664,0.19891702705980757,0.9745071947649859,0.06329053953377742,0.006614935334754905,0.21514245882047148
1164.9333333326026,0.25876877,-0.8896657,-0.37354738,-2.6602256,0.15328978,1.8503191,0.88710815,0.04,0.04,0.00881092698281627,-0.007900437177166264,-0.004530869799745929,0.05759035589567055,0.017182273241929585,0.19822896828769118,0.9741015749927073,0.06386005570266887,0.00637230909346439,0.21681191978116995
1164.9499999992693,0.26075497,-0.890475,-0.37641558,-2.6625588,0.15446697,1.8524649,0.8878846,0.04,0.04,0.00907518480524061,-0.007641453164156098,-0.004537839285334577,0.05739875394322696,0.017713400236576915,0.19751452101942207,0.9736941770667124,0.06442871561377861,0.006125308161217171,0.21847441669602147
1164.966666665936,0.2627341,-0.89128137,-0.3792735,-2.664884,0.15563996,1.8546028,0.8886583,0.04,0.04,0.008678739330592045,-0.0076866590812907365,-0.004902189706768034,0.057199770983395015,0.018235094909252805,0.19677597440118744,0.9732850707021754,0.06499646981375948,0.005873782590612861,0.22012979975025768
1164.9833333326026,0.26470587,-0.89208466,-0.38212064,-2.6672003,0.15680864,1.8567327,0.8894291,0.04,0.04,0.010498736953401533,-0.00711960395775868,-0.004038862244049035,0.05699306243482583,0.018745416179041893,0.19601023446601412,0.9728743432792104,0.0655632639098637,0.0056182681763252305,0.22177782954395922
1164.9999999992692,0.26666996,-0.89288497,-0.38495687,-2.6695077,0.15797283,1.8588543,0.89019686,0.04,0.04,0.010115843544022951,-0.006754418077298263,-0.0044890120382889975,0.05677790115500006,0.019247649080188695,0.19522077172169838,0.9724620660333535,0.06612904652332909,0.0053586508355754365,0.2234183613611007
1165.0166666659359,0.2686263,-0.8936822,-0.38778165,-2.671806,0.15913235,1.8609675,0.8909616,0.04,0.04,0.010475939568421744,-0.006809756481707119,-0.004304435514024263,0.056554692705597646,0.019739002342255202,0.19440454504042715,0.9720483509849933,0.06669365465005477,0.005095088323965713,0.2250511049778372
1165.0333333326025,0.27057445,-0.89447606,-0.39059478,-2.6740947,0.16028708,1.8630722,0.8917232,0.04,0.04,0.011389496997327164,-0.0059806049525462646,-0.0038458690744036517,0.05632363046426792,0.020220414344822274,0.19356587202395148,0.9716332619124907,0.06725720203765707,0.004827836698814404,0.22667590324551226
1165.0499999992692,0.27251443,-0.8952665,-0.3933959,-2.6763735,0.1614369,1.8651675,0.8924815,0.04,0.04,0.011102921879491134,-0.006224759182379969,-0.0043541912353672885,0.05608250349986141,0.020694504887239368,0.1927024658091111,0.9712169163161594,0.06781934032091148,0.0045565974091933805,0.22829252278560738
1165.0666666659358,0.27444586,-0.89605343,-0.3961846,-2.6786423,0.16258173,1.8672538,0.8932367,0.04,0.04,0.011663360666069877,-0.005802435781479542,-0.003981962881627332,0.05583478579663865,0.02115538556678377,0.19181432267288878,0.9707993811914031,0.06838024565111984,0.004281704700340766,0.22990078400897276
1165.0833333326025,0.27636847,-0.8968369,-0.39896062,-2.6809003,0.16372132,1.8693306,0.8939886,0.04,0.04,0.01270091113920735,-0.005119188243082884,-0.003646863328521377,0.05557780088017917,0.021605865155411005,0.19090104857558238,0.9703807467150779,0.06893982807968115,0.004003446695303113,0.23150049443487075
1165.0999999992691,0.27828217,-0.8976167,-0.40172365,-2.6831481,0.16485567,1.8713979,0.89473665,0.04,0.04,0.011783015530086871,-0.0054299177873778914,-0.004165353846441455,0.055310983996116656,0.02204771670030445,0.18996383399492717,0.9699611253418216,0.06949768336005215,0.003721574109277129,0.233091478221239
1165.1166666659358,0.28018662,-0.8983928,-0.4044734,-2.6853852,0.1659845,1.873455,0.895481,0.04,0.04,0.012416999180064892,-0.004825670955208028,-0.004015511253707693,0.05503876388547632,0.022477956487068143,0.189001343907921,0.9695406109021746,0.0700538882631519,0.0034362334150216836,0.2346734941372145
1165.1333333326024,0.2820817,-0.899165,-0.4072095,-2.687611,0.16710773,1.875502,0.89622146,0.04,0.04,0.012966816069281961,-0.004573824748868582,-0.003750018367432162,0.054758807332416955,0.022896649872509098,0.1880155853926733,0.9691193008850083,0.07060830214357178,0.0031475621757867324,0.23624635695160348
1165.149999999269,0.2839671,-0.89993334,-0.40993166,-2.6898253,0.16822524,1.8775384,0.8969581,0.04,0.04,0.013860231399598355,-0.004047590245445654,-0.0035350959959323802,0.054471233648431774,0.023303877096888026,0.18700765889511722,0.9686972681923974,0.07116093710580998,0.0028558476698874887,0.23780994041649275
1165.1666666659357,0.2858426,-0.90069765,-0.41263947,-2.692028,0.1693369,1.8795643,0.897691,0.04,0.04,0.013239695627231818,-0.004047366160245258,-0.003748714739026937,0.054176406205249064,0.02370089777481879,0.18597440733064308,0.9682746275336498,0.07171177313525348,0.0025609292782487383,0.23936396744205576
1165.1833333326024,0.28770804,-0.9014579,-0.41533267,-2.6942189,0.17044261,1.8815795,0.89842,0.04,0.04,0.014081229570162002,-0.0036411334094071934,-0.003336520342811511,0.05387338367849399,0.024085563091941736,0.18491977072323385,0.9678514592752422,0.07226069146093778,0.0022631656503150884,0.24090832972234616
1165.199999999269,0.28956324,-0.90221393,-0.41801113,-2.6963978,0.17154221,1.8835833,0.89914495,0.04,0.04,0.013645032779674438,-0.0034352461719483474,-0.0038703903550096896,0.05356241063214045,0.024458938085227158,0.18384371053365145,0.9674278618780222,0.07280759570898637,0.0019621897001735815,0.24244285075203945
1165.2166666659357,0.29140782,-0.9029657,-0.4206742,-2.698564,0.1726356,1.8855757,0.899866,0.04,0.04,0.014953553412122567,-0.0029412953121837893,-0.0032731469782554257,0.053244201142778634,0.024817268167428436,0.18274482924602747,0.9670039423012963,0.0733524770460993,0.0016585064050480733,0.2439672909253553
1165.2333333326023,0.29324186,-0.9037131,-0.4233219,-2.7007184,0.17372261,1.8875564,0.90058297,0.04,0.04,0.013504042518008852,-0.0031666911088856775,-0.003867928107204044,0.052918025047856906,0.025163759274129477,0.18162344821123746,0.9665797961830929,0.07389518554585273,0.0013517099561374452,0.24548151059497114
1165.249999999269,0.29506505,-0.9044561,-0.4259537,-2.7028594,0.17480317,1.8895257,0.9012959,0.04,0.04,0.015994729999269097,-0.0022750805604682123,-0.002674829981308413,0.05258555943344049,0.02549271646988735,0.18048114586756192,0.9661555121706595,0.07443571703510667,0.0010426562903246878,0.2469853501719899
1165.2666666659356,0.29687697,-0.90519464,-0.4285695,-2.7049868,0.1758771,1.891483,0.9020043,0.04,0.04,0.016261591640653883,-0.0015182817731551612,-0.0026591829524358346,0.05224379021287331,0.025812885247650477,0.17931654857958057,0.9657311744391361,0.0749739456168579,0.0007314886641096629,0.2484787136142277
1165.2833333326023,0.29867762,-0.9059285,-0.4311688,-2.7071018,0.17694432,1.8934277,0.9027081,0.04,0.04,0.013881045296004757,-0.0025253744934478073,-0.004015049156746997,0.0518941899105343,0.026123328089160444,0.17813066679385287,0.9653069463303171,0.07550955057564032,0.00041731421666965055,0.24996126297318066
1165.299999999269,0.30046672,-0.90665764,-0.43375146,-2.7092035,0.17800468,1.89536,0.90340763,0.04,0.04,0.015467634518206985,-0.0015036304281929036,-0.0031641655349856634,0.05154050743655337,0.026414751789904295,0.17692536788231872,0.964882876182151,0.07604277806402615,0.00010069941039160734,0.2514329354209471
1165.3166666659356,0.30224407,-0.90738183,-0.43631715,-2.7112908,0.1790581,1.8972796,0.9041024,0.04,0.04,0.016823569442747655,-0.0008596951788203411,-0.002376871467646424,0.051179650945871666,0.026690696549578313,0.17569846245900939,0.9644590773547775,0.07657338784767997,-0.00021785923339693087,0.25289356836197796
1165.3333333326023,0.3040095,-0.9081016,-0.43886554,-2.7133641,0.18010448,1.8991864,0.90479267,0.04,0.04,0.016970212794809036,-0.0008100367802271746,-0.0027862597465233563,0.050811189011711506,0.02695544411749133,0.1744516330517701,0.9640356203264564,0.07710137354111864,-0.0005382649955602245,0.25434309743071853
1165.349999999269,0.30576277,-0.9088162,-0.4413965,-2.7154229,0.18114366,1.9010801,0.90547794,0.04,0.04,0.016897173200036697,-0.00019048080258099453,-0.0022744120319106997,0.05043555836807217,0.02720825153680577,0.17318456923308645,0.9636126305556215,0.07762660014068513,-0.0008604897319953531,0.2557812908359296
1165.3666666659356,0.30750385,-0.90952575,-0.44390956,-2.7174673,0.18217555,1.9029605,0.9061585,0.04,0.04,0.01660403751331252,-0.0004995725536249829,-0.0027279667730750745,0.05005372723878422,0.02744688918040107,0.1718977669069069,0.9631902226065281,0.0781489676007419,-0.0011846871008045572,0.2572079517717099
1165.3833333326022,0.30923232,-0.9102304,-0.44640455,-2.7194963,0.1832,1.9048275,0.9068342,0.04,0.04,0.018731618418166285,0.000784852852658835,-0.0017509769554280297,0.049665794759668314,0.02767170125374091,0.17059239348373753,0.9627684553801186,0.07866851355662015,-0.0015100662888748722,0.25862305774925753
1165.3999999992689,0.3109481,-0.9109297,-0.44888124,-2.7215104,0.18421698,1.9066806,0.90750504,0.04,0.04,0.016976097204568497,0.00040515756699610606,-0.0024766972696710354,0.04926979183750856,0.027885649968980644,0.16927000293051211,0.9623474467667641,0.07918518760567429,-0.0018372619276153612,0.2600263875724032
1165.4166666659355,0.312651,-0.9116239,-0.4513393,-2.7235098,0.18522634,1.9085199,0.9081709,0.04,0.04,0.017327750989060142,0.0006175890638893122,-0.002466607794415765,0.048867486965048015,0.028082571732920808,0.1679287529339859,0.9619272977076266,0.07969880572486596,-0.002165980508987826,0.26141783186953393
1165.4333333326022,0.31434092,-0.91231275,-0.4537785,-2.725494,0.18622793,1.9103451,0.9088315,0.04,0.04,0.017741184438735402,0.0010485952692901312,-0.0021278580435657446,0.04845917731797738,0.028265445026855768,0.1665693752588241,0.961508124997982,0.08020921702769732,-0.0024960766704107996,0.262797215867909
1165.4499999992688,0.3160175,-0.9129962,-0.45619848,-2.7274625,0.18722166,1.912156,0.9094869,0.04,0.04,0.018050081423326425,0.001465787801685492,-0.0020173876063678264,0.048045829868591745,0.02843268442483765,0.16519332761261454,0.9610900289377649,0.08071644208280837,-0.002827421728471538,0.26416437674347487
1165.4666666659355,0.3176807,-0.9136742,-0.4585991,-2.7294157,0.18820748,1.9139524,0.9101371,0.04,0.04,0.01800365730177944,0.0016192041198598295,-0.0021171460710567302,0.047626780282794795,0.02858556531798019,0.16379678080739546,0.9606730894328889,0.0812204164399015,-0.003160018994962313,0.26551925254630665
1165.4833333326021,0.3193304,-0.9143465,-0.46098003,-2.7313528,0.1891852,1.9157339,0.910782,0.04,0.04,0.018479230340728847,0.0019646631571362816,-0.0017903884321102126,0.047202365619960086,0.028721951763343426,0.16238284288912846,0.9602574341977274,0.08172095810159287,-0.003493702325761108,0.26686164789833344
1165.4999999992688,0.32096636,-0.915013,-0.4633412,-2.7332742,0.19015478,1.9175007,0.91142136,0.04,0.04,0.017898542653194127,0.002264114517419591,-0.0018709515031245516,0.046772973281129386,0.02884334883720882,0.16095262404642224,0.9598431434321678,0.08221809203455273,-0.003828519083317722,0.26819147598326365
1165.5166666659354,0.3225884,-0.91567403,-0.46568212,-2.7351785,0.19111612,1.9192526,0.9120553,0.04,0.04,0.020682644714087317,0.0031570157760257844,-0.0007195449210462002,0.046339093743258994,0.0289472853103488,0.15950620927209128,0.9594303019430318,0.08271173860690634,-0.0041635155169770345,0.26950868102654046
1165.533333332602,0.32419637,-0.91632926,-0.46800268,-2.7370663,0.1920691,1.9209893,0.9126838,0.04,0.04,0.019058327574494882,0.0030445385115235313,-0.0014587733049520324,0.045898379190964754,0.029041474091370846,0.15804240673532527,0.959019021674499,0.08320184135387745,-0.004499212705283652,0.27081308451927416
1165.5499999992687,0.32579008,-0.9169788,-0.4703027,-2.7389374,0.19301367,1.9227104,0.9133068,0.04,0.04,0.019473465913599775,0.003382553980063596,-0.0013468450604792181,0.04545301431603678,0.02911877316434578,0.15656672126934698,0.9586093764908871,0.08368835894231919,-0.004835456781790169,0.2721046494255576
1165.5666666659354,0.3273694,-0.9176227,-0.47258192,-2.7407916,0.1939497,1.9244161,0.9139241,0.04,0.04,0.02000305652696266,0.003756284428801937,-0.0010751578475520773,0.04500189631842142,0.029181982262843305,0.15507171424532912,0.9582014678276737,0.0841711438302059,-0.005171915301938619,0.2733832783681476
1165.583333332602,0.32893407,-0.9182609,-0.47484004,-2.7426283,0.19487706,1.9261059,0.9145357,0.04,0.04,0.020575270512757093,0.0042693517086134225,-0.0008150212279067759,0.044546001093725786,0.02923084828030239,0.1535628292122907,0.9577954039445509,0.08465013210100909,-0.005508415797057875,0.27464882427089155
1165.5999999992687,0.3304841,-0.9188929,-0.47707704,-2.7444477,0.19579571,1.9277799,0.9151416,0.04,0.04,0.02015665418775292,0.004501429040740246,-0.000573221114974487,0.0440848979139835,0.02926741198816163,0.15204024579085113,0.9573912630509813,0.08512537366718176,-0.005844985542213554,0.27590120756473757
1165.6166666659353,0.33201927,-0.9195189,-0.47929257,-2.7462502,0.19670555,1.9294378,0.91574174,0.04,0.04,0.019332413309802732,0.004313620246323979,-0.001269040711715519,0.04361858119595278,0.029288260332274788,0.15050209312357196,0.9569891653456973,0.08559671367092601,-0.0061819162355189255,0.27714026039415507
1165.633333332602,0.3335395,-0.92013884,-0.48148638,-2.7480347,0.19760647,1.9310795,0.9163359,0.04,0.04,0.02101197307426972,0.005101373248753149,-0.00026664057222181015,0.043148319064436245,0.029291568297357434,0.14894908284096778,0.9565892023845384,0.0860639976995985,-0.006518478246818979,0.27836593833050394
1165.6499999992686,0.3350445,-0.92075247,-0.4836583,-2.7498014,0.19849847,1.9327048,0.9169241,0.04,0.04,0.020615571227522445,0.005369334013505256,-0.0003789045435409477,0.04267408515329185,0.029282403569726542,0.14738636755165646,0.9561914541529692,0.08652731585552141,-0.006854853741273623,0.2795781421997342
1165.6666666659353,0.3365342,-0.92136,-0.48580813,-2.7515502,0.19938138,1.9343139,0.91750634,0.04,0.04,0.02092315038226822,0.00565908063649978,-0.0001460228785887807,0.04219509228803012,0.029257548354713926,0.1458079290710384,0.9557960175861759,0.08698654651203272,-0.007190670582189085,0.2807767934657257
1165.683333332602,0.3380086,-0.9219612,-0.48793566,-2.7532806,0.20025516,1.9359062,0.9180825,0.04,0.04,0.021236307757099837,0.0058759402710995,-3.917115911633573e-05,0.041712062467137274,0.029218583117883647,0.14421739768384206,0.9554029960117789,0.08744154097039582,-0.0075259970207564525,0.28196179083926054
1165.6999999992686,0.33946732,-0.9225561,-0.49004075,-2.7549932,0.20111968,1.9374815,0.9186525,0.04,0.04,0.020535729185744422,0.0061520279809934575,-0.0004358073484089786,0.04122535081725928,0.029165834234175403,0.1426144868496499,0.9550124707405255,0.08789232720125742,-0.00786089577896841,0.28313305329257493
1165.7166666659352,0.34091035,-0.9231445,-0.4921231,-2.756687,0.20197493,1.9390401,0.9192164,0.04,0.04,0.021916988989878483,0.006720017198028061,0.0006060767823612423,0.04073542058428223,0.029096482164746862,0.14100087953978968,0.9546245302194079,0.08833889478579061,-0.008194839740372875,0.28429050383899485
1165.733333332602,0.34233767,-0.9237266,-0.4941827,-2.7583628,0.20282084,1.9405817,0.91977435,0.04,0.04,0.02048491029065236,0.006360748989595044,-0.00024948970569482753,0.04024075461273312,0.029014601911116128,0.13937633110335992,0.9542392431490513,0.0887811961980927,-0.00852819599645556,0.2854341183338242
1165.7499999992685,0.34374905,-0.92430216,-0.49621928,-2.760019,0.2036573,1.9421055,0.9203258,0.039999988,0.04,0.02274004385134365,0.007522188997788337,0.0007675847229826616,0.039742716195892015,0.02891488976518046,0.13774026214456347,0.9538567278672142,0.08921895070319186,-0.008860411387778704,0.28656380554409183
1165.7666666659352,0.34514448,-0.92487127,-0.4982327,-2.7616572,0.20448418,1.9436126,0.9208711,0.03999998,0.04,0.02076525397352036,0.006984338573415294,0.00025910267791307007,0.03924217377666833,0.028803354868287258,0.13609144261767814,0.9534770657099659,0.0896522707379588,-0.009191617541290864,0.28767945648519266
1165.7833333326018,0.34652373,-0.9254337,-0.5002227,-2.7632759,0.20530151,1.9451013,0.92141014,0.039999973,0.04,0.022473144843049297,0.007801554637934527,0.0005502297177883975,0.03873831975666208,0.0286757281761236,0.13443488448844504,0.9531003415936671,0.09008104889966877,-0.009521809077071189,0.2887810219440859
1165.7999999992685,0.34788665,-0.92598957,-0.5021893,-2.7648761,0.20610918,1.9465733,0.9219428,0.039999958,0.04,0.021056530751417668,0.007820356539170459,0.0008077531715500186,0.03823290206707655,0.028532986325548015,0.13276765270053403,0.9527266141915258,0.0905053802333293,-0.009850573360733483,0.2898684890850277
1165.8166666659351,0.34923315,-0.92653877,-0.5041322,-2.7664576,0.20690711,1.9480271,0.922469,0.03999994,0.04,0.02133556771335421,0.007945290145106032,0.0002927466351332342,0.03772309779516912,0.028375888369037303,0.13109100254402528,0.9523559985958908,0.09092504917235512,-0.010178288768400925,0.2909417292331496
1165.8333333326018,0.3505633,-0.9270812,-0.50605136,-2.7680194,0.20769522,1.949464,0.92298883,0.03999994,0.04,0.022702013988484815,0.008713109176736178,0.001826877029653673,0.03721192515697194,0.028201425120874986,0.1294042328590171,0.9519885553268554,0.09134012801297874,-0.010504010431657364,0.29200074881087384
1165.8499999992684,0.3518768,-0.9276169,-0.50794655,-2.7695615,0.20847355,1.9508826,0.9235022,0.039999925,0.04,0.022741785677027337,0.00893617303419636,0.0013030089591303806,0.03669653380572487,0.028017166453792416,0.12771179385690812,0.951624358620999,0.09175052270066922,-0.010828076933899524,0.29304551594119266
1165.866666665935,0.35317364,-0.9281459,-0.50981766,-2.7710834,0.20924194,1.9522829,0.9240091,0.039999917,0.04,0.023592099849500947,0.009465624932020189,0.0018294241391769717,0.03617790937510195,0.027819031489341367,0.1260066349603726,0.951263489502402,0.0921561421314944,-0.011150078081449485,0.294076001683121
1165.8833333326018,0.3544537,-0.9286681,-0.51166457,-2.7725856,0.2100004,1.9536653,0.92450935,0.03999991,0.04,0.02237853538518131,0.009271408116365287,0.001476814081624589,0.035656549810938826,0.02760980922442067,0.12429705353681209,0.9509060297742296,0.09255694464382473,-0.011470171850455445,0.29509213763659153
1165.8999999992684,0.35571703,-0.9291834,-0.5134872,-2.774068,0.21074891,1.9550294,0.925003,0.039999902,0.04,0.022631496642722126,0.009481385397777653,0.0016293134217804095,0.035133260212153586,0.027386607634281794,0.12258124463613324,0.9505520420630679,0.0929528637559172,-0.011788291850840543,0.2960939320968011
1165.916666665935,0.3569634,-0.9296917,-0.5152853,-2.775531,0.21148735,1.9563751,0.9254901,0.03999989,0.04,0.02196513525565269,0.009541251334285739,0.001447710561830462,0.034608512674261634,0.027150655427745453,0.12085734383327054,0.9502016434961857,0.09334389461099125,-0.012104572274328802,0.29708118985566134
1165.9333333326017,0.35819268,-0.9301931,-0.51705885,-2.776974,0.2122157,1.9577025,0.9259705,0.039999887,0.04,0.023023715876813178,0.010183775648714422,0.0019835285845815065,0.034081834292150046,0.026899106965705667,0.11912774626815895,0.9498548643324077,0.09372999867844538,-0.012418526543444693,0.2980540290791107
1165.9499999992684,0.35940492,-0.9306877,-0.51880765,-2.778396,0.21293394,1.9590116,0.92644435,0.039999876,0.04,0.024502928851921624,0.010850179996668707,0.002965572493973667,0.033553618653562836,0.026635539392121405,0.11739101556113664,0.9495117658507125,0.09411119558573366,-0.012729629582635809,0.2990124510905432
1165.966666665935,0.36059988,-0.9311753,-0.52053195,-2.7797985,0.21364199,1.9603018,0.9269113,0.03999987,0.04,0.021406990579175833,0.010262389051851617,0.0012472506449645593,0.03302174838777032,0.026363837911700154,0.11565005506063714,0.9491724236570789,0.09448734367298207,-0.013038848230493992,0.29995639765037985
1165.9833333326017,0.3617777,-0.9316558,-0.5222312,-2.781181,0.21433981,1.9615734,0.9273717,0.03999986,0.04,0.022705160820479797,0.010431424275844647,0.002122720545738588,0.03249033862897604,0.026073916807501873,0.11390328989666448,0.9488369412282025,0.09485841928757614,-0.013345661914152814,0.3008857466864192
1165.9999999992683,0.36293828,-0.9321292,-0.52390546,-2.782543,0.21502736,1.9628265,0.9278252,0.03999985,0.04,0.023722698359107675,0.01122542626157963,0.0030090291028850302,0.03195748403994137,0.02577193501013604,0.11215062972389471,0.9485053746735311,0.09522437101705555,-0.013649566672599964,0.30180053464081324
1166.016666665935,0.36408153,-0.93259543,-0.52555484,-2.783884,0.21570463,1.9640609,0.92827207,0.03999984,0.04,0.02359361327288756,0.011607551002879024,0.002979251453938403,0.031423544958374613,0.025459802042182247,0.11039624228046652,0.9481777368033872,0.09558534278794656,-0.0139506157233418,0.30270084571315103
1166.0333333326016,0.36520728,-0.93305475,-0.5271791,-2.7852051,0.21637158,1.9652764,0.92871207,0.039999828,0.04,0.022649351409387286,0.011255606574078758,0.002217011833116622,0.030886762496902476,0.025136706154280278,0.108636680140183,0.9478541208590894,0.09594111198308056,-0.014249019811186748,0.3035866170243895
1166.0499999992683,0.36631566,-0.933507,-0.52877814,-2.7865052,0.21702819,1.9664731,0.9291452,0.039999824,0.04,0.02412448749486984,0.011867759972325476,0.003374245372911311,0.03035002386005798,0.02480088653287576,0.10687497114754077,0.9475345919403635,0.09629164889492677,-0.014544167353517058,0.3044578503266057
1166.066666665935,0.36740652,-0.93395215,-0.5303518,-2.7877853,0.21767445,1.9676512,0.9295716,0.039999813,0.04,0.02249066513786424,0.011523852268935375,0.002697280490360221,0.029811676688363833,0.024456823732664085,0.10510941596700257,0.9472192111372134,0.0966370306102592,-0.014836433535949767,0.30531447821444685
1166.0833333326016,0.36847982,-0.9343902,-0.53190017,-2.7890444,0.21831027,1.9688103,0.92999107,0.039999805,0.04,0.023900621017514112,0.012307707060810191,0.003349531120067084,0.029272867355321835,0.02409986494016267,0.10334311891917078,0.946908036936001,0.09697709407663477,-0.015125421650542778,0.3061565521597631
1166.0999999992682,0.36953554,-0.93482107,-0.5334234,-2.7902834,0.21893574,1.9699507,0.93040365,0.03999979,0.04,0.02236258773857802,0.012044966478944041,0.0028551062398296523,0.028733831921493723,0.023734596390858953,0.10157534676346482,0.9466010683059665,0.09731200066204929,-0.015411420861458408,0.30698416916216287
1166.1166666659349,0.37057376,-0.9352446,-0.53492093,-2.7915018,0.21955076,1.9710716,0.93080956,0.039999787,0.04,0.02321584160933643,0.012014710370925052,0.0030440938751707947,0.028193305525288134,0.023356860209575635,0.09980385219695363,0.9462984651461331,0.09764150189312011,-0.01569439520556678,0.3077970726456961
1166.1333333326015,0.37159443,-0.93566096,-0.53639317,-2.7926996,0.22015528,1.9721738,0.93120855,0.039999772,0.04,0.023004886246758005,0.012584943839494267,0.0034941402581312175,0.027655105087528754,0.022966837443157653,0.09803189520582001,0.9460002013427057,0.097965724837572,-0.015973987519508376,0.30859547556523914
1166.1499999992682,0.37259746,-0.9360702,-0.53784,-2.7938762,0.2207494,1.9732571,0.9316006,0.03999977,0.04,0.02423678733589618,0.01315551568461526,0.0040959630251524715,0.027116404163174762,0.02256669414417746,0.09626284518386748,0.9457063074131136,0.09828462797858538,-0.01624980678252551,0.3093794689401598
1166.1666666659348,0.3735828,-0.93647224,-0.53926134,-2.7950325,0.22133306,1.9743208,0.9319857,0.03999976,0.04,0.022432146867035208,0.012464871180103976,0.0028550567468199617,0.026576759397592964,0.022159461133050555,0.09449206735287252,0.945416872931443,0.09859806989080981,-0.016522575516421025,0.3101489343664471
1166.1833333326015,0.3745504,-0.93686706,-0.54065716,-2.7961676,0.22190626,1.9753658,0.9323639,0.039999753,0.04,0.024132907026941375,0.013564727089401818,0.00449086752165595,0.026039221579788635,0.02174004038208984,0.09272196777081561,0.9451319040091507,0.09890628452072477,-0.0167913494175957,0.31090397471096975
1166.1999999992681,0.37550044,-0.9372547,-0.5420274,-2.797282,0.22246896,1.9763914,0.9327352,0.039999742,0.04,0.023259454974056126,0.012994931379262109,0.0036604054823197174,0.025499754944134236,0.021314578560424194,0.09095373320367117,0.9448514860641519,0.0992089494183889,-0.017056555764978866,0.311644553206212
1166.2166666659348,0.37643272,-0.93763524,-0.5433721,-2.7983754,0.22302121,1.977398,0.9330998,0.039999735,0.04,0.02369393457615221,0.01355287730289978,0.0041939142518820915,0.024963294450620573,0.020878856955766648,0.08918643183828331,0.9445756150223088,0.09950635041125072,-0.017317913037280662,0.3123707470636356
1166.2333333326014,0.37734735,-0.93800867,-0.54469144,-2.7994485,0.22356302,1.9783852,0.93345743,0.03999973,0.04,0.022454343981181957,0.013145829911057061,0.0033482733643674933,0.024424917503425778,0.020436473333066047,0.0874220206864251,0.9443043282488391,0.09979824922567959,-0.017575842292820845,0.3130826326542178
1166.249999999268,0.37824437,-0.93837476,-0.54598516,-2.8005006,0.22409433,1.9793537,0.9338079,0.039999727,0.04,0.023545189387985666,0.013718554243641323,0.004637950302410765,0.023889592675483268,0.019983319114876948,0.08565810704639308,0.9440377136392765,0.10008461751473123,-0.017829632683133815,0.3137801280547288
1166.2666666659347,0.37912375,-0.93873364,-0.5472536,-2.8015325,0.22461516,1.9803032,0.9341516,0.03999972,0.04,0.022373179709078705,0.013575923693370795,0.0039026084334148337,0.023355465894240854,0.01952426576089427,0.08389989171536284,0.9437757444947318,0.10036564541545218,-0.01807971551184472,0.31446336068096287
1166.2833333326014,0.37998554,-0.9390854,-0.5484965,-2.8025436,0.22512557,1.9812336,0.93448824,0.039999712,0.04,0.0232919499833395,0.01370879715168194,0.0043222774281703735,0.02282202251291251,0.01905674192392031,0.08214286569812712,0.9435184907869726,0.1006410873953407,-0.018325750439397,0.3151323467081569
1166.299999999268,0.38082963,-0.93943,-0.54971397,-2.803534,0.22562559,1.9821452,0.934818,0.03999971,0.04,0.023172964794238027,0.01412486175442762,0.004634910458833907,0.022291441437915623,0.018582460998089988,0.08038972374131614,0.943265942673339,0.10091118948528309,-0.018567638450496794,0.3157871688837503
1166.3166666659347,0.38165614,-0.9397673,-0.5509061,-2.8045037,0.22611515,1.9830378,0.9351411,0.039999697,0.04,0.023019372430610474,0.014163598095662255,0.0046302845843504414,0.021760895368772112,0.018102401206584115,0.07863980902033897,0.9430181416216106,0.10117593602616662,-0.018805435936528028,0.31642782766531485
1166.3333333326013,0.3824651,-0.9400976,-0.5520729,-2.8054526,0.22659433,1.9839113,0.9354573,0.03999969,0.04,0.023225106519775274,0.014127080100784228,0.004520833874255281,0.021230821889798093,0.017615738077711256,0.07689615328008804,0.9427751161046388,0.10143516569838876,-0.01903908244082781,0.3170544132375962
1166.349999999268,0.38325658,-0.94042057,-0.55321455,-2.806381,0.22706309,1.9847659,0.9357667,0.039999682,0.04,0.022587593266987227,0.014274152654444872,0.004674057617548577,0.02070303956370558,0.017124126637506065,0.07515558987358542,0.9425368704528746,0.10168902183994949,-0.019268613667240187,0.3176669816041289
1166.3666666659346,0.38403055,-0.9407365,-0.5543309,-2.8072891,0.22752157,1.9856014,0.93606925,0.039999675,0.04,0.022413973433077494,0.014007250566364093,0.004328489650706757,0.02017755482592798,0.01662451417229386,0.07342307019424954,0.9423034484259732,0.10193736297755293,-0.019494098887135606,0.31826555770657966
1166.3833333326013,0.38478726,-0.94104564,-0.55542225,-2.808177,0.22796972,1.9864182,0.9363649,0.039999668,0.04,0.022761332583520755,0.01418710657357658,0.0046499916629194615,0.01965480175401584,0.01611922471526045,0.07169820843764202,0.942074826864917,0.10218013237612056,-0.019715223799420083,0.31885035845294873
1166.399999999268,0.38552654,-0.94134736,-0.5564886,-2.8090444,0.2284076,1.9872165,0.93665385,0.039999668,0.04,0.022428672572982755,0.014597973161753486,0.005118895261269074,0.019135287269796734,0.015610286185103801,0.06997840497606579,0.9418510434168803,0.10241764841418735,-0.01993206782947424,0.31942127352429545
1166.4166666659346,0.3862485,-0.9416422,-0.5575299,-2.8098907,0.22883523,1.9879957,0.93693596,0.03999966,0.04,0.023683507518534874,0.014886147381790171,0.005354637207832802,0.018617171439691764,0.015094982010077317,0.06826650696159803,0.941632099256933,0.1026496592931317,-0.020144259054808447,0.3199785085331795
1166.4333333326013,0.38695338,-0.94192994,-0.5585465,-2.8107178,0.22925264,1.9887567,0.93721145,0.039999656,0.04,0.020841140937433167,0.01377109317914349,0.004246464202473099,0.018100498525968,0.014579960781443912,0.0665621078952904,0.9414180214927758,0.10287626864008066,-0.020352506037991346,0.32052200807010905
1166.449999999268,0.38764095,-0.94221073,-0.5595381,-2.8115244,0.2296599,1.9894987,0.9374802,0.039999645,0.04,0.022882053776362987,0.014760637622004968,0.005146253664611855,0.01758872304530955,0.01405633448559479,0.06486678915229326,0.9412088127558615,0.10309745062450638,-0.020556235049915585,0.3210519080553823
1166.4666666659346,0.38831145,-0.9424846,-0.56050533,-2.812311,0.23005709,1.990223,0.9377424,0.03999965,0.04,0.022289163295652337,0.014807308683295606,0.005561939780940328,0.017079508372436644,0.013530224332384953,0.0631816799014458,0.9410044099586937,0.10331347776655393,-0.02075523938725207,0.32156841540805664
