rsonawane2002/My_IMU/logs_2/traj_421/clean_421.csv
time,j1,j2,j3,j4,j5,j6,j7,gripper1,gripper2,imu_ax,imu_ay,imu_az,imu_gx,imu_gy,imu_gz,quat_x,quat_y,quat_z,quat_w
1879.5333333319527,0.00016700293,-0.785875,4.0107683e-05,-2.3551247,9.29385e-05,1.570997,0.786,0.04,0.04,0.0,-0.0,0.0,2.875329272945135e-08,-0.0011641195053377316,4.421952117202833e-08,0.9999995971961153,0.00020320632366974898,0.0008736418299892524,3.263050917662294e-05
1879.5499999986193,0.00016700859,-0.78576016,4.011585e-05,-2.3552213,9.2966904e-05,1.5709941,0.786,0.04,0.04,-0.29199846046941147,-3.4567872949438534e-05,0.020128408200803527,9.81154562664989e-08,-0.0022400336688063833,-3.769483378305288e-07,0.9999996850592815,0.00020320535194205585,0.0007665025203093471,3.260075293982003e-05
1879.566666665286,0.00016703433,-0.7856543,4.0132138e-05,-2.35531,9.294357e-05,1.5709913,0.786,0.04,0.04,0.02332872216783688,6.554456533433431e-06,-0.0016704358386521179,1.8025179155833376e-07,-0.0032394641196339656,-3.516510214515966e-06,0.9999997558504597,0.00020319109467541266,0.0006677972675353621,3.2545497119217584e-05
1879.5833333319526,0.00016711399,-0.78555703,4.0170864e-05,-2.355391,9.2788476e-05,1.5709884,0.786,0.04,0.04,0.022460738375995604,1.1841359605504293e-05,-0.0015248968098235949,9.474310019763797e-07,-0.004179539188266196,-1.1866852129578602e-05,0.9999998122622961,0.00020314159334333247,0.0005771982660796332,3.2419553304718194e-05
1879.5999999986193,0.00016729662,-0.78546774,4.0252704e-05,-2.3554645,9.238666e-05,1.5709856,0.786,0.04,0.04,0.021800535009819377,1.877742562362357e-05,-0.0011732879979575728,2.097308835233527e-06,-0.0050711610026255285,-2.7676519151287515e-05,0.9999998566539432,0.00020302502000799568,0.0004944075195282138,3.215803060105743e-05
1879.616666665286,0.0001676447,-0.7853861,4.040384e-05,-2.3555312,9.159256e-05,1.570986,0.786,0.04,0.04,0.020842558092826202,2.689359122332296e-05,0.0011015122012514311,4.535783197958625e-06,-0.005925472391429928,-5.297057958643794e-05,0.9999998905498934,0.00020280094981246153,0.000420438339567194,3.167930697358468e-05
1879.6333333319526,0.00016823312,-0.78531164,4.0655672e-05,-2.3555906,9.023202e-05,1.5709869,0.7860003,0.04,0.04,0.020649279020679145,3.701149562166631e-05,-0.0005519502331186033,8.722510663999757e-06,-0.006743178840755212,-8.956610886776887e-05,0.9999999163656296,0.00020256976192667357,0.0003539496562705396,3.0884727096322235e-05
1879.6499999986193,0.00016914765,-0.7852441,4.1044124e-05,-2.3556466,8.8105524e-05,1.5709878,0.7860022,0.04,0.04,0.013354819907940296,4.8949942334371947e-05,-0.002365181846974984,1.3843276639149396e-05,-0.0075419544662029955,-0.00013909031161448386,0.9999999361484396,0.0002029316025280341,0.0002926467167461946,2.9661092643663438e-05
1879.666666665286,0.00017048369,-0.78518313,4.1608975e-05,-2.3556967,8.5002284e-05,1.5709918,0.7860041,0.04,0.039999995,0.018323666812869455,5.2783781156025755e-05,0.001148813872831056,1.42332908683364e-05,-0.008354660780015897,-0.0002022253219294119,0.9999999504198965,0.00020301995680685142,0.00023909259518439533,2.7889650096988533e-05
1879.6833333319526,0.00017234564,-0.7851286,4.2394044e-05,-2.3557396,8.0661375e-05,1.5709964,0.7860063,0.04,0.04,0.019498333270573376,8.011077856392274e-05,6.926883306945797e-05,1.857042609023187e-05,-0.009162307210786154,-0.00028259841734308913,0.9999999605304263,0.00020288621145063594,0.00019269130395029542,2.542425194018979e-05
1879.6999999986192,0.00017484509,-0.7850804,4.3445747e-05,-2.3557763,7.4843956e-05,1.5710039,0.7860101,0.04,0.039999995,0.01842545250954064,7.965088587992921e-05,0.00131454974265921,2.5731887928756646e-05,-0.009981380628947316,-0.0003782133873518189,0.9999999672606131,0.0002031733930348099,0.00015397933061436883,2.2129406516516607e-05
1879.7166666652859,0.00017810074,-0.7850384,4.481378e-05,-2.3558085,6.726507e-05,1.5710125,0.78601503,0.04,0.039999995,0.01495585166970681,0.0001024543513648119,-0.0007268833045470657,3.055067215481809e-05,-0.010812187745922864,-0.0004924515915190673,0.9999999717827484,0.00020353630059278673,0.00012119842847508876,1.7844266400032873e-05
1879.7333333319525,0.00018223714,-0.7850025,4.6550125e-05,-2.3558352,5.763699e-05,1.5710248,0.78602076,0.04,0.039999995,0.01720984213318122,0.00011712883009906716,0.0017596415704534962,3.58745073333764e-05,-0.011678069062740298,-0.0006253786192641142,0.9999999745604963,0.00020371538499605035,9.604742532743467e-05,1.240728239532338e-05
1879.7499999986192,0.000187384,-0.7849729,4.8708956e-05,-2.3558547,4.565789e-05,1.5710409,0.7860284,0.04,0.039999995,0.020281005459232837,0.00013417550481496267,0.002498683289275938,4.461049319891383e-05,-0.01257341642515325,-0.0007777504899932688,0.9999999759757937,0.00020419274592525062,7.95099001058045e-05,5.648923373182933e-06
1879.7666666652858,0.00019367549,-0.78494954,5.134636e-05,-2.3558676,3.102028e-05,1.5710608,0.7860379,0.04,0.039999995,0.019470648411368252,0.00014848624947993777,0.0022878844297080647,5.2039676556162474e-05,-0.013494357072140063,-0.000950238103146881,0.9999999764631785,0.00020488139016451882,7.134756954554574e-05,-2.604369491723526e-06
1879.7833333319525,0.00020124973,-0.7849325,5.4519878e-05,-2.355875,1.3396237e-05,1.5710845,0.78604937,0.04,0.04,0.017511114820578655,0.00017201771295834926,0.0017216388382923498,5.9523700669215484e-05,-0.014452716447188695,-0.0011441575059246293,0.999999976246742,0.0002056918614518307,7.099435272920074e-05,-1.2536967319999347e-05
1879.7999999986191,0.0002102477,-0.78492177,5.8288417e-05,-2.3558762,-7.531345e-06,1.5711122,0.7860627,0.04,0.04,0.018765086163541334,0.00018226296879370572,0.0021322471784213093,6.764597474935563e-05,-0.015457012799071128,-0.001358453677702459,0.9999999752661313,0.00020653277038380394,7.886767109018508e-05,-2.4327802910993936e-05
1879.8166666652858,0.00022081338,-0.7849176,6.2712104e-05,-2.355871,-3.2094744e-05,1.5711439,0.786078,0.039999995,0.039999995,0.01947272467313077,0.00019903400050552515,0.002193288050178488,7.758045188705257e-05,-0.01651272062027506,-0.0015942354500392904,0.9999999732450875,0.0002073108346049352,9.526577334397248e-05,-3.816378565929098e-05
1879.8333333319524,0.00023309291,-0.78491986,6.785186e-05,-2.3558593,-6.0631748e-05,1.571182,0.7860955,0.03999999,0.03999999,0.020098265231482948,0.0002158781509642904,0.004036801282247815,8.998847844964757e-05,-0.017624153879059096,-0.0018518056279133032,0.9999999695149503,0.00020811018879714693,0.00012132142283409646,-5.4234309574159957e-05
1879.849999998619,0.0002472341,-0.78492904,7.376945e-05,-2.35584,-9.348364e-05,1.5712253,0.7861159,0.03999999,0.03999999,0.022238019017439825,0.00023292155552831202,0.0033225000394931925,0.0001044771526609754,-0.01878549417504354,-0.0021314817282208787,0.9999999631286681,0.00020913316636972983,0.00015721377610468154,-7.273107839150621e-05
1879.8666666652857,0.00026338597,-0.78494525,8.052706e-05,-2.355813,-0.00013099484,1.5712755,0.78613913,0.03999999,0.03999999,0.022939867245375112,0.0002496067616145211,0.0045845050485882055,0.00011930473613653778,-0.020002389652712272,-0.002433396538602729,0.9999999526998739,0.00021028326846222271,0.0002038969016494031,-9.384695234927273e-05
1879.8833333319524,0.0002816987,-0.7849688,8.818738e-05,-2.3557775,-0.000173512,1.5713325,0.78616536,0.039999988,0.039999988,0.024856547692730935,0.0002660572556865504,0.0047500260415000994,0.00013523278267788745,-0.02127256579546059,-0.002757650762873513,0.9999999363877878,0.00021152297006299294,0.000261937511152291,-0.00011777603209489294
1879.899999998619,0.0003023228,-0.7849997,9.6813266e-05,-2.3557336,-0.0002213833,1.5713968,0.786195,0.039999984,0.039999984,0.02471152302085944,0.0002828175285079116,0.005047702791549646,0.00015304888523212548,-0.02259811719458334,-0.003104301871761816,0.9999999118913399,0.00021296354953070725,0.0003315447904504902,-0.00014471313319017442
1879.9166666652857,0.00032540932,-0.7850384,0.00010646775,-2.3556814,-0.00027495713,1.5714688,0.78622824,0.03999998,0.03999998,0.025188883894688985,0.0002985563057448159,0.005015388447349167,0.00017136978797767074,-0.023981236565508504,-0.003473350406060063,0.9999998763892385,0.00021462659110295704,0.00041301742487313874,-0.00017485291130401787
1879.9333333319523,0.00035110893,-0.7850849,0.00011721377,-2.3556201,-0.0003345818,1.571549,0.78626525,0.03999998,0.03999998,0.02666728151401454,0.0003140273649807296,0.0057368724994510956,0.00019075693869725495,-0.02542542588644548,-0.0038647442045714325,0.9999998263107238,0.000216474383618889,0.0005070416290395916,-0.00020838941819700086
1879.949999998619,0.00037957248,-0.7851396,0.00012911424,-2.35555,-0.00040060526,1.5716381,0.7863062,0.03999998,0.03999998,0.026921674426150233,0.0003288640477547354,0.005826597244884546,0.0002109627245323589,-0.02693109828419468,-0.004278393579306165,0.9999997574884292,0.00021849897189929335,0.0006140057179766094,-0.00024551631393633465
1879.9666666652856,0.0004109497,-0.78520274,0.00014223186,-2.3554707,-0.00047337395,1.5717365,0.78635126,0.039999977,0.039999977,0.028092097240617342,0.0003432311889220224,0.006280670329217308,0.00023259402953103086,-0.02849932545912266,-0.004714156306232698,0.999999664899125,0.00022069312339991447,0.0007344769530286783,-0.00028642588689816595
1879.9833333319523,0.00044539,-0.7852744,0.00015662877,-2.3553808,-0.00055323256,1.5718443,0.7864007,0.039999973,0.039999973,0.03033885806560388,0.0003565031767575194,0.006907981578763156,0.0002557206527407526,-0.030130889585605104,-0.005171864891350819,0.9999995424532454,0.00022307996376089932,0.0008692313672319192,-0.00033130870750862227
1879.999999998619,0.0004830417,-0.78535515,0.000172367,-2.3552809,-0.00064052345,1.5719622,0.7864546,0.039999973,0.039999973,0.03035340930861441,0.0003693671974613574,0.006693354890741077,0.000280151454628081,-0.03182399556215613,-0.0056513069241512755,0.999999383464789,0.00022565341469110036,0.0010185683105797102,-0.0003803540125063872
1880.0166666652856,0.0005240519,-0.7854452,0.00018950796,-2.355171,-0.00073558674,1.5720906,0.78651357,0.03999997,0.03999997,0.030719203439200093,0.00038160006381409805,0.0069262474583720035,0.00030625995030404045,-0.033581684053999236,-0.006152245121655651,0.9999991802831306,0.00022855725571683416,0.0011828171743325222,-0.0004337489825016284
1880.0333333319522,0.0005685664,-0.78554475,0.0002081126,-2.355049,-0.0008387588,1.5722301,0.7865775,0.03999997,0.03999997,0.03477478107711818,0.00039099418865559655,0.00820137047534697,0.0003325253314773839,-0.035406604211846486,-0.006674397488005202,0.9999989227998781,0.00023169812410467954,0.0013634399419746033,-0.0004916773203266439
1880.049999998619,0.0006167291,-0.7856542,0.00022824097,-2.3549166,-0.0009503733,1.5723811,0.78664666,0.039999966,0.039999966,0.03216581654970074,0.0004029219954364955,0.0074414444484416364,0.0003601596355237071,-0.03728783906344178,-0.0072174709256200426,0.9999986020391287,0.00023507284546092318,0.0015599318804330156,-0.0005543221750949595
1880.0666666652855,0.0006686832,-0.7857736,0.00024995283,-2.3547719,-0.0010707597,1.5725439,0.7867213,0.039999966,0.039999966,0.035943449346276246,0.00040977228668807723,0.008421242526712724,0.0003893048112526207,-0.039236468280505685,-0.007781124874374467,0.9999982055683538,0.00023873916061847733,0.0017734574411371767,-0.0006218620347111272
1880.0833333319522,0.0007245694,-0.7859034,0.00027330703,-2.3546164,-0.0012002438,1.572719,0.7868015,0.039999966,0.039999966,0.033886778704284026,0.0004187679117390367,0.007905545614139697,0.0004192795594058357,-0.04124740883871752,-0.008365014054998043,0.9999977218385353,0.00024266631167039706,0.0020037805586932507,-0.0006944740981230983
1880.0999999986188,0.000784527,-0.78604394,0.00029836159,-2.3544474,-0.0013391469,1.572907,0.7868876,0.039999966,0.039999966,0.039266753972966306,0.0004228260784295201,0.009323015650686273,0.00045081270043379005,-0.043325240127147814,-0.00896874628183766,0.9999971338952915,0.0002468853623375519,0.002252721810743536,-0.000772329763514467
1880.1166666652855,0.00084869296,-0.78619546,0.00032517384,-2.3542657,-0.0014877853,1.5731082,0.7869796,0.03999996,0.03999996,0.03805586253584625,0.00042808086538196396,0.008985864124189114,0.00048350277462776755,-0.04545917337418332,-0.009591949381149477,0.9999964269103292,0.0002513683911717983,0.0025201052483536605,-0.0008555992307308712
1880.1333333319521,0.00091720256,-0.7863582,0.00035380013,-2.3540716,-0.0016464714,1.5733228,0.7870779,0.03999996,0.03999996,0.03798825615035639,0.00043240745541800983,0.008786048958775439,0.0005175289362019681,-0.04765683291812012,-0.010234174490752968,0.9999955843841428,0.0002561785411817292,0.002805993697726002,-0.0009444491199946507
1880.1499999986188,0.0009901886,-0.78653234,0.00038429606,-2.3538637,-0.0018155123,1.5735518,0.7871827,0.03999996,0.03999996,0.04107162546322929,0.0004319403482348034,0.010028473066570065,0.0005528059287378826,-0.04991929094428621,-0.010895000615615935,0.9999945845008763,0.0002613509342325024,0.003111761567279302,-0.0010390402096721887
1880.1666666652854,0.0010677816,-0.7867184,0.00041671624,-2.3536417,-0.0019952096,1.5737952,0.787294,0.03999996,0.03999996,0.042050197041598736,0.0004323999952236335,0.009802640835854248,0.0005889814166893754,-0.052238344860274954,-0.011573959116891694,0.9999934059888491,0.00026680336232013334,0.003437770178383048,-0.0011395310382960341
1880.183333331952,0.0011501102,-0.7869167,0.00045111447,-2.3534055,-0.0021858606,1.5740535,0.787412,0.03999996,0.03999996,0.04292211558996062,0.00043062443000690346,0.01006184914287278,0.000626792136225838,-0.05461564244064417,-0.012270576774219085,0.9999920252451668,0.0002725740396185265,0.003784500499777003,-0.001246076012854381
1880.1999999986188,0.0012373003,-0.7871272,0.00048754303,-2.353155,-0.0023877558,1.574327,0.787537,0.03999996,0.03999996,0.0431833596845177,0.0004272438382503735,0.01010185847731826,0.0006661908216723245,-0.05705145247203594,-0.01298437423696399,0.99999041779792,0.0002787030658758105,0.004152135829918632,-0.0013588248572465667
1880.2166666652854,0.0013294758,-0.7873504,0.00052605383,-2.3528898,-0.002601182,1.5746158,0.7876692,0.03999996,0.03999996,0.04418499438030299,0.000423085484070238,0.010070095125969125,0.0007067913803694087,-0.0595456126363558,-0.013714848102739268,0.9999885562041817,0.00028523242768341067,0.004541128056632481,-0.0014779239193763844
1880.233333331952,0.0014267574,-0.78758645,0.0005666975,-2.3526092,-0.002826418,1.574921,0.7878087,0.03999996,0.03999996,0.04631219392501329,0.0004124314845602812,0.011046546940574054,0.0007482712337422079,-0.06210105427371515,-0.014461551748847801,0.9999864080004351,0.0002921461934146881,0.004952495587021995,-0.0016035125348762872
1880.2499999986187,0.0015292643,-0.7878359,0.00060952397,-2.3523128,-0.003063739,1.5752425,0.78795576,0.03999996,0.039999966,0.0474461818885441,0.000404109054509506,0.010718785574526102,0.0007911305747169677,-0.06470808268330909,-0.015225523576395167,0.9999839405975108,0.00029946044454261125,0.005386661207654157,-0.0017357279596888575
1880.2666666652854,0.0016371132,-0.78809875,0.0006545812,-2.352001,-0.0033134124,1.5755806,0.78811044,0.03999996,0.039999966,0.04718827445833185,0.0003924847518671764,0.010696732612469617,0.0008352904047966431,-0.06736861847630032,-0.016002869987758392,0.9999811213823837,0.00030716250398912174,0.005843630813966758,-0.001874702359461975
1880.283333331952,0.001750417,-0.7883754,0.00070191687,-2.3516736,-0.0035757027,1.5759357,0.7882729,0.03999996,0.039999984,0.04781547933256913,0.0003810416591092493,0.01074346255438563,0.0008804221352230589,-0.07008635177159907,-0.01680000315211176,0.9999779133180767,0.0003152719714906369,0.006323827978684231,-0.0020205641056359135
1880.2999999986187,0.0018692869,-0.7886659,0.0007515775,-2.3513305,-0.0038508638,1.5763086,0.7884434,0.03999996,0.039999988,0.04866868228745602,0.0003621570295672758,0.01120102314100535,0.0009272948340779998,-0.0728602946831935,-0.017606638258876726,0.9999742759367162,0.0003238097542967199,0.006827795888421297,-0.0021734340084845413
1880.3166666652853,0.0019938305,-0.78897065,0.00080360804,-2.35097,-0.004139148,1.5766991,0.7886219,0.03999996,0.03999999,0.05196227381396579,0.0003449428890077953,0.011511233296368495,0.0009753394492828561,-0.07568662147891511,-0.018425875208325757,0.9999701627393042,0.00033274182230278414,0.00735649523549436,-0.0023334292060066836
1880.333333331952,0.0021241554,-0.7892898,0.00085805316,-2.350592,-0.0044407924,1.5771077,0.7888088,0.03999996,0.04,0.052712627804707424,0.0003157646710213102,0.011682302631066399,0.001025054465381526,-0.07856272948046635,-0.019258760619134375,0.9999655278622851,0.0003421821134565794,0.007910291431248601,-0.0025006575086334135
1880.3499999986186,0.0022603625,-0.78962374,0.0009149557,-2.3501976,-0.004756043,1.5775347,0.7890041,0.03999996,0.04,0.05105389000559235,0.0003050447876401432,0.011009107182879951,0.001075565663552703,-0.08148648829714883,-0.02010309199962473,0.99996032764264,0.00035203860904385766,0.008488953825379638,-0.002675233184699999
1880.3666666652853,0.0024025533,-0.78997254,0.00097435754,-2.3497853,-0.0050851125,1.5779805,0.789208,0.03999996,0.04,0.054127196337616645,0.0002597271947891739,0.011849174002187546,0.0011279273947058348,-0.0844628372510311,-0.020959136472844205,0.9999545054618901,0.0003624009165962618,0.00909350424714306,-0.0028572456228946786
1880.383333331952,0.0025508262,-0.79033643,0.0010363,-2.3493547,-0.00542826,1.5784456,0.7894206,0.03999996,0.04,0.05543724099197345,0.00025471997478218947,0.012025569348117493,0.0011810243491861636,-0.08748535375572838,-0.021826174692549695,0.9999480046401336,0.00037324092221041036,0.009724487920404016,-0.0030468085130948325
1880.3999999986186,0.0027052758,-0.79071575,0.0011008221,-2.348907,-0.0057856836,1.5789299,0.7896421,0.03999996,0.04,0.05395291697987137,0.00021327580328168137,0.011236420599569641,0.001235878984763017,-0.0905511048021688,-0.02270367108065226,0.9999407741495575,0.0003845914487410742,0.010381556555813255,-0.0032440046361923093
1880.4166666652852,0.0028659939,-0.7911107,0.001167963,-2.34844,-0.006157591,1.5794337,0.7898725,0.03999996,0.04,0.05798486071735276,0.0001717877308057402,0.011961021970874341,0.001291907129375016,-0.09366763350476814,-0.023591005433342662,0.9999327441207528,0.0003964313872131462,0.011065941572460469,-0.0034489149614544794
1880.4333333319519,0.0030330708,-0.79152155,0.0012377603,-2.347955,-0.0065442,1.5799575,0.790112,0.03999996,0.04,0.0561973246721692,0.00014597062872575076,0.01143976064696961,0.0013496357910949986,-0.0968242450161901,-0.02448767121306459,0.999923856398113,0.00040876595607866,0.011777384914324696,-0.0036616281759744036
1880.4499999986185,0.003206594,-0.79194826,0.0013102498,-2.3474507,-0.006945709,1.5805014,0.7903609,0.03999996,0.04,0.05875667168988574,0.00010294054138206173,0.011976559891024863,0.0014087317064239036,-0.10002678663157924,-0.025393687474035975,0.999914038408741,0.0004217259039733454,0.01251664260319365,-0.00388221564681467
1880.4666666652852,0.0033866467,-0.79239124,0.001385467,-2.346928,-0.0073623126,1.581066,0.790619,0.039999958,0.04,0.05829931432430602,6.306811248949287e-05,0.011581169840724215,0.0014686225253221427,-0.10326907421069258,-0.02630770979294848,0.9999032216463093,0.0004351435085585902,0.01328381437201642,-0.0041107501977636724
1880.4833333319518,0.0035733108,-0.79285055,0.0014634466,-2.3463855,-0.0077942037,1.5816511,0.7908866,0.039999954,0.04,0.06011010391078209,2.161879018225052e-05,0.01164641322641824,0.001530644903917305,-0.1065542972431969,-0.027229029937882895,0.9998913295660645,0.0004491239438366923,0.014079358996407837,-0.004347297613582741
1880.4999999986185,0.003766666,-0.7933264,0.0015442208,-2.345824,-0.00824157,1.5822573,0.79116374,0.039999947,0.04,0.05984979268820467,-2.135313848473583e-05,0.01155984721106229,0.00159417853955892,-0.10987912846494013,-0.028157859067513138,0.9998782860053709,0.0004636815170146466,0.01490343735329041,-0.004591920019902857
1880.5166666652851,0.003966787,-0.79381907,0.001627822,-2.3452427,-0.0087046,1.5828846,0.7914506,0.03999994,0.04,0.06163894355546429,-6.01728327610275e-05,0.011411264092453521,0.0016592076354703354,-0.11324333702532743,-0.029092683048324134,0.9998640054709217,0.0004788370480212637,0.0157565981426443,-0.004844676841368573
1880.5333333319518,0.0041737496,-0.7943287,0.0017142808,-2.3446405,-0.009183458,1.5835333,0.7917473,0.039999932,0.04,0.06404549158292028,-0.00012526281682966565,0.011881914754696687,0.0017257111531985003,-0.11664549981040073,-0.03003276735806867,0.9998483934585632,0.0004945816767472558,0.016639658436240788,-0.005105610092877214
1880.5499999986184,0.004387622,-0.7948554,0.0018036264,-2.344019,-0.009678283,1.5842036,0.7920538,0.039999932,0.04,0.06159869034230159,-0.0001868265152555216,0.010921274365860434,0.001793534431908942,-0.12007914445325876,-0.030976023746060226,0.9998313758565099,0.0005109364439611625,0.01755194587371044,-0.005374755145587976
1880.566666665285,0.004608473,-0.7953995,0.0018958874,-2.3433774,-0.010189235,1.5848958,0.7923704,0.03999993,0.04,0.06339978629188447,-0.0002466052380738215,0.01106776884500782,0.0018630135787452602,-0.12355014910683837,-0.03192430647769241,0.9998128533312596,0.0005279262829320687,0.018494129471069532,-0.00565214848995598
1880.5833333319517,0.004836368,-0.795961,0.0019910918,-2.3427148,-0.010716474,1.5856102,0.79269695,0.039999925,0.04,0.0654064164017587,-0.0003058830222214988,0.011189160268720855,0.0019338239556437285,-0.12705750448178213,-0.032876066284672115,0.9997927223318488,0.0005455203203688632,0.019466818652541826,-0.005937823793265783
1880.5999999986184,0.005071372,-0.79654014,0.0020892646,-2.3420308,-0.0112601435,1.586347,0.7930337,0.03999992,0.04,0.06672658099580175,-0.0003749236745244876,0.011361430961631669,0.0020064505119341443,-0.13059475044232396,-0.03383064003315042,0.9997708751464143,0.0005637767477930406,0.02047056404367714,-0.00623180330926089
1880.616666665285,0.005313541,-0.79713714,0.002190433,-2.341326,-0.011820393,1.5871059,0.7933808,0.039999917,0.04,0.06587149023520311,-0.00042241794855606835,0.010236831637167043,0.002080866552048956,-0.1341578168910762,-0.03478743586789716,0.9997472198476379,0.0005827285450856452,0.0215049332382592,-0.006534116679366541
1880.6333333319517,0.0055629355,-0.7977521,0.0022946193,-2.3406007,-0.012397342,1.5878876,0.79373837,0.039999913,0.04,0.0660309394042713,-0.0005058294288038875,0.01039936178151013,0.0021563745258206257,-0.13775332353493958,-0.035745815106319793,0.999721645836866,0.0006024343571709254,0.022570268979474128,-0.006844769993755396
1880.6499999986183,0.005819609,-0.7983847,0.0024018462,-2.3398538,-0.01299112,1.5886921,0.7941065,0.03999991,0.04,0.0679573118034682,-0.0005782956279967721,0.010512323692535297,0.0022327420022763486,-0.14137810690432406,-0.03670509791849069,0.9996940372688684,0.0006229034870899932,0.023666943742980798,-0.007163770947098074
1880.666666665285,0.006083614,-0.7990356,0.0025121372,-2.3390856,-0.013601852,1.5895196,0.7944848,0.039999906,0.04,0.06813106892256116,-0.0006510385406074612,0.009998232330454826,0.0023101192113402433,-0.14503162119026963,-0.03766471889051022,0.9996642758538153,0.0006439326032380148,0.024795239327792082,-0.007491130698835506
1880.6833333319516,0.0063550025,-0.79970455,0.0026255117,-2.3382962,-0.014229653,1.5903704,0.7948737,0.03999991,0.04,0.06820912340663732,-0.0007279326724739937,0.009838772340242663,0.002390406425852233,-0.14870988627648024,-0.03862394972240764,0.9996322463315348,0.0006657081890880245,0.02595514257008574,-0.007826844890711674
1880.6999999986183,0.0066338205,-0.80039215,0.0027419906,-2.3374848,-0.014874607,1.5912442,0.79527324,0.039999906,0.04,0.07026827564615701,-0.000826481409537793,0.009201714849682574,0.0024718766886992066,-0.15241529987563207,-0.03958139086761367,0.9995978152070542,0.0006882171436493065,0.027147204942739728,-0.00817089066406357
1880.716666665285,0.0069201114,-0.80109805,0.0028615922,-2.3366516,-0.015536833,1.5921417,0.79568356,0.039999902,0.04,0.07037377114329502,-0.0009040218139749409,0.009555675957506615,0.0025553373105953736,-0.15614304899350756,-0.04053813091153126,0.9995608530030474,0.0007115289058689888,0.028371621456942595,-0.008523260311663722
1880.7333333319516,0.007213918,-0.8018225,0.002984333,-2.3357964,-0.01621647,1.5930626,0.79610467,0.039999906,0.04,0.07077047421728544,-0.0009504576076757934,0.00874735381648506,0.002639951263297729,-0.15989282935716476,-0.041493420836758096,0.9995212329352636,0.0007356317216927389,0.029628348405791056,-0.008883959043435348
1880.7499999986183,0.0075152796,-0.80256575,0.0031102311,-2.33492,-0.016913567,1.5940071,0.79653645,0.039999902,0.04,0.07021307281105393,-0.0010668241171424113,0.00805171114661718,0.002725754622448371,-0.16366508134767996,-0.04244578430539529,0.9994788264641311,0.0007604509129171832,0.03091731144102735,-0.009252946425375719
1880.766666665285,0.007824233,-0.80332774,0.0032393015,-2.3340209,-0.017628208,1.5949756,0.7969792,0.0399999,0.04,0.0729552643732756,-0.0011717114531839372,0.008495372622774333,0.0028140469900873183,-0.1674613543976835,-0.0433937790629572,0.9994334721105318,0.0007861280710173363,0.032239361704656674,-0.009630180923501949
1880.7833333319516,0.008140815,-0.80410856,0.0033715586,-2.3330994,-0.018360473,1.5959681,0.7974329,0.039999895,0.04,0.0729977462688769,-0.0012667414380261068,0.007970630332354567,0.0029032350866794836,-0.17127356849865039,-0.04433774858889763,0.9993850285718023,0.0008126522929353017,0.03359451503845727,-0.010015628892856858
1880.7999999986182,0.008465053,-0.8049083,0.0035070153,-2.3321557,-0.01911045,1.5969844,0.7978976,0.03999989,0.04,0.07280328881433817,-0.0013352939141101153,0.007128580906767823,0.002993794541279342,-0.1751029063942561,-0.045277833541306683,0.9993333602924553,0.0008400220350244198,0.03498251926176232,-0.01040926105306869
1880.8166666652849,0.0087969825,-0.80572706,0.0036456846,-2.33119,-0.019878212,1.5980246,0.7983733,0.039999884,0.04,0.07296402937999602,-0.0014394014603126906,0.006630365622140033,0.003085775155235896,-0.17895131971860412,-0.046212554959631266,0.9992783167521906,0.000868256725271641,0.036403479914369555,-0.010811033682845157
1880.8333333319515,0.009136624,-0.8065648,0.0037875788,-2.330202,-0.020663824,1.599089,0.79886,0.03999988,0.04,0.07403963580152606,-0.0015365063768781745,0.006566825541942656,0.003179139577022226,-0.18281798519225437,-0.04714118919570891,0.9992197356028236,0.0008973575929387492,0.03785771048970849,-0.011220895135905726
1880.8499999986182,0.009484006,-0.80742186,0.0039327065,-2.3291917,-0.021467322,1.6001778,0.7993579,0.039999876,0.04,0.0747854349575583,-0.0016559843681974301,0.005920518922719609,0.003274016749033177,-0.18669985675733325,-0.048062496167003886,0.9991574516768574,0.000927382756456712,0.03934546533302758,-0.011638774744739606
1880.8666666652848,0.009839152,-0.8082979,0.004081078,-2.3281584,-0.02228876,1.6012906,0.79986686,0.039999872,0.04,0.07542989279905044,-0.0017625361178490173,0.005631567840058693,0.0033701931119669223,-0.19059474892685085,-0.048977526868419906,0.9990913069298234,0.0009583049167469872,0.040866699948740925,-0.012064613721270176
1880.8833333319515,0.010202079,-0.80919313,0.0042327014,-2.3271027,-0.023128178,1.6024281,0.80038697,0.03999987,0.04,0.07546952784909244,-0.0018741294039373649,0.005165728332690023,0.003467569533054004,-0.19450424797155788,-0.04988315723508497,0.9990211287559275,0.0009901536606504162,0.04242163820727461,-0.012498340160679132
1880.8999999986181,0.010572805,-0.81010747,0.004387584,-2.3260238,-0.02398562,1.6035899,0.8009183,0.03999986,0.04,0.0766970774394693,-0.0019807240742669013,0.004726311741976019,0.0035664050024745986,-0.19842334635548062,-0.050782304851152094,0.9989467448444114,0.0010229683238731882,0.04401038470748183,-0.012939881702027223
1880.9166666652848,0.0109513495,-0.81104124,0.0045457324,-2.3249226,-0.024861129,1.6047761,0.80146074,0.039999858,0.04,0.07621820709569072,-0.002084004844290707,0.003767667507781347,0.0036666039811394345,-0.20235323715601158,-0.051671752273376226,0.9988679882331145,0.0010567216189139507,0.04563283463821872,-0.013389168212835315
1880.9333333319514,0.011337719,-0.81199443,0.0047071525,-2.323798,-0.025754739,1.605987,0.80201435,0.039999858,0.04,0.07825515711594733,-0.0021976240720388007,0.0035952329491495405,0.0037684373952295014,-0.2062937976428083,-0.05255170812643423,0.9987846582409905,0.0010914293967176105,0.047289537966027834,-0.013846112929610046
1880.949999998618,0.011731928,-0.8129671,0.0048718466,-2.3226504,-0.026666455,1.6072224,0.8025793,0.039999854,0.04,0.07786704911381115,-0.0023246199583973684,0.0028801428416214137,0.0038714516258804253,-0.21023986106833625,-0.05342167193658859,0.998696580536621,0.0011271869121382014,0.04898036068737736,-0.014310616375965913
1880.9666666652847,0.012133987,-0.8139591,0.0050398204,-2.3214803,-0.027596336,1.6084825,0.8031554,0.039999846,0.04,0.07753779774564151,-0.0024118574564758674,0.002225650915366195,0.003975814300097458,-0.2141911037564873,-0.0542837104493623,0.9986035838681622,0.001163943838085682,0.05070504778101624,-0.014782613095424531
1880.9833333319514,0.012543894,-0.8149703,0.0052110762,-2.3202875,-0.028544378,1.6097672,0.8037429,0.039999843,0.04,0.07778645373424098,-0.002538324328962664,0.0017679986484830934,0.004081201053763667,-0.21814956283379494,-0.05513288742310596,0.9985054815100509,0.0012017744061968898,0.05246361281491297,-0.015261994072366359
1880.999999998618,0.01296166,-0.81600106,0.0053856154,-2.3190715,-0.029510576,1.6110765,0.80434155,0.03999984,0.04,0.07932019965930515,-0.0026709438042313988,0.0009549889207427498,0.004187380795707504,-0.22211500430503633,-0.05596951897311392,0.9984020639680269,0.0012406389193071758,0.054256424161112635,-0.01574864809135141
1881.0166666652847,0.013387281,-0.8170511,0.0055634384,-2.317833,-0.030494936,1.6124104,0.8049514,0.03999983,0.04,0.07860676277813283,-0.002786846709905942,0.0003911753223340142,0.004295121443009406,-0.22608229733814028,-0.05679494088807288,0.9982931520401286,0.0012805500199293146,0.05608319583961864,-0.016242472898115607
1881.0333333319513,0.01382076,-0.8181206,0.0057445443,-2.3165712,-0.031497467,1.6137689,0.80557257,0.039999828,0.04,0.0798791440844493,-0.0029007067960201,-0.00029685086169184416,0.004404076057536774,-0.23005519988034542,-0.05760848575605129,0.9981785340273718,0.0013215614157943843,0.05794417736827205,-0.016743356637951123
1881.049999998618,0.014262096,-0.8192095,0.0059289336,-2.3152866,-0.032518145,1.6151522,0.80620503,0.03999982,0.04,0.07990641244162155,-0.0030468838380502683,-0.0008939811491082139,0.0045138072100215365,-0.23402732652051908,-0.05840723939836568,0.9980580073621413,0.0013637171005067715,0.059839379303241236,-0.01725117099168859
1881.0666666652846,0.01471128,-0.8203178,0.006116605,-2.313979,-0.03355698,1.6165599,0.8068487,0.03999982,0.04,0.08042034812243415,-0.0031412820765996594,-0.001821200512397425,0.004624182695716544,-0.23799982126039942,-0.059193187106160824,0.9979313747793762,0.0014069873712081028,0.06176866152127501,-0.017765811868624356
1881.0833333319513,0.015168309,-0.8214454,0.0063075516,-2.3126488,-0.034613945,1.6179923,0.80750364,0.039999813,0.04,0.07964002708384932,-0.003275545074661254,-0.00237815702710531,0.004735597558555335,-0.24197305874053956,-0.059964181741463445,0.9977984368272753,0.0014514150149253161,0.06373188433200114,-0.0182871479184929
1881.099999998618,0.015633171,-0.8225924,0.006501773,-2.3112962,-0.035689022,1.6194487,0.8081697,0.03999981,0.04,0.07972036514605207,-0.003376078233398132,-0.003731431421849507,0.0048479579484509774,-0.24594530572453635,-0.06072141395706406,0.9976590072209357,0.001496974276296495,0.06572866796795959,-0.01881506274533761
1881.1166666652846,0.016105853,-0.82375866,0.006699262,-2.3099208,-0.036782186,1.620931,0.808847,0.0399998,0.04,0.08168388485607636,-0.00356182524678568,-0.0028875266052219573,0.004961082763198857,-0.24991991541131645,-0.061464210464883554,0.9975127909371891,0.0015437059124551304,0.06776023841053397,-0.019349392220506127
1881.1333333319512,0.016586343,-0.8249444,0.0069000144,-2.3085227,-0.037893407,1.6224368,0.8095355,0.039999798,0.04,0.08067624900451875,-0.0036101502260991666,-0.005633572831431621,0.005075725054147405,-0.25388354937902474,-0.06219332121611621,0.9973596593756126,0.0015916632139011536,0.06982523404960746,-0.019890026352248645
1881.149999998618,0.017074622,-0.8261492,0.007104024,-2.3071015,-0.03902267,1.6239669,0.81023514,0.039999805,0.04,0.08198164180037715,-0.0037604927449037817,-0.0053241803424031175,0.0051910818416895654,-0.2578489239999771,-0.06291091640017193,0.9971993489525783,0.0016408376791747694,0.07192428330871152,-0.020436818998867606
1881.1666666652845,0.017570674,-0.82737327,0.007311283,-2.3056576,-0.040169857,1.6255212,0.8109459,0.039999805,0.04,0.08141190680479582,-0.003923660933102119,-0.006544648162010169,0.005306161189005752,-0.26180569794694764,-0.0636033038428966,0.9970316629937632,0.0016912603748883842,0.07405700254105442,-0.02098959267993218
1881.1833333319512,0.018074485,-0.82861656,0.007521784,-2.3041914,-0.041334964,1.6271001,0.8116678,0.039999798,0.04,0.08166710490864482,-0.00404270994381721,-0.007050047075529697,0.005421863828866821,-0.26575807108598504,-0.06428066376026678,0.996856358449736,0.0017429241929147676,0.07622360179116953,-0.021548210217333122
1881.1999999986178,0.01858603,-0.8298788,0.0077355164,-2.3027027,-0.04251798,1.6287032,0.81240106,0.039999787,0.04,0.08148542972374884,-0.004128401243460797,-0.007986558904615748,0.005538135533057605,-0.26970321569727335,-0.06494261019948946,0.9966732331479552,0.0017960146556399127,0.07842369965883562,-0.022112530148747745
1881.2166666652845,0.01910529,-0.83116025,0.007952474,-2.3011913,-0.04371883,1.6303309,0.81314576,0.039999787,0.04,0.08268902959431834,-0.004285975958724306,-0.008695818854187465,0.005653235989683744,-0.27364038553443076,-0.06558422544722496,0.996482021317545,0.00185059537363957,0.0806577124169526,-0.022682370143505583
1881.2333333319511,0.01963223,-0.8324605,0.008172641,-2.2996578,-0.04493742,1.6319824,0.8139007,0.039999776,0.04,0.08148140207313581,-0.004398062743231346,-0.009900123674455585,0.005767010936334083,-0.27756380257927327,-0.06621013953667468,0.9962825498523064,0.0019061139353880611,0.08292485227443752,-0.023257610898687185
1881.2499999986178,0.02016683,-0.83377975,0.00839601,-2.298102,-0.04617372,1.6336579,0.81466687,0.039999772,0.04,0.08244409775350903,-0.004518602391103896,-0.010714721709081942,0.005884189216719009,-0.28148066923906434,-0.06681698138715222,0.996074560709466,0.001963081749615047,0.08522536501070871,-0.023838057309273818
1881.2666666652844,0.02070905,-0.8351179,0.008622564,-2.2965236,-0.04742766,1.6353574,0.81544375,0.03999977,0.04,0.08272654227128307,-0.004630766349184717,-0.011557661395533714,0.006000224839884827,-0.2853872311195288,-0.06740356665467925,0.9958578156632482,0.0020213059954575646,0.0875592105139653,-0.02442355335875258
1881.283333331951,0.021258874,-0.8364752,0.008852295,-2.294923,-0.04869915,1.6370804,0.81623155,0.03999976,0.04,0.08283032959641723,-0.004762050955321034,-0.012983399984722865,0.006117357790762626,-0.289278082706942,-0.06797185485931853,0.995632083679281,0.0020809161316274983,0.08992623629325636,-0.02501391138218588
1881.2999999986177,0.021816261,-0.8378507,0.009085186,-2.293301,-0.04998812,1.6388273,0.81703013,0.039999753,0.04,0.08084745689918016,-0.004887338111761105,-0.013127264716650267,0.006234006832160743,-0.29315525676417664,-0.06852086173575851,0.9953971867108392,0.0021418728608944134,0.0923256916073787,-0.025608977683886945
1881.3166666652844,0.022381175,-0.8392449,0.009321227,-2.2916574,-0.051294506,1.6405976,0.81783974,0.039999742,0.04,0.08200922714558523,-0.004975229399315287,-0.014717327404567548,0.00635103826699774,-0.29702342181260777,-0.06905093263046462,0.9951528659707082,0.002204354035901275,0.0947577190940135,-0.026208564357288924
1881.333333331951,0.022953581,-0.8406576,0.0095604,-2.2899911,-0.052618213,1.6423916,0.81865996,0.039999742,0.04,0.08393867685878575,-0.005136710706050984,-0.015032524260583102,0.006466268685017901,-0.3008771587674175,-0.06955927983392529,0.9948988221734286,0.0022681984321337645,0.09722283584775193,-0.026812480368629463
1881.3499999986177,0.023533443,-0.8420887,0.009802686,-2.2883027,-0.05395914,1.644209,0.8194909,0.039999735,0.04,0.08324499284735332,-0.005250569518241988,-0.016211485545181148,0.006582196899692382,-0.3047112997092092,-0.07004991433734802,0.9946348386307584,0.002333507541799913,0.09972064473631348,-0.027420531320367748
1881.3666666652844,0.024120715,-0.8435383,0.010048071,-2.2865932,-0.055317204,1.6460493,0.82033235,0.039999727,0.04,0.08117675320460371,-0.0052977412421408715,-0.017941037155910777,0.006696996240534041,-0.30852521857168663,-0.07051835607768603,0.9943607536975921,0.002400210148284508,0.10225020948939524,-0.028032573135108374
1881.383333331951,0.024715351,-0.8450058,0.010296537,-2.2848628,-0.056692284,1.6479125,0.8211845,0.03999972,0.04,0.0809861761220887,-0.005450549709698493,-0.0183260574701416,0.006811704597478076,-0.3123251994263443,-0.0709658199221034,0.9940763319119581,0.002468461230676119,0.10481136876047459,-0.028648385821456002
1881.3999999986177,0.025317308,-0.84649175,0.010548064,-2.2831109,-0.058084298,1.6497991,0.82204705,0.039999712,0.04,0.08286651535280853,-0.005561618270456467,-0.019358361515786626,0.006924637278171546,-0.3161111494432108,-0.07139230668850113,0.9937812508079692,0.0025381397462349267,0.10740475109286234,-0.029267778047829644
1881.4166666652843,0.02592655,-0.8479955,0.010802631,-2.2813377,-0.059493143,1.6517087,0.8229201,0.03999971,0.04,0.08190180392007029,-0.005675691140906089,-0.020170680353381876,0.007037658997704595,-0.3198734085965723,-0.07179828848006142,0.9934753147286174,0.002609342352486954,0.11002974572091655,-0.029890557270694278
1881.433333331951,0.026543025,-0.849517,0.011060224,-2.2795436,-0.06091871,1.6536407,0.82380354,0.0399997,0.04,0.08135747983306629,-0.005749040279175513,-0.021517406643467574,0.007149453854223213,-0.32361404044157244,-0.07218204293263222,0.9931583182118393,0.0026820976700049253,0.11268585613032736,-0.030516538907531553
1881.4499999986176,0.027166683,-0.8510566,0.011320823,-2.2777283,-0.062360886,1.6555952,0.8246972,0.03999969,0.04,0.08255516812720742,-0.005857943766160098,-0.022836878726861798,0.007259934339498314,-0.3273372574735632,-0.07254488674980085,0.9928299665958817,0.002756347269811705,0.11537337996888547,-0.031145516105912416
1881.4666666652843,0.027797477,-0.85261375,0.011584403,-2.275892,-0.06381954,1.6575719,0.8256012,0.039999682,0.04,0.08174079838596526,-0.00596624402692883,-0.023559109931703404,0.007369147757528678,-0.33103435759295463,-0.07288404403932494,0.9924900495155744,0.002832222939595378,0.11809184959964351,-0.03177727464601215
1881.483333331951,0.02843535,-0.8541883,0.011850938,-2.2740355,-0.06529458,1.6595708,0.8265152,0.03999967,0.04,0.08046604625531195,-0.006023646707025571,-0.024641104650524603,0.007476883884178172,-0.3347085838248649,-0.07320302602057877,0.9921383662409159,0.002909564785684722,0.12084072757772134,-0.03241165259673193
1881.4999999986176,0.029080248,-0.8557803,0.012120412,-2.2721581,-0.06678583,1.6615919,0.8274393,0.039999664,0.04,0.08159346926426281,-0.0061726196468034344,-0.02562250818536338,0.007583969827936576,-0.33836055495591916,-0.07349947385804087,0.9917746282011909,0.002988518459018171,0.12362022197159074,-0.03304839381125939
1881.5166666652842,0.029732116,-0.85738945,0.012392801,-2.27026,-0.068293236,1.6636348,0.8283734,0.03999966,0.04,0.08141282053988341,-0.006201180741036844,-0.026724221387230962,0.007689296157558936,-0.3419854825073092,-0.07377375571181309,0.991398607286957,0.0030690539917787208,0.12643000276134064,-0.03368733855390143
1881.5333333319509,0.0303909,-0.85901564,0.012668079,-2.2683427,-0.06981662,1.6656996,0.82931745,0.03999965,0.04,0.07899361051957321,-0.006307864644810451,-0.0278066780409425,0.007793144412746457,-0.34558424802658627,-0.07402529578897342,0.9910101318637194,0.0031512302931926655,0.1292693261670988,-0.034328262458165705
1881.5499999986175,0.031056533,-0.8606587,0.012946221,-2.2664053,-0.071355835,1.6677858,0.8302713,0.039999645,0.04,0.08002861872631328,-0.006379221035590979,-0.02901705444624536,0.007894244295100841,-0.3491584393470096,-0.07425265734934944,0.9906089459759314,0.0032350077430920556,0.13213812143145723,-0.03497095569071137
1881.5666666652842,0.031728964,-0.86231863,0.013227208,-2.264448,-0.07291076,1.6698931,0.8312349,0.03999964,0.04,0.0801997418735656,-0.0064600982380823985,-0.030181771916115707,0.007994038266047818,-0.352707060429845,-0.0744589166882926,0.9901947950607877,0.0033204104894910057,0.13503628956077326,-0.03561521037934333
1881.5833333319508,0.032408122,-0.86399555,0.013511003,-2.2624712,-0.07448126,1.6720216,0.832208,0.03999963,0.04,0.07919659623221165,-0.006492244400829739,-0.03153572596479304,0.008092145809869583,-0.3562248587370528,-0.07464247140433827,0.9897674646400559,0.0034074109870140803,0.13796343087705684,-0.0362608222602944
1881.5999999986175,0.03309395,-0.86568874,0.013797589,-2.260475,-0.07606718,1.674171,0.8331907,0.03999962,0.04,0.07889841987980262,-0.006592270236003769,-0.032145739077815705,0.008188149942388638,-0.359714170911014,-0.0748019617134787,0.9893267414921451,0.0034960845730737946,0.14091914905141312,-0.03690757905658326
1881.6166666652841,0.03378638,-0.86739826,0.014086935,-2.258459,-0.077668354,1.6763409,0.83418304,0.039999615,0.04,0.07904056612777488,-0.006654030746128595,-0.03345758163459944,0.008281849246385087,-0.363174670217638,-0.07493952253909168,0.9888723773225173,0.0035865318651309612,0.1439033094860447,-0.03755523501000906
1881.6333333319508,0.034485355,-0.869124,0.014379013,-2.2564247,-0.079284646,1.6785314,0.8351847,0.039999608,0.04,0.07729271425294115,-0.00670243601695146,-0.03462283910251607,0.008372754309998488,-0.3666028228245871,-0.07505530377318809,0.9884041962953445,0.0036786120927965087,0.14691526828565554,-0.0382036189827479
1881.6499999986174,0.035190802,-0.87086576,0.014673798,-2.2543712,-0.080915876,1.6807424,0.8361956,0.039999604,0.04,0.0781276427336941,-0.006789469475251136,-0.03554540201398115,0.008460420049492566,-0.3700021243740739,-0.07514526731996705,0.9879219178888732,0.003772364272765688,0.1499551195092742,-0.03885248454762263
1881.666666665284,0.035902645,-0.8726233,0.014971259,-2.252299,-0.0825619,1.6829733,0.8372157,0.039999593,0.04,0.07683818671972986,-0.00678448168985081,-0.03686196020824539,0.008546370553146727,-0.3733661115523508,-0.07521417877262192,0.9874253786157215,0.0038678536221222626,0.15302216224723472,-0.039501635853944436
1881.6833333319507,0.036620818,-0.8743965,0.015271367,-2.2502081,-0.08422257,1.6852239,0.83824486,0.039999582,0.04,0.07715281289564224,-0.006842036840440033,-0.03788985224413288,0.008629209226195082,-0.376697908245892,-0.07526018801418731,0.9869143255408693,0.003965025504253361,0.15611630646934502,-0.04015085888659575
1881.6999999986174,0.037345257,-0.8761851,0.015574091,-2.248099,-0.08589775,1.6874943,0.8392829,0.039999574,0.04,0.07571603520282189,-0.006854839961874942,-0.038973495250460566,0.008709207683462936,-0.37999564418585874,-0.0752831563215883,0.9863885784332157,0.004063866025284196,0.15923699240904843,-0.04079997031799087
1881.716666665284,0.03807588,-0.8779891,0.015879402,-2.245972,-0.087587215,1.6897842,0.8403299,0.039999567,0.04,0.07570147778994674,-0.0069263500719458915,-0.04012829864556977,0.008786594990009389,-0.383259381846347,-0.07528202494190644,0.9858478968272778,0.004164501128039403,0.1623840717549227,-0.04144869710714456
1881.7333333319507,0.038812615,-0.87980837,0.016187267,-2.2438269,-0.089290805,1.692093,0.8413857,0.039999556,0.04,0.07491855078032295,-0.006914095519879038,-0.041529644105642305,0.008860768519223385,-0.3864849546489028,-0.0752591517543153,0.9852921019290644,0.004266912199406555,0.16555700803093226,-0.042096845824059335
1881.7499999986173,0.03955539,-0.8816425,0.016497655,-2.241665,-0.09100831,1.6944209,0.8424501,0.039999552,0.04,0.07291499195427598,-0.006969369252226437,-0.04228750358841182,0.008930937599437909,-0.3896755225438255,-0.07521274900124356,0.9847210410295996,0.0043709851279228815,0.16875514163888847,-0.04274421613542766
1881.766666665284,0.04030411,-0.88349134,0.016810529,-2.2394845,-0.09273962,1.6967676,0.84352297,0.039999552,0.04,0.075152913098675,-0.006951471902467976,-0.04339185000812318,0.008998818987695445,-0.3928309218239475,-0.07514529157453764,0.98413439284785,0.004476824909518105,0.1719788155285792,-0.04339057342453619
1881.7833333319506,0.041058704,-0.8853548,0.017125867,-2.2372875,-0.09448454,1.6991324,0.8446043,0.03999954,0.04,0.07189669041158808,-0.00692567378254641,-0.044842669537237256,0.009062884907294774,-0.39594547993836127,-0.07505348845023072,0.983532088350549,0.004584439167885335,0.17522690285393916,-0.04403574251151085
1881.7999999986173,0.041819096,-0.88723266,0.017443627,-2.2350738,-0.09624282,1.7015157,0.84569395,0.039999533,0.04,0.0716621860888278,-0.006993961147390426,-0.045622906049835876,0.009123007169279405,-0.39902296928768854,-0.07493910161032571,0.9829139004315001,0.004693794985719191,0.17849923717946506,-0.04467946903798541
1881.816666665284,0.04258522,-0.8891247,0.01776378,-2.2328434,-0.09801434,1.7039169,0.846792,0.039999522,0.04,0.0712980661574214,-0.0069774955423485,-0.04679948385002408,0.00918017100428653,-0.40206249267403427,-0.07480426472588796,0.9822796300581114,0.004805011005719346,0.18179548408994337,-0.045321542412388394
1881.8333333319506,0.043356977,-0.8910306,0.018086292,-2.2305956,-0.099798925,1.7063358,0.8478979,0.039999515,0.04,0.07209456803307646,-0.006944412417908552,-0.04788203859746876,0.009232889920728286,-0.4050612193862252,-0.0746474781458715,0.981629028701429,0.004917916291482008,0.1851155825762827,-0.0459617797466837
1881.8499999986172,0.04413429,-0.89295036,0.018411128,-2.228332,-0.101596355,1.7087721,0.8490118,0.039999507,0.04,0.06882421577407705,-0.0069162799873984104,-0.04906532612163339,0.00928194653838127,-0.408014802113839,-0.07446647939212685,0.9809620344850335,0.005032601787500732,0.18845848957012157,-0.046599973467595014
1881.866666665284,0.04491707,-0.8948838,0.018738253,-2.226053,-0.10340641,1.7112254,0.85013354,0.039999504,0.04,0.0680291232182828,-0.0068978224422810985,-0.050269421689286276,0.00932718778848883,-0.4109295816929439,-0.07426463671469585,0.9802784799555292,0.005149076356508372,0.19182376890000938,-0.04723590195759971
1881.8833333319506,0.045705248,-0.89683044,0.019067623,-2.223758,-0.10522893,1.7136959,0.85126317,0.039999496,0.04,0.06833618137358499,-0.006901328263807932,-0.05081835486959729,0.009368125053856008,-0.4138051912371709,-0.07404092035238684,0.9795781252046406,0.005267394801692666,0.19521136609002848,-0.047869340102297216
1881.8999999986172,0.046498716,-0.8987902,0.019399207,-2.2214477,-0.10706369,1.7161827,0.85240036,0.039999496,0.04,0.0664260752786916,-0.006809598501546915,-0.05232106962183014,0.009404876488782188,-0.41663531986115465,-0.07379789382972583,0.9788608948473019,0.005387491661459875,0.19862039834537118,-0.04850011168505668
1881.9166666652839,0.0472974,-0.9007629,0.01973297,-2.2191224,-0.10891049,1.7186859,0.8535451,0.039999496,0.04,0.06578706426858538,-0.006790052298147331,-0.053299690051922255,0.009438450654713909,-0.4194261186777921,-0.07353529585260121,0.9781265972720997,0.0055094177724890414,0.20205060243808098,-0.04912799689708931
1881.9333333319505,0.04810121,-0.9027483,0.02006888,-2.2167819,-0.11076915,1.7212051,0.85469717,0.039999485,0.04,0.06560437805562813,-0.00675826689698622,-0.05420495095536104,0.009466686386705538,-0.4221717364055405,-0.07325087326696586,0.9773750436963365,0.005633095305536512,0.20550170500794257,-0.049752803294803624
1881.9499999986172,0.04891005,-0.90474606,0.020406894,-2.2144265,-0.112639464,1.7237403,0.8558564,0.03999948,0.04,0.0642907368330281,-0.006698501478141078,-0.05510272812336847,0.009490090049735202,-0.42487187855693065,-0.07294347343135366,0.9766060959114342,0.005758550239844063,0.20897320297278973,-0.05037432845264643
1881.9666666652838,0.049723834,-0.90675616,0.020746972,-2.2120569,-0.1145212,1.7262911,0.8570225,0.039999474,0.04,0.06295095911625914,-0.00661148111754245,-0.05636336896608363,0.009508159055146383,-0.42752619900214667,-0.07261389600610607,0.9758196412208876,0.005885678300426178,0.21246449623940117,-0.05099239586663611
1881.9833333319505,0.050542474,-0.90877837,0.021089077,-2.2096727,-0.11641416,1.7288572,0.8581957,0.039999466,0.04,0.06292476728075869,-0.006569317012185272,-0.057304505662059135,0.009522704980761784,-0.4301344729021871,-0.07226340591599512,0.9750154758175931,0.006014660070685122,0.2159754349851059,-0.05160675598621765
1881.999999998617,0.051365867,-0.9108123,0.021433163,-2.2072742,-0.1183181,1.7314379,0.8593758,0.039999463,0.04,0.06150705178376015,-0.0064584099408210305,-0.0583901254789021,0.009532113358176983,-0.4326942642085938,-0.07189309554930849,0.9741935279917417,0.006145460140861051,0.21950527276292947,-0.05221722482029008
1882.0166666652838,0.05219392,-0.91285795,0.021779206,-2.2048628,-0.12023282,1.7340333,0.86056244,0.039999448,0.04,0.058631497493477625,-0.006380597613839245,-0.059225348126945576,0.009537192920252131,-0.4352057770123887,-0.07150524952591303,0.9733537528307884,0.006277986519424696,0.2230531772767844,-0.052823657978349474
1882.0333333319504,0.05302655,-0.9149147,0.022127157,-2.2024384,-0.12215809,1.736643,0.8617558,0.03999944,0.04,0.057998298497841105,-0.006303831350936567,-0.0599907016245238,0.009536586354811222,-0.43767259634077194,-0.07109587622180438,0.9724960361826114,0.006412337494810475,0.22661867006218728,-0.05342583566222507
1882.049999998617,0.053863645,-0.9169827,0.022476979,-2.2000003,-0.124093756,1.7392666,0.86295545,0.039999433,0.04,0.05868870512810709,-0.006163288394663707,-0.061237391827195786,0.009531572751797127,-0.4400938546247367,-0.07066904566342636,0.9716201328601497,0.0065484317389297095,0.23020183996463736,-0.054023590583012975
1882.0666666652837,0.054705124,-0.9190616,0.02282863,-2.197549,-0.12603955,1.741904,0.86416143,0.039999437,0.04,0.0570363998303236,-0.006103149733968638,-0.062090961789507126,0.009520365235549166,-0.44246265646987404,-0.07021975728741472,0.9707259759504152,0.006686318460898222,0.23380202794373273,-0.05461670522790109
1882.0833333319504,0.055550884,-0.9211513,0.023182074,-2.1950858,-0.1279952,1.7445548,0.8653736,0.03999942,0.04,0.05468377349138187,-0.005998545372664504,-0.06302782634404203,0.009505624237787197,-0.4447810288371037,-0.06975563955763066,0.9698135413396304,0.006825989862284265,0.2374184264320386,-0.05520499694067172
1882.099999998617,0.05640082,-0.92325115,0.02353726,-2.1926105,-0.1299605,1.747219,0.86659175,0.039999418,0.04,0.05340346887106051,-0.005891813479846908,-0.06327916547075318,0.00948432957255435,-0.44705014034446355,-0.0692716636936478,0.9688827283520429,0.006967373481295718,0.24105057229277743,-0.05578831423513244
1882.1166666652837,0.057254843,-0.9253613,0.023894152,-2.1901224,-0.13193533,1.7498958,0.8678158,0.03999941,0.04,0.05447157192066676,-0.005698500138668489,-0.06495546282248021,0.00945939344420893,-0.4492694421320329,-0.06877156616121669,0.9679333320338122,0.007110560590543487,0.24469843962112078,-0.0563664644358596
1882.1333333319503,0.05811285,-0.92748135,0.024252707,-2.1876235,-0.13391927,1.7525853,0.8690455,0.039999403,0.04,0.0498655840059925,-0.00566202928865972,-0.06520822071049981,0.00942766414321039,-0.4514339626353159,-0.06825157021935879,0.9669654750249538,0.00725543020750765,0.2483607213559902,-0.05693927405404487
1882.149999998617,0.058974743,-0.9296108,0.02461289,-2.1851125,-0.13591224,1.755287,0.87028074,0.039999396,0.04,0.05134887183575465,-0.00550390583319918,-0.06597433601869263,0.009391835012218783,-0.453550749446747,-0.06771588011155734,0.9659789254912668,0.007402020733428931,0.25203753332196027,-0.05750658564704719
1882.1666666652836,0.059840426,-0.9317497,0.024974657,-2.1825912,-0.13791393,1.7580005,0.8715214,0.039999384,0.04,0.0472551079714556,-0.005322131172712935,-0.06695667836456032,0.009350849860944421,-0.4556123217282634,-0.06716364858114637,0.9649738148996031,0.007550311728723071,0.2557276031456666,-0.05806825587425667
1882.1833333319503,0.06070979,-0.93389773,0.025337957,-2.180059,-0.13992415,1.7607253,0.8727674,0.039999373,0.04,0.047634989525668914,-0.005138776569537512,-0.06781036610645774,0.00930460061884393,-0.4576257471730236,-0.06659488367428856,0.9639499846960986,0.007700340284496321,0.25943081089656345,-0.05862410870491331
1882.199999998617,0.061582725,-0.936055,0.025702754,-2.1775162,-0.14194264,1.7634615,0.8740186,0.03999938,0.04,0.046616156455758784,-0.005038848650379402,-0.06870789265254196,0.00925167695413863,-0.45958520993717944,-0.0660083046730392,0.9629073107568293,0.007852126823212907,0.2631469185609837,-0.05917393215987992
1882.2166666652836,0.06245915,-0.9382205,0.026069,-2.1749635,-0.14396912,1.7662084,0.8752747,0.039999373,0.04,0.043786927120548214,-0.004903904037164425,-0.06866844630155633,0.009192788194086615,-0.46148864406543133,-0.06540601003424,0.9618459290815571,0.00800553392924332,0.2668747349756255,-0.05971763531347891
1882.2333333319502,0.06333893,-0.9403946,0.026436659,-2.1724005,-0.14600343,1.7689661,0.8765356,0.03999935,0.04,0.04426777407560145,-0.004679830187814121,-0.07002856267688262,0.009124378887117576,-0.46334126254318897,-0.0647797362618076,0.9607656161068558,0.008160601874207989,0.27061442204022873,-0.060255041844624845
1882.2499999986169,0.064222,-0.9425768,0.026805678,-2.169828,-0.14804523,1.7717342,0.8778012,0.03999933,0.039999906,0.041930991791128136,-0.004613136118677974,-0.07034127686122993,0.009044382598136919,-0.46513571897104944,-0.0641282931918888,0.959666415435764,0.00831731839316147,0.2743651950097942,-0.060785961098396166
1882.2666666652835,0.06510821,-0.944767,0.027176017,-2.167246,-0.15009435,1.7745123,0.87907124,0.0399993,0.039999772,0.04044744141218359,-0.0043042749108497536,-0.07111898564440278,0.00895530750486101,-0.4668724175335528,-0.06345700161362136,0.9585483345307586,0.008475668052470128,0.27812640951752626,-0.06131030703121997
1882.2833333319502,0.06599748,-0.94696474,0.027547633,-2.1646554,-0.15215045,1.7772998,0.8803458,0.03999927,0.039999656,0.0384339301836345,-0.004200594382711836,-0.07160079609813685,0.008863774015532386,-0.4685557381656362,-0.06277674487283405,0.957411427510793,0.008635715510438577,0.2818973142750922,-0.06182788281882556
1882.2999999986168,0.066889696,-0.94916993,0.027920477,-2.1620562,-0.15421337,1.7800964,0.88162464,0.03999922,0.039999504,0.037284532337533705,-0.003943242161915522,-0.07229196053522013,0.008760467235003622,-0.47018237394985984,-0.062075637903828224,0.9562556542069578,0.00879739030617862,0.2856774920488486,-0.06233859364554179
1882.3166666652835,0.06778475,-0.95138216,0.02829451,-2.1594481,-0.1562829,1.782902,0.88290745,0.039999176,0.03999935,0.036676579381156316,-0.003757329342057858,-0.07275527362891054,0.008649658892743564,-0.4717526869499302,-0.06135983531971144,0.9550809545549954,0.008960641609733727,0.28946661222876285,-0.06284232294452359
1882.3333333319501,0.068682544,-0.9536012,0.028669683,-2.1568325,-0.15835874,1.7857163,0.88419414,0.039999116,0.039999202,0.03358791146133022,-0.003604361957711133,-0.07295088563070706,0.008535513156558275,-0.47326566992523417,-0.06063440143240595,0.953887456416909,0.009125430781907579,0.2932637474701519,-0.06333894081279863
1882.3499999986168,0.06958293,-0.9558268,0.029045952,-2.1542087,-0.16044062,1.7885386,0.88548464,0.039999064,0.039999083,0.03333558796962954,-0.0033097921697179677,-0.07393802785926606,0.008418467981395186,-0.474722392077216,-0.05990125935923493,0.9526751157879445,0.009291852580054317,0.29706856933352155,-0.06382828799358262
1882.3666666652834,0.07048587,-0.95805883,0.029423272,-2.1515775,-0.16252835,1.7913688,0.88677883,0.03999902,0.039998982,0.03127606533519511,-0.003177100653349585,-0.07411597225908118,0.008298195341771356,-0.476121427975016,-0.059161054157797516,0.951443970478105,0.009459849760237449,0.3008804969631897,-0.0643102544743573
1882.38333333195,0.0713912,-0.9602968,0.0298016,-2.1489394,-0.16462162,1.7942067,0.8880765,0.039998952,0.03999887,0.029204032030660798,-0.0029612968497287617,-0.07426631898395097,0.008173394536332715,-0.477461825507828,-0.05841190572666666,0.9501941145397182,0.0096293693791334,0.30469879884485107,-0.06478473525411671
1882.3999999986167,0.07229886,-0.9625404,0.030180886,-2.1462944,-0.16672024,1.7970518,0.8893775,0.039998874,0.039998755,0.028001473826844148,-0.0027319845924210495,-0.07467679880008848,0.008045200936312155,-0.47874481871615776,-0.057655405375898396,0.9489255844990716,0.009800409792125238,0.3085229518264148,-0.06525163022727754
1882.4166666652834,0.0732087,-0.9647897,0.030561095,-2.1436434,-0.16882388,1.7999038,0.8906815,0.039998803,0.039998643,0.025687479966718385,-0.0024981345064380156,-0.07520166153736074,0.007908533574636487,-0.4799698775349805,-0.05688409477010778,0.9476384662778925,0.009972886355786014,0.31235230809724623,-0.06571083924697176
1882.43333333195,0.07412058,-0.96704406,0.03094216,-2.1409862,-0.17093235,1.8027624,0.89198864,0.03999873,0.03999854,0.02474226215669617,-0.0022383157411105803,-0.07515745290680442,0.00777044751247799,-0.48113744297216204,-0.05610826239382989,0.9463327841769624,0.010146896111207112,0.3161864334403,-0.06616223544809809
1882.4499999986167,0.075034454,-0.9693035,0.03132404,-2.1383226,-0.17304535,1.8056272,0.89329845,0.03999866,0.039998457,0.02432520686399542,-0.0020566809368571803,-0.0760443793341059,0.007630383032813798,-0.4822476345098594,-0.05532846058735537,0.9450085093307796,0.010322306405154786,0.32002507420540655,-0.06660569917597066
1882.4666666652834,0.07595017,-0.9715675,0.031706706,-2.135654,-0.17516264,1.8084975,0.894611,0.03999859,0.039998375,0.020135524582887143,-0.0017563114759658327,-0.07568781904081501,0.0074863477293804215,-0.48329336276525714,-0.054540068589354805,0.9436659862777881,0.010499180261775336,0.32386687104731265,-0.0670412066883016
1882.48333333195,0.07686762,-0.9738359,0.032090098,-2.13298,-0.17728396,1.8113738,0.895926,0.039998524,0.0399983,0.020102774843167026,-0.0016279247833199395,-0.07580435215777115,0.0073386833390606115,-0.484284046196655,-0.053745833932855425,0.942305089838952,0.010677410477074928,0.3277119114528386,-0.06746861241374191
1882.4999999986167,0.077786714,-0.9761084,0.03247418,-2.130301,-0.17940906,1.8142551,0.8972435,0.039998453,0.039998222,0.018635976800940313,-0.001327465987539106,-0.07637714194217438,0.007185482357061013,-0.48521322117603566,-0.05294195176023408,0.9409259572214814,0.010857108105617987,0.3315595134913433,-0.0678878136619934
1882.5166666652833,0.07870733,-0.9783845,0.032858867,-2.127618,-0.18153763,1.8171408,0.8985631,0.039998386,0.03999816,0.014497561757886857,-0.0010186525977916305,-0.07579892705380509,0.007030159466517999,-0.4860803704372797,-0.05213579679886803,0.9395289578319457,0.01103810965446482,0.3354083612059182,-0.06829881963573425
1882.53333333195,0.07962936,-0.9806645,0.033244163,-2.1249304,-0.1836695,1.8200312,0.8998847,0.03999831,0.03999808,0.016124089143865206,-0.0008470479700151134,-0.07690068623968926,0.006870537537820312,-0.4868929461261362,-0.05132212079067233,0.9381138189287921,0.011220460210172464,0.3392590040810892,-0.06870147129004564
1882.5499999986166,0.08055271,-0.98294747,0.03362999,-2.122239,-0.18580435,1.8229256,0.9012081,0.039998237,0.03999801,0.011973268421527905,-0.0006164607382001808,-0.07578675261534773,0.006706360443232029,-0.48764109454470894,-0.050502284049204565,0.9366809558475104,0.011404051523577742,0.34311005430762737,-0.0690957682818473
1882.5666666652833,0.08147722,-0.9852337,0.0340163,-2.1195438,-0.18794194,1.8258237,0.9025332,0.039998166,0.039997946,0.012336833022752458,-0.00024567200790567845,-0.07693242050770266,0.0065396329637121,-0.48833085892717176,-0.04967740558042534,0.9352302767606553,0.011588962047533121,0.3469615779451449,-0.06948157179183717
1882.58333333195,0.08240279,-0.9875228,0.03440306,-2.116846,-0.190082,1.828725,0.90385985,0.039998084,0.03999787,0.007835895213492705,-4.000816789737072e-05,-0.07599426433815282,0.0063680830215323975,-0.4889555438179245,-0.048847011954907926,0.9337622061631785,0.011775141293878206,0.350812232505624,-0.0698589000285808
1882.5999999986166,0.083329305,-0.98981416,0.034790218,-2.1141458,-0.19222428,1.8316296,0.90518796,0.039998017,0.0399978,0.007270741472087394,0.00013852751828136167,-0.07571907185794924,0.006191865353997447,-0.4895242370610634,-0.048011183013696924,0.9322767586567633,0.011962544884036988,0.3546618374664072,-0.07022765718211055
1882.6166666652832,0.08425666,-0.9921075,0.035177726,-2.1114419,-0.19436851,1.8345373,0.906517,0.03999793,0.039997727,0.00780196845648895,0.000380514171896551,-0.07614390647803226,0.006012763824926673,-0.4900310405156786,-0.04717249168406293,0.9307738905322099,0.01215104451234108,0.35851036694252847,-0.07058777242218739
1882.6333333319499,0.08518473,-0.9944028,0.03556553,-2.1087365,-0.1965144,1.8374465,0.9078474,0.03999786,0.03999766,0.002235351129398211,0.0008281327011826212,-0.07577695528200312,0.005830659626966578,-0.4904715864736472,-0.046328628061948526,0.929254225343098,0.012340858307582244,0.3623560580959865,-0.07093923497874224
1882.6499999986165,0.08611346,-0.99669987,0.03595359,-2.1060288,-0.1986617,1.8403581,0.9091786,0.03999781,0.03999761,0.0038249098392562075,0.0008400293708944739,-0.07585258620492752,0.005643636961906354,-0.49085726469107216,-0.04548236949972044,0.9277174834308641,0.012531765868683518,0.3661995541334296,-0.07128192150464366
1882.6666666652832,0.0870427,-0.9989981,0.036341857,-2.1033201,-0.20081018,1.8432711,0.9105104,0.03999774,0.039997544,-0.0008109595702965322,0.0012500716433744286,-0.07491201588230023,0.005452550684127477,-0.4911758215854679,-0.044631445624190615,0.9261642397885451,0.012723711416263434,0.3700392736894764,-0.07161594816845536
1882.6833333319498,0.08797228,-1.0012975,0.036730286,-2.1006098,-0.20295961,1.8461858,0.9118428,0.039997682,0.039997496,0.00010115087007989132,0.001497320920520323,-0.07526902654613199,0.0052592677745024186,-0.49143749461789216,-0.043778686723926125,0.9245943335419066,0.012916775306784629,0.3738755720493076,-0.07194116987285329
1882.6999999986165,0.08890215,-1.0035976,0.037118826,-2.0978987,-0.20510964,1.8491012,0.9131757,0.039997607,0.03999742,-0.0033196263877766086,0.0017347018493776845,-0.07466825492288276,0.005062100049159801,-0.4916323748217095,-0.04292314845528587,0.9230082071928722,0.013110927146369477,0.3777072900370259,-0.0722575677479437
1882.7166666652831,0.08983219,-1.0058982,0.03750744,-2.095187,-0.20726007,1.852017,0.91450894,0.03999754,0.039997358,-0.0043926450017384155,0.002005737890538317,-0.07441484244508079,0.004861562425601956,-0.49176708623168813,-0.042066071664181234,0.9214059910539241,0.013306164124957741,0.3815340726601029,-0.07256512279057384
1882.7333333319498,0.090762265,-1.008199,0.037896067,-2.0924752,-0.20941056,1.8549329,0.91584224,0.039997466,0.039997287,-0.007025600213594885,0.0022564624180529402,-0.07368552860296251,0.004657096932804,-0.4918388049911724,-0.04120795755926786,0.9197880204733075,0.013502384805927524,0.3853550890663549,-0.07286383416351745
1882.7499999986164,0.09169229,-1.0104996,0.03828466,-2.0897636,-0.21156092,1.8578486,0.9171754,0.039997388,0.039997216,-0.008379491469900913,0.002501704537758581,-0.07325894070395744,0.004450361904433972,-0.4918510552803028,-0.04034982449520938,0.918154453213973,0.013699536491122082,0.38916996080799077,-0.07315370358352033
1882.766666665283,0.09262213,-1.0127996,0.038673166,-2.0870526,-0.21371083,1.8607638,0.91850823,0.03999732,0.03999715,-0.010250957372548442,0.0027508842989458493,-0.07255285907938891,0.004239448048784247,-0.49180126652154266,-0.03948943443895128,0.9165055733188412,0.013897561911786056,0.392978031032687,-0.07343472594136077
1882.7833333319497,0.093551666,-1.0150992,0.039061543,-2.0843422,-0.21586005,1.8636776,0.9198405,0.039997246,0.039997075,-0.011681580940559044,0.003138700520357446,-0.07275712518322042,0.004026859502645627,-0.4916903204195088,-0.03862947059235825,0.9148415995569499,0.014096472752788242,0.39677881587461056,-0.07370690910052492
1882.7999999986164,0.09448079,-1.0173976,0.039449748,-2.0816336,-0.21800838,1.8665905,0.92117226,0.039997187,0.039997015,-0.01433364168317297,0.0032320225068521724,-0.07109160775424783,0.003811546620748535,-0.49151931057313886,-0.03776962507555638,0.9131628260115232,0.01429621707360982,0.4005716802306394,-0.07397026676466043
1882.816666665283,0.09540936,-1.0196953,0.03983773,-2.0789256,-0.22015548,1.8695018,0.92250335,0.039997112,0.039996944,-0.013403434544256854,0.0036043129641893934,-0.07215131334732394,0.0035943551382570937,-0.4912872353725294,-0.036910149017787455,0.9114692122230004,0.014496892604882244,0.4043567914851761,-0.0742246620349289
1882.8333333319497,0.09633733,-1.0219911,0.04022544,-2.0762193,-0.22230108,1.872411,0.9238334,0.039997052,0.039996885,-0.017112934539431635,0.0037379021309368043,-0.07014147101676027,0.0033742541058058434,-0.4909879009855215,-0.03605284330486319,0.9097613271215467,0.014698273131382522,0.40813291020885756,-0.07447023597012377
1882.8499999986163,0.09726451,-1.0242852,0.04061283,-2.073515,-0.22444494,1.8753178,0.9251625,0.039996993,0.03999682,-0.01829614545547642,0.004081139152423141,-0.06988511013723553,0.0031512512986167085,-0.4906269003468551,-0.03519554614595724,0.9080393469684784,0.014900525103534628,0.41189973757325027,-0.07470692669214618
1882.866666665283,0.098190844,-1.0265775,0.040999856,-2.0708132,-0.22658686,1.8782221,0.92649025,0.039996937,0.03999677,-0.020239184118242548,0.004316281850504783,-0.06924437651187887,0.002927216014363909,-0.4902045630468309,-0.034341992632571025,0.906303526782416,0.015103435463897752,0.415656798064316,-0.07493483703767535
1882.8833333319496,0.09911618,-1.0288674,0.041386478,-2.068114,-0.22872654,1.8811233,0.9278167,0.039996862,0.039996695,-0.02184434882619435,0.004539482199551748,-0.06826727769242424,0.0027012546018663347,-0.48971874095686946,-0.03348993353656585,0.904554203156694,0.015307090958114423,0.41940347181177395,-0.07515393768917811
1882.8999999986163,0.100040406,-1.0311544,0.04177264,-2.065418,-0.23086365,1.8840209,0.9291415,0.039996814,0.039996646,-0.024091856511354592,0.0047427313702393115,-0.06705685316501508,0.0024733202156129036,-0.4891704526771671,-0.032640828229275214,0.9027917747764648,0.015511381612731343,0.4231390236549402,-0.07536428263288338
1882.916666665283,0.100963436,-1.0334387,0.042158276,-2.0627255,-0.23299797,1.8869148,0.9304647,0.03999675,0.039996583,-0.025464965461496902,0.005044417306690474,-0.06663639023534174,0.0022444909444327005,-0.48856200010231654,-0.0317955327464744,0.901016446687155,0.01571632316564838,0.4268631627550538,-0.07556586708401013
1882.9333333319496,0.10188514,-1.0357199,0.042543355,-2.0600374,-0.23512927,1.8898046,0.93178594,0.0399967,0.03999653,-0.027989166197128768,0.005263849611498311,-0.06534861420453009,0.0020136763697069376,-0.4878917565753983,-0.030953866379240563,0.899228652011141,0.015921829448058873,0.4305751161721988,-0.07575880201369688
1882.9499999986162,0.10280542,-1.0379976,0.042927828,-2.057353,-0.23725723,1.8926898,0.93310523,0.039996646,0.03999648,-0.02828853389176267,0.005463516376569971,-0.06487129954533266,0.0017813920208999412,-0.4871627529489226,-0.0301154362303023,0.8974285643632868,0.01612793608137852,0.4342747043241172,-0.07594302289747107
1882.966666665283,0.10372415,-1.0402715,0.043311644,-2.054673,-0.2393816,1.89557,0.93442225,0.03999659,0.039996423,-0.030367459381119843,0.0057143957220118224,-0.06367996975731316,0.001548338942984992,-0.4863728666993725,-0.0292818229300209,0.8956165846789133,0.016334549721912766,0.4379612650103654,-0.07611863164811752
1882.9833333319496,0.10464122,-1.042541,0.043694757,-2.0519974,-0.2415022,1.8984454,0.9357368,0.03999655,0.039996378,-0.03177000060028412,0.00584555055210198,-0.062115709944032815,0.0013136946741486993,-0.48552009884293273,-0.02845272893251222,0.8937929920597131,0.016541556273344936,0.44163441179376045,-0.07628571675340434
1882.9999999986162,0.105556495,-1.0448066,0.044077154,-2.0493274,-0.24361871,1.9013149,0.9370487,0.039996494,0.039996322,-0.034241673490242874,0.006200096203221039,-0.061905224519342994,0.0010799548842444912,-0.4846072777497856,-0.027628406805111035,0.8919582274546234,0.01674898751790104,0.4452934461741555,-0.07644435026524812
1883.0166666652829,0.106469885,-1.0470673,0.04445875,-2.0466628,-0.24573088,1.9041787,0.93835807,0.03999644,0.03999627,-0.03545288580908412,0.006239591459798743,-0.0598394955534598,0.0008461410520878565,-0.4836346596492861,-0.02680996358067013,0.8901125898234942,0.016956868880303514,0.4489379988902765,-0.07659448536208348
1883.0333333319495,0.1073813,-1.0493232,0.044839516,-2.0440035,-0.24783845,1.9070362,0.9396644,0.039996393,0.03999622,-0.036023888762004574,0.006581127582225982,-0.05989906389032296,0.0006115001153380734,-0.48260184233274006,-0.02599709629540973,0.8882563287222098,0.017165066713539852,0.4525677897747779,-0.07673624064308716
1883.0499999986162,0.10829061,-1.051574,0.0452194,-2.0413504,-0.2499412,1.909887,0.9409678,0.039996337,0.039996166,-0.03869298870626814,0.0067597509102360065,-0.05806771594303317,0.0003768076996166214,-0.4815083575131076,-0.02518971730618321,0.8863899312244456,0.017373607596105227,0.45618208950885203,-0.07686968709678021
1883.0666666652828,0.10919771,-1.0538197,0.045598347,-2.0387034,-0.25203878,1.912731,0.9422683,0.039996296,0.03999612,-0.039156790007632836,0.0069098544872601975,-0.057514685236204066,0.0001413597961067714,-0.4803543823502072,-0.024387831870285762,0.8845135566431089,0.017582582574637667,0.4597808536416404,-0.07699472403436655
1883.0833333319495,0.11010251,-1.0560594,0.045976326,-2.0360632,-0.2541311,1.915568,0.94356525,0.03999625,0.039996073,-0.04154419434345691,0.007076190762701079,-0.05525880885830503,-9.40006239434632e-05,-0.4791373780785253,-0.023594676421785227,0.8826277547608296,0.017791669681018134,0.4633632381839079,-0.07711168857923861
1883.099999998616,0.11100487,-1.058293,0.046353284,-2.0334303,-0.2562178,1.9183972,0.94485873,0.039996207,0.039996028,-0.043805077280723026,0.007278707768378773,-0.05393711849595029,-0.000327765559442722,-0.4778626905829001,-0.022807770112946796,0.880733019217796,0.01800096999253573,0.4669285785884771,-0.07722057003271446
1883.1166666652828,0.111904636,-1.0605205,0.046729177,-2.0308044,-0.25829858,1.9212184,0.9461485,0.039996166,0.03999599,-0.04356320062721686,0.007519019314609909,-0.053740787545453195,-0.0005590349017675911,-0.4765311456750251,-0.022029089224699636,0.8788294708731111,0.018210471019606204,0.4704769343661801,-0.07732136897089015
1883.1333333319494,0.11280179,-1.062742,0.04710396,-2.028186,-0.2603732,1.9240314,0.94743454,0.039996125,0.03999595,-0.0453915295083096,0.007654235833504108,-0.0525133661859023,-0.0007912274192634211,-0.47513840761363185,-0.021257183011496032,0.8769174952556265,0.01842013417059008,0.4740078624296816,-0.07741415585395071
1883.149999998616,0.11369617,-1.0649565,0.047477588,-2.025576,-0.26244152,1.9268357,0.9487167,0.03999608,0.0399959,-0.04812823614521733,0.0078003907754094215,-0.04986372733187805,-0.001023073727121987,-0.4736842780774033,-0.020492810161428652,0.8749977302666967,0.0186299151225591,0.477520453680759,-0.07749912649299634
1883.1666666652827,0.11458769,-1.0671637,0.04785001,-2.0229745,-0.26450318,1.9296309,0.9499947,0.039996043,0.03999586,-0.049195839962967725,0.007889833218417686,-0.04837526360640387,-0.0012542417859342236,-0.47217468939863577,-0.019736680389397614,0.873070562301377,0.018839709867435706,0.4810143120896178,-0.07757635038992143
1883.1833333319494,0.115476236,-1.0693636,0.048221175,-2.0203815,-0.26655805,1.9324168,0.9512685,0.039996002,0.03999582,-0.05001261003054758,0.008149366397827706,-0.04764813068642848,-0.00148314766446013,-0.47060974269980194,-0.01898883586066537,0.8711362549317497,0.01904957196126774,0.4844892717574265,-0.0776458930242707
1883.199999998616,0.11636171,-1.0715562,0.048591062,-2.0177977,-0.2686057,1.9351932,0.9525378,0.03999597,0.039995786,-0.05178864766310909,0.008167032748753605,-0.04626431425158728,-0.0017106100924716844,-0.46898605332635995,-0.01825008112617023,0.8691952348616191,0.01925934439296335,0.48794488833299393,-0.0777078329199193
1883.2166666652827,0.117244,-1.0737412,0.048959594,-2.0152228,-0.2706461,1.9379596,0.9538025,0.039995935,0.03999575,-0.05193166571531016,0.00852359570242267,-0.04535939095299257,-0.0019369924238275549,-0.4673056891969738,-0.01751913300593654,0.8672477683308226,0.019469127686361044,0.4913810045911257,-0.0777622641089879
1883.2333333319493,0.118123,-1.0759177,0.049326763,-2.0126576,-0.27267888,1.9407154,0.95506257,0.039995905,0.03999572,-0.05497971891514908,0.008408155536440004,-0.04228331558886467,-0.0021607670634873483,-0.4655660551135975,-0.016798083949700712,0.8652945965850741,0.01967878868637546,0.49479663518680506,-0.07780935807681796
1883.249999998616,0.11899861,-1.078086,0.049692508,-2.010102,-0.2747038,1.943461,0.95631784,0.03999587,0.039995685,-0.05454346606930116,0.00858999406765995,-0.042058724046301066,-0.0023817480029194593,-0.46377327925259626,-0.016086685763616923,0.8633357830175341,0.01988836334147362,0.4981920310502857,-0.07784907811329508
1883.2666666652826,0.119870715,-1.0802455,0.05005678,-2.0075564,-0.27672064,1.9461954,0.9575679,0.03999585,0.039995663,-0.056683333363061195,0.008728588516552366,-0.0397936332202975,-0.002602277701437658,-0.46192110783982454,-0.015384376771991833,0.8613719635259124,0.02009767499559321,0.5015664132919153,-0.0778816857083201
1883.2833333319493,0.12073921,-1.0823966,0.050419554,-2.0050216,-0.27872926,1.9489185,0.9588129,0.039995823,0.039995637,-0.05790939850007781,0.008974326172638686,-0.03908662414371378,-0.0028192856285656903,-0.46001456481888203,-0.014691408409782808,0.8594034508689953,0.020306876795141822,0.5049196009792121,-0.07790722647022212
1883.299999998616,0.121603996,-1.0845381,0.050780777,-2.0024967,-0.28072923,1.9516298,0.9600527,0.039995804,0.039995614,-0.058417523086085055,0.00884277883836937,-0.03661844893949606,-0.0030344421765947927,-0.45805092188706237,-0.01400882025792766,0.8574307347636716,0.020515897838079607,0.5082511343867023,-0.07792571727714871
1883.3166666652826,0.12246497,-1.0866709,0.0511404,-1.9999833,-0.28272042,1.9543291,0.96128696,0.039995782,0.039995592,-0.06033433943692934,0.009143229677852083,-0.0359917307727331,-0.003246879265919614,-0.4560327904697171,-0.013336998062478865,0.8554541712365051,0.020724600225260795,0.5115607637742857,-0.07793739042485795
1883.3333333319492,0.12332205,-1.088794,0.0514984,-1.9974816,-0.28470263,1.9570165,0.96251565,0.039995763,0.039995573,-0.06180247405080941,0.00902166713707478,-0.03313107597748832,-0.0034563211454143594,-0.4539591497808058,-0.012675132697610007,0.8534742976731944,0.020932961514616072,0.5148479606538733,-0.07794236167850596
1883.3499999986159,0.12417511,-1.090907,0.051854715,-1.9949917,-0.28667563,1.9596913,0.9637386,0.03999573,0.039995536,-0.06292594161538823,0.009118102282762441,-0.03122509233387527,-0.003664104036563774,-0.45183230913219163,-0.012023011711499509,0.8514916049673638,0.02114094736011514,0.5181122887272043,-0.07794076779630718
1883.3666666652825,0.12502407,-1.09301,0.052209307,-1.9925131,-0.2886392,1.9623531,0.9649556,0.039995708,0.039995518,-0.0625318295879751,0.009346660124608802,-0.030977870430226595,-0.0038668218239508445,-0.4496532225305193,-0.011382019819952113,0.8495062890526212,0.021348559236289193,0.5213538174798457,-0.07793266887365456
1883.3833333319492,0.12586881,-1.0951024,0.052562132,-1.9900469,-0.2905929,1.965002,0.96616656,0.039995685,0.03999549,-0.06488099109649426,0.009144114135259396,-0.02802878394341235,-0.00406853614821559,-0.44741955820550605,-0.010750573548622577,0.8475189776843365,0.021555672972455645,0.5245719156486381,-0.07791816694661147
1883.3999999986158,0.12670924,-1.0971844,0.052913155,-1.9875933,-0.29253668,1.9676372,0.96737134,0.039995674,0.03999548,-0.06582646464874387,0.009373527188950848,-0.026803967602462286,-0.004265077936491897,-0.4451327312825981,-0.010130707855608285,0.8455301018147786,0.021762341309475432,0.5277662731857274,-0.0778974217382575
1883.4166666652825,0.1275453,-1.0992557,0.053262338,-1.9851525,-0.29447034,1.9702585,0.9685699,0.03999566,0.03999547,-0.06656639941979847,0.009430352912564999,-0.02523960902468536,-0.004457440778123829,-0.4427951672108339,-0.009522687038594057,0.8435400700561937,0.021968531445259214,0.530936633360411,-0.07787056691486749
1883.4333333319491,0.12837684,-1.101316,0.05360964,-1.9827245,-0.2963936,1.9728657,0.969762,0.039995648,0.039995458,-0.0671241326829719,0.009439339775681177,-0.023638824097971245,-0.004647516541425589,-0.44040546406057224,-0.008924882830823027,0.8415492433069729,0.0221742253337501,0.5340828316552784,-0.07783767565510288
1883.4499999986158,0.12920378,-1.1033651,0.05395501,-1.9803098,-0.29830635,1.9754589,0.97094744,0.03999564,0.039995447,-0.06793924813570662,0.009458181238958252,-0.02177146741998426,-0.0048347253660601525,-0.43796308602838463,-0.008338439268639527,0.8395580051822791,0.022379270397176656,0.5372046580486447,-0.07779896889857095
1883.4666666652824,0.130026,-1.1054024,0.054298427,-1.9779088,-0.3002083,1.9780374,0.97212625,0.03999563,0.039995436,-0.0696923047819542,0.009399167214366178,-0.019118553692587525,-0.005017283288871938,-0.43546808605040566,-0.007763099913728665,0.8375670245957492,0.022583725688055306,0.540301474746574,-0.0777545563330373
1883.483333331949,0.13084348,-1.1074278,0.054639842,-1.975522,-0.30209917,1.9806007,0.9732983,0.03999563,0.039995432,-0.07086162374001503,0.009387648740728782,-0.01752385971052206,-0.005196846466174375,-0.4329241889131371,-0.007198532545920632,0.8355767973869953,0.022787544910689624,0.5433729393440895,-0.07770451887760274
1883.4999999986157,0.13165607,-1.1094414,0.05497921,-1.9731492,-0.30397868,1.9831486,0.9744632,0.039995622,0.039995424,-0.07082505808031492,0.009507862578132104,-0.016462146162044,-0.0053717678064359314,-0.4303329456520563,-0.006646700195182764,0.8335876356196837,0.0229906413431088,0.5464189930926443,-0.07764900604797538
1883.5166666652824,0.13246371,-1.1114424,0.0553165,-1.9707907,-0.30584687,1.9856808,0.97562104,0.039995614,0.039995417,-0.07208482216936041,0.009431750440858089,-0.013729133467388355,-0.005542042790122131,-0.42769308194424915,-0.006106081387601096,0.8316000760842728,0.023193002907207837,0.5494392253629152,-0.07758824463395024
1883.533333331949,0.13326629,-1.1134313,0.055651695,-1.9684471,-0.3077033,1.9881973,0.9767716,0.03999561,0.039995413,-0.07246701825494029,0.009376823286914165,-0.012876742171141764,-0.005708612573805463,-0.4250061201916003,-0.005576414155329806,0.8296144114116143,0.02339458441778229,0.5524336379103302,-0.07752223876564912
1883.5499999986157,0.1340637,-1.1154075,0.05598473,-1.9661186,-0.30954787,1.9906981,0.97791487,0.039995622,0.03999542,-0.07340271001221588,0.009307760046075447,-0.01022777071695291,-0.005871339599491619,-0.4222701268925667,-0.005058469822035623,0.8276311294672613,0.023595363808910773,0.5554019161830231,-0.07745117070578435
1883.5666666652824,0.13485591,-1.1173706,0.056315567,-1.9638051,-0.3113804,1.9931821,0.9790506,0.039995633,0.039995432,-0.07412428370421331,0.009458819447363126,-0.008777697486261893,-0.006028359603144441,-0.41948592200400436,-0.004552343136033147,0.8256507992540725,0.023795317492222984,0.5583436360135571,-0.07737522006247285
1883.583333331949,0.1356428,-1.119321,0.056644183,-1.9615073,-0.31320062,1.9956495,0.98017865,0.03999564,0.03999544,-0.07480978068379329,0.009347514782971633,-0.00726882705766041,-0.00618150444862578,-0.41665691667604254,-0.004057981254454352,0.823673730921998,0.023994396351277147,0.5612587778967155,-0.07729448988549747
1883.5999999986157,0.1364243,-1.121258,0.056970537,-1.9592248,-0.31500828,1.9980998,0.9812989,0.03999565,0.03999545,-0.07472438735298681,0.00925998407245443,-0.005527225506485323,-0.006329386371210735,-0.4137802161084829,-0.003575445275126602,0.8217003423644662,0.02419256196551416,0.5641471702631378,-0.07720905120358577
1883.6166666652823,0.13720031,-1.1231811,0.057294577,-1.9569585,-0.31680334,2.0005329,0.9824113,0.03999567,0.03999547,-0.07670522679266156,0.009169773791040808,-0.0021233360778638577,-0.006472593256733904,-0.41085799857983024,-0.0031050933434510902,0.8197313554213335,0.024389763446843318,0.567008177206498,-0.07711920227203517
1883.633333331949,0.13797073,-1.1250906,0.0576163,-1.9547086,-0.3185855,2.0029483,0.9835157,0.03999569,0.039995488,-0.0767473260119722,0.009172385460590182,-0.0014889878600099493,-0.0066111038406476,-0.4078929037748691,-0.002645972451875537,0.8177670590757705,0.02458598389886516,0.5698418319712841,-0.07702501555923767
1883.6499999986156,0.13873546,-1.1269864,0.05793566,-1.9524752,-0.32035455,2.005346,0.984612,0.039995704,0.039995503,-0.07702063823162852,0.009115152901922885,0.00019813098002252616,-0.006744901604795427,-0.4048850230261872,-0.00219823317915065,0.8158077995178414,0.024781236458611335,0.5726480816028332,-0.07692658319485315
1883.6666666652823,0.13949451,-1.128868,0.05825261,-1.9502583,-0.3221104,2.0077262,0.98570013,0.03999572,0.039995518,-0.0769455544676223,0.008925094410808937,0.002144148097271703,-0.006875192771729086,-0.40183328789713546,-0.001762586944693112,0.8138539213217543,0.024975432521202007,0.5754268786360635,-0.07682401878800646
1883.683333331949,0.14024776,-1.1307352,0.05856713,-1.9480582,-0.32385287,2.0100882,0.98677987,0.03999574,0.03999554,-0.07801745491842205,0.008853463736697986,0.0043626965185450395,-0.006998948170568453,-0.39873596911668385,-0.0013394386158575612,0.8119060047542149,0.025168502573739298,0.5781778314400802,-0.07671754136760861
1883.6999999986156,0.14099504,-1.1325878,0.058879178,-1.9458754,-0.32558167,2.0124311,0.9878512,0.039995763,0.039995562,-0.07897645815884147,0.008992023126197513,0.006109489588934647,-0.0071170999299946455,-0.3955962208749749,-0.0009272725475406168,0.8099646650927964,0.025360571140739994,0.5809005109294852,-0.07660730470648783
1883.7166666652822,0.14173631,-1.1344258,0.059188724,-1.9437096,-0.32729658,2.0147555,0.98891383,0.039995793,0.039995592,-0.07824173735024864,0.008725062824701396,0.00736769811700011,-0.007231243275657134,-0.3924169084648875,-0.0005275308470756059,0.8080300292060151,0.025551466319456047,0.5835952005704305,-0.07649337449355498
1883.7333333319489,0.14247157,-1.1362487,0.059495725,-1.9415619,-0.3289976,2.017061,0.9899678,0.03999582,0.03999562,-0.08005854868682327,0.008537839131989716,0.010560194842379467,-0.007339720657289189,-0.3891955633060717,-0.00013983571259623684,0.8061027991699441,0.02574114935583992,0.5862613554124669,-0.0763760011401377
1883.7499999986155,0.14320068,-1.1380562,0.059800178,-1.9394323,-0.33068442,2.0193472,0.99101305,0.03999586,0.03999566,-0.08027125970442306,0.00832943983597595,0.012575822390548108,-0.007442034284440145,-0.3859356048842416,0.00023696754477994797,0.8041834718791473,0.02592959978583405,0.5888987449649263,-0.07625527909647889
1883.7666666652822,0.14392358,-1.1398484,0.060102023,-1.9373206,-0.332357,2.0216138,0.9920493,0.039995894,0.039995693,-0.07994982152794705,0.008486606828864846,0.013321031500768132,-0.007540651821865897,-0.38264111159777026,0.0006021003973932411,0.8022722884272782,0.026116805153514833,0.5915074788413671,-0.07613140078155119
1883.7833333319488,0.1446402,-1.1416254,0.060401253,-1.9352272,-0.3340151,2.0238605,0.99307674,0.039995927,0.03999573,-0.08028529115402527,0.008425611630984847,0.014593019405173546,-0.0076337346473467,-0.3793057900076249,0.0009564535026940976,0.8003696621610829,0.02630290127295549,0.5940874469020041,-0.07600438612499741
1883.7999999986155,0.14535047,-1.1433865,0.06069783,-1.9331524,-0.3356583,2.0260875,0.994095,0.039995965,0.039995767,-0.08090300993415234,0.007789585392383586,0.01801112853351272,-0.007722677606426455,-0.37593274470587806,0.0012976517773074306,0.7984761102782949,0.026487580481548006,0.5966384089311727,-0.07587435919437285
1883.8166666652821,0.14605431,-1.1451316,0.06099172,-1.9310962,-0.3372868,2.028295,0.9951042,0.039996002,0.039995804,-0.08010723842146739,0.007886483423850954,0.018887937067690874,-0.007805125583419774,-0.3725248882969281,0.0016281149535882014,0.7965917812569698,0.026670923784135776,0.5991605967941306,-0.07574150188404123
1883.8333333319488,0.14675164,-1.146861,0.0612829,-1.9290587,-0.3389004,2.0304816,0.99610394,0.039996035,0.039995838,-0.08104975896747746,0.008127487062353084,0.01999811327025869,-0.00788189895031606,-0.3690770049283139,0.001946302123036106,0.7947173298711965,0.026852976223565934,0.6016535591532031,-0.07560607137403473
1883.8499999986154,0.14744243,-1.1485738,0.061571326,-1.9270401,-0.34049883,2.0326476,0.9970942,0.03999608,0.039995883,-0.08120233154884637,0.007582638438653755,0.023118377754149932,-0.007954225406587495,-0.36559492377857833,0.0022540517109005086,0.7928531854855682,0.027033584585453158,0.6041171830135269,-0.07546814399234537
1883.866666665282,0.14812662,-1.1502708,0.061856993,-1.9250412,-0.34208176,2.0347931,0.998075,0.039996117,0.039995924,-0.08140076563880605,0.007441057733344192,0.023540200832417035,-0.008020248813898886,-0.3620798877155263,0.0025506479523479085,0.7909995713166226,0.027212753742919506,0.6065516336359986,-0.0753276837832407
1883.8833333319487,0.14880407,-1.151951,0.06213986,-1.9230616,-0.34364945,2.0369174,0.9990462,0.03999616,0.03999596,-0.08165528530614807,0.007458400228377987,0.026701237309190162,-0.008081635880585213,-0.35852723915647244,0.0028354988747812497,0.7891571448133671,0.027390516991443143,0.6089564491567787,-0.0751851275141787
1883.8999999986154,0.14947475,-1.153614,0.062419903,-1.9211017,-0.34520146,2.0390208,1.0000077,0.039996203,0.039996006,-0.08169493485459256,0.00700951592350757,0.028566289922238308,-0.008138187718384052,-0.35494554439999304,0.003109789804059883,0.7873262443719413,0.027566770150044228,0.6113316546992584,-0.07504042956523736
1883.916666665282,0.15013865,-1.1552608,0.062697105,-1.9191616,-0.34673762,2.0411026,1.0009599,0.039996248,0.039996054,-0.08135685856802688,0.0071124514530326866,0.028480515392159678,-0.008187441305404865,-0.3513319311375384,0.003373001514725256,0.7855070686126009,0.027741697294117136,0.613677439063664,-0.0748935522935267
1883.9333333319487,0.1507957,-1.1568903,0.06297141,-1.9172419,-0.348258,2.0431628,1.0019017,0.039996285,0.03999609,-0.08271670630244365,0.006782243972505014,0.03252953200335584,-0.008232652217581835,-0.3476848434598579,0.003623171134573628,0.7837004151812423,0.02791490355215312,0.6159931765335975,-0.07474505915758263
1883.9499999986153,0.15144579,-1.1585023,0.06324284,-1.9153422,-0.3497624,2.0452013,1.0028336,0.039996322,0.03999613,-0.08139958182615814,0.006630582553057013,0.03314094524549116,-0.008272697762814932,-0.3440122270037689,0.0038648114081235065,0.7819063748887781,0.02808653284719612,0.6182791977372343,-0.07459491421213023
1883.966666665282,0.15208888,-1.1600976,0.06351135,-1.9134629,-0.3512505,2.0472183,1.0037555,0.039996367,0.039996177,-0.08113916164553814,0.006410441512372939,0.03367702215195667,-0.008306284398149337,-0.340309621191458,0.004096032948174139,0.7801250945861109,0.028256565806505967,0.6205357657410265,-0.0744430434764182
1883.9833333319486,0.15272489,-1.1616757,0.06377691,-1.9116042,-0.3527225,2.0492125,1.0046673,0.0399964,0.03999621,-0.08225603600853226,0.006672514984415456,0.036009163835526437,-0.00833458098048602,-0.3365747465391675,0.004316538473349216,0.7783573738948399,0.0284251592067197,0.6227622561510541,-0.07428984547870433
1883.9999999986153,0.15335383,-1.163236,0.06403953,-1.909766,-0.35417795,2.0511847,1.0055689,0.039996445,0.039996255,-0.08123623511759881,0.005853867194664103,0.03808649512690998,-0.008359727140064582,-0.3328146995663265,0.0045260869600427245,0.7766033348759619,0.028592029332304265,0.6249589740598894,-0.07413526057285927
1884.016666665282,0.15397568,-1.1647782,0.06429913,-1.9079486,-0.35561696,2.0531344,1.0064603,0.039996497,0.039996304,-0.08179156234500162,0.005817461288287057,0.04048042001303376,-0.008378077589352113,-0.3290262221338949,0.004725865931488996,0.7748635463370244,0.028757246950018852,0.6271256177835871,-0.0739794892211344
1884.0333333319486,0.15459023,-1.166303,0.06455573,-1.9061522,-0.35703927,2.0550616,1.0073413,0.039996557,0.039996367,-0.08123095376304512,0.005876359222679178,0.04031128865851219,-0.008390427986428917,-0.3252141831343867,0.004914800279032809,0.7731381334788617,0.028920801175858827,0.6292624444164674,-0.07382269208841258
1884.0499999986152,0.15519758,-1.1678102,0.064809315,-1.9043771,-0.3584448,2.056966,1.0082117,0.03999661,0.039996415,-0.08118759438575651,0.005495157819691843,0.04220604976232778,-0.008400488738329936,-0.3213766181937586,0.005094404493378031,0.7714274615936623,0.029082607329092465,0.6313694231003533,-0.0736649511234999
1884.066666665282,0.1557976,-1.1692995,0.06505983,-1.9026234,-0.35983348,2.0588477,1.0090722,0.039996672,0.039996482,-0.0813140043866234,0.005388305574852148,0.04415462269403703,-0.008402092432187758,-0.3175122503629784,0.005263968796841413,0.7697319603609772,0.029242886592536262,0.6334464399065601,-0.07350626199370804
1884.0833333319486,0.15639034,-1.1707703,0.06530728,-1.9008911,-0.3612053,2.060706,1.0099218,0.039996732,0.039996542,-0.08125595384944617,0.005133585498976606,0.04635762966018753,-0.008400432408476335,-0.31362437193860615,0.005421932327899469,0.7680521385867801,0.02940130739090546,0.6354932595826865,-0.0733470692049177
1884.0999999986152,0.15697566,-1.1722226,0.06555164,-1.89918,-0.36256003,2.0625412,1.0107608,0.0399968,0.039996613,-0.0803594844547284,0.004809806153641821,0.04736785329643167,-0.008393346004542494,-0.30971775677600877,0.005571514892834089,0.7663880785970116,0.029557940509732882,0.6375102063017,-0.07318728030448803
1884.1166666652819,0.15755354,-1.1736565,0.06579287,-1.8974909,-0.36389744,2.0643532,1.0115893,0.039996874,0.03999669,-0.0808734076531259,0.004620878237948656,0.04915553606325007,-0.008381944644128232,-0.30578916358445424,0.005712367123112717,0.764740292033363,0.02971284039900127,0.6394970665941615,-0.07302694484649194
1884.1333333319485,0.15812394,-1.1750717,0.066031024,-1.8958237,-0.3652177,2.0661418,1.0124072,0.039996926,0.039996743,-0.08067549680781383,0.004356802886131689,0.05074995657756709,-0.00836508833648908,-0.3018407368512099,0.005842222525509212,0.7631090763199441,0.02986593880659489,0.641453864786449,-0.07286633439284987
1884.1499999986152,0.15868689,-1.1764685,0.06626601,-1.8941783,-0.36652058,2.067907,1.013214,0.039996974,0.039996795,-0.07953058198126861,0.004327548744129106,0.05105377163557856,-0.008343102415465743,-0.2978753369967493,0.005963410020423042,0.7614945127944074,0.03001708968618806,0.6433809018650156,-0.07270554604800586
1884.1666666652818,0.15924224,-1.1778469,0.06649787,-1.892555,-0.367806,2.0696487,1.0140098,0.03999702,0.03999684,-0.07977554791041008,0.004056451732215027,0.05250523670151663,-0.008316183102816191,-0.29388787405306904,0.006076898315578444,0.7598969851324955,0.030166357335384204,0.64527810368195,-0.0725446881603643
1884.1833333319485,0.15979002,-1.1792061,0.06672655,-1.8909538,-0.36907393,2.0713663,1.014795,0.039997075,0.039996896,-0.07979662742574334,0.003836653817364949,0.05517768699278003,-0.008284860784137808,-0.2898835539666272,0.006181318443387611,0.7583170562848456,0.0303138290281563,0.6471451850903567,-0.07238386098783425
1884.199999998615,0.16033019,-1.1805464,0.06695205,-1.8893747,-0.37032422,2.07306,1.0155691,0.039997138,0.03999696,-0.07909194276591869,0.003570171336670508,0.05579617304195539,-0.008249589898677308,-0.2858657614801346,0.006277365029905073,0.7567548265153378,0.030459393849791253,0.6489824149795446,-0.07222314670078077
1884.2166666652818,0.16086271,-1.181868,0.06717436,-1.8878181,-0.37155682,2.0747302,1.0163329,0.03999719,0.039997015,-0.07854619776153093,0.003348641788315093,0.05655740586733016,-0.008208240977999617,-0.28183275757854576,0.006364561586273127,0.755210406257936,0.03060325583681294,0.6507900512834806,-0.07206241851585601
1884.2333333319484,0.1613875,-1.1831707,0.067393474,-1.8862838,-0.37277168,2.076376,1.0170852,0.039997254,0.039997075,-0.07837825864771553,0.0033501165893776164,0.057720015983409034,-0.008164503738197978,-0.27778212070277597,0.00644103938918268,0.7536842201469419,0.03074511230725378,0.6525679356365558,-0.07190218181497951
1884.249999998615,0.16190462,-1.1844544,0.067609355,-1.8847722,-0.37396878,2.0779972,1.0178266,0.03999731,0.039997134,-0.07870429861074335,0.003116029455163538,0.059642276384264115,-0.0081142012476811,-0.2737189849067799,0.00651097391287799,0.7521767114901491,0.030885108731999438,0.6543159261798155,-0.07174241073401294
1884.2666666652817,0.16241403,-1.1857189,0.06782201,-1.883283,-0.3751479,2.0795941,1.0185568,0.039997388,0.039997216,-0.0776168000131694,0.0026922737785213535,0.060781359076433894,-0.008061657963724732,-0.26964625630204886,0.0065723916622658606,0.7506880087834915,0.031023150664767126,0.6560342479446952,-0.0715831203227831
1884.2833333319484,0.16291563,-1.186964,0.06803143,-1.8818164,-0.3763091,2.0811672,1.019276,0.03999744,0.03999727,-0.0768243304064331,0.002427002500096642,0.06177358694620105,-0.00800328234391105,-0.2655630934610004,0.006624979664173969,0.7492181752352769,0.031159214243755957,0.6577231792002035,-0.07142442724734191
1884.299999998615,0.1634095,-1.18819,0.06823762,-1.8803728,-0.37745252,2.082716,1.0199842,0.039997496,0.039997324,-0.07717235746280693,0.0023445688377130014,0.0631728093138717,-0.007942596128094094,-0.26146782413187514,0.00667135989838798,0.7477676293075739,0.03129335312414168,0.6593825762536397,-0.07126651908920237
1884.3166666652817,0.16389556,-1.1893969,0.06844055,-1.878951,-0.37857774,2.0842402,1.0206813,0.039997548,0.039997377,-0.0750756982889289,0.0023383200735006826,0.06215110063381157,-0.007877069602481909,-0.2573634348315042,0.006709163471958501,0.7463362470591437,0.031425593156111854,0.6610129448973316,-0.07110924763078477
1884.3333333319483,0.16437386,-1.1905843,0.06864022,-1.8775523,-0.37968495,2.085741,1.0213668,0.039997607,0.03999744,-0.07558874310156227,0.0015602273280221346,0.0654188422164359,-0.00780573491715977,-0.2532469844980125,0.0067381170199680325,0.7449243380156153,0.031555583049720455,0.6626142585578562,-0.07095294332310816
1884.349999998615,0.16484432,-1.1917524,0.068836585,-1.8761766,-0.38077414,2.0872157,1.0220414,0.039997667,0.0399975,-0.07689774829939822,0.0022468573225527255,0.06642765913833504,-0.007730248111716249,-0.2491209708426878,0.006762370670783309,0.743532887347126,0.031683874669680964,0.6641857123904444,-0.07079771871720048
1884.3666666652816,0.16530693,-1.192901,0.0690297,-1.8748239,-0.38184506,2.088666,1.0227045,0.039997723,0.03999756,-0.07502857021828291,0.0012779047902054808,0.06739052677915414,-0.007652749570980805,-0.24499683319173754,0.006777571833258026,0.7421615647316322,0.03180996980249571,0.6657280333392634,-0.07064363582443985
1884.3833333319483,0.16576166,-1.1940302,0.06921953,-1.8734941,-0.38289788,2.0900924,1.0233562,0.039997794,0.03999763,-0.07383951427497593,0.0011606993468485372,0.06767194943433363,-0.0075713669348318295,-0.24086691489171994,0.006787611986892896,0.7408102847350897,0.03193394767085207,0.6672416371984261,-0.07049072708970076
1884.399999998615,0.16620852,-1.1951396,0.06940609,-1.8721874,-0.38393253,2.0914936,1.0239968,0.039997846,0.039997682,-0.07459953297734856,0.0011660253372909601,0.0694564771372419,-0.0074869364149566485,-0.2367303649062935,0.00679182218320306,0.7394797743918538,0.03205601544913396,0.6687260183377737,-0.07033908967996107
1884.4166666652816,0.16664758,-1.1962299,0.06958938,-1.8709035,-0.3849489,2.0928707,1.0246263,0.039997905,0.039997745,-0.07277165179013778,0.0007976010617471996,0.06878903774933387,-0.007398154897470484,-0.232596641644648,0.00678813853100102,0.7381696302742986,0.032176001784692064,0.670181958809986,-0.0701886310983977
1884.4333333319482,0.1670787,-1.1973004,0.06976937,-1.8696431,-0.38594714,2.0942228,1.0252445,0.039997946,0.039997783,-0.07397349929045838,0.0006670946008466294,0.07192713640696291,-0.007306437037027668,-0.22845592139791687,0.006778733617497042,0.736880677846812,0.032293982911466325,0.6716088179360146,-0.07003970983896292
1884.4499999986149,0.16750199,-1.1983517,0.069946066,-1.8684055,-0.3869272,2.09555,1.0258515,0.03999801,0.039997846,-0.07197765618927043,0.0007113750108728167,0.07028153920046187,-0.007211380401269542,-0.22431975967426826,0.006762637101268851,0.7356125710598239,0.03240999182612222,0.6730072931642029,-0.06989221041274041
1884.4666666652815,0.16791739,-1.1993833,0.07011946,-1.8671905,-0.3878889,2.0968528,1.026447,0.039998062,0.039997898,-0.07135682307315427,0.00023517666856431862,0.07208217564586006,-0.007113252387459135,-0.2201821793827085,0.006739867572712506,0.7343655510931499,0.03252386927572338,0.674377414268196,-0.06974624305245361
1884.4833333319482,0.16832493,-1.2003952,0.070289575,-1.8659986,-0.38883245,2.0981305,1.0270311,0.03999812,0.03999796,-0.07168062122944185,0.00018550406663889185,0.07308252087066536,-0.007011369711661032,-0.21604658809237254,0.006711344180135291,0.7331399753665429,0.032635603000479865,0.6757190602556962,-0.06960205128801053
1884.4999999986148,0.16872454,-1.201388,0.07045641,-1.8648297,-0.38975778,2.0993834,1.0276039,0.039998177,0.039998017,-0.07047918379630147,0.00012703168212335747,0.07260159235715213,-0.006908156301614499,-0.21191663181292167,0.0066793224202988215,0.7319357072193019,0.03274536911266723,0.6770326690404155,-0.06945953031130117
1884.5166666652815,0.16911636,-1.202361,0.07061996,-1.8636839,-0.39066496,2.100612,1.0281656,0.039998252,0.03999809,-0.0703164017692437,-0.0005118660140059073,0.07499358166722647,-0.006801489153391942,-0.20778959026804272,0.006640650460460466,0.7307530353348959,0.032853015349643855,0.6783182102001971,-0.06931873081695608
1884.5333333319481,0.16950037,-1.2033145,0.07078024,-1.862561,-0.3915539,2.1018157,1.0287162,0.039998308,0.03999814,-0.06933891016318583,-0.0003626403299088199,0.07428596011797017,-0.006693812826530428,-0.2036694539475292,0.006597279480278856,0.7295919802587665,0.03295866771619975,0.6795759305086742,-0.06917964467771126
1884.5499999986148,0.16987644,-1.2042487,0.07093723,-1.8614608,-0.39242488,2.1029952,1.0292554,0.039998364,0.039998196,-0.06842475879698107,-0.0004801552278402288,0.07481387479024715,-0.006580868488040355,-0.19955603682845965,0.006546883972936764,0.7284524974856251,0.03306220191899725,0.6808061185741117,-0.06904258557785564
1884.5666666652814,0.1702447,-1.2051638,0.07109094,-1.8603836,-0.39327756,2.1041498,1.0297836,0.03999842,0.039998244,-0.06843097848894253,-0.000594748102910464,0.07489153433863915,-0.0064683635117700235,-0.1954476800447314,0.006493796536083651,0.7273348097609299,0.033163799347502555,0.6820088146083433,-0.06890728350031732
1884.583333331948,0.17060512,-1.2060591,0.07124141,-1.8593293,-0.39411226,2.1052804,1.0303006,0.039998475,0.039998304,-0.06757105713162126,-0.0012473895346268304,0.07720102180425736,-0.006349995077768334,-0.19134935077844045,0.006433084445965693,0.7262390547029907,0.03326321455167946,0.6831841061466016,-0.06877405826664806
1884.5999999986147,0.17095773,-1.2069348,0.07138863,-1.858298,-0.39492887,2.1063862,1.0308063,0.039998546,0.039998367,-0.06745786559148037,-0.0011209059006603295,0.07720703837255094,-0.006232434479516144,-0.18726148580720522,0.006369401842417902,0.7251654789236799,0.03336051088860097,0.6843319711960965,-0.06864297261560226
1884.6166666652814,0.17130259,-1.2077917,0.07153261,-1.8572894,-0.39572743,2.1074674,1.0313008,0.0399986,0.039998412,-0.06650098757345901,-0.001093394380860535,0.07616648144327942,-0.006111493241735572,-0.18318778916041575,0.006302508932746109,0.7241138814969251,0.03345574135238827,0.6854528703245965,-0.06851395885358827
