rsonawane2002/My_IMU/logs_2/traj_421/imu_400hz_421.csv
time,j1,j2,j3,j4,j5,j6,j7,gripper1,gripper2,imu_ax,imu_ay,imu_az,imu_gx,imu_gy,imu_gz
0.0,0.00016700293,-0.785875,4.0107683e-05,-2.3551247,9.29385e-05,1.570997,0.786,0.04,0.04,-9.517176,-0.0063200406730175,0.111629106,3.3111203e-09,-0.0011641276068985,1.02220575e-07
0.0025,0.000167003779,-0.7858577740000002,4.010890804999999e-05,-2.35513919,9.294276059999995e-05,1.570996565,0.786,0.04,0.04,-9.564752999999394,-0.005276410721139303,0.0962523411001958,-4.344060444902526e-09,-0.001325521082615245,1.667309482491786e-07
0.005,0.000167004628,-0.7858405480000005,4.011013309999997e-05,-2.35515368,9.294702119999989e-05,1.57099613,0.786,0.04,0.04,-9.612329999998789,-0.004232780769261106,0.08087557620039158,-1.1999241189805053e-08,-0.00148691455833199,2.312413214983572e-07
0.0075,0.00016700547699999998,-0.7858233220000007,4.0111358149999955e-05,-2.35516817,9.295128179999984e-05,1.5709956950000001,0.786,0.04,0.04,-9.659906999998181,-0.0031891508173829105,0.06549881130058738,-1.965442193470758e-08,-0.001648308034048735,2.957516947475358e-07
0.01,0.00016700632599999995,-0.785806096000001,4.011258319999994e-05,-2.3551826599999997,9.295554239999979e-05,1.5709952600000001,0.786,0.04,0.04,-9.707483999997576,-0.0021455208655047136,0.05012204640078317,-2.7309602679610106e-08,-0.00180970150976548,3.6026206799671437e-07
0.0125,0.00016700717499999995,-0.7857888700000011,4.011380824999992e-05,-2.355197149999999,9.295980299999972e-05,1.570994825,0.786,0.04,0.04,-9.75506099999697,-0.0011018909136265168,0.034745281500978956,-3.4964783424512633e-08,-0.001971094985482225,4.24772441245893e-07
0.015,0.00016700802399999994,-0.7857716440000013,4.011503329999991e-05,-2.355211639999999,9.296406359999967e-05,1.57099439,0.786,0.04,0.04,-9.802637999996366,-5.826096174832082e-05,0.01936851660117475,-4.261996416941516e-08,-0.0021324884611989697,4.892828144950715e-07
0.0175,0.0001670098769999997,-0.7857548670000013,4.0116664399999806e-05,-2.355225734999999,9.296573730000027e-05,1.57099396,0.786,0.04,0.04,-9.83427385000002,0.0006381540530126512,0.009038102600019025,-4.705049390016157e-08,-0.002290053619059822,3.956124785328168e-07
0.02,0.00016701373799999974,-0.7857389880000011,4.011910759999984e-05,-2.3552390399999994,9.296223720000022e-05,1.5709935400000001,0.786,0.04,0.04,-9.834027400000016,0.00064013919327391,0.008800390400015566,-4.5031721600132196e-08,-0.0024399621412059635,-1.4419275973149757e-08
0.0225,0.00016701759899999982,-0.7857231090000009,4.012155079999988e-05,-2.3552523449999994,9.295873710000018e-05,1.57099312,0.786,0.04,0.04,-9.833780950000012,0.0006421243335351689,0.008562678200012106,-4.301294930010282e-08,-0.0025898706633521048,-4.244510304791163e-07
0.025,0.00016702145999999987,-0.7857072300000006,4.012399399999991e-05,-2.3552656499999993,9.295523700000012e-05,1.5709927000000001,0.786,0.04,0.04,-9.83353450000001,0.0006441094737964278,0.008324966000008647,-4.0994177000073444e-08,-0.0027397791854982464,-8.344827849850835e-07
0.0275,0.00016702532099999992,-0.7856913510000004,4.0126437199999946e-05,-2.3552789549999997,9.295173690000007e-05,1.57099228,0.786,0.04,0.04,-9.833288050000005,0.0006460946140576867,0.00808725380000519,-3.8975404700044064e-08,-0.0028896877076443877,-1.24451453949105e-06
0.03,0.00016702918199999997,-0.7856754720000001,4.012888039999998e-05,-2.3552922599999997,9.294823680000002e-05,1.57099186,0.786,0.04,0.04,-9.833041600000001,0.0006480797543189455,0.00784954160000173,-3.695663240001469e-08,-0.003039596229790529,-1.6545462939970165e-06
0.0325,0.00016703304300000002,-0.7856595929999999,4.013132360000002e-05,-2.355305565,9.294473669999996e-05,1.57099144,0.786,0.04,0.04,-9.832795149999999,0.0006500648945802044,0.00761182939999827,-3.493786009998531e-08,-0.0031895047519366706,-2.064578048502984e-06
0.035,0.00016704229600000004,-0.785644573,4.013601060000002e-05,-2.3553181,9.292806059999991e-05,1.57099101,0.786,0.04,0.04,-9.8325491,0.0006533787760417144,0.007400001599999277,3.556255760038118e-08,-0.003333481214941033,-2.9981576700043503e-06
0.0375,0.0001670542449999999,-0.7856299825000002,4.0141819499999945e-05,-2.3553302499999997,9.290479650000021e-05,1.570990575,0.786,0.04,0.04,-9.832303250000002,0.0006573570281033139,0.007201116000001809,1.4030379799904732e-07,-0.0034744916483746674,-4.1935112249891285e-06
0.04,0.00016706619399999974,-0.7856153920000003,4.014762839999987e-05,-2.3553423999999996,9.28815324000005e-05,1.57099014,0.786,0.04,0.04,-9.832057400000005,0.0006613352801649132,0.007002230400004341,2.450450383977137e-07,-0.003615502081808302,-5.388864779973909e-06
0.0425,0.0001670781429999996,-0.7856008015000006,4.01534372999998e-05,-2.3553545499999995,9.28582683000008e-05,1.5709897050000001,0.786,0.04,0.04,-9.831811550000008,0.0006653135322265125,0.0068033448000068735,3.497862787963802e-07,-0.003756512515241937,-6.584218334958689e-06
0.045,0.00016709009199999944,-0.7855862110000007,4.0159246199999725e-05,-2.3553666999999994,9.283500420000109e-05,1.57098927,0.786,0.04,0.04,-9.831565700000011,0.0006692917842881119,0.006604459200009407,4.545275191950463e-07,-0.003897522948675571,-7.779571889943467e-06
0.0475,0.0001671020409999993,-0.7855716205000008,4.016505509999965e-05,-2.3553788499999992,9.28117401000014e-05,1.570988835,0.786,0.04,0.04,-9.831319850000014,0.0006732700363497112,0.006405573600011939,5.592687595937128e-07,-0.004038533382109206,-8.974925444928248e-06
0.05,0.00016711398999999915,-0.7855570300000011,4.017086399999958e-05,-2.355390999999999,9.27884760000017e-05,1.5709884,0.786,0.04,0.04,-9.831074000000017,0.0006772482884113105,0.006206688000014471,6.640099999923791e-07,-0.00417954381554284,-1.0170278999913029e-05
0.0525,0.00016714138449999805,-0.7855436365000009,4.018313999999912e-05,-2.355402024999999,9.272820360000433e-05,1.5709879800000002,0.786,0.04,0.04,-9.830882750000013,0.00068246748123742,0.006017037750013627,8.262071299883459e-07,-0.004313286230889705,-1.2487596149833499e-05
0.055,0.00016716877899999806,-0.785530243000001,4.019541599999913e-05,-2.3554130499999992,9.266793120000427e-05,1.57098756,0.786,0.04,0.04,-9.830691500000013,0.0006876866740636198,0.005827387500013454,9.884042599884936e-07,-0.004447028646236042,-1.480491329983561e-05
0.0575,0.0001671961734999981,-0.7855168495000009,4.020769199999914e-05,-2.3554240749999993,9.260765880000422e-05,1.57098714,0.786,0.04,0.04,-9.830500250000012,0.0006929058668898195,0.005637737250013281,1.1506013899886413e-06,-0.004580771061582379,-1.712223044983772e-05
0.06,0.00016722356799999812,-0.7855034560000009,4.021996799999915e-05,-2.3554350999999993,9.254738640000416e-05,1.57098672,0.786,0.04,0.04,-9.830309000000012,0.0006981250597160192,0.005448087000013109,1.3127985199887883e-06,-0.004714513476928715,-1.9439547599839823e-05
0.0625,0.00016725096249999813,-0.7854900625000009,4.0232243999999164e-05,-2.3554461249999994,9.248711400000411e-05,1.5709863,0.786,0.04,0.04,-9.830117750000012,0.000703344252542219,0.005258436750012936,1.474995649988936e-06,-0.004848255892275052,-2.175686474984193e-05
0.065,0.00016727835699999817,-0.7854766690000009,4.024451999999917e-05,-2.3554571499999994,9.242684160000405e-05,1.57098588,0.786,0.04,0.04,-9.829926500000012,0.0007085634453684187,0.005068786500012764,1.6371927799890837e-06,-0.004981998307621389,-2.4074181899844044e-05
0.0675,0.0001673140239999968,-0.7854636580000007,4.02602607999986e-05,-2.3554678349999993,9.234695500000736e-05,1.57098562,0.786,0.04,0.04,-9.829751900000009,0.000714419770519729,0.0048820859000111815,1.8638130199780166e-06,-0.005113880871787169,-2.6866476999768565e-05
0.07,0.00016736623599999755,-0.7854514120000006,4.0282931199998924e-05,-2.35547784,9.222784000000563e-05,1.57098568,0.786,0.04,0.04,-9.829610600000006,0.0007215503603216427,0.004701284600008551,2.2192794799831895e-06,-0.005242043733590719,-3.0608727999823025e-05
0.0725,0.00016741844799999828,-0.7854391660000004,4.0305601599999256e-05,-2.355487845,9.21087250000039e-05,1.57098574,0.786,0.04,0.04,-9.829469300000005,0.0007286809501235564,0.00452048330000592,2.574745939988361e-06,-0.005370206595394268,-3.4350978999877464e-05
0.075,0.00016747065999999904,-0.7854269200000003,4.032827199999959e-05,-2.35549785,9.198961000000216e-05,1.5709857999999999,0.786,0.04,0.04,-9.829328000000002,0.0007358115399254703,0.004339682000003289,2.930212399993534e-06,-0.005498369457197819,-3.8093229999931924e-05
0.0775,0.0001675228719999998,-0.785414674,4.0350942399999913e-05,-2.355507855,9.187049500000043e-05,1.57098586,0.786,0.04,0.04,-9.8291867,0.000742942129727384,0.004158880700000658,3.285678859998707e-06,-0.005626532319001369,-4.1835480999986384e-05
0.08,0.00016757508400000055,-0.7854024279999998,4.0373612800000245e-05,-2.3555178600000004,9.17513799999987e-05,1.57098592,0.786,0.04,0.04,-9.829045399999998,0.0007500727195292978,0.003978079399998027,3.64114532000388e-06,-0.0057546951808049186,-4.5577732000040844e-05
0.0825,0.0001676272960000013,-0.7853901819999997,4.039628320000058e-05,-2.3555278650000004,9.163226499999697e-05,1.57098598,0.786,0.04,0.04,-9.828904099999995,0.0007572033093312116,0.003797278099995396,3.996611780009053e-06,-0.005882858042608469,-4.9319983000095304e-05
0.085,0.00016770354200000193,-0.7853786539999997,4.042902320000082e-05,-2.3555371400000005,9.145650599999554e-05,1.5709860900000001,0.7860000300000001,0.04,0.04,-9.828759499999997,0.0007647094083950979,0.003629446689996478,4.527518940013505e-06,-0.006007346138360778,-5.419407400011876e-05
0.08750000000000001,0.0001677918050000008,-0.7853674849999999,4.0466798000000344e-05,-2.35554605,9.125242499999814e-05,1.570986225,0.786000075,0.04,0.04,-9.828613249999998,0.000772403262089945,0.003468100224998532,5.146146450005629e-06,-0.006129996851087716,-5.96340850000495e-05
0.09,0.00016788006799999967,-0.785356316,4.050457279999986e-05,-2.35555496,9.104834400000074e-05,1.57098636,0.78600012,0.04,0.04,-9.828467,0.000780097115784792,0.003306753760000587,5.764773959997749e-06,-0.006252647563814654,-6.50740959999802e-05
0.0925,0.00016796833099999854,-0.7853451470000001,4.054234759999938e-05,-2.35556387,9.084426300000334e-05,1.570986495,0.786000165,0.04,0.04,-9.828320750000003,0.0007877909694796391,0.0031454072950026415,6.383401469989873e-06,-0.006375298276541592,-7.051410699991095e-05
0.095,0.00016805659399999744,-0.7853339780000003,4.0580122399998904e-05,-2.35557278,9.064018200000594e-05,1.57098663,0.78600021,0.04,0.04,-9.828174500000005,0.0007954848231744861,0.002984060830004696,7.002028979981996e-06,-0.006497948989268531,-7.595411799984168e-05
0.0975,0.0001681448569999963,-0.7853228090000004,4.061789719999842e-05,-2.3555816899999997,9.043610100000854e-05,1.570986765,0.786000255,0.04,0.04,-9.828028250000006,0.0008031786768693331,0.00282271436500675,7.62065648997412e-06,-0.006620599701995469,-8.139412899977241e-05
0.1,0.00016823311999999518,-0.7853116400000005,4.065567199999794e-05,-2.3555905999999998,9.023202000001114e-05,1.5709869,0.7860003,0.04,0.04,-9.827882000000008,0.0008108725305641802,0.002661367900008804,8.239283999966244e-06,-0.006743250414722408,-8.683413999970314e-05
0.10250000000000001,0.00016837029949999077,-0.7853015090000006,4.071393979999608e-05,-2.3555989999999998,8.991304560002147e-05,1.5709870350000001,0.7860005849999999,0.04,0.04,-9.827789450000006,0.000818494806298417,0.002513451820009955,8.99990954994881e-06,-0.006863058824084057,-9.42144864995033e-05
0.105,0.00016850747899998904,-0.7852913780000008,4.0772207599995336e-05,-2.3556073999999994,8.959407120002553e-05,1.57098717,0.78600087,0.04,0.04,-9.827696900000008,0.0008261170820326499,0.0023655357400118385,9.760535099939122e-06,-0.006982867233445551,-0.0001015948329994093
0.1075,0.00016864465849998728,-0.7852812470000009,4.08304753999946e-05,-2.3556157999999994,8.92750968000296e-05,1.570987305,0.786001155,0.04,0.04,-9.827604350000009,0.0008337393577668829,0.002217619660013722,1.0521160649929438e-05,-0.007102675642807046,-0.00010897517949931532
0.11,0.00016878183799998552,-0.7852711160000011,4.0888743199993855e-05,-2.3556241999999994,8.895612240003365e-05,1.57098744,0.7860014399999999,0.04,0.04,-9.82751180000001,0.0008413616335011158,0.0020697035800156054,1.1281786199919755e-05,-0.00722248405216854,-0.00011635552599922136
0.1125,0.0001689190174999838,-0.7852609850000012,4.094701099999311e-05,-2.355632599999999,8.863714800003772e-05,1.570987575,0.786001725,0.04,0.04,-9.82741925000001,0.0008489839092353488,0.0019217875000174887,1.204241174991007e-05,-0.007342292461530035,-0.0001237358724991274
0.115,0.00016905619699998203,-0.7852508540000013,4.100527879999237e-05,-2.355640999999999,8.831817360004178e-05,1.57098771,0.7860020099999999,0.04,0.04,-9.827326700000013,0.0008566061849695817,0.001773871420019372,1.2803037299900384e-05,-0.007462100870891529,-0.00013111621899903342
0.11750000000000001,0.00016921445199997393,-0.7852410515000012,4.107236654998898e-05,-2.355649104999999,8.795036200006054e-05,1.5709879999999998,0.786002295,0.04,0.03999999975,-9.827260550000002,0.0008644604415156283,0.0016359948150153202,1.332768099999315e-05,-0.007582615502162718,-0.00013917618899877496
0.12,0.00016941485799997958,-0.7852319060000009,4.115709419999137e-05,-2.355656619999999,8.748487600004742e-05,1.5709886,0.78600258,0.04,0.039999999,-9.827247200000002,0.0008727786596855927,0.0015181971600119995,1.3380360999994635e-05,-0.007704542577254179,-0.0001485954059990405
0.1225,0.00016961526399998525,-0.7852227605000006,4.124182184999376e-05,-2.3556641349999996,8.701939000003429e-05,1.5709891999999999,0.7860028649999999,0.04,0.03999999825,-9.82723385,0.0008810968778555572,0.0014003995050086782,1.343304099999612e-05,-0.007826469652345642,-0.00015801462299930608
0.125,0.0001698156699999909,-0.7852136150000004,4.132654949999615e-05,-2.3556716499999997,8.655390400002117e-05,1.5709898,0.78600315,0.04,0.0399999975,-9.827220500000001,0.0008894150960255218,0.0012826018500053569,1.3485720999997604e-05,-0.007948396727437105,-0.00016743383999957167
0.1275,0.00017001607599999655,-0.7852044695000001,4.1411277149998535e-05,-2.355679165,8.608841800000804e-05,1.5709904,0.786003435,0.04,0.03999999675,-9.82720715,0.0008977333141954863,0.0011648041950020355,1.353840099999909e-05,-0.008070323802528569,-0.00017685305699983723
0.13,0.0001702164820000022,-0.7851953239999999,4.149600480000092e-05,-2.3556866800000003,8.562293199999492e-05,1.570991,0.78600372,0.04,0.039999996,-9.8271938,0.0009060515323654508,0.0010470065399987142,1.3591081000000575e-05,-0.00819225087762003,-0.00018627227400010282
0.1325,0.00017041688800000784,-0.7851861784999996,4.158073245000331e-05,-2.3556941950000003,8.515744599998179e-05,1.5709916000000002,0.786004005,0.04,0.03999999525,-9.827180449999998,0.0009143697505354153,0.0009292088849953929,1.364376100000206e-05,-0.008314177952711494,-0.0001956914910003684
0.135,0.00017066988500001118,-0.7851776769999996,4.168748190000471e-05,-2.3557009900000003,8.456819309997394e-05,1.5709922600000001,0.78600432,0.04,0.0399999955,-9.827158899999999,0.0009210955875462173,0.0008039115164948354,1.4093489700025944e-05,-0.008435577433561077,-0.0002068352200004805
0.1375,0.00017094917750000763,-0.7851694974999998,4.180524225000321e-05,-2.3557074250000003,8.391705674998223e-05,1.5709929500000002,0.78600465,0.04,0.03999999625,-9.82713325,0.0009270252339776119,0.0006748642912464784,1.474174275001769e-05,-0.00855671311728978,-0.00021884120500032764
0.14,0.00017122847000000408,-0.7851613179999999,4.1923002600001714e-05,-2.3557138600000003,8.326592039999053e-05,1.57099364,0.78600498,0.04,0.039999997,-9.8271076,0.0009329548804090064,0.0005458170659981214,1.5389995800009435e-05,-0.008677848801018483,-0.00023084719000017478
0.14250000000000002,0.00017150776250000053,-0.7851531384999999,4.204076295000021e-05,-2.3557202950000002,8.261478404999881e-05,1.57099433,0.7860053100000001,0.04,0.03999999775,-9.82708195,0.0009388845268404008,0.00041676984074976445,1.6038248850001184e-05,-0.008798984484747186,-0.00024285317500002192
0.145,0.00017178705499999695,-0.785144959,4.215852329999872e-05,-2.35572673,8.196364770000711e-05,1.57099502,0.7860056400000001,0.04,0.0399999985,-9.8270563,0.0009448141732717953,0.000287722615501409,1.6686501899992923e-05,-0.008920120168475886,-0.0002548591599998689
0.1475,0.0001720663474999934,-0.7851367795000002,4.2276283649997214e-05,-2.355733165,8.13125113500154e-05,1.57099571,0.78600597,0.04,0.03999999925,-9.827030650000001,0.0009507438197031898,0.00015867539025305193,1.733475494998467e-05,-0.00904125585220459,-0.00026686514499971604
0.15,0.00017234563999998984,-0.7851286000000003,4.239404399999572e-05,-2.3557395999999997,8.066137500002369e-05,1.5709964,0.7860063,0.04,0.04,-9.827005000000002,0.0009566734661345843,2.9628165004694988e-05,1.7983007999976414e-05,-0.009162391535933291,-0.0002788711299995632
0.1525,0.00017272055749999182,-0.7851213700000002,4.255179944999656e-05,-2.355745105,7.978876215001904e-05,1.5709975250000001,0.78600687,0.04,0.03999999925,-9.826961500000001,0.0009638634539440331,-6.107890574801992e-05,1.905866879997652e-05,-0.009285258781162122,-0.00029316282849968804
0.155,0.00017309547499999727,-0.78511414,4.2709554899998855e-05,-2.3557506100000003,7.891614930000635e-05,1.57099865,0.78600744,0.04,0.0399999985,-9.826918000000001,0.0009710534417535278,-0.00015178597649933998,2.013432959999217e-05,-0.009408126026391015,-0.000307454526999896
0.1575,0.00017347039250000272,-0.7851069099999999,4.2867310350001145e-05,-2.355756115,7.804353644999365e-05,1.570999775,0.7860080100000001,0.04,0.03999999775,-9.826874499999999,0.0009782434295630225,-0.00024249304725065997,2.1209990400007828e-05,-0.009530993271619909,-0.000321746225500104
0.16,0.0001738453100000082,-0.7850996799999999,4.302506580000344e-05,-2.35576162,7.717092359998095e-05,1.5710009,0.7860085800000001,0.04,0.039999997,-9.826830999999999,0.000985433417372517,-0.00033320011800198,2.2285651200023478e-05,-0.009653860516848802,-0.000336037924000312
0.1625,0.00017422022750001364,-0.7850924499999997,4.318282125000574e-05,-2.3557671250000003,7.629831074996826e-05,1.571002025,0.78600915,0.04,0.03999999625,-9.826787499999998,0.0009926234051820116,-0.00042390718875330005,2.3361312000039135e-05,-0.009776727762077695,-0.00035032962250051996
0.165,0.0001745951450000191,-0.7850852199999996,4.3340576700008035e-05,-2.35577263,7.542569789995556e-05,1.5710031500000001,0.78600972,0.04,0.0399999955,-9.826743999999998,0.0009998133929915063,-0.0005146142595046201,2.4436972800054786e-05,-0.009899595007306588,-0.00036462132100072793
0.1675,0.00017500787250003197,-0.7850782999999996,4.351414865001344e-05,-2.3557779100000005,7.446501169992556e-05,1.57100433,0.7860103465000001,0.04,0.039999995,-9.826720100000001,0.001005858404096396,-0.0006055358580059823,2.5397417400047805e-05,-0.010023051779725326,-0.00037984353800111874
0.17,0.00017549622000003908,-0.7850719999999995,4.371935360001642e-05,-2.3557827400000004,7.332817879990901e-05,1.57100562,0.7860110860000001,0.04,0.039999995,-9.8267354,0.0010096134617927006,-0.0006968865120073117,2.612742960005843e-05,-0.010147687606523435,-0.00039692679200136735
0.17250000000000001,0.00017598456750004618,-0.7850656999999994,4.392455855001941e-05,-2.3557875700000004,7.219134589989247e-05,1.5710069100000001,0.7860118255,0.04,0.039999995,-9.826750700000002,0.0010133685194890051,-0.0007882371660086411,2.6857441800069053e-05,-0.010272323433321543,-0.00041401004600161596
0.17500000000000002,0.0001764729150000533,-0.7850593999999993,4.41297635000224e-05,-2.355792400000001,7.105451299987592e-05,1.5710082,0.786012565,0.04,0.039999995,-9.826766000000001,0.00101712357718531,-0.0008795878200099705,2.7587454000079676e-05,-0.010396959260119652,-0.00043109330000186456
0.1775,0.0001769612625000604,-0.7850530999999993,4.433496845002538e-05,-2.3557972300000007,6.991768009985939e-05,1.57100949,0.7860133045000001,0.04,0.039999995,-9.826781300000002,0.0010208786348816145,-0.0009709384740112989,2.8317466200090292e-05,-0.010521595086917761,-0.000448176554002113
0.18,0.0001774496100000675,-0.7850467999999992,4.454017340002837e-05,-2.3558020600000007,6.878084719984285e-05,1.5710107800000002,0.7860140440000001,0.04,0.039999995,-9.826796600000002,0.0010246336925779191,-0.0010622891280126284,2.9047478400100914e-05,-0.01064623091371587,-0.0004652598080023616
0.1825,0.00017793795750007462,-0.785040499999999,4.474537835003135e-05,-2.355806890000001,6.76440142998263e-05,1.57101207,0.7860147835000001,0.04,0.039999995,-9.826811900000003,0.0010283887502742237,-0.0011536397820139576,2.977749060011154e-05,-0.010770866740513979,-0.0004823430620026102
0.185,0.00017851438000009254,-0.7850348099999992,4.498741450003885e-05,-2.355811170000001,6.63022619997846e-05,1.5710137300000002,0.7860156030000001,0.04,0.039999995,-9.826842100000006,0.001030945882667062,-0.0012217156200084183,3.056179240012103e-05,-0.010899011325110465,-0.0005012929020029657
0.1875,0.00017913484000008464,-0.7850294249999993,4.524786625003553e-05,-2.3558151750000005,6.485804999980299e-05,1.571015575,0.7860164625000001,0.04,0.039999995,-9.826879750000005,0.001032904052408592,-0.0012781540500076997,3.1373239000110704e-05,-0.011028910288604896,-0.0005211760350027126
0.19,0.00017975530000007673,-0.7850240399999994,4.5508318000032216e-05,-2.3558191800000006,6.341383799982137e-05,1.5710174200000002,0.7860173220000001,0.04,0.039999995,-9.826917400000005,0.0010348622221501222,-0.001334592480006981,3.218468560010037e-05,-0.011158809252099328,-0.0005410591680024594
0.1925,0.00018037576000006885,-0.7850186549999995,4.57687697500289e-05,-2.3558231850000007,6.196962599983975e-05,1.571019265,0.7860181815,0.04,0.039999995,-9.826955050000004,0.0010368203918916523,-0.0013910309100062625,3.299613220009004e-05,-0.011288708215593758,-0.0005609423010022063
0.195,0.00018099622000006095,-0.7850132699999995,4.6029221500025586e-05,-2.3558271900000003,6.052541399985814e-05,1.5710211100000002,0.7860190410000001,0.04,0.039999995,-9.826992700000003,0.0010387785616331822,-0.001447469340005544,3.3807578800079707e-05,-0.01141860717908819,-0.0005808254340019531
0.1975,0.00018161668000005304,-0.7850078849999996,4.628967325002227e-05,-2.3558311950000004,5.908120199987653e-05,1.571022955,0.7860199005,0.04,0.039999995,-9.827030350000003,0.0010407367313747123,-0.0015039077700048254,3.461902540006938e-05,-0.011548506142582621,-0.0006007085670017
0.2,0.0001822371400000562,-0.7850024999999997,4.655012500002356e-05,-2.3558352,5.7636989999869255e-05,1.5710248000000002,0.7860207600000001,0.04,0.039999995,-9.827068000000006,0.001042694901116074,-0.0015603462000043007,3.5430472000096876e-05,-0.011678405106077372,-0.0006205917000016589
0.2025,0.00018300916900005688,-0.7849980599999997,4.687394965002386e-05,-2.3558381250000004,5.584012499986762e-05,1.5710272150000002,0.7860219060000001,0.04,0.039999995,-9.827141950000005,0.0010423361556603336,-0.0016194482250043545,3.676178995009809e-05,-0.011812694231058064,-0.0006433910940016797
0.20500000000000002,0.0001837811980000576,-0.7849936199999997,4.719777430002415e-05,-2.3558410500000004,5.404325999986598e-05,1.5710296300000002,0.7860230520000001,0.04,0.039999995,-9.827215900000006,0.0010419774102045933,-0.0016785502500044082,3.80931079000993e-05,-0.011946983356038755,-0.0006661904880017005
0.20750000000000002,0.0001845532270000583,-0.7849891799999997,4.7521598950024446e-05,-2.3558439750000004,5.224639499986435e-05,1.5710320450000002,0.786024198,0.04,0.039999995,-9.827289850000005,0.001041618664748853,-0.001737652275004462,3.942442585010051e-05,-0.012081272481019449,-0.0006889898820017212
0.21,0.00018532525600005898,-0.7849847399999996,4.784542360002474e-05,-2.3558469000000004,5.0449529999862734e-05,1.5710344600000001,0.786025344,0.04,0.039999995,-9.827363800000006,0.0010412599192931127,-0.001796754300004515,4.075574380010171e-05,-0.012215561606000139,-0.0007117892760017418
0.2125,0.0001860972850000597,-0.7849802999999996,4.8169248250025035e-05,-2.3558498250000004,4.8652664999861094e-05,1.5710368750000003,0.78602649,0.04,0.039999995,-9.827437750000005,0.0010409011738373723,-0.0018558563250045687,4.208706175010292e-05,-0.01234985073098083,-0.0007345886700017625
0.215,0.00018686931400006037,-0.7849758599999996,4.849307290002532e-05,-2.3558527500000004,4.685579999985946e-05,1.5710392900000003,0.786027636,0.04,0.039999995,-9.827511700000006,0.001040542428381632,-0.0019149583500046225,4.341837970010413e-05,-0.012484139855961524,-0.0007573880640017833
0.2175,0.00018769857450007897,-0.7849717319999997,4.88408262000331e-05,-2.355855345,4.492600949981629e-05,1.5710418950000002,0.7860288750000001,0.04,0.039999995,-9.827566500000001,0.0010385552071961062,-0.0019635289550023016,4.4686960550095646e-05,-0.01261971849017996,-0.0007811923300021599
0.22,0.0001886422980000927,-0.7849682279999997,4.9236436800038855e-05,-2.3558572800000004,4.273036799978433e-05,1.5710448800000003,0.7860303000000001,0.04,0.039999995,-9.827583,0.0010333110345521648,-0.001991036720002702,4.583006720011228e-05,-0.01275787614287297,-0.0008070063400025357
0.2225,0.00018958602150010643,-0.7849647239999996,4.963204740004461e-05,-2.355859215,4.053472649975238e-05,1.5710478650000004,0.7860317250000001,0.04,0.039999995,-9.827599500000002,0.0010280668619082236,-0.002018544485003102,4.697317385012892e-05,-0.01289603379556598,-0.0008328203500029113
0.225,0.00019052974500012015,-0.7849612199999995,5.002765800005037e-05,-2.3558611500000004,3.8339084999720424e-05,1.5710508500000004,0.7860331500000002,0.04,0.039999995,-9.827616000000003,0.0010228226892642822,-0.0020460522500035023,4.811628050014555e-05,-0.013034191448258993,-0.000858634360003287
0.2275,0.0001914734685001339,-0.7849577159999994,5.0423268600056125e-05,-2.355863085,3.6143443499688474e-05,1.5710538350000005,0.7860345750000002,0.04,0.039999995,-9.827632500000002,0.0010175785166203408,-0.002073560015003903,4.9259387150162186e-05,-0.013172349100952004,-0.0008844483700036626
0.23,0.00019241719200014764,-0.7849542119999994,5.081887920006189e-05,-2.35586502,3.394780199965652e-05,1.5710568200000004,0.7860360000000002,0.04,0.039999995,-9.827649000000003,0.0010123343439763996,-0.002101067780004303,5.040249380017882e-05,-0.013310506753645014,-0.0009102623800040382
0.2325,0.00019336091550016136,-0.7849507079999993,5.1214489800067646e-05,-2.355866955,3.175216049962457e-05,1.5710598050000004,0.7860374250000002,0.04,0.039999995,-9.827665500000004,0.0010070901713324582,-0.0021285755450047034,5.154560045019546e-05,-0.013448664406338025,-0.000936076390004414
0.23500000000000001,0.00019443291400019015,-0.7849478359999995,5.166371180007966e-05,-2.3558683400000002,2.9257875699557584e-05,1.5710631700000006,0.7860390470000003,0.04,0.0399999955,-9.827729200000014,0.0010000345180728675,-0.0021448960200017952,5.270059820019428e-05,-0.013590569421672952,-0.0009640303840048573
0.23750000000000002,0.00019556905000017567,-0.7849452799999995,5.21397395000736e-05,-2.35586945,2.6614269249591243e-05,1.5710667250000006,0.7860407675000002,0.04,0.03999999625,-9.827816500000013,0.000992073124506169,-0.0021556228500016583,5.3861541500179506e-05,-0.013734348118327357,-0.0009930543700044877
0.24,0.0001967051860001612,-0.7849427239999996,5.261576720006754e-05,-2.35587056,2.397066279962493e-05,1.5710702800000005,0.7860424880000002,0.04,0.039999997,-9.827903800000012,0.0009841117309394704,-0.002166349680001522,5.502248480016471e-05,-0.01387812681498176,-0.001022078356004118
0.2425,0.00019784132200014674,-0.7849401679999997,5.3091794900061474e-05,-2.35587167,2.132705634965859e-05,1.5710738350000004,0.7860442085000002,0.04,0.03999999775,-9.82799110000001,0.0009761503373727718,-0.0021770765100013853,5.618342810014993e-05,-0.014021905511636163,-0.0010511023420037484
0.245,0.00019897745800013226,-0.7849376119999997,5.356782260005541e-05,-2.3558727800000003,1.868344989969225e-05,1.5710773900000004,0.7860459290000001,0.04,0.0399999985,-9.82807840000001,0.0009681889438060732,-0.002187803340001249,5.7344371400135146e-05,-0.014165684208290568,-0.0010801263280033786
0.2475,0.0002001135940001178,-0.7849350559999998,5.4043850300049356e-05,-2.3558738900000002,1.603984344972591e-05,1.5710809450000003,0.7860476495000002,0.04,0.03999999925,-9.828165700000008,0.0009602275502393745,-0.0021985301700011123,5.850531470012037e-05,-0.014309462904944972,-0.001109150314003009
0.25,0.00020124973000012277,-0.7849324999999999,5.451987800005141e-05,-2.355875,1.3396236999714498e-05,1.5710845000000004,0.7860493700000002,0.04,0.04,-9.828253000000007,0.0009522661566722533,-0.002209256999998404,5.96662580001152e-05,-0.014453241601600001,-0.0011381743000029173
0.2525,0.000202599425500124,-0.7849308904999999,5.5085158850051926e-05,-2.35587518,1.0257099699711638e-05,1.5710886550000003,0.7860513695000002,0.04,0.04,-9.828330250000008,0.0009396591107349169,-0.002191708199998388,6.0932929400116355e-05,-0.014603883540271603,-0.0011702518000029465
0.255,0.0002039491210001252,-0.7849292809999998,5.565043970005244e-05,-2.35587536,7.117962399708782e-06,1.5710928100000003,0.7860533690000001,0.04,0.04,-9.828407500000008,0.0009270520647975804,-0.002174159399998372,6.21996008001175e-05,-0.014754525478943206,-0.0012023293000029758
0.2575,0.00020529881650012643,-0.7849276714999999,5.6215720550052956e-05,-2.35587554,3.978825099705924e-06,1.5710969650000004,0.7860553685000001,0.04,0.04,-9.828484750000007,0.0009144450188602439,-0.002156610599998356,6.346627220011867e-05,-0.014905167417614808,-0.001234406800003005
0.26,0.00020664851200012766,-0.7849260619999998,5.678100140005347e-05,-2.3558757200000002,8.396877997030662e-07,1.5711011200000005,0.7860573680000001,0.04,0.04,-9.828562000000007,0.0009018379729229074,-0.00213906179999834,6.473294360011982e-05,-0.01505580935628641,-0.0012664843000030341
0.2625,0.00020799820750012888,-0.7849244524999999,5.7346282250053986e-05,-2.3558759,-2.299449500299791e-06,1.5711052750000003,0.7860593675000002,0.04,0.04,-9.828639250000007,0.000889230926985571,-0.002121512999998324,6.599961500012097e-05,-0.015206451294958012,-0.0012985618000030633
0.265,0.00020934790300013013,-0.7849228429999998,5.79115631000545e-05,-2.35587608,-5.4385868003026486e-06,1.5711094300000004,0.7860613670000002,0.04,0.04,-9.828716500000008,0.0008766238810482346,-0.002103964199998308,6.726628640012213e-05,-0.015357093233629614,-0.0013306393000030927
0.2675,0.00021077598400016145,-0.7849215614999999,5.85096013500676e-05,-2.35587594,-8.759514950375339e-06,1.5711137850000005,0.7860634650000002,0.03999999975,0.03999999975,-9.828811450000014,0.0008628030715027998,-0.002081290944996646,6.862764980015798e-05,-0.015510314656437605,-0.0013637896500035955
0.27,0.0002123608360001845,-0.7849209359999999,5.9173154400077255e-05,-2.35587516,-1.2444024800428961e-05,1.5711185400000005,0.7860657600000003,0.039999999,0.039999999,-9.828941800000015,0.0008465547347422283,-0.002048368779996167,7.017839720018055e-05,-0.01566869504751612,-0.0013990857000041091
0.2725,0.00021394568800020756,-0.7849203104999999,5.983670745008691e-05,-2.35587438,-1.612853465048258e-05,1.5711232950000007,0.7860680550000003,0.03999999825,0.03999999825,-9.829072150000018,0.0008303063979816569,-0.002015446614995688,7.172914460020311e-05,-0.015827075438594632,-0.0014343817500046228
0.275,0.00021553054000023064,-0.7849196849999999,6.0500260500096565e-05,-2.3558736,-1.98130445005362e-05,1.5711280500000007,0.7860703500000004,0.0399999975,0.0399999975,-9.829202500000019,0.0008140580612210854,-0.001982524449995209,7.327989200022568e-05,-0.01598545582967315,-0.0014696778000051365
0.2775,0.0002171153920002537,-0.7849190594999998,6.116381355010623e-05,-2.35587282,-2.349755435058982e-05,1.5711328050000009,0.7860726450000004,0.03999999675,0.03999999675,-9.829332850000021,0.000797809724460514,-0.0019496022849947296,7.483063940024824e-05,-0.01614383622075166,-0.0015049738500056502
0.28,0.00021870024400027675,-0.7849184339999998,6.182736660011588e-05,-2.35587204,-2.718206420064344e-05,1.5711375600000008,0.7860749400000004,0.039999996,0.039999996,-9.829463200000022,0.0007815613876999425,-0.0019166801199942507,7.638138680027081e-05,-0.016302216611830178,-0.001540269900006164
0.28250000000000003,0.00022028509600029983,-0.7849178084999999,6.249091965012554e-05,-2.35587126,-3.086657405069706e-05,1.571142315000001,0.7860772350000005,0.03999999525,0.03999999525,-9.829593550000025,0.0007653130509393711,-0.0018837579549937716,7.793213420029337e-05,-0.01646059700290869,-0.0015755659500066776
0.28500000000000003,0.00022204133300034176,-0.784917826,6.322607960014305e-05,-2.3558698299999996,-3.494844440079426e-05,1.571147710000001,0.7860797500000005,0.039999994500000004,0.039999994500000004,-9.829701100000017,0.0007433783844998126,-0.001829331249987906,7.973876300035895e-05,-0.016624540463120823,-0.0016130391100071552
0.28750000000000003,0.0002238832625003183,-0.7849181650000001,6.399704300013323e-05,-2.3558680749999996,-3.922899500073976e-05,1.571153425000001,0.7860823750000004,0.039999993750000004,0.039999993750000004,-9.829797250000016,0.0007186005532232429,-0.001764152274988736,8.167333250033433e-05,-0.016791265457897338,-0.0016516008250066641
0.29,0.0002257251920002948,-0.7849185040000001,6.47680064001234e-05,-2.3558663199999996,-4.350954560068516e-05,1.571159140000001,0.7860850000000005,0.039999993000000005,0.039999993000000005,-9.829893400000016,0.000693822721946674,-0.0016989732999895671,8.360790200030965e-05,-0.016957990452673845,-0.0016901625400061724
0.2925,0.00022756712150027138,-0.784918843,6.553896980011358e-05,-2.3558645649999996,-4.779009620063066e-05,1.5711648550000008,0.7860876250000004,0.03999999225,0.03999999225,-9.829989550000015,0.0006690448906701044,-0.001633794324990397,8.554247150028502e-05,-0.017124715447450357,-0.0017287242550056813
0.295,0.00022940905100024791,-0.7849191820000001,6.630993320010377e-05,-2.3558628099999996,-5.207064680057616e-05,1.571170570000001,0.7860902500000003,0.0399999915,0.0399999915,-9.830085700000012,0.0006442670593935349,-0.001568615349991227,8.747704100026039e-05,-0.01729144044222687,-0.0017672859700051903
0.2975,0.00023125098050022448,-0.7849195210000001,6.708089660009396e-05,-2.355861055,-5.635119740052166e-05,1.5711762850000008,0.7860928750000002,0.03999999075,0.03999999075,-9.830181850000011,0.0006194892281169654,-0.0015034363749920569,8.941161050023576e-05,-0.017458165437003383,-0.0018058476850046994
0.3,0.0002330929100002315,-0.7849198600000001,6.785186000009688e-05,-2.3558592999999997,-6.0631748000537794e-05,1.5711820000000007,0.7860955000000003,0.03999999,0.03999999,-9.830278000000014,0.000594711396839787,-0.0014382573999916722,9.134618000024671e-05,-0.017624890431780713,-0.0018444094000045698
0.3025,0.00023521408850023343,-0.7849212370000002,6.873949850009768e-05,-2.355856405,-6.555953180054228e-05,1.5711884950000008,0.7860985600000003,0.03999999,0.03999999,-9.830400400000013,0.0005643544660381193,-0.0013619508099916029,9.360683150024878e-05,-0.017799113877136757,-0.001886284060004608
0.305,0.00023733526700023537,-0.7849226140000002,6.962713700009848e-05,-2.3558535099999998,-7.048731560054677e-05,1.5711949900000008,0.7861016200000003,0.03999999,0.03999999,-9.830522800000013,0.0005339975352364518,-0.0012856442199915333,9.586748300025083e-05,-0.017973337322492802,-0.001928158720004646
0.3075,0.0002394564455002373,-0.7849239910000001,7.05147755000993e-05,-2.3558506149999996,-7.541509940055125e-05,1.571201485000001,0.7861046800000003,0.03999999,0.03999999,-9.830645200000014,0.0005036406044347841,-0.001209337629991464,9.812813450025289e-05,-0.018147560767848844,-0.0019700333800046843
0.31,0.00024157762400023924,-0.7849253680000001,7.14024140001001e-05,-2.35584772,-8.034288320055574e-05,1.5712079800000007,0.7861077400000003,0.03999999,0.03999999,-9.830767600000014,0.0004732836736331164,-0.0011330310399913944,0.00010038878600025494,-0.01832178421320489,-0.0020119080400047224
0.3125,0.00024369880250024116,-0.7849267450000001,7.22900525001009e-05,-2.3558448249999997,-8.527066700056023e-05,1.5712144750000008,0.7861108000000003,0.03999999,0.03999999,-9.830890000000014,0.00044292674283144876,-0.001056724449991325,0.00010264943750025701,-0.01849600765856093,-0.0020537827000047604
0.315,0.0002458199810002431,-0.7849281220000002,7.317769100010172e-05,-2.35584193,-9.019845080056472e-05,1.5712209700000008,0.7861138600000003,0.03999999,0.03999999,-9.831012400000015,0.00041256981202978114,-0.0009804178599912554,0.00010491008900025906,-0.018670231103916975,-0.0020956573600047984
0.3175,0.0002480416935002909,-0.7849298505000003,7.410733050012168e-05,-2.3558386499999995,-9.535920000067552e-05,1.571227810000001,0.7861170615000004,0.03999999,0.03999999,-9.831139700000017,0.0003806106396907934,-0.0008927443529867451,0.00010719287300027937,-0.018847225978992355,-0.0021386417700054268
0.32,0.0002504644740003261,-0.7849322820000003,7.512097200013644e-05,-2.3558345999999997,-0.0001009858800007574,1.571235340000001,0.7861205460000005,0.03999999,0.03999999,-9.831276800000019,0.0003454469842788267,-0.0007823370119851383,0.00010951992200031323,-0.019029763713503532,-0.0021838456800060847
0.3225,0.0002528872545003614,-0.7849347135000003,7.61346135001512e-05,-2.3558305499999994,-0.00010661256000083928,1.5712428700000012,0.7861240305000005,0.03999999,0.03999999,-9.83141390000002,0.00031028332886685997,-0.0006719296709835316,0.0001118469710003471,-0.019212301448014706,-0.0022290495900067426
0.325,0.00025531003500039664,-0.7849371450000004,7.714825500016595e-05,-2.3558264999999996,-0.00011223924000092116,1.5712504000000014,0.7861275150000006,0.03999999,0.03999999,-9.831551000000022,0.00027511967345489324,-0.0005615223299819249,0.00011417402000038097,-0.019394839182525884,-0.0022742535000074005
0.3275,0.00025773281550043193,-0.7849395765000005,7.816189650018069e-05,-2.3558224499999993,-0.00011786592000100304,1.5712579300000014,0.7861309995000006,0.03999999,0.03999999,-9.831688100000024,0.00023995601804292652,-0.00045111498898031807,0.00011650106900041483,-0.01957737691703706,-0.0023194574100080583
0.33,0.00026015559600046716,-0.7849420080000005,7.917553800019545e-05,-2.355818399999999,-0.00012349260000108492,1.5712654600000016,0.7861344840000006,0.03999999,0.03999999,-9.831825200000026,0.0002047923626309598,-0.00034070764797871137,0.0001188281180004487,-0.019759914651548235,-0.0023646613200087162
0.3325,0.00026257837650050245,-0.7849444395000006,8.01891795002102e-05,-2.3558143499999993,-0.0001291192800011668,1.5712729900000015,0.7861379685000007,0.03999999,0.03999999,-9.83196230000003,0.00016962870721899307,-0.00023030030697710456,0.00012115516700048256,-0.019942452386059413,-0.0024098652300093737
0.335,0.00026521724300055966,-0.7849476050000007,8.12930920002341e-05,-2.355809449999999,-0.00013524655600129933,1.5712812000000018,0.7861417530000008,0.039999989799999996,0.039999989799999996,-9.83207740000002,0.0001263062120318026,-0.00010029391397151667,0.00012360284500051097,-0.02013032827530208,-0.0024573014800098915
0.3375,0.00026796415250052467,-0.7849511375000007,8.244214000021947e-05,-2.355804124999999,-0.00014162413000121812,1.5712897500000016,0.7861456875000008,0.0399999895,0.0399999895,-9.83218150000002,7.890429696089612e-05,3.9512005026703294e-05,0.00012611083750047904,-0.020320873241907945,-0.0025058539000092734
0.34,0.0002707110620004897,-0.7849546700000006,8.359118800020485e-05,-2.3557987999999987,-0.00014800170400113694,1.5712983000000016,0.7861496220000007,0.0399999892,0.0399999892,-9.832285600000018,3.150238188998964e-05,0.00017931792402492325,0.0001286188300004471,-0.02051141820851381,-0.0025544063200086554
0.3425,0.00027345797150045474,-0.7849582025000006,8.474023600019021e-05,-2.355793474999999,-0.00015437927800105572,1.5713068500000014,0.7861535565000006,0.0399999889,0.0399999889,-9.832389700000016,-1.5899533180916835e-05,0.0003191238430231433,0.00013112682250041518,-0.020701963175119673,-0.0026029587400080373
0.34500000000000003,0.00027620488100041975,-0.7849617350000005,8.588928400017558e-05,-2.355788149999999,-0.00016075685200097454,1.5713154000000014,0.7861574910000007,0.0399999886,0.0399999886,-9.832493800000016,-6.330144825182331e-05,0.0004589297620213633,0.00013363481500038325,-0.020892508141725538,-0.0026515111600074193
0.34750000000000003,0.00027895179050038476,-0.7849652675000005,8.703833200016095e-05,-2.355782824999999,-0.00016713442600089332,1.5713239500000011,0.7861614255000006,0.0399999883,0.0399999883,-9.832597900000014,-0.00011070336332272976,0.0005987356810195833,0.00013614280750035132,-0.0210830531083314,-0.002700063580006801
0.35000000000000003,0.00028169870000039395,-0.7849688000000006,8.818738000016477e-05,-2.355777499999999,-0.0001735120000009144,1.5713325000000014,0.7861653600000006,0.039999988,0.039999988,-9.832702000000017,-0.0001581052783940672,0.0007385416000217402,0.00013865080000035742,-0.021273598074938324,-0.0027486160000066103
0.3525,0.0002847923150003967,-0.7849734350000006,8.948126290016592e-05,-2.355770914999999,-0.00018069269500092078,1.5713421450000014,0.7861698060000006,0.0399999874,0.0399999874,-9.83284840000002,-0.00020889128209736733,0.0009092639950218918,0.0001414573660003599,-0.021472467109586443,-0.0028005242200066565
0.355,0.00028788593000039954,-0.7849780700000006,9.077514580016709e-05,-2.355764329999999,-0.00018787339000092733,1.5713517900000014,0.7861742520000006,0.0399999868,0.0399999868,-9.83299480000002,-0.00025967728580066855,0.0010799863900220472,0.00014426393200036246,-0.02167133614423456,-0.0028524324400067036
0.3575,0.00029097954500040236,-0.7849827050000006,9.206902870016828e-05,-2.355757744999999,-0.00019505408500093387,1.5713614350000014,0.7861786980000006,0.039999986200000004,0.039999986200000004,-9.83314120000002,-0.0003104632895039698,0.0012507087850222027,0.000147070498000365,-0.021870205178882683,-0.0029043406600067507
0.36,0.0002940731600004051,-0.7849873400000006,9.336291160016945e-05,-2.355751159999999,-0.00020223478000094039,1.5713710800000014,0.7861831440000006,0.0399999856,0.0399999856,-9.83328760000002,-0.00036124929320727103,0.001421431180022358,0.00014987706400036756,-0.022069074213530805,-0.002956248880006798
0.3625,0.00029716677500040795,-0.7849919750000006,9.465679450017063e-05,-2.3557445749999992,-0.00020941547500094695,1.5713807250000014,0.7861875900000006,0.039999985,0.039999985,-9.83343400000002,-0.00041203529691057224,0.0015921535750225133,0.00015268363000037012,-0.022267943248178927,-0.0030081571000068453
0.365,0.00030026039000041077,-0.7849966100000005,9.59506774001718e-05,-2.3557379899999993,-0.00021659617000095347,1.5713903700000014,0.7861920360000005,0.0399999844,0.0399999844,-9.83358040000002,-0.0004628213006138735,0.0017628759700226686,0.00015549019600037266,-0.022466812282827046,-0.0030600653200068928
0.3675,0.00030347712600046296,-0.7850016350000008,9.729599020019362e-05,-2.355730989999999,-0.00022406199150107437,1.5714004000000015,0.7861966620000006,0.0399999838,0.0399999838,-9.833714000000015,-0.0005181926069867038,0.0019449812200273897,0.00015832830300038786,-0.022668548300890014,-0.0031130916500073883
0.37,0.00030694010400046613,-0.7850074400000008,9.874416280019493e-05,-2.3557231599999993,-0.0002320980660010817,1.5714112000000016,0.7862016480000007,0.0399999832,0.0399999832,-9.833822000000016,-0.0005827345186930875,0.0021498521800275765,0.0001612294920003905,-0.022876018285779228,-0.0031683542000074385
0.3725,0.0003104030820004693,-0.7850132450000008,0.00010019233540019624,-2.355715329999999,-0.000240134140501089,1.5714220000000014,0.7862066340000007,0.0399999826,0.0399999826,-9.833930000000015,-0.0006472764303994713,0.002354723140027763,0.00016413068100039316,-0.023083488270668442,-0.0032236167500074887
0.375,0.0003138660600004724,-0.7850190500000008,0.00010164050800019757,-2.355707499999999,-0.00024817021500109633,1.5714328000000015,0.7862116200000007,0.039999981999999996,0.039999981999999996,-9.834038000000016,-0.0007118183421058551,0.0025595941000279496,0.0001670318700003958,-0.023290958255557655,-0.0032788793000075394
0.3775,0.0003173290380004756,-0.7850248550000009,0.00010308868060019888,-2.355699669999999,-0.0002562062895011036,1.5714436000000016,0.7862166060000007,0.0399999814,0.0399999814,-9.834146000000015,-0.0007763602538122388,0.002764465060028136,0.00016993305900039844,-0.02349842824044687,-0.0033341418500075896
0.38,0.00032079201600047875,-0.7850306600000008,0.0001045368532002002,-2.355691839999999,-0.00026424236400111097,1.5714544000000017,0.7862215920000007,0.0399999808,0.0399999808,-9.834254000000016,-0.0008409021655186226,0.0029693360200283223,0.00017283424800040108,-0.023705898225336083,-0.00338940440000764
0.3825,0.0003242549940004819,-0.7850364650000008,0.00010598502580020152,-2.3556840099999987,-0.00027227843850111827,1.5714652000000016,0.7862265780000007,0.0399999802,0.0399999802,-9.834362000000015,-0.0009054440772250064,0.003174206980028509,0.00017573543700040372,-0.023913368210225296,-0.00344466695000769
0.385,0.00032797928100053995,-0.785043050000001,0.00010754235200022577,-2.3556752699999985,-0.0002809195970012527,1.5714768200000018,0.7862319410000008,0.03999998,0.03999998,-9.834512850000024,-0.0009733401355430448,0.003400292310033153,0.00017875554000043134,-0.024126972816914796,-0.003502160920008209
0.3875,0.00033183422250054347,-0.785050025000001,0.00010915425500022724,-2.3556660749999985,-0.00028986329750126084,1.5714888500000017,0.7862374925000009,0.03999998,0.03999998,-9.834685125000025,-0.0010429132671658581,0.0036369848250333682,0.00018183510000043413,-0.02434364473450252,-0.0035607706000082627
0.39,0.000335689164000547,-0.785057000000001,0.00011076615800022871,-2.3556568799999984,-0.000298806998001269,1.5715008800000019,0.7862430440000008,0.03999998,0.03999998,-9.834857400000024,-0.0011124863987886716,0.0038736773400335836,0.00018491466000043695,-0.02456031665209024,-0.0036193802800083157
0.3925,0.00033954410550055046,-0.785063975000001,0.00011237806100023018,-2.3556476849999988,-0.00030775069850127714,1.5715129100000018,0.7862485955000008,0.03999998,0.03999998,-9.835029675000024,-0.0011820595304114848,0.004110369855033799,0.00018799422000043974,-0.024776988569677964,-0.0036779899600083692
0.395,0.000343399047000554,-0.785070950000001,0.00011398996400023165,-2.3556384899999987,-0.00031669439900128526,1.5715249400000018,0.7862541470000008,0.03999998,0.03999998,-9.835201950000025,-0.0012516326620342982,0.004347062370034014,0.00019107378000044254,-0.024993660487265687,-0.0037365996400084227
0.3975,0.0003472539885005575,-0.785077925000001,0.00011560186700023312,-2.3556292949999986,-0.0003256380995012934,1.571536970000002,0.7862596985000009,0.03999998,0.03999998,-9.835374225000024,-0.0013212057936571116,0.004583754885034231,0.00019415334000044536,-0.02521033240485341,-0.0037952093200084762
0.4,0.00035110893000062137,-0.7850849000000012,0.00011721377000025978,-2.3556200999999986,-0.0003345818000014412,1.571549000000002,0.7862652500000009,0.03999998,0.03999998,-9.835546500000017,-0.001390778925281973,0.004820447400039967,0.00019723290000046878,-0.025427004322442468,-0.0038538190000090146
0.4025,0.00035537846250062525,-0.7850931050000012,0.0001189988405002614,-2.3556095849999985,-0.0003444853190014502,1.5715623650000021,0.7862713925000009,0.03999998,0.03999998,-9.835662975000016,-0.0014744260232086393,0.005095076265040217,0.00020045422800047172,-0.02565287649634805,-0.003915761050009071
0.405,0.00035964799500062914,-0.7851013100000012,0.00012078391100026303,-2.3555990699999985,-0.00035438883800145926,1.571575730000002,0.7862775350000009,0.03999998,0.03999998,-9.835779450000016,-0.0015580731211353054,0.005369705130040467,0.00020367555600047464,-0.02587874867025363,-0.003977703100009127
0.40750000000000003,0.00036391752750063297,-0.7851095150000013,0.00012256898150026464,-2.3555885549999984,-0.00036429235700146826,1.571589095000002,0.7862836775000009,0.03999998,0.03999998,-9.835895925000017,-0.0016417202190619714,0.005644333995040716,0.0002068968840004776,-0.026104620844159213,-0.004039645150009184
0.41000000000000003,0.00036818706000063685,-0.7851177200000012,0.00012435405200026628,-2.3555780399999984,-0.0003741958760014773,1.571602460000002,0.7862898200000009,0.03999998,0.03999998,-9.836012400000017,-0.0017253673169886376,0.005918962860040966,0.0002101182120004805,-0.026330493018064793,-0.0041015872000092395
0.41250000000000003,0.00037245659250064074,-0.7851259250000012,0.0001261391225002679,-2.3555675249999983,-0.0003840993950014863,1.571615825000002,0.7862959625000009,0.03999998,0.03999998,-9.836128875000018,-0.0018090144149153038,0.006193591725041216,0.00021333954000048345,-0.026556365191970372,-0.004163529250009296
0.41500000000000004,0.0003767261250006446,-0.7851341300000013,0.0001279241930002695,-2.3555570099999983,-0.0003940029140014953,1.571629190000002,0.7863021050000009,0.03999998,0.03999998,-9.836245350000018,-0.00189266151284197,0.006468220590041466,0.00021656086800048637,-0.026782237365875955,-0.004225471300009353
0.4175,0.0003811413410007148,-0.7851427570000015,0.00012977012100029884,-2.3555460349999984,-0.0004042436945016578,1.5716430200000022,0.786308453000001,0.03999997985,0.03999997985,-9.836383250000027,-0.0019783993368173367,0.0067541723750468696,0.00021986037500052488,-0.027011235337740136,-0.004288518100009911
0.42,0.00038584792400071907,-0.7851522280000015,0.00013173776400030062,-2.3555341399999983,-0.00041515899800166774,1.5716577800000022,0.786315212000001,0.039999979399999996,0.039999979399999996,-9.836564000000028,-0.0020683186128872587,0.00706277000004715,0.000223316240000528,-0.027246484905517263,-0.004353774400009971
0.4225,0.0003905545070007234,-0.7851616990000015,0.0001337054070003024,-2.355522244999998,-0.00042607430150167766,1.5716725400000022,0.786321971000001,0.03999997895,0.03999997895,-9.836744750000028,-0.0021582378889571804,0.007371367625047431,0.00022677210500053117,-0.02748173447329439,-0.00441903070001003
0.425,0.0003952610900007277,-0.7851711700000015,0.00013567305000030422,-2.355510349999998,-0.0004369896050016876,1.5716873000000022,0.786328730000001,0.0399999785,0.0399999785,-9.836925500000028,-0.0022481571650271024,0.007679965250047712,0.00023022797000053433,-0.02771698404107152,-0.004484287000010089
0.4275,0.00039996767300073195,-0.7851806410000015,0.000137640693000306,-2.3554984549999984,-0.00044790490850169754,1.5717020600000022,0.786335489000001,0.039999978049999996,0.039999978049999996,-9.837106250000028,-0.002338076441097024,0.007988562875047994,0.00023368383500053746,-0.02795223360884865,-0.004549543300010148
0.43,0.00040467425600073623,-0.7851901120000015,0.00013960833600030779,-2.3554865599999983,-0.0004588202120017075,1.5717168200000025,0.7863422480000011,0.0399999776,0.0399999776,-9.837287000000028,-0.002427995717166946,0.008297160500048273,0.0002371397000005406,-0.02818748317662578,-0.004614799600010208
0.4325,0.0004093808390007405,-0.7851995830000015,0.00014157597900030957,-2.3554746649999982,-0.00046973551550171747,1.5717315800000025,0.7863490070000011,0.03999997715,0.03999997715,-9.837467750000028,-0.0025179149932368678,0.008605758125048555,0.00024059556500054377,-0.028422732744402907,-0.0046800559000102675
0.435,0.00041439373000077054,-0.7852099060000016,0.0001436715510003221,-2.355461709999998,-0.0004813598110017867,1.5717472800000025,0.7863562040000011,0.0399999766,0.0399999766,-9.83761320000002,-0.002618714049474266,0.008943568800052565,0.00024421493200055207,-0.02866433318708014,-0.0047475032600102236
0.4375,0.0004195597750007048,-0.7852206550000015,0.0001458310875002946,-2.355448224999998,-0.0004933386025016343,1.5717634500000022,0.786363620000001,0.039999976,0.039999976,-9.837741000000019,-0.0027249529957915435,0.009295986000048079,0.0002479160500005049,-0.028909109067205167,-0.004816046150009351
0.44,0.000424725820000639,-0.7852314040000014,0.00014799062400026712,-2.3554347399999984,-0.0005053173940014818,1.571779620000002,0.7863710360000009,0.0399999754,0.0399999754,-9.837868800000017,-0.002831191942108821,0.009648403200043591,0.0002516171680004578,-0.029153884947330195,-0.004884589040008478
0.4425,0.00042989186500057324,-0.7852421530000012,0.0001501501605002396,-2.3554212549999987,-0.0005172961855013291,1.571795790000002,0.7863784520000008,0.0399999748,0.0399999748,-9.837996600000015,-0.0029374308884260983,0.010000820400039105,0.0002553182860004107,-0.029398660827455226,-0.004953131930007606
0.445,0.00043505791000050744,-0.7852529020000011,0.00015230969700021213,-2.3554077699999985,-0.0005292749770011766,1.5718119600000016,0.7863858680000007,0.0399999742,0.0399999742,-9.838124400000014,-0.0030436698347433757,0.010353237600034617,0.0002590194040003636,-0.029643436707580254,-0.005021674820006733
0.4475,0.0004402239550004417,-0.785263651000001,0.00015446923350018464,-2.3553942849999987,-0.0005412537685010241,1.5718281300000014,0.7863932840000006,0.0399999736,0.0399999736,-9.838252200000012,-0.003149908781060653,0.010705654800030131,0.00026272052200031643,-0.02988821258770528,-0.005090217710005861
0.45,0.00044539000000041096,-0.7852744000000009,0.00015662877000017177,-2.355380799999999,-0.0005532325600009528,1.5718443000000013,0.7864007000000005,0.039999973,0.039999973,-9.838380000000013,-0.003256147727378474,0.011058072000027943,0.00026642164000028533,-0.03013298846783098,-0.005158760600005224
0.4525,0.0004510377550004931,-0.7852865125000011,0.00015898950450020613,-2.3553658149999985,-0.0005663261935011433,1.5718619850000015,0.7864087850000007,0.039999973,0.039999973,-9.838554750000016,-0.0033698521554568683,0.011442101400033532,0.0002703429640003424,-0.030386977177135427,-0.00523055891000627
0.455,0.0004566855100005753,-0.7852986250000012,0.0001613502390002405,-2.355350829999998,-0.0005794198270013338,1.5718796700000017,0.7864168700000008,0.039999973,0.039999973,-9.838729500000019,-0.003483556583535263,0.01182613080003912,0.0002742642880003995,-0.030640965886439872,-0.005302357220007314
0.4575,0.00046233326500065753,-0.7853107375000015,0.00016371097350027485,-2.355335844999998,-0.0005925134605015244,1.571897355000002,0.7864249550000009,0.039999973,0.039999973,-9.83890425000002,-0.003597261011613658,0.01221016020004471,0.00027818561200045657,-0.03089495459574432,-0.0053741555300083595
0.46,0.0004679810200007397,-0.7853228500000016,0.0001660717080003092,-2.3553208599999977,-0.0006056070940017149,1.5719150400000024,0.786433040000001,0.039999973,0.039999973,-9.839079000000023,-0.0037109654396920524,0.012594189600050298,0.0002821069360005136,-0.031148943305048766,-0.005445953840009404
0.4625,0.0004736287750008219,-0.7853349625000018,0.00016843244250034357,-2.3553058749999978,-0.0006187007275019055,1.5719327250000026,0.7864411250000012,0.039999973,0.039999973,-9.839253750000026,-0.0038246698677704472,0.012978219000055887,0.0002860282600005707,-0.03140293201435321,-0.005517752150010449
0.465,0.0004792765300009041,-0.7853470750000019,0.00017079317700037793,-2.3552908899999974,-0.000631794361002096,1.5719504100000028,0.7864492100000013,0.039999973,0.039999973,-9.839428500000027,-0.003938374295848842,0.013362248400061475,0.00028994958400062776,-0.03165692072365766,-0.005589550460011494
0.4675,0.0004850922100010463,-0.7853596525000023,0.00017322404800043732,-2.355275404999997,-0.0006452766145024254,1.5719686200000031,0.7864575485000015,0.03999997285,0.03999997285,-9.83958695000002,-0.004057770781241164,0.013764602550074667,0.0002939617215007133,-0.031914137117609445,-0.005662421950012759
0.47000000000000003,0.0004912437400010519,-0.7853731600000023,0.00017579519200043966,-2.355258919999997,-0.0006595361080024383,1.5719878800000033,0.7864663940000015,0.0399999724,0.0399999724,-9.83971280000002,-0.004188551381252643,0.014203606200075068,0.00029815548600071714,-0.032177808880850985,-0.005737439800012828
0.47250000000000003,0.0004973952700010575,-0.7853866675000023,0.00017836633600044202,-2.355242434999997,-0.0006737956015024513,1.5720071400000033,0.7864752395000015,0.039999971950000004,0.039999971950000004,-9.839838650000022,-0.004319331981264122,0.014642609850075467,0.00030234925050072096,-0.032441480644092524,-0.005812457650012896
0.47500000000000003,0.0005035468000010631,-0.7854001750000024,0.00018093748000044436,-2.3552259499999972,-0.0006880550950024643,1.5720264000000033,0.7864840850000016,0.0399999715,0.0399999715,-9.839964500000022,-0.004450112581275601,0.015081613500075869,0.0003065430150007248,-0.032705152407334064,-0.005887475500012965
0.47750000000000004,0.0005096983300010686,-0.7854136825000023,0.0001835086240004467,-2.355209464999997,-0.0007023145885024772,1.5720456600000032,0.7864929305000016,0.03999997105,0.03999997105,-9.840090350000022,-0.00458089318128708,0.015520617150076268,0.0003107367795007286,-0.03296882417057561,-0.005962493350013033
0.48,0.0005158498600010741,-0.7854271900000023,0.00018607976800044898,-2.355192979999997,-0.0007165740820024899,1.5720649200000032,0.7865017760000016,0.039999970600000004,0.039999970600000004,-9.840216200000022,-0.004711673781298557,0.01595962080007666,0.0003149305440007323,-0.03323249593381714,-0.0060375112000131
0.4825,0.0005220013900010797,-0.7854406975000023,0.00018865091200045132,-2.355176494999997,-0.0007308335755025028,1.5720841800000034,0.7865106215000015,0.03999997015,0.03999997015,-9.840342050000022,-0.004842454381310036,0.01639862445007706,0.00031912430850073614,-0.03349616769705868,-0.006112529050013168
0.485,0.0005285033500012388,-0.7854551550000027,0.00019136842400051778,-2.3551587999999963,-0.0007459039460028712,1.5721045500000037,0.7865199630000018,0.03999997,0.03999997,-9.840519850000039,-0.0049784555100161575,0.016861155100087996,0.0003233504270007871,-0.033766577392867314,-0.006189664060014507
0.4875,0.0005351805250013359,-0.7854700875000029,0.00019415912000055838,-2.3551404999999965,-0.0007613797550030965,1.5721254750000042,0.7865295525000019,0.03999997,0.03999997,-9.840723625000042,-0.005117066903067534,0.0173354492500949,0.00032759272250084884,-0.03404035605495683,-0.006267857650015645
0.49,0.0005418577000014331,-0.7854850200000032,0.000196949816000599,-2.3551221999999963,-0.0007768555640033217,1.5721464000000045,0.7865391420000021,0.03999997,0.03999997,-9.840927400000044,-0.005255678296118911,0.017809743400101802,0.00033183501800091055,-0.03431413471704634,-0.0063460512400167835
0.4925,0.0005485348750015304,-0.7854999525000034,0.00019974051200063962,-2.355103899999996,-0.000792331373003547,1.5721673250000048,0.7865487315000023,0.03999997,0.03999997,-9.841131175000047,-0.005394289689170289,0.018284037550108705,0.0003360773135009723,-0.03458791337913586,-0.0064242448300179215
0.495,0.0005552120500016275,-0.7855148850000037,0.00020253120800068023,-2.355085599999996,-0.0008078071820037721,1.572188250000005,0.7865583210000023,0.03999997,0.03999997,-9.84133495000005,-0.005532901082221666,0.018758331700115607,0.000340319609001034,-0.03486169204122537,-0.00650243842001906
0.4975,0.0005618892250017247,-0.7855298175000038,0.00020532190400072083,-2.3550672999999955,-0.0008232829910039973,1.5722091750000053,0.7865679105000025,0.03999997,0.03999997,-9.841538725000053,-0.005671512475273043,0.019232625850122507,0.0003445619045010958,-0.03513547070331489,-0.006580632010020198
0.5,0.0005685664000019712,-0.7855447500000045,0.0002081126000008238,-2.355048999999995,-0.0008387588000045681,1.5722301000000063,0.7865775000000028,0.03999997,0.03999997,-9.841742500000025,-0.005810123868329509,0.01970692000014358,0.0003488042000012197,-0.0354092493654067,-0.00665882560002219
0.5025000000000001,0.0005757908050018794,-0.7855611675000043,0.00021113185550078543,-2.355029139999995,-0.0008555009750043553,1.5722527500000059,0.7865878740000027,0.0399999694,0.0399999694,-9.841834825000024,-0.005967387370806106,0.02023314430013689,0.0003532745525011629,-0.035691455751730855,-0.006740151565021156
0.505,0.0005830152100017872,-0.7855775850000041,0.00021415111100074691,-2.355009279999995,-0.0008722431500041418,1.5722754000000057,0.7865982480000027,0.0399999688,0.0399999688,-9.841927150000023,-0.006124650873282695,0.02075936860013018,0.0003577449050011059,-0.035973662138054995,-0.006821477530020119
0.5075000000000001,0.0005902396150016954,-0.7855940025000039,0.00021717036650070853,-2.3549894199999954,-0.000888985325003929,1.5722980500000054,0.7866086220000025,0.0399999682,0.0399999682,-9.842019475000022,-0.006281914375759291,0.021285592900123492,0.00036221525750104906,-0.03625586852437915,-0.0069028034950190855
0.51,0.0005974640200016033,-0.7856104200000036,0.00022018962200067002,-2.354969559999996,-0.0009057275000037155,1.572320700000005,0.7866189960000024,0.0399999676,0.0399999676,-9.842111800000021,-0.00643917787823588,0.02181181720011678,0.00036668561000099205,-0.03653807491070329,-0.006984129460018048
0.5125,0.0006046884250015111,-0.7856268375000034,0.00022320887750063153,-2.354949699999996,-0.0009224696750035019,1.5723433500000048,0.7866293700000022,0.039999967,0.039999967,-9.84220412500002,-0.006596441380712469,0.022338041500110067,0.00037115596250093504,-0.03682028129702743,-0.00706545542501701
0.515,0.0006119128300014193,-0.7856432550000032,0.00022622813300059315,-2.354929839999996,-0.0009392118500032891,1.5723660000000046,0.7866397440000021,0.039999966399999996,0.039999966399999996,-9.842296450000019,-0.006753704883189065,0.02286426580010338,0.00037562631500087824,-0.03710248768335158,-0.007146781390015977
0.5175,0.0006193268050015025,-0.7856601700000034,0.00022932656300062788,-2.354909364999996,-0.0009563926200034815,1.5723892400000048,0.7866503920000022,0.039999966,0.039999966,-9.84242812500004,-0.006913971109347772,0.023404025150109285,0.00038018151850091093,-0.03738806936895516,-0.007229136065016274
0.52,0.0006271199200016161,-0.7856780800000037,0.00023258334200067536,-2.3548876599999957,-0.0009744505800037447,1.5724136600000052,0.7866615880000024,0.039999966,0.039999966,-9.842638500000044,-0.00708024278286564,0.023970854600117546,0.0003849064240009798,-0.037680401653111935,-0.007313548160017505
0.5225,0.0006349130350017293,-0.7856959900000039,0.0002358401210007227,-2.3548659549999953,-0.000992508540004007,1.5724380800000055,0.7866727840000025,0.039999966,0.039999966,-9.842848875000048,-0.007246514456383501,0.024537684050125783,0.00038963132950104845,-0.0379727339372687,-0.007397960255018731
0.525,0.0006427061500018429,-0.7857139000000042,0.00023909690000077015,-2.354844249999995,-0.0010105665000042703,1.5724625000000059,0.7866839800000026,0.039999966,0.039999966,-9.843059250000051,-0.007412786129901369,0.025104513500134044,0.0003943562350011173,-0.038265066221425476,-0.007482372350019962
0.5275,0.0006504992650019562,-0.7857318100000045,0.0002423536790008175,-2.3548225449999944,-0.0010286244600045326,1.5724869200000062,0.7866951760000028,0.039999966,0.039999966,-9.843269625000053,-0.007579057803419231,0.025671342950142277,0.00039908114050118596,-0.03855739850558224,-0.007566784445021188
0.53,0.0006582923800020697,-0.7857497200000048,0.00024561045800086494,-2.354800839999994,-0.0010466824200047959,1.5725113400000066,0.7867063720000029,0.039999966,0.039999966,-9.843480000000056,-0.007745329476937099,0.02623817240015054,0.0004038060460012548,-0.038849730789739016,-0.007651196540022418
0.5325,0.0006660854950021829,-0.7857676300000049,0.0002488672370009123,-2.3547791349999936,-0.0010647403800050582,1.572535760000007,0.7867175680000031,0.039999966,0.039999966,-9.84369037500006,-0.00791160115045496,0.026805001850158775,0.00040853095150132347,-0.039142063073895776,-0.007735608635023645
0.535,0.000674271820002394,-0.7857865800000056,0.00025228825000100046,-2.354756349999993,-0.0010837081100055468,1.5725614100000076,0.7867293200000034,0.039999966,0.039999966,-9.843834250000032,-0.008091995678895597,0.027409715500178112,0.0004133579320013931,-0.03944062031814128,-0.007822039400024973
0.5375,0.0006826547500024015,-0.7858060500000056,0.0002557913800010036,-2.354733024999993,-0.0011031307250055642,1.5725876750000076,0.7867413500000034,0.039999966,0.039999966,-9.843944875000032,-0.008279451634788553,0.028033371250178664,0.00041823595000139746,-0.039742290042427145,-0.00790947950002505
0.54,0.0006910376800024093,-0.7858255200000056,0.00025929451000100684,-2.3547096999999932,-0.0011225533400055824,1.5726139400000076,0.7867533800000035,0.039999966,0.039999966,-9.844055500000032,-0.008466907590681519,0.028657027000179247,0.000423113968001402,-0.04004395976671302,-0.007996919600025132
0.5425,0.0006994206100024168,-0.7858449900000056,0.00026279764000101,-2.354686374999993,-0.0011419759550055995,1.5726402050000077,0.7867654100000034,0.039999966,0.039999966,-9.844166125000031,-0.008654363546574475,0.029280682750179803,0.00042799198600140635,-0.04034562949099889,-0.008084359700025209
0.545,0.0007078035400024246,-0.7858644600000056,0.0002663007700010132,-2.354663049999993,-0.0011613985700056177,1.5726664700000077,0.7867774400000035,0.039999966,0.039999966,-9.844276750000033,-0.00884181950246744,0.029904338500180382,0.0004328700040014109,-0.04064729921528476,-0.008171799800025291
0.5475,0.0007161864700024321,-0.7858839300000057,0.00026980390000101636,-2.354639724999993,-0.0011808211850056348,1.5726927350000077,0.7867894700000035,0.039999966,0.039999966,-9.844387375000032,-0.009029275458360396,0.030527994250180938,0.00043774802200141524,-0.040948968939570625,-0.008259239900025368
0.55,0.0007245694000026177,-0.7859034000000061,0.00027330703000109387,-2.3546163999999923,-0.0012002438000060644,1.5727190000000082,0.7868015000000038,0.039999966,0.039999966,-9.84449800000005,-0.009216731414256695,0.031151650000195062,0.00044262604000149496,-0.041250638663859425,-0.008346680000026314
0.5525,0.000733563040002503,-0.7859244810000059,0.00027706521400104595,-2.3545910499999927,-0.0012210792650057985,1.5727472000000078,0.7868144150000036,0.039999966,0.039999966,-9.844670650000047,-0.009415641101132478,0.03182183995018652,0.00044776239700142944,-0.04156235829004373,-0.008437090850025163
0.555,0.0007425566800023887,-0.7859455620000056,0.00028082339800099813,-2.354565699999993,-0.0012419147300055337,1.5727754000000076,0.7868273300000035,0.039999966,0.039999966,-9.844843300000045,-0.00961455078800827,0.032492029900178,0.0004528987540013642,-0.04187407791622805,-0.008527501700024013
0.5575,0.0007515503200022739,-0.7859666430000053,0.0002845815820009502,-2.3545403499999935,-0.001262750195005268,1.5728036000000072,0.7868402450000033,0.039999966,0.039999966,-9.845015950000043,-0.009813460474884052,0.03316221985016945,0.0004580351110012987,-0.042185797542412355,-0.008617912550022859
0.56,0.0007605439600021596,-0.785987724000005,0.00028833976600090244,-2.354514999999994,-0.0012835856600050032,1.5728318000000068,0.7868531600000032,0.039999966,0.039999966,-9.845188600000041,-0.010012370161759845,0.03383240980016093,0.0004631714680012334,-0.04249751716859667,-0.00870832340002171
0.5625,0.0007695376000020449,-0.7860088050000048,0.0002920979500008545,-2.3544896499999943,-0.0013044211250047373,1.5728600000000064,0.7868660750000029,0.039999966,0.039999966,-9.845361250000039,-0.010211279848635627,0.034502599750152387,0.00046830782500116786,-0.04280923679478098,-0.008798734250020557
0.5650000000000001,0.0007785312400019306,-0.7860298860000046,0.00029585613400080676,-2.3544642999999947,-0.0013252565900044725,1.5728882000000062,0.7868789900000028,0.039999966,0.039999966,-9.845533900000037,-0.010410189535511418,0.03517278970014387,0.00047344418200110256,-0.04312095642096529,-0.008889145100019409
0.5675,0.000787735298002031,-0.7860515160000048,0.0002997022025008486,-2.3544383149999946,-0.0013465788200047045,1.5729170600000064,0.7868922000000029,0.0399999657,0.0399999657,-9.845705400000035,-0.010613377764865635,0.035859317850151756,0.00047864830400112666,-0.04343547243631674,-0.008980528400019692
0.5700000000000001,0.0007973601920021712,-0.7860742440000051,0.0003037240400009072,-2.354411059999994,-0.0013688745800050294,1.5729472400000069,0.7869060000000031,0.039999964799999996,0.039999964799999996,-9.845874600000037,-0.010825123079168785,0.03657852240016224,0.0004839879560012045,-0.04375558122999731,-0.009073856600021054
0.5725,0.000806985086002311,-0.7860969720000054,0.00030774587750096566,-2.3543838049999937,-0.0013911703400053535,1.5729774200000073,0.7869198000000033,0.0399999639,0.0399999639,-9.846043800000041,-0.011036868393471927,0.03729772695017269,0.000489327608001282,-0.04407569002367786,-0.00916718480002241
0.5750000000000001,0.0008166099800024513,-0.7861197000000057,0.00031176771500102433,-2.354356549999993,-0.0014134661000056784,1.5730076000000077,0.7869336000000036,0.039999963,0.039999963,-9.846213000000043,-0.01124861370777508,0.03801693150018317,0.0004946672600013599,-0.044395798817358424,-0.009260513000023769
0.5775,0.0008262348740025912,-0.7861424280000061,0.0003157895525010827,-2.3543292949999928,-0.0014357618600060024,1.5730377800000082,0.7869474000000037,0.0399999621,0.0399999621,-9.846382200000045,-0.011460359022078221,0.03873613605019362,0.0005000069120014375,-0.044715907611038976,-0.009353841200025125
0.58,0.0008358597680027311,-0.7861651560000064,0.00031981139000114117,-2.3543020399999923,-0.0014580576200063262,1.5730679600000086,0.7869612000000039,0.0399999612,0.0399999612,-9.846551400000047,-0.011672104336381363,0.03945534060020407,0.000505346564001515,-0.04503601640471953,-0.00944716940002648
0.5825,0.0008454846620028713,-0.7861878840000067,0.0003238332275011998,-2.354274784999992,-0.0014803533800066514,1.573098140000009,0.7869750000000041,0.0399999603,0.0399999603,-9.84672060000005,-0.011883849650684513,0.040174545150214555,0.0005106862160015929,-0.04535612519840009,-0.009540497600027842
0.585,0.0008555439200031216,-0.7862117340000073,0.0003280364690013043,-2.354246289999991,-0.0015036539100072304,1.5731296600000098,0.7869894300000044,0.03999996,0.03999996,-9.846855300000035,-0.01211144085980649,0.040935885600237656,0.0005161802050016923,-0.045682618022065115,-0.009635725100029214
0.5875,0.0008658203600031311,-0.7862361450000074,0.0003323304125013083,-2.354217174999991,-0.0015274568250072526,1.5731618500000097,0.7870041750000045,0.03999996,0.03999996,-9.846972750000035,-0.012346955016327084,0.04171829400023839,0.0005217513625016975,-0.04601230286071802,-0.009731902250029303
0.59,0.0008760968000031403,-0.7862605560000074,0.00033662435600131214,-2.3541880599999914,-0.0015512597400072737,1.5731940400000097,0.7870189200000045,0.03999996,0.03999996,-9.847090200000036,-0.012582469172847667,0.042500702400239086,0.0005273225200017024,-0.04634198769937092,-0.00982807940002939
0.5925,0.0008863732400031498,-0.7862849670000075,0.00034091829950131617,-2.354158944999991,-0.001575062655007296,1.57322623000001,0.7870336650000045,0.03999996,0.03999996,-9.847207650000035,-0.012817983329368263,0.04328311080023982,0.0005328936775017076,-0.04667167253802384,-0.00992425655002948
0.595,0.0008966496800031589,-0.7863093780000074,0.0003452122430013199,-2.3541298299999913,-0.001598865570007317,1.57325842000001,0.7870484100000046,0.03999996,0.03999996,-9.847325100000036,-0.013053497485888847,0.04406551920024051,0.0005384648350017125,-0.04700135737667673,-0.010020433700029564
0.5975,0.0009069261200031686,-0.7863337890000075,0.00034950618650132396,-2.354100714999991,-0.0016226684850073393,1.57329061000001,0.7870631550000046,0.03999996,0.03999996,-9.847442550000036,-0.013289011642409441,0.04484792760024124,0.0005440359925017178,-0.04733104221532965,-0.010116610850029654
0.6,0.0009172025600033853,-0.7863582000000081,0.0003538001300014145,-2.3540715999999904,-0.0016464714000078405,1.5733228000000106,0.7870779000000049,0.03999996,0.03999996,-9.847560000000064,-0.013524525798932912,0.04563033600025669,0.0005496071500017905,-0.04766072705398555,-0.010212788000030601
0.6025,0.0009281504660032462,-0.7863843210000078,0.00035837451950135633,-2.3540404149999907,-0.0016718275350075182,1.57335715000001,0.7870936200000047,0.03999996,0.03999996,-9.847766100000062,-0.013769375300107465,0.04646046120024614,0.0005553976375017169,-0.04800013490031284,-0.010311748400029344
0.605,0.0009390983720031066,-0.7864104420000074,0.000362948909001298,-2.354009229999991,-0.0016971836700071948,1.5733915000000096,0.7871093400000044,0.03999996,0.03999996,-9.847972200000058,-0.014014224801282006,0.047290586400235556,0.000561188125001643,-0.04833954274664011,-0.010410708800028081
0.6075,0.0009500462780029674,-0.7864365630000071,0.00036752329850123986,-2.3539780449999914,-0.0017225398050068725,1.5734258500000093,0.7871250600000043,0.03999996,0.03999996,-9.848178300000056,-0.01425907430245656,0.048120711600225005,0.0005669786125015694,-0.048678950592967396,-0.010509669200026822
0.61,0.0009609941840028277,-0.7864626840000067,0.0003720976880011815,-2.3539468599999918,-0.0017478959400065491,1.5734602000000089,0.7871407800000041,0.03999996,0.03999996,-9.848384400000054,-0.014503923803631103,0.04895083680021441,0.0005727691000014956,-0.04901835843929467,-0.01060862960002556
0.6125,0.0009719420900026885,-0.7864888050000065,0.00037667207750112335,-2.353915674999992,-0.0017732520750062268,1.5734945500000084,0.7871565000000039,0.03999996,0.03999996,-9.84859050000005,-0.014748773304805654,0.04978096200020386,0.0005785595875014219,-0.049357766285621954,-0.010707590000024303
0.615,0.000982889996002549,-0.7865149260000062,0.000381246467001065,-2.3538844899999924,-0.0017986082100059034,1.573528900000008,0.7871722200000036,0.03999996,0.03999996,-9.848796600000048,-0.014993622805980197,0.05061108720019328,0.0005843500750013481,-0.04969717413194922,-0.01080655040002304
0.6175,0.0009940682500026677,-0.7865416430000064,0.00038591706900111466,-2.353852599999992,-0.0018244971650061782,1.5735639700000084,0.7871882650000038,0.03999996,0.03999996,-9.848964900000022,-0.015246485639425123,0.05146207220020462,0.0005901941120013641,-0.05003941208132128,-0.010906417350023305
0.62,0.0010057072000028368,-0.7865695520000069,0.0003907800960011853,-2.3538192999999916,-0.0018514517600065699,1.5736004800000087,0.7872049600000041,0.03999996,0.03999996,-9.849057600000023,-0.015515375137394599,0.05235477680021759,0.0005961452480014505,-0.05038731023677716,-0.011008097400024784
0.6225,0.0010173461500030065,-0.7865974610000073,0.0003956431230012562,-2.353785999999991,-0.0018784063550069628,1.5736369900000093,0.7872216550000043,0.03999996,0.03999996,-9.849150300000023,-0.015784264635364087,0.0532474814002306,0.0006020963840015373,-0.05073520839223305,-0.011109777450026266
0.625,0.0010289851000031757,-0.7866253700000077,0.00040050615000132686,-2.353752699999991,-0.0019053609500073545,1.57367350000001,0.7872383500000046,0.03999996,0.03999996,-9.849243000000024,-0.016053154133333566,0.054140186000243576,0.0006080475200016238,-0.05108310654768892,-0.011211457500027742
0.6275000000000001,0.0010406240500033454,-0.786653279000008,0.00040536917700139774,-2.3537193999999904,-0.0019323155450077475,1.5737100100000105,0.7872550450000049,0.03999996,0.03999996,-9.849335700000026,-0.016322043631303053,0.05503289060025658,0.0006139986560017105,-0.05143100470314481,-0.011313137550029224
0.63,0.0010522630000035144,-0.7866811880000085,0.0004102322040014684,-2.35368609999999,-0.001959270140008139,1.573746520000011,0.7872717400000051,0.03999996,0.03999996,-9.849428400000027,-0.016590933129272532,0.05592559520026956,0.000619949792001797,-0.051778902858600685,-0.011414817600030703
0.6325000000000001,0.0010639019500036841,-0.7867090970000089,0.0004150952310015393,-2.353652799999989,-0.001986224735008532,1.5737830300000115,0.7872884350000053,0.03999996,0.03999996,-9.849521100000029,-0.01685982262724202,0.056818299800282565,0.0006259009280018838,-0.052126801014056576,-0.011516497650032185
0.635,0.0010760144600038637,-0.7867382300000093,0.0004201560630016143,-2.353618079999989,-0.0020142747000089474,1.5738210300000122,0.7873058000000056,0.03999996,0.03999996,-9.849675200000057,-0.01713611707100085,0.05774711320029625,0.0006320390160019497,-0.05248052068065827,-0.011619937700032638
0.6375000000000001,0.0010883637500037069,-0.786767975000009,0.00042531579750154874,-2.3535826499999892,-0.002042872350008584,1.5738597750000116,0.7873235000000054,0.03999996,0.03999996,-9.849860000000055,-0.01741611398764902,0.05869398100028421,0.0006382705800018706,-0.05283715110282867,-0.011724257750031313
0.64,0.0011007130400035492,-0.7867977200000086,0.00043047553200148295,-2.3535472199999896,-0.0020714700000082193,1.573898520000011,0.7873412000000051,0.03999996,0.03999996,-9.850044800000052,-0.017696110904297173,0.05964084880027214,0.000644502144001791,-0.053193781524999054,-0.011828577800029983
0.6425,0.0011130623300033917,-0.7868274650000082,0.0004356352665014171,-2.35351178999999,-0.0021000676500078546,1.5739372650000105,0.7873589000000049,0.03999996,0.03999996,-9.85022960000005,-0.017976107820945327,0.06058771660026006,0.0006507337080017115,-0.053550411947169446,-0.011932897850028651
0.645,0.001125411620003235,-0.7868572100000079,0.0004407950010013515,-2.353476359999991,-0.002128665300007491,1.5739760100000102,0.7873766000000046,0.03999996,0.03999996,-9.850414400000048,-0.018256104737593492,0.06153458440024802,0.0006569652720016324,-0.053907042369339846,-0.012037217900027326
0.6475,0.0011377609100030773,-0.7868869550000075,0.0004459547355012857,-2.353440929999991,-0.0021572629500071264,1.5740147550000096,0.7873943000000044,0.03999996,0.03999996,-9.850599200000048,-0.018536101654241646,0.062481452200235946,0.0006631968360015528,-0.05426367279151023,-0.012141537950025996
0.65,0.0011501102000030928,-0.7869167000000075,0.0004511144700012922,-2.353405499999991,-0.0021858606000071615,1.5740535000000098,0.7874120000000044,0.03999996,0.03999996,-9.850784000000024,-0.018816098570895955,0.06342832000024065,0.0006694284000015378,-0.05462030321368271,-0.012245858000025278
0.6525,0.0011631887150031044,-0.7869482750000075,0.000456578754001297,-2.3533679249999913,-0.0022161448800071884,1.5740945250000098,0.7874307500000045,0.03999996,0.03999996,-9.850881200000025,-0.019122074637634604,0.06444599800024156,0.0006759308250015435,-0.05498571172365275,-0.012352753400025373
0.655,0.0011762672300031168,-0.7869798500000076,0.0004620430380013021,-2.353330349999991,-0.002246429160007217,1.5741355500000098,0.7874495000000045,0.03999996,0.03999996,-9.850978400000024,-0.019428050704373263,0.06546367600024251,0.0006824332500015496,-0.0553511202336228,-0.012459648800025473
0.6575,0.0011893457450031283,-0.7870114250000075,0.00046750732200130695,-2.353292774999991,-0.002276713440007244,1.5741765750000098,0.7874682500000045,0.03999996,0.03999996,-9.851075600000025,-0.01973402677111191,0.06648135400024341,0.0006889356750015553,-0.05571652874359283,-0.012566544200025568
0.66,0.0012024242600031404,-0.7870430000000076,0.00047297160600131205,-2.353255199999991,-0.002306997720007272,1.5742176000000099,0.7874870000000045,0.03999996,0.03999996,-9.851172800000024,-0.02004000283785057,0.06749903200024436,0.0006954381000015614,-0.05608193725356288,-0.012673439600025668
0.6625,0.0012155027750031522,-0.7870745750000077,0.00047843589000131693,-2.353217624999991,-0.002337282000007299,1.57425862500001,0.7875057500000046,0.03999996,0.03999996,-9.851270000000024,-0.020345978904589217,0.06851671000024527,0.0007019405250015671,-0.05644734576353291,-0.012780335000025763
0.665,0.0012285812900031644,-0.7871061500000077,0.00048390017400132203,-2.353180049999991,-0.002367566280007327,1.57429965000001,0.7875245000000046,0.03999996,0.03999996,-9.851367200000025,-0.020651954971327876,0.06953438800024621,0.0007084429500015733,-0.05681275427350296,-0.012887230400025861
0.6675,0.0012419090750034204,-0.7871383600000083,0.0004894685700014289,-2.35314173999999,-0.0023984271100079193,1.5743414400000106,0.787543610000005,0.03999996,0.03999996,-9.851493550000047,-0.02096136016779019,0.0705689840002643,0.0007150172300016619,-0.0571810819209547,-0.012994958800027061
0.67,0.0012557354000036218,-0.7871718400000088,0.0004952451900015132,-2.35310195999999,-0.002430441040008386,1.5743847600000114,0.7875634400000052,0.03999996,0.03999996,-9.851678200000048,-0.021277623623692364,0.07163741600027987,0.0007217352200017598,-0.057555247843363494,-0.013104353200028656
0.6725,0.0012695617250038228,-0.7872053200000093,0.0005010218100015971,-2.353062179999989,-0.0024624549700088512,1.5744280800000119,0.7875832700000055,0.03999996,0.03999996,-9.851862850000051,-0.021593887079594525,0.07270584800029539,0.0007284532100018574,-0.057929413765772264,-0.013213747600030246
0.675,0.0012833880500040242,-0.7872388000000098,0.0005067984300016813,-2.3530223999999884,-0.0024944689000093176,1.5744714000000126,0.7876031000000058,0.03999996,0.03999996,-9.852047500000054,-0.0219101505354967,0.07377428000031097,0.0007351712000019554,-0.058303579688181055,-0.013323142000031839
0.6775,0.001297214375004225,-0.7872722800000103,0.0005125750500017652,-2.3529826199999877,-0.002526482830009783,1.5745147200000131,0.787622930000006,0.03999996,0.03999996,-9.852232150000056,-0.02222641399139886,0.0748427120003265,0.000741889190002053,-0.058677745610589825,-0.013432536400033428
0.68,0.0013110407000044267,-0.7873057600000107,0.0005183516700018495,-2.352942839999987,-0.0025584967600102496,1.5745580400000139,0.7876427600000063,0.03999996,0.03999996,-9.852416800000059,-0.022542677447301034,0.07591114400034207,0.0007486071800021509,-0.059051911532998616,-0.013541930800035023
0.6825,0.0013248670250046275,-0.7873392400000112,0.0005241282900019334,-2.3529030599999867,-0.002590510690010715,1.5746013600000144,0.7876625900000066,0.03999996,0.03999996,-9.852601450000062,-0.022858940903203194,0.0769795760003576,0.0007553251700022484,-0.059426077455407386,-0.013651325200036613
0.685,0.001339203960004831,-0.7873740050000118,0.0005301181970020184,-2.352861739999986,-0.0026237056000111857,1.5746463200000151,0.7876831500000069,0.03999996,0.03999996,-9.852731100000033,-0.023194145783896072,0.07809844400037878,0.0007621585100022815,-0.05980636626494696,-0.013762339150037023
0.6875,0.001353796200004645,-0.7874094125000113,0.0005362147475019407,-2.3528196499999865,-0.0026574910000107545,1.5746921000000145,0.7877040750000066,0.03999996,0.03999996,-9.852833250000032,-0.023538821376969818,0.07924253000036419,0.0007690495250021936,-0.06018971651804723,-0.013874162875035597
0.6900000000000001,0.0013683884400044596,-0.7874448200000108,0.0005423112980018632,-2.352777559999987,-0.002691276400010325,1.574737880000014,0.7877250000000063,0.03999996,0.03999996,-9.852935400000032,-0.023883496970043577,0.08038661600034964,0.000775940540002106,-0.060573066771147516,-0.013985986600034176
0.6925,0.0013829806800042734,-0.7874802275000103,0.0005484078485017854,-2.3527354699999874,-0.0027250618000098942,1.5747836600000134,0.7877459250000062,0.03999996,0.03999996,-9.85303755000003,-0.02422817256311732,0.08153070200033506,0.0007828315550020181,-0.06095641702424778,-0.01409781032503275
0.6950000000000001,0.001397572920004088,-0.78751563500001,0.0005545043990017079,-2.352693379999988,-0.0027588472000094648,1.574829440000013,0.7877668500000059,0.03999996,0.03999996,-9.853139700000028,-0.02457284815619108,0.08267478800032052,0.0007897225700019305,-0.06133976727734807,-0.014209634050031329
0.6975,0.0014121651600039018,-0.7875510425000095,0.0005606009495016302,-2.3526512899999887,-0.002792632600009034,1.5748752200000122,0.7877877750000056,0.03999996,0.03999996,-9.853241850000027,-0.024917523749264824,0.08381887400030592,0.0007966135850018426,-0.061723117530448346,-0.014321457775029902
0.7000000000000001,0.0014267574000039161,-0.7875864500000096,0.000566697500001636,-2.3526091999999887,-0.0028264180000090663,1.5749210000000122,0.7878087000000057,0.03999996,0.03999996,-9.853344000000043,-0.025262199342341734,0.08496296000030432,0.0008035046000018156,-0.062106467783550605,-0.014433281500029139
0.7025,0.0014421334350039298,-0.7876238675000096,0.0005731214705016418,-2.3525647399999885,-0.002862016150009098,1.5749692250000125,0.7878307590000057,0.03999996,0.0399999609,-9.853512300000043,-0.025619238801391744,0.08615781200030538,0.0008106334355018219,-0.06249756179759953,-0.01454769152502924
0.705,0.0014575094700039434,-0.7876612850000096,0.0005795454410016475,-2.3525202799999887,-0.0028976143000091293,1.5750174500000125,0.7878528180000057,0.03999996,0.0399999618,-9.853680600000043,-0.025976278260441757,0.08735266400030643,0.0008177622710018283,-0.06288865581164844,-0.014662101550029342
0.7075,0.0014728855050039577,-0.7876987025000096,0.0005859694115016535,-2.3524758199999884,-0.0029332124500091625,1.5750656750000125,0.7878748770000057,0.03999996,0.0399999627,-9.853848900000044,-0.026333317719491784,0.08854751600030755,0.0008248911065018349,-0.0632797498256974,-0.014776511575029449
0.71,0.0014882615400039713,-0.7877361200000097,0.0005923933820016591,-2.3524313599999886,-0.0029688106000091944,1.5751139000000125,0.7878969360000058,0.03999996,0.0399999636,-9.854017200000044,-0.026690357178541797,0.08974236800030862,0.0008320199420018413,-0.06367084383974632,-0.01489092160002955
0.7125,0.0015036375750039856,-0.7877735375000098,0.0005988173525016652,-2.3523868999999884,-0.0030044087500092275,1.5751621250000125,0.7879189950000057,0.03999996,0.0399999645,-9.854185500000044,-0.027047396637591824,0.09093722000030972,0.0008391487775018479,-0.06406193785379526,-0.015005331625029657
0.715,0.0015190136100039992,-0.7878109550000097,0.0006052413230016708,-2.3523424399999886,-0.003040006900009259,1.5752103500000125,0.7879410540000057,0.03999996,0.0399999654,-9.854353800000045,-0.027404436096641838,0.09213207200031079,0.0008462776130018542,-0.06445303186784418,-0.015119741650029758
0.7175,0.0015346567450042962,-0.7878490425000105,0.0006117768315017949,-2.3522972099999877,-0.003076222670009946,1.5752594050000135,0.7879634940000062,0.03999996,0.039999966,-9.85449045000002,-0.027769688982617828,0.09335443920033926,0.0008534834065019546,-0.06484679728757006,-0.015234818600030916
0.72,0.0015508340800045315,-0.787888470000011,0.0006185354160018931,-2.352250439999987,-0.0031136736800104906,1.5753101200000144,0.7879866960000065,0.03999996,0.039999966,-9.85456380000002,-0.02815136872242645,0.09463183680035782,0.0008608431160020615,-0.06524590551864352,-0.015351229400032609
0.7225,0.0015670114150047672,-0.7879278975000116,0.0006252940005019917,-2.3522036699999864,-0.003151124690011036,1.575360835000015,0.7880098980000069,0.03999996,0.039999966,-9.854637150000022,-0.028533048462235096,0.09590923440037644,0.0008682028255021688,-0.065645013749717,-0.015467640200034305
0.725,0.0015831887500050022,-0.7879673250000122,0.0006320525850020899,-2.3521568999999856,-0.0031885757000115807,1.5754115500000159,0.7880331000000071,0.03999996,0.039999966,-9.854710500000023,-0.028914728202043723,0.097186632000395,0.0008755625350022757,-0.06604412198079046,-0.015584051000035997
0.7275,0.0015993660850052382,-0.7880067525000127,0.0006388111695021883,-2.3521101299999847,-0.0032260267100121262,1.5754622650000165,0.7880563020000075,0.03999996,0.039999966,-9.854783850000024,-0.029296407941852363,0.09846402960041362,0.000882922244502383,-0.06644323021186395,-0.01570046180003769
0.73,0.0016155434200054732,-0.7880461800000134,0.0006455697540022865,-2.3520633599999843,-0.0032634777200126705,1.5755129800000172,0.7880795040000078,0.03999996,0.039999966,-9.854857200000025,-0.02967808768166099,0.09974142720043218,0.00089028195400249,-0.06684233844293741,-0.015816872600039385
0.7325,0.001631720755005709,-0.7880856075000139,0.0006523283385023851,-2.3520165899999834,-0.0033009287300132164,1.575563695000018,0.7881027060000082,0.03999996,0.039999966,-9.854930550000025,-0.030059767421469635,0.1010188248004508,0.0008976416635025973,-0.06724144667401089,-0.01593328340004108
0.735,0.0016484435800059355,-0.7881264150000145,0.0006593147670024797,-2.3519682599999827,-0.0033396414300137403,1.5756161100000188,0.7881266860000085,0.03999996,0.0399999678,-9.855077600000065,-0.030453978292783842,0.102334198000466,0.000905124820002635,-0.06764628440155912,-0.01605167130004169
0.7375,0.0016654391500057195,-0.788167912500014,0.0006664151175023895,-2.3519191499999836,-0.0033789849750132405,1.575669375000018,0.7881510550000081,0.03999996,0.0399999705,-9.855261500000061,-0.03085445472984077,0.10366855900044905,0.0009126697000025391,-0.06805398687734016,-0.016171047750040173
0.74,0.0016824347200055027,-0.7882094100000134,0.0006735154680022989,-2.351870039999984,-0.0034183285200127386,1.5757226400000173,0.7881754240000078,0.03999996,0.039999973200000004,-9.85544540000006,-0.03125493116689768,0.10500292000043203,0.0009202145800024428,-0.06846168935312116,-0.01629042420003865
0.7425,0.0016994302900052867,-0.7882509075000128,0.0006806158185022087,-2.3518209299999846,-0.0034576720650122384,1.5757759050000166,0.7881997930000076,0.03999996,0.0399999759,-9.855629300000057,-0.03165540760395461,0.10633728100041508,0.000927759460002347,-0.0688693918289022,-0.016409800650037134
0.745,0.00171642586000507,-0.7882924050000123,0.0006877161690021181,-2.351771819999985,-0.0034970156100117365,1.575829170000016,0.7882241620000073,0.03999996,0.0399999786,-9.855813200000055,-0.03205588404101153,0.10767164200039805,0.0009353043400022507,-0.0692770943046832,-0.01652917710003561
0.7475,0.001733421430004854,-0.7883339025000118,0.0006948165195020279,-2.351722709999986,-0.0035363591550112367,1.5758824350000153,0.788248531000007,0.03999996,0.0399999813,-9.855997100000051,-0.032456360478068456,0.10900600300038109,0.0009428492200021548,-0.06968479678046424,-0.016648553550034095
0.75,0.001750417000004865,-0.7883754000000118,0.0007019168700020325,-2.3516735999999856,-0.0035757027000112612,1.5759357000000154,0.788272900000007,0.03999996,0.039999984,-9.856181000000023,-0.032856836915131075,0.11034036400038515,0.0009503941000021441,-0.07009249925624755,-0.01676793000003296
0.7525000000000001,0.0017682474850046384,-0.7884189750000113,0.0007093659645019378,-2.3516221349999866,-0.0036169768650107367,1.5759916350000145,0.7882984750000067,0.03999996,0.0399999846,-9.856264100000022,-0.03327823486190068,0.11175197440036722,0.0009582523750020442,-0.07050864622007702,-0.016888728000031425
0.755,0.001786077970004411,-0.7884625500000108,0.0007168150590018428,-2.351570669999987,-0.0036582510300102104,1.5760475700000138,0.7883240500000064,0.03999996,0.039999985200000004,-9.85634720000002,-0.03369963280867027,0.1131635848003492,0.0009661106500019439,-0.07092479318390646,-0.017009526000029883
0.7575000000000001,0.0018039084550041844,-0.7885061250000102,0.0007242641535017481,-2.351519204999988,-0.003699525195009686,1.5761035050000132,0.788349625000006,0.03999996,0.0399999858,-9.856430300000019,-0.034121030755439874,0.11457519520033127,0.0009739689250018441,-0.07134094014773593,-0.017130324000028348
0.76,0.0018217389400039569,-0.7885497000000097,0.0007317132480016531,-2.3514677399999884,-0.0037407993600091596,1.5761594400000125,0.7883752000000057,0.03999996,0.0399999864,-9.856513400000019,-0.03454242870220946,0.11598680560031327,0.000981827200001744,-0.07175708711156538,-0.017251122000026806
0.7625000000000001,0.0018395694250037304,-0.7885932750000091,0.0007391623425015584,-2.3514162749999894,-0.003782073525008635,1.5762153750000116,0.7884007750000054,0.03999996,0.039999987,-9.856596500000018,-0.03496382664897906,0.11739841600029532,0.000989685475001644,-0.07217323407539483,-0.01737192000002527
0.765,0.001857399910003503,-0.7886368500000086,0.0007466114370014634,-2.35136480999999,-0.0038233476900081088,1.576271310000011,0.788426350000005,0.03999996,0.0399999876,-9.856679600000017,-0.035385224595748645,0.11881002640027732,0.0009975437500015438,-0.07258938103922428,-0.017492718000023732
0.7675000000000001,0.0018755140800036027,-0.7886811375000089,0.000754179027001505,-2.3513124749999896,-0.003865278010008339,1.5763281250000112,0.7884523250000052,0.03999996,0.0399999881,-9.856793000000033,-0.035811862535858933,0.12024154250028374,0.0010054753400015578,-0.07300814017661633,-0.01761414550002366
0.77,0.001894195620003874,-0.7887268500000095,0.0007619836080016184,-2.3512583999999888,-0.003908520640008967,1.576386700000012,0.7884791000000055,0.03999996,0.0399999884,-9.856967000000036,-0.03624898046264171,0.12171287000030512,0.0010135535600016752,-0.0734321236611291,-0.01773683200002544
0.7725,0.0019128771600041455,-0.7887725625000102,0.0007697881890017318,-2.351204324999988,-0.003951763270009596,1.5764452750000129,0.7885058750000059,0.03999996,0.0399999887,-9.85714100000004,-0.03668609838942448,0.1231841975003265,0.0010216317800017926,-0.07385610714564188,-0.017859518500027222
0.775,0.0019315587000044178,-0.7888182750000108,0.0007775927700018456,-2.351150249999987,-0.0039950059000102255,1.5765038500000137,0.7885326500000064,0.03999996,0.039999989,-9.85731500000004,-0.03712321631620727,0.12465552500034793,0.0010297100000019102,-0.07428009063015466,-0.017982205000029013
0.7775,0.0019502402400046893,-0.7888639875000115,0.000785397351001959,-2.351096174999986,-0.004038248530010854,1.5765624250000145,0.7885594250000068,0.03999996,0.0399999893,-9.857489000000044,-0.03756033424299004,0.1261268525003693,0.0010377882200020277,-0.07470407411466742,-0.018104891500030796
0.78,0.0019689217800049614,-0.7889097000000121,0.0007932019320020727,-2.3510420999999853,-0.0040814911600114846,1.5766210000000154,0.7885862000000071,0.03999996,0.0399999896,-9.857663000000045,-0.03799745216977283,0.12759818000039078,0.0010458664400021453,-0.07512805759918022,-0.018227578000032583
0.7825,0.001987603320005233,-0.7889554125000128,0.0008010065130021861,-2.350988024999985,-0.004124733790012112,1.5766795750000162,0.7886129750000075,0.03999996,0.0399999899,-9.857837000000048,-0.038434570096555605,0.12906950750041216,0.0010539446600022627,-0.07555204108369298,-0.018350264500034366
0.785,0.002006862990005583,-0.7890025650000136,0.0008090525520023324,-2.3509321999999835,-0.004169312440012922,1.5767399600000174,0.788640590000008,0.03999996,0.039999991,-9.857928300000014,-0.03889275342239414,0.13059694900044425,0.0010622173200023903,-0.07598099708569445,-0.018474316100035623
0.7875,0.0020264117250056004,-0.7890504375000137,0.0008172193200023396,-2.3508754999999835,-0.004214559100012962,1.5768012500000175,0.788668625000008,0.03999996,0.0399999925,-9.857978250000015,-0.03936146944774703,0.13215244750044564,0.0010705872000023977,-0.07641243934643702,-0.018599050250035734
0.79,0.0020459604600056185,-0.7890983100000137,0.0008253860880023473,-2.3508187999999834,-0.004259805760013004,1.5768625400000176,0.788696660000008,0.03999996,0.039999994,-9.858028200000014,-0.03983018547309993,0.13370794600044708,0.0010789570800024057,-0.07684388160717961,-0.018723784400035852
0.7925,0.002065509195005636,-0.7891461825000138,0.0008335528560023545,-2.3507620999999834,-0.0043050524200130445,1.5769238300000177,0.7887246950000081,0.03999996,0.0399999955,-9.858078150000015,-0.04029890149845282,0.13526344450044847,0.001087326960002413,-0.0772753238679222,-0.018848518550035963
0.795,0.002085057930005654,-0.7891940550000138,0.0008417196240023621,-2.3507053999999834,-0.004350299080013087,1.5769851200000178,0.7887527300000081,0.03999996,0.039999997,-9.858128100000014,-0.04076761752380573,0.13681894300044992,0.0010956968400024209,-0.0777067661286648,-0.018973252700036077
0.7975,0.002104606665005672,-0.7892419275000139,0.0008498863920023694,-2.3506486999999834,-0.004395545740013127,1.5770464100000177,0.7887807650000082,0.03999996,0.0399999985,-9.858178050000015,-0.041236333549158614,0.13837444150045128,0.0011040667200024282,-0.07813820838940738,-0.019097986850036188
0.8,0.0021241554000059467,-0.7892898000000146,0.0008580531600024842,-2.3505919999999825,-0.004440792400013763,1.5771077000000187,0.7888088000000085,0.03999996,0.04,-9.858228000000027,-0.041705049574516324,0.1399299400004725,0.0011124366000024857,-0.07856965065015206,-0.019222721000036806
0.8025,0.0021445864650062436,-0.7893398910000153,0.0008665885410026083,-2.350532839999982,-0.0044880799900144505,1.5771717500000195,0.7888380950000089,0.03999996,0.04,-9.858321300000028,-0.04219026900842707,0.1415533375004961,0.0011209767300026099,-0.07900825776173165,-0.01934916710003864
0.805,0.0021650175300065412,-0.7893899820000161,0.0008751239220027327,-2.350473679999981,-0.0045353675800151394,1.5772358000000204,0.7888673900000094,0.03999996,0.04,-9.85841460000003,-0.042675488442337824,0.14317673500051975,0.0011295168600027343,-0.07944686487331126,-0.019475613200040483
0.8075,0.002185448595006838,-0.7894400730000168,0.0008836593030028567,-2.35041451999998,-0.004582655170015827,1.5772998500000215,0.7888966850000098,0.03999996,0.04,-9.858507900000031,-0.043160707876248566,0.14480013250054333,0.0011380569900028583,-0.07988547198489085,-0.019602059300042322
0.81,0.0022058796600071357,-0.7894901640000175,0.0008921946840029811,-2.350355359999979,-0.004629942760016516,1.5773639000000224,0.7889259800000102,0.03999996,0.04,-9.858601200000033,-0.04364592731015933,0.146423530000567,0.0011465971200029829,-0.08032407909647045,-0.019728505400044165
0.8125,0.0022263107250074326,-0.7895402550000182,0.0009007300650031051,-2.3502961999999785,-0.004677230350017203,1.5774279500000232,0.7889552750000106,0.03999996,0.04,-9.858694500000034,-0.044131146744070066,0.1480469275005906,0.0011551372500031068,-0.08076268620805004,-0.019854951500046004
0.8150000000000001,0.0022467417900077303,-0.789590346000019,0.0009092654460032295,-2.3502370399999775,-0.004724517940017892,1.577492000000024,0.7889845700000111,0.03999996,0.04,-9.858787800000036,-0.04461636617798083,0.14967032500061425,0.0011636773800032313,-0.08120129331962965,-0.019981397600047846
0.8175,0.002267472040008186,-0.7896411800000201,0.0009179257920034199,-2.350176984999976,-0.0047724964750189445,1.5775569900000257,0.7890142950000117,0.03999996,0.04,-9.858907600000066,-0.04510772209633837,0.151317975000651,0.0011723283400034052,-0.08164252862351384,-0.020108428750049208
0.8200000000000001,0.0022888006600079148,-0.7896935000000194,0.0009268360680033065,-2.350115139999977,-0.004821856900018317,1.5776238600000247,0.7890448800000114,0.03999996,0.04,-9.859080400000064,-0.0456113509835681,0.15301413000062944,0.0011812009600032927,-0.08208902031199808,-0.020236630000047575
0.8225,0.002310129280007643,-0.7897458200000187,0.0009357463440031929,-2.3500532949999777,-0.004871217325017688,1.577690730000024,0.7890754650000109,0.03999996,0.04,-9.859253200000062,-0.046114979870797795,0.1547102850006078,0.0011900735800031794,-0.08253551200048229,-0.020364831250045942
0.8250000000000001,0.002331457900007372,-0.789798140000018,0.0009446566200030797,-2.3499914499999788,-0.00492057775001706,1.577757600000023,0.7891060500000106,0.03999996,0.04,-9.85942600000006,-0.04661860875802752,0.15640644000058623,0.0011989462000030666,-0.08298200368896652,-0.020493032500044313
0.8275,0.0023527865200071,-0.7898504600000174,0.000953566896002966,-2.3499296049999794,-0.004969938175016431,1.5778244700000223,0.7891366350000102,0.03999996,0.04,-9.859598800000057,-0.04712223764525722,0.15810259500056462,0.0012078188200029534,-0.08342849537745074,-0.020621233750042677
0.8300000000000001,0.002374115140006829,-0.7899027800000167,0.0009624771720028528,-2.3498677599999804,-0.005019298600015804,1.5778913400000214,0.7891672200000098,0.03999996,0.04,-9.859771600000055,-0.047625866532486946,0.15979875000054306,0.0012166914400028408,-0.08387498706593498,-0.020749435000041047
0.8325,0.002395443760006557,-0.789955100000016,0.0009713874480027392,-2.349805914999981,-0.0050686590250151745,1.5779582100000205,0.7891978050000095,0.03999996,0.04,-9.859944400000053,-0.04812949541971665,0.1614949050005214,0.0012255640600027276,-0.08432147875441919,-0.02087763625003941
0.835,0.002417380590006756,-0.7900089290000165,0.0009805517860028224,-2.3497422399999808,-0.005119427250015635,1.578027010000021,0.7892292600000097,0.03999996,0.04,-9.86002350000001,-0.04865376800314926,0.1632450040005398,0.0012345423100027432,-0.08477259054793773,-0.021006937300039445
0.8375,0.0024396215250067767,-0.7900635125000166,0.000989843155002831,-2.3496776499999803,-0.005170899375015683,1.5780967750000212,0.7892611500000097,0.03999996,0.04,-9.86005575000001,-0.04918836243466926,0.16502207500054145,0.0012435733750027517,-0.0852260123939703,-0.021136788250039566
0.84,0.0024618624600067965,-0.7901180960000166,0.0009991345240028392,-2.3496130599999803,-0.005222371500015728,1.5781665400000213,0.7892930400000098,0.03999996,0.04,-9.86008800000001,-0.049722956866189244,0.16679914600054302,0.0012526044400027597,-0.08567943424000286,-0.02126663920003968
