rsonawane2002/My_IMU/logs_2/traj_421/imu_421.csv
time,j1,j2,j3,j4,j5,j6,j7,gripper1,gripper2,imu_ax,imu_ay,imu_az,imu_gx,imu_gy,imu_gz
1879.5333333319527,0.00016700293,-0.785875,4.0107683e-05,-2.3551247,9.29385e-05,1.570997,0.786,0.04,0.04,-9.517176,-0.006320040673017502,0.111629106,3.3111203e-09,-0.0011641276068985462,1.02220575e-07
1879.5499999986193,0.00016700859,-0.78576016,4.011585e-05,-2.3552213,9.2966904e-05,1.5709941,0.786,0.04,0.04,-9.834356,0.000637492339592427,0.00911734,-4.7723418e-08,-0.0022400841116905212,5.3228973e-07
1879.566666665286,0.00016703433,-0.7856543,4.0132138e-05,-2.35531,9.294357e-05,1.5709913,0.786,0.04,0.04,-9.832713,0.0006507266080006957,0.007532592,-3.4264936e-08,-0.0032394742593169212,-2.2012553e-06
1879.5833333319526,0.00016711399,-0.78555703,4.0170864e-05,-2.355391,9.2788476e-05,1.5709884,0.786,0.04,0.04,-9.831074,0.0006772482884116471,0.006206688,6.6401e-07,-0.004179543815553188,-1.0170279e-05
1879.5999999986193,0.00016729662,-0.78546774,4.0252704e-05,-2.3554645,9.238666e-05,1.5709856,0.786,0.04,0.04,-9.829799,0.0007120429072529078,0.004942353,1.7453242e-06,-0.005071159917861223,-2.561906e-05
1879.616666665286,0.0001676447,-0.7853861,4.040384e-05,-2.3555312,9.159256e-05,1.570986,0.786,0.04,0.04,-9.828857,0.000759580172598362,0.003737011,4.1151006e-06,-0.005925578996539116,-5.05674e-05
1879.6333333319526,0.00016823312,-0.78531164,4.0655672e-05,-2.3555906,9.023202e-05,1.5709869,0.7860003,0.04,0.04,-9.827882,0.0008108725305646658,0.0026613679,8.239284e-06,-0.006743250414729118,-8.683414e-05
1879.6499999986193,0.00016914765,-0.7852441,4.1044124e-05,-2.3556466,8.8105524e-05,1.5709878,0.7860022,0.04,0.04,-9.827265,0.000861687702126801,0.0016752607,1.3310121e-05,-0.007541973143815994,-0.00013603645
1879.666666665286,0.00017048369,-0.78518313,4.1608975e-05,-2.3556967,8.5002284e-05,1.5709918,0.7860041,0.04,0.039999995,-9.827176,0.0009171424899250269,0.000889943,1.3661321e-05,-0.008354820311069489,-0.00019883123
1879.6833333319526,0.00017234564,-0.7851286,4.2394044e-05,-2.3557396,8.0661375e-05,1.5709964,0.7860063,0.04,0.04,-9.827005,0.0009566734661348164,2.9628165e-05,1.7983008e-05,-0.009162391535937786,-0.00027887113
1879.6999999986192,0.00017484509,-0.7850804,4.3445747e-05,-2.3557763,7.4843956e-05,1.5710039,0.7860101,0.04,0.039999995,-9.826715,0.001004606718197465,-0.00057508564,2.515408e-05,-0.009981506504118443,-0.00037414912
1879.7166666652859,0.00017810074,-0.7850384,4.481378e-05,-2.3558085,6.726507e-05,1.5710125,0.78601503,0.04,0.039999995,-9.826817,0.0010296404361724854,-0.00118409,3.0020828e-05,-0.010812412016093731,-0.00048803748
1879.7333333319525,0.00018223714,-0.7850025,4.6550125e-05,-2.3558352,5.763699e-05,1.5710248,0.78602076,0.04,0.039999995,-9.827068,0.0010426949011161923,-0.0015603462,3.5430472e-05,-0.011678405106067657,-0.0006205917
1879.7499999986192,0.000187384,-0.7849729,4.8708956e-05,-2.3558547,4.565789e-05,1.5710409,0.7860284,0.04,0.039999995,-9.827561,0.0010403032647445798,-0.0019543597,4.4305925e-05,-0.01257366593927145,-0.00077258766
1879.7666666652858,0.00019367549,-0.78494954,5.134636e-05,-2.3558676,3.102028e-05,1.5710608,0.7860379,0.04,0.039999995,-9.827671,0.0010053421137854457,-0.0021377448,5.1926636e-05,-0.013494716957211494,-0.00094468106
1879.7833333319525,0.00020124973,-0.7849325,5.4519878e-05,-2.355875,1.3396237e-05,1.5710845,0.78604937,0.04,0.04,-9.828253,0.0009522661566734314,-0.002209257,5.9666258e-05,-0.014453241601586342,-0.0011381743
1879.7999999986191,0.0002102477,-0.78492177,5.8288417e-05,-2.3558762,-7.531345e-06,1.5711122,0.7860627,0.04,0.04,-9.828768,0.0008682191837579012,-0.002092265,6.8110734e-05,-0.015457521192729473,-0.0013520243
1879.8166666652858,0.00022081338,-0.7849176,6.2712104e-05,-2.355871,-3.2094744e-05,1.5711439,0.786078,0.039999995,0.039999995,-9.829637,0.0007598969386890531,-0.0018727839,7.844905e-05,-0.016513390466570854,-0.0015873313
1879.8333333319524,0.00023309291,-0.78491986,6.785186e-05,-2.3558593,-6.0631748e-05,1.571182,0.7860955,0.03999999,0.03999999,-9.830278,0.000594711396843195,-0.0014382574,9.134618e-05,-0.01762489043176174,-0.0018444094
1879.849999998619,0.0002472341,-0.78492904,7.376945e-05,-2.35584,-9.348364e-05,1.5712253,0.7861159,0.03999999,0.03999999,-9.831094,0.00039233185816556215,-0.0009295468,0.00010641719,-0.01878638006746769,-0.0021235738
1879.8666666652857,0.00026338597,-0.78494525,8.052706e-05,-2.355813,-0.00013099484,1.5712755,0.78613913,0.03999999,0.03999999,-9.832008,0.00015790748875588179,-0.00019349786,0.00012193085,-0.020003298297524452,-0.0024249332
1879.8833333319524,0.0002816987,-0.7849688,8.818738e-05,-2.3557775,-0.000173512,1.5713325,0.78616536,0.039999988,0.039999988,-9.832702,-0.00015810527838766575,0.0007385416,0.0001386508,-0.021273598074913025,-0.002748616
1879.899999998619,0.0003023228,-0.7849997,9.6813266e-05,-2.3557336,-0.0002213833,1.5713968,0.786195,0.039999984,0.039999984,-9.833678,-0.0004966786364093423,0.0018766909,0.00015736124,-0.022599391639232635,-0.0030946708
1879.9166666652857,0.00032540932,-0.7850384,0.00010646775,-2.3556814,-0.00027495713,1.5714688,0.78622824,0.03999998,0.03999998,-9.834398,-0.0009269580477848649,0.0032424973,0.0001767025,-0.023982524871826172,-0.0034630878
1879.9333333319523,0.00035110893,-0.7850849,0.00011721377,-2.3556201,-0.0003345818,1.571549,0.78626525,0.03999998,0.03999998,-9.8355465,-0.0013907789252698421,0.0048204474,0.0001972329,-0.02542700432240963,-0.003853819
1879.949999998619,0.00037957248,-0.7851396,0.00012911424,-2.35555,-0.00040060526,1.5716381,0.7863062,0.03999998,0.03999998,-9.836323,-0.0019484262447804213,0.0066513065,0.00021870842,-0.026932818815112114,-0.004266766
1879.9666666652856,0.0004109497,-0.78520274,0.00014223186,-2.3554707,-0.00047337395,1.5717365,0.78635126,0.039999977,0.039999977,-9.837528,-0.002547888085246086,0.008708624,0.00024174752,-0.028501149266958237,-0.004701808
1879.9833333319523,0.00044539,-0.7852744,0.00015662877,-2.3553808,-0.00055323256,1.5718443,0.7864007,0.039999973,0.039999973,-9.83838,-0.003256147727370262,0.011058072,0.00026642164,-0.030132988467812538,-0.0051587606
1879.999999998619,0.0004830417,-0.78535515,0.000172367,-2.3552809,-0.00064052345,1.5719622,0.7864546,0.039999973,0.039999973,-9.839545,-0.004014177247881889,0.013618268,0.0002925638,-0.03182624652981758,-0.005637416
1880.0166666652856,0.0005240519,-0.7854452,0.00018950796,-2.355171,-0.00073558674,1.5720906,0.78651357,0.03999997,0.03999997,-9.840384,-0.004886047914624214,0.016544959,0.00032052223,-0.03358405828475952,-0.006137535
1880.0333333319522,0.0005685664,-0.78554475,0.0002081126,-2.355049,-0.0008387588,1.5722301,0.7865775,0.03999997,0.03999997,-9.8417425,-0.00581012386828661,0.01970692,0.0003488042,-0.03540924936532974,-0.0066588256
1880.049999998619,0.0006167291,-0.7856542,0.00022824097,-2.3549166,-0.0009503733,1.5723811,0.78664666,0.039999966,0.039999966,-9.842358,-0.00685854721814394,0.023215082,0.00037860655,-0.037290625274181366,-0.0072009987
1880.0666666652855,0.0006686832,-0.7857736,0.00024995283,-2.3547719,-0.0010707597,1.5725439,0.7867213,0.039999966,0.039999966,-9.8437605,-0.0079670250415802,0.026993945,0.00041010592,-0.03923950716853142,-0.007763746
1880.0833333319522,0.0007245694,-0.7859034,0.00027330703,-2.3546164,-0.0012002438,1.572719,0.7868015,0.039999966,0.039999966,-9.844498,-0.009216731414198875,0.03115165,0.00044262604,-0.04125063866376877,-0.00834668
1880.0999999986188,0.000784527,-0.78604394,0.00029836159,-2.3544474,-0.0013391469,1.572907,0.7868876,0.039999966,0.039999966,-9.845649,-0.010542795993387699,0.035619583,0.00047686842,-0.043328769505023956,-0.008949419
1880.1166666652855,0.00084869296,-0.78619546,0.00032517384,-2.3542657,-0.0014877853,1.5731082,0.7869796,0.03999996,0.03999996,-9.846777,-0.011954431422054768,0.04041428,0.0005124661,-0.04546282812952995,-0.009571607
1880.1333333319521,0.00091720256,-0.7863582,0.00035380013,-2.3540716,-0.0016464714,1.5733228,0.7870779,0.03999996,0.03999996,-9.84756,-0.013524525798857212,0.045630336,0.00054960715,-0.04766072705388069,-0.010212788
1880.1499999986188,0.0009901886,-0.78653234,0.00038429606,-2.3538637,-0.0018155123,1.5735518,0.7871827,0.03999996,0.03999996,-9.848934,-0.015156855806708336,0.051164504,0.0005882104,-0.04992344602942467,-0.010872524
1880.1666666652854,0.0010677816,-0.7867184,0.00041671624,-2.3536417,-0.0019952096,1.5737952,0.787294,0.03999996,0.03999996,-9.849552,-0.016949452459812164,0.057115868,0.00062788464,-0.052242767065763474,-0.011550391
1880.183333331952,0.0011501102,-0.7869167,0.00045111447,-2.3534055,-0.0021858606,1.5740535,0.787412,0.03999996,0.03999996,-9.850784,-0.01881609857082367,0.06342832,0.0006694284,-0.054620303213596344,-0.012245858
1880.1999999986188,0.0012373003,-0.7871272,0.00048754303,-2.353155,-0.0023877558,1.574327,0.787537,0.03999996,0.03999996,-9.851432,-0.020855939015746117,0.07021284,0.0007127779,-0.05705635994672775,-0.012958494
1880.2166666652854,0.0013294758,-0.7873504,0.00052605383,-2.3528898,-0.002601182,1.5746158,0.7876692,0.03999996,0.03999996,-9.852663,-0.022964362055063248,0.07733572,0.0007575645,-0.059550799429416656,-0.01368779
1880.233333331952,0.0014267574,-0.78758645,0.0005666975,-2.3526092,-0.002826418,1.574921,0.7878087,0.03999996,0.03999996,-9.853344,-0.025262199342250824,0.08496296,0.0008035046,-0.06210646778345108,-0.0144332815
1880.2499999986187,0.0015292643,-0.7878359,0.00060952397,-2.3523128,-0.003063739,1.5752425,0.78795576,0.03999996,0.039999966,-9.854466,-0.02764246240258217,0.09292864,0.00085103017,-0.06471376121044159,-0.015196015
1880.2666666652854,0.0016371132,-0.78809875,0.0006545812,-2.352001,-0.0033134124,1.5755806,0.78811044,0.03999996,0.039999966,-9.854955,-0.03018699400126934,0.101444624,0.0009000949,-0.06737448275089264,-0.015972087
1880.283333331952,0.001750417,-0.7883754,0.00070191687,-2.3516736,-0.0035757027,1.5759357,0.7882729,0.03999996,0.039999984,-9.856181,-0.032856836915016174,0.110340364,0.0009503941,-0.07009249925613403,-0.01676793
1880.2999999986187,0.0018692869,-0.7886659,0.0007515775,-2.3513305,-0.0038508638,1.5763086,0.7884434,0.03999996,0.039999988,-9.856735,-0.03566615656018257,0.1197511,0.0010027826,-0.07286681234836578,-0.01757325
1880.3166666652853,0.0019938305,-0.78897065,0.00080360804,-2.35097,-0.004139148,1.5766991,0.7886219,0.03999996,0.03999999,-9.857895,-0.0385802760720253,0.12955995,0.0010566374,-0.07569336891174316,-0.01839116
1880.333333331952,0.0021241554,-0.7892898,0.00085805316,-2.350592,-0.0044407924,1.5771077,0.7888088,0.03999996,0.04,-9.858228,-0.04170504957437515,0.13992994,0.0011124366,-0.07856965065002441,-0.019222721
1880.3499999986186,0.0022603625,-0.78962374,0.0009149557,-2.3501976,-0.004756043,1.5775347,0.7890041,0.03999996,0.04,-9.85885,-0.04493984580039978,0.15075259,0.0011693708,-0.08149369806051254,-0.020065695
1880.3666666652853,0.0024025533,-0.78997254,0.00097435754,-2.3497853,-0.0050851125,1.5779805,0.789208,0.03999996,0.04,-9.860002,-0.048297371715307236,0.16206029,0.0012285216,-0.08447030931711197,-0.02092037
1880.383333331952,0.0025508262,-0.79033643,0.0010363,-2.3493547,-0.00542826,1.5784456,0.7894206,0.03999996,0.04,-9.860217,-0.05186133459210396,0.17390743,0.0012887287,-0.08749312162399292,-0.021786043
1880.3999999986186,0.0027052758,-0.79071575,0.0011008221,-2.348907,-0.0057856836,1.5789299,0.7896421,0.03999996,0.04,-9.861097,-0.05551975965499878,0.18621276,0.0013510513,-0.0905589833855629,-0.022662137
1880.4166666652852,0.0028659939,-0.7911107,0.001167963,-2.34844,-0.006157591,1.5794337,0.7898725,0.03999996,0.04,-9.861401,-0.05938888341188431,0.19913791,0.0014149357,-0.09367576241493225,-0.023548115
1880.4333333319519,0.0030330708,-0.79152155,0.0012377603,-2.347955,-0.0065442,1.5799575,0.790112,0.03999996,0.04,-9.862141,-0.06335482001304626,0.2125121,0.0014809223,-0.09683255106210709,-0.024443347
1880.4499999986185,0.003206594,-0.79194826,0.0013102498,-2.3474507,-0.006945709,1.5805014,0.7903609,0.03999996,0.04,-9.862286,-0.06754942238330841,0.22650185,0.0015487163,-0.10003533214330673,-0.025348036
1880.4666666652852,0.0033866467,-0.79239124,0.001385467,-2.346928,-0.0073623126,1.581066,0.790619,0.039999958,0.04,-9.863018,-0.07183080166578293,0.2409412,0.0016177326,-0.10327795147895813,-0.026260639
1880.4833333319518,0.0035733108,-0.79285055,0.0014634466,-2.3463855,-0.0077942037,1.5816511,0.7908866,0.039999954,0.04,-9.863023,-0.07633154094219208,0.2560199,0.0016893399,-0.10656334459781647,-0.027180638
1880.4999999986185,0.003766666,-0.7933264,0.0015442208,-2.345824,-0.00824157,1.5822573,0.79116374,0.039999947,0.04,-9.863673,-0.08093809336423874,0.2715993,0.001762966,-0.10988829284906387,-0.028108139
1880.5166666652851,0.003966787,-0.79381907,0.001627822,-2.3452427,-0.0087046,1.5828846,0.7914506,0.03999994,0.04,-9.863513,-0.08576591312885284,0.2877911,0.0018386493,-0.11325261741876602,-0.029041627
1880.5333333319518,0.0041737496,-0.7943287,0.0017142808,-2.3446405,-0.009183458,1.5835333,0.7917473,0.039999932,0.04,-9.864112,-0.09069383144378662,0.30451804,0.0019163039,-0.11665487289428711,-0.029980453
1880.5499999986184,0.004387622,-0.7948554,0.0018036264,-2.344019,-0.009678283,1.5842036,0.7920538,0.039999932,0.04,-9.863619,-0.09583979845046997,0.321872,0.001995928,-0.120088592171669,-0.030922467
1880.566666665285,0.004608473,-0.7953995,0.0018958874,-2.3433774,-0.010189235,1.5848958,0.7923704,0.03999993,0.04,-9.864148,-0.10110614448785782,0.33975416,0.0020778317,-0.12355965375900269,-0.031869598
1880.5833333319517,0.004836368,-0.795961,0.0019910918,-2.3427148,-0.010716474,1.5856102,0.79269695,0.039999925,0.04,-9.863706,-0.1065903753042221,0.3583055,0.0021617056,-0.12706702947616577,-0.03282021
1880.5999999986184,0.005071372,-0.79654014,0.0020892646,-2.3420308,-0.0112601435,1.586347,0.7930337,0.03999992,0.04,-9.863495,-0.11220601201057434,0.37740344,0.0022480437,-0.13060426712036133,-0.033773754
1880.616666665285,0.005313541,-0.79713714,0.002190433,-2.341326,-0.011820393,1.5871059,0.7933808,0.039999917,0.04,-9.863589,-0.11796808242797852,0.3970658,0.002336878,-0.13416726887226105,-0.034729514
1880.6333333319517,0.0055629355,-0.7977521,0.0022946193,-2.3406007,-0.012397342,1.5878876,0.79373837,0.039999913,0.04,-9.862845,-0.12394833564758301,0.41744924,0.0024275722,-0.13776271045207977,-0.035686985
1880.6499999986183,0.005819609,-0.7983847,0.0024018462,-2.3398538,-0.01299112,1.5886921,0.7941065,0.03999991,0.04,-9.862946,-0.13004817068576813,0.43835065,0.0025200238,-0.1413874328136444,-0.036645386
1880.666666665285,0.006083614,-0.7990356,0.0025121372,-2.3390856,-0.013601852,1.5895196,0.7944848,0.039999906,0.04,-9.861963,-0.13636073470115662,0.45991918,0.002614288,-0.14504076540470123,-0.037604176
1880.6833333319516,0.0063550025,-0.79970455,0.0026255117,-2.3382962,-0.014229653,1.5903704,0.7948737,0.03999991,0.04,-9.861802,-0.14278605580329895,0.4820635,0.0027123718,-0.14871874451637268,-0.038562763
1880.6999999986183,0.0066338205,-0.80039215,0.0027419906,-2.3374848,-0.014874607,1.5912442,0.79527324,0.039999906,0.04,-9.860677,-0.1494293510913849,0.5048782,0.0028126468,-0.15242396295070648,-0.039519627
1880.716666665285,0.0069201114,-0.80109805,0.0028615922,-2.3366516,-0.015536833,1.5921417,0.79568356,0.039999902,0.04,-9.860263,-0.1561989188194275,0.52829987,0.0029158746,-0.15615126490592957,-0.040475946
1880.7333333319516,0.007213918,-0.8018225,0.002984333,-2.3357964,-0.01621647,1.5930626,0.79610467,0.039999906,0.04,-9.858832,-0.1631859391927719,0.552383,0.003021304,-0.1599007546901703,-0.04143101
1880.7499999986183,0.0075152796,-0.80256575,0.0031102311,-2.33492,-0.016913567,1.5940071,0.79653645,0.039999902,0.04,-9.858265,-0.17027267813682556,0.5770597,0.0031290113,-0.16367238759994507,-0.042383187
1880.766666665285,0.007824233,-0.80332774,0.0032393015,-2.3340209,-0.017628208,1.5949756,0.7969792,0.0399999,0.04,-9.856684,-0.17758505046367645,0.6024504,0.0032406317,-0.16746820509433746,-0.043331265
1880.7833333319516,0.008140815,-0.80410856,0.0033715586,-2.3330994,-0.018360473,1.5959681,0.7974329,0.039999895,0.04,-9.855783,-0.18500646948814392,0.62839526,0.003354272,-0.1712796688079834,-0.044275455
1880.7999999986182,0.008465053,-0.8049083,0.0035070153,-2.3321557,-0.01911045,1.5969844,0.7978976,0.03999989,0.04,-9.853812,-0.19264405965805054,0.65505767,0.0034705277,-0.17510831356048584,-0.045215987
1880.8166666652849,0.0087969825,-0.80572706,0.0036456846,-2.33119,-0.019878212,1.5980246,0.7983733,0.039999884,0.04,-9.852731,-0.2003980576992035,0.68233085,0.0035897186,-0.1789558082818985,-0.046151243
1880.8333333319515,0.009136624,-0.8065648,0.0037875788,-2.330202,-0.020663824,1.599089,0.79886,0.03999988,0.04,-9.850538,-0.20835091173648834,0.71030277,0.0037118413,-0.18282166123390198,-0.047080707
1880.8499999986182,0.009484006,-0.80742186,0.0039327065,-2.3291917,-0.021467322,1.6001778,0.7993579,0.039999876,0.04,-9.848648,-0.21644438803195953,0.73888475,0.0038371277,-0.18670256435871124,-0.048003025
1880.8666666652848,0.009839152,-0.8082979,0.004081078,-2.3281584,-0.02228876,1.6012906,0.79986686,0.039999872,0.04,-9.847096,-0.22467882931232452,0.7681131,0.003965263,-0.19059628248214722,-0.04891933
1880.8833333319515,0.010202079,-0.80919313,0.0042327014,-2.3271027,-0.023128178,1.6024281,0.80038697,0.03999987,0.04,-9.844356,-0.2330918163061142,0.79803306,0.004096521,-0.19450457394123077,-0.049826495
1880.8999999986181,0.010572805,-0.81010747,0.004387584,-2.3260238,-0.02398562,1.6035899,0.8009183,0.03999986,0.04,-9.842465,-0.2416486293077469,0.82856005,0.0042308983,-0.19842222332954407,-0.050727434
1880.9166666652848,0.0109513495,-0.81104124,0.0045457324,-2.3249226,-0.024861129,1.6047761,0.80146074,0.039999858,0.04,-9.839347,-0.2503722608089447,0.8597952,0.0043686028,-0.20235061645507812,-0.051618952
1880.9333333319514,0.011337719,-0.81199443,0.0047071525,-2.323798,-0.025754739,1.605987,0.80201435,0.039999858,0.04,-9.837145,-0.25922220945358276,0.89166784,0.0045100152,-0.2062896192073822,-0.05250145
1880.949999998618,0.011731928,-0.8129671,0.0048718466,-2.3226504,-0.026666455,1.6072224,0.8025793,0.039999854,0.04,-9.833575,-0.26824837923049927,0.9242391,0.004654635,-0.2102338969707489,-0.05337416
1880.9666666652847,0.012133987,-0.8139591,0.0050398204,-2.3214803,-0.027596336,1.6084825,0.8031554,0.039999846,0.04,-9.830908,-0.27741384506225586,0.9574336,0.004802548,-0.21418319642543793,-0.05423939
1880.9833333319514,0.012543894,-0.8149703,0.0052110762,-2.3202875,-0.028544378,1.6097672,0.8037429,0.039999843,0.04,-9.827024,-0.2867235839366913,0.9913281,0.004954048,-0.21813946962356567,-0.05509219
1880.999999998618,0.01296166,-0.81600106,0.0053856154,-2.3190715,-0.029510576,1.6110765,0.80434155,0.03999984,0.04,-9.824022,-0.29615357518196106,1.0258291,0.0051088706,-0.22210270166397095,-0.055932622
1881.0166666652847,0.013387281,-0.8170511,0.0055634384,-2.317833,-0.030494936,1.6124104,0.8049514,0.03999983,0.04,-9.819627,-0.3057546019554138,1.0610605,0.005267652,-0.22606761753559113,-0.05676236
1881.0333333319513,0.01382076,-0.8181206,0.0057445443,-2.3165712,-0.031497467,1.6137689,0.80557257,0.039999828,0.04,-9.816198,-0.31547248363494873,1.0968982,0.0054302705,-0.23003791272640228,-0.057580784
1881.049999998618,0.014262096,-0.8192095,0.0059289336,-2.3152866,-0.032518145,1.6151522,0.80620503,0.03999982,0.04,-9.811294,-0.3253256380558014,1.1334321,0.00559657,-0.23400713503360748,-0.058384784
1881.0666666652846,0.01471128,-0.8203178,0.006116605,-2.313979,-0.03355698,1.6165599,0.8068487,0.03999982,0.04,-9.807321,-0.33532044291496277,1.1706014,0.005766369,-0.23797659575939178,-0.05917655
1881.0833333319513,0.015168309,-0.8214454,0.0063075516,-2.3126488,-0.034613945,1.6179923,0.80750364,0.039999813,0.04,-9.801991,-0.34543469548225403,1.2084534,0.0059403456,-0.24194659292697906,-0.059953753
1881.099999998618,0.015633171,-0.8225924,0.006501773,-2.3112962,-0.035689022,1.6194487,0.8081697,0.03999981,0.04,-9.7969885,-0.3556852638721466,1.2469474,0.0061183353,-0.24591529369354248,-0.060717776
1881.1166666652846,0.016105853,-0.82375866,0.006699262,-2.3099208,-0.036782186,1.620931,0.808847,0.0399998,0.04,-9.792282,-0.366045206785202,1.2861139,0.006300399,-0.2498863935470581,-0.061467946
1881.1333333319512,0.016586343,-0.8249444,0.0069000144,-2.3085227,-0.037893407,1.6224368,0.8095355,0.039999798,0.04,-9.786092,-0.37654218077659607,1.325867,0.0064868913,-0.2538459002971649,-0.062205154
1881.149999998618,0.017074622,-0.8261492,0.007104024,-2.3071015,-0.03902267,1.6239669,0.81023514,0.039999805,0.04,-9.7808075,-0.3871726989746094,1.3663642,0.006677328,-0.2578072249889374,-0.062931456
1881.1666666652845,0.017570674,-0.82737327,0.007311283,-2.3056576,-0.040169857,1.6255212,0.8109459,0.039999805,0.04,-9.774001,-0.3978232741355896,1.4074464,0.006872216,-0.261759489774704,-0.063633025
1881.1833333319512,0.018074485,-0.82861656,0.007521784,-2.3041914,-0.041334964,1.6271001,0.8116678,0.039999798,0.04,-9.76811,-0.40865907073020935,1.4491864,0.0070714285,-0.26570701599121094,-0.06432047
1881.1999999986178,0.01858603,-0.8298788,0.0077355164,-2.3027027,-0.04251798,1.6287032,0.81240106,0.039999787,0.04,-9.76081,-0.4195896089076996,1.4915777,0.00727492,-0.26964712142944336,-0.06499295
1881.2166666652845,0.01910529,-0.83116025,0.007952474,-2.3011913,-0.04371883,1.6303309,0.81314576,0.039999787,0.04,-9.754247,-0.43060415983200073,1.5345966,0.0074817967,-0.2735790014266968,-0.065645695
1881.2333333319511,0.01963223,-0.8324605,0.008172641,-2.2996578,-0.04493742,1.6319824,0.8139007,0.039999776,0.04,-9.746203,-0.4417250454425812,1.5782479,0.0076911016,-0.277496874332428,-0.066283
1881.2499999986178,0.02016683,-0.83377975,0.00839601,-2.298102,-0.04617372,1.6336579,0.81466687,0.039999772,0.04,-9.739033,-0.4529431164264679,1.6225493,0.007908346,-0.28140789270401,-0.06690282
1881.2666666652844,0.02070905,-0.8351179,0.008622564,-2.2965236,-0.04742766,1.6353574,0.81544375,0.03999977,0.04,-9.730389,-0.4642254412174225,1.6674565,0.008129488,-0.28530818223953247,-0.06750299
1881.283333331951,0.021258874,-0.8364752,0.008852295,-2.294923,-0.04869915,1.6370804,0.81623155,0.03999976,0.04,-9.722373,-0.47562870383262634,1.7129995,0.008356107,-0.2891926169395447,-0.06808585
1881.2999999986177,0.021816261,-0.8378507,0.009085186,-2.293301,-0.04998812,1.6388273,0.81703013,0.039999753,0.04,-9.712959,-0.48708081245422363,1.7591861,0.008587163,-0.29306259751319885,-0.06865021
1881.3166666652844,0.022381175,-0.8392449,0.009321227,-2.2916574,-0.051294506,1.6405976,0.81783974,0.039999742,0.04,-9.704438,-0.49864667654037476,1.8059232,0.008823625,-0.2969234585762024,-0.06919667
1881.333333331951,0.022953581,-0.8406576,0.0095604,-2.2899911,-0.052618213,1.6423916,0.81865996,0.039999742,0.04,-9.6942835,-0.5102272033691406,1.8533027,0.009063888,-0.30076950788497925,-0.069722064
1881.3499999986177,0.023533443,-0.8420887,0.009802686,-2.2883027,-0.05395914,1.644209,0.8194909,0.039999735,0.04,-9.684232,-0.5219182968139648,1.9012438,0.009309488,-0.3045955002307892,-0.07023091
1881.3666666652844,0.024120715,-0.8435383,0.010048071,-2.2865932,-0.055317204,1.6460493,0.82033235,0.039999727,0.04,-9.674297,-0.5336728096008301,1.9498351,0.0095597,-0.30840086936950684,-0.07071829
1881.383333331951,0.024715351,-0.8450058,0.010296537,-2.2848628,-0.056692284,1.6479125,0.8211845,0.03999972,0.04,-9.663035,-0.5454465746879578,1.9990048,0.009815738,-0.3121921420097351,-0.07118593
1881.3999999986177,0.025317308,-0.84649175,0.010548064,-2.2831109,-0.058084298,1.6497991,0.82204705,0.039999712,0.04,-9.652478,-0.5573323369026184,2.0487473,0.010076052,-0.315968781709671,-0.071633495
1881.4166666652843,0.02592655,-0.8479955,0.010802631,-2.2813377,-0.059493143,1.6517087,0.8229201,0.03999971,0.04,-9.64023,-0.5692088603973389,2.0990489,0.0103421295,-0.3197213411331177,-0.07206183
1881.433333331951,0.026543025,-0.849517,0.011060224,-2.2795436,-0.06091871,1.6536407,0.82380354,0.0399997,0.04,-9.628679,-0.5811717510223389,2.1499536,0.010613108,-0.3234516680240631,-0.072468676
1881.4499999986176,0.027166683,-0.8510566,0.011320823,-2.2777283,-0.062360886,1.6555952,0.8246972,0.03999969,0.04,-9.615701,-0.5931305289268494,2.201362,0.010889168,-0.3271643817424774,-0.072855845
1881.4666666652843,0.027797477,-0.85261375,0.011584403,-2.275892,-0.06381954,1.6575719,0.8256012,0.039999682,0.04,-9.603161,-0.6051594614982605,2.2534125,0.011170592,-0.3308504521846771,-0.07322061
1881.483333331951,0.02843535,-0.8541883,0.011850938,-2.2740355,-0.06529458,1.6595708,0.8265152,0.03999967,0.04,-9.589199,-0.6171810030937195,2.3059294,0.01145686,-0.3345133066177368,-0.073566146
1881.4999999986176,0.029080248,-0.8557803,0.012120412,-2.2721581,-0.06678583,1.6615919,0.8274393,0.039999664,0.04,-9.575876,-0.6292825937271118,2.3590488,0.011749257,-0.3381531238555908,-0.07389076
1881.5166666652842,0.029732116,-0.85738945,0.012392801,-2.27026,-0.068293236,1.6636348,0.8283734,0.03999966,0.04,-9.560911,-0.6413190364837646,2.4126318,0.012046574,-0.3417655825614929,-0.07419414
1881.5333333319509,0.0303909,-0.85901564,0.012668079,-2.2683427,-0.06981662,1.6656996,0.82931745,0.03999965,0.04,-9.546549,-0.6534552574157715,2.4668026,0.0123497415,-0.3453513979911804,-0.074476264
1881.5499999986175,0.031056533,-0.8606587,0.012946221,-2.2664053,-0.071355835,1.6677858,0.8302713,0.039999645,0.04,-9.530741,-0.6655047535896301,2.5214252,0.012657759,-0.3489121198654175,-0.074735254
1881.5666666652842,0.031728964,-0.86231863,0.013227208,-2.264448,-0.07291076,1.6698931,0.8312349,0.03999964,0.04,-9.515424,-0.6776641607284546,2.5766249,0.012971654,-0.35244661569595337,-0.0749746
1881.5833333319508,0.032408122,-0.86399555,0.013511003,-2.2624712,-0.07448126,1.6720216,0.832208,0.03999963,0.04,-9.498456,-0.6897150874137878,2.6322298,0.013291196,-0.35594984889030457,-0.07519255
1881.5999999986175,0.03309395,-0.86568874,0.013797589,-2.260475,-0.07606718,1.674171,0.8331907,0.03999962,0.04,-9.481568,-0.7017982006072998,2.688409,0.013616618,-0.359423965215683,-0.0753881
1881.6166666652841,0.03378638,-0.86739826,0.014086935,-2.258459,-0.077668354,1.6763409,0.83418304,0.039999615,0.04,-9.46468,-0.7139315605163574,2.7450633,0.013947267,-0.3628688454627991,-0.07556296
1881.6333333319508,0.034485355,-0.869124,0.014379013,-2.2564247,-0.079284646,1.6785314,0.8351847,0.039999608,0.04,-9.4461355,-0.7259349226951599,2.8020847,0.014282769,-0.3662809431552887,-0.07571721
1881.6499999986174,0.035190802,-0.87086576,0.014673798,-2.2543712,-0.080915876,1.6807424,0.8361956,0.039999604,0.04,-9.428196,-0.7380121350288391,2.8596964,0.014624089,-0.36966317892074585,-0.075847246
1881.666666665284,0.035902645,-0.8726233,0.014971259,-2.252299,-0.0825619,1.6829733,0.8372157,0.039999593,0.04,-9.408575,-0.7499586939811707,2.9176126,0.0149710085,-0.3730098605155945,-0.07595764
1881.6833333319507,0.036620818,-0.8743965,0.015271367,-2.2502081,-0.08422257,1.6852239,0.83824486,0.039999582,0.04,-9.389456,-0.761978805065155,2.9760983,0.015323204,-0.3763236999511719,-0.07604666
1881.6999999986174,0.037345257,-0.8761851,0.015574091,-2.248099,-0.08589775,1.6874943,0.8392829,0.039999574,0.04,-9.368724,-0.7738416194915771,3.0348742,0.015681148,-0.37960293889045715,-0.07611416
1881.716666665284,0.03807588,-0.8779891,0.015879402,-2.245972,-0.087587215,1.6897842,0.8403299,0.039999567,0.04,-9.348499,-0.7857748866081238,3.0941908,0.01604527,-0.38284745812416077,-0.076159276
1881.7333333319507,0.038812615,-0.87980837,0.016187267,-2.2438269,-0.089290805,1.692093,0.8413857,0.039999556,0.04,-9.326585,-0.7975339293479919,3.1537836,0.01641435,-0.3860534429550171,-0.076183945
1881.7499999986173,0.03955539,-0.8816425,0.016497655,-2.241665,-0.09100831,1.6944209,0.8424501,0.039999552,0.04,-9.305139,-0.8093551397323608,3.213921,0.016788553,-0.3892233967781067,-0.076186575
1881.766666665284,0.04030411,-0.88349134,0.016810529,-2.2394845,-0.09273962,1.6967676,0.84352297,0.039999552,0.04,-9.282178,-0.8210029602050781,3.274268,0.017168706,-0.3923579454421997,-0.07617023
1881.7833333319506,0.041058704,-0.8853548,0.017125867,-2.2372875,-0.09448454,1.6991324,0.8446043,0.03999954,0.04,-9.259435,-0.832688570022583,3.3351274,0.017554525,-0.3954508900642395,-0.07613083
1881.7999999986173,0.041819096,-0.88723266,0.017443627,-2.2350738,-0.09624282,1.7015157,0.84569395,0.039999533,0.04,-9.235229,-0.8441678881645203,3.3961945,0.017945515,-0.39850616455078125,-0.076070555
1881.816666665284,0.04258522,-0.8891247,0.01776378,-2.2328434,-0.09801434,1.7039169,0.846792,0.039999522,0.04,-9.211386,-0.8557313680648804,3.457774,0.018341957,-0.40152260661125183,-0.075991444
1881.8333333319506,0.043356977,-0.8910306,0.018086292,-2.2305956,-0.099798925,1.7063358,0.8478979,0.039999515,0.04,-9.185904,-0.8670350313186646,3.5195057,0.018742846,-0.4044979512691498,-0.07589185
1881.8499999986172,0.04413429,-0.89295036,0.018411128,-2.228332,-0.101596355,1.7087721,0.8490118,0.039999507,0.04,-9.160164,-0.8783106803894043,3.5816088,0.019149821,-0.40742743015289307,-0.075769916
1881.866666665284,0.04491707,-0.8948838,0.018738253,-2.226053,-0.10340641,1.7112254,0.85013354,0.039999504,0.04,-9.134449,-0.8896005153656006,3.6441443,0.019561945,-0.41031721234321594,-0.075628966
1881.8833333319506,0.045705248,-0.89683044,0.019067623,-2.223758,-0.10522893,1.7136959,0.85126317,0.039999496,0.04,-9.107181,-0.9006235003471375,3.7067962,0.019979576,-0.4131676256656647,-0.07546773
1881.8999999986172,0.046498716,-0.8987902,0.019399207,-2.2214477,-0.10706369,1.7161827,0.85240036,0.039999496,0.04,-9.080045,-0.9116983413696289,3.7698581,0.020401113,-0.41597166657447815,-0.0752884
1881.9166666652839,0.0472974,-0.9007629,0.01973297,-2.2191224,-0.10891049,1.7186859,0.8535451,0.039999496,0.04,-9.051502,-0.9225109815597534,3.833034,0.020828515,-0.4187356233596802,-0.075091876
1881.9333333319505,0.04810121,-0.9027483,0.02006888,-2.2167819,-0.11076915,1.7212051,0.85469717,0.039999485,0.04,-9.023109,-0.9333535432815552,3.896626,0.021260275,-0.42145368456840515,-0.07487474
1881.9499999986172,0.04891005,-0.90474606,0.020406894,-2.2144265,-0.112639464,1.7237403,0.8558564,0.03999948,0.04,-8.993152,-0.9438799023628235,3.9602509,0.021697305,-0.4241259694099426,-0.074636355
1881.9666666652838,0.049723834,-0.90675616,0.020746972,-2.2120569,-0.1145212,1.7262911,0.8570225,0.039999474,0.04,-8.963466,-0.9544756412506104,4.0243006,0.022138998,-0.42675185203552246,-0.07437745
1881.9833333319505,0.050542474,-0.90877837,0.021089077,-2.2096727,-0.11641416,1.7288572,0.8581957,0.039999466,0.04,-8.932218,-0.9647513031959534,4.088361,0.02258669,-0.42933064699172974,-0.07409991
1881.999999998617,0.051365867,-0.9108123,0.021433163,-2.2072742,-0.1183181,1.7314379,0.8593758,0.039999463,0.04,-8.901144,-0.9750781059265137,4.1528163,0.023038331,-0.4318603277206421,-0.07380387
1882.0166666652838,0.05219392,-0.91285795,0.021779206,-2.2048628,-0.12023282,1.7340333,0.86056244,0.039999448,0.04,-8.868506,-0.985072910785675,4.217227,0.023493946,-0.4343412220478058,-0.07349206
1882.0333333319504,0.05302655,-0.9149147,0.022127157,-2.2024384,-0.12215809,1.736643,0.8617558,0.03999944,0.04,-8.836216,-0.9951171875,4.2820516,0.023954542,-0.43677666783332825,-0.07316038
1882.049999998617,0.053863645,-0.9169827,0.022476979,-2.2000003,-0.124093756,1.7392666,0.86295545,0.039999433,0.04,-8.80237,-1.0048218965530396,4.346751,0.024419433,-0.439165860414505,-0.07281299
1882.0666666652837,0.054705124,-0.9190616,0.02282863,-2.197549,-0.12603955,1.741904,0.86416143,0.039999437,0.04,-8.768532,-1.0145301818847656,4.4118247,0.024888827,-0.44150227308273315,-0.07244478
1882.0833333319504,0.055550884,-0.9211513,0.023182074,-2.1950858,-0.1279952,1.7445548,0.8653736,0.03999942,0.04,-8.733256,-1.0239067077636719,4.4767747,0.025361804,-0.4437873065471649,-0.07206352
1882.099999998617,0.05640082,-0.92325115,0.02353726,-2.1926105,-0.1299605,1.747219,0.86659175,0.039999418,0.04,-8.697744,-1.0332030057907104,4.541979,0.025838546,-0.4460228979587555,-0.071663655
1882.1166666652837,0.057254843,-0.9253613,0.023894152,-2.1901224,-0.13193533,1.7498958,0.8678158,0.03999941,0.04,-8.661986,-1.0424585342407227,4.6073465,0.026319446,-0.44820767641067505,-0.071249805
1882.1333333319503,0.05811285,-0.92748135,0.024252707,-2.1876235,-0.13391927,1.7525853,0.8690455,0.039999403,0.04,-8.624595,-1.0512741804122925,4.6725454,0.026803605,-0.4503372013568878,-0.07081728
1882.149999998617,0.058974743,-0.9296108,0.02461289,-2.1851125,-0.13591224,1.755287,0.87028074,0.039999396,0.04,-8.587533,-1.0601931810379028,4.7380896,0.027291946,-0.4524182975292206,-0.070371225
1882.1666666652836,0.059840426,-0.9317497,0.024974657,-2.1825912,-0.13791393,1.7580005,0.8715214,0.039999384,0.04,-8.548801,-1.06865656375885,4.80334,0.027783507,-0.4544435441493988,-0.069910176
1882.1833333319503,0.06070979,-0.93389773,0.025337957,-2.180059,-0.13992415,1.7607253,0.8727674,0.039999373,0.04,-8.510335,-1.077188491821289,4.868958,0.028278885,-0.4564201831817627,-0.06943419
1882.199999998617,0.061582725,-0.936055,0.025702754,-2.1775162,-0.14194264,1.7634615,0.8740186,0.03999938,0.04,-8.470339,-1.0852744579315186,4.934262,0.028777169,-0.4583422541618347,-0.068941675
1882.2166666652836,0.06245915,-0.9382205,0.026069,-2.1749635,-0.14396912,1.7662084,0.8752747,0.039999373,0.04,-8.430331,-1.093388319015503,4.9998674,0.029277427,-0.4602077007293701,-0.068434566
1882.2333333319502,0.06333893,-0.9403946,0.026436659,-2.1724005,-0.14600343,1.7689661,0.8765356,0.03999935,0.04,-8.389101,-1.1010619401931763,5.065124,0.029782003,-0.46202197670936584,-0.06790426
1882.2499999986169,0.064222,-0.9425768,0.026805678,-2.169828,-0.14804523,1.7717342,0.8778012,0.03999933,0.039999906,-8.347692,-1.1087321043014526,5.130655,0.030289166,-0.46377766132354736,-0.067348845
1882.2666666652835,0.06510821,-0.944767,0.027176017,-2.167246,-0.15009435,1.7745123,0.87907124,0.0399993,0.039999772,-8.305001,-1.1159712076187134,5.1958327,0.030798357,-0.4654751718044281,-0.06677339
1882.2833333319502,0.06599748,-0.94696474,0.027547633,-2.1646554,-0.15215045,1.7772998,0.8803458,0.03999927,0.039999656,-8.26233,-1.1233232021331787,5.2612453,0.03131036,-0.46711841225624084,-0.066191725
1882.2999999986168,0.066889696,-0.94916993,0.027920477,-2.1620562,-0.15421337,1.7800964,0.88162464,0.03999922,0.039999504,-8.2183075,-1.130129098892212,5.326269,0.031823333,-0.4687051475048065,-0.06558809
1882.3166666652835,0.06778475,-0.95138216,0.02829451,-2.1594481,-0.1562829,1.782902,0.88290745,0.039999176,0.03999935,-8.17426,-1.1369904279708862,5.3914967,0.032337576,-0.4702349901199341,-0.06497006
1882.3333333319501,0.068682544,-0.9536012,0.028669683,-2.1568325,-0.15835874,1.7857163,0.88419414,0.039999116,0.039999202,-8.128899,-1.1434327363967896,5.4562755,0.03285414,-0.4717068374156952,-0.06434474
1882.3499999986168,0.06958293,-0.9558268,0.029045952,-2.1542087,-0.16044062,1.7885386,0.88548464,0.039999064,0.039999083,-8.083232,-1.1497822999954224,5.521106,0.033372182,-0.473122239112854,-0.063713655
1882.3666666652834,0.07048587,-0.95805883,0.029423272,-2.1515775,-0.16252835,1.7913688,0.88677883,0.03999902,0.039998982,-8.037111,-1.1560168266296387,5.5859265,0.033890847,-0.4744792580604553,-0.06307679
1882.38333333195,0.0713912,-0.9602968,0.0298016,-2.1489394,-0.16462162,1.7942067,0.8880765,0.039998952,0.03999887,-7.989809,-1.1617745161056519,5.6502743,0.03441012,-0.4757772386074066,-0.06243235
1882.3999999986167,0.07229886,-0.9625404,0.030180886,-2.1462944,-0.16672024,1.7970518,0.8893775,0.039998874,0.039998755,-7.942429,-1.1675506830215454,5.7147627,0.034929834,-0.4770175814628601,-0.061782088
1882.4166666652834,0.0732087,-0.9647897,0.030561095,-2.1436434,-0.16882388,1.7999038,0.8906815,0.039998803,0.039998643,-7.8938847,-1.172816514968872,5.7787046,0.03545062,-0.47819942235946655,-0.061117258
1882.43333333195,0.07412058,-0.96704406,0.03094216,-2.1409862,-0.17093235,1.8027624,0.89198864,0.03999873,0.03999854,-7.845217,-1.1781479120254517,5.8428297,0.035971876,-0.4793235659599304,-0.06045007
1882.4499999986167,0.075034454,-0.9693035,0.03132404,-2.1383226,-0.17304535,1.8056272,0.89329845,0.03999866,0.039998457,-7.79542,-1.1829919815063477,5.906337,0.03649278,-0.48038962483406067,-0.059780784
1882.4666666652834,0.07595017,-0.9715675,0.031706706,-2.135654,-0.17516264,1.8084975,0.894611,0.03999859,0.039998375,-7.745306,-1.1877996921539307,5.9699335,0.03701371,-0.4813910126686096,-0.059104335
1882.48333333195,0.07686762,-0.9738359,0.032090098,-2.13298,-0.17728396,1.8113738,0.895926,0.039998524,0.0399983,-7.6943274,-1.1921600103378296,6.032982,0.037534367,-0.48233693838119507,-0.05842334
1882.4999999986167,0.077786714,-0.9761084,0.03247418,-2.130301,-0.17940906,1.8142551,0.8972435,0.039998453,0.039998222,-7.643105,-1.1964986324310303,6.096064,0.038054634,-0.4832209646701813,-0.05773367
1882.5166666652833,0.07870733,-0.9783845,0.032858867,-2.127618,-0.18153763,1.8171408,0.8985631,0.039998386,0.03999816,-7.590755,-1.2003520727157593,6.158515,0.03857268,-0.4840427041053772,-0.05704267
1882.53333333195,0.07962936,-0.9806645,0.033244163,-2.1249304,-0.1836695,1.8200312,0.8998847,0.03999831,0.03999808,-7.538407,-1.2042322158813477,6.2210517,0.03909113,-0.4848097562789917,-0.05634556
1882.5499999986166,0.08055271,-0.98294747,0.03362999,-2.122239,-0.18580435,1.8229256,0.9012081,0.039998237,0.03999801,-7.48488,-1.2075786590576172,6.2828894,0.039607573,-0.4855121076107025,-0.055642948
1882.5666666652833,0.08147722,-0.9852337,0.0340163,-2.1195438,-0.18794194,1.8258237,0.9025332,0.039998166,0.039997946,-7.431276,-1.2109662294387817,6.3447537,0.04012317,-0.4861556589603424,-0.054937325
1882.58333333195,0.08240279,-0.9875228,0.03440306,-2.116846,-0.190082,1.828725,0.90385985,0.039998084,0.03999787,-7.376554,-1.213800311088562,6.405925,0.040636186,-0.48673370480537415,-0.05422581
1882.5999999986166,0.083329305,-0.98981416,0.034790218,-2.1141458,-0.19222428,1.8316296,0.90518796,0.039998017,0.0399978,-7.3217244,-1.2165695428848267,6.4669647,0.041147597,-0.4872562885284424,-0.053509954
1882.6166666652832,0.08425666,-0.9921075,0.035177726,-2.1114419,-0.19436851,1.8345373,0.906517,0.03999793,0.039997727,-7.266328,-1.2192071676254272,6.5277567,0.04165611,-0.48771652579307556,-0.052792165
1882.6333333319499,0.08518473,-0.9944028,0.03556553,-2.1087365,-0.1965144,1.8374465,0.9078474,0.03999786,0.03999766,-7.2099786,-1.2213114500045776,6.5877633,0.042162847,-0.48810991644859314,-0.0520701
1882.6499999986165,0.08611346,-0.99669987,0.03595359,-2.1060288,-0.1986617,1.8403581,0.9091786,0.03999781,0.03999761,-7.153598,-1.2234560251235962,6.6478276,0.042665847,-0.4884490966796875,-0.05134548
1882.6666666652832,0.0870427,-0.9989981,0.036341857,-2.1033201,-0.20081018,1.8432711,0.9105104,0.03999774,0.039997544,-7.0962133,-1.2250593900680542,6.707071,0.04316556,-0.4887208342552185,-0.050616633
1882.6833333319498,0.08797228,-1.0012975,0.036730286,-2.1006098,-0.20295961,1.8461858,0.9118428,0.039997682,0.039997496,-7.0387454,-1.2267205715179443,6.7662697,0.04366284,-0.4889355003833771,-0.04988718
1882.6999999986165,0.08890215,-1.0035976,0.037118826,-2.0978987,-0.20510964,1.8491012,0.9131757,0.039997607,0.03999742,-6.980352,-1.227835774421692,6.82465,0.04415581,-0.4890831708908081,-0.04915482
1882.7166666652831,0.08983219,-1.0058982,0.03750744,-2.095187,-0.20726007,1.852017,0.91450894,0.03999754,0.039997358,-6.921789,-1.2289676666259766,6.882969,0.044644497,-0.48917117714881897,-0.048421077
1882.7333333319498,0.090762265,-1.008199,0.037896067,-2.0924752,-0.20941056,1.8549329,0.91584224,0.039997466,0.039997287,-6.8624687,-1.2296007871627808,6.940461,0.04512818,-0.4891960024833679,-0.047685776
1882.7499999986164,0.09169229,-1.0104996,0.03828466,-2.0897636,-0.21156092,1.8578486,0.9171754,0.039997388,0.039997216,-6.802972,-1.2302577495574951,6.9978395,0.045607485,-0.4891617000102997,-0.0469509
1882.766666665283,0.09262213,-1.0127996,0.038673166,-2.0870526,-0.21371083,1.8607638,0.91850823,0.03999732,0.03999715,-6.742776,-1.2303897142410278,7.054373,0.046082295,-0.48906517028808594,-0.046213336
1882.7833333319497,0.093551666,-1.0150992,0.039061543,-2.0843422,-0.21586005,1.8636776,0.9198405,0.039997246,0.039997075,-6.682288,-1.2305481433868408,7.1107626,0.046552368,-0.48890769481658936,-0.04547686
1882.7999999986164,0.09448079,-1.0173976,0.039449748,-2.0816336,-0.21800838,1.8665905,0.92117226,0.039997187,0.039997015,-6.621245,-1.2302117347717285,7.1663094,0.047017578,-0.48869019746780396,-0.044740546
1882.816666665283,0.09540936,-1.0196953,0.03983773,-2.0789256,-0.22015548,1.8695018,0.92250335,0.039997112,0.039996944,-6.55992,-1.2298967838287354,7.2216797,0.04747792,-0.4884117543697357,-0.04400504
1882.8333333319497,0.09633733,-1.0219911,0.04022544,-2.0762193,-0.22230108,1.872411,0.9238334,0.039997052,0.039996885,-6.4978886,-1.2290433645248413,7.276168,0.047930367,-0.48806655406951904,-0.04327034
1882.8499999986163,0.09726451,-1.0242852,0.04061283,-2.073515,-0.22444494,1.8753178,0.9251625,0.039996993,0.03999682,-6.435639,-1.2280995845794678,7.330278,0.048377264,-0.4876598119735718,-0.042535435
1882.866666665283,0.098190844,-1.0265775,0.040999856,-2.0708132,-0.22658686,1.8782221,0.92649025,0.039996937,0.03999677,-6.373008,-1.227050542831421,7.3840604,0.04881705,-0.48719221353530884,-0.041803822
1882.8833333319496,0.09911618,-1.0288674,0.041386478,-2.068114,-0.22872654,1.8811233,0.9278167,0.039996862,0.039996695,-6.309959,-1.2255157232284546,7.436928,0.049250495,-0.4866611659526825,-0.041073613
1882.8999999986163,0.100040406,-1.0311544,0.04177264,-2.065418,-0.23086365,1.8840209,0.9291415,0.039996814,0.039996646,-6.246549,-1.2239933013916016,7.4895635,0.049676698,-0.48606806993484497,-0.04034534
1882.916666665283,0.100963436,-1.0334387,0.042158276,-2.0627255,-0.23299797,1.8869148,0.9304647,0.03999675,0.039996583,-6.1828537,-1.2220007181167603,7.5412827,0.05009546,-0.48541516065597534,-0.03962066
1882.9333333319496,0.10188514,-1.0357199,0.042543355,-2.0600374,-0.23512927,1.8898046,0.93178594,0.0399967,0.03999653,-6.1187725,-1.220015525817871,7.592782,0.050506428,-0.4847009778022766,-0.03889816
1882.9499999986162,0.10280542,-1.0379976,0.042927828,-2.057353,-0.23725723,1.8926898,0.93310523,0.039996646,0.03999648,-6.054487,-1.2175835371017456,7.643365,0.050910253,-0.4839284420013428,-0.038178463
1882.966666665283,0.10372415,-1.0402715,0.043311644,-2.054673,-0.2393816,1.89557,0.93442225,0.03999659,0.039996423,-5.9897513,-1.2151525020599365,7.693657,0.05130579,-0.4830954372882843,-0.037462994
1882.9833333319496,0.10464122,-1.042541,0.043694757,-2.0519974,-0.2415022,1.8984454,0.9357368,0.03999655,0.039996378,-5.9247813,-1.2122503519058228,7.7429996,0.05169255,-0.48220017552375793,-0.03675014
1882.9999999986162,0.105556495,-1.0448066,0.044077154,-2.0493274,-0.24361871,1.9013149,0.9370487,0.039996494,0.039996322,-5.859512,-1.209388017654419,7.7920346,0.05207183,-0.4812452793121338,-0.036042523
1883.0166666652829,0.106469885,-1.0470673,0.04445875,-2.0466628,-0.24573088,1.9041787,0.93835807,0.03999644,0.03999627,-5.7940454,-1.2060794830322266,7.840207,0.052442424,-0.48023077845573425,-0.035340164
1883.0333333319495,0.1073813,-1.0493232,0.044839516,-2.0440035,-0.24783845,1.9070362,0.9396644,0.039996393,0.03999622,-5.7282696,-1.202770471572876,7.8880115,0.052803393,-0.4791567921638489,-0.034641575
1883.0499999986162,0.10829061,-1.051574,0.0452194,-2.0413504,-0.2499412,1.909887,0.9409678,0.039996337,0.039996166,-5.6623197,-1.1990362405776978,7.9348707,0.05315581,-0.47802284359931946,-0.033947583
1883.0666666652828,0.10919771,-1.0538197,0.045598347,-2.0387034,-0.25203878,1.912731,0.9422683,0.039996296,0.03999612,-5.5960054,-1.1953086853027344,7.981428,0.053498674,-0.47682875394821167,-0.03325782
1883.0833333319495,0.11010251,-1.0560594,0.045976326,-2.0360632,-0.2541311,1.915568,0.94356525,0.03999625,0.039996073,-5.529643,-1.1911602020263672,8.027024,0.05382959,-0.47557270526885986,-0.03257421
1883.099999998616,0.11100487,-1.058293,0.046353284,-2.0334303,-0.2562178,1.9183972,0.94485873,0.039996207,0.039996028,-5.463106,-1.1869475841522217,8.072136,0.054152094,-0.474259614944458,-0.03189676
1883.1166666652828,0.111904636,-1.0605205,0.046729177,-2.0308044,-0.25829858,1.9212184,0.9461485,0.039996166,0.03999599,-5.396254,-1.1826374530792236,8.116735,0.05446484,-0.4728899300098419,-0.031227373
1883.1333333319494,0.11280179,-1.062742,0.04710396,-2.028186,-0.2603732,1.9240314,0.94743454,0.039996125,0.03999595,-5.3294315,-1.1779004335403442,8.16038,0.05476645,-0.47146010398864746,-0.030562002
1883.149999998616,0.11369617,-1.0649565,0.047477588,-2.025576,-0.26244152,1.9268357,0.9487167,0.03999608,0.0399959,-5.262138,-1.1731619834899902,8.203674,0.055057015,-0.46996960043907166,-0.029902082
1883.1666666652827,0.11458769,-1.0671637,0.04785001,-2.0229745,-0.26450318,1.9296309,0.9499947,0.039996043,0.03999586,-5.195201,-1.1681020259857178,8.246023,0.05533687,-0.4684244394302368,-0.029248532
1883.1833333319494,0.115476236,-1.0693636,0.048221175,-2.0203815,-0.26655805,1.9324168,0.9512685,0.039996002,0.03999582,-5.127809,-1.163034200668335,8.287961,0.05560654,-0.46682456135749817,-0.028602498
1883.199999998616,0.11636171,-1.0715562,0.048591062,-2.0177977,-0.2686057,1.9351932,0.9525378,0.03999597,0.039995786,-5.0606065,-1.157598614692688,8.328956,0.05586446,-0.46516698598861694,-0.027963435
1883.2166666652827,0.117244,-1.0737412,0.048959594,-2.0152228,-0.2706461,1.9379596,0.9538025,0.039995935,0.03999575,-4.99297,-1.1521576642990112,8.369572,0.056111492,-0.4634532928466797,-0.027330391
1883.2333333319493,0.118123,-1.0759177,0.049326763,-2.0126576,-0.27267888,1.9407154,0.95506257,0.039995905,0.03999572,-4.925597,-1.1463711261749268,8.409224,0.056346226,-0.4616813659667969,-0.02670573
1883.249999998616,0.11899861,-1.078086,0.049692508,-2.010102,-0.2747038,1.943461,0.95631784,0.03999587,0.039995685,-4.8579054,-1.1406219005584717,8.448478,0.05656975,-0.45985692739486694,-0.026089294
1883.2666666652826,0.119870715,-1.0802455,0.05005678,-2.0075564,-0.27672064,1.9461954,0.9575679,0.03999585,0.039995663,-4.7904944,-1.1345075368881226,8.486763,0.056780342,-0.457974374294281,-0.025478428
1883.2833333319493,0.12073921,-1.0823966,0.050419554,-2.0050216,-0.27872926,1.9489185,0.9588129,0.039995823,0.039995637,-4.7226806,-1.1284244060516357,8.524639,0.056980047,-0.45603814721107483,-0.024876326
1883.299999998616,0.121603996,-1.0845381,0.050780777,-2.0024967,-0.28072923,1.9516298,0.9600527,0.039995804,0.039995614,-4.6552796,-1.1220136880874634,8.561634,0.057166282,-0.45404598116874695,-0.024281602
1883.3166666652826,0.12246497,-1.0866709,0.0511404,-1.9999833,-0.28272042,1.9543291,0.96128696,0.039995782,0.039995592,-4.5874653,-1.1156141757965088,8.598101,0.05733952,-0.45200034976005554,-0.023694953
1883.3333333319492,0.12332205,-1.088794,0.0514984,-1.9974816,-0.28470263,1.9570165,0.96251565,0.039995763,0.039995573,-4.5201306,-1.1089192628860474,8.633756,0.05750054,-0.4499000310897827,-0.023116414
1883.3499999986159,0.12417511,-1.090907,0.051854715,-1.9949917,-0.28667563,1.9596913,0.9637386,0.03999573,0.039995536,-4.452701,-1.102179765701294,8.668814,0.057648838,-0.44774776697158813,-0.022544883
1883.3666666652825,0.12502407,-1.09301,0.052209307,-1.9925131,-0.2886392,1.9623531,0.9649556,0.039995708,0.039995518,-4.3850584,-1.0953835248947144,8.703295,0.05778486,-0.44554415345191956,-0.02198352
1883.3833333319492,0.12586881,-1.0951024,0.052562132,-1.9900469,-0.2905929,1.965002,0.96616656,0.039995685,0.03999549,-4.3179374,-1.0882775783538818,8.736849,0.057907682,-0.4432869255542755,-0.021427749
1883.3999999986158,0.12670924,-1.0971844,0.052913155,-1.9875933,-0.29253668,1.9676372,0.96737134,0.039995674,0.03999548,-4.2504067,-1.0812162160873413,8.769975,0.05801754,-0.44097766280174255,-0.020882629
1883.4166666652825,0.1275453,-1.0992557,0.053262338,-1.9851525,-0.29447034,1.9702585,0.9685699,0.03999566,0.03999547,-4.1835995,-1.0739023685455322,8.802228,0.05811373,-0.43861863017082214,-0.020346815
1883.4333333319491,0.12837684,-1.101316,0.05360964,-1.9827245,-0.2963936,1.9728657,0.969762,0.039995648,0.039995458,-4.11629,-1.0665738582611084,8.834002,0.058196694,-0.4362088441848755,-0.01981801
1883.4499999986158,0.12920378,-1.1033651,0.05395501,-1.9803098,-0.29830635,1.9754589,0.97094744,0.03999564,0.039995447,-4.049701,-1.0590224266052246,8.864905,0.058265563,-0.4337475597858429,-0.019296825
1883.4666666652824,0.130026,-1.1054024,0.054298427,-1.9779088,-0.3002083,1.9780374,0.97212625,0.03999563,0.039995436,-3.9826221,-1.051466703414917,8.895335,0.058321055,-0.43123435974121094,-0.018785225
1883.483333331949,0.13084348,-1.1074278,0.054639842,-1.975522,-0.30209917,1.9806007,0.9732983,0.03999563,0.039995432,-3.9165037,-1.0437513589859009,8.924913,0.05836334,-0.4286739230155945,-0.018281126
1883.4999999986157,0.13165607,-1.1094414,0.05497921,-1.9731492,-0.30397868,1.9831486,0.9744632,0.039995622,0.039995424,-3.849837,-1.036007046699524,8.95403,0.058391303,-0.42606696486473083,-0.01778667
1883.5166666652824,0.13246371,-1.1114424,0.0553165,-1.9707907,-0.30584687,1.9856808,0.97562104,0.039995614,0.039995417,-3.7840593,-1.0280770063400269,8.982313,0.058405902,-0.4234126806259155,-0.01730131
1883.533333331949,0.13326629,-1.1134313,0.055651695,-1.9684471,-0.3077033,1.9881973,0.9767716,0.03999561,0.039995413,-3.7178109,-1.0201523303985596,9.010086,0.05840752,-0.42071256041526794,-0.016824137
1883.5499999986157,0.1340637,-1.1154075,0.05598473,-1.9661186,-0.30954787,1.9906981,0.97791487,0.039995622,0.03999542,-3.6524956,-1.0120658874511719,9.037086,0.058394663,-0.4179644286632538,-0.016355151
1883.5666666652824,0.13485591,-1.1173706,0.056315567,-1.9638051,-0.3113804,1.9931821,0.9790506,0.039995633,0.039995432,-3.5866737,-1.003968358039856,9.063563,0.05836806,-0.4151693880558014,-0.015896076
1883.583333331949,0.1356428,-1.119321,0.056644183,-1.9615073,-0.31320062,1.9956495,0.98017865,0.03999564,0.03999544,-3.521912,-0.9957304000854492,9.089287,0.058327485,-0.4123307764530182,-0.015445246
1883.5999999986157,0.1364243,-1.121258,0.056970537,-1.9592248,-0.31500828,1.9980998,0.9812989,0.03999565,0.03999545,-3.4569921,-0.9874569773674011,9.114453,0.05827289,-0.40944555401802063,-0.015003674
1883.6166666652823,0.13720031,-1.1231811,0.057294577,-1.9569585,-0.31680334,2.0005329,0.9824113,0.03999567,0.03999547,-3.39193,-0.9791210293769836,9.139007,0.05820384,-0.40651610493659973,-0.0145711545
1883.633333331949,0.13797073,-1.1250906,0.0576163,-1.9547086,-0.3185855,2.0029483,0.9835157,0.03999569,0.039995488,-3.3281312,-0.9707303643226624,9.16285,0.0581217,-0.4035453200340271,-0.014147006
1883.6499999986156,0.13873546,-1.1269864,0.05793566,-1.9524752,-0.32035455,2.005346,0.984612,0.039995704,0.039995503,-3.2637272,-0.9622974991798401,9.186185,0.058026094,-0.4005325734615326,-0.013731423
1883.6666666652823,0.13949451,-1.128868,0.05825261,-1.9502583,-0.3221104,2.0077262,0.98570013,0.03999572,0.039995518,-3.2004848,-0.9537638425827026,9.208842,0.057915583,-0.39747726917266846,-0.013323158
1883.683333331949,0.14024776,-1.1307352,0.05856713,-1.9480582,-0.32385287,2.0100882,0.98677987,0.03999574,0.03999554,-3.1366801,-0.9452226758003235,9.230921,0.05779054,-0.3943779766559601,-0.012925349
1883.6999999986156,0.14099504,-1.1325878,0.058879178,-1.9458754,-0.32558167,2.0124311,0.9878512,0.039995763,0.039995562,-3.0741944,-0.9366372227668762,9.252356,0.057652377,-0.3912373185157776,-0.012536249
1883.7166666652822,0.14173631,-1.1344258,0.059188724,-1.9437096,-0.32729658,2.0147555,0.98891383,0.039995793,0.039995592,-3.0111544,-0.9280022382736206,9.273269,0.05749966,-0.38805845379829407,-0.012154926
1883.7333333319489,0.14247157,-1.1362487,0.059495725,-1.9415619,-0.3289976,2.017061,0.9899678,0.03999582,0.03999562,-2.949368,-0.9193376302719116,9.293526,0.057332717,-0.3848387897014618,-0.011782791
1883.7499999986155,0.14320068,-1.1380562,0.059800178,-1.9394323,-0.33068442,2.0193472,0.99101305,0.03999586,0.03999566,-2.8871398,-0.9106619358062744,9.313288,0.05715325,-0.38158169388771057,-0.011419852
1883.7666666652822,0.14392358,-1.1398484,0.060102023,-1.9373206,-0.332357,2.0216138,0.9920493,0.039995894,0.039995693,-2.8263264,-0.9019899964332581,9.332429,0.056960206,-0.3782912790775299,-0.011064036
1883.7833333319488,0.1446402,-1.1416254,0.060401253,-1.9352272,-0.3340151,2.0238605,0.99307674,0.039995927,0.03999573,-2.7648258,-0.8932434916496277,9.351017,0.05675399,-0.3749612271785736,-0.010716656
1883.7999999986155,0.14535047,-1.1433865,0.06069783,-1.9331524,-0.3356583,2.0260875,0.994095,0.039995965,0.039995767,-2.704716,-0.8844972848892212,9.369058,0.056532342,-0.3715951144695282,-0.010376816
1883.8166666652821,0.14605431,-1.1451316,0.06099172,-1.9310962,-0.3372868,2.028295,0.9951042,0.039996002,0.039995804,-2.6442108,-0.8757583498954773,9.386558,0.056298546,-0.36819517612457275,-0.010046213
1883.8333333319488,0.14675164,-1.146861,0.0612829,-1.9290587,-0.3389004,2.0304816,0.99610394,0.039996035,0.039995838,-2.5850248,-0.867011547088623,9.403473,0.056049734,-0.3647565245628357,-0.00972402
1883.8499999986154,0.14744243,-1.1485738,0.061571326,-1.9270401,-0.34049883,2.0326476,0.9970942,0.03999608,0.039995883,-2.5257878,-0.8582335710525513,9.419913,0.055788625,-0.361285001039505,-0.009408977
1883.866666665282,0.14812662,-1.1502708,0.061856993,-1.9250412,-0.34208176,2.0347931,0.998075,0.039996117,0.039995924,-2.4666107,-0.8494709730148315,9.435779,0.05551469,-0.35778144001960754,-0.009103015
1883.8833333319487,0.14880407,-1.151951,0.06213986,-1.9230616,-0.34364945,2.0369174,0.9990462,0.03999616,0.03999596,-2.4088297,-0.8407269716262817,9.45122,0.055226386,-0.3542420268058777,-0.008804085
1883.8999999986154,0.14947475,-1.153614,0.062419903,-1.9211017,-0.34520146,2.0390208,1.0000077,0.039996203,0.039996006,-2.3506536,-0.831967830657959,9.466068,0.054926038,-0.35067465901374817,-0.008512481
1883.916666665282,0.15013865,-1.1552608,0.062697105,-1.9191616,-0.34673762,2.0411026,1.0009599,0.039996248,0.039996054,-2.2940142,-0.8233029842376709,9.4804535,0.054613147,-0.34707629680633545,-0.008230503
1883.9333333319487,0.1507957,-1.1568903,0.06297141,-1.9172419,-0.348258,2.0431628,1.0019017,0.039996285,0.03999609,-2.2366676,-0.814520537853241,9.49435,0.054284923,-0.3434462249279022,-0.0079552345
1883.9499999986153,0.15144579,-1.1585023,0.06324284,-1.9153422,-0.3497624,2.0452013,1.0028336,0.039996322,0.03999613,-2.1811652,-0.8059070110321045,9.507831,0.053946845,-0.3397913873195648,-0.007687175
1883.966666665282,0.15208888,-1.1600976,0.06351135,-1.9134629,-0.3512505,2.0472183,1.0037555,0.039996367,0.039996177,-2.1249866,-0.797218382358551,9.520719,0.05359687,-0.3361077606678009,-0.007427522
1883.9833333319486,0.15272489,-1.1616757,0.06377691,-1.9116042,-0.3527225,2.0492125,1.0046673,0.0399964,0.03999621,-2.0703654,-0.7886109352111816,9.533258,0.053233683,-0.33239299058914185,-0.0071750497
1883.9999999986153,0.15335383,-1.163236,0.06403953,-1.909766,-0.35417795,2.0511847,1.0055689,0.039996445,0.039996255,-2.0152361,-0.7799445986747742,9.545287,0.052858043,-0.32865455746650696,-0.006927949
1884.016666665282,0.15397568,-1.1647782,0.06429913,-1.9079486,-0.35561696,2.0531344,1.0064603,0.039996497,0.039996304,-1.9618447,-0.7714595794677734,9.556912,0.05247088,-0.3248886466026306,-0.006689435
1884.0333333319486,0.15459023,-1.166303,0.06455573,-1.9061522,-0.35703927,2.0550616,1.0073413,0.039996557,0.039996367,-1.9079381,-0.7629156112670898,9.568014,0.052072074,-0.3211003839969635,-0.0064589884
1884.0499999986152,0.15519758,-1.1678102,0.064809315,-1.9043771,-0.3584448,2.056966,1.0082117,0.03999661,0.039996415,-1.8556292,-0.7544584274291992,9.578851,0.051661436,-0.317287802696228,-0.006232361
1884.066666665282,0.1557976,-1.1692995,0.06505983,-1.9026234,-0.35983348,2.0588477,1.0090722,0.039996672,0.039996482,-1.8027314,-0.7459721565246582,9.589114,0.051239677,-0.3134492039680481,-0.0060156784
1884.0833333319486,0.15639034,-1.1707703,0.06530728,-1.9008911,-0.3612053,2.060706,1.0099218,0.039996732,0.039996542,-1.7516749,-0.7376499772071838,9.599126,0.05080457,-0.30958884954452515,-0.0058041587
1884.0999999986152,0.15697566,-1.1722226,0.06555164,-1.89918,-0.36256003,2.0625412,1.0107608,0.0399968,0.039996613,-1.7006707,-0.7293419241905212,9.608665,0.050360445,-0.3057103753089905,-0.0055997744
1884.1166666652819,0.15755354,-1.1736565,0.06579287,-1.8974909,-0.36389744,2.0643532,1.0115893,0.039996874,0.03999669,-1.649677,-0.7210156321525574,9.617721,0.049905896,-0.3018110990524292,-0.0054009464
1884.1333333319485,0.15812394,-1.1750717,0.066031024,-1.8958237,-0.3652177,2.0661418,1.0124072,0.039996926,0.039996743,-1.6004586,-0.7128810286521912,9.626582,0.049439434,-0.297893226146698,-0.0052091097
1884.1499999986152,0.15868689,-1.1764685,0.06626601,-1.8941783,-0.36652058,2.067907,1.013214,0.039996974,0.039996795,-1.5507251,-0.7046854496002197,9.634923,0.04896338,-0.2939591407775879,-0.0050238967
1884.1666666652818,0.15924224,-1.1778469,0.06649787,-1.892555,-0.367806,2.0696487,1.0140098,0.03999702,0.03999684,-1.5026993,-0.6966733932495117,9.643036,0.048478156,-0.29000410437583923,-0.0048446464
1884.1833333319485,0.15979002,-1.1792061,0.06672655,-1.8909538,-0.36907393,2.0713663,1.014795,0.039997075,0.039996896,-1.4541291,-0.6885848641395569,9.650667,0.04798282,-0.286033034324646,-0.004671213
1884.199999998615,0.16033019,-1.1805464,0.06695205,-1.8893747,-0.37032422,2.07306,1.0155691,0.039997138,0.03999696,-1.4075086,-0.6807500123977661,9.658136,0.04747864,-0.28204968571662903,-0.0045029423
1884.2166666652818,0.16086271,-1.181868,0.06717436,-1.8878181,-0.37155682,2.0747302,1.0163329,0.03999719,0.039997015,-1.3602762,-0.6728253364562988,9.665058,0.046965003,-0.2780519127845764,-0.0043420284
1884.2333333319484,0.1613875,-1.1831707,0.067393474,-1.8862838,-0.37277168,2.076376,1.0170852,0.039997254,0.039997075,-1.3148253,-0.6650943756103516,9.671887,0.046439078,-0.2740378975868225,-0.0041845855
1884.249999998615,0.16190462,-1.1844544,0.067609355,-1.8847722,-0.37396878,2.0779972,1.0178266,0.03999731,0.039997134,-1.2688572,-0.6573102474212646,9.678182,0.045906473,-0.27001190185546875,-0.0040346966
1884.2666666652817,0.16241403,-1.1857189,0.06782201,-1.883283,-0.3751479,2.0795941,1.0185568,0.039997388,0.039997216,-1.2248195,-0.6497712135314941,9.684433,0.04536484,-0.26597732305526733,-0.0038884033
1884.2833333319484,0.16291563,-1.186964,0.06803143,-1.8818164,-0.3763091,2.0811672,1.019276,0.03999744,0.03999727,-1.1801834,-0.6421507000923157,9.690125,0.044814374,-0.26193350553512573,-0.003749088
1884.299999998615,0.1634095,-1.18819,0.06823762,-1.8803728,-0.37745252,2.082716,1.0199842,0.039997496,0.039997324,-1.1374775,-0.6347902417182922,9.695761,0.044256654,-0.2578780949115753,-0.003612673
1884.3166666652817,0.16389556,-1.1893969,0.06844055,-1.878951,-0.37857774,2.0842402,1.0206813,0.039997548,0.039997377,-1.0941852,-0.6273462772369385,9.70092,0.043690287,-0.25381457805633545,-0.0034822267
1884.3333333319483,0.16437386,-1.1905843,0.06864022,-1.8775523,-0.37968495,2.085741,1.0213668,0.039997607,0.03999744,-1.052656,-0.6201319694519043,9.705983,0.04311459,-0.24973993003368378,-0.0033585413
1884.349999998615,0.16484432,-1.1917524,0.068836585,-1.8761766,-0.38077414,2.0872157,1.0220414,0.039997667,0.0399975,-1.0113516,-0.6129734516143799,9.710717,0.042533644,-0.24565614759922028,-0.0032395301
1884.3666666652816,0.16530693,-1.192901,0.0690297,-1.8748239,-0.38184506,2.088666,1.0227045,0.039997723,0.03999756,-0.97012615,-0.6057736873626709,9.715138,0.041944858,-0.24157530069351196,-0.0031239062
1884.3833333319483,0.16576166,-1.1940302,0.06921953,-1.8734941,-0.38289788,2.0900924,1.0233562,0.039997794,0.03999763,-0.9308287,-0.598909854888916,9.719513,0.041350864,-0.237489253282547,-0.003012998
1884.399999998615,0.16620852,-1.1951396,0.06940609,-1.8721874,-0.38393253,2.0914936,1.0239968,0.039997846,0.039997682,-0.8908979,-0.5919211506843567,9.72339,0.04075085,-0.23339708149433136,-0.0029058112
1884.4166666652816,0.16664758,-1.1962299,0.06958938,-1.8709035,-0.3849489,2.0928707,1.0246263,0.039997905,0.039997745,-0.853021,-0.5852560997009277,9.727357,0.04014422,-0.22930854558944702,-0.0028040574
1884.4333333319482,0.1670787,-1.1973004,0.06976937,-1.8696431,-0.38594714,2.0942228,1.0252445,0.039997946,0.039997783,-0.8144259,-0.5784414410591125,9.730779,0.039531536,-0.22521372139453888,-0.0027057726
1884.4499999986149,0.16750199,-1.1983517,0.069946066,-1.8684055,-0.3869272,2.09555,1.0258515,0.03999801,0.039997846,-0.7779663,-0.5720123648643494,9.734351,0.03891362,-0.2211240530014038,-0.0026120811
1884.4666666652815,0.16791739,-1.1993833,0.07011946,-1.8671905,-0.3878889,2.0968528,1.026447,0.039998062,0.039997898,-0.74075687,-0.5653943419456482,9.737386,0.03828938,-0.21703360974788666,-0.0025221058
1884.4833333319482,0.16832493,-1.2003952,0.070289575,-1.8659986,-0.38883245,2.0981305,1.0270311,0.03999812,0.03999796,-0.7055983,-0.5591423511505127,9.740504,0.03766037,-0.212945818901062,-0.0024366959
1884.4999999986148,0.16872454,-1.201388,0.07045641,-1.8648297,-0.38975778,2.0993834,1.0276039,0.039998177,0.039998017,-0.66990143,-0.5527795553207397,9.743198,0.037029255,-0.20886386930942535,-0.002353543
1884.5166666652815,0.16911636,-1.202361,0.07061996,-1.8636839,-0.39066496,2.100612,1.0281656,0.039998252,0.03999809,-0.6360468,-0.5467244982719421,9.7459955,0.03639249,-0.20478555560112,-0.002274723
1884.5333333319481,0.16950037,-1.2033145,0.07078024,-1.862561,-0.3915539,2.1018157,1.0287162,0.039998308,0.03999814,-0.60180175,-0.5405945181846619,9.748337,0.03575235,-0.20071470737457275,-0.0021976582
1884.5499999986148,0.16987644,-1.2042487,0.07093723,-1.8614608,-0.39242488,2.1029952,1.0292554,0.039998364,0.039998196,-0.5694152,-0.5347890257835388,9.75081,0.035106964,-0.19665104150772095,-0.0021268767
1884.5666666652814,0.1702447,-1.2051638,0.07109094,-1.8603836,-0.39327756,2.1041498,1.0297836,0.03999842,0.039998244,-0.5364209,-0.5288307666778564,9.752807,0.034459814,-0.19259272515773773,-0.0020562862
1884.583333331948,0.17060512,-1.2060591,0.07124141,-1.8593293,-0.39411226,2.1052804,1.0303006,0.039998475,0.039998304,-0.5053947,-0.5232358574867249,9.755023,0.033807166,-0.1885450929403305,-0.0019925667
1884.5999999986147,0.17095773,-1.2069348,0.07138863,-1.858298,-0.39492887,2.1063862,1.0308063,0.039998546,0.039998367,-0.47455227,-0.5176767706871033,9.756913,0.033153344,-0.18450826406478882,-0.0019289142
1884.6166666652814,0.17130259,-1.2077917,0.07153261,-1.8572894,-0.39572743,2.1074674,1.0313008,0.0399986,0.039998412,-0.4437542,-0.5121045112609863,9.75852,0.032498695,-0.1804855316877365,-0.0018695844
1884.633333331948,0.17163968,-1.2086293,0.07167332,-1.8563036,-0.3965081,2.1085246,1.031784,0.03999866,0.039998475,-0.41483516,-0.5068662166595459,9.7603655,0.031841833,-0.17647685110569,-0.0018130448
1884.6499999986147,0.17196906,-1.2094476,0.07181081,-1.8553402,-0.3972709,2.1095574,1.0322562,0.039998718,0.03999853,-0.38537842,-0.5015122294425964,9.761709,0.031183928,-0.17248152196407318,-0.0017616863
1884.6666666652814,0.17229068,-1.2102469,0.07194508,-1.8543991,-0.39801574,2.1105664,1.0327175,0.03999878,0.03999859,-0.3578844,-0.49652189016342163,9.763302,0.030525044,-0.1685027778148651,-0.0017120952
1884.683333331948,0.17260468,-1.2110269,0.07207614,-1.8534806,-0.39874294,2.111551,1.0331675,0.039998844,0.039998654,-0.3297305,-0.49137070775032043,9.764413,0.029863855,-0.16453753411769867,-0.0016657258
1884.6999999986147,0.17291105,-1.2117884,0.07220405,-1.8525844,-0.39945242,2.112512,1.0336069,0.03999892,0.039998725,-0.3037135,-0.48666006326675415,9.765827,0.029204203,-0.16059482097625732,-0.0016239493
1884.7166666652813,0.17320977,-1.212531,0.07232876,-1.8517103,-0.40014437,2.1134489,1.0340354,0.03999899,0.0399988,-0.2769094,-0.48175352811813354,9.766776,0.02854232,-0.15666711330413818,-0.0015880655
1884.733333331948,0.17350093,-1.2132548,0.072450325,-1.8508586,-0.4008188,2.1143615,1.0344527,0.03999905,0.039998874,-0.252178,-0.47724246978759766,9.768017,0.027880764,-0.15276473760604858,-0.0015568881
1884.7499999986146,0.17378454,-1.2139598,0.07256874,-1.8500286,-0.4014758,2.115251,1.0348594,0.039999116,0.03999896,-0.22689444,-0.47261321544647217,9.768815,0.027222112,-0.1488867998123169,-0.0015314919
1884.7666666652813,0.17406067,-1.2146463,0.072684035,-1.8492206,-0.40211552,2.116117,1.0352554,0.039999183,0.039999064,-0.20342913,-0.46835747361183167,9.769847,0.026562646,-0.14502939581871033,-0.0015165018
1884.783333331948,0.17432937,-1.2153145,0.07279621,-1.8484342,-0.402738,2.1169596,1.0356406,0.039999258,0.039999202,-0.17947778,-0.4639732241630554,9.770521,0.025904944,-0.14119994640350342,-0.0015123308
1884.7999999986146,0.1745907,-1.2159643,0.072905295,-1.8476694,-0.40334335,2.117779,1.0360154,0.039999325,0.039999362,-0.15738335,-0.45996367931365967,9.771435,0.025248911,-0.13739705085754395,-0.0015225026
1884.8166666652812,0.17484468,-1.2165956,0.07301134,-1.8469261,-0.40393162,2.1185758,1.0363793,0.03999939,0.03999955,-0.13474263,-0.4557980000972748,9.771957,0.024593562,-0.13362222909927368,-0.0015410956
1884.8333333319479,0.17509139,-1.2172087,0.07311435,-1.8462042,-0.40450302,2.1193495,1.0367329,0.03999943,0.039999735,-0.11403578,-0.45201337337493896,9.772779,0.02394252,-0.12987612187862396,-0.0015623188
1884.8499999986145,0.17533083,-1.217804,0.07321431,-1.8455034,-0.40505767,2.1201,1.0370762,0.03999947,0.039999913,-0.093425594,-0.4481830298900604,9.773378,0.023294512,-0.12616097927093506,-0.0015733003
1884.8666666652812,0.17556313,-1.2183813,0.07331131,-1.8448236,-0.40559566,2.1208286,1.0374092,0.03999948,0.04,-0.072798826,-0.44424694776535034,9.77375,0.022648364,-0.12247322499752045,-0.001554682
1884.8833333319478,0.17578831,-1.2189412,0.0734053,-1.8441647,-0.40611714,2.1215348,1.0377319,0.039999492,0.04,-0.053997457,-0.4407864809036255,9.77442,0.022006858,-0.1188153326511383,-0.0015300133
1884.8999999986145,0.17600647,-1.2194836,0.07349636,-1.8435261,-0.40662226,2.1222188,1.0380446,0.039999492,0.04,-0.0346703,-0.43719959259033203,9.774717,0.021368384,-0.11519154906272888,-0.0015092215
1884.9166666652811,0.1762176,-1.2200089,0.07358451,-1.8429081,-0.40711117,2.122881,1.0383472,0.03999949,0.04,-0.017105848,-0.4339745044708252,9.775318,0.02073358,-0.11160241812467575,-0.0014899896
1884.9333333319478,0.1764218,-1.2205168,0.07366978,-1.8423105,-0.40758413,2.123521,1.03864,0.03999949,0.04,0.00091493875,-0.430635005235672,9.77556,0.02010378,-0.10805017501115799,-0.0014733764
1884.9499999986144,0.1766192,-1.221008,0.073752195,-1.8417329,-0.4080413,2.12414,1.038923,0.039999492,0.04,0.017163418,-0.42764854431152344,9.776139,0.019478817,-0.1045389473438263,-0.0014562552
1884.966666665281,0.1768098,-1.2214823,0.07383178,-1.8411747,-0.40848282,2.1247375,1.0391963,0.03999949,0.04,0.03396336,-0.4245336055755615,9.776305,0.018858783,-0.10106518864631653,-0.0014429047
1884.9833333319477,0.1769937,-1.2219399,0.073908575,-1.8406363,-0.40890878,2.1253145,1.0394597,0.03999949,0.04,0.049037486,-0.421750545501709,9.776811,0.018244626,-0.09763248264789581,-0.001426955
1884.9999999986144,0.177171,-1.2223812,0.07398262,-1.840117,-0.40931946,2.125871,1.039714,0.039999492,0.04,0.064545326,-0.4188768267631531,9.776965,0.017637672,-0.09424159675836563,-0.0014128662
1885.016666665281,0.1773418,-1.222806,0.074053966,-1.8396169,-0.4097151,2.126407,1.0399585,0.039999492,0.04,0.07844103,-0.41634610295295715,9.777424,0.017035382,-0.0908927246928215,-0.0014027111
1885.0333333319477,0.17750618,-1.2232149,0.0741226,-1.8391356,-0.41009575,2.1269221,1.0401942,0.039999492,0.04,0.09268419,-0.4137233793735504,9.777567,0.016442394,-0.08759178966283798,-0.0013932879
1885.0499999986143,0.17766418,-1.223608,0.074188575,-1.838673,-0.41046178,2.127418,1.0404208,0.039999492,0.04,0.10535473,-0.41139718890190125,9.778047,0.015854986,-0.08434057235717773,-0.0013844232
1885.066666665281,0.17781594,-1.2239858,0.07425195,-1.8382285,-0.4108133,2.127894,1.0406382,0.03999949,0.04,0.11852656,-0.40894895792007446,9.778155,0.0152741745,-0.08113528043031693,-0.0013766511
1885.0833333319476,0.17796156,-1.2243481,0.07431275,-1.8378019,-0.41115066,2.1283505,1.0408471,0.039999485,0.04,0.13009457,-0.40684518218040466,9.7786,0.01470263,-0.07797986268997192,-0.0013696047
1885.0999999986143,0.17810112,-1.2246954,0.074371025,-1.8373933,-0.4114739,2.1287885,1.041047,0.039999485,0.04,0.1415662,-0.4047362804412842,9.778885,0.014137918,-0.07487685978412628,-0.0013629629
1885.116666665281,0.1782347,-1.225028,0.07442679,-1.8370022,-0.4117835,2.1292071,1.0412384,0.039999485,0.04,0.15299536,-0.40262719988822937,9.779003,0.01358306,-0.07182502746582031,-0.0013581242
1885.1333333319476,0.17836244,-1.2253462,0.07448015,-1.8366277,-0.41207948,2.1296082,1.0414218,0.039999485,0.04,0.16287304,-0.400833398103714,9.779489,0.013037145,-0.06883212924003601,-0.001353053
1885.1499999986142,0.17848444,-1.2256498,0.07453109,-1.8362705,-0.41236207,2.1299908,1.0415969,0.039999485,0.04,0.17325525,-0.3989165127277374,9.779569,0.01249927,-0.06588926911354065,-0.0013480206
1885.166666665281,0.17860079,-1.2259394,0.07457971,-1.8359294,-0.4126316,2.1303558,1.0417638,0.039999485,0.04,0.18203405,-0.3973486125469208,9.780049,0.011970505,-0.06300738453865051,-0.0013449112
1885.1833333319476,0.17871164,-1.2262157,0.07462602,-1.8356044,-0.41288847,2.1307037,1.0419225,0.039999492,0.04,0.19130088,-0.395637184381485,9.780196,0.011453098,-0.060184575617313385,-0.0013409152
1885.1999999986142,0.17881706,-1.2264783,0.07467006,-1.8352953,-0.41313282,2.1310346,1.0420736,0.039999492,0.04,0.19923589,-0.3942149579524994,9.78065,0.010946452,-0.05741921812295914,-0.0013384082
1885.2166666652809,0.17891721,-1.2267283,0.0747119,-1.835002,-0.4133649,2.131349,1.042217,0.039999492,0.04,0.2074092,-0.3927232325077057,9.780838,0.010450207,-0.05471745505928993,-0.0013353409
1885.2333333319475,0.17901221,-1.2269648,0.07475158,-1.8347238,-0.4135851,2.1316473,1.042353,0.039999492,0.04,0.21433753,-0.39149388670921326,9.781343,0.009965496,-0.05207950621843338,-0.001333735
1885.2499999986142,0.17910218,-1.2271892,0.074789174,-1.8344603,-0.41379365,2.1319299,1.0424818,0.039999496,0.04,0.22143245,-0.39022523164749146,9.781569,0.009493664,-0.04950959235429764,-0.0013313197
1885.2666666652808,0.17918728,-1.2274015,0.07482472,-1.8342108,-0.41399086,2.1321971,1.042604,0.039999492,0.04,0.22743455,-0.3891799747943878,9.782062,0.009033908,-0.047005873173475266,-0.0013304668
1885.2833333319475,0.17926763,-1.2276013,0.074858285,-1.8339753,-0.414177,2.1324492,1.0427195,0.039999496,0.04,0.2338055,-0.3880181908607483,9.782284,0.008582571,-0.044567257165908813,-0.0013302063
1885.299999998614,0.17934331,-1.2277895,0.07488993,-1.8337536,-0.4143524,2.1326869,1.042828,0.039999492,0.04,0.23872693,-0.38718947768211365,9.782836,0.008144826,-0.04220470413565636,-0.0013301446
1885.3166666652808,0.17941453,-1.2279665,0.07491969,-1.8335446,-0.41451746,2.1329107,1.0429299,0.039999485,0.04,0.24407618,-0.38625550270080566,9.783118,0.0077218683,-0.03991372138261795,-0.0013317681
1885.3333333319474,0.17948139,-1.2281334,0.07494764,-1.8333483,-0.41467243,2.1331208,1.043026,0.039999485,0.04,0.2483608,-0.38552114367485046,9.78364,0.0073124543,-0.03769398853182793,-0.0013324224
1885.349999998614,0.17954408,-1.2282901,0.07497384,-1.8331646,-0.41481766,2.1333172,1.0431159,0.039999485,0.04,0.25267547,-0.38476377725601196,9.78409,0.0069138333,-0.03554723784327507,-0.00133297
1885.3666666652807,0.17960267,-1.2284362,0.07499834,-1.8329927,-0.4149536,2.1335013,1.0431998,0.03999948,0.04,0.25677058,-0.3840561807155609,9.7844715,0.00653009,-0.033479489386081696,-0.0013347797
1885.3833333319474,0.1796574,-1.2285727,0.07502121,-1.832832,-0.41508058,2.1336732,1.0432785,0.03999948,0.04,0.25977266,-0.383590966463089,9.785067,0.006162125,-0.031491898000240326,-0.0013351116
1885.399999998614,0.17970838,-1.2286998,0.07504253,-1.8326825,-0.41519883,2.1338334,1.0433515,0.03999948,0.04,0.2631492,-0.3830149471759796,9.78544,0.0058070733,-0.029582364484667778,-0.0013356351
1885.4166666652807,0.17975578,-1.2288183,0.07506234,-1.8325436,-0.4153088,2.133982,1.0434197,0.03999948,0.04,0.26545298,-0.38268759846687317,9.786078,0.005468696,-0.02775684744119644,-0.001336574
1885.4333333319473,0.17979981,-1.2289283,0.07508074,-1.8324143,-0.4154108,2.1341202,1.0434831,0.03999948,0.04,0.26810926,-0.3822372257709503,9.786539,0.005144186,-0.026015309616923332,-0.0013368682
1885.449999998614,0.17984058,-1.2290297,0.075097784,-1.8322946,-0.4155053,2.134248,1.0435417,0.03999948,0.04,0.2698673,-0.38200753927230835,9.787158,0.0048342654,-0.024357087910175323,-0.0013382696
1885.4666666652806,0.17987819,-1.2291234,0.07511354,-1.8321837,-0.41559267,2.134366,1.0435953,0.03999948,0.04,0.27169096,-0.3817499577999115,9.787655,0.004542669,-0.02278929576277733,-0.001339309
1885.4833333319473,0.17991291,-1.2292103,0.075128086,-1.8320814,-0.41567332,2.134475,1.043645,0.039999478,0.04,0.27283257,-0.3816395103931427,9.78832,0.0042693233,-0.021310370415449142,-0.0013410492
1885.499999998614,0.1799449,-1.2292905,0.07514151,-1.8319873,-0.4157476,2.1345756,1.0436908,0.039999478,0.04,0.27418905,-0.3814525008201599,9.78887,0.004010787,-0.01992146298289299,-0.0013414188
1885.5166666652806,0.17997438,-1.2293643,0.075153865,-1.8319006,-0.41581613,2.134668,1.043733,0.039999478,0.04,0.2748132,-0.3814479112625122,9.789568,0.003770332,-0.018623031675815582,-0.0013424362
1885.5333333319472,0.18000148,-1.2294321,0.075165235,-1.8318205,-0.4158792,2.1347532,1.0437717,0.03999948,0.04,0.27551582,-0.38139456510543823,9.790171,0.0035468782,-0.017421429976820946,-0.0013425911
1885.5499999986139,0.18002644,-1.2294943,0.07517571,-1.831747,-0.41593716,2.1348317,1.0438079,0.039999478,0.04,0.27572176,-0.3814544081687927,9.790859,0.0033411512,-0.01631246693432331,-0.0013429228
1885.5666666652805,0.18004942,-1.2295523,0.07518531,-1.8316796,-0.41599047,2.1349044,1.0438412,0.039999478,0.04,0.27610356,-0.38147732615470886,9.791437,0.0031502468,-0.015293672680854797,-0.0013436255
1885.5833333319472,0.18007053,-1.2296053,0.075194135,-1.8316175,-0.41603956,2.1349714,1.0438716,0.039999478,0.04,0.2763372,-0.3815041184425354,9.7920475,0.00297279,-0.014351258054375648,-0.0013448504
1885.5999999986138,0.18008995,-1.2296535,0.07520226,-1.83156,-0.41608474,2.1350317,1.0438998,0.039999478,0.04,0.2765426,-0.38154929876327515,9.792568,0.0028113755,-0.013484771363437176,-0.001345968
1885.6166666652805,0.18010779,-1.2296978,0.0752098,-1.8315072,-0.41612628,2.1350884,1.0439258,0.03999948,0.04,0.27677855,-0.38155946135520935,9.7930155,0.0026625553,-0.012694919481873512,-0.0013454781
1885.6333333319471,0.18012422,-1.2297391,0.07521667,-1.8314592,-0.41616452,2.1351402,1.0439494,0.039999478,0.04,0.27690166,-0.3816263973712921,9.793469,0.0025253824,-0.011962479911744595,-0.0013455278
1885.6499999986138,0.18013929,-1.2297776,0.07522302,-1.8314149,-0.41619965,2.1351871,1.0439711,0.039999478,0.04,0.2771923,-0.38161978125572205,9.793895,0.0024005861,-0.011291827075183392,-0.0013480269
1885.6666666652804,0.18015324,-1.2298125,0.07522888,-1.8313739,-0.41623196,2.1352313,1.0439911,0.039999478,0.04,0.2773447,-0.3816172182559967,9.794319,0.002284973,-0.01067430805414915,-0.0013451371
1885.683333331947,0.18016602,-1.229844,0.07523426,-1.8313361,-0.41626173,2.1352713,1.0440097,0.039999478,0.04,0.27756712,-0.38164833188056946,9.794577,0.0021784706,-0.010103161446750164,-0.0013462707
1885.6999999986137,0.18017769,-1.2298735,0.07523918,-1.8313012,-0.41628912,2.135308,1.0440267,0.039999478,0.04,0.27750033,-0.38171663880348206,9.794941,0.0020807215,-0.009582861326634884,-0.0013464043
1885.7166666652804,0.1801885,-1.2299008,0.075243756,-1.8312691,-0.4163143,2.1353445,1.0440423,0.039999478,0.04,0.27783912,-0.38166794180870056,9.7951975,0.0019897972,-0.009101382456719875,-0.0013457896
1885.733333331947,0.1801985,-1.229925,0.07524794,-1.8312403,-0.41633752,2.135374,1.0440567,0.03999948,0.04,0.27798557,-0.38172295689582825,9.795417,0.001906495,-0.008646106347441673,-0.001348911
1885.7499999986137,0.1802077,-1.2299483,0.07525185,-1.8312134,-0.41635886,2.135403,1.0440699,0.03999948,0.04,0.27780128,-0.3817751109600067,9.79581,0.0018325837,-0.008252034895122051,-0.001347205
1885.7666666652804,0.18021613,-1.2299687,0.07525539,-1.8311886,-0.41637847,2.1354318,1.0440823,0.03999948,0.04,0.2781224,-0.3817429542541504,9.795979,0.0017623244,-0.007875950075685978,-0.0013475324
1885.783333331947,0.1802239,-1.2299883,0.07525864,-1.8311656,-0.41639647,2.135454,1.0440936,0.03999948,0.04,0.27816254,-0.38181474804878235,9.796098,0.0016978529,-0.0075242361053824425,-0.0013506566
1885.7999999986137,0.18023105,-1.2300068,0.075261645,-1.8311446,-0.41641307,2.1354754,1.0441037,0.03999948,0.04,0.27826214,-0.3817358911037445,9.796427,0.001637133,-0.007215161807835102,-0.0013483973
1885.8166666652803,0.18023765,-1.2300229,0.07526441,-1.8311251,-0.4164283,2.1354966,1.0441133,0.03999948,0.04,0.27845407,-0.3817276656627655,9.796566,0.0015823954,-0.006925077177584171,-0.001347392
1885.833333331947,0.18024375,-1.2300384,0.07526696,-1.8311079,-0.41644236,2.1355178,1.0441219,0.039999478,0.04,0.27837875,-0.3818120062351227,9.796693,0.001532197,-0.006655333563685417,-0.0013486543
1885.8499999986136,0.18024936,-1.2300524,0.0752693,-1.8310913,-0.41645533,2.1355348,1.0441301,0.039999478,0.04,0.27855974,-0.3818260431289673,9.796836,0.0014868709,-0.006399149540811777,-0.0013526063
1885.8666666652803,0.18025452,-1.2300647,0.07527145,-1.8310759,-0.41646725,2.1355488,1.0441377,0.039999478,0.04,0.2786142,-0.38178539276123047,9.796988,0.0014430818,-0.006173258647322655,-0.0013522826
1885.883333331947,0.18025921,-1.2300767,0.07527343,-1.8310624,-0.41647825,2.1355624,1.0441443,0.039999478,0.04,0.27851996,-0.3818090856075287,9.797161,0.0014030017,-0.00597353233024478,-0.0013502673
1885.8999999986136,0.1802635,-1.2300879,0.075275265,-1.8310494,-0.41648835,2.135576,1.0441505,0.039999478,0.04,0.27862585,-0.38181596994400024,9.797299,0.0013685909,-0.005787516478449106,-0.0013486752
1885.9166666652802,0.18026742,-1.2300975,0.07527694,-1.8310375,-0.41649756,2.1355896,1.0441562,0.039999474,0.04,0.2787908,-0.3817977011203766,9.797333,0.0013348835,-0.005607801489531994,-0.0013484625
1885.9333333319469,0.18027109,-1.2301061,0.075278476,-1.8310267,-0.4165061,2.1356032,1.044161,0.039999478,0.04,0.27877098,-0.38184764981269836,9.797395,0.0013045478,-0.005440912209451199,-0.0013497667
1885.9499999986135,0.1802744,-1.2301145,0.0752799,-1.831017,-0.41651392,2.1356168,1.0441657,0.039999474,0.04,0.39823705,-0.32333770394325256,9.727924,0.0,-0.0,0.0
1885.9666666652802,0.1802744,-1.2301145,0.0752799,-1.831017,-0.41651392,2.1356168,1.0441657,0.039999474,0.04,0.27563927,-0.382585734128952,9.798661,0.0,-0.0,0.0
1885.9833333319468,0.1802744,-1.2301145,0.0752799,-1.831017,-0.41651392,2.1356168,1.0441657,0.039999474,0.04,0.27563927,-0.382585734128952,9.798661,0.0,-0.0,0.0
1885.9999999986135,0.1802744,-1.2301145,0.0752799,-1.831017,-0.41651392,2.1356168,1.0441657,0.039999474,0.04,0.27563927,-0.382585734128952,9.798661,0.0,-0.0,0.0
1886.0166666652801,0.1802744,-1.2301145,0.0752799,-1.831017,-0.41651392,2.1356168,1.0441657,0.039999474,0.04,0.27563927,-0.382585734128952,9.798661,0.0,-0.0,0.0
1886.0333333319468,0.1802744,-1.2301145,0.0752799,-1.831017,-0.41651392,2.1356168,1.0441657,0.039999474,0.04,0.27563927,-0.382585734128952,9.798661,0.0,-0.0,0.0
1886.0499999986134,0.1802744,-1.2301145,0.0752799,-1.831017,-0.41651392,2.1356168,1.0441657,0.039999474,0.04,0.27563927,-0.382585734128952,9.798661,0.0,-0.0,0.0
1886.06666666528,0.1802744,-1.2301145,0.0752799,-1.831017,-0.41651392,2.1356168,1.0441657,0.039999474,0.04,0.27563927,-0.382585734128952,9.798661,0.0,-0.0,0.0
1886.0833333319467,0.1802744,-1.2301145,0.0752799,-1.831017,-0.41651392,2.1356168,1.0441657,0.039999474,0.04,0.27563927,-0.382585734128952,9.798661,0.0,-0.0,0.0
1886.0999999986134,0.1802744,-1.2301145,0.0752799,-1.831017,-0.41651392,2.1356168,1.0441657,0.039999474,0.04,0.27563927,-0.382585734128952,9.798661,0.0,-0.0,0.0
1886.11666666528,0.1802744,-1.2301145,0.0752799,-1.831017,-0.41651392,2.1356168,1.0441657,0.039999474,0.04,0.27563927,-0.382585734128952,9.798661,0.0,-0.0,0.0
1886.1333333319467,0.1802744,-1.2301145,0.0752799,-1.831017,-0.41651392,2.1356168,1.0441657,0.039999474,0.04,0.27563927,-0.382585734128952,9.798661,0.0,-0.0,0.0
1886.1499999986133,0.1802744,-1.2301145,0.0752799,-1.831017,-0.41651392,2.1356168,1.0441657,0.039999474,0.04,0.27563927,-0.382585734128952,9.798661,0.0,-0.0,0.0
1886.16666666528,0.1802744,-1.2301145,0.0752799,-1.831017,-0.41651392,2.1356168,1.0441657,0.039999474,0.04,0.27563927,-0.382585734128952,9.798661,0.0,-0.0,0.0
1886.1833333319466,0.1802744,-1.2301145,0.0752799,-1.831017,-0.41651392,2.1356168,1.0441657,0.039999474,0.04,0.27563927,-0.382585734128952,9.798661,0.0,-0.0,0.0
1886.1999999986133,0.1802744,-1.2301145,0.0752799,-1.831017,-0.41651392,2.1356168,1.0441657,0.039999474,0.04,0.27563927,-0.382585734128952,9.798661,0.0,-0.0,0.0
1886.21666666528,0.1802744,-1.2301145,0.0752799,-1.831017,-0.41651392,2.1356168,1.0441657,0.039999474,0.04,0.27563927,-0.382585734128952,9.798661,0.0,-0.0,0.0
1886.2333333319466,0.1802744,-1.2301145,0.0752799,-1.831017,-0.41651392,2.1356168,1.0441657,0.039999474,0.04,0.27563927,-0.382585734128952,9.798661,0.0,-0.0,0.0
1886.2499999986132,0.1802744,-1.2301145,0.0752799,-1.831017,-0.41651392,2.1356168,1.0441657,0.039999474,0.04,0.27563927,-0.382585734128952,9.798661,0.0,-0.0,0.0
1886.26666666528,0.1802744,-1.2301145,0.0752799,-1.831017,-0.41651392,2.1356168,1.0441657,0.039999474,0.04,0.27563927,-0.382585734128952,9.798661,0.0,-0.0,0.0
1886.2833333319466,0.1802744,-1.2301145,0.0752799,-1.831017,-0.41651392,2.1356168,1.0441657,0.039999474,0.04,0.27563927,-0.382585734128952,9.798661,0.0,-0.0,0.0
1886.2999999986132,0.1802744,-1.2301145,0.0752799,-1.831017,-0.41651392,2.1356168,1.0441657,0.039999474,0.04,0.27563927,-0.382585734128952,9.798661,0.0,-0.0,0.0
1886.3166666652799,0.1802744,-1.2301145,0.0752799,-1.831017,-0.41651392,2.1356168,1.0441657,0.039999474,0.04,0.27563927,-0.382585734128952,9.798661,0.0,-0.0,0.0
1886.3333333319465,0.1802744,-1.2301145,0.0752799,-1.831017,-0.41651392,2.1356168,1.0441657,0.039999474,0.04,0.27563927,-0.382585734128952,9.798661,0.0,-0.0,0.0
1886.3499999986132,0.1802744,-1.2301145,0.0752799,-1.831017,-0.41651392,2.1356168,1.0441657,0.039999474,0.04,0.27563927,-0.382585734128952,9.798661,0.0,-0.0,0.0
1886.3666666652798,0.1802744,-1.2301145,0.0752799,-1.831017,-0.41651392,2.1356168,1.0441657,0.039999474,0.04,0.27563927,-0.382585734128952,9.798661,0.0,-0.0,0.0
1886.3833333319465,0.1802744,-1.2301145,0.0752799,-1.831017,-0.41651392,2.1356168,1.0441657,0.039999474,0.04,0.27563927,-0.382585734128952,9.798661,0.0,-0.0,0.0
1886.399999998613,0.1802744,-1.2301145,0.0752799,-1.831017,-0.41651392,2.1356168,1.0441657,0.039999474,0.04,0.27563927,-0.382585734128952,9.798661,0.0,-0.0,0.0
1886.4166666652798,0.1802744,-1.2301145,0.0752799,-1.831017,-0.41651392,2.1356168,1.0441657,0.039999474,0.04,0.27563927,-0.382585734128952,9.798661,0.0,-0.0,0.0
1886.4333333319464,0.1802744,-1.2301145,0.0752799,-1.831017,-0.41651392,2.1356168,1.0441657,0.039999474,0.04,0.27563927,-0.382585734128952,9.798661,0.0,-0.0,0.0
1886.449999998613,0.1802744,-1.2301145,0.0752799,-1.831017,-0.41651392,2.1356168,1.0441657,0.039999474,0.04,0.27563927,-0.382585734128952,9.798661,0.0,-0.0,0.0
1886.4666666652797,0.1802744,-1.2301145,0.0752799,-1.831017,-0.41651392,2.1356168,1.0441657,0.039999474,0.04,0.27563927,-0.382585734128952,9.798661,0.0,-0.0,0.0
1886.4833333319464,0.1802744,-1.2301145,0.0752799,-1.831017,-0.41651392,2.1356168,1.0441657,0.039999474,0.04,0.27563927,-0.382585734128952,9.798661,0.0,-0.0,0.0
1886.499999998613,0.1802744,-1.2301145,0.0752799,-1.831017,-0.41651392,2.1356168,1.0441657,0.039999474,0.04,0.27563927,-0.382585734128952,9.798661,0.0,-0.0,0.0
1886.5166666652797,0.1802744,-1.2301145,0.0752799,-1.831017,-0.41651392,2.1356168,1.0441657,0.039999474,0.04,0.27563927,-0.382585734128952,9.798661,0.0,-0.0,0.0
1886.5333333319463,0.1802744,-1.2301145,0.0752799,-1.831017,-0.41651392,2.1356168,1.0441657,0.039999474,0.04,0.27563927,-0.382585734128952,9.798661,0.0,-0.0,0.0
1886.549999998613,0.1802744,-1.2301145,0.0752799,-1.831017,-0.41651392,2.1356168,1.0441657,0.039999474,0.04,0.27563927,-0.382585734128952,9.798661,0.0,-0.0,0.0
1886.5666666652796,0.1802744,-1.2301145,0.0752799,-1.831017,-0.41651392,2.1356168,1.0441657,0.039999474,0.04,0.27563927,-0.382585734128952,9.798661,0.0,-0.0,0.0
1886.5833333319463,0.1802744,-1.2301145,0.0752799,-1.831017,-0.41651392,2.1356168,1.0441657,0.039999474,0.04,0.27563927,-0.382585734128952,9.798661,0.0,-0.0,0.0
1886.599999998613,0.1802744,-1.2301145,0.0752799,-1.831017,-0.41651392,2.1356168,1.0441657,0.039999474,0.04,0.27563927,-0.382585734128952,9.798661,0.0,-0.0,0.0
1886.6166666652796,0.1802744,-1.2301145,0.0752799,-1.831017,-0.41651392,2.1356168,1.0441657,0.039999474,0.04,0.27563927,-0.382585734128952,9.798661,0.0,-0.0,0.0
1886.6333333319462,0.1802744,-1.2301145,0.0752799,-1.831017,-0.41651392,2.1356168,1.0441657,0.039999474,0.04,0.27563927,-0.382585734128952,9.798661,0.0,-0.0,0.0
1886.6499999986129,0.1802744,-1.2301145,0.0752799,-1.831017,-0.41651392,2.1356168,1.0441657,0.039999474,0.04,0.27563927,-0.382585734128952,9.798661,0.0,-0.0,0.0
1886.6666666652795,0.1802744,-1.2301145,0.0752799,-1.831017,-0.41651392,2.1356168,1.0441657,0.039999474,0.04,0.27563927,-0.382585734128952,9.798661,0.0,-0.0,0.0
1886.6833333319462,0.1802744,-1.2301145,0.0752799,-1.831017,-0.41651392,2.1356168,1.0441657,0.039999474,0.04,0.27563927,-0.382585734128952,9.798661,0.0,-0.0,0.0
1886.6999999986128,0.1802744,-1.2301145,0.0752799,-1.831017,-0.41651392,2.1356168,1.0441657,0.039999474,0.04,0.27563927,-0.382585734128952,9.798661,0.0,-0.0,0.0
1886.7166666652795,0.1802744,-1.2301145,0.0752799,-1.831017,-0.41651392,2.1356168,1.0441657,0.039999474,0.04,0.27563927,-0.382585734128952,9.798661,0.0,-0.0,0.0
1886.7333333319461,0.1802744,-1.2301145,0.0752799,-1.831017,-0.41651392,2.1356168,1.0441657,0.039999474,0.04,0.27563927,-0.382585734128952,9.798661,0.0,-0.0,0.0
1886.7499999986128,0.1802744,-1.2301145,0.0752799,-1.831017,-0.41651392,2.1356168,1.0441657,0.039999474,0.04,0.27563927,-0.382585734128952,9.798661,0.0,-0.0,0.0
1886.7666666652794,0.1802744,-1.2301145,0.0752799,-1.831017,-0.41651392,2.1356168,1.0441657,0.039999474,0.04,0.27563927,-0.382585734128952,9.798661,0.0,-0.0,0.0
1886.783333331946,0.1802744,-1.2301145,0.0752799,-1.831017,-0.41651392,2.1356168,1.0441657,0.039999474,0.04,0.27563927,-0.382585734128952,9.798661,0.0,-0.0,0.0
1886.7999999986127,0.1802744,-1.2301145,0.0752799,-1.831017,-0.41651392,2.1356168,1.0441657,0.039999474,0.04,0.27563927,-0.382585734128952,9.798661,0.0,-0.0,0.0
1886.8166666652794,0.1802744,-1.2301145,0.0752799,-1.831017,-0.41651392,2.1356168,1.0441657,0.039999474,0.04,0.27563927,-0.382585734128952,9.798661,0.0,-0.0,0.0
1886.833333331946,0.1802744,-1.2301145,0.0752799,-1.831017,-0.41651392,2.1356168,1.0441657,0.039999474,0.04,0.27563927,-0.382585734128952,9.798661,0.0,-0.0,0.0
1886.8499999986127,0.1802744,-1.2301145,0.0752799,-1.831017,-0.41651392,2.1356168,1.0441657,0.039999474,0.04,0.27563927,-0.382585734128952,9.798661,0.0,-0.0,0.0
1886.8666666652794,0.1802744,-1.2301145,0.0752799,-1.831017,-0.41651392,2.1356168,1.0441657,0.039999474,0.04,0.27563927,-0.382585734128952,9.798661,0.0,-0.0,0.0
1886.883333331946,0.1802744,-1.2301145,0.0752799,-1.831017,-0.41651392,2.1356168,1.0441657,0.039999474,0.04,0.27563927,-0.382585734128952,9.798661,0.0,-0.0,0.0
1886.8999999986127,0.1802744,-1.2301145,0.0752799,-1.831017,-0.41651392,2.1356168,1.0441657,0.039999474,0.04,0.27563927,-0.382585734128952,9.798661,0.0,-0.0,0.0
1886.9166666652793,0.1802744,-1.2301145,0.0752799,-1.831017,-0.41651392,2.1356168,1.0441657,0.039999474,0.04,0.27563927,-0.382585734128952,9.798661,0.0,-0.0,0.0
1886.933333331946,0.1802744,-1.2301145,0.0752799,-1.831017,-0.41651392,2.1356168,1.0441657,0.039999474,0.04,0.27563927,-0.382585734128952,9.798661,0.0,-0.0,0.0
1886.9499999986126,0.1802744,-1.2301145,0.0752799,-1.831017,-0.41651392,2.1356168,1.0441657,0.039999474,0.04,0.27563927,-0.382585734128952,9.798661,0.0,-0.0,0.0
1886.9666666652793,0.1802744,-1.2301145,0.0752799,-1.831017,-0.41651392,2.1356168,1.0441657,0.039999474,0.04,0.27563927,-0.382585734128952,9.798661,0.0,-0.0,0.0
1886.983333331946,0.1802744,-1.2301145,0.0752799,-1.831017,-0.41651392,2.1356168,1.0441657,0.039999474,0.04,0.27563927,-0.382585734128952,9.798661,0.0,-0.0,0.0
1886.9999999986126,0.1802744,-1.2301145,0.0752799,-1.831017,-0.41651392,2.1356168,1.0441657,0.039999474,0.04,0.27563927,-0.382585734128952,9.798661,0.0,-0.0,0.0
1887.0166666652792,0.1802744,-1.2301145,0.0752799,-1.831017,-0.41651392,2.1356168,1.0441657,0.039999474,0.04,0.27563927,-0.382585734128952,9.798661,0.0,-0.0,0.0
1887.0333333319459,0.1802744,-1.2301145,0.0752799,-1.831017,-0.41651392,2.1356168,1.0441657,0.039999474,0.04,0.27563927,-0.382585734128952,9.798661,0.0,-0.0,0.0
1887.0499999986125,0.1802744,-1.2301145,0.0752799,-1.831017,-0.41651392,2.1356168,1.0441657,0.039999474,0.04,0.27563927,-0.382585734128952,9.798661,0.0,-0.0,0.0
1887.0666666652792,0.1802744,-1.2301145,0.0752799,-1.831017,-0.41651392,2.1356168,1.0441657,0.039999474,0.04,0.27563927,-0.382585734128952,9.798661,0.0,-0.0,0.0
1887.0833333319458,0.1802744,-1.2301145,0.0752799,-1.831017,-0.41651392,2.1356168,1.0441657,0.039999474,0.04,0.27563927,-0.382585734128952,9.798661,0.0,-0.0,0.0
1887.0999999986125,0.1802744,-1.2301145,0.0752799,-1.831017,-0.41651392,2.1356168,1.0441657,0.039999474,0.04,0.27563927,-0.382585734128952,9.798661,0.0,-0.0,0.0
1887.1166666652791,0.1802744,-1.2301145,0.0752799,-1.831017,-0.41651392,2.1356168,1.0441657,0.039999474,0.04,0.27563927,-0.382585734128952,9.798661,0.0,-0.0,0.0
1887.1333333319458,0.1802744,-1.2301145,0.0752799,-1.831017,-0.41651392,2.1356168,1.0441657,0.039999474,0.04,0.27563927,-0.382585734128952,9.798661,0.0,-0.0,0.0
1887.1499999986124,0.1802744,-1.2301145,0.0752799,-1.831017,-0.41651392,2.1356168,1.0441657,0.039999474,0.04,0.27563927,-0.382585734128952,9.798661,0.0,-0.0,0.0
1887.166666665279,0.1802744,-1.2301145,0.0752799,-1.831017,-0.41651392,2.1356168,1.0441657,0.039999474,0.04,0.27563927,-0.382585734128952,9.798661,0.0,-0.0,0.0
1887.1833333319457,0.1802744,-1.2301145,0.0752799,-1.831017,-0.41651392,2.1356168,1.0441657,0.039999474,0.04,0.27563927,-0.382585734128952,9.798661,0.0,-0.0,0.0
1887.1999999986124,0.1802744,-1.2301145,0.0752799,-1.831017,-0.41651392,2.1356168,1.0441657,0.039999474,0.04,0.27563927,-0.382585734128952,9.798661,0.0,-0.0,0.0
1887.216666665279,0.1802744,-1.2301145,0.0752799,-1.831017,-0.41651392,2.1356168,1.0441657,0.039999474,0.04,0.27563927,-0.382585734128952,9.798661,0.0,-0.0,0.0
1887.2333333319457,0.1802744,-1.2301145,0.0752799,-1.831017,-0.41651392,2.1356168,1.0441657,0.039999474,0.04,0.27563927,-0.382585734128952,9.798661,0.0,-0.0,0.0
1887.2499999986123,0.1802744,-1.2301145,0.0752799,-1.831017,-0.41651392,2.1356168,1.0441657,0.039999474,0.04,0.27563927,-0.382585734128952,9.798661,0.0,-0.0,0.0
1887.266666665279,0.1802744,-1.2301145,0.0752799,-1.831017,-0.41651392,2.1356168,1.0441657,0.039999474,0.04,0.27563927,-0.382585734128952,9.798661,0.0,-0.0,0.0
1887.2833333319456,0.1802744,-1.2301145,0.0752799,-1.831017,-0.41651392,2.1356168,1.0441657,0.039999474,0.04,0.27563927,-0.382585734128952,9.798661,0.0,-0.0,0.0
1887.2999999986123,0.1802744,-1.2301145,0.0752799,-1.831017,-0.41651392,2.1356168,1.0441657,0.039999474,0.04,0.27563927,-0.382585734128952,9.798661,0.0,-0.0,0.0
1887.316666665279,0.1802744,-1.2301145,0.0752799,-1.831017,-0.41651392,2.1356168,1.0441657,0.039999474,0.04,0.27563927,-0.382585734128952,9.798661,0.0,-0.0,0.0
1887.3333333319456,0.1802744,-1.2301145,0.0752799,-1.831017,-0.41651392,2.1356168,1.0441657,0.039999474,0.04,0.27563927,-0.382585734128952,9.798661,0.0,-0.0,0.0
1887.3499999986122,0.1802744,-1.2301145,0.0752799,-1.831017,-0.41651392,2.1356168,1.0441657,0.039999474,0.04,0.27563927,-0.382585734128952,9.798661,0.0,-0.0,0.0
1887.366666665279,0.1802744,-1.2301145,0.0752799,-1.831017,-0.41651392,2.1356168,1.0441657,0.039999474,0.04,0.27563927,-0.382585734128952,9.798661,0.0,-0.0,0.0
1887.3833333319456,0.1802744,-1.2301145,0.0752799,-1.831017,-0.41651392,2.1356168,1.0441657,0.039999474,0.04,0.27563927,-0.382585734128952,9.798661,0.0,-0.0,0.0
1887.3999999986122,0.1802744,-1.2301145,0.0752799,-1.831017,-0.41651392,2.1356168,1.0441657,0.039999474,0.04,0.27563927,-0.382585734128952,9.798661,0.0,-0.0,0.0
1887.4166666652789,0.1802744,-1.2301145,0.0752799,-1.831017,-0.41651392,2.1356168,1.0441657,0.039999474,0.04,0.27563927,-0.382585734128952,9.798661,0.0,-0.0,0.0
1887.4333333319455,0.1802744,-1.2301145,0.0752799,-1.831017,-0.41651392,2.1356168,1.0441657,0.039999474,0.04,0.27563927,-0.382585734128952,9.798661,0.0,-0.0,0.0
1887.4499999986122,0.1802744,-1.2301145,0.0752799,-1.831017,-0.41651392,2.1356168,1.0441657,0.039999474,0.04,0.27563927,-0.382585734128952,9.798661,0.0,-0.0,0.0
1887.4666666652788,0.1802744,-1.2301145,0.0752799,-1.831017,-0.41651392,2.1356168,1.0441657,0.039999474,0.04,0.27563927,-0.382585734128952,9.798661,0.0,-0.0,0.0
1887.4833333319455,0.1802744,-1.2301145,0.0752799,-1.831017,-0.41651392,2.1356168,1.0441657,0.039999474,0.04,0.27563927,-0.382585734128952,9.798661,0.0,-0.0,0.0
1887.499999998612,0.1802744,-1.2301145,0.0752799,-1.831017,-0.41651392,2.1356168,1.0441657,0.039999474,0.04,0.27563927,-0.382585734128952,9.798661,0.0,-0.0,0.0
1887.5166666652788,0.1802744,-1.2301145,0.0752799,-1.831017,-0.41651392,2.1356168,1.0441657,0.039999474,0.04,0.27563927,-0.382585734128952,9.798661,0.0,-0.0,0.0
1887.5333333319454,0.1802744,-1.2301145,0.0752799,-1.831017,-0.41651392,2.1356168,1.0441657,0.039999474,0.04,0.27563927,-0.382585734128952,9.798661,0.0,-0.0,0.0
1887.549999998612,0.1802744,-1.2301145,0.0752799,-1.831017,-0.41651392,2.1356168,1.0441657,0.039999474,0.04,0.27563927,-0.382585734128952,9.798661,0.0,-0.0,0.0
