rsonawane2002/My_IMU/logs_2/traj_337/clean_337.csv
time,j1,j2,j3,j4,j5,j6,j7,gripper1,gripper2,imu_ax,imu_ay,imu_az,imu_gx,imu_gy,imu_gz,quat_x,quat_y,quat_z,quat_w
951.3333333327968,0.00016700293,-0.785875,4.0107683e-05,-2.3551247,9.29385e-05,1.570997,0.786,0.04,0.04,0.0,-0.0,0.0,2.875329272945135e-08,-0.0011641195053377316,4.421952117202833e-08,0.9999995971961153,0.00020320632366974898,0.0008736418299892524,3.263050917662294e-05
951.3499999994634,0.00016699849,-0.78576016,4.0118433e-05,-2.3552213,9.296359e-05,1.5709941,0.786,0.04,0.04,-0.2919984608423132,-2.3995981386778446e-05,0.02012841100216267,8.691381244813895e-07,-0.0022386664212408402,-6.754590402504609e-07,0.9999996850585239,0.00020320948881104179,0.0007665025214423108,3.259818094291549e-05
951.3666666661301,0.0001669439,-0.7856543,4.0155024e-05,-2.35531,9.291392e-05,1.5709913,0.786,0.04,0.04,0.023328719598292302,8.038168050020656e-05,-0.001670416284094145,6.2918558392718335e-06,-0.003233234332280204,-5.871091199348293e-06,0.9999997558436537,0.0002032282268125268,0.0006677972776494377,3.252255388436997e-05
951.3833333327967,0.00016675687,-0.785557,4.0260566e-05,-2.355391,9.26812e-05,1.5709884,0.786,0.04,0.039999995,0.022394855935692348,0.00020098271947365095,-0.0014910017082980787,2.1296234023990285e-05,-0.004155210388442582,-1.888772856038601e-05,0.9999998122523995,0.00020328844662007418,0.0005771685016422264,3.233409981297342e-05
951.3999999994634,0.00016631979,-0.7854675,4.049711e-05,-2.3554652,9.207411e-05,1.5709856,0.786,0.04,0.04,0.020453046601365266,0.0004002237897827651,-0.0014251158079625625,5.019491269356708e-05,-0.0050160512092640094,-4.5750312740414594e-05,0.999999856815611,0.0002034270587405083,0.0004939307896181564,3.191495184440722e-05
951.41666666613,0.00016548282,-0.78538543,4.094316e-05,-2.355532,9.088899e-05,1.570986,0.7860019,0.04,0.04,0.02179478631170184,0.0006242440150434762,0.001556256127566158,9.716376475274097e-05,-0.005822683709272419,-8.742368979844045e-05,0.999999890479149,0.00020464491414758903,0.00041975309527032595,3.113660845067345e-05
951.4333333327967,0.00016406727,-0.78531,4.1692285e-05,-2.3555968,8.886939e-05,1.5709869,0.7860038,0.04,0.04,0.010670626996400756,0.0009033045347475212,-0.0026664321454816786,0.0001572103164233203,-0.006563971174227048,-0.00014772596992163292,0.9999999170720596,0.00020604468379940998,0.0003500161570124129,2.9835414945446436e-05
951.4499999994633,0.00016186881,-0.78524107,4.285157e-05,-2.355655,8.572299e-05,1.5709878,0.7860064,0.04,0.04,0.018632832491127793,0.0012197819930672056,-0.0006711289707972412,0.00024333180480550813,-0.007286553850258298,-0.0002293314196153074,0.9999999368053392,0.0002080182751302492,0.00028695521447218175,2.7828396016921508e-05
951.46666666613,0.00015866008,-0.7851781,4.454014e-05,-2.3557076,8.112302e-05,1.5709908,0.7860102,0.04,0.04,0.01655211612652252,0.0015736797692973226,0.0005619874789530854,0.00035608448339973154,-0.007971197107647671,-0.00033464378163754264,0.9999999508478146,0.00021093524715275167,0.0002306299497306368,2.4910163639334993e-05
951.4833333327966,0.00015419336,-0.7851209,4.6887926e-05,-2.3557577,7.4706455e-05,1.5709955,0.7860159,0.039999995,0.04,0.011312048432765565,0.001964899023468265,-0.0008443709351713125,0.0004962055835505975,-0.008623138238254141,-0.0004666229539207414,0.9999999605504013,0.00021520130130881656,0.00017931191797916854,2.085262156854385e-05
951.4999999994633,0.00014820283,-0.78506905,5.003423e-05,-2.3558025,6.609762e-05,1.5710018,0.78602356,0.03999999,0.039999995,0.015373074315538915,0.002373656257685994,0.0005374311499828366,0.0006646219148220176,-0.009261714833368066,-0.0006254666938820682,0.9999999664868222,0.00022089986945653746,0.00013413371371910073,1.541911696473975e-05
951.5166666661299,0.00014040638,-0.78502214,5.4126634e-05,-2.3558455,5.4890996e-05,1.5710104,0.7860331,0.039999988,0.039999988,0.009427941916961835,0.0028136546936339537,-0.0002731629018981607,0.0008641004759040858,-0.009878349664458877,-0.0008128420775247028,0.9999999695731809,0.00022811974366955187,9.351593051166691e-05,8.354080425835772e-06
951.5333333327966,0.00013050826,-0.7849801,5.93202e-05,-2.3558862,4.0660634e-05,1.5710226,0.7860462,0.039999984,0.039999984,0.010220194783272518,0.003274545326495751,0.0009363211867841059,0.0010981583038622933,-0.010490115741607527,-0.001031927451549036,0.9999999700308854,0.00023778822072627619,5.826335552897271e-05,-6.098715979429671e-07
951.5499999994632,0.000118200485,-0.7849427,6.5776345e-05,-2.3559222,2.2964972e-05,1.5710386,0.78606194,0.039999977,0.039999973,0.014346937913289892,0.0037528453150869855,0.002283916693768262,0.0013620258402500265,-0.01109591632866172,-0.0012822782423292643,0.9999999683633286,0.0002495250635313184,2.9538430810865173e-05,-1.175013714307065e-05
951.5666666661299,0.00010316446,-0.78490984,7.366188e-05,-2.3559573,1.3453453e-06,1.5710574,0.7860812,0.039999973,0.03999997,0.0075999737047638405,0.004250374955472443,-4.575463028455573e-05,0.001663206233076017,-0.011683961667765707,-0.0015667202716353123,0.9999999648503053,0.0002638774300917829,5.0167403822790075e-06,-2.5355917897446182e-05
951.5833333327965,8.507253e-05,-0.7848814,8.314862e-05,-2.3559916,-2.4668652e-05,1.5710803,0.7861045,0.03999997,0.039999966,0.007374954239103282,0.004759921860206565,0.0008384492867996585,0.002000097395083511,-0.012282182830318053,-0.0018853315889228272,0.9999999594770859,0.0002812162718656409,-1.4914092023393681e-05,-4.172295365032602e-05
951.5999999994632,6.358953e-05,-0.7848571,9.4412135e-05,-2.3560224,-5.55583e-05,1.5711079,0.78613216,0.03999997,0.03999996,0.01209618744848484,0.005280948798223964,0.0027364368045512677,0.0023737953825480273,-0.01288808559126948,-0.002238044343082818,0.9999999521787166,0.000301795679106316,-2.867432386505093e-05,-6.11532145709294e-05
951.6166666661298,3.8373935e-05,-0.784837,0.00010763123,-2.3560507,-9.181521e-05,1.5711393,0.7861646,0.039999966,0.039999958,0.009976162083225049,0.005813699956517936,0.001602581065451858,0.002784796599171876,-0.013490169204441106,-0.0026272449680538237,0.9999999426696905,0.00032593144172793657,-3.7157770417686214e-05,-8.395600610549861e-05
951.6333333327965,9.079063e-06,-0.7848209,0.00012298775,-2.3560784,-0.00013393685,1.571176,0.78620213,0.03999997,0.03999996,0.007292779841416852,0.006352720132601195,0.001966586483459487,0.0032340979729513337,-0.014099208677200398,-0.003052618515893005,0.9999999304478521,0.0003539108963929259,-4.0662164833456025e-05,-0.00011044436018683794
951.6499999994631,-2.4645899e-05,-0.78480905,0.0001406654,-2.3561056,-0.00018242738,1.5712188,0.78624547,0.03999997,0.03999996,0.007416596188591917,0.0068988527199477815,0.0023468313446572964,0.0037223869275229988,-0.014722181277004179,-0.0035145848541766546,0.9999999147528128,0.0003861717062837684,-3.8769921690906554e-05,-0.00014093499791882063
951.6666666661298,-6.315488e-05,-0.78480107,0.00016084962,-2.3561325,-0.00023779525,1.5712677,0.786295,0.03999997,0.03999996,0.0066175639276355724,0.00744965557358174,0.0024421397716078985,0.004249210985666495,-0.015357528993426009,-0.00401347631693528,0.9999998945728934,0.00042303319300639983,-3.177866433291978e-05,-0.00017574764940980007
951.6833333327965,-0.000106803804,-0.784797,0.00018372718,-2.3561592,-0.0003005515,1.5713232,0.7863511,0.03999997,0.039999958,0.00683637488219091,0.008002822876356279,0.002763358855339959,0.004814909690076969,-0.01600990268193041,-0.004548653354832676,0.9999998686424638,0.00046478528919033255,-1.941971680687975e-05,-0.00021520354229494375
951.6999999994631,-0.00015595015,-0.78479695,0.00020948541,-2.356186,-0.0003712109,1.5713855,0.78641415,0.039999973,0.03999996,0.006612779112491474,0.008559818545662607,0.0028883320149608593,0.005420074796168553,-0.016678824380120243,-0.005121984743130991,0.9999998353527582,0.0005117482114533309,-1.6031444947764448e-06,-0.00025962598982249625
951.7166666661298,-0.000210952,-0.7848009,0.00023831188,-2.356212,-0.0004502873,1.5714552,0.7864848,0.039999973,0.03999996,0.007982284395868788,0.009116166043591636,0.003563679939944109,0.006064975145590028,-0.017368021623868274,-0.005732671139801434,0.9999997926720313,0.0005643316905579608,2.22677312659786e-05,-0.0003093376560990867
951.7333333327964,-0.00027216715,-0.78480875,0.00027039423,-2.3562374,-0.0005382946,1.5715336,0.78656346,0.039999973,0.039999958,0.007892600113068582,0.009672115243216664,0.004377068137739748,0.0067490708066976525,-0.01807341905031739,-0.006379827097357418,0.9999997381324616,0.0006228853759956339,5.264066204665155e-05,-0.0003646611814545425
951.7499999994631,-0.0003399529,-0.78482056,0.00030591988,-2.356263,-0.0006357471,1.5716203,0.7866505,0.039999977,0.03999996,0.007048898926353964,0.010228242350994446,0.004071973827124431,0.007471743141870487,-0.018792528259351134,-0.007065114456246033,0.9999996688716448,0.0006876693230152136,8.921841032566407e-05,-0.00042591968482863973
951.7666666661297,-0.00041466526,-0.7848363,0.00034507515,-2.3562887,-0.00074315484,1.5717157,0.7867464,0.039999977,0.03999996,0.006686607434946978,0.010780857128784594,0.004051091241863425,0.008234000083817129,-0.019532102876878052,-0.007787530448512177,0.9999995814693484,0.0007590623401589851,0.00013194230984011794,-0.000493433601043854
951.7833333327964,-0.00049665826,-0.78485626,0.000388046,-2.3563154,-0.0008610276,1.5718206,0.78685164,0.039999977,0.03999996,0.006108756167111373,0.011331369044467887,0.00426872412198076,0.009035240871637595,-0.02029441893005137,-0.008546883645733808,0.9999994719338908,0.0008374121932173474,0.00018108164078788357,-0.0005675228606230506
951.799999999463,-0.0005862837,-0.78488046,0.00043501687,-2.356342,-0.0009898697,1.5719352,0.7869667,0.03999998,0.03999996,0.00777442327875022,0.011876451165626746,0.004781920328111866,0.009874769544814303,-0.021078630286712547,-0.009342053017716853,0.9999993355973628,0.000923036363254106,0.00023717402706367217,-0.0006485038058196248
951.8166666661297,-0.0006838903,-0.7849088,0.0004861706,-2.3563688,-0.0011301866,1.5720601,0.7870919,0.03999998,0.039999973,0.007877570413783452,0.012421127658882088,0.005377721898991439,0.010752507412614782,-0.02188184753405712,-0.010178941852482526,0.999999167102811,0.0010162508458938587,0.0003005188223263074,-0.0007366928396850297
951.8333333327963,-0.0007898247,-0.7849414,0.0005416886,-2.356396,-0.00128247,1.5721958,0.78722787,0.03999998,0.039999966,0.007387530393621056,0.012954688406952028,0.005323639589760454,0.011668539054307056,-0.022704521831234104,-0.011045692660530845,0.9999989603548121,0.0011174304735090993,0.00037114736505398493,-0.0008323989820706498
951.849999999463,-0.0009044289,-0.7849781,0.0006017504,-2.3564234,-0.0014472129,1.5723426,0.7873749,0.039999984,0.039999966,0.0077568796116311844,0.013486048312799778,0.00588101807033059,0.012621608525336293,-0.02354837663844502,-0.011948031327625452,0.9999987084760735,0.0012268586759808635,0.0004493295282843542,-0.0009359310600626124
951.8666666661296,-0.0010280414,-0.78501934,0.00066653366,-2.356451,-0.0016249048,1.5725011,0.7875336,0.039999984,0.03999997,0.008343832895807424,0.014012623158695843,0.005904403266909775,0.013611823009959714,-0.024413752593995197,-0.012889242161186858,0.9999984035273979,0.0013449071690226188,0.0005354546645965585,-0.001047595181574043
951.8833333327963,-0.0011609966,-0.7850651,0.0007362141,-2.3564801,-0.0018160233,1.5726713,0.78770417,0.03999998,0.03999996,0.0064060185044567675,0.014528849102348569,0.005539293766476661,0.014638192695998994,-0.02529665305841898,-0.01386175041546718,0.999998037259446,0.0014718263489811921,0.0006290479493342861,-0.001167691368239001
951.8999999994629,-0.0013036247,-0.7851154,0.0008109644,-2.3565104,-0.0020210429,1.5728543,0.7878873,0.039999973,0.039999947,0.007128940277500995,0.0150404264584807,0.006348019110169467,0.015700767867378874,-0.026205734649974395,-0.014868597996954865,0.9999975996987163,0.0016080140150345381,0.0007307078243322006,-0.001296516027368218
951.9166666661296,-0.0014562509,-0.7851705,0.0008909555,-2.3565435,-0.0022404334,1.5730499,0.7880832,0.039999977,0.03999996,0.0045329055758935866,0.015546097998835814,0.005366225504754851,0.01679845230822563,-0.02713636072441101,-0.01591449588374131,0.9999970810187349,0.0017537167903433554,0.0008396618956606597,-0.0014343637370205422
951.9333333327962,-0.0016191957,-0.7852301,0.0009763554,-2.356578,-0.0024746526,1.5732589,0.7882923,0.03999998,0.03999996,0.006946664889717624,0.01603913844915759,0.006665124845439685,0.017930826119443303,-0.028097872136515583,-0.01698952216394141,0.9999964690531289,0.0019092096293343015,0.0009568665656191309,-0.001581520231177363
951.9499999994629,-0.0017927743,-0.78529465,0.0010673293,-2.3566134,-0.0027241537,1.5734812,0.7885151,0.03999999,0.03999999,0.008644560860338046,0.016525579981370962,0.006737901703579574,0.019097537261957127,-0.029082156752368603,-0.01810310275624374,0.9999957503632921,0.0020748556560217135,0.0010828912111679795,-0.001738268100010705
951.9666666661295,-0.0019772968,-0.785364,0.0011640401,-2.3566494,-0.0029893653,1.5737178,0.78875196,0.039999995,0.04,0.00877219694443987,0.01699120849773996,0.0075361194346923455,0.020297407208269478,-0.030088735876584838,-0.019243982655044692,0.9999949104620278,0.0022509248776033646,0.0012181265373458672,-0.0019048766299765037
951.9833333327962,-0.0021730687,-0.7854383,0.0012666477,-2.3566868,-0.0032707243,1.5739689,0.78900313,0.03999999,0.04,0.007881264990228232,0.017461539145805834,0.007155032097205805,0.021530386917444057,-0.031111691131574692,-0.02041657876969371,0.9999939343382168,0.0024376265477115255,0.0013623971705861702,-0.0020816189703242896
951.9999999994628,-0.0023803883,-0.78551775,0.0013753091,-2.3567286,-0.003568702,1.5742348,0.78926915,0.039999984,0.04,0.0033229490735031675,0.01795482560930312,0.0061457869799275144,0.022795915909396062,-0.03215829161430696,-0.02162186710456559,0.999992806873633,0.002635313912773529,0.0015145746832732681,-0.0022687849397636513
952.0166666661295,-0.0025995485,-0.78560233,0.0014901783,-2.3567712,-0.003883715,1.5745159,0.7895504,0.039999977,0.04,0.009105524467423187,0.01839898490750792,0.007801995208489565,0.024092899898424346,-0.03323808182697441,-0.022857482760448414,0.9999915076100206,0.002844282189523865,0.0016764514769841451,-0.0024666327472379797
952.0333333327961,-0.0028308379,-0.78569204,0.0016114062,-2.3568146,-0.004216164,1.5748123,0.78984725,0.039999977,0.04,0.009579858791242124,0.01883190277546902,0.007979079779896203,0.025420269469196767,-0.0343371801805166,-0.02412198578987175,0.9999900167031334,0.003064763919441999,0.001848210818281223,-0.002675412670323785
952.0499999994628,-0.003074538,-0.78578717,0.0017391404,-2.356859,-0.0045664385,1.5751249,0.79016,0.039999977,0.04,0.00984190523278805,0.01925286667941303,0.008393102143489095,0.02677774722437648,-0.03545438143014657,-0.02541480380571557,0.9999883120016103,0.0032970176171842266,0.002030364201662985,-0.0028953680613689383
952.0666666661294,-0.0033309238,-0.78588784,0.0018735259,-2.3569088,-0.0049349447,1.5754538,0.790489,0.03999998,0.04,0.0023355062577889996,0.01968681370863503,0.006367241858162842,0.028164684259966197,-0.03658787406619905,-0.0267361934834543,0.9999863753159083,0.0035412955248286435,0.0022207711090343695,-0.003126752986496209
952.0833333327961,-0.0036002668,-0.7859939,0.0020147043,-2.3569596,-0.005322076,1.5757992,0.79083467,0.03999998,0.04,0.009962250125838956,0.02010035770250206,0.00864990837377011,0.029580285639438104,-0.03775756041319145,-0.028087117436604414,0.9999841778284853,0.0037978555950249136,0.0024217319220649854,-0.003369807125865229
952.0999999994627,-0.0038828293,-0.78610545,0.0021628137,-2.3570108,-0.0057281954,1.5761616,0.7911972,0.03999998,0.04,0.011127926569010071,0.020489020728627506,0.009002748506281577,0.031023700717834675,-0.03894572865754614,-0.029463521071113555,0.9999816922638854,0.004066889738066555,0.0026337590537460196,-0.0036247562898855117
952.1166666661294,-0.004178869,-0.78622276,0.0023179883,-2.3570647,-0.006153693,1.5765414,0.79157704,0.03999998,0.04,0.007868267078081637,0.020899790343948885,0.008270941711119306,0.03249468245090763,-0.04014665658001202,-0.030867225007752918,0.9999788922613623,0.004348704154499438,0.0028561140668145117,-0.0038918397131672963
952.133333332796,-0.0044886363,-0.7863459,0.002480362,-2.3571227,-0.0065989234,1.5769387,0.79197454,0.039999984,0.04,0.005646761069133532,0.021276273564048865,0.00762635705306991,0.03399142019259317,-0.04136988986695259,-0.032296764579628774,0.9999757503058091,0.004643512205950096,0.0030882076432604574,-0.004171278974048217
952.1499999994627,-0.004812376,-0.7864749,0.002650061,-2.3571813,-0.007064213,1.5773541,0.79239,0.03999999,0.04,0.011534746048913469,0.021626421749720674,0.009441334016790925,0.03551394940308111,-0.04262173876055212,-0.03374981985345158,0.9999722294178806,0.004951531449429991,0.0033319542196671424,-0.004463273509125041
952.1666666661293,-0.005150325,-0.78660965,0.002827211,-2.3572412,-0.007549901,1.5777878,0.7928237,0.03999999,0.04,0.01082423654668041,0.021981766571441304,0.009496066441783135,0.037060883388858316,-0.043885949054450216,-0.035228243234948386,0.9999682960650307,0.005272970086102609,0.003587271946761894,-0.004768032219907769
952.183333332796,-0.0055027185,-0.7867505,0.003011935,-2.3573067,-0.008056361,1.5782399,0.7932759,0.03999999,0.04,0.003526550886512325,0.02237316174171361,0.007363583676611718,0.03863179737694953,-0.04516469618004819,-0.0367314012683472,0.9999639223534197,0.005608031292652723,0.003852112528069111,-0.005085784664704935
952.1999999994626,-0.00586978,-0.7868974,0.003204351,-2.357373,-0.008583906,1.5787107,0.79374695,0.039999995,0.04,0.012156611969471598,0.022691996025970586,0.009648619342694786,0.040225576064772325,-0.046477085842940816,-0.03825836918475597,0.9999590617469949,0.005956925926977252,0.0041290473826743595,-0.005416717759099176
952.2166666661293,-0.006251729,-0.7870503,0.0034045738,-2.3574407,-0.009132886,1.5792003,0.79423714,0.039999995,0.04,0.01094442205242796,0.023049164015322143,0.009536860164982564,0.04184196243830964,-0.04780268557669527,-0.039818584709357605,0.9999536754239768,0.006319854541241626,0.004417787461832627,-0.005761041450977136
952.233333332796,-0.0066487794,-0.78720963,0.003612714,-2.357514,-0.009703557,1.5797099,0.79474676,0.04,0.04,0.005009438097336449,0.023339455394940853,0.008309250195903672,0.043479337439533,-0.04914258718304371,-0.04138694180036085,0.9999477273322539,0.0066970084330472655,0.004717150036233103,-0.00611891956506025
952.2499999994626,-0.007061137,-0.78737515,0.0038288813,-2.3575878,-0.010296203,1.5802389,0.7952759,0.04,0.04,0.012753325646741587,0.02362547904504915,0.010081979181708611,0.04513724728706218,-0.05051017345859864,-0.04297628857568289,0.9999411654180231,0.007088502589492714,0.005029111344005456,-0.00649052174897369
952.2666666661293,-0.0074890004,-0.78754693,0.0040531806,-2.3576634,-0.010911134,1.5807877,0.79582494,0.04,0.04,0.011342291836946572,0.023938928254354543,0.009756790420589745,0.04681565533925897,-0.05188860576245265,-0.04458759073145921,0.9999339447295477,0.00749452795501976,0.005353353913198341,-0.006876033029126101
952.2833333327959,-0.007932564,-0.7877253,0.004285712,-2.3577445,-0.011548623,1.581357,0.79639417,0.04,0.04,0.005611753324030744,0.024232264696795458,0.00852251725071973,0.04851295555910065,-0.05328144314024956,-0.0462185626797544,0.999926023677511,0.00791529558726753,0.0056886371190169715,-0.0072756220336232386
952.2999999994626,-0.008392018,-0.7879103,0.004526576,-2.3578265,-0.012208925,1.5819466,0.79698384,0.04,0.04,0.013240262300340255,0.02448269058116393,0.01025371390614982,0.050228646857128856,-0.054700231953119356,-0.04786993677271008,0.9999173406276942,0.008350973398534437,0.006037028424400936,-0.007689437114615265
952.3166666661292,-0.008867537,-0.7881018,0.004775868,-2.3579102,-0.012892326,1.5825568,0.797594,0.04,0.04,0.012219262758228489,0.024762092759668397,0.010150404846043237,0.051961272730943975,-0.05612842039347357,-0.04953639747729567,0.9999078438766387,0.008801620669487073,0.0063983600400641825,-0.008117648450125461
952.3333333327959,-0.009359301,-0.7883,0.0050336765,-2.3579996,-0.013599046,1.5831879,0.7982251,0.04,0.04,0.005589788761262149,0.025013376796053505,0.008412984236061405,0.05371095794711682,-0.05756654158306429,-0.051221091535218075,0.9998974897114289,0.009267472352944171,0.006770797044623195,-0.008560393235755007
952.3499999994625,-0.009867472,-0.7885049,0.005300091,-2.3580904,-0.0143293515,1.5838399,0.7988772,0.04,0.04,0.013076655605748222,0.025251502255640122,0.010224566635153032,0.05547602092958823,-0.059034573394047246,-0.052924379763099404,0.9998862074971875,0.009748593268571394,0.007156526918169259,-0.00901782172395231
952.3666666661292,-0.01039222,-0.78871644,0.005575197,-2.3581822,-0.015083479,1.5845133,0.79955065,0.04,0.04,0.014049333457211155,0.0254917283530217,0.010885985826769584,0.05725649110268665,-0.060511131956429765,-0.05464269925368359,0.9998739321996691,0.010245221147288153,0.007556040395529696,-0.009490068743468996
952.3833333327958,-0.010933696,-0.78893495,0.0058590765,-2.3582792,-0.015861649,1.5852083,0.80024546,0.04,0.04,0.007245217449391994,0.025718074004964925,0.008815654577132293,0.05905021983377985,-0.06199290386894283,-0.05637859651616108,0.99986061709245,0.010757335513023094,0.007967442539239226,-0.009977273151988287
952.3999999994625,-0.011492051,-0.7891602,0.006151809,-2.358378,-0.016664062,1.5859247,0.800962,0.04,0.04,0.013156137172476434,0.025904000294925747,0.010380852828939524,0.06085821953042733,-0.06349931173127955,-0.05812488421869257,0.9998461846702235,0.011285144267884526,0.008392357308238892,-0.010479544744940809
952.4166666661291,-0.012067426,-0.78939235,0.0064534675,-2.3584824,-0.017490929,1.5866637,0.80170107,0.04,0.04,0.006876762153118499,0.02612223925142279,0.00922282212221237,0.06267817168898765,-0.06501375766190401,-0.05988743533281553,0.9998305756594346,0.01182909331562657,0.008829402439836412,-0.010997007793461692
952.4333333327958,-0.012659956,-0.7896315,0.0067641237,-2.3585882,-0.018342454,1.587424,0.80246156,0.04,0.04,0.014001657698470282,0.026296034614857813,0.010131117185774308,0.0645063785026727,-0.06655213232040819,-0.0616634965428334,0.9998137150971413,0.012388619002786726,0.009280165006696194,-0.011529777114264853
952.4499999994624,-0.013269771,-0.78987795,0.0070838467,-2.358695,-0.01921883,1.5882064,0.8032441,0.04,0.04,0.015566673938072206,0.026468403167164214,0.0105937470787687,0.06634836921938006,-0.06809958207316745,-0.06345363979575927,0.9997955203731401,0.012964059399921136,0.009745437597754989,-0.012077957265429307
952.4666666661291,-0.013897001,-0.79013157,0.007412702,-2.358808,-0.020120207,1.5890113,0.80404896,0.04,0.04,0.0066559654166242765,0.026643659812329232,0.008673206740805739,0.06820069450269936,-0.06964727863060227,-0.06525410572089826,0.9997759407936057,0.01355552126931426,0.010222762892880571,-0.0126416443635147
952.4833333327957,-0.014541758,-0.7903919,0.0077507515,-2.3589222,-0.021046778,1.5898386,0.80487645,0.04,0.04,0.014847819929753037,0.02678757950586065,0.010948649534592292,0.07006247542074212,-0.07122219782617568,-0.06706678890955743,0.9997548762143879,0.014163199513007442,0.01071439352925147,-0.013220931752683452
952.4999999994624,-0.015204154,-0.79065955,0.008098053,-2.3590386,-0.021998718,1.5906886,0.8057263,0.04,0.04,0.014016198427091453,0.026941067337071106,0.010320585525991355,0.07193222137412754,-0.0728013885082576,-0.06889422722938995,0.9997322504548739,0.014786944243300527,0.011220253865048532,-0.013815917761139312
952.516666666129,-0.015884299,-0.7909342,0.008454664,-2.3591604,-0.02297617,1.5915613,0.80659914,0.04,0.04,0.008191761410203391,0.02708932147194275,0.00900627695681333,0.07381101556080438,-0.07438673730267409,-0.07073393690762941,0.9997079977645029,0.015427066174394674,0.011738636088408628,-0.014426685611166296
952.5333333327957,-0.016582288,-0.7912163,0.008820635,-2.3592827,-0.02397927,1.5924569,0.8074947,0.04,0.04,0.01741603994740437,0.02717035617336369,0.01096230831130196,0.07569520804331065,-0.07599383740632291,-0.0725800790617354,0.9996820051942162,0.016083430624910366,0.01227232600928308,-0.015053297463567514
952.5499999994623,-0.01729822,-0.79150575,0.009196018,-2.3594117,-0.02500816,1.5933756,0.80841345,0.04,0.04,0.0068186616632992525,0.027325898868300197,0.00832828654679929,0.07758617598937642,-0.07759883647059941,-0.07443242370092899,0.9996542210146996,0.01675624037521343,0.012818245072094012,-0.01569584050804973
952.566666666129,-0.018032178,-0.79180264,0.009580858,-2.3595414,-0.026062932,1.5943174,0.8093552,0.04,0.04,0.01740073125289232,0.02735627345893353,0.01094945618334009,0.07948136647357586,-0.07922916113306824,-0.07628332770696748,0.9996245194922866,0.017445416406221836,0.013379567888629458,-0.016354346191217152
952.5833333327956,-0.018784253,-0.79210675,0.009975196,-2.3596752,-0.027143734,1.5952823,0.8103204,0.04,0.04,0.011465374490016167,0.02750420959004747,0.009366389264786612,0.08138165904987368,-0.08085568065129167,-0.07815191570214752,0.9995928307353971,0.018151141080337708,0.013954408610508295,-0.01702889603610715
952.5999999994623,-0.019554513,-0.7924182,0.010379074,-2.3598123,-0.028250659,1.5962709,0.8113088,0.04,0.04,0.013212221112568479,0.027550646725128455,0.01004533179898015,0.0832843598095902,-0.08249712215288034,-0.08002214966651222,0.9995590536028996,0.018873299077074607,0.014543558742910058,-0.017719532767942397
952.6166666661289,-0.020343026,-0.79273707,0.01079253,-2.359951,-0.029383792,1.5972825,0.8123206,0.04,0.04,0.01612319223252001,0.027590770730687164,0.010079680306018801,0.08519079055603193,-0.08414585162399867,-0.08190069036211875,0.999523083518823,0.019611942832252583,0.01514757416371224,-0.018426291225396272
952.6333333327956,-0.02114986,-0.79306334,0.011215599,-2.3600957,-0.030543255,1.5983177,0.8133559,0.04,0.04,0.009028522947063244,0.027701753675715007,0.00859626567668581,0.08709895172477969,-0.08579768591735848,-0.08378638720500882,0.9994848497859682,0.020367108045276944,0.015764598325480828,-0.019149240137113877
952.6499999994622,-0.02197508,-0.793397,0.011648305,-2.3602414,-0.031729136,1.5993767,0.814415,0.04,0.04,0.01784006782301617,0.02772371410559582,0.01075229352733853,0.08900843317337788,-0.08746823695031225,-0.08567696325014497,0.9994442108662175,0.021138885382431232,0.016397214719374636,-0.019888394611909204
952.6666666661289,-0.022818731,-0.79373825,0.012090679,-2.3603923,-0.032941528,1.6004591,0.8154976,0.04,0.04,0.010731259965846007,0.02779291495078745,0.00851710831022423,0.0909175765712837,-0.08913613847471717,-0.08757162847984583,0.9994011011914887,0.021927129261867125,0.017043266338268886,-0.020643812925327697
952.6833333327955,-0.023680858,-0.794087,0.012542749,-2.3605454,-0.03418048,1.6015652,0.81660384,0.04,0.04,0.016245533403314028,0.02777058007283409,0.009961483995279963,0.09282702844467466,-0.09081863018216736,-0.08947350491313699,0.9993553882645094,0.022731875751157583,0.017704413034575105,-0.021415497440560125
952.6999999994622,-0.024561511,-0.7944433,0.013004533,-2.360701,-0.035446048,1.6026951,0.81773394,0.04,0.04,0.015658871337187463,0.027792154057932478,0.009612846353923565,0.0947358979224783,-0.09250256313322527,-0.09138395307004969,0.9993069660629448,0.02355317880489518,0.018380468289030758,-0.022203462156453944
952.7166666661288,-0.02546073,-0.794807,0.013476054,-2.3608615,-0.0367383,1.603849,0.81888795,0.04,0.04,0.012050457460288655,0.027828203531201495,0.008947696860839294,0.09664188395545216,-0.09418894801189942,-0.0932880891415703,0.9992557430364862,0.024391006414879537,0.019070470310553023,-0.02300773732471986
952.7333333327955,-0.026378538,-0.7951785,0.013957331,-2.3610234,-0.038057227,1.6050267,0.8200658,0.04,0.04,0.018258619489941452,0.027737278066319176,0.009800209521104719,0.0985447144054708,-0.0958886519104511,-0.09518696672233813,0.9992015774126302,0.025245310157537754,0.019776107653901528,-0.02382829362801325
952.7499999994621,-0.027314957,-0.7955574,0.014448369,-2.3611908,-0.03940291,1.6062284,0.8212675,0.04,0.04,0.011186997883050331,0.027793908755638363,0.008297153090786047,0.10044446813458104,-0.09758272315623437,-0.0970903461304386,0.9991443962044136,0.02611600714650394,0.02049534593715424,-0.0246651677261278
952.7666666661288,-0.02827001,-0.7959438,0.014949184,-2.3613598,-0.040775336,1.6074538,0.8224931,0.04,0.04,0.017977220383524894,0.027693665341968488,0.00969246140147817,0.10234008310155411,-0.09929140198039099,-0.09899691207681258,0.9990840461130297,0.027003103912178632,0.02123008400157765,-0.02551832115974002
952.7833333327955,-0.029243713,-0.79633784,0.015459781,-2.3615324,-0.042174585,1.6087034,0.8237425,0.04,0.04,0.01508384472506119,0.027717297143484143,0.008862373698104165,0.10423115581569765,-0.10099676035324472,-0.10090511461506767,0.9990204255833163,0.02790650241666638,0.02197956823706505,-0.026387780700737978
952.7999999994621,-0.030236065,-0.7967394,0.015980164,-2.3617089,-0.043600623,1.6099766,0.825016,0.04,0.04,0.014594678243939896,0.027626095421247332,0.008450420180605711,0.10611663522314951,-0.10270654252021623,-0.10281111873033491,0.9989534209487501,0.02882625950792543,0.022743466131661734,-0.027273508866461526
952.8166666661288,-0.031247083,-0.7971486,0.016510334,-2.3618877,-0.045053486,1.6112742,0.82631344,0.04,0.04,0.017600859970090532,0.027580987035383253,0.00930052646157531,0.10799542923242686,-0.10442220735202784,-0.10471697077848391,0.9988828888141403,0.029762234921669944,0.023522869692507012,-0.028175493042969676
952.8333333327954,-0.03227676,-0.7975653,0.017050292,-2.3620715,-0.046533186,1.6125954,0.8276349,0.04,0.04,0.012865896216407435,0.027548476478561623,0.00761104761215492,0.1098675002905064,-0.10613470373658264,-0.10663224339768977,0.998808744667214,0.03071440820543379,0.02431607530924036,-0.029093731050684767
952.849999999462,-0.033325095,-0.79798967,0.017600039,-2.3622572,-0.04803968,1.6139407,0.82898015,0.04,0.04,0.01879328976019945,0.027394346042197704,0.009041481850613486,0.1117309952331351,-0.10785991542269513,-0.10853287076737728,0.9987308221958455,0.03168264294043062,0.025124979162603863,-0.03002815935748253
952.8666666661287,-0.03439207,-0.7984215,0.018159565,-2.3624465,-0.049572945,1.6153097,0.8303493,0.04,0.04,0.01570256142333637,0.027326373852801927,0.00808450036455799,0.11358623764430034,-0.10957846550391331,-0.11043121143720103,0.9986490216223659,0.032666885722831863,0.02594847269073554,-0.030978750053560194
952.8833333327954,-0.035477675,-0.7988608,0.01872886,-2.3626394,-0.05113295,1.6167027,0.8317424,0.04,0.04,0.015981964839939522,0.0272211103860151,0.008128313354593963,0.11543222712298057,-0.11130093141400921,-0.1123246325895687,0.9985632126614693,0.03366706108219369,0.026786697459444057,-0.03194545596026354
952.899999999462,-0.03658187,-0.79930764,0.019307915,-2.362835,-0.052719694,1.6181195,0.83315945,0.04,0.04,0.017930173857649834,0.027087108130404575,0.008240407432613672,0.11726840897699226,-0.11302639182198163,-0.11421797381759793,0.9984732514793018,0.034683122723466735,0.027640154191965416,-0.032928239472290004
952.9166666661287,-0.037704643,-0.7997621,0.019896718,-2.3630347,-0.054333102,1.6195604,0.8346001,0.04,0.04,0.01538381324088789,0.026975294963522967,0.007543525520636862,0.11909341291087863,-0.11474844059441154,-0.11610606224351641,0.9983790324884251,0.035714800538405825,0.02850817421648232,-0.03392704692160612
952.9333333327953,-0.03884596,-0.800224,0.020495255,-2.363237,-0.05597315,1.6210243,0.8360648,0.04,0.04,0.018248739487725096,0.026832258574951973,0.0075669334736128135,0.12090834761067501,-0.11647345355935396,-0.11798850404056486,0.9982804054819469,0.036762279195737206,0.029391086608164203,-0.03494182146262478
952.949999999462,-0.040005784,-0.80069345,0.0211035,-2.363443,-0.05763979,1.6225114,0.8375531,0.04,0.04,0.01625208319901983,0.02671288904166902,0.006899265234916463,0.12270965795119451,-0.11819980775916873,-0.11986670318673424,0.9981772617149111,0.03782519200420881,0.030288398640398752,-0.03597251663377285
952.9666666661286,-0.04118408,-0.8011704,0.021721428,-2.3636522,-0.059333004,1.6240236,0.839065,0.04,0.04,0.017865791204840775,0.02657719118923929,0.00828986151304445,0.12449947766604626,-0.1199283720716973,-0.12174986276181565,0.9980694317030495,0.038903480509222994,0.031201236677618364,-0.037019069869565026
952.9833333327953,-0.04238079,-0.80165476,0.022349019,-2.3638644,-0.06105266,1.6255592,0.84060067,0.04,0.04,0.018209671216906642,0.026358626217692915,0.007293591095680618,0.12627585871422442,-0.1216495498955827,-0.12361528970608542,0.9979567951551037,0.039997109655561115,0.032129029044277925,-0.03808138279563204
952.9999999994619,-0.043595873,-0.8021466,0.022986244,-2.3640807,-0.0627987,1.6271182,0.84216,0.04,0.04,0.016433099399049134,0.026211872940912206,0.006500100902928629,0.12803774855957933,-0.12336977868150475,-0.12547353758085278,0.9978392347834112,0.04110594638952817,0.03307120199325967,-0.03915939602443603
953.0166666661286,-0.044829246,-0.8026458,0.023633076,-2.3642993,-0.06457104,1.6287013,0.8437429,0.04,0.04,0.01961043637777049,0.025965435097068112,0.007671026106326195,0.1297846852057412,-0.12509084090863642,-0.12732554849430158,0.9977165782259035,0.04222985042701216,0.034028879109445576,-0.04025300799519612
953.0333333327952,-0.046080884,-0.80315244,0.024289485,-2.3645215,-0.06636958,1.6303076,0.84534913,0.04,0.04,0.01753094940755151,0.02582335346482112,0.006270200861924202,0.1315157670995268,-0.12680429672295168,-0.1291686242322048,0.9975887242871402,0.04336859545903956,0.03500106416878006,-0.04136215190387377
953.0499999994619,-0.047350705,-0.8036664,0.024955431,-2.3647468,-0.06819423,1.6319369,0.8469787,0.04,0.04,0.01843907521830168,0.025602715053654745,0.00639175169592221,0.13323151199353953,-0.12851752346856746,-0.13100556145647768,0.9974555261932393,0.04452210324761501,0.035987959676544105,-0.04248673142636596
953.0666666661285,-0.048638634,-0.80418783,0.025630884,-2.364975,-0.07004495,1.63359,0.8486316,0.04,0.04,0.019426993428339756,0.025391671348717892,0.006699656879871618,0.13493065107130575,-0.13022684872886375,-0.13283379707730175,0.9973168264921621,0.04569022224519477,0.03699006332578295,-0.04362667076390116
953.0833333327952,-0.04994462,-0.8047164,0.026315797,-2.3652072,-0.0719216,1.635266,0.85030764,0.04,0.04,0.016908376040492,0.025223713185328067,0.005637094707222623,0.13661261177540418,-0.13192877530873004,-0.13466076940345817,0.9971725296564811,0.046872764092242676,0.03800623195883741,-0.04478187598949369
953.0999999994618,-0.051268555,-0.80525243,0.027010143,-2.3654416,-0.07382408,1.6369649,0.8520068,0.04,0.04,0.02084259562660229,0.024889027300284416,0.00617681897769895,0.13827643316246513,-0.13363266791881773,-0.13647032470140003,0.9970224500322649,0.048069622255873655,0.039037649179458934,-0.04595223057022483
953.1166666661285,-0.052610364,-0.8057956,0.027713869,-2.36568,-0.07575221,1.6386869,0.8537288,0.04,0.04,0.01737467151612382,0.02467737724409086,0.005427041948435907,0.13992153130209267,-0.1353266362016232,-0.13826801050408,0.9968664961075062,0.04928050903183248,0.04008322788715526,-0.04713761990229253
953.1333333327951,-0.053969968,-0.806346,0.02842693,-2.3659213,-0.077705905,1.6404315,0.8554736,0.04,0.04,0.019612320918493964,0.024421682739646233,0.005466311725665918,0.1415478570808764,-0.1370212023864603,-0.14005718071770223,0.9967045063970355,0.05050533356154641,0.04114343593490567,-0.048337934266467784
953.1499999994618,-0.05534729,-0.8069035,0.029149272,-2.3661656,-0.07968501,1.6421988,0.85724115,0.04,0.04,0.019271239403662044,0.024181156611381704,0.005287043467028241,0.1431546696285234,-0.1387078908392129,-0.14183368894708429,0.9965363465322347,0.05174394771733591,0.042218113956489514,-0.049553050045059985
953.1666666661284,-0.056742214,-0.8074682,0.02988085,-2.3664138,-0.081689395,1.6439887,0.8590313,0.04,0.04,0.0183641567424786,0.0238883992958544,0.004777489716834005,0.14474109889026865,-0.140390161167741,-0.14360113444658473,0.9963618912053758,0.05299611748507207,0.04330698139689885,-0.05078285781091954
953.1833333327951,-0.058154643,-0.8080401,0.03062161,-2.3666642,-0.08371893,1.6458012,0.860844,0.04,0.04,0.021465988118629653,0.023581961423115028,0.005207591555778102,0.14630700204538988,-0.14206837431049602,-0.14536118658969116,0.996180963694762,0.05426171317350561,0.044410831038101846,-0.05202722500918966
953.1999999994617,-0.05958446,-0.8086189,0.03137151,-2.3669174,-0.08577349,1.6476362,0.86267895,0.04,0.04,0.020084848734169825,0.023295802106672314,0.004945446859427882,0.14785145437553118,-0.14373547529944378,-0.1471092911626031,0.9959934503405384,0.05554042847162269,0.04552917009012675,-0.053286042777091445
953.2166666661284,-0.061031584,-0.8092048,0.032130484,-2.3671746,-0.0878529,1.6494932,0.864536,0.04,0.04,0.01822036715743991,0.0230549951643233,0.0038648550899633705,0.1493744584642755,-0.1453933914073715,-0.14884019731614342,0.9957992443129395,0.0568320868055581,0.046661270471931256,-0.05455918596395373
953.233333332795,-0.062495872,-0.8097975,0.032898474,-2.367434,-0.089956954,1.6513724,0.8664152,0.04,0.04,0.021488764601729216,0.022625311572865847,0.0047397312608721265,0.1508750750077825,-0.14704993395774835,-0.15055740566180703,0.9955981635553663,0.058136584613975105,0.04780801633730103,-0.055846466571274116
953.2499999994617,-0.06397725,-0.8103973,0.03367541,-2.3676972,-0.09208553,1.6532735,0.86831623,0.04,0.04,0.01896609347653566,0.022437885077117303,0.0034809513064004705,0.15235245771528044,-0.14869401364994525,-0.15226251030815097,0.9953901132143997,0.059453621741185306,0.04896855326642721,-0.057147792327207785
953.2666666661283,-0.06547557,-0.8110036,0.034461234,-2.367963,-0.0942384,1.6551962,0.87023896,0.04,0.04,0.02054054027307295,0.022014467826830808,0.0040802859958777304,0.1538063613663308,-0.1503325787662077,-0.15395229488706685,0.9951749468296052,0.06078298991952248,0.050143134773442254,-0.058462974387455464
953.283333332795,-0.06699067,-0.8116173,0.03525587,-2.3682318,-0.09641546,1.6571404,0.87218344,0.04,0.04,0.02126710508818519,0.02167910965459874,0.003118507362942502,0.15523688133540503,-0.15196304581256728,-0.15563190885362443,0.9949525067314064,0.06212458996829282,0.0513319901015513,-0.05979190131093435
953.2999999994616,-0.06852248,-0.8122373,0.036059268,-2.3685038,-0.09861654,1.6591061,0.8741492,0.04,0.04,0.019444671863855234,0.021430449316428568,0.003510941318074501,0.15664267170758536,-0.1535814960142833,-0.15730250029537812,0.9947227038882289,0.06347801636273614,0.05253440833004694,-0.06113443996108083
953.3166666661283,-0.07007085,-0.81286466,0.03687137,-2.3687785,-0.10084139,1.6610931,0.8761363,0.04,0.04,0.021932148737136004,0.02092752105741502,0.002771097808018652,0.15802417796912424,-0.15519342018966378,-0.15895391939404732,0.9944853597769611,0.06484318937086542,0.05375109205944559,-0.06249039993406343
953.333333332795,-0.07163563,-0.8134982,0.037692066,-2.3690562,-0.10308979,1.6631013,0.8781445,0.04,0.04,0.019984287306185067,0.020657072166894996,0.0031192261639612084,0.15937913550751737,-0.15679207295145212,-0.16058391309530187,0.9942403884483934,0.06621981559783584,0.0549812471141203,-0.0638595996382093
953.3499999994616,-0.07321669,-0.81413794,0.03852132,-2.3693368,-0.105361596,1.6651305,0.8801736,0.04,0.04,0.02051606449686716,0.020264037593208106,0.0028950401532057413,0.1607087710225706,-0.15838229172168433,-0.1622050953080561,0.9939876563035528,0.067607645751189,0.05622488561668447,-0.06524191589417669
953.3666666661283,-0.07481388,-0.81478465,0.03935904,-2.3696203,-0.10765652,1.6671801,0.88222337,0.04,0.04,0.021361140409714707,0.019813910586764794,0.0018483335620045338,0.16201112288031894,-0.15996362616384577,-0.16380457285628472,0.9937270306601541,0.06900642949470376,0.05748210117987091,-0.06663714630514168
953.3833333327949,-0.07642709,-0.8154378,0.040205143,-2.3699064,-0.10997446,1.6692502,0.8842937,0.04,0.04,0.02146188078775424,0.01955160325406019,0.0022783589636921064,0.16328807477221582,-0.16153299535598925,-0.16539367622209517,0.9934583767019205,0.07041597893639542,0.058752876508426574,-0.06804515539845317
953.3999999994616,-0.078056134,-0.81609726,0.041059576,-2.3701954,-0.11231513,1.6713405,0.8863843,0.04,0.04,0.02085019343058825,0.019071412681892497,0.0016978738451189912,0.16453714995396773,-0.16309013933671496,-0.16696260751499106,0.9931815973098296,0.0718360082317831,0.06003674367561857,-0.06946576203603357
953.4166666661282,-0.07970087,-0.8167632,0.041922234,-2.370487,-0.114678405,1.6734512,0.8884951,0.04,0.04,0.021864160512885533,0.01872424335423173,0.0018603911223546987,0.16576028166114715,-0.16463482861794873,-0.1685297826341703,0.9928965374000807,0.07326626948067522,0.06133415538348396,-0.07089880928978964
953.4333333327949,-0.08136112,-0.8174354,0.042793047,-2.3707814,-0.11706397,1.6755818,0.8906258,0.04,0.04,0.021034777819961548,0.018244710635123562,0.0013928534052132235,0.1669535600878245,-0.16616774947501495,-0.17006316509634753,0.9926031104964866,0.07470647699397522,0.06264455229420013,-0.07234409026110743
953.4499999994615,-0.08303674,-0.81811374,0.04367191,-2.371079,-0.11947162,1.6777321,0.89277613,0.04,0.04,0.020695115195934477,0.01789460772853302,0.0009850550013679182,0.16811935789245347,-0.16768655134335486,-0.17158515261178325,0.992301209056019,0.07615636904356028,0.06396769960755308,-0.073801432011727
953.4666666661282,-0.0847276,-0.81879824,0.04455878,-2.371379,-0.121901095,1.6799021,0.89494586,0.04,0.04,0.02207592641849665,0.017407837181537822,0.0011500385559859438,0.16925623599737288,-0.16919545812172182,-0.17308691443117719,0.9919906951360575,0.07761564357508284,0.06530392407970541,-0.0752706459099379
953.4833333327948,-0.0864335,-0.8194888,0.045453526,-2.3716812,-0.12435216,1.6820911,0.8971354,0.04,0.04,0.02193877086278384,0.01699577146946074,0.0006236926153535549,0.17036484512087802,-0.17068900192745615,-0.17457177297102744,0.9916714457683719,0.07908436364715282,0.06665292620731528,-0.07675151140006506
953.4999999994615,-0.088154234,-0.8201855,0.046356067,-2.371987,-0.1268246,1.6842993,0.8993441,0.04,0.04,0.02003045914853452,0.016571810519588892,0.00012595390990188804,0.17144195837236745,-0.17216772382771284,-0.17604076945086444,0.9913433969917939,0.0805620142943476,0.06801416138929442,-0.07824388119283868
953.5166666661281,-0.08988968,-0.8208881,0.04726633,-2.3722947,-0.12931815,1.6865267,0.9015711,0.04,0.04,0.023413766319757556,0.016063346686925883,0.0006851369619642611,0.17248838794225307,-0.17363641487563228,-0.17748887662477697,0.9910064039907974,0.08204804108811728,0.06938843342331825,-0.07974754861366319
953.5333333327948,-0.09163965,-0.8215967,0.048184205,-2.3726053,-0.13183254,1.6887722,0.903817,0.04,0.04,0.02067549987017081,0.015682119851601062,-0.0005667690744726173,0.17350932146316306,-0.17508367867601532,-0.1789297560192301,0.990660398209589,0.08354257326569185,0.07077464685092846,-0.08126231127953079
953.5499999994614,-0.09340399,-0.82231104,0.049109608,-2.3729184,-0.13436751,1.6910365,0.9060811,0.04,0.04,0.022096797556914183,0.015185195786304728,7.5843225699756545e-06,0.17449627828790315,-0.17651991888767615,-0.18033940368121631,0.9903052583719226,0.08504507769014578,0.07217328421249017,-0.08278796438842873
953.5666666661281,-0.095182456,-0.82303107,0.050042447,-2.3732336,-0.13692284,1.6933187,0.90836346,0.04,0.04,0.022248524731338648,0.014691084344742311,-0.00045667031036700223,0.1754542714349263,-0.1779407438157457,-0.18173176419435635,0.9899408821295517,0.08655544553888872,0.0735840639267507,-0.08432431601948225
953.5833333327947,-0.09697489,-0.82375675,0.050982606,-2.3735518,-0.13949819,1.6956189,0.9106638,0.04,0.04,0.020626179894067675,0.014249656972986635,-0.0010189160135620767,0.17638047797418727,-0.1793431895778634,-0.18310473382425355,0.9895672136429169,0.08807332455809976,0.07500644164029241,-0.08587114123347184
953.5999999994614,-0.09878112,-0.8244881,0.051929995,-2.373872,-0.14209338,1.6979368,0.91298175,0.04,0.04,0.0228677301414848,0.01378019960255883,-0.0008007986108227172,0.17727519597156197,-0.18073284075558907,-0.18445849388168883,0.9891841099124298,0.08959842845021469,0.07644094450248407,-0.08742825812958892
953.616666666128,-0.10060094,-0.825225,0.05288452,-2.3741946,-0.14470804,1.7002721,0.9153172,0.04,0.04,0.021850898188846557,0.013249938096804303,-0.0012671860081248099,0.1781389195629009,-0.18210341294275748,-0.18579397380562296,0.9887915094277718,0.09113048945539974,0.07788709462480349,-0.08899542272541178
953.6333333327947,-0.10243419,-0.8259673,0.053846087,-2.3745198,-0.14734197,1.7026244,0.91766983,0.04,0.04,0.021272822263318503,0.012828371175932496,-0.0016502034742682525,0.1789702109020478,-0.18345618556387136,-0.1871059795523931,0.9883893409757474,0.09266921923198844,0.07934453065604676,-0.09057246771195544
953.6499999994613,-0.104280606,-0.8267149,0.054814562,-2.374847,-0.14999485,1.7049938,0.9200394,0.04,0.04,0.022472501980086435,0.01226427930386964,-0.0013954959148243518,0.17977031170122737,-0.18479245343082173,-0.18840493691891944,0.9879774986969401,0.09421428941532502,0.08081351028676653,-0.09215913570359689
953.666666666128,-0.10614003,-0.8274677,0.055789873,-2.375177,-0.1526664,1.70738,0.9224257,0.04,0.04,0.0207753637485375,0.011806330925101527,-0.0020166595347648197,0.1805379919024377,-0.18610956978763582,-0.18968192467157954,0.9875559403012658,0.09576539644360715,0.08229343145148313,-0.09375523857162038
953.6833333327946,-0.10801227,-0.8282258,0.05677189,-2.3755093,-0.15535639,1.7097826,0.92482835,0.04,0.04,0.02162343856770832,0.011343977084637968,-0.0023323192431368156,0.18127291626466924,-0.18741127026506355,-0.19093626782085893,0.9871245757126245,0.09732225789855785,0.0837843120331646,-0.09536057465654836
953.6999999994613,-0.109897055,-0.82898897,0.05776052,-2.375843,-0.15806444,1.7122014,0.9272471,0.04,0.04,0.023115506269499875,0.010658876678482088,-0.002021993344558659,0.18197515466184572,-0.18869442605164827,-0.1921685531411044,0.9866833060801233,0.09888453654054329,0.08528643703699973,-0.09697487093826773
953.7166666661279,-0.11179426,-0.82975715,0.058755644,-2.37618,-0.1607902,1.7146362,0.92968184,0.04,0.04,0.020075179617062844,0.010302545848339673,-0.0027705828157698065,0.18264475371454195,-0.18995437591747194,-0.1933758735493924,0.9862321255648219,0.10045199901605162,0.08679887724897331,-0.09859789706626691
953.7333333327946,-0.11370362,-0.83053035,0.059757173,-2.376519,-0.1635335,1.7170863,0.9321321,0.04,0.04,0.02155369328096235,0.009720187340597763,-0.003101829134344314,0.1832815274116234,-0.19119843647249762,-0.19456731211020517,0.985770955058893,0.10202428306327578,0.08832167732926366,-0.10022949237349225
953.7499999994612,-0.11562497,-0.83130825,0.06076496,-2.3768594,-0.16629396,1.7195518,0.93459785,0.039999995,0.04,0.022634507981900143,0.00923889258152566,-0.002692192127629056,0.18388485438103824,-0.19242394304860994,-0.1957360718191346,0.9852996943499436,0.10360118506097596,0.08985509228042579,-0.10186937301831782
953.7666666661279,-0.117558025,-0.83209103,0.06177892,-2.3772023,-0.16907123,1.7220324,0.9370787,0.039999995,0.04,0.021088931206936223,0.008577869255924075,-0.003376586652681368,0.18445408910481265,-0.19362796769597532,-0.19688035801661305,0.98481832933319,0.10518233229448287,0.09139860418887177,-0.1035172948584122
953.7833333327945,-0.11950262,-0.8328785,0.062798925,-2.377547,-0.17186505,1.7245278,0.9395743,0.03999998,0.04,0.02160632992160849,0.008169440244237824,-0.0034099073145110737,0.18499084398190938,-0.19481041875714222,-0.19800680214349275,0.9843268025302849,0.10676738791058103,0.09295212778781478,-0.1051730604241154
953.7999999994612,-0.121458516,-0.8336703,0.0638249,-2.3778942,-0.17467523,1.7270379,0.9420845,0.03999998,0.04,0.020498000727187105,0.007673871198737858,-0.0035813029212183878,0.18549499540180797,-0.19597107659749705,-0.19911588589961005,0.983825082467106,0.10835606313544305,0.09451524283047191,-0.10683650856835854
953.8166666661278,-0.12342552,-0.83446693,0.06485664,-2.378243,-0.17750137,1.729562,0.944609,0.039999988,0.04,0.02201130916934524,0.007163290094366892,-0.0040777125364321876,0.1859648862811681,-0.19711401349366697,-0.2002006158886228,0.9833130876372692,0.109948149309963,0.09608816060636093,-0.10850733401876747
953.8333333327945,-0.12540339,-0.83526784,0.065894105,-2.3785934,-0.18034306,1.7321002,0.9471473,0.039999984,0.04,0.021497282434568277,0.006471892005086022,-0.003826101544390781,0.18639997855224572,-0.19823188255430424,-0.20125904720369875,0.9827908090303029,0.11154317272846212,0.09767061563468198,-0.11018528551840832
953.8499999994611,-0.12739184,-0.83607316,0.06693714,-2.378946,-0.1832,1.734652,0.9496993,0.039999973,0.04,0.020613387735135547,0.005941030033154715,-0.004460249377435943,0.18680153514786735,-0.19932871992203652,-0.20229302069241695,0.9822582332636645,0.11314087229362842,0.09926217981276253,-0.11187012944124221
953.8666666661278,-0.12939075,-0.8368826,0.067985654,-2.3793004,-0.18607186,1.7372172,0.95226467,0.03999996,0.04,0.02106942946751289,0.0054567587075643464,-0.004349472395648313,0.18716984449195995,-0.20040338823598486,-0.20330543433871012,0.9817153132347777,0.11474099673232263,0.10086279996215876,-0.1135616264986069
953.8833333327945,-0.13139986,-0.83769614,0.0690395,-2.3796566,-0.18895835,1.7397951,0.9548429,0.039999947,0.04,0.02041524957285823,0.004983481504711174,-0.004903486769025633,0.18750402547568182,-0.20145521326150376,-0.20429708909153843,0.9811620601407287,0.11634313527259296,0.10247202530549054,-0.11525957940724502
953.8999999994611,-0.13341889,-0.8385137,0.070098564,-2.3800144,-0.19185911,1.7423863,0.957434,0.039999932,0.04,0.021000749415867048,0.004303463499730209,-0.004393748402908848,0.18780482836268084,-0.20248619177355343,-0.20526473854777144,0.9805984020055268,0.11794701474744616,0.10409019921289557,-0.11696369575296603
953.9166666661278,-0.13544764,-0.83933514,0.0711627,-2.3803742,-0.19477387,1.7449898,0.9600376,0.03999993,0.04,0.019996550370748878,0.003901461028543718,-0.005306597918286471,0.1880718043532275,-0.20349131710131838,-0.20620797495082402,0.9800243708350769,0.11955239484926806,0.10571655760354497,-0.11867378355632242
953.9333333327944,-0.13748585,-0.8401605,0.07223184,-2.3807356,-0.19770217,1.7476056,0.9626534,0.039999913,0.04,0.02046790331502457,0.003153807011821441,-0.005060983822624543,0.1883045234487023,-0.2044742407944003,-0.2071291112725902,0.9794399304044471,0.12115891622899236,0.10735127989706889,-0.12038954461251593
953.949999999461,-0.13953331,-0.8409895,0.0733058,-2.3810987,-0.20064384,1.7502332,0.96528107,0.039999906,0.04,0.019953116593374176,0.0028334984903899407,-0.0053768565310141625,0.1885038099870522,-0.2054324617343171,-0.20802782423294564,0.9788450927516326,0.12276627804860746,0.10899392121641077,-0.12211081241237678
953.9666666661277,-0.14158973,-0.84182215,0.0743845,-2.3814633,-0.20359838,1.7528721,0.96792024,0.039999902,0.04,0.02022521222779794,0.0020509087352904576,-0.005674705090630283,0.1886683426211168,-0.20636881977245117,-0.20890004259707345,0.9782398613514178,0.12437413638328815,0.11064436306821243,-0.12383728349450987
953.9833333327944,-0.1436549,-0.84265846,0.07546778,-2.381829,-0.20656547,1.7555223,0.9705706,0.039999884,0.04,0.020535995159187692,0.0015685761811934373,-0.005694121280686026,0.18880004211487014,-0.20727785593193276,-0.20974954789204112,0.9776242166579461,0.1259822119278164,0.11230260129251456,-0.12556870240886625
953.999999999461,-0.14572862,-0.84349823,0.07655553,-2.3821964,-0.20954476,1.7581834,0.97323185,0.039999865,0.04,0.01932899486147832,0.0010903407371226637,-0.0059252397328624085,0.18889872227402876,-0.20816209293290205,-0.21058059843660562,0.9769982012010616,0.12759016417627683,0.1139681560610611,-0.12730484774509696
954.0166666661277,-0.14781061,-0.8443413,0.077647634,-2.3825655,-0.21253605,1.7608551,0.9759038,0.039999865,0.04,0.01895865574170763,0.0005783509985923807,-0.0060689201342389865,0.18896341880287343,-0.20902140867758734,-0.21138326386606954,0.9763618229077183,0.12919774587984917,0.11564074716548067,-0.12904553778760633
954.0333333327943,-0.14990059,-0.8451876,0.078743935,-2.382936,-0.2155388,1.7635373,0.97858584,0.03999985,0.04,0.019282847640633705,-0.0001259047988616535,-0.006084320004617894,0.1889947096073628,-0.20985539766656958,-0.21216524699660697,0.9757151116295318,0.13080448456528035,0.11732037531512554,-0.13079043272082097
954.049999999461,-0.15199833,-0.8460371,0.079844296,-2.383308,-0.21855274,1.7662292,0.98127794,0.039999854,0.04,0.018740152952245737,-0.0005500122318091716,-0.0065894209049233154,0.18899395045909761,-0.21066388555501211,-0.21292105373215942,0.9750580934038426,0.1324102755651019,0.11900655599337205,-0.13253932640176397
954.0666666661276,-0.15410356,-0.8468898,0.08094861,-2.383681,-0.22157747,1.7689308,0.98397976,0.039999843,0.04,0.01925744757138581,-0.0012432120318206508,-0.006477582824526706,0.18895753184369976,-0.21144871114602787,-0.21364950697630397,0.9743907628247072,0.13401476130813425,0.12069945732783577,-0.13429194344477702
954.0833333327943,-0.15621608,-0.8477452,0.082056746,-2.3840554,-0.2246126,1.7716417,0.98669094,0.039999835,0.04,0.018341225662243943,-0.00168774041132691,-0.006447387163555085,0.18888830931600237,-0.21220422509750075,-0.21435272523727916,0.9737131972002026,0.13561763289107664,0.12239853742552696,-0.1360480256500353
954.0999999994609,-0.15833563,-0.84860355,0.083168544,-2.384431,-0.22765777,1.7743617,0.989411,0.03999981,0.04,0.018533463093817204,-0.0022729031372015207,-0.0068121992357061956,0.18878761478892783,-0.2129354468120067,-0.2150375932844873,0.9730254197763669,0.1372185275289021,0.12410377684091277,-0.13780733197346895
954.1166666661276,-0.16046192,-0.8494646,0.08428389,-2.3848076,-0.23071267,1.7770903,0.9921398,0.0399998,0.04,0.01790165480013428,-0.002785641399449812,-0.006918538825839704,0.18865299420470077,-0.2136376043792596,-0.21569102015043873,0.9723274843763587,0.1388172304405613,0.1258147718168866,-0.13956963441887654
954.1333333327942,-0.16259474,-0.8503284,0.08540266,-2.3851852,-0.23377691,1.7798275,0.9948769,0.039999787,0.04,0.018341584827341606,-0.003380626638826989,-0.006883685658687355,0.18848610263691135,-0.2143140457707805,-0.21632388304596922,0.9716194117035571,0.1404133710632418,0.1275316162197343,-0.14133467689096066
954.1499999994609,-0.16473383,-0.85119474,0.086524725,-2.3855643,-0.23685014,1.7825727,0.9976221,0.03999978,0.04,0.016945490840125643,-0.0038480042674260417,-0.007205393993259257,0.18828663843454846,-0.21496124958120372,-0.2169294669761901,0.970901297649414,0.1420066885338449,0.12925371744908873,-0.14310222625775854
954.1666666661275,-0.16687885,-0.8520635,0.087649904,-2.3859446,-0.23993199,1.7853256,1.0003749,0.03999976,0.04,0.016861465223660943,-0.004428762788499796,-0.00729549508784455,0.18805527099626523,-0.21558103162892647,-0.21751114073603303,0.970173212106714,0.14359686470396815,0.13098083202763622,-0.144872014547597
954.1833333327942,-0.16902965,-0.85293436,0.08877812,-2.3863256,-0.24302204,1.7880858,1.0031352,0.039999742,0.04,0.017194929165720296,-0.004953627999293442,-0.0072106104263447435,0.18779185892752598,-0.21617436527736572,-0.21806801715982854,0.9694351916550916,0.14518369346905682,0.13271286112847802,-0.14664378889824153
954.1999999994608,-0.17118587,-0.8538074,0.0899092,-2.3867078,-0.24611998,1.7908531,1.0059026,0.039999727,0.04,0.01616116700544623,-0.005513957568037409,-0.007384056065795619,0.1874960872080778,-0.21673925624996038,-0.21859988028155752,0.968687327579569,0.1467668320604687,0.13444947712948357,-0.14841730523525762
954.2166666661275,-0.17334731,-0.8546826,0.09104298,-2.3870907,-0.24922544,1.7936269,1.0086765,0.03999972,0.04,0.016679360138649457,-0.0059305858482128215,-0.007749817856450569,0.18716897076454875,-0.21727759110240835,-0.2191068741354253,0.9679296929750991,0.14834591594269328,0.136190514991473,-0.15019235102564665
954.2333333327941,-0.1755137,-0.8555598,0.09217937,-2.3874743,-0.252338,1.7964069,1.011457,0.039999705,0.04,0.016155556431840523,-0.006573677393728605,-0.0076765083587782,0.18681025485827774,-0.21778677166436328,-0.21958641876544158,0.9671623498582863,0.14992083597707678,0.1379357327141624,-0.15196863359634327
954.2499999994608,-0.17768478,-0.856439,0.09331821,-2.3878584,-0.25545716,1.7991933,1.0142431,0.039999682,0.04,0.016572833257733066,-0.007177620363063575,-0.007413916962750733,0.18642056333317764,-0.2182675425099914,-0.22004375574238952,0.9663853761586488,0.15149105521367792,0.13968527613680126,-0.15374585707438979
954.2666666661274,-0.17986025,-0.8573201,0.094459385,-2.3882432,-0.2585828,1.8019848,1.017035,0.03999967,0.04,0.01535552000833107,-0.007556838098526919,-0.008240035278905822,0.1860014772819342,-0.2187163282387661,-0.22047341074372495,0.9655988904361241,0.1530564899943319,0.14143834639714772,-0.15552391400547208
954.2833333327941,-0.18203989,-0.858203,0.09560274,-2.388629,-0.2617143,1.8047822,1.0198323,0.039999653,0.04,0.014999449675512366,-0.008173101674996408,-0.007746269519026683,0.18555202914351626,-0.21913732595437171,-0.22087825147420004,0.9648029644917429,0.15461680000487113,0.14319508781684243,-0.15730242111717552
954.2999999994607,-0.18422341,-0.8590873,0.09674814,-2.3890157,-0.26485157,1.8075842,1.0226347,0.039999638,0.04,0.01376474550620621,-0.008413564178905153,-0.008136644888656619,0.18507289028012175,-0.21952773563628275,-0.22125867638423333,0.9639977431157808,0.15617184863258174,0.14495466189854858,-0.1590812715445807
954.3166666661274,-0.18641056,-0.85997295,0.097895466,-2.3894033,-0.26799393,1.8103908,1.0254419,0.039999627,0.04,0.013557340268421925,-0.009144715628189859,-0.008038687364364527,0.18456049534534869,-0.21989269450357635,-0.2216100868492574,0.963183350045546,0.15772122556964088,0.1467169967268558,-0.1608601009302844
954.333333332794,-0.18860106,-0.86086017,0.09904451,-2.3897917,-0.27114117,1.8132019,1.0282531,0.039999608,0.04,0.013988430940381491,-0.009521664594930312,-0.008212795304429754,0.18402096247431984,-0.2202293466284535,-0.22194108774935117,0.9623598589176018,0.15926456985279497,0.14848211153429372,-0.16263874473204565
954.3499999994607,-0.19079466,-0.8617486,0.1001952,-2.3901806,-0.27429286,1.8160169,1.0310681,0.039999593,0.04,0.013598894541644313,-0.010094748238520523,-0.008105343679032373,0.18345159220944385,-0.22053609356666432,-0.22224216285034837,0.961527394714015,0.1608016587671173,0.15024967598773856,-0.16441694139534926
954.3666666661273,-0.1929911,-0.86263806,0.101347335,-2.3905694,-0.27744848,1.8188355,1.0338869,0.03999958,0.04,0.013981404465379654,-0.010616836332427715,-0.008049345169602873,0.18285469863293546,-0.2208140423622408,-0.22251687790741664,0.9606860265970308,0.1623324460987721,0.1520196657740373,-0.1661943334255054
954.383333332794,-0.19519004,-0.86352867,0.10250084,-2.3909588,-0.2806078,1.8216573,1.0367091,0.039999563,0.04,0.012849272027581904,-0.011110727145324795,-0.008343838125624004,0.18222860494912435,-0.22106050937522076,-0.22277011589709805,0.9598359084176812,0.16385655125252116,0.15379164966724404,-0.16797079512898244
954.3999999994606,-0.19739127,-0.8644202,0.10365554,-2.3913481,-0.2837704,1.8244821,1.0395343,0.03999954,0.04,0.013160294121261629,-0.011537658224863856,-0.008128595626999413,0.1815750457896635,-0.22127575697947838,-0.22299550664192164,0.9589771289076374,0.16537379947922334,0.15556558418278227,-0.16974605060424705
954.4166666661273,-0.19959448,-0.86531246,0.1048113,-2.391738,-0.28693587,1.8273096,1.0423616,0.03999952,0.04,0.011798790579753415,-0.012058070917153607,-0.008203341189338964,0.18089299711030044,-0.2214597881575862,-0.22319509258494857,0.9581099284981097,0.1668835510913986,0.15734094946323376,-0.17151988488358935
954.433333332794,-0.20179945,-0.8662055,0.10596796,-2.3921278,-0.29010385,1.8301394,1.0451913,0.039999504,0.04,0.012294587663541634,-0.012422113430488047,-0.008313546458049714,0.18018631732089851,-0.22161437899949865,-0.22336731131128323,0.9572343376361024,0.1683859641244499,0.15911775266088762,-0.1732920388373344
954.4499999994606,-0.20400587,-0.86709917,0.107125424,-2.3925185,-0.293274,1.832971,1.0480235,0.03999948,0.04,0.009851106717162494,-0.012849371265799547,-0.008595703391267584,0.1794524312370392,-0.2217366211003174,-0.22351346902799527,0.9563505593722433,0.16988095381588844,0.16089520314780928,-0.1750622824112222
954.4666666661273,-0.20621353,-0.8679933,0.108283475,-2.3929093,-0.29644582,1.8358041,1.0508564,0.039999478,0.04,0.011169025036839031,-0.013253676831426198,-0.00834512758915995,0.17868819031928507,-0.2218321085420426,-0.22363402781099578,0.9554587802778767,0.1713676864162672,0.1626734069017914,-0.17683042139069882
954.4833333327939,-0.20842211,-0.86888784,0.10944204,-2.3932998,-0.29961905,1.8386384,1.0536904,0.03999945,0.04,0.011189407789125028,-0.013843188988216237,-0.008322131654003861,0.1779019703393051,-0.22189708988938953,-0.22372835317349243,0.9545590593337455,0.17284627082927628,0.16445230903785882,-0.17859621204382733
954.4999999994606,-0.2106314,-0.86978257,0.11060092,-2.3936903,-0.30279315,1.8414737,1.0565262,0.039999433,0.04,0.010082671335442939,-0.014143307554964624,-0.008266464890205327,0.1770900000820026,-0.22193120006331585,-0.22379304758849314,0.9536515151774249,0.17431691277133987,0.16623157123263696,-0.18035926992311654
954.5166666661272,-0.21284108,-0.8706775,0.11176001,-2.394081,-0.3059678,1.8443094,1.0593623,0.039999407,0.04,0.009203310537264642,-0.014604826267061721,-0.008478811653978013,0.17624936620300596,-0.22193190727400483,-0.2238351091631828,0.9527364085218478,0.17577889025394794,0.16801071708396,-0.1821195117578426
954.5333333327939,-0.2150508,-0.8715725,0.1129192,-2.394472,-0.3091426,1.8471452,1.0621984,0.039999392,0.04,0.009110679563173463,-0.01517379440496569,-0.008515921767759949,0.17538485398310025,-0.22190272385574994,-0.22385067252922308,0.9518139002777397,0.1772319711608505,0.16978955709606913,-0.18387668133191082
954.5499999994605,-0.21726038,-0.87246734,0.11407829,-2.3948627,-0.31231722,1.849981,1.0650343,0.03999937,0.04,0.008546885609250765,-0.015367280195954791,-0.008206670080102008,0.17449618585812227,-0.22184449992604174,-0.22383864514864737,0.9508841348046335,0.1786759831634622,0.17156789775017592,-0.18563057851280565
954.5666666661272,-0.21946952,-0.8733622,0.11523715,-2.3952532,-0.31549117,1.8528162,1.0678698,0.039999347,0.04,0.008717461667329118,-0.01591050701448271,-0.008430015093985332,0.1735858990914812,-0.22175569385114585,-0.22380377472556,0.9499472356212677,0.18011087729325087,0.17334567931062375,-0.1873808871803784
954.5833333327938,-0.22167796,-0.8742567,0.11639564,-2.3956437,-0.3186641,1.8556503,1.0707034,0.03999933,0.04,0.007249091226491089,-0.016157214178480483,-0.008528902647930714,0.1726510371960158,-0.22163371979871854,-0.22374232285612516,0.9490035530323246,0.18153588424886255,0.17512210399804526,-0.18912754361357603
954.5999999994605,-0.22388543,-0.8751507,0.117553614,-2.3960342,-0.3218357,1.8584831,1.0735359,0.039999317,0.04,0.006818062072921904,-0.016502541067414667,-0.00837451453223892,0.17169656505017944,-0.22148532478876037,-0.22365278519034004,0.9480531466611939,0.1829513386901836,0.17689711571290911,-0.19087024186533647
954.6166666661271,-0.22609174,-0.8760443,0.118710935,-2.3964248,-0.3250055,1.8613148,1.0763675,0.03999929,0.04,0.006754414611220838,-0.016902356929482387,-0.008136690084303844,0.1707199981559951,-0.221308500937335,-0.22353930294556623,0.9470961054060015,0.1843572507420267,0.17867084255266025,-0.1926086738575082
954.6333333327938,-0.22829646,-0.87693727,0.11986746,-2.3968146,-0.32817313,1.8641438,1.0791962,0.03999927,0.04,0.006872765987919749,-0.017393918812530496,-0.008603353943259506,0.16971893868954666,-0.2210978042782794,-0.22340047940663954,0.946132786650853,0.18575277850930522,0.18044261733330766,-0.19434278260401122
954.6499999994604,-0.23049937,-0.87782955,0.121023074,-2.3972042,-0.33133838,1.8669709,1.0820239,0.039999258,0.04,0.00591435372236937,-0.017647060220615796,-0.008118088023012504,0.1686992270210138,-0.22086054596953278,-0.22323229614069037,0.9451631548286319,0.1871386203677325,0.18221258991897762,-0.19607223055870973
954.6666666661271,-0.23270021,-0.8787211,0.12217762,-2.3975933,-0.33450052,1.8697953,1.0848482,0.03999925,0.04,0.005733477004765675,-0.01816550038101772,-0.008248581080771977,0.1676541226135328,-0.22058892567158517,-0.22303892368650402,0.9441875920411574,0.18851376910955567,0.1839803460942346,-0.19779682035532203
954.6833333327937,-0.23489872,-0.87961173,0.12333093,-2.397982,-0.33765933,1.8726166,1.0876691,0.039999228,0.04,0.004979302274499275,-0.01831471933446127,-0.008227135807614694,0.16659282414919893,-0.22028844058287422,-0.2228198898717404,0.9432062745121391,0.18987822389107067,0.18574552503014352,-0.199516374626696
954.6999999994604,-0.23709466,-0.88050115,0.1244829,-2.3983698,-0.34081447,1.8754348,1.0904874,0.0399992,0.04,0.004837019319481328,-0.01865216113031698,-0.007902237210988261,0.16551277575320877,-0.2199589504978708,-0.22257557422356836,0.9422192835061781,0.19123222772942786,0.18750811361595066,-0.20123062439631936
954.716666666127,-0.23928773,-0.8813895,0.12563334,-2.3987577,-0.34396544,1.8782493,1.0933027,0.039999176,0.04,0.003143571794472777,-0.018917976085414123,-0.008193626551045163,0.16440925328945474,-0.21959730113550482,-0.22229926211556594,0.9412268599743576,0.1925757290139084,0.18926762144852596,-0.20293928680467502
954.7333333327937,-0.24147768,-0.8822765,0.1267821,-2.3991454,-0.34711194,1.8810598,1.0961131,0.039999153,0.04,0.0027442557742229923,-0.019123729839198855,-0.00804604202864212,0.16328481956965812,-0.2192055849259204,-0.22200282660792262,0.9402293842369559,0.193907730733476,0.1910235627434724,-0.2046423598768818
954.7499999994603,-0.24366425,-0.88316214,0.12792909,-2.3995318,-0.3502536,1.883866,1.0989187,0.039999135,0.04,0.0042649050671084154,-0.019638577498853893,-0.007848143061628399,0.16214512382491447,-0.21878840544048458,-0.22167637657237155,0.9392268865499966,0.19522837567785742,0.19277632677871198,-0.20633958598749869
954.766666666127,-0.24584714,-0.8840463,0.12907425,-2.3999176,-0.35339004,1.8866673,1.1017197,0.039999105,0.04,0.002552833861102499,-0.01995631156166411,-0.007956750410542668,0.16099151273609508,-0.21833858962538985,-0.22132669491356854,0.9382196006772342,0.19653775414614275,0.1945253283972611,-0.20803073982510253
954.7833333327936,-0.24802609,-0.8849288,0.13021725,-2.4003024,-0.3565208,1.8894633,1.1045165,0.039999094,0.04,0.002321537062188739,-0.020009355563255227,-0.007868754416651136,0.15981946691169405,-0.21786044163133073,-0.22095023543557463,0.9372076708353059,0.19783607843400233,0.19627043004685,-0.20971548842787197
954.7999999994603,-0.2502008,-0.8858097,0.13135807,-2.4006865,-0.35964552,1.8922545,1.1073076,0.039999068,0.04,0.0018501336354947995,-0.02052495712600022,-0.007513109013324026,0.15862763309946998,-0.21734997708034698,-0.22055106576988398,0.9361913880530189,0.19912256088350452,0.19801156157551802,-0.21139373728893118
954.8166666661269,-0.25237107,-0.8866887,0.13249652,-2.4010694,-0.36276382,1.8950394,1.1100929,0.039999053,0.04,0.0014569554159127307,-0.020555810036076982,-0.007832412344699335,0.1574215645659613,-0.2168106904364657,-0.22012261185482568,0.9351709645473643,0.20039739336640996,0.19974817083876775,-0.21306529526430895
954.8333333327936,-0.25453654,-0.88756585,0.13363256,-2.401452,-0.36587533,1.8978184,1.1128718,0.039999038,0.04,-0.00045452668868684043,-0.020970002409126387,-0.007668645690261933,0.156198987023698,-0.21624260430901546,-0.21966939010926306,0.9341467146771586,0.20166010019185984,0.20147986274172472,-0.21473002668014507
954.8499999994602,-0.256697,-0.88844097,0.13476606,-2.4018338,-0.36897972,1.9005913,1.1156448,0.039999016,0.04,0.00031209219528705034,-0.02124458176827604,-0.00735428747760114,0.1549646795050036,-0.21564707484247161,-0.21919198534688997,0.9331186863302418,0.20291101916495383,0.20320683697884237,-0.21638765428697113
954.8666666661269,-0.25885233,-0.88931406,0.13589665,-2.4022143,-0.37207648,1.9033573,1.1184107,0.039999,0.04,0.00014859419574797528,-0.021057119021750115,-0.007601093847342533,0.15371213204682316,-0.21502237315905662,-0.21868445970371286,0.9320871776378682,0.20414980323295873,0.20492874651251744,-0.21803797828778781
954.8833333327935,-0.26100206,-0.8901848,0.1370244,-2.402594,-0.37516528,1.9061161,1.1211696,0.039998967,0.04,-0.0015864070197491031,-0.02163377730352578,-0.0073370695950814024,0.1524459490382522,-0.21436913475081062,-0.21815032125821565,0.9310524657245526,0.2053763417393026,0.20664508762505393,-0.21968084140963615
954.8999999994602,-0.263146,-0.89105326,0.13814908,-2.402973,-0.37824592,1.9088677,1.123921,0.03999894,0.04,-0.0014233650570183443,-0.02161546818125748,-0.007241285864534319,0.15116793390278074,-0.21368865920324076,-0.2175952203619582,0.9300147061348492,0.20659056384150723,0.20835586342648574,-0.22131610759355452
954.9166666661268,-0.265284,-0.8919193,0.13927062,-2.4033508,-0.38131785,1.9116116,1.126665,0.03999892,0.04,-0.002066239823239613,-0.02185485733445791,-0.007270112077351065,0.14987762735854593,-0.212979335308582,-0.21701400228175158,0.9289741184520679,0.20779252181559651,0.21006079282106208,-0.22294353196068495
954.9333333327935,-0.26741573,-0.8927828,0.14038886,-2.4037268,-0.3843808,1.9143473,1.1294006,0.0399989,0.04,-0.0008920711125792735,-0.022167778882331568,-0.006966592325219345,0.1485737242948264,-0.21224213659088473,-0.21640801554449346,0.9279308889808116,0.2089819044644947,0.21175999130690246,-0.22456298662819396
954.9499999994601,-0.2695408,-0.89364374,0.14150369,-2.4041018,-0.38743433,1.9170744,1.132128,0.039998885,0.04,-0.003261310843383214,-0.022377837772113995,-0.007163572428048326,0.14725860377143374,-0.211475468326366,-0.2157747567018746,0.9268853242658004,0.21015874441326024,0.21345279946161974,-0.2261742695562905
954.9666666661268,-0.27165902,-0.8945018,0.14261495,-2.404476,-0.3904781,1.9197928,1.1348468,0.039998867,0.04,-0.004044259076829704,-0.02233574411025785,-0.006911292758293719,0.14593230968871343,-0.2106830163323137,-0.21511774535246733,0.9258376736965072,0.211322980531784,0.21513890726728752,-0.2277771947391585
954.9833333327934,-0.27377027,-0.895357,0.14372246,-2.4048486,-0.3935117,1.9225023,1.1375561,0.03999885,0.04,-0.0034074904929681793,-0.02247835707834267,-0.006666769131946637,0.14459511291139468,-0.2098643010666279,-0.21443730077664447,0.9247881425750379,0.21247428915602293,0.2168184212899371,-0.22937161984341795
954.9999999994601,-0.27587423,-0.8962093,0.14482623,-2.4052198,-0.39653492,1.9252021,1.1402563,0.03999883,0.04,-0.004152413944691347,-0.022740901401174796,-0.0068488846474146214,0.14324823791816635,-0.20901823700652816,-0.2137282032058755,0.9237369039733773,0.21361294712371945,0.218490991621768,-0.2309574152066459
955.0166666661268,-0.27797058,-0.89705837,0.14592598,-2.40559,-0.39954728,1.9278924,1.1429468,0.039998807,0.04,-0.005692738989804269,-0.0226853539584293,-0.006448511582912708,0.1418894266842723,-0.20814567824403027,-0.21299070341391552,0.9226842917312413,0.2147387089080059,0.22015623084202568,-0.23253433877682053
955.0333333327934,-0.28005916,-0.8979046,0.14702165,-2.405959,-0.4025483,1.9305727,1.1456275,0.039998777,0.04,-0.0048745593401733345,-0.023031265332673634,-0.006713576228145612,0.14052247934495884,-0.20724854248210586,-0.21223249846846726,0.9216304308482363,0.21585164796945222,0.22181428241947634,-0.23410219802064827
955.04999999946,-0.28213966,-0.8987474,0.14811307,-2.4063258,-0.40553787,1.9332426,1.1482975,0.03999875,0.04,-0.005086327378478472,-0.023002903306645894,-0.006298589566111623,0.1391478491623776,-0.20632460681060627,-0.2114528325894305,0.9205756000641999,0.2169515029006943,0.22346482542162754,-0.23566094660518072
955.0666666661267,-0.28421193,-0.89958686,0.14920016,-2.4066916,-0.4085155,1.9359016,1.150957,0.039998736,0.04,-0.00682101611553243,-0.02298039408096253,-0.00641028293046908,0.13776575153547943,-0.20537345696998965,-0.2106456596022857,0.9195200600218606,0.21803838096825576,0.225107423416561,-0.23721039514509693
955.0833333327934,-0.28627568,-0.9004227,0.15028274,-2.4070556,-0.41148084,1.93855,1.1536055,0.039998718,0.04,-0.0065535126477556105,-0.023189143800073087,-0.005872334208301133,0.13637488633393027,-0.20439888836056957,-0.2098145343305987,0.9184640153519297,0.21911216656167945,0.22674213221066328,-0.23875032240568653
955.09999999946,-0.28833055,-0.901255,0.15136072,-2.4074183,-0.41443354,1.9411871,1.1562426,0.039998695,0.04,-0.007376540388515096,-0.023387195697155416,-0.006032907218989081,0.1349783444332422,-0.20339899110453685,-0.2089611861032153,0.9174077285703163,0.22017276815873207,0.2283686482696328,-0.24028061138650955
955.1166666661267,-0.29037625,-0.9020837,0.15243395,-2.4077795,-0.4173732,1.9438126,1.158868,0.039998684,0.04,-0.008054949783575793,-0.023461676289848743,-0.0059932938723861184,0.13357528110228678,-0.2023733283732357,-0.20808171024240477,0.9163514814304711,0.2212200866520585,0.2299866473485053,-0.2418011120388636
955.1333333327933,-0.29241276,-0.9029087,0.15350233,-2.408139,-0.42029962,1.9464262,1.1614815,0.039998654,0.04,-0.008024394773853416,-0.023284786171845484,-0.005925192579181449,0.1321661418386006,-0.20132612755586143,-0.20717561826441389,0.9152954028362507,0.22225432082993482,0.23159608793329758,-0.2433117228438498
955.14999999946,-0.2944397,-0.90372986,0.15456569,-2.408496,-0.42321238,1.9490274,1.1640826,0.039998632,0.04,-0.006780532596195599,-0.023632198981965447,-0.005646401690806435,0.13075188319729802,-0.20025511578320065,-0.20624799131478544,0.9142396728718007,0.2232753173429808,0.23319715755688414,-0.2448122523895482
955.1666666661266,-0.2964569,-0.90454715,0.15562394,-2.4088514,-0.42611116,1.9516162,1.1666715,0.039998617,0.04,-0.009556838739577245,-0.0234021516703653,-0.005726951618933995,0.129331950643569,-0.1991556039186461,-0.20529117535552957,0.9131846119813634,0.2242832060332963,0.234789162865603,-0.24630257191662108
955.1833333327933,-0.29846412,-0.9053604,0.15667696,-2.4092054,-0.42899558,1.9541922,1.1692476,0.039998595,0.04,-0.010181577961931865,-0.023439722663032292,-0.0055036667705232745,0.12790947022734012,-0.1980335649976693,-0.20431674644677789,0.9121304923573378,0.22527787786722064,0.23637186231307514,-0.2477825364351788
955.1999999994599,-0.30046117,-0.9061694,0.1577246,-2.4095576,-0.43186527,1.9567547,1.1718106,0.039998583,0.04,-0.010114568422014969,-0.023352799536335844,-0.005528702387702644,0.1264817859600625,-0.19689040335835398,-0.20331904080770574,0.9110775339045971,0.22625941399932847,0.23794502910209586,-0.24925201687569284
955.2166666661266,-0.30244774,-0.90697426,0.15876678,-2.4099078,-0.43471995,1.9593042,1.1743598,0.03999856,0.04,-0.010032822529160157,-0.02368071963645968,-0.005044081831018232,0.12505096832452076,-0.19572521213767108,-0.2022993309497981,0.9100259564809514,0.22722744835359876,0.23950885167146396,-0.2507108996766174
955.2333333327932,-0.3044236,-0.9077748,0.15980335,-2.410256,-0.43755937,1.9618399,1.1768956,0.03999854,0.04,-0.010375602982382048,-0.02352369644700869,-0.005222549335992532,0.12361988490447413,-0.19453832386329964,-0.20125695107933295,0.908975904090795,0.22818243108134872,0.2410630736338396,-0.2521590340605176
955.2499999994599,-0.30638856,-0.9085707,0.1608342,-2.410602,-0.44038302,1.9643613,1.1794174,0.039998513,0.04,-0.011844737344945955,-0.02340410790369063,-0.005024627983285512,0.12218256814879452,-0.19332692131595164,-0.200186793369702,0.907927759787492,0.22912420219078963,0.24260711388383194,-0.25359627613720553
955.2666666661265,-0.3083423,-0.9093624,0.16185923,-2.4109466,-0.44319066,1.9668685,1.1819248,0.039998494,0.04,-0.01193764776430406,-0.023619154930326625,-0.005098510336720707,0.12074303740677209,-0.19209798404397044,-0.1990962620952557,0.9068816787856023,0.23005270722484042,0.2441411078255005,-0.25502253243834544
955.2833333327932,-0.31028467,-0.9101493,0.16287829,-2.411289,-0.44598213,1.9693613,1.1844178,0.039998464,0.04,-0.012007987188589198,-0.023394964492662318,-0.004578832897239593,0.11930354043366781,-0.19084660369792106,-0.19798336814408163,0.9058378585722571,0.23096803234941637,0.24566492054030453,-0.2564376899478555
955.2999999994598,-0.3122155,-0.91093165,0.16389124,-2.4116285,-0.448757,1.9718393,1.1868956,0.039998457,0.04,-0.010758368962093812,-0.023519130245841513,-0.004715513293240825,0.11786312962761895,-0.189575132639471,-0.19684872582645746,0.9047964562484526,0.23187006731127402,0.24717874151509509,-0.25784164595410275
955.3166666661265,-0.3141346,-0.91170913,0.16489804,-2.4119666,-0.4515149,1.9743022,1.1893584,0.039998434,0.04,-0.014445399300733186,-0.023151443906266334,-0.004592335256470292,0.11642358064399651,-0.188279776156256,-0.19569059355565666,0.9037578808237787,0.23275898340859735,0.24868160571963294,-0.25923427139985517
955.3333333327931,-0.31604165,-0.9124816,0.16589853,-2.4123032,-0.4542555,1.9767494,1.191806,0.039998416,0.04,-0.015092485522139043,-0.0231000761687028,-0.004547933448639796,0.1149840381714696,-0.18696688785423848,-0.19451320122887544,0.9027223769308089,0.2336348937012273,0.2501732530502077,-0.26061540647452863
955.3499999994598,-0.31793645,-0.9132494,0.1668926,-2.4126368,-0.45697862,1.9791813,1.1942378,0.039998397,0.04,-0.011495159678531763,-0.02354253957581598,-0.0042661559590984055,0.11354233269010275,-0.18563947165252195,-0.1933168115270854,0.9016898755685039,0.23449768553197137,0.25165467822651905,-0.26198497419530004
955.3666666661264,-0.31981885,-0.9140119,0.16788013,-2.4129682,-0.45968395,1.9815971,1.1966537,0.039998375,0.04,-0.014648327946620299,-0.022945395084061904,-0.004193524633544499,0.11210126442379673,-0.18428672867854512,-0.1920917615328685,0.9006608205808835,0.2353474419067436,0.2531248290059533,-0.26334291104798796
955.3833333327931,-0.32168856,-0.91476935,0.16886105,-2.4132974,-0.46237105,1.9839966,1.1990532,0.039998353,0.04,-0.014746491909978232,-0.023181568320329582,-0.004152502540222258,0.1106619327133001,-0.18291807191809745,-0.19084892036222406,0.8996354359948072,0.23618407011734782,0.2545837077032919,-0.264689068715128
955.3999999994597,-0.32354543,-0.91552144,0.16983521,-2.4136248,-0.46503967,1.9863796,1.201436,0.03999833,0.04,-0.01597694533033156,-0.022812671401817308,-0.003990497444483765,0.10922424453640393,-0.18153176722645337,-0.18958351751858243,0.8986139874074056,0.23700769771991564,0.25603089962134673,-0.26602336607214
955.4166666661264,-0.3253894,-0.9162686,0.17080258,-2.4139493,-0.46768966,1.9887459,1.2038025,0.03999832,0.04,-0.01379922863855576,-0.022962378671098627,-0.004152299159509987,0.10779030322308722,-0.18013108565552977,-0.18830146492519506,0.8975963959906283,0.2378186229222673,0.2574670285686417,-0.2673457343890601
955.433333332793,-0.32722002,-0.91701025,0.17176296,-2.4142718,-0.47032055,1.9910953,1.2061518,0.039998304,0.04,-0.016743744211122902,-0.022712719965289896,-0.003703830708734479,0.10635638148992178,-0.17870876574780417,-0.18699664441698877,0.8965831694415628,0.23861662629815458,0.25889125061802143,-0.2686559998988401
955.4499999994597,-0.3290372,-0.9177466,0.17271626,-2.414592,-0.47293216,1.9934272,1.2084839,0.03999828,0.04,-0.016057795732704605,-0.022622859829557473,-0.00398412884303756,0.10492621137571714,-0.17727105689305628,-0.18567279378306212,0.8955744177006545,0.23940187593652193,0.26030359615876336,-0.26995414793076095
955.4666666661263,-0.33084068,-0.91847736,0.17366244,-2.4149096,-0.47552425,1.9957416,1.2107985,0.039998267,0.04,-0.016089013062225987,-0.022654766035834495,-0.0034268303764628527,0.10349967421533986,-0.17581825079573718,-0.18433099191852492,0.8945703294387779,0.24017432853127935,0.26170409909716025,-0.271240082064007
955.483333332793,-0.3326304,-0.9192025,0.1746014,-2.415225,-0.47809637,1.9980383,1.2130955,0.039998244,0.04,-0.01745912568438257,-0.022365006882563154,-0.0035285104166504766,0.10207535450036583,-0.17434851346975244,-0.18296659064304707,0.8935711534068805,0.24093422750349097,0.26309238395891044,-0.27251364978512643
955.4999999994596,-0.33440602,-0.919922,0.17553304,-2.415537,-0.48064837,2.0003173,1.2153745,0.039998222,0.04,-0.015273585717379135,-0.022704100086878842,-0.003065601340779267,0.10065325901378894,-0.17286551956344323,-0.1815828346270151,0.8925769496717947,0.2416813972869235,0.26446901576778226,-0.2737747811958864
955.5166666661263,-0.33616745,-0.92063564,0.17645715,-2.4158473,-0.48318,2.0025778,1.2176352,0.0399982,0.04,-0.01899773946276717,-0.02174603722433499,-0.00354011572416546,0.09923806259473911,-0.17136134962483218,-0.18017951623381231,0.8915881616574677,0.24241610511727846,0.26583279235770624,-0.2750234689609787
955.533333332793,-0.33791453,-0.92134345,0.17737372,-2.4161546,-0.485691,2.0048196,1.2198772,0.03999819,0.04,-0.017279410257842187,-0.0220002159750321,-0.0032318768531380826,0.09782627443094508,-0.16984780766851829,-0.17875890227106697,0.8906048387899648,0.2431383354033777,0.26718415742848944,-0.27625965503562694
955.5499999994596,-0.339647,-0.92204535,0.17828265,-2.4164593,-0.48818105,2.0070431,1.2221005,0.039998174,0.04,-0.017913380981360305,-0.02200610616611698,-0.002871407214799504,0.09642014968345099,-0.1683193680929034,-0.17732016419199226,0.889627205768972,0.2438480627657902,0.26852308526371294,-0.2774831701590548
955.5666666661263,-0.3413647,-0.9227415,0.17918386,-2.4167616,-0.49064985,2.0092478,1.2243052,0.03999816,0.04,-0.018652209618030824,-0.021778157301183265,-0.003111439737457644,0.0950205048202825,-0.16677700309164817,-0.17586385145112043,0.888655418658209,0.24454563282903885,0.2698493651823573,-0.2786939189582847
955.5833333327929,-0.34306753,-0.9234314,0.18007724,-2.4170613,-0.4930973,2.011433,1.2264907,0.03999814,0.04,-0.019200095252092098,-0.021332972531634686,-0.003011137883635051,0.09362609050279265,-0.16522130100951588,-0.1743910448499883,0.8876897384423588,0.24523108096835114,0.2711625614245059,-0.27989196214420275
955.5999999994596,-0.34475526,-0.9241151,0.18096271,-2.4173584,-0.49552312,2.0135992,1.2286566,0.03999813,0.04,-0.019001402624940766,-0.021433834161083132,-0.002435050413907014,0.09223585603531209,-0.16365315834436922,-0.17289951937885104,0.886730339735715,0.24590416270805368,0.2724629521843835,-0.28107719054025876
955.6166666661262,-0.34642774,-0.9247927,0.18184015,-2.4176524,-0.49792695,2.0157454,1.2308029,0.039998103,0.04,-0.018794859346860093,-0.021207395152339492,-0.00296220507802758,0.09085353195111172,-0.16207336206101727,-0.17138967340602043,0.8857773691313465,0.24656529620372164,0.2737502859433539,-0.28224951370844453
955.6333333327929,-0.34808487,-0.92546433,0.18270953,-2.4179442,-0.5003087,2.0178719,1.2329295,0.03999808,0.04,-0.02042655934837434,-0.02087769861102151,-0.002947827117405488,0.08947628593537907,-0.1604822157579202,-0.16986293347829018,0.8848310282508002,0.2472145565803923,0.27502433183333364,-0.28340894721059867
955.6499999994595,-0.34972626,-0.92612934,0.18357074,-2.4182324,-0.50266814,2.0199788,1.2350359,0.039998066,0.04,-0.018450243026979507,-0.02124191251181018,-0.0018706770416709873,0.08810421337060739,-0.15888036880779854,-0.16831901594412502,0.8838914246152972,0.2478517451834943,0.2762855783442588,-0.2845553392576124
955.6666666661262,-0.35135204,-0.926788,0.18442371,-2.4185183,-0.50500494,2.0220652,1.2371225,0.039998055,0.04,-0.02117807810320116,-0.02036386179507521,-0.002691128242049423,0.08674189467004736,-0.15726573985564252,-0.16675675958746983,0.8829588183296857,0.24847746143482546,0.2775331872714944,-0.28568865265473103
955.6833333327928,-0.35296193,-0.92744046,0.18526834,-2.4188015,-0.5073189,2.0241306,1.2391884,0.03999804,0.04,-0.02076855929913357,-0.0203438136123113,-0.002972629585884512,0.08538664095704515,-0.15564051056244482,-0.16518503613473862,0.8820334166137567,0.24909151262919682,0.27876708490633784,-0.28680896549024487
955.6999999994595,-0.35455573,-0.928086,0.18610454,-2.4190814,-0.50960976,2.0261755,1.2412341,0.03999803,0.04,-0.020328402703961856,-0.020349057640672852,-0.0017394520408053893,0.08403692733805593,-0.1540093494071363,-0.1635946245912099,0.8811153160764676,0.24969412043849032,0.2799875596408703,-0.2879159815645271
955.7166666661261,-0.3561333,-0.92872536,0.18693227,-2.419359,-0.5118775,2.0282001,1.2432587,0.039998017,0.04,-0.021077374722366926,-0.02022142887631584,-0.002300108111374932,0.08269549337484484,-0.15236676561676912,-0.16199284101085998,0.8802046784472152,0.25028507651996246,0.2811945863169022,-0.28900987723103394
955.7333333327928,-0.3576945,-0.92935777,0.18775143,-2.4196334,-0.51412153,2.030204,1.2452623,0.039998006,0.04,-0.021204441298428023,-0.02002574408224711,-0.001604268600963188,0.08136296680923001,-0.1507153712484778,-0.16037326532665772,0.8793017564590152,0.2508645730208236,0.2823879314702523,-0.2900904053069019
955.7499999994594,-0.3592393,-0.92998385,0.18856195,-2.4199047,-0.51634204,2.0321863,1.2472445,0.039997984,0.04,-0.020868024713838196,-0.01955179964560072,-0.0026890454279282494,0.08003967900488411,-0.14905508348136143,-0.15873962325582136,0.8784065826721874,0.25143291936926965,0.28356745444878945,-0.29115779459435687
955.7666666661261,-0.36076745,-0.9306031,0.18936376,-2.4201732,-0.51853865,2.0341473,1.2492056,0.039997958,0.04,-0.021941169160744067,-0.019518737592555402,-0.0017640976749389026,0.07872417906795631,-0.1473872151067966,-0.15709044163376865,0.8775193830830157,0.2519901890743865,0.2847331069786635,-0.29221179769840855
955.7833333327927,-0.3622789,-0.9312157,0.19015683,-2.4204392,-0.5207112,2.0360866,1.2511455,0.039997946,0.04,-0.022928516405906763,-0.019085773588256583,-0.002194330739913042,0.07741596927778592,-0.14571095225165442,-0.1554279231383351,0.8766403305871704,0.25253661389324183,0.2858845696219497,-0.29325245486342455
955.7999999994594,-0.36377344,-0.9318213,0.19094093,-2.4207017,-0.5228594,2.0380046,1.2530637,0.039997928,0.04,-0.02096550238617212,-0.019189270998248853,-0.0013655491439612533,0.07611431180783096,-0.14403070768742537,-0.15375260355638798,0.8757694806036558,0.2530720825864881,0.2870224093771442,-0.2942795853841711
955.816666666126,-0.3652511,-0.93242,0.19171622,-2.4209616,-0.52498335,2.0399013,1.2549597,0.03999792,0.04,-0.02277163846406971,-0.018757371749333895,-0.0016122029079745914,0.07482583197863285,-0.14234002723395464,-0.15206796259546618,0.8749070797764169,0.25359651936329125,0.2881461096429441,-0.2952934584808183
955.8333333327927,-0.36671153,-0.93301183,0.19248255,-2.4212182,-0.5270827,2.0417757,1.256834,0.03999791,0.04,-0.02194662186902896,-0.01880888245513468,-0.001720680353400894,0.07354707194188573,-0.1406436941693932,-0.15036743394678953,0.8740531693009779,0.25411041643929455,0.2892558012435286,-0.2962938320973434
955.8499999994593,-0.36815467,-0.9335968,0.19323975,-2.4214716,-0.5291572,2.0436282,1.2586864,0.039997898,0.04,-0.022304162179187514,-0.018461135375302806,-0.0016217212990499164,0.07227742541320366,-0.13894116594452055,-0.14865661709894323,0.8732078862904465,0.25461383720404157,0.2903514993943948,-0.2972806553138485
955.866666666126,-0.36958054,-0.9341746,0.19398788,-2.421723,-0.531207,2.045458,1.2605164,0.039997887,0.04,-0.024960311356991838,-0.017634658407539305,-0.0017515831802983328,0.07101788804561746,-0.13723113980874063,-0.14693528403576983,0.8723716009235754,0.25510678285083555,0.29143226268681255,-0.2982541793685033
955.8833333327926,-0.3709889,-0.9347453,0.19472684,-2.42197,-0.5332317,2.0472658,1.2623237,0.039997872,0.04,-0.020534279679029765,-0.018425188980342178,-0.0012080386870838566,0.06976649892343048,-0.13552319313211947,-0.14520453808922118,0.8715441089471028,0.2555893065277938,0.29249936161480555,-0.2992141306876621
955.8999999994593,-0.37237972,-0.9353091,0.19545656,-2.4222143,-0.53523105,2.0490503,1.2641088,0.039997857,0.04,-0.024170814754898018,-0.017451920290850742,-0.001970529505168628,0.06852633382636462,-0.1338061000405016,-0.1434586464062241,0.8707257353083803,0.2560618837678434,0.29355175308659975,-0.3001605800446285
955.9166666661259,-0.37375286,-0.9358655,0.19617707,-2.422455,-0.5372051,2.0508122,1.2658709,0.03999784,0.04,-0.022680936192776002,-0.017608345844960516,-0.0010772197224229174,0.06729186819835085,-0.13208709650924846,-0.14170117299006774,0.8699165528746454,0.2565242617924411,0.29458984494914436,-0.3010935359641194
955.9333333327926,-0.37510833,-0.9364149,0.19688825,-2.422693,-0.53915393,2.0525515,1.2676105,0.03999782,0.04,-0.02361682062832493,-0.017059501363347884,-0.0014525875730253546,0.06607038350167199,-0.13036412896433108,-0.13993596825144927,0.8691166062017265,0.2569767726725884,0.29561354330698075,-0.30201307280425105
955.9499999994592,-0.37644592,-0.93695706,0.19759007,-2.422928,-0.5410771,2.054268,1.2693273,0.0399978,0.04,-0.02413895656481202,-0.016997497809306816,-0.0012532254644037621,0.06485768841277824,-0.1286379001794517,-0.1381604057326873,0.8683261331558452,0.2574194505374909,0.2966226643591546,-0.30291904521186874
955.9666666661259,-0.3777656,-0.93749183,0.19828252,-2.4231598,-0.5429742,2.0559614,1.2710208,0.039997794,0.04,-0.023550308630015948,-0.01699386198441566,-0.000939370778763049,0.06365517025023473,-0.12691006799109447,-0.13637639817433744,0.8675452435158305,0.2578523293140519,0.2976173332876934,-0.303811371819914
955.9833333327925,-0.37906727,-0.9380193,0.1989655,-2.4233885,-0.5448454,2.057632,1.272691,0.03999778,0.04,-0.02389404931832928,-0.01653434120878483,-0.001003460968918013,0.062464042343731735,-0.1251800193022153,-0.1345838560704798,0.8667740097908074,0.258275540121439,0.2985975054053216,-0.30469015588276466
955.9999999994592,-0.38035086,-0.9385395,0.199639,-2.4236143,-0.54669064,2.0592794,1.2743382,0.03999777,0.04,-0.02438384953111772,-0.01631395989248885,-0.0011548199440714058,0.061286151145123195,-0.12344866026434806,-0.13278576376534923,0.8660125117161784,0.25868936468989157,0.2995630985465131,-0.30555538309214636
956.0166666661258,-0.38161623,-0.93905234,0.20030299,-2.4238362,-0.54850984,2.0609038,1.2759622,0.039997764,0.04,-0.02273786799524835,-0.016382248471080718,-0.0008449242327790429,0.060118178067401815,-0.12171548686762207,-0.13097898713820583,0.8652607370140234,0.259093844643439,0.300514492882411,-0.306407043354845
956.0333333327925,-0.38286337,-0.9395578,0.20095742,-2.4240553,-0.5503026,2.0625052,1.277563,0.039997756,0.04,-0.024632723481765595,-0.016004781420114744,-0.0006902377417628003,0.058961615655867654,-0.11997833280141885,-0.12916429329961343,0.8645189238682173,0.2594890941861972,0.30145137904476904,-0.30724502655726343
956.0499999994591,-0.38409215,-0.9400558,0.2016022,-2.424271,-0.5520693,2.0640829,1.2791398,0.03999775,0.04,-0.02414887214476913,-0.015505167530605046,-0.0011229443658944405,0.05781710795552476,-0.11823950129007904,-0.12734355932847294,0.8637871867703293,0.2598751002128754,0.30237347121441943,-0.3080696547316708
956.0666666661258,-0.38530266,-0.94054645,0.20223743,-2.4244833,-0.55380946,2.065636,1.2806932,0.039997738,0.04,-0.02402542519330808,-0.015307797383729005,-0.0015173885799857345,0.056683480934976264,-0.11650351853224704,-0.12551493499707456,0.8630655169629436,0.2602525041328762,0.30328073216134666,-0.308880794193701
956.0833333327924,-0.3864947,-0.94102967,0.20286295,-2.4246929,-0.5555231,2.0671654,1.2822232,0.03999772,0.04,-0.02557930314921464,-0.015025825278663918,-0.0008796064191018971,0.05555662593205279,-0.11476928550360092,-0.12368197548072946,0.8623541098690236,0.26062117062678414,0.30417314052815625,-0.30967837379185403
956.0999999994591,-0.38766822,-0.9415053,0.2034788,-2.4248984,-0.55721056,2.0686717,1.2837288,0.039997708,0.04,-0.02251356323608178,-0.01527511419827099,-0.00038905235033581675,0.05444002799995335,-0.11303772926469563,-0.12184537236603499,0.8616528735864404,0.26098064212443023,0.30505140054827046,-0.3104626755345778
956.1166666661258,-0.3888232,-0.9419734,0.20408487,-2.425101,-0.55887115,2.0701542,1.2852113,0.03999769,0.04,-0.025481869821808445,-0.014573030675152365,-0.0007825844924091996,0.05333928885160004,-0.1113042683419869,-0.11999822755369985,0.8609620102179241,0.2613318669312527,0.3059148679240668,-0.3112332981394148
956.1333333327924,-0.38995972,-0.94243395,0.20468119,-2.4253008,-0.5605052,2.0716124,1.2866699,0.039997682,0.04,-0.025521929076921523,-0.014023611703933847,-0.0011236763475697131,0.05224651837152024,-0.10957202357690732,-0.11815004689483138,0.8602816380381284,0.26167469338468835,0.30676325752485817,-0.3119906439770295
956.149999999459,-0.39107767,-0.94288707,0.20526783,-2.4254966,-0.56211257,2.073047,1.2881043,0.039997675,0.04,-0.022752286995642024,-0.01469850139151907,-0.0005620653038995727,0.05116361698613226,-0.10784760840711662,-0.11629952462109241,0.8596115973156215,0.2620090574922071,0.3075975025170436,-0.31273460313468443
956.1666666661257,-0.39217693,-0.94333273,0.20584466,-2.42569,-0.56369305,2.0744576,1.2895149,0.039997663,0.04,-0.026244020127474954,-0.013829061019521305,-0.0007688125734039986,0.05009407495102367,-0.10612007388845235,-0.11444234707513597,0.8589522242716616,0.26233522154505085,0.3084167946603874,-0.31346513159693934
956.1833333327924,-0.3932576,-0.9437709,0.20641172,-2.4258797,-0.5652468,2.0758448,1.2909018,0.03999766,0.04,-0.023749674435880053,-0.01394448818489713,-0.0005078948377867931,0.049036197060126095,-0.10439934555362054,-0.11258632280483848,0.8583033101308385,0.2626533431261009,0.3092218129753807,-0.3141823030397273
956.199999999459,-0.39431947,-0.9442014,0.20696895,-2.4260657,-0.5667737,2.0772078,1.2922645,0.03999766,0.04,-0.023711742945531356,-0.013776192959541467,-0.0005620058884270307,0.04798875345090047,-0.10267937710331185,-0.11072640554373192,0.8576650127302836,0.26296342888977214,0.31001238697362227,-0.31488613962480627
956.2166666661257,-0.39536273,-0.94462436,0.20751642,-2.4262495,-0.5682737,2.0785463,1.2936035,0.03999765,0.04,-0.0271958216446766,-0.01279259669970112,-0.0009676296082394842,0.0469555349771219,-0.10096162784157403,-0.10886464316818262,0.857037566507142,0.26326594040178714,0.3107876599854309,-0.3155767491762649
956.2333333327923,-0.39638722,-0.94503963,0.20805405,-2.4264283,-0.56974673,2.0798612,1.2949189,0.039997634,0.04,-0.021168954547290397,-0.013874690633058906,-0.00010704154662644072,0.045929139368251354,-0.09925460293615064,-0.10700546053422028,0.8564205456033229,0.26356083055948615,0.31154936930530985,-0.3162538982348902
956.249999999459,-0.397393,-0.9454473,0.20858184,-2.4266055,-0.5711929,2.0811522,1.2962099,0.039997622,0.04,-0.027722252687434334,-0.012345990209311486,-0.000558949277862375,0.04491501434282859,-0.09754074543292764,-0.10514139368831676,0.855814582674662,0.26384790860791807,0.31229582940120276,-0.3169179643744368
956.2666666661256,-0.39838004,-0.9458475,0.20909984,-2.426778,-0.57261235,2.0824192,1.2974762,0.039997615,0.04,-0.022016824575477045,-0.01312975244767145,-0.0005309122335761529,0.04391370783388905,-0.09584069190742842,-0.10328020239300384,0.8552192884071164,0.26412721354324387,0.31302826151351987,-0.31756903390622104
956.2833333327923,-0.39934844,-0.94624007,0.20960806,-2.4269478,-0.5740046,2.0836616,1.2987185,0.03999761,0.04,-0.025863819283067357,-0.012209341228230919,-0.0007358679030122772,0.04292656001290808,-0.0941427988584825,-0.10141573252057597,0.854634961384462,0.26439935071580967,0.3137457743902735,-0.31820693765643293
956.2999999994589,-0.40029806,-0.94662493,0.21010646,-2.427115,-0.5753701,2.08488,1.299937,0.039997604,0.04,-0.025890599642997003,-0.012062075683222373,-0.0002874618347359359,0.04194851009362531,-0.09245473798008029,-0.09955389995058814,0.8540615766857137,0.264664266889826,0.3144486315467873,-0.31883178508288085
956.3166666661256,-0.40122902,-0.94700235,0.21059507,-2.4272773,-0.57670885,2.086075,1.3011324,0.039997596,0.04,-0.021132572933169058,-0.012632193413547599,-0.0002872353570992914,0.040979878783731445,-0.09077504590237849,-0.09769227123227545,0.8534986352320808,0.2649224067833751,0.3151381551506925,-0.3194434867222954
956.3333333327922,-0.40214133,-0.94737214,0.21107386,-2.4274385,-0.57802063,2.0872464,1.3023028,0.039997593,0.04,-0.028585692088212156,-0.011191243276087448,-0.00026369369368062223,0.040022697137106884,-0.08909053548202452,-0.09583165386471179,0.852947099357099,0.26517298198617356,0.31581231677198346,-0.3200423657861315
956.3499999994589,-0.4030349,-0.9477344,0.21154292,-2.427594,-0.5793056,2.088393,1.3034496,0.039997585,0.04,-0.019903640739959982,-0.012410609838009456,-0.0007178106790961536,0.03908004671224185,-0.08742471235239076,-0.09397636911079424,0.852406071641011,0.26541704359437546,0.3164730444017457,-0.32062828035944035
956.3666666661255,-0.40390992,-0.9480892,0.21200219,-2.4277472,-0.58056384,2.0895157,1.3045728,0.039997578,0.04,-0.026500242320937062,-0.010892850434551793,-0.0004906081059408152,0.038147019057889316,-0.0857580356326269,-0.09212170670252028,0.8518760891715609,0.2656544566464268,0.3171190768138091,-0.32120138462095077
956.3833333327922,-0.4047664,-0.9484364,0.21245174,-2.427898,-0.58179545,2.0906146,1.3056723,0.039997574,0.04,-0.02558338064755361,-0.010928875600502153,-0.00035812338035068336,0.03722425577807492,-0.08410352117887102,-0.09027316710636657,0.8513571184948706,0.2658852470036614,0.31775062495524997,-0.3217617636613479
956.3999999994588,-0.4056043,-0.9487762,0.21289153,-2.4280438,-0.5830003,2.09169,1.3067474,0.039997566,0.04,-0.02083153366005952,-0.011755456053685887,-0.0001284589053129892,0.03631127381475272,-0.08245816764564178,-0.08842875949748367,0.8508488529039061,0.26610926491552794,0.3183689164229992,-0.32230935713049036
956.4166666661255,-0.4064238,-0.9491085,0.21332166,-2.428189,-0.58417886,2.092742,1.3077991,0.03999756,0.04,-0.029033058663197053,-0.009754406409501204,-0.0004203756287068927,0.03541285109902057,-0.08081596678510163,-0.08658550508921506,0.8503518539124232,0.2663268354173938,0.31897203809640323,-0.32284451396436686
956.4333333327921,-0.40722483,-0.94943327,0.21374209,-2.4283278,-0.5853306,2.0937698,1.3088272,0.039997548,0.04,-0.01798080348893727,-0.011700615999488129,-0.0003139782745797959,0.03452521729433012,-0.0791933489435231,-0.0847516293258628,0.8498652815407716,0.26653837179814976,0.3195624726579835,-0.3233668592474063
956.4499999994588,-0.4080075,-0.9497505,0.21415281,-2.4284658,-0.5864561,2.094774,1.3098315,0.039997537,0.04,-0.029036652845348954,-0.009255021136267416,-0.00038189086752904444,0.033650519584122296,-0.0775666132257804,-0.08292388894511954,0.849390054082169,0.26674356976085767,0.320137720479905,-0.3238768962792111
956.4666666661254,-0.40877187,-0.95006037,0.214554,-2.4285996,-0.58755535,2.0957549,1.3108126,0.039997526,0.04,-0.021455938081427206,-0.010721089997178801,-0.0002135122870505768,0.032786046108239486,-0.07596152702384261,-0.08110588109330119,0.8489254491411938,0.2669427812148094,0.3206997627380861,-0.32437446807271986
956.4833333327921,-0.40951794,-0.95036286,0.21494564,-2.4287298,-0.58862835,2.0967128,1.31177,0.039997526,0.04,-0.022676706984992023,-0.010413339601911265,7.556226304661351e-05,0.031932603343432266,-0.07436049388628115,-0.0792906497468023,0.8484716512175648,0.267135748004716,0.32124839482406964,-0.3248596897755376
956.4999999994587,-0.41024587,-0.9506581,0.21532771,-2.4288583,-0.5896755,2.0976474,1.3127042,0.03999752,0.04,-0.026433765072830795,-0.009111786454751858,-0.0005018873532769419,0.031093610900847286,-0.0727695254419651,-0.0774829516411531,0.8480288682821587,0.26732288161844553,0.3217826696532984,-0.3253327973538602
956.5166666661254,-0.41095576,-0.9509459,0.21570034,-2.428981,-0.59069633,2.0985587,1.313615,0.03999751,0.04,-0.01859563728801028,-0.010561896626692935,-0.00012954499253314822,0.030263809913069723,-0.0711938839890306,-0.0756832490895742,0.8475965249349676,0.267504306893434,0.3223043777184578,-0.3257935923482045
956.533333332792,-0.41164765,-0.9512263,0.21606353,-2.4291031,-0.59169143,2.0994463,1.3145028,0.03999751,0.04,-0.028609978642579748,-0.008292303126455902,-0.0004889195724278039,0.029446925905865985,-0.06962165358137035,-0.0738911938679728,0.847175385003957,0.26768016018084373,0.322811173570744,-0.3262424636782194
