rsonawane2002/My_IMU/logs_2/traj_361/imu_400hz_361.csv
time,j1,j2,j3,j4,j5,j6,j7,gripper1,gripper2,imu_ax,imu_ay,imu_az,imu_gx,imu_gy,imu_gz
0.0,0.00016700293,-0.785875,4.0107683e-05,-2.3551247,9.29385e-05,1.570997,0.786,0.04,0.04,-9.494303,-0.0278288982808589,0.10629386,2.4569173e-08,-0.0011641271412372,1.0695944e-06
0.0025,0.0001670033035,-0.785857774,4.0107137300000004e-05,-2.35513919,9.2943225e-05,1.570996565,0.786,0.04,0.04,-9.545305850000046,-0.023560744425045098,0.09172047559998675,4.169956855001558e-08,-0.0013252770877444165,1.0877308700000165e-06
0.005,0.000167003677,-0.785840548,4.01065916e-05,-2.3551536800000004,9.294795000000002e-05,1.57099613,0.786,0.04,0.04,-9.596308700000094,-0.019292590569231296,0.07714709119997348,5.8829964100031156e-08,-0.001486427034251633,1.105867340000033e-06
0.0075,0.0001670040505,-0.7858233219999999,4.01060459e-05,-2.3551681700000002,9.295267500000001e-05,1.570995695,0.786,0.04,0.04,-9.64731155000014,-0.015024436713417494,0.06257370679996024,7.596035965004673e-08,-0.0016475769807588496,1.1240038100000496e-06
0.01,0.000167004424,-0.785806096,4.01055002e-05,-2.35518266,9.295740000000001e-05,1.5709952600000001,0.786,0.04,0.04,-9.698314400000186,-0.010756282857603692,0.048000322399946976,9.309075520006231e-08,-0.001808726927266066,1.142140280000066e-06
0.0125,0.0001670047975,-0.78578887,4.0104954499999995e-05,-2.3551971500000004,9.296212500000002e-05,1.570994825,0.786,0.04,0.04,-9.749317250000232,-0.006488129001789886,0.03342693799993372,1.1022115075007791e-07,-0.0019698768737732826,1.1602767500000825e-06
0.015,0.00016700517099999999,-0.785771644,4.0104408799999996e-05,-2.3552116400000003,9.296685000000002e-05,1.57099439,0.786,0.04,0.04,-9.80032010000028,-0.002219975145976088,0.01885355359992047,1.2735154630009346e-07,-0.002131026820280499,1.178413220000099e-06
0.0175,0.000167005371,-0.7857548619999999,4.010019374999992e-05,-2.3552257350000003,9.29700442e-05,1.57099396,0.786,0.04,0.04,-9.834232749999998,0.0006198146817039972,0.009060746364998526,2.553714195022272e-07,-0.002287920925301475,1.2805050000017193e-06
0.02,0.000167005224,-0.7857389679999999,4.0088639999999916e-05,-2.3552390400000003,9.29701768e-05,1.5709935400000001,0.786,0.04,0.04,-9.833965,0.0006028764531945968,0.008829093459998315,6.051702480025451e-07,-0.0024363033473501997,1.5505074000019647e-06
0.0225,0.000167005077,-0.7857230739999999,4.00770862499999e-05,-2.3552523450000002,9.29703094e-05,1.57099312,0.786,0.04,0.04,-9.833697249999998,0.0005859382246851964,0.008597440554998104,9.549690765028631e-07,-0.0025846857693989245,1.82050980000221e-06
0.025,0.00016700493,-0.7857071799999998,4.0065532499999895e-05,-2.35526565,9.297044200000001e-05,1.5709927,0.786,0.04,0.04,-9.833429499999998,0.0005689999961757959,0.008365787649997894,1.3047679050031816e-06,-0.0027330681914476494,2.090512200002456e-06
0.0275,0.000167004783,-0.7856912859999998,4.005397874999989e-05,-2.355278955,9.29705746e-05,1.57099228,0.786,0.04,0.04,-9.833161749999997,0.0005520617676663955,0.008134134744997683,1.6545667335034996e-06,-0.002881450613496374,2.3605146000027013e-06
0.03,0.000167004636,-0.7856753919999998,4.0042424999999874e-05,-2.35529226,9.29707072e-05,1.57099186,0.786,0.04,0.04,-9.832893999999998,0.0005351235391569951,0.007902481839997472,2.0043655620038176e-06,-0.0030298330355450994,2.6305170000029467e-06
0.0325,0.000167004489,-0.7856594979999998,4.003087124999987e-05,-2.355305565,9.297083980000001e-05,1.57099144,0.786,0.04,0.04,-9.832626249999997,0.0005181853106475947,0.007670828934997261,2.354164390504136e-06,-0.0031782154575938247,2.9005194000031925e-06
0.035,0.000167003148,-0.7856444399999998,3.9999958399999486e-05,-2.3553181,9.296320559999986e-05,1.57099101,0.786,0.04,0.04,-9.832341099999997,0.0004930381081062975,0.007469969869997638,3.053243200011126e-06,-0.003318923385815483,3.3912477800076546e-06
0.0375,0.00016700120999999998,-0.7856297999999998,3.995936599999945e-05,-2.35533025,9.295168799999985e-05,1.570990575,0.786,0.04,0.04,-9.832047249999995,0.0004637864185492759,0.00728450772499747,3.926962000011919e-06,-0.0034557940671238172,3.9923391500082e-06
0.04,0.00016699927199999998,-0.7856151599999998,3.9918773599999414e-05,-2.3553424,9.294017039999983e-05,1.57099014,0.786,0.04,0.04,-9.831753399999995,0.0004345347289922543,0.007099045579997301,4.800680800012715e-06,-0.0035926647484321515,4.593430520008747e-06
0.0425,0.00016699733399999997,-0.7856005199999998,3.9878181199999375e-05,-2.35535455,9.292865279999982e-05,1.5709897050000001,0.786,0.04,0.04,-9.831459549999995,0.00040528303943523263,0.006913583434997132,5.67439960001351e-06,-0.0037295354297404862,5.194521890009295e-06
0.045,0.00016699539599999996,-0.7855858799999997,3.9837588799999335e-05,-2.3553667000000003,9.291713519999981e-05,1.57098927,0.786,0.04,0.04,-9.831165699999994,0.0003760313498782111,0.006728121289996964,6.548118400014303e-06,-0.0038664061110488205,5.795613260009839e-06
0.0475,0.00016699345799999998,-0.7855712399999998,3.97969963999993e-05,-2.35537885,9.29056175999998e-05,1.570988835,0.786,0.04,0.04,-9.830871849999994,0.0003467796603211895,0.006542659144996795,7.4218372000150984e-06,-0.004003276792357155,6.396704630010387e-06
0.05,0.0001669915199999999,-0.7855565999999998,3.975640399999827e-05,-2.355391,9.28940999999994e-05,1.5709884,0.786,0.04,0.04,-9.830577999999996,0.0003175279707639185,0.006357196999996824,8.29555600002912e-06,-0.004140147473665292,6.997796000019592e-06
0.0525,0.00016698568949999988,-0.7855431149999997,3.966094294999818e-05,-2.3554021300000003,9.286102874999937e-05,1.57098798,0.786,0.04,0.04,-9.830345349999995,0.0002745681937076529,0.006182591644996666,9.896343400030574e-06,-0.004266178817490582,8.07482570002057e-06
0.055,0.0001669798589999999,-0.7855296299999998,3.9565481899998094e-05,-2.35541326,9.282795749999934e-05,1.57098756,0.786,0.04,0.04,-9.830112699999995,0.00023160841665138712,0.006007986289996507,1.149713080003203e-05,-0.004392210161315872,9.151855400021551e-06
0.0575,0.00016697402849999988,-0.7855161449999998,3.9470020849998004e-05,-2.35542439,9.279488624999931e-05,1.57098714,0.786,0.04,0.04,-9.829880049999995,0.00018864863959512136,0.005833380934996347,1.3097918200033488e-05,-0.004518241505141161,1.0228885100022531e-05
0.06,0.00016696819799999986,-0.7855026599999997,3.937455979999792e-05,-2.3554355200000003,9.276181499999928e-05,1.57098672,0.786,0.04,0.04,-9.829647399999995,0.00014568886253885573,0.005658775579996189,1.469870560003494e-05,-0.004644272848966451,1.1305914800023508e-05
0.0625,0.00016696236749999988,-0.7854891749999997,3.927909874999783e-05,-2.35544665,9.272874374999925e-05,1.5709863,0.786,0.04,0.04,-9.829414749999994,0.00010272908548258997,0.00548417022499603,1.6299493000036398e-05,-0.00477030419279174,1.2382944500024489e-05
0.065,0.00016695653699999987,-0.7854756899999996,3.918363769999775e-05,-2.35545778,9.269567249999922e-05,1.57098588,0.786,0.04,0.04,-9.829182099999995,5.976930842632424e-05,0.005309564869995871,1.7900280400037856e-05,-0.00489633553661703,1.345997420002547e-05
0.0675,0.00016694845699999968,-0.7854625399999997,3.90589087999955e-05,-2.35546854,9.265104824999833e-05,1.570985455,0.786,0.04,0.04,-9.828940499999993,1.3260066042269735e-05,0.005145106584996459,1.982609575006326e-05,-0.00501898352522687,1.4710222150039212e-05
0.07,0.0001669358779999997,-0.7854500599999996,3.887564419999533e-05,-2.3554785600000003,9.258331799999827e-05,1.57098502,0.786,0.04,0.04,-9.828680999999992,-4.0348106996587426e-05,0.005000942439996328,2.2401967000065604e-05,-0.005134864803406551,1.6306906600040665e-05
0.0725,0.00016692329899999967,-0.7854375799999996,3.869237959999517e-05,-2.3554885800000003,9.251558774999821e-05,1.570984585,0.786,0.04,0.04,-9.828421499999992,-9.395628003544429e-05,0.004856778294996198,2.4977838250067935e-05,-0.0052507460815862305,1.790359105004211e-05
0.075,0.00016691071999999966,-0.7854250999999997,3.8509114999995e-05,-2.3554986,9.244785749999815e-05,1.57098415,0.786,0.04,0.04,-9.828161999999994,-0.00014756445307430145,0.004712614149996066,2.755370950007028e-05,-0.005366627359765911,1.9500275500043565e-05
0.0775,0.00016689814099999964,-0.7854126199999997,3.832585039999483e-05,-2.35550862,9.238012724999809e-05,1.5709837150000001,0.786,0.04,0.04,-9.827902499999993,-0.0002011726261131586,0.004568450004995935,3.012958075007262e-05,-0.005482508637945592,2.1096959950045018e-05
0.08,0.00016688556199999962,-0.7854001399999997,3.814258579999467e-05,-2.3555186400000006,9.231239699999803e-05,1.57098328,0.786,0.04,0.04,-9.827642999999993,-0.00025478079915201575,0.004424285859995804,3.270545200007497e-05,-0.0055983899161252725,2.2693644400046474e-05
0.0825,0.0001668729829999996,-0.7853876599999996,3.79593211999945e-05,-2.3555286600000005,9.224466674999797e-05,1.570982845,0.786,0.04,0.04,-9.827383499999993,-0.00030838897219087293,0.004280121714995673,3.5281323250077316e-05,-0.005714271194304953,2.4290328850047927e-05
0.085,0.00016685353699999927,-0.7853758199999996,3.7691341899990404e-05,-2.3555382400000004,9.21445789999964e-05,1.57098275,0.786,0.04,0.04,-9.827154349999994,-0.0003690418438074246,0.004140060769995732,3.854020170011134e-05,-0.00582383018918657,2.6487259900077224e-05
0.08750000000000001,0.00016683065749999927,-0.7853642999999997,3.738100524999012e-05,-2.3555476000000004,9.20283124999963e-05,1.570982825,0.786,0.04,0.04,-9.826940374999992,-0.0004332170647123431,0.004002051424995606,4.214058375011462e-05,-0.005930228042419587,2.8984314250079496e-05
0.09,0.00016680777799999924,-0.7853527799999996,3.707066859998984e-05,-2.3555569600000004,9.19120459999962e-05,1.5709829,0.786,0.04,0.04,-9.826726399999993,-0.0004973922856172611,0.0038640420799954814,4.574096580011788e-05,-0.006036625895652604,3.148136860008176e-05
0.0925,0.00016678489849999924,-0.7853412599999996,3.676033194998956e-05,-2.3555663200000003,9.17957794999961e-05,1.570982975,0.786,0.04,0.04,-9.826512424999994,-0.0005615675065221796,0.003726032734995356,4.934134785012115e-05,-0.00614302374888562,3.397842295008403e-05
0.095,0.0001667620189999992,-0.7853297399999997,3.644999529998927e-05,-2.3555756800000007,9.167951299999599e-05,1.57098305,0.786,0.04,0.04,-9.826298449999992,-0.000625742727427098,0.00358802338999523,5.294172990012443e-05,-0.006249421602118637,3.64754773000863e-05
0.0975,0.0001667391394999992,-0.7853182199999996,3.613965864998899e-05,-2.3555850400000007,9.156324649999587e-05,1.570983125,0.786,0.04,0.04,-9.826084474999993,-0.0006899179483320164,0.003450014044995105,5.6542111950127704e-05,-0.006355819455351654,3.8972531650088576e-05
0.1,0.00016671625999999866,-0.7853066999999996,3.582932199998245e-05,-2.3555944000000006,9.144697999999337e-05,1.5709832,0.786,0.04,0.04,-9.825870499999994,-0.0007540931692371827,0.0033120046999956356,6.014249400017639e-05,-0.006462217308584318,4.1469586000117726e-05
0.10250000000000001,0.00016667891149999863,-0.7852960049999996,3.534697269998201e-05,-2.3556030400000005,9.12643279999932e-05,1.57098329,0.785999715,0.04,0.04,-9.825668674999992,-0.0008250810962661573,0.0031920426199955262,6.499089840018081e-05,-0.006558916182260766,4.470532810012067e-05
0.105,0.0001666415629999986,-0.7852853099999996,3.4864623399981576e-05,-2.3556116800000004,9.108167599999303e-05,1.57098338,0.78599943,0.04,0.04,-9.825466849999993,-0.0008960690232951315,0.0030720805399954178,6.98393028001852e-05,-0.006655615055937213,4.7941070200123594e-05
0.1075,0.00016660421449999854,-0.7852746149999996,3.438227409998113e-05,-2.3556203200000003,9.089902399999286e-05,1.57098347,0.785999145,0.04,0.04,-9.825265024999993,-0.0009670569503241062,0.002952118459995309,7.468770720018962e-05,-0.0067523139296136615,5.117681230012654e-05
0.11,0.0001665668659999985,-0.7852639199999996,3.38999247999807e-05,-2.3556289600000007,9.071637199999269e-05,1.57098356,0.78599886,0.04,0.04,-9.825063199999992,-0.001038044877353081,0.0028321563799951995,7.953611160019403e-05,-0.00684901280329011,5.441255440012949e-05
0.1125,0.00016652951749999848,-0.7852532249999996,3.341757549998026e-05,-2.3556376000000006,9.053371999999252e-05,1.57098365,0.785998575,0.04,0.04,-9.824861374999992,-0.0011090328043820556,0.00271219429999509,8.438451600019844e-05,-0.006945711676966558,5.764829650013243e-05
0.115,0.00016649216899999845,-0.7852425299999996,3.293522619997982e-05,-2.3556462400000004,9.035106799999236e-05,1.57098374,0.78599829,0.04,0.04,-9.824659549999991,-0.0011800207314110302,0.0025922322199949813,8.923292040020286e-05,-0.007042410550643006,6.088403860013537e-05
0.11750000000000001,0.0001664484369999976,-0.7852320749999996,3.237887499996989e-05,-2.3556545800000004,9.013985949998853e-05,1.57098384,0.785998005,0.04,0.04,-9.824475799999993,-0.0012552117579651488,0.0024782957999956445,9.494657650031824e-05,-0.007136852899570064,6.442710050017773e-05
0.12,0.00016639193799999755,-0.7852220999999996,3.1674519999969254e-05,-2.3556623200000004,8.987153799998829e-05,1.57098396,0.78599772,0.04,0.04,-9.824328199999993,-0.0013388089835679495,0.002376410699995552,0.00010239073600032498,-0.007226782198999206,6.85848020001815e-05
0.1225,0.0001663354389999975,-0.7852121249999996,3.0970164999968614e-05,-2.3556700600000005,8.960321649998804e-05,1.5709840800000001,0.785997435,0.04,0.04,-9.824180599999993,-0.0014224062091707506,0.0022745255999954595,0.00010983489550033174,-0.007316711498428348,7.274250350018529e-05
0.125,0.00016627893999999745,-0.7852021499999995,3.026580999996797e-05,-2.3556778000000005,8.93348949999878e-05,1.5709842,0.78599715,0.04,0.04,-9.824032999999993,-0.0015060034347735515,0.0021726404999953667,0.00011727905500033853,-0.007406640797857489,7.690020500018906e-05
0.1275,0.0001662224409999974,-0.7851921749999995,2.9561454999967327e-05,-2.3556855400000005,8.906657349998755e-05,1.57098432,0.785996865,0.04,0.04,-9.823885399999993,-0.0015896006603763526,0.002070755399995274,0.0001247232145003453,-0.007496570097286631,8.105790650019286e-05
0.13,0.00016616594199999734,-0.7851821999999995,2.8857099999966686e-05,-2.3556932800000006,8.879825199998731e-05,1.5709844400000001,0.7859965800000001,0.04,0.04,-9.823737799999993,-0.0016731978859791537,0.001968870299995181,0.00013216737400035207,-0.007586499396715773,8.521560800019665e-05
0.1325,0.00016610944299999729,-0.7851722249999995,2.8152744999966046e-05,-2.3557010200000006,8.852993049998706e-05,1.57098456,0.785996295,0.04,0.04,-9.823590199999993,-0.0017567951115819548,0.0018669851999950885,0.00013961153350035884,-0.007676428696144915,8.937330950020042e-05
0.135,0.00016603671599999605,-0.7851626599999995,2.7264039299951824e-05,-2.3557084400000003,8.81894654999815e-05,1.57098468,0.78599601,0.0399999995,0.04,-9.823404599999991,-0.0018407387193333416,0.0017778242199959333,0.00014796554600043268,-0.0077612944413016334,9.41212310002477e-05
0.1375,0.00016595587499999595,-0.7851532999999995,2.628315824995093e-05,-2.3557157,8.781292874998116e-05,1.5709848000000002,0.785995725,0.03999999875,0.04,-9.82319999999999,-0.001924855518158983,0.0016950252999958578,0.00015677448500044067,-0.007843628409322694,9.916426250025229e-05
0.14,0.0001658750339999959,-0.7851439399999995,2.5302277199950036e-05,-2.3557229600000005,8.743639199998081e-05,1.5709849200000001,0.78599544,0.039999998,0.04,-9.82299539999999,-0.0020089723169846247,0.0016122263799957825,0.0001655834240004487,-0.007925962377343753,0.00010420729400025688
0.14250000000000002,0.00016579419299999582,-0.7851345799999995,2.4321396149949145e-05,-2.3557302200000003,8.705985524998048e-05,1.57098504,0.7859951550000001,0.03999999725,0.04,-9.82279079999999,-0.002093089115810266,0.0015294274599957072,0.00017439236300045673,-0.008008296345364815,0.00010925032550026148
0.145,0.00016571335199999575,-0.7851252199999995,2.334051509994826e-05,-2.35573748,8.668331849998013e-05,1.57098516,0.78599487,0.0399999965,0.04,-9.82258619999999,-0.0021772059146359067,0.0014466285399956326,0.00018320130200046464,-0.008090630313385873,0.00011429335700026602
0.1475,0.00016563251099999566,-0.7851158599999996,2.235963404994737e-05,-2.3557447400000004,8.63067817499798e-05,1.5709852800000002,0.785994585,0.03999999575,0.04,-9.82238159999999,-0.0022613227134615486,0.0013638296199955573,0.00019201024100047264,-0.008172964281406934,0.0001193363885002706
0.15,0.00016555166999999396,-0.7851064999999996,2.1378752999928196e-05,-2.3557520000000003,8.593024499997238e-05,1.5709854,0.7859943,0.039999995,0.04,-9.822176999999995,-0.0023454395122877772,0.0012810306999956954,0.0002008191800005586,-0.008255298249427737,0.00012437942000034858
0.1525,0.00016544087999999387,-0.7850976904999996,2.0062842299926996e-05,-2.35575845,8.54239702499719e-05,1.57098555,0.785994015,0.03999999395,0.0399999982,-9.822071999999993,-0.0024403183604643037,0.0012021427449956236,0.00021105632750056792,-0.008332941355188023,0.00013076729600035438
0.155,0.00016533008999999375,-0.7850888809999995,1.87469315999258e-05,-2.3557649000000005,8.491769549997144e-05,1.5709857,0.7859937300000001,0.0399999929,0.0399999964,-9.821966999999994,-0.0025351972086408298,0.0011232547899955518,0.00022129347500057724,-0.008410584460948308,0.00013715517200036021
0.1575,0.00016521929999999366,-0.7850800714999996,1.7431020899924603e-05,-2.3557713500000004,8.441142074997099e-05,1.57098585,0.785993445,0.03999999185,0.0399999946,-9.821861999999994,-0.0026300760568173562,0.00104436683499548,0.00023153062250058656,-0.008488227566708594,0.00014354304800036602
0.16,0.00016510850999999356,-0.7850712619999995,1.6115110199923403e-05,-2.3557778000000003,8.390514599997053e-05,1.570986,0.78599316,0.0399999908,0.0399999928,-9.821756999999995,-0.0027249549049938827,0.000965478879995408,0.00024176777000059588,-0.008565870672468879,0.00014993092400037184
0.1625,0.00016499771999999344,-0.7850624524999995,1.4799199499922206e-05,-2.3557842500000006,8.339887124997007e-05,1.57098615,0.785992875,0.03999998975,0.039999991,-9.821651999999993,-0.002819833753170409,0.0008865909249953362,0.0002520049175006052,-0.008643513778229165,0.00015631880000037765
0.165,0.00016488692999999335,-0.7850536429999995,1.3483288799921008e-05,-2.3557907000000005,8.289259649996961e-05,1.5709863,0.78599259,0.0399999887,0.0399999892,-9.821546999999994,-0.002914712601346935,0.0008077029699952644,0.0002622420650006145,-0.00872115688398945,0.00016270667600038348
0.1675,0.00016476416399999105,-0.7850449984999995,1.203502078989561e-05,-2.3557969250000004,8.233527849995982e-05,1.57098657,0.7859922085,0.0399999878,0.0399999876,-9.821418399999988,-0.0030090057407561846,0.0007349722664963183,0.0002729547885007108,-0.008796741208065915,0.00016947682700045916
0.17,0.0001646174459999909,-0.7850366839999995,1.0322038159894051e-05,-2.3558027000000004,8.167587399995922e-05,1.57098708,0.7859916339999999,0.0399999872,0.0399999864,-9.821242599999989,-0.0031021274626311995,0.0006745560659962632,0.0002846186640007214,-0.00886820796877586,0.00017701152800046602
0.17250000000000001,0.00016447072799999078,-0.7850283694999994,8.609055529892491e-06,-2.3558084750000003,8.101646949995862e-05,1.57098759,0.7859910595,0.0399999866,0.0399999852,-9.821066799999988,-0.0031952491845062144,0.0006141398654962082,0.00029628253950073205,-0.008939674729485805,0.00018454622900047289
0.17500000000000002,0.00016432400999999064,-0.7850200549999995,6.896072899890933e-06,-2.3558142500000003,8.035706499995802e-05,1.5709881,0.785990485,0.039999986,0.039999983999999995,-9.820890999999989,-0.0032883709063812293,0.0005537236649961533,0.00030794641500074267,-0.00901114149019575,0.00019208093000047975
0.1775,0.0001641772919999905,-0.7850117404999994,5.183090269889392e-06,-2.3558200250000003,7.969766049995743e-05,1.5709886100000001,0.7859899105,0.0399999854,0.0399999828,-9.820715199999988,-0.003381492628256243,0.0004933074644960988,0.00031961029050075313,-0.009082608250905694,0.00019961563100048653
0.18,0.00016403057399999037,-0.7850034259999994,3.470107639887833e-06,-2.3558258000000003,7.903825599995683e-05,1.5709891200000001,0.785989336,0.0399999848,0.0399999816,-9.820539399999989,-0.0034746143501312578,0.0004328912639960439,0.00033127416600076375,-0.009154075011615638,0.0002071503320004934
0.1825,0.00016388385599999024,-0.7849951114999995,1.7571250098862727e-06,-2.3558315750000007,7.837885149995623e-05,1.5709896300000001,0.7859887615,0.039999984200000005,0.039999980399999996,-9.820363599999988,-0.0035677360720062726,0.0003724750634959889,0.0003429380415007744,-0.009225541772325584,0.00021468503300050025
0.185,0.0001637089799999873,-0.7849870359999994,-2.6399928014639447e-07,-2.3558370100000006,7.760050799994361e-05,1.57099027,0.7859881879999999,0.0399999833,0.039999979299999995,-9.82021319999999,-0.0036667532753267727,0.0003139431152961241,0.00035644405200097094,-0.009292657580231,0.00022293520000057934
0.1875,0.0001635200249999871,-0.7849790799999994,-2.439194400148375e-06,-2.3558422750000005,7.676269499994284e-05,1.570990975,0.7859876149999999,0.03999998225,0.03999997825,-9.82007549999999,-0.0037687182193691304,0.0002563532932460717,0.0003708711300009841,-0.009357597911734804,0.00023154310000058715
0.19,0.00016333106999998694,-0.7849711239999995,-4.6143895201503555e-06,-2.3558475400000005,7.592488199994209e-05,1.5709916800000001,0.7859870419999999,0.0399999812,0.0399999772,-9.819937799999991,-0.003870683163411488,0.00019876347119601926,0.00038529820800099724,-0.009422538243238607,0.00024015100000059498
0.1925,0.00016314211499998676,-0.7849631679999994,-6.789584640152336e-06,-2.3558528050000005,7.508706899994132e-05,1.570992385,0.7859864689999999,0.03999998015,0.03999997615,-9.819800099999991,-0.003972648107453846,0.00014117364914596682,0.0003997252860010104,-0.009487478574742412,0.0002487589000006028
0.195,0.0001629531599999866,-0.7849552119999994,-8.964779760154316e-06,-2.3558580700000005,7.424925599994057e-05,1.5709930900000002,0.785985896,0.0399999791,0.0399999751,-9.819662399999991,-0.004074613051496204,8.358382709591441e-05,0.0004141523640010235,-0.009552418906246217,0.00025736680000061065
0.1975,0.00016276420499998644,-0.7849472559999995,-1.1139974880156297e-05,-2.3558633350000004,7.34114429999398e-05,1.5709937950000001,0.785985323,0.03999997805,0.03999997405,-9.81952469999999,-0.004176577995538562,2.5994005045861944e-05,0.00042857944200103663,-0.00961735923775002,0.0002659747000006185
0.2,0.00016257524999998272,-0.7849392999999995,-1.3315170000196842e-05,-2.3558686000000004,7.257362999992417e-05,1.5709945,0.7859847499999999,0.039999977,0.039999973,-9.819386999999994,-0.004278542939581466,-3.15958170035673e-05,0.0004430065200011551,-0.009682299569253481,0.00027458260000072705
0.2025,0.00016233746249998249,-0.7849316349999994,-1.6020384450199305e-05,-2.3558732050000004,7.153149149992322e-05,1.5709952200000001,0.785983892,0.03999997595,0.03999997105,-9.819281699999992,-0.004388016671881671,-8.062147245361193e-05,0.0004588814070011696,-0.009742515301336256,0.00028457456500073614
0.20500000000000002,0.00016209967499998228,-0.7849239699999995,-1.8725598900201768e-05,-2.3558778100000004,7.048935299992227e-05,1.5709959400000002,0.7859830339999999,0.0399999749,0.0399999691,-9.819176399999993,-0.004497490404181875,-0.00012964712790365657,0.000474756294001184,-0.00980273103341903,0.00029456653000074523
0.20750000000000002,0.00016186188749998205,-0.7849163049999994,-2.1430813350204227e-05,-2.3558824150000004,6.944721449992133e-05,1.57099666,0.785982176,0.03999997385,0.03999996715,-9.819071099999993,-0.00460696413648208,-0.0001786727833537012,0.0004906311810011985,-0.009862946765501805,0.00030455849500075433
0.21,0.00016162409999998184,-0.7849086399999995,-2.4136027800206663e-05,-2.3558870200000004,6.84050759999204e-05,1.57099738,0.7859813179999999,0.0399999728,0.0399999652,-9.818965799999992,-0.0047164378687822835,-0.00022769843880374527,0.0005065060680012127,-0.00992316249758458,0.0003145504600007633
0.2125,0.0001613863124999816,-0.7849009749999994,-2.6841242250209126e-05,-2.3558916250000004,6.736293749991943e-05,1.5709981000000002,0.78598046,0.03999997175,0.03999996325,-9.818860499999992,-0.004825911601082488,-0.0002767240942537899,0.0005223809550012272,-0.009983378229667356,0.0003245424250007724
0.215,0.0001611485249999814,-0.7848933099999994,-2.954645670021159e-05,-2.3558962300000004,6.632079899991849e-05,1.57099882,0.7859796019999999,0.039999970700000005,0.0399999613,-9.818755199999993,-0.004935385333382693,-0.00032574974970383456,0.0005382558420012417,-0.010043593961750131,0.0003345343900007815
0.2175,0.00016089217999997677,-0.7848857249999994,-3.245172885026154e-05,-2.3559006750000004,6.520149179989923e-05,1.5709996000000002,0.7859787435,0.0399999695,0.039999959700000004,-9.81864369999999,-0.005041729402736284,-0.0003687223640024423,0.0005550467100014735,-0.010102490847934681,0.0003449151230008829
0.22,0.0001605987199999765,-0.7848782999999995,-3.575711640026455e-05,-2.3559048000000002,6.392784719989806e-05,1.5710005,0.7859778839999999,0.039999968000000004,0.0399999588,-9.81851979999999,-0.0051418141461988705,-0.00039958889600247044,0.0005736695400014905,-0.010158750042323724,0.00035607339200089305
0.2225,0.00016030525999997624,-0.7848708749999994,-3.906250395026756e-05,-2.3559089250000005,6.26542025998969e-05,1.5710014,0.7859770245,0.039999966500000005,0.0399999579,-9.81839589999999,-0.0052418988896614565,-0.0004304554280024985,0.0005922923700015074,-0.010215009236712765,0.0003672316610009032
0.225,0.00016001179999997598,-0.7848634499999995,-4.236789150027057e-05,-2.3559130500000003,6.138055799989575e-05,1.5710023,0.7859761649999999,0.039999965,0.039999956999999996,-9.81827199999999,-0.005341983633124043,-0.00046132196000252663,0.0006109152000015244,-0.010271268431101805,0.0003783899300009134
0.2275,0.0001597183399999757,-0.7848560249999994,-4.567327905027358e-05,-2.3559171750000005,6.010691339989459e-05,1.5710032,0.7859753054999999,0.0399999635,0.0399999561,-9.81814809999999,-0.005442068376586629,-0.0004921884920025548,0.0006295380300015413,-0.010327527625490846,0.0003895481990009235
0.23,0.00015942487999997545,-0.7848485999999993,-4.897866660027659e-05,-2.3559213000000003,5.8833268799893426e-05,1.5710041000000001,0.7859744459999999,0.039999962,0.0399999552,-9.81802419999999,-0.005542153120049215,-0.0005230550240025828,0.0006481608600015583,-0.010383786819879889,0.0004007064680009337
0.2325,0.0001591314199999752,-0.7848411749999994,-5.22840541502796e-05,-2.3559254250000006,5.755962419989227e-05,1.571005,0.7859735864999999,0.0399999605,0.039999954299999994,-9.81790029999999,-0.005642237863511801,-0.0005539215560026109,0.0006667836900015752,-0.01044004601426893,0.00041186473700094385
0.23500000000000001,0.0001587961389999728,-0.7848338339999994,-5.603764300030391e-05,-2.3559292000000003,5.611321679988289e-05,1.57100615,0.7859725399999999,0.0399999606,0.039999954399999996,-9.817799999999993,-0.005752280820169828,-0.0005832082460021773,0.0006863126600015266,-0.010493794456128261,0.00042391326400095455
0.23750000000000002,0.00015843994749997734,-0.7848265349999995,-6.001533250025327e-05,-2.3559328000000006,5.458042799990241e-05,1.5710074250000001,0.7859713999999999,0.0399999615,0.039999955,-9.817711499999994,-0.005867302883423674,-0.0006117050150018144,0.0007062947000012722,-0.010546287521723218,0.0004364069200007955
0.24,0.00015808375599998188,-0.7848192359999996,-6.399302200020257e-05,-2.3559364000000005,5.304763919992194e-05,1.5710087,0.7859702599999999,0.0399999624,0.0399999556,-9.817622999999996,-0.005982324946677518,-0.0006402017840014513,0.0007262767400010176,-0.010598780587318174,0.0004489005760006363
0.2425,0.0001577275644999864,-0.7848119369999997,-6.797071150015193e-05,-2.3559400000000004,5.151485039994145e-05,1.571009975,0.78596912,0.0399999633,0.0399999562,-9.817534499999997,-0.006097347009931363,-0.0006686985530010884,0.0007462587800007633,-0.01065127365291313,0.0004613942320004772
0.245,0.00015737137299999093,-0.7848046379999998,-7.194840100010128e-05,-2.3559436000000002,4.998206159996097e-05,1.57101125,0.78596798,0.0399999642,0.0399999568,-9.817445999999997,-0.006212369073185209,-0.0006971953220007256,0.0007662408200005089,-0.010703766718508088,0.0004738878880003182
0.2475,0.00015701518149999547,-0.7847973389999999,-7.592609050005064e-05,-2.3559472,4.8449272799980484e-05,1.571012525,0.7859668399999999,0.0399999651,0.0399999574,-9.817357499999998,-0.006327391136439054,-0.0007256920910003628,0.0007862228600002544,-0.010756259784103044,0.0004863815440001591
0.25,0.00015665899,-0.78479004,-7.990378e-05,-2.3559508,4.6916484e-05,1.5710138,0.7859657,0.039999966,0.039999958,-9.817269,-0.0064424131996929,-0.00075418886,0.0008062049,-0.010808752849698,0.0004988752
0.2525,0.00015623282649999382,-0.7847828339999999,-8.462760700006874e-05,-2.355953815,4.509615134997351e-05,1.57101509,0.785964266,0.0399999666,0.039999958,-9.817169999999997,-0.0065408217022209225,-0.0007804043720003815,0.0008288987660003302,-0.010857168817893316,0.0005128594450002035
0.255,0.0001558066629999876,-0.7847756279999998,-8.935143400013748e-05,-2.3559568300000002,4.327581869994702e-05,1.57101638,0.785962832,0.0399999672,0.039999958,-9.817070999999997,-0.006639230204748945,-0.000806619884000763,0.0008515926320006605,-0.01090558478608863,0.000526843690000407
0.2575,0.0001553804994999814,-0.7847684219999997,-9.407526100020624e-05,-2.355959845,4.145548604992053e-05,1.57101767,0.785961398,0.0399999678,0.039999958,-9.816971999999994,-0.006737638707276967,-0.0008328353960011445,0.0008742864980009908,-0.010954000754283945,0.0005408279350006106
0.26,0.0001549543359999752,-0.7847612159999996,-9.879908800027498e-05,-2.35596286,3.963515339989404e-05,1.57101896,0.7859599639999999,0.0399999684,0.039999958,-9.816872999999994,-0.006836047209804989,-0.0008590509080015261,0.0008969803640013211,-0.011002416722479258,0.0005548121800008141
0.2625,0.000154528172499969,-0.7847540099999996,-0.00010352291500034372,-2.3559658750000003,3.7814820749867545e-05,1.5710202500000001,0.7859585299999999,0.039999969,0.039999958,-9.816773999999992,-0.006934455712333011,-0.0008852664200019075,0.0009196742300016513,-0.011050832690674573,0.0005687964250010176
0.265,0.00015410200899996279,-0.7847468039999994,-0.00010824674200041247,-2.35596889,3.599448809984106e-05,1.57102154,0.7859570959999999,0.039999969600000004,0.039999958,-9.816674999999991,-0.007032864214861033,-0.000911481932002289,0.0009423680960019816,-0.011099248658869888,0.0005827806700012211
0.2675,0.000153650070999951,-0.7847395919999993,-0.00011324434950053966,-2.355971815,3.406861409979203e-05,1.5710230150000002,0.7859556029999999,0.03999997,0.039999958,-9.81657714999999,-0.007138075819250574,-0.0009311092680006278,0.0009659191480024589,-0.011146652745087362,0.0005971843650014834
0.27,0.00015314658399995053,-0.7847323679999993,-0.00011878951800054471,-2.3559745600000004,3.1931657399790085e-05,1.57102486,0.7859539919999998,0.03999997,0.039999958,-9.81648159999999,-0.0072568936273572126,-0.0009375602520006336,0.0009911845720024818,-0.011192033067350038,0.0006124269600014974
0.2725,0.0001526430969999501,-0.7847251439999993,-0.00012433468650054977,-2.355977305,2.9794700699788136e-05,1.5710267050000002,0.7859523809999999,0.03999997,0.039999958,-9.816386049999991,-0.007375711435463851,-0.0009440112360006395,0.0010164499960025049,-0.011237413389612714,0.0006276695550015112
0.275,0.00015213960999994962,-0.7847179199999993,-0.00012987985500055482,-2.3559800500000003,2.765774399978619e-05,1.57102855,0.7859507699999999,0.03999997,0.039999958,-9.81629049999999,-0.007494529243570489,-0.0009504622200006454,0.001041715420002528,-0.01128279371187539,0.0006429121500015251
0.2775,0.00015163612299994917,-0.7847106959999993,-0.00013542502350055987,-2.355982795,2.5520787299784244e-05,1.5710303950000002,0.7859491589999998,0.03999997,0.039999958,-9.816194949999991,-0.007613347051677127,-0.0009569132040006513,0.001066980844002551,-0.011328174034138067,0.000658154745001539
0.28,0.0001511326359999487,-0.7847034719999992,-0.00014097019200056492,-2.3559855400000003,2.33838305997823e-05,1.57103224,0.7859475479999999,0.03999997,0.039999958,-9.81609939999999,-0.007732164859783765,-0.0009633641880006572,0.0010922462680025738,-0.011373554356400743,0.0006733973400015529
0.28250000000000003,0.00015062914899994825,-0.7846962479999993,-0.00014651536050056996,-2.355988285,2.1246873899780353e-05,1.5710340850000002,0.7859459369999998,0.03999997,0.039999958,-9.81600384999999,-0.007850982667890404,-0.0009698151720006631,0.0011175116920025968,-0.01141893467866342,0.0006886399350015667
0.28500000000000003,0.000150069095999939,-0.7846889659999993,-0.0001526590120006681,-2.35599051,1.887932119974254e-05,1.5710359500000002,0.7859441799999998,0.0399999703,0.039999958200000005,-9.815933999999995,-0.007954839151362554,-0.0009847996600019964,0.001144141040002832,-0.01146235167980625,0.0007048223300017268
0.28750000000000003,0.00014948075999993846,-0.7846816549999992,-0.00015910190500067396,-2.355992475,1.639647049974028e-05,1.571037825,0.7859423499999998,0.03999997075,0.0399999585,-9.815876999999995,-0.008051214972520933,-0.001004050900002014,0.001171452350002857,-0.011504787020389614,0.0007214746250017419
0.29,0.00014889242399993794,-0.7846743439999992,-0.0001655447980006797,-2.35599444,1.3913619799738075e-05,1.5710397000000003,0.7859405199999998,0.039999971200000005,0.0399999588,-9.815819999999995,-0.008147590793679308,-0.0010233021400020308,0.0011987636600028812,-0.011547222360972977,0.0007381269200017567
0.2925,0.0001483040879999374,-0.7846670329999992,-0.00017198769100068556,-2.355996405,1.1430769099735815e-05,1.5710415750000002,0.7859386899999998,0.03999997165,0.0399999591,-9.815762999999995,-0.008243966614837684,-0.0010425533800020484,0.0012260749700029059,-0.01158965770155634,0.0007547792150017719
0.295,0.00014771575199993688,-0.7846597219999992,-0.00017843058400069143,-2.35599837,8.947918399733556e-06,1.5710434500000001,0.7859368599999998,0.0399999721,0.0399999594,-9.815705999999995,-0.008340342435996063,-0.001061804620002066,0.0012533862800029308,-0.011632093042139705,0.000771431510001787
0.2975,0.00014712741599993634,-0.7846524109999992,-0.0001848734770006973,-2.356000335,6.465067699731295e-06,1.5710453250000003,0.7859350299999998,0.03999997255,0.039999959700000004,-9.815648999999995,-0.008436718257154441,-0.0010810558600020835,0.0012806975900029557,-0.011674528382723069,0.0007880838050018023
0.3,0.0001465390799999257,-0.7846450999999992,-0.00019131637000080955,-2.3560023,3.982216999688047e-06,1.5710472000000002,0.7859331999999998,0.039999973,0.03999996,-9.81559199999999,-0.008533094078315085,-0.0011003070999997654,0.0013080089000032222,-0.011716963723306108,0.0008047361000019867
0.3025,0.00014585831399992509,-0.7846376599999991,-0.00019873425850081632,-2.3560040250000003,1.1237988496854437e-06,1.5710496300000003,0.7859310894999998,0.0399999736,0.03999996,-9.81549014999999,-0.008650240255532567,-0.0010981579149997635,0.001337533715003249,-0.01175643731840381,0.0008229399440020033
0.305,0.00014517754799992446,-0.7846302199999992,-0.00020615214700082305,-2.3560057500000005,-1.7346193003171584e-06,1.5710520600000002,0.7859289789999998,0.0399999742,0.03999996,-9.81538829999999,-0.008767386432750048,-0.0010960087299997615,0.0013670585300032758,-0.01179591091350151,0.0008411437880020199
0.3075,0.00014449678199992386,-0.7846227799999992,-0.00021357003550082982,-2.356007475,-4.593037450319761e-06,1.5710544900000003,0.7859268684999998,0.0399999748,0.03999996,-9.81528644999999,-0.00888453260996753,-0.0010938595449997597,0.0013965833450033027,-0.01183538450859921,0.0008593476320020364
0.31,0.00014381601599992324,-0.7846153399999991,-0.00022098792400083655,-2.3560092000000004,-7.451455600322364e-06,1.5710569200000004,0.7859247579999997,0.0399999754,0.03999996,-9.81518459999999,-0.00900167878718501,-0.0010917103599997577,0.0014261081600033297,-0.011874858103696912,0.000877551476002053
0.3125,0.0001431352499999226,-0.7846078999999991,-0.00022840581250084332,-2.356010925,-1.0309873750324967e-05,1.5710593500000003,0.7859226474999997,0.039999976,0.03999996,-9.81508274999999,-0.009118824964402493,-0.0010895611749997557,0.0014556329750033566,-0.011914331698794613,0.0008957553200020696
0.315,0.00014245448399992198,-0.7846004599999992,-0.00023582370100085005,-2.3560126500000003,-1.3168291900327568e-05,1.5710617800000004,0.7859205369999998,0.0399999766,0.03999996,-9.81498089999999,-0.009235971141619975,-0.0010874119899997538,0.0014851577900033834,-0.011953805293892315,0.0009139591640020861
0.3175,0.0001417403539999098,-0.7845929484999992,-0.00024359257050097843,-2.356014145,-1.6161953800377034e-05,1.5710643550000005,0.7859183234999998,0.03999997715,0.0399999603,-9.814896749999996,-0.009344684891413314,-0.0010883579600008244,0.001515457425003679,-0.011992437113080658,0.0009325982870022535
0.32,0.0001409594959999091,-0.7845852939999991,-0.00025206340200098617,-2.35601518,-1.9426103200380004e-05,1.5710672200000004,0.7859159039999998,0.0399999776,0.0399999612,-9.814847999999994,-0.009436533786367112,-0.0010954942400008309,0.0015473067000037078,-0.012029385380451162,0.0009521079680022713
0.3225,0.00014017863799990838,-0.7845776394999991,-0.00026053423350099386,-2.3560162150000004,-2.2690252600382978e-05,1.5710700850000003,0.7859134844999998,0.039999978049999996,0.0399999621,-9.814799249999995,-0.009528382681320911,-0.0011026305200008374,0.0015791559750037369,-0.012066333647821665,0.0009716176490022891
0.325,0.00013939777999990766,-0.7845699849999991,-0.00026900506500100155,-2.3560172500000003,-2.595440200038595e-05,1.5710729500000005,0.7859110649999997,0.0399999785,0.039999963,-9.814750499999995,-0.00962023157627471,-0.0011097668000008439,0.0016110052500037657,-0.012103281915192169,0.0009911273300023068
0.3275,0.00013861692199990697,-0.7845623304999991,-0.0002774758965010093,-2.356018285,-2.921855140038892e-05,1.5710758150000004,0.7859086454999997,0.03999997895,0.0399999639,-9.814701749999994,-0.009712080471228509,-0.0011169030800008504,0.0016428545250037948,-0.012140230182562672,0.0010106370110023247
0.33,0.00013783606399990625,-0.7845546759999992,-0.000285946728001017,-2.35601932,-3.248270080039189e-05,1.5710786800000003,0.7859062259999997,0.039999979399999996,0.039999964799999996,-9.814652999999995,-0.009803929366182308,-0.0011240393600008569,0.0016747038000038236,-0.012177178449933176,0.0010301466920023424
0.3325,0.00013705520599990552,-0.7845470214999991,-0.0002944175595010247,-2.3560203550000005,-3.574685020039486e-05,1.5710815450000002,0.7859038064999997,0.03999997985,0.0399999657,-9.814604249999995,-0.009895778261136107,-0.0011311756400008634,0.0017065530750038527,-0.01221412671730368,0.0010496563730023603
0.335,0.00013620247299989168,-0.7845391889999991,-0.0003036426600011703,-2.3560211000000004,-3.930148700045095e-05,1.5710845000000002,0.7859011559999997,0.0399999797,0.0399999652,-9.81452949999999,-0.010002001095576902,-0.0011283699599990522,0.0017400239800041781,-0.012248732615266334,0.0010702121300025691
0.3375,0.00013531380249989086,-0.784531267499999,-0.00031324489500117903,-2.3560217000000003,-4.3001367500454314e-05,1.5710875000000004,0.7858983899999996,0.03999997925,0.039999964,-9.81444174999999,-0.010115410899757276,-0.0011205932999990452,0.0017743057000042094,-0.012282167328525705,0.0010912909250025884
0.34,0.00013442513199989005,-0.7845233459999991,-0.0003228471300011878,-2.3560223000000002,-4.670124800045768e-05,1.5710905000000004,0.7858956239999997,0.039999978799999995,0.0399999628,-9.81435399999999,-0.010228820703937649,-0.0011128166399990381,0.0018085874200042405,-0.012315602041785076,0.0011123697200026074
0.3425,0.00013353646149988924,-0.784515424499999,-0.00033244936500119655,-2.3560229,-5.040112850046105e-05,1.5710935000000004,0.7858928579999996,0.03999997835,0.0399999616,-9.814266249999989,-0.010342230508118022,-0.001105039979999031,0.0018428691400042719,-0.012349036755044446,0.0011334485150026267
0.34500000000000003,0.00013264779099988845,-0.784507502999999,-0.0003420516000012053,-2.3560235,-5.410100900046442e-05,1.5710965000000003,0.7858900919999996,0.0399999779,0.0399999604,-9.814178499999988,-0.010455640312298394,-0.0010972633199990238,0.001877150860004303,-0.012382471468303817,0.001154527310002646
0.34750000000000003,0.00013175912049988764,-0.784499581499999,-0.00035165383500121406,-2.3560241,-5.7800889500467785e-05,1.5710995000000005,0.7858873259999997,0.03999997745,0.039999959200000004,-9.81409074999999,-0.010569050116478768,-0.0010894866599990168,0.0019114325800043343,-0.012415906181563187,0.001175606105002665
0.35000000000000003,0.0001308704499998721,-0.784491659999999,-0.0003612560700013769,-2.3560247,-6.150077000053052e-05,1.5711025000000005,0.7858845599999995,0.039999977,0.039999958,-9.814002999999992,-0.010682459920655491,-0.0010817099999984054,0.0019457143000046766,-0.01244934089482246,0.001196684900002852
0.3525,0.00012986622249987122,-0.784483424999999,-0.0003720684345013865,-2.356024925,-6.566677700053422e-05,1.5711060700000006,0.7858814459999995,0.03999997745,0.0399999583,-9.813952599999993,-0.0107671992853392,-0.001069186799998394,0.0019824384550047093,-0.012482004472990044,0.0012190798550028718
0.355,0.0001288619949998703,-0.784475189999999,-0.00038288079900139634,-2.35602515,-6.9832784000538e-05,1.5711096400000004,0.7858783319999996,0.0399999779,0.0399999586,-9.813902199999994,-0.010851938650022912,-0.0010566635999983828,0.0020191626100047426,-0.012514668051157628,0.001241474810002892
0.3575,0.0001278577674998694,-0.784466954999999,-0.0003936931635014062,-2.356025375,-7.399879100054179e-05,1.5711132100000005,0.7858752179999996,0.03999997835,0.0399999589,-9.813851799999993,-0.010936678014706625,-0.0010441403999983713,0.002055886765004776,-0.012547331629325214,0.0012638697650029125
0.36,0.00012685353999986848,-0.7844587199999989,-0.000404505528001416,-2.3560256,-7.816479800054559e-05,1.5711167800000005,0.7858721039999996,0.039999978799999995,0.039999959200000004,-9.813801399999994,-0.011021417379390337,-0.00103161719999836,0.0020926109200048097,-0.012579995207492797,0.0012862647200029328
0.3625,0.00012584931249986757,-0.7844504849999989,-0.00041531789250142585,-2.356025825,-8.233080500054938e-05,1.5711203500000004,0.7858689899999995,0.03999997925,0.0399999595,-9.813750999999995,-0.01110615674407405,-0.0010190939999983484,0.002129335075004843,-0.012612658785660383,0.0013086596750029533
0.365,0.00012484508499986666,-0.7844422499999989,-0.0004261302570014357,-2.35602605,-8.649681200055317e-05,1.5711239200000005,0.7858658759999996,0.0399999797,0.0399999598,-9.813700599999994,-0.011190896108757762,-0.0010065707999983371,0.0021660592300048764,-0.012645322363827967,0.0013310546300029735
0.3675,0.0001237997474998544,-0.7844338919999988,-0.00043737230500156285,-2.35602608,-9.082831850060213e-05,1.5711276800000005,0.7858626449999996,0.03999997985,0.039999959700000004,-9.813650299999994,-0.011283674556776023,-0.000993217271998061,0.0022035753800050497,-0.01267716614529878,0.0013539738950030954
0.37,0.00012267218999986875,-0.784425287999999,-0.0004494737200014088,-2.35602572,-9.549082400054277e-05,1.5711318200000004,0.7858591799999995,0.039999979399999996,0.0399999588,-9.813600199999994,-0.011392531171453732,-0.000978203087998252,0.002242675520004552,-0.012707370333377037,0.0013779417800027902
0.3725,0.0001215446324998831,-0.7844166839999991,-0.00046157513500125473,-2.35602536,-0.00010015332950048342,1.5711359600000006,0.7858557149999996,0.03999997895,0.0399999579,-9.813550099999995,-0.011501387786131441,-0.0009631889039984433,0.0022817756600040542,-0.012737574521455292,0.001401909665002485
0.375,0.00012041707499989746,-0.7844080799999992,-0.0004736765500011006,-2.356025,-0.00010481583500042405,1.5711401000000005,0.7858522499999997,0.0399999785,0.039999956999999996,-9.813499999999996,-0.01161024440080915,-0.0009481747199986345,0.002320875800003556,-0.012767778709533547,0.0014258775500021797
0.3775,0.00011928951749991181,-0.7843994759999993,-0.00048577796500094656,-2.35602464,-0.00010947834050036468,1.5711442400000004,0.7858487849999997,0.039999978049999996,0.0399999561,-9.813449899999997,-0.01171910101548686,-0.0009331605359988256,0.0023599759400030583,-0.012797982897611802,0.0014498454350018748
0.38,0.00011816195999992616,-0.7843908719999994,-0.0004978793800007925,-2.35602428,-0.00011414084600030532,1.5711483800000003,0.7858453199999997,0.0399999776,0.0399999552,-9.813399799999997,-0.011827957630164568,-0.0009181463519990167,0.0023990760800025606,-0.012828187085690059,0.0014738133200015695
0.3825,0.00011703440249994053,-0.7843822679999995,-0.0005099807950006384,-2.35602392,-0.00011880335150024596,1.5711525200000003,0.7858418549999998,0.03999997715,0.039999954299999994,-9.813349699999998,-0.011936814244842277,-0.0009031321679992079,0.002438176220002063,-0.012858391273768314,0.0014977812050012643
0.385,0.00011581945299991529,-0.7843733499999993,-0.0005229941900009065,-2.35602339,-0.00012381696000034927,1.5711568900000004,0.7858381239999996,0.0399999777,0.0399999546,-9.813284399999995,-0.01202370431274683,-0.0008891301189990916,0.0024788190800027875,-0.012886693235488552,0.0015226237600017014
0.3875,0.0001145608074998798,-0.7843642749999991,-0.0005364635750012863,-2.356022775,-0.00012900612000049557,1.5711613750000004,0.7858342599999996,0.03999997875,0.039999955499999996,-9.813211499999992,-0.0120996111072672,-0.0008756341374987111,0.002520233300003955,-0.012914044084029987,0.0015479036500024143
0.39,0.0001133021619998443,-0.7843551999999988,-0.0005499329600016661,-2.3560221599999998,-0.00013419528000064188,1.5711658600000007,0.7858303959999995,0.0399999798,0.0399999564,-9.813138599999991,-0.01217551790178757,-0.0008621381559983306,0.002561647520005123,-0.012941394932571423,0.001573183540003127
0.3925,0.00011204351649980882,-0.7843461249999987,-0.0005634023450020459,-2.356021545,-0.00013938444000078818,1.5711703450000007,0.7858265319999994,0.03999998085,0.0399999573,-9.813065699999989,-0.01225142469630794,-0.0008486421744979501,0.0026030617400062904,-0.01296874578111286,0.0015984634300038399
0.395,0.00011078487099977334,-0.7843370499999984,-0.0005768717300024257,-2.35602093,-0.0001445736000009345,1.5711748300000008,0.7858226679999992,0.0399999819,0.0399999582,-9.812992799999988,-0.01232733149082831,-0.0008351461929975696,0.002644475960007458,-0.012996096629654296,0.0016237433200045526
0.3975,0.00010952622549973784,-0.7843279749999982,-0.0005903411150028054,-2.356020315,-0.00014976276000108082,1.571179315000001,0.7858188039999991,0.03999998295,0.0399999591,-9.812919899999985,-0.012403238285348681,-0.0008216502114971891,0.002685890180008626,-0.013023447478195732,0.0016490232100052655
0.4,0.00010826757999966953,-0.7843188999999978,-0.0006038105000035274,-2.3560196999999996,-0.00015495192000135894,1.5711838000000011,0.785814939999999,0.039999984,0.03999996,-9.812846999999998,-0.01247914507987586,-0.0008081542299936928,0.002727304400010375,-0.013050798326737223,0.0016743031000062537
0.4025,0.00010687012299968732,-0.7843093599999978,-0.0006187264700033375,-2.3560183949999995,-0.00016069852500128577,1.571188705000001,0.785810666499999,0.0399999834,0.03999996,-9.812842799999999,-0.012583845807262791,-0.0007814824554940324,0.0027711773000098166,-0.013078380934900232,0.001700747920005917
0.405,0.00010547266599970511,-0.784299819999998,-0.0006336424400031475,-2.35601709,-0.0001664451300012126,1.571193610000001,0.7858063929999991,0.0399999828,0.03999996,-9.8128386,-0.012688546534649724,-0.0007548106809943719,0.002815050200009258,-0.01310596354306324,0.0017271927400055803
0.40750000000000003,0.0001040752089997229,-0.7842902799999981,-0.0006485584100029576,-2.356015785,-0.00017219173500113944,1.571198515000001,0.7858021194999991,0.0399999822,0.03999996,-9.812834399999998,-0.012793247262036655,-0.0007281389064947115,0.0028589231000086994,-0.01313354615122625,0.0017536375600052435
0.41000000000000003,0.0001026777519997407,-0.7842807399999983,-0.0006634743800027677,-2.35601448,-0.00017793834000106627,1.571203420000001,0.7857978459999992,0.0399999816,0.03999996,-9.812830199999999,-0.012897947989423588,-0.0007014671319950511,0.0029027960000081406,-0.013161128759389257,0.0017800823800049068
0.41250000000000003,0.00010128029499975849,-0.7842711999999984,-0.0006783903500025778,-2.3560131749999997,-0.0001836849450009931,1.5712083250000008,0.7857935724999993,0.039999981,0.03999996,-9.812826,-0.01300264871681052,-0.0006747953574953907,0.0029466689000075823,-0.013188711367552267,0.0018065272000045702
0.41500000000000004,9.988283799977629e-05,-0.7842616599999984,-0.0006933063200023878,-2.3560118699999997,-0.00018943155000091994,1.5712132300000008,0.7857892989999994,0.039999980399999996,0.03999996,-9.812821799999998,-0.013107349444197452,-0.0006481235829957303,0.0029905418000070235,-0.013216293975715275,0.0018329720200042335
0.4175,9.843650879976548e-05,-0.7842519364999985,-0.000708730652502497,-2.356010425,-0.00019537368450096187,1.5712182800000007,0.7857848794999993,0.039999980399999996,0.03999996,-9.812789649999987,-0.01319676912390586,-0.0006225353789964429,0.003035177640007011,-0.01324298777617892,0.001860116075004335
0.42,9.689243519976408e-05,-0.7842418459999985,-0.000725171710002512,-2.3560087,-0.00020170687800096765,1.5712236200000007,0.7857801679999993,0.0399999816,0.03999996,-9.812701599999986,-0.013255626708278073,-0.0005991143159964215,0.003081339360007053,-0.013267903961245046,0.001888658600004361
0.4225,9.534836159976267e-05,-0.7842317554999985,-0.0007416127675025269,-2.3560069749999997,-0.0002080400715009734,1.571228960000001,0.7857754564999992,0.0399999828,0.03999996,-9.812613549999986,-0.013314484292650287,-0.0005756932529964003,0.003127501080007095,-0.013292820146311174,0.001917201125004387
0.425,9.380428799976127e-05,-0.7842216649999985,-0.0007580538250025419,-2.3560052499999995,-0.00021437326500097918,1.5712343000000009,0.7857707449999992,0.039999984,0.03999996,-9.812525499999985,-0.0133733418770225,-0.0005522721899963789,0.003173662800007137,-0.013317736331377302,0.001945743650004413
0.4275,9.226021439975987e-05,-0.7842115744999985,-0.0007744948825025568,-2.3560035249999998,-0.00022070645850098494,1.5712396400000008,0.7857660334999993,0.0399999852,0.03999996,-9.812437449999987,-0.013432199461394715,-0.0005288511269963575,0.0032198245200071793,-0.01334265251644343,0.001974286175004439
0.43,9.071614079975847e-05,-0.7842014839999984,-0.0007909359400025719,-2.3560017999999996,-0.0002270396520009907,1.5712449800000008,0.7857613219999993,0.0399999864,0.03999996,-9.812349399999986,-0.013491057045766927,-0.0005054300639963362,0.003265986240007221,-0.013367568701509557,0.002002828700004465
0.4325,8.917206719975706e-05,-0.7841913934999984,-0.0008073769975025868,-2.3560000749999994,-0.00023337284550099647,1.5712503200000008,0.7857566104999992,0.0399999876,0.03999996,-9.812261349999986,-0.013549914630139142,-0.0004820090009963149,0.003312147960007263,-0.013392484886575686,0.002031371225004491
0.435,8.752520239973125e-05,-0.7841808869999983,-0.0008248868150028555,-2.3559979899999997,-0.00024011795400110002,1.5712560500000008,0.7857515859999992,0.039999988,0.039999962800000004,-9.812216699999997,-0.013625420350594617,-0.0004548862569954149,0.0033598943300076813,-0.013417130429301559,0.002059893390004512
0.4375,8.58269419997297e-05,-0.7841701724999983,-0.0008429310125028719,-2.3559957249999997,-0.00024706902000110634,1.5712619750000008,0.7857464049999991,0.039999988,0.039999967000000004,-9.812193749999997,-0.013709250139085818,-0.0004259126724953885,0.0034084330250077257,-0.0134416406508574,0.0020884053750045376
0.44,8.412868159972816e-05,-0.7841594579999983,-0.0008609752100028884,-2.3559934599999997,-0.0002540200860011127,1.571267900000001,0.7857412239999991,0.039999988,0.0399999712,-9.812170799999997,-0.013793079927577018,-0.00039693908799536215,0.0034569717200077696,-0.013466150872413242,0.0021169173600045638
0.4425,8.243042119972661e-05,-0.7841487434999983,-0.0008790194075029048,-2.3559911949999996,-0.00026097115200111897,1.571273825000001,0.7857360429999992,0.039999988,0.0399999754,-9.812147849999997,-0.01387690971606822,-0.00036796550349533575,0.003505510415007814,-0.013490661093969085,0.00214542934500459
0.445,8.073216079972506e-05,-0.7841380289999983,-0.0008970636050029213,-2.3559889299999996,-0.0002679222180011253,1.5712797500000009,0.7857308619999992,0.039999988,0.0399999796,-9.812124899999997,-0.013960739504559422,-0.0003389919189953094,0.003554049110007858,-0.013515171315524927,0.0021739413300046156
0.4475,7.903390039972352e-05,-0.7841273144999983,-0.0009151078025029377,-2.3559866649999996,-0.00027487328400113166,1.5712856750000008,0.7857256809999992,0.039999988,0.0399999838,-9.812101949999997,-0.014044569293050624,-0.00031001833449528305,0.0036025878050079023,-0.01353968153708077,0.0022024533150046418
0.45,7.733563999969546e-05,-0.7841165999999982,-0.0009331520000032292,-2.3559843999999996,-0.0002818243500012439,1.571291600000001,0.7857204999999992,0.039999988,0.039999988,-9.812078999999994,-0.014128399081541343,-0.00028104474999434624,0.003651126500008333,-0.01356419175863637,0.0022309653000051506
0.4525,7.547546149969377e-05,-0.7841052149999982,-0.0009528769250032472,-2.3559816249999996,-0.0002894223315012508,1.571298080000001,0.7857148599999991,0.039999988,0.0399999853,-9.812035049999993,-0.014209287380812891,-0.00024651019104431483,0.0037020281750083798,-0.013587227882821117,0.0022624281300051793
0.455,7.361528299969207e-05,-0.7840938299999982,-0.0009726018500032652,-2.3559788499999996,-0.0002970203130012577,1.571304560000001,0.7857092199999991,0.039999988,0.0399999826,-9.811991099999993,-0.01429017568008444,-0.00021197563209428337,0.003752929850008426,-0.013610264007005863,0.002293890960005208
0.4575,7.175510449969037e-05,-0.7840824449999981,-0.000992326775003283,-2.3559760749999996,-0.0003046182945012646,1.571311040000001,0.7857035799999991,0.039999988,0.0399999799,-9.811947149999993,-0.014371063979355989,-0.0001774410731442519,0.003803831525008472,-0.013633300131190608,0.0023253537900052366
0.46,6.989492599968869e-05,-0.7840710599999982,-0.0010120517000033011,-2.3559732999999996,-0.00031221627600127157,1.5713175200000011,0.785697939999999,0.039999988,0.0399999772,-9.811903199999993,-0.014451952278627537,-0.00014290651419422048,0.0038547332000085184,-0.013656336255375354,0.0023568166200052653
0.4625,6.803474749968699e-05,-0.7840596749999981,-0.001031776625003319,-2.3559705249999996,-0.00031981425750127846,1.571324000000001,0.785692299999999,0.039999988,0.0399999745,-9.811859249999992,-0.014532840577899086,-0.00010837195524418904,0.0039056348750085646,-0.0136793723795601,0.002388279450005294
0.465,6.617456899968531e-05,-0.7840482899999981,-0.001051501550003337,-2.3559677499999996,-0.0003274122390012854,1.5713304800000012,0.785686659999999,0.039999988,0.0399999718,-9.811815299999992,-0.014613728877170634,-7.383739629415758e-05,0.003956536550008611,-0.013702408503744847,0.0024197422800053226
0.4675,6.425790399965479e-05,-0.784036674999998,-0.001071812360003654,-2.3559648349999995,-0.00033523567200140734,1.5713371850000013,0.7856808499999989,0.0399999881,0.0399999695,-9.811770549999991,-0.014681758498780157,-4.2852433645937365e-05,0.004008196000009044,-0.013724953867498653,0.0024516714150055892
0.47000000000000003,6.222826599965294e-05,-0.784024599999998,-0.0010932949400036735,-2.3559616399999994,-0.0003435100080014149,1.5713443400000013,0.785674699999999,0.0399999884,0.039999968000000004,-9.811724199999992,-0.014724070765085275,-1.8966663595915618e-05,0.004061371000009093,-0.013746517710391327,0.002484533160005619
0.47250000000000003,6.019862799965109e-05,-0.784012524999998,-0.001114777520003693,-2.3559584449999997,-0.0003517843440014224,1.5713514950000012,0.7856685499999989,0.0399999887,0.039999966500000005,-9.811677849999992,-0.014766383031390393,4.919106454106128e-06,0.004114546000009141,-0.013768081553284002,0.002517394905005649
0.47500000000000003,5.8168989999649245e-05,-0.784000449999998,-0.0011362601000037126,-2.3559552499999996,-0.00036005868000142996,1.5713586500000012,0.7856623999999989,0.039999989,0.039999965,-9.811631499999992,-0.014808695297695513,2.880487650412788e-05,0.00416772100000919,-0.013789645396176676,0.002550256650005679
0.47750000000000004,5.613935199964739e-05,-0.783988374999998,-0.0011577426800037322,-2.3559520549999995,-0.00036833301600143746,1.5713658050000012,0.785656249999999,0.0399999893,0.0399999635,-9.811585149999992,-0.01485100756400063,5.269064655414963e-05,0.004220896000009238,-0.01381120923906935,0.002583118395005709
0.48,5.4109713999645594e-05,-0.7839762999999978,-0.0011792252600037513,-2.3559488599999994,-0.00037660735200144486,1.5713729600000013,0.7856500999999989,0.0399999896,0.039999962,-9.811538799999992,-0.014893319830305748,7.657641660417083e-05,0.004274071000009285,-0.013832773081962025,0.002615980140005738
0.4825,5.208007599964374e-05,-0.7839642249999978,-0.0012007078400037708,-2.3559456649999992,-0.00038488168800145236,1.571380115000001,0.7856439499999989,0.0399999899,0.0399999605,-9.811492449999992,-0.014935632096610866,0.00010046218665419259,0.004327246000009334,-0.0138543369248547,0.0026488418850057678
0.485,4.9932483999610676e-05,-0.7839516299999977,-0.001223413000004114,-2.3559421399999994,-0.0003936267460015845,1.5713877000000014,0.7856374399999988,0.039999991,0.039999961,-9.811463899999996,-0.01500414768235328,0.00013781385600777815,0.0043819736000097935,-0.013875411730263305,0.0026822698700059476
0.4875,4.772591499960867e-05,-0.7839387749999978,-0.001246729450004135,-2.355938449999999,-0.00040260716500159266,1.5713955000000013,0.7856307499999988,0.0399999925,0.0399999625,-9.811444249999997,-0.015085764927803974,0.0001818984750078183,0.004437477500009844,-0.01389624201693007,0.0027159809750059785
0.49,4.551934599960666e-05,-0.7839259199999977,-0.0012700459000041563,-2.3559347599999994,-0.0004115875840016008,1.5714033000000014,0.7856240599999988,0.039999994,0.039999964,-9.811424599999997,-0.015167382173254668,0.0002259830940078584,0.004492981400009894,-0.013917072303596833,0.0027496920800060094
0.4925,4.331277699960465e-05,-0.7839130649999977,-0.0012933623500041777,-2.355931069999999,-0.000420568003001609,1.5714111000000013,0.7856173699999989,0.0399999955,0.039999965500000005,-9.811404949999996,-0.015248999418705363,0.0002700677130078985,0.0045484853000099445,-0.013937902590263597,0.00278340318500604
0.495,4.1106207999602645e-05,-0.7839002099999977,-0.001316678800004199,-2.3559273799999993,-0.00042954842200161716,1.5714189000000014,0.7856106799999988,0.039999997,0.039999967000000004,-9.811385299999996,-0.015330616664156057,0.00031415233200793866,0.004603989200009996,-0.013958732876930361,0.0028171142900060707
0.4975,3.889963899960064e-05,-0.7838873549999977,-0.00133999525000422,-2.355923689999999,-0.00043852884100162537,1.5714267000000015,0.7856039899999988,0.0399999985,0.039999968500000004,-9.811365649999997,-0.015412233909606752,0.0003582369510079788,0.004659493100010046,-0.013979563163597126,0.0028508253950061016
0.5,3.669306999956509e-05,-0.7838744999999976,-0.0013633117000045887,-2.355919999999999,-0.00044750926000176726,1.5714345000000016,0.7855972999999987,0.04,0.03999997,-9.811345999999995,-0.015493851155048121,0.0004023215700047835,0.0047149970000105205,-0.0140003934502637,0.0028845365000062843
0.5025000000000001,3.430213164959548e-05,-0.7838608409999978,-0.001388537515004268,-2.355915904999999,-0.0004572249370016438,1.5714429450000016,0.7855900699999988,0.03999999925,0.03999997105,-9.811312999999995,-0.015524210408335046,0.0004286191635044493,0.004772833955009785,-0.014020184660333708,0.002919083105005845
0.505,3.191119329962597e-05,-0.7838471819999979,-0.0014137633300039462,-2.3559118099999994,-0.0004669406140015199,1.5714513900000013,0.7855828399999989,0.0399999985,0.0399999721,-9.811279999999995,-0.01555456966162197,0.0004549167570041139,0.004830670910009048,-0.014039975870403716,0.0029536297100054044
0.5075000000000001,2.9520254949656362e-05,-0.7838335229999981,-0.0014389891450036255,-2.3559077149999994,-0.00047665629100139637,1.5714598350000013,0.785575609999999,0.03999999775,0.03999997315,-9.811246999999995,-0.015584928914908893,0.00048121435050377964,0.004888507865008313,-0.014059767080473724,0.002988176315004965
0.51,2.7129316599686857e-05,-0.7838198639999983,-0.001464214960003304,-2.3559036199999994,-0.0004863719680012725,1.5714682800000013,0.7855683799999991,0.039999997,0.0399999742,-9.811213999999996,-0.015615288168195816,0.0005075119440034442,0.004946344820007575,-0.014079558290543732,0.0030227229200045246
0.5125,2.473837824971735e-05,-0.7838062049999984,-0.0014894407750029822,-2.3558995249999994,-0.0004960876450011486,1.571476725000001,0.7855611499999992,0.03999999625,0.03999997525,-9.811180999999996,-0.01564564742148274,0.0005338095375031089,0.005004181775006837,-0.014099349500613739,0.003057269525004084
0.515,2.234743989974774e-05,-0.7837925459999986,-0.0015146665900026615,-2.3558954299999995,-0.0005058033220010251,1.571485170000001,0.7855539199999992,0.0399999955,0.0399999763,-9.811147999999996,-0.015676006674769663,0.0005601071310027746,0.005062018730006102,-0.014119140710683748,0.003091816130003645
0.5175,1.9892588199725216e-05,-0.7837785999999984,-0.0015405537600028949,-2.3558911149999995,-0.000515773455501115,1.571493830000001,0.7855464999999991,0.03999999525,0.039999977,-9.811120199999998,-0.01571695143357572,0.0005934302020050403,0.00512059821500639,-0.014138809544967676,0.003127018970003885
0.52,1.730990979965234e-05,-0.7837640799999981,-0.0015677636400036627,-2.3558863599999995,-0.0005262525020014107,1.5715029200000012,0.7855386999999989,0.039999996,0.039999977,-9.811102799999997,-0.015779067203410803,0.0006408042280063772,0.005180662760008085,-0.014158233627679555,0.0031635342800049155
0.5225,1.4727231399579577e-05,-0.7837495599999976,-0.0015949735200044292,-2.355881604999999,-0.0005367315485017059,1.5715120100000015,0.7855308999999987,0.03999999675,0.039999977,-9.811085399999996,-0.015841182973245882,0.0006881782540077118,0.0052407273050097776,-0.014177657710391431,0.0032000495900059442
0.525,1.21445529995067e-05,-0.7837350399999973,-0.001622183400005197,-2.355876849999999,-0.0005472105950020016,1.5715211000000018,0.7855230999999985,0.0399999975,0.039999977,-9.811067999999997,-0.015903298743080965,0.0007355522800090486,0.005300791850011472,-0.01419708179310331,0.0032365649000069747
0.5275,9.561874599433939e-06,-0.7837205199999968,-0.0016493932800059636,-2.355872094999999,-0.0005576896415022968,1.571530190000002,0.7855152999999983,0.03999999825,0.039999977,-9.811050599999996,-0.015965414512916044,0.0007829263060103832,0.005360856395013164,-0.014216505875815187,0.0032730802100080034
0.53,6.9791961993610625e-06,-0.7837059999999963,-0.0016766031600067314,-2.3558673399999988,-0.0005681686880025925,1.5715392800000023,0.785507499999998,0.039999999,0.039999977,-9.811033199999995,-0.016027530282751126,0.0008303003320117199,0.005420920940014859,-0.014235929958527066,0.0033095955200090335
0.5325,4.3965177992882996e-06,-0.783691479999996,-0.001703813040007498,-2.355862584999999,-0.0005786477345028877,1.5715483700000024,0.7854996999999978,0.03999999975,0.039999977,-9.811015799999995,-0.01608964605258621,0.0008776743580130547,0.005480985485016551,-0.014255354041238942,0.003346110830010062
0.535,1.6811942992308782e-06,-0.7836763699999957,-0.0017323947000080925,-2.3558575399999984,-0.0005896548950031165,1.5715579100000026,0.7854915099999976,0.04,0.0399999763,-9.810982799999989,-0.016116744093599533,0.0009154778400091295,0.005542561750017235,-0.014274030644451602,0.0033836678400105285
0.5375,-1.100451750733644e-06,-0.7836609649999959,-0.0017616622500077192,-2.355852349999999,-0.0006009261125029728,1.5715676750000025,0.7854831249999977,0.04,0.03999997525,-9.810941999999988,-0.01612633327022443,0.0009484960500087084,0.005604893875016439,-0.014292333507915127,0.003421745700010043
0.54,-3.88209780069829e-06,-0.7836455599999961,-0.0017909298000073472,-2.355847159999999,-0.0006121973300028295,1.5715774400000024,0.7854747399999978,0.04,0.0399999742,-9.81090119999999,-0.01613592244684933,0.0009815142600082887,0.005667226000015647,-0.014310636371378655,0.0034598235600095586
0.5425,-6.663743850662812e-06,-0.7836301549999963,-0.0018201973500069739,-2.355841969999999,-0.0006234685475026857,1.5715872050000024,0.785466354999998,0.04,0.03999997315,-9.81086039999999,-0.016145511623474225,0.0010145324700078675,0.005729558125014852,-0.014328939234842181,0.003497901420009073
0.545,-9.445389900627459e-06,-0.7836147499999965,-0.001849464900006602,-2.355836779999999,-0.0006347397650025425,1.571596970000002,0.7854579699999981,0.04,0.0399999721,-9.810819599999991,-0.016155100800099124,0.0010475506800074479,0.00579189025001406,-0.014347242098305709,0.003535979280008589
0.5475,-1.2227035950591979e-05,-0.7835993449999967,-0.0018787324500062286,-2.355831589999999,-0.0006460109825023987,1.571606735000002,0.7854495849999982,0.04,0.03999997105,-9.810778799999992,-0.01616468997672402,0.0010805688900070267,0.005854222375013265,-0.014365544961769235,0.0035740571400081035
0.55,-1.5008682000597871e-05,-0.7835839399999968,-0.001908000000006283,-2.355826399999999,-0.0006572822000024195,1.571616500000002,0.7854411999999982,0.04,0.03999997,-9.810737999999997,-0.016174279153357136,0.001113587100010797,0.00591655450001291,-0.014383847825232731,0.0036121350000079522
0.5525,-1.7996443200600523e-05,-0.7835676229999967,-0.001939398150006311,-2.355820564999999,-0.0006693732200024302,1.571626970000002,0.7854321999999981,0.04,0.039999967000000004,-9.810721949999998,-0.016224918700764805,0.001167544485010845,0.0059810700700129674,-0.014401992829520113,0.0036518750100079872
0.555,-2.098420440060331e-05,-0.7835513059999967,-0.00197079630000634,-2.3558147299999987,-0.0006814642400024415,1.5716374400000022,0.7854231999999981,0.04,0.039999964,-9.810705899999997,-0.016275558248172478,0.0012215018700108954,0.006045585640013028,-0.014420137833807495,0.0036916150200080244
0.5575,-2.397196560060596e-05,-0.7835349889999966,-0.002002194450006368,-2.3558088949999987,-0.0006935552600024523,1.5716479100000023,0.7854141999999982,0.04,0.039999961,-9.810689849999997,-0.016326197795580148,0.0012754592550109434,0.006110101210013085,-0.014438282838094875,0.00373135503000806
0.56,-2.695972680060875e-05,-0.7835186719999966,-0.0020335926000063973,-2.355803059999999,-0.0007056462800024636,1.5716583800000021,0.7854051999999981,0.04,0.039999958,-9.810673799999998,-0.01637683734298782,0.0013294166400109938,0.006174616780013145,-0.014456427842382257,0.003771095040008097
0.5625,-2.9947488000611403e-05,-0.7835023549999967,-0.002064990750006425,-2.355797224999999,-0.0007177373000024742,1.5716688500000022,0.7853961999999981,0.04,0.039999955,-9.810657749999997,-0.01642747689039549,0.0013833740250110416,0.006239132350013202,-0.014474572846669639,0.0038108350500081324
0.5650000000000001,-3.293524920061419e-05,-0.7834860379999966,-0.0020963889000064546,-2.355791389999999,-0.0007298283200024855,1.5716793200000023,0.7853871999999982,0.04,0.039999952,-9.810641699999998,-0.016478116437803163,0.001437331410011092,0.0063036479200132625,-0.01449271785095702,0.0038505750600081696
0.5675,-3.5994065800660854e-05,-0.7834694069999963,-0.002128521140006937,-2.3557853899999985,-0.0007422019500026713,1.5716900550000024,0.785377984999998,0.04,0.03999994985,-9.810617299999992,-0.016510387882589343,0.0014859985550078633,0.006368913025013784,-0.01451048287563372,0.003890551280008351
0.5700000000000001,-3.919499320066384e-05,-0.7834521479999964,-0.0021621215600069687,-2.355779059999999,-0.0007551408000026834,1.5717013200000025,0.785368339999998,0.04,0.0399999494,-9.810576199999993,-0.016505923122166637,0.0015240852200078987,0.0064356772000138465,-0.014527487941089767,0.003930999920008389
0.5725,-4.239592060066668e-05,-0.7834348889999964,-0.002195721980006998,-2.3557727299999986,-0.0007680796500026949,1.5717125850000024,0.785358694999998,0.04,0.03999994895,-9.810535099999992,-0.016501458361743927,0.0015621718850079326,0.006502441375013906,-0.014544493006545811,0.003971448560008425
0.5750000000000001,-4.5596848000669666e-05,-0.7834176299999963,-0.00222932240000703,-2.355766399999999,-0.000781018500002707,1.5717238500000024,0.785349049999998,0.04,0.0399999485,-9.810493999999991,-0.016496993601321217,0.0016002585500079682,0.006569205550013968,-0.014561498072001857,0.004011897200008462
0.5775,-4.8797775400672504e-05,-0.7834003709999964,-0.0022629228200070593,-2.3557600699999988,-0.0007939573500027185,1.5717351150000023,0.785339404999998,0.04,0.03999994805,-9.81045289999999,-0.01649252884089851,0.0016383452150080019,0.006635969725014027,-0.014578503137457902,0.004052345840008498
0.58,-5.199870280067535e-05,-0.7833831119999963,-0.0022965232400070893,-2.3557537399999986,-0.00080689620000273,1.5717463800000024,0.785329759999998,0.04,0.0399999476,-9.810411799999992,-0.0164880640804758,0.0016764318800080358,0.0067027339000140865,-0.014595508202913948,0.004092794480008534
0.5825,-5.5199630200678336e-05,-0.7833658529999964,-0.0023301236600071205,-2.355747409999999,-0.0008198350500027421,1.5717576450000024,0.785320114999998,0.04,0.03999994715,-9.810370699999991,-0.01648359932005309,0.0017145185450080712,0.006769498075014149,-0.014612513268369993,0.004133243120008572
0.585,-5.854730740072802e-05,-0.7833478799999961,-0.0023652394400076344,-2.3557407499999985,-0.0008333569900029396,1.5717694000000026,0.7853100399999978,0.039999999,0.0399999455,-9.810343799999997,-0.01650654226542297,0.001766103430012414,0.006837706520014669,-0.01462899530306797,0.0041745111600088695
0.5875,-6.196835950073121e-05,-0.783329549999996,-0.0024011129000076677,-2.3557339249999987,-0.0008471704750029525,1.5717814000000025,0.7852997499999977,0.0399999975,0.03999994325,-9.810323999999996,-0.016543189063676057,0.0018244374250124683,0.006906637100014734,-0.014645215822387167,0.004216188900008908
0.59,-6.538941160073426e-05,-0.7833112199999961,-0.0024369863600076994,-2.355727099999999,-0.0008609839600029648,1.5717934000000027,0.7852894599999978,0.039999996,0.039999941000000004,-9.810304199999996,-0.016579835861929147,0.00188277142001252,0.006975567680014795,-0.014661436341706361,0.004257866640008945
0.5925,-6.881046370073743e-05,-0.783292889999996,-0.002472859820007733,-2.3557202749999986,-0.0008747974450029777,1.5718054000000026,0.7852791699999978,0.0399999945,0.03999993875,-9.810284399999997,-0.016616482660182234,0.0019411054150125745,0.007044498260014858,-0.014677656861025555,0.004299544380008984
0.595,-7.223151580074048e-05,-0.7832745599999961,-0.0025087332800077648,-2.3557134499999988,-0.00088861093000299,1.5718174000000027,0.7852688799999977,0.039999993,0.0399999365,-9.810264599999996,-0.016653129458435324,0.0019994394100126263,0.007113428840014919,-0.01469387738034475,0.004341222120009021
0.5975,-7.565256790074367e-05,-0.783256229999996,-0.002544606740007798,-2.3557066249999985,-0.0009024244150030028,1.5718294000000026,0.7852585899999978,0.0399999915,0.03999993425,-9.810244799999996,-0.01668977625668841,0.0020577734050126807,0.007182359420014984,-0.014710097899663946,0.00438289986000906
0.6,-7.907362000079625e-05,-0.7832378999999958,-0.0025804802000083415,-2.3556997999999982,-0.0009162379000032118,1.571841400000003,0.7852482999999976,0.03999999,0.039999932,-9.810224999999997,-0.016726423054927827,0.002116107400008074,0.007251290000015506,-0.014726318418983173,0.004424577600009356
0.6025,-8.272162660079964e-05,-0.7832185349999958,-0.002618695970008377,-2.3556923899999984,-0.0009309527650032255,1.5718541650000029,0.7852373349999976,0.0399999891,0.03999992975,-9.810212399999998,-0.016700436361128303,0.0021530980000081085,0.007322332310015572,-0.014742691768336858,0.004467444390009396
0.605,-8.636963320080289e-05,-0.7831991699999958,-0.002656911740008411,-2.3556849799999986,-0.0009456676300032386,1.5718669300000028,0.7852263699999976,0.0399999882,0.039999927500000004,-9.810199799999998,-0.01667444966732878,0.0021900886000081415,0.0073933746200156355,-0.014759065117690543,0.004510311180009435
0.6075,-9.001763980080629e-05,-0.7831798049999957,-0.0026951275100084464,-2.3556775699999983,-0.0009603824950032522,1.571879695000003,0.7852154049999975,0.0399999873,0.03999992525,-9.810187199999998,-0.016648462973529256,0.0022270792000081757,0.007464416930015701,-0.014775438467044228,0.004553177970009475
0.61,-9.366564640080953e-05,-0.7831604399999957,-0.0027333432800084804,-2.3556701599999985,-0.0009750973600032653,1.5718924600000028,0.7852044399999976,0.0399999864,0.039999923,-9.810174599999998,-0.016622476279729733,0.0022640698000082086,0.007535459240015765,-0.014791811816397913,0.0045960447600095124
0.6125,-9.731365300081294e-05,-0.7831410749999957,-0.0027715590500085163,-2.3556627499999983,-0.000989812225003279,1.571905225000003,0.7851934749999975,0.0399999855,0.03999992075,-9.810161999999996,-0.01659648958593021,0.0023010604000082433,0.007606501550015831,-0.014808185165751598,0.0046389115500095526
0.615,-0.00010096165960081617,-0.7831217099999958,-0.00280977482000855,-2.3556553399999984,-0.0010045270900032922,1.5719179900000029,0.7851825099999975,0.0399999846,0.0399999185,-9.810149399999997,-0.016570502892130686,0.002338051000008276,0.007677543860015895,-0.014824558515105283,0.004681778340009591
0.6175,-0.00010468754880087207,-0.7831019799999954,-0.0028487942000091273,-2.3556477449999984,-0.0010195512400035143,1.571931035000003,0.7851713229999974,0.0399999838,0.03999991665,-9.810132699999993,-0.016560235619549668,0.0023835034800140137,0.0077492923300164366,-0.014840729907158528,0.0047250042900098725
0.62,-0.00010856920320087552,-0.7830815199999954,-0.0028894208000091633,-2.3556397799999984,-0.0010351939600035283,1.571944640000003,0.7851596919999974,0.0399999832,0.039999915600000005,-9.810107799999994,-0.016581407189373915,0.0024458797200140694,0.007822453120016502,-0.014856497384611296,0.004768948560009911
0.6225,-0.00011245085760087914,-0.7830610599999954,-0.0029300474000092014,-2.355631814999998,-0.0010508366800035427,1.5719582450000031,0.7851480609999973,0.0399999826,0.03999991455,-9.810082899999994,-0.016602578759198166,0.0025082559600141273,0.00789561391001657,-0.014872264862064066,0.004812892830009952
0.625,-0.00011633251200088258,-0.7830405999999954,-0.0029706740000092374,-2.355623849999998,-0.0010664794000035567,1.571971850000003,0.7851364299999973,0.039999981999999996,0.0399999135,-9.810057999999994,-0.016623750329022413,0.002570632200014183,0.007968774700016635,-0.014888032339516835,0.004856837100009992
0.6275000000000001,-0.0001202141664008862,-0.7830201399999953,-0.0030113006000092755,-2.355615884999998,-0.0010821221200035713,1.571985455000003,0.7851247989999973,0.0399999814,0.03999991245,-9.810033099999995,-0.016644921898846664,0.002633008440014241,0.008041935490016703,-0.014903799816969605,0.004900781370010032
0.63,-0.00012409582080088967,-0.7829996799999953,-0.0030519272000093115,-2.355607919999998,-0.0010977648400035851,1.5719990600000031,0.7851131679999973,0.0399999808,0.0399999114,-9.810008199999993,-0.016666093468670914,0.0026953846800142965,0.008115096280016767,-0.014919567294422374,0.0049447256400100715
0.6325000000000001,-0.00012797747520089327,-0.7829792199999953,-0.003092553800009349,-2.355599954999998,-0.0011134075600035998,1.572012665000003,0.7851015369999973,0.0399999802,0.03999991035,-9.809983299999994,-0.016687265038495165,0.0027577609200143544,0.008188257070016837,-0.014935334771875143,0.004988669910010113
0.635,-0.00013201930000095223,-0.782957989999995,-0.003134832640009958,-2.355591599999998,-0.001129686030003834,1.5720267700000032,0.7850894239999971,0.03999998,0.03999991,-9.809963199999995,-0.01666321046649331,0.0028059754600095023,0.00826271090001735,-0.014950814191255482,0.005033372260010414
0.6375000000000001,-0.00013614121000095607,-0.782936374999995,-0.0031779376000099983,-2.355583049999998,-0.0011462823750038496,1.5720411250000033,0.7850770699999972,0.03999998,0.03999991,-9.809945499999996,-0.01661654282360185,0.002847109150009541,0.008337811250017419,-0.014966149581599756,0.005078453650010456
0.64,-0.00014026312000095973,-0.7829147599999949,-0.0032210425600100365,-2.355574499999998,-0.0011628787200038643,1.5720554800000033,0.7850647159999972,0.03999998,0.03999991,-9.809927799999995,-0.016569875180710396,0.0028882428400095776,0.008412911600017486,-0.01498148497194403,0.005123535040010496
0.6425,-0.00014438503000096338,-0.782893144999995,-0.0032641475200100747,-2.355565949999998,-0.001179475065003879,1.5720698350000033,0.7850523619999971,0.03999998,0.03999991,-9.809910099999994,-0.016523207537818937,0.002929376530009614,0.008488011950017553,-0.014996820362288305,0.005168616430010537
0.645,-0.00014850694000096722,-0.782871529999995,-0.003307252480010115,-2.3555573999999977,-0.0011960714100038945,1.5720841900000033,0.7850400079999971,0.03999998,0.03999991,-9.809892399999995,-0.016476539894927478,0.0029705102200096524,0.008563112300017623,-0.015012155752632579,0.005213697820010578
0.6475,-0.0001526288500009709,-0.7828499149999949,-0.0033503574400101533,-2.3555488499999977,-0.0012126677550039092,1.5720985450000033,0.7850276539999971,0.03999998,0.03999991,-9.809874699999995,-0.016429872252036022,0.003011643910009689,0.00863821265001769,-0.015027491142976851,0.005258779210010618
0.65,-0.00015675076000103307,-0.7828282999999946,-0.003393462400010795,-2.3555402999999977,-0.001229264100004156,1.5721129000000036,0.7850152999999969,0.03999998,0.03999991,-9.809856999999996,-0.016383204609156515,0.003052777600015168,0.008713313000018255,-0.01504282653332116,0.005303860600010922
0.6525,-0.00016111938400109656,-0.7828055149999943,-0.003439111435011458,-2.3555311049999976,-0.0012468396900044115,1.5721281700000038,0.7850022259999967,0.0399999806,0.0399999094,-9.809840049999995,-0.01638708068057987,0.0031169183050161,0.008790507800019377,-0.015058305952701821,0.005350044970011593
0.655,-0.0001654880080011602,-0.782782729999994,-0.0034847604700121238,-2.3555219099999976,-0.0012644152800046677,1.572143440000004,0.7849891519999965,0.0399999812,0.0399999088,-9.809823099999996,-0.01639095675200322,0.003181059010017035,0.008867702600020502,-0.01507378537208248,0.0053962293400122655
0.6575,-0.0001698566320012237,-0.7827599449999937,-0.0035304095050127868,-2.3555127149999975,-0.0012819908700049231,1.5721587100000043,0.7849760779999964,0.0399999818,0.0399999082,-9.809806149999995,-0.01639483282342657,0.0032451997150179665,0.008944897400021624,-0.015089264791463141,0.005442413710012937
0.66,-0.00017422525600128738,-0.7827371599999934,-0.0035760585400134524,-2.355503519999997,-0.0012995664600051794,1.5721739800000045,0.7849630039999961,0.0399999824,0.0399999076,-9.809789199999996,-0.01639870889484992,0.0033093404200189016,0.009022092200022749,-0.015104744210843802,0.00548859808001361
0.6625,-0.00017859388000135087,-0.782714374999993,-0.003621707575014116,-2.355494324999997,-0.0013171420500054348,1.5721892500000048,0.7849499299999959,0.039999983,0.039999907,-9.809772249999995,-0.016402584966273275,0.0033734811250198333,0.009099287000023869,-0.015120223630224462,0.005534782450014281
0.665,-0.00018296250400141452,-0.7826915899999927,-0.003667356610014781,-2.355485129999997,-0.001334717640005691,1.572204520000005,0.7849368559999957,0.039999983600000004,0.0399999064,-9.809755299999996,-0.016406461037696628,0.0034376218300207683,0.009176481800024994,-0.015135703049605122,0.005580966820014954
0.6675,-0.0001874154935015216,-0.7826684049999921,-0.003713875235015888,-2.3554757349999966,-0.001352627840006117,1.5722200750000053,0.7849235279999954,0.039999984,0.0399999058,-9.809736599999994,-0.016386820748426387,0.0034948691850143084,0.009254326225026055,-0.01515091774054354,0.005627509330015559
0.67,-0.00019203721400146286,-0.7826444199999925,-0.0037621330400152745,-2.3554659399999966,-0.001371207260005881,1.572236200000005,0.7849096919999956,0.039999984,0.0399999052,-9.809714399999994,-0.016320147737839536,0.0035383298400137563,0.00933346990002505,-0.015165602974598269,0.005674768120014958
0.6725,-0.0001966589345014039,-0.7826204349999927,-0.0038103908450146592,-2.355456144999997,-0.0013897866800056439,1.572252325000005,0.7848958559999958,0.039999984,0.0399999046,-9.809692199999994,-0.016253474727252692,0.003581790495013202,0.00941261357502404,-0.015180288208652996,0.005722026910014355
0.675,-0.00020128065500134518,-0.782596449999993,-0.0038586486500140457,-2.355446349999997,-0.0014083661000054077,1.5722684500000046,0.784882019999996,0.039999984,0.039999903999999996,-9.809669999999993,-0.016186801716665845,0.0036252511500126493,0.009491757250023035,-0.015194973442707723,0.005769285700013755
0.6775,-0.00020590237550128623,-0.7825724649999933,-0.0039069064550134305,-2.355436554999997,-0.0014269455200051706,1.5722845750000045,0.7848681839999961,0.039999984,0.0399999034,-9.809647799999995,-0.016120128706079,0.003668711805012095,0.009570900925022026,-0.015209658676762453,0.005816544490013152
0.68,-0.0002105240960012275,-0.7825484799999936,-0.0039551642600128166,-2.3554267599999976,-0.0014455249400049345,1.5723007000000042,0.7848543479999963,0.039999984,0.0399999028,-9.809625599999995,-0.01605345569549215,0.003712172460011543,0.00965004460002102,-0.01522434391081718,0.005863803280012552
0.6825,-0.00021514581650116854,-0.7825244949999939,-0.004003422065012201,-2.3554169649999976,-0.0014641043600046974,1.572316825000004,0.7848405119999965,0.039999984,0.0399999022,-9.809603399999995,-0.015986782684905308,0.0037556331150109886,0.00972918827502001,-0.015239029144871907,0.005911062070011949
0.685,-0.00021994040900121645,-0.7824996539999937,-0.004053461300012693,-2.3554067799999974,-0.0014833693300048867,1.572333570000004,0.7848261639999964,0.0399999846,0.039999902399999995,-9.809579399999995,-0.015933066047716236,0.003808570440014374,0.009809705650020237,-0.015253410767767336,0.0059590123000120366
0.6875,-0.0002248214375012208,-0.7824743849999937,-0.004104391250012738,-2.3553963999999974,-0.0015029770750049042,1.572350625000004,0.7848115599999964,0.0399999855,0.039999902999999996,-9.809554499999994,-0.01588582759721881,0.0038662461000144254,0.00989090987502031,-0.015267640585083285,0.00600730825001208
0.6900000000000001,-0.00022970246600122532,-0.7824491159999937,-0.004155321200012786,-2.3553860199999974,-0.0015225848200049223,1.5723676800000042,0.7847969559999963,0.0399999864,0.0399999036,-9.809529599999994,-0.01583858914672138,0.003923921760014479,0.009972114100020387,-0.015281870402399231,0.006055604200012124
0.6925,-0.00023458349450122966,-0.7824238469999937,-0.0042062511500128305,-2.3553756399999974,-0.0015421925650049397,1.5723847350000044,0.7847823519999964,0.0399999873,0.0399999042,-9.809504699999994,-0.015791350696223953,0.00398159742001453,0.010053318325020459,-0.01529610021971518,0.006103900150012167
0.6950000000000001,-0.00023946452300123422,-0.7823985779999936,-0.004257181100012879,-2.3553652599999975,-0.001561800310004958,1.5724017900000045,0.7847677479999963,0.0399999882,0.0399999048,-9.809479799999995,-0.015744112245726527,0.004039273080014584,0.010134522550020534,-0.015310330037031129,0.0061521961000122125
0.6975,-0.00024434555150123854,-0.7823733089999936,-0.004308111050012923,-2.3553548799999975,-0.0015814080550049755,1.5724188450000045,0.7847531439999963,0.0399999891,0.0399999054,-9.809454899999995,-0.015696873795229098,0.004096948740014636,0.010215726775020606,-0.015324559854347075,0.006200492050012255
0.7000000000000001,-0.00024922658000131067,-0.7823480399999932,-0.004359041000013668,-2.3553444999999975,-0.0016010158000052618,1.5724359000000048,0.7847385399999961,0.03999999,0.039999906,-9.809429999999999,-0.015649635344737463,0.004154624400016326,0.010296931000021164,-0.01533878967166305,0.006248788000012558
0.7025,-0.00025437300200131525,-0.7823214839999932,-0.004412705150013715,-2.3553335649999974,-0.00162167590000528,1.5724538400000048,0.7847231439999961,0.0399999915,0.0399999066,-9.809423849999998,-0.01562514216638472,0.004218724515016382,0.010380027550021237,-0.015353122726086403,0.006298094350012601
0.705,-0.00025951942400131983,-0.7822949279999932,-0.0044663693000137625,-2.355322629999997,-0.0016423360000052986,1.5724717800000048,0.7847077479999961,0.039999993,0.039999907200000004,-9.8094177,-0.015600648988031979,0.004282824630016439,0.010463124100021311,-0.015367455780509756,0.006347400700012645
0.7075,-0.00026466584600132463,-0.7822683719999931,-0.004520033450013813,-2.3553116949999975,-0.0016629961000053177,1.5724897200000048,0.7846923519999961,0.039999994500000004,0.0399999078,-9.809411549999998,-0.015576155809679236,0.004346924745016499,0.01054622065002139,-0.01538178883493311,0.006396707050012691
0.71,-0.0002698122680013292,-0.7822418159999931,-0.0045736976000138605,-2.3553007599999973,-0.001683656200005336,1.5725076600000047,0.7846769559999961,0.039999996,0.0399999084,-9.8094054,-0.015551662631326494,0.004411024860016556,0.010629317200021462,-0.015396121889356462,0.006446013400012735
0.7125,-0.000274958690001334,-0.7822152599999931,-0.00462736175001391,-2.355289824999997,-0.0017043163000053554,1.5725256000000047,0.7846615599999961,0.0399999975,0.039999909,-9.809399249999998,-0.015527169452973751,0.004475124975016616,0.01071241375002154,-0.015410454943779815,0.0064953197500127804
0.715,-0.0002801051120013386,-0.7821887039999931,-0.0046810259000139584,-2.355278889999997,-0.0017249764000053737,1.5725435400000047,0.7846461639999961,0.039999999,0.0399999096,-9.809393099999998,-0.01550267627462101,0.004539225090016673,0.010795510300021613,-0.015424787998203168,0.006544626100012825
0.7175,-0.00028534198800141423,-0.7821617249999927,-0.004735621815014738,-2.355267714999997,-0.0017459950100056738,1.5725617850000049,0.7846305099999958,0.04,0.0399999098,-9.809386799999999,-0.015453068958569264,0.004597528925012194,0.0108792569500222,-0.015439186943698724,0.00659425088001312
0.72,-0.00029075977200141904,-0.7821338999999927,-0.004792081260014788,-2.355256059999997,-0.001767730640005693,1.5725806400000049,0.7846143399999957,0.04,0.0399999092,-9.809380199999998,-0.015353233367178452,0.004644240200012235,0.010964303800022276,-0.015453717671338527,0.0066445125200131645
0.7225,-0.0002961775560014241,-0.7821060749999926,-0.004848540705014841,-2.355244404999997,-0.0017894662700057133,1.5725994950000048,0.7845981699999958,0.04,0.0399999086,-9.809373599999999,-0.015253397775787632,0.004690951475012278,0.011049350650022355,-0.01546824839897833,0.006694774160013212
0.725,-0.0003015953400014289,-0.7820782499999926,-0.004905000150014891,-2.355232749999997,-0.0018112019000057326,1.5726183500000048,0.7845819999999958,0.04,0.039999908,-9.809366999999998,-0.01515356218439682,0.00473766275001232,0.01113439750002243,-0.015482779126618133,0.006745035800013256
0.7275,-0.000307013124001434,-0.7820504249999927,-0.004961459595014943,-2.355221094999997,-0.001832937530005753,1.5726372050000048,0.7845658299999957,0.04,0.0399999074,-9.8093604,-0.015053726593006,0.004784374025012364,0.01121944435002251,-0.015497309854257936,0.006795297440013303
0.73,-0.0003124309080014388,-0.7820225999999926,-0.005017919040014994,-2.355209439999997,-0.0018546731600057723,1.572656060000005,0.7845496599999957,0.04,0.0399999068,-9.809353799999998,-0.014953891001615188,0.004831085300012405,0.011304491200022585,-0.015511840581897739,0.006845559080013348
0.7325,-0.00031784869200144386,-0.7819947749999926,-0.005074378485015046,-2.355197784999997,-0.0018764087900057925,1.572674915000005,0.7845334899999956,0.04,0.039999906200000004,-9.8093472,-0.01485405541022437,0.0048777965750124485,0.011389538050022664,-0.015526371309537542,0.006895820720013394
0.735,-0.0003234512730015228,-0.7819660299999922,-0.00513274114001586,-2.355185669999997,-0.0018988767200061056,1.5726944300000052,0.7845167669999954,0.0399999995,0.0399999054,-9.809324699999992,-0.014791266433882753,0.004943886470020262,0.011475761400023212,-0.015540483035150857,0.006946701040013687
0.7375,-0.0003291462525015281,-0.7819368249999922,-0.005192055400015915,-2.355173324999997,-0.0019217108000061268,1.5727142750000052,0.7844997674999954,0.03999999875,0.0399999045,-9.809294249999992,-0.014747000765043497,0.0050196656750203334,0.011562573000023293,-0.015554385259751181,0.006997890700013735
0.74,-0.00033484123200153317,-0.7819076199999921,-0.005251369660015968,-2.355160979999997,-0.001944544880006147,1.5727341200000053,0.7844827679999954,0.039999998,0.0399999036,-9.809263799999991,-0.014702735096204244,0.0050954448800204005,0.01164938460002337,-0.015568287484351503,0.00704908036001378
0.7425,-0.00034053621150153846,-0.7818784149999921,-0.005310683920016023,-2.355148634999997,-0.0019673789600061684,1.5727539650000053,0.7844657684999954,0.03999999725,0.0399999027,-9.809233349999992,-0.014658469427364988,0.005171224085020471,0.011736196200023452,-0.015582189708951826,0.007100270020013828
0.745,-0.00034623119100154353,-0.7818492099999921,-0.005369998180016076,-2.355136289999997,-0.0019902130400061887,1.5727738100000055,0.7844487689999954,0.0399999965,0.0399999018,-9.809202899999992,-0.014614203758525733,0.005247003290020539,0.011823007800023528,-0.015596091933552148,0.007151459680013874
0.7475,-0.0003519261705015488,-0.781820004999992,-0.005429312440016131,-2.3551239449999963,-0.00201304712000621,1.5727936550000055,0.7844317694999954,0.03999999575,0.039999900899999996,-9.809172449999991,-0.014569938089686476,0.005322782495020609,0.01190981940002361,-0.015609994158152472,0.007202649340013922
0.75,-0.0003576211500016311,-0.7817907999999917,-0.005488626700016978,-2.3551115999999963,-0.002035881200006536,1.5728135000000059,0.7844147699999952,0.039999995,0.0399999,-9.809141999999994,-0.01452567242082577,0.0053985617000123385,0.011996631000024198,-0.015623896382752684,0.007253839000014225
0.7525000000000001,-0.00036359902200163666,-0.7817602389999916,-0.005550853795017036,-2.3550987299999964,-0.0020598361100065583,1.5728343350000058,0.7843969334999952,0.03999999575,0.039999900299999995,-9.809123399999995,-0.014402779471095495,0.005443781345012381,0.012085317600024282,-0.015637395856905618,0.0073059773500142745
0.755,-0.00036957689400164196,-0.7817296779999916,-0.005613080890017092,-2.3550858599999964,-0.0020837910200065795,1.5728551700000057,0.7843790969999951,0.0399999965,0.0399999006,-9.809104799999995,-0.014279886521365226,0.005489000990012421,0.01217400420002436,-0.01565089533105855,0.007358115700014321
0.7575000000000001,-0.00037555476600164753,-0.7816991169999916,-0.0056753079850171495,-2.3550729899999965,-0.002107745930006602,1.5728760050000057,0.7843612604999951,0.03999999725,0.039999900899999996,-9.809086199999994,-0.01415699357163495,0.005534220635012463,0.012262690800024442,-0.015664394805211482,0.007410254050014369
0.76,-0.00038153263800165283,-0.7816685559999915,-0.005737535080017205,-2.3550601199999965,-0.002131700840006623,1.5728968400000058,0.784343423999995,0.039999998,0.0399999012,-9.809067599999995,-0.014034100621904681,0.005579440280012503,0.01235137740002452,-0.015677894279364415,0.007462392400014416
0.7625000000000001,-0.0003875105100016584,-0.7816379949999915,-0.005799762175017263,-2.355047249999996,-0.0021556557500066456,1.5729176750000058,0.784325587499995,0.03999999875,0.0399999015,-9.809048999999995,-0.013911207672174408,0.0056246599250125455,0.012440064000024604,-0.015691393753517347,0.007514530750014465
0.765,-0.0003934883820016637,-0.7816074339999914,-0.005861989270017318,-2.355034379999996,-0.002179610660006667,1.5729385100000057,0.784307750999995,0.0399999995,0.039999901799999994,-9.809030399999994,-0.013788314722444139,0.005669879570012586,0.012528750600024683,-0.01570489322767028,0.007566669100014511
0.7675000000000001,-0.0003995624060017498,-0.781576396999991,-0.005925206320018205,-2.355021269999996,-0.0022039464400070083,1.572959665000006,0.7842896269999947,0.04,0.039999901399999996,-9.809018,-0.013684616517257284,0.005725321700021191,0.012618033650025265,-0.015718501806262924,0.0076191031000148075
0.77,-0.0004058287340017554,-0.781544407999991,-0.005990403280018264,-2.355007679999996,-0.0022290439600070305,1.572981460000006,0.7842709279999948,0.04,0.0399998996,-9.809018,-0.013619307801109086,0.005801208800021259,0.012708509600025345,-0.015732328593734714,0.007672128400014855
0.7725,-0.00041209506200176095,-0.781512418999991,-0.006055600240018322,-2.354994089999996,-0.002254141480007053,1.5730032550000062,0.7842522289999947,0.04,0.039999897799999996,-9.809018,-0.013553999084960888,0.005877095900021326,0.012798985550025425,-0.015746155381206505,0.007725153700014901
0.775,-0.0004183613900017668,-0.781480429999991,-0.006120797200018382,-2.354980499999996,-0.002279239000007076,1.573025050000006,0.7842335299999947,0.04,0.039999896,-9.809018,-0.013488690368812686,0.005952983000021396,0.01288946150002551,-0.0157599821686783,0.007778179000014951
0.7775,-0.00042462771800177236,-0.781448440999991,-0.0061859941600184406,-2.354966909999996,-0.0023043365200070983,1.5730468450000061,0.7842148309999947,0.04,0.039999894200000004,-9.809018,-0.013423381652664488,0.006028870100021464,0.01297993745002559,-0.015773808956150093,0.007831204300014999
0.78,-0.0004308940460017782,-0.7814164519999909,-0.006251191120018501,-2.354953319999996,-0.0023294340400071218,1.573068640000006,0.7841961319999946,0.04,0.0399998924,-9.809018,-0.013358072936516287,0.006104757200021535,0.013070413400025675,-0.015787635743621884,0.007884229600015048
0.7825,-0.0004371603740017838,-0.7813844629999909,-0.0063163880800185595,-2.354939729999996,-0.002354531560007144,1.5730904350000061,0.7841774329999947,0.04,0.039999890600000004,-9.809018,-0.013292764220368089,0.006180644300021602,0.013160889350025755,-0.015801462531093678,0.007937254900015095
0.785,-0.00044362260500187354,-0.7813514999999904,-0.0063836014600194835,-2.354925679999996,-0.0023804050100075,1.5731128800000065,0.7841581669999944,0.04,0.03999989,-9.809007299999996,-0.013173754140692953,0.006238820400014086,0.013252562900026353,-0.01581521369517237,0.007990791300015364
0.7875,-0.0004501827875018794,-0.7813180499999904,-0.006451823050019545,-2.3549113999999958,-0.002406666425007523,1.5731356500000064,0.7841386174999944,0.04,0.03999989,-9.808991249999995,-0.013027893379288788,0.00628814100001413,0.013344835250026435,-0.015828927047554554,0.00804458325001541
0.79,-0.0004567429700018855,-0.7812845999999904,-0.0065200446400196085,-2.354897119999996,-0.0024329278400075476,1.5731584200000064,0.7841190679999943,0.04,0.03999989,-9.808975199999995,-0.012882032617884618,0.0063374616000141755,0.01343710760002652,-0.01584264039993674,0.00809837520001546
0.7925,-0.0004633031525018913,-0.7812511499999903,-0.006588266230019669,-2.3548828399999957,-0.002459189255007571,1.5731811900000066,0.7840995184999944,0.04,0.03999989,-9.808959149999996,-0.012736171856480454,0.006386782200014219,0.013529379950026602,-0.01585635375231893,0.008152167150015509
0.795,-0.0004698633350018974,-0.7812176999999904,-0.006656487820019733,-2.354868559999996,-0.0024854506700075956,1.5732039600000065,0.7840799689999943,0.04,0.03999989,-9.808943099999995,-0.012590311095076282,0.006436102800014266,0.013621652300026687,-0.015870067104701117,0.008205959100015559
0.7975,-0.00047642351750190327,-0.7811842499999904,-0.006724709410019793,-2.3548542799999956,-0.002511712085007619,1.5732267300000067,0.7840604194999943,0.04,0.03999989,-9.808927049999996,-0.012444450333672119,0.00648542340001431,0.013713924650026769,-0.015883780457083305,0.008259751050015605
0.8,-0.00048298370000199645,-0.7811507999999899,-0.006792931000020753,-2.3548399999999954,-0.0025379735000079884,1.5732495000000069,0.784040869999994,0.04,0.03999989,-9.808910999999995,-0.01229858957228521,0.006534744000022131,0.01380619700002734,-0.015897493809465472,0.008313543000015886
0.8025,-0.0004898430650020026,-0.7811159159999899,-0.006864231505020816,-2.3548250149999954,-0.002565419540008013,1.573273335000007,0.7840204444999941,0.04,0.03999988955,-9.808891949999994,-0.012212038878326137,0.006610779450022198,0.013900133600027424,-0.015911144297573884,0.008368123800015934
0.805,-0.000496702430002009,-0.7810810319999898,-0.006935532010020883,-2.3548100299999954,-0.0025928655800080383,1.573297170000007,0.784000018999994,0.04,0.0399998891,-9.808872899999994,-0.012125488184367062,0.0066868149000222695,0.013994070200027511,-0.0159247947856823,0.008422704600015986
0.8075,-0.0005035617950020151,-0.7810461479999897,-0.007006832515020945,-2.3547950449999955,-0.002620311620008063,1.573321005000007,0.783979593499994,0.04,0.03999988865,-9.808853849999995,-0.01203893749040799,0.006762850350022337,0.014088006800027595,-0.01593844527379071,0.008477285400016034
0.81,-0.0005104211600020214,-0.7810112639999898,-0.007078133020021012,-2.3547800599999955,-0.0026477576600080883,1.573344840000007,0.783959167999994,0.04,0.0399998882,-9.808834799999994,-0.011952386796448914,0.006838885800022407,0.014181943400027684,-0.015952095761899123,0.008531866200016084
0.8125,-0.0005172805250020276,-0.7809763799999897,-0.007149433525021075,-2.3547650749999955,-0.002675203700008113,1.5733686750000069,0.783938742499994,0.04,0.03999988775,-9.808815749999994,-0.011865836102489842,0.006914921250022475,0.014275880000027767,-0.015965746250007535,0.008586447000016133
0.8150000000000001,-0.000524139890002034,-0.7809414959999896,-0.007220734030021142,-2.3547500899999956,-0.002702649740008138,1.573392510000007,0.7839183169999939,0.04,0.039999887299999995,-9.808796699999993,-0.011779285408530767,0.0069909567000225456,0.014369816600027854,-0.01597939673811595,0.008641027800016184
0.8175,-0.000531100685002098,-0.7809061229999893,-0.007293078515021798,-2.3547349299999953,-0.0027304974100083907,1.5734167000000072,0.7838975874999937,0.04,0.03999988685,-9.808778849999994,-0.011664627958039044,0.007059569800015746,0.014464304200027995,-0.01599291712046051,0.008695881750016225
0.8200000000000001,-0.0005382643400020069,-0.7808697719999897,-0.007367510960020853,-2.3547194199999955,-0.002759148340008027,1.5734416000000069,0.7838762499999941,0.04,0.0399998864,-9.808763399999995,-0.01149375699455717,0.007113338200015063,0.01455989380002678,-0.016006177291277717,0.008751282000015521
0.8225,-0.0005454279950019155,-0.7808334209999903,-0.0074419434050199025,-2.3547039099999956,-0.0027877992700076613,1.5734665000000065,0.7838549124999943,0.04,0.03999988595,-9.808747949999995,-0.011322886031075305,0.007167106600014377,0.01465548340002556,-0.016019437462094922,0.008806682250014814
0.8250000000000001,-0.0005525916500018245,-0.7807970699999908,-0.007516375850018957,-2.354688399999996,-0.002816450200007297,1.5734914000000064,0.7838335749999946,0.04,0.0399998855,-9.808732499999996,-0.011152015067593432,0.007220875000013694,0.014751073000024345,-0.016032697632912127,0.00886208250001411
0.8275,-0.0005597553050017332,-0.7807607189999912,-0.0075908082950180075,-2.3546728899999962,-0.0028451011300069315,1.573516300000006,0.7838122374999948,0.04,0.039999885049999996,-9.808717049999997,-0.010981144104111567,0.007274643400013008,0.014846662600023125,-0.016045957803729333,0.008917482750013403
0.8300000000000001,-0.0005669189600016421,-0.7807243679999917,-0.007665240740017062,-2.3546573799999964,-0.0028737520600065677,1.5735412000000057,0.7837908999999951,0.04,0.0399998846,-9.808701599999996,-0.010810273140629692,0.007328411800012325,0.01494225220002191,-0.016059217974546538,0.008972883000012699
0.8325,-0.0005740826150015507,-0.7806880169999921,-0.0077396731850161125,-2.3546418699999965,-0.002902402990006202,1.5735661000000054,0.7837695624999954,0.04,0.03999988415,-9.808686149999996,-0.010639402177147827,0.007382180200011639,0.015037841800020692,-0.016072478145363743,0.009028283250011992
0.835,-0.0005814525070016583,-0.7806506149999916,-0.007816227200017224,-2.3546258299999963,-0.0029318703700066296,1.5735917100000059,0.7837476249999951,0.04,0.0399998836,-9.8086814,-0.010511341132199934,0.007453706400017842,0.015134564700021587,-0.016085968911650747,0.009084044300012414
0.8375,-0.0005889255175017673,-0.780612687499991,-0.007893842000018355,-2.3546095249999963,-0.002961745975007065,1.5736176750000062,0.7837253874999948,0.04,0.039999883,-9.808682000000001,-0.010404685046498578,0.007534111500019014,0.015231854250023005,-0.01609957497567254,0.009139985750013228
