rsonawane2002/My_IMU/logs_2/traj_423/imu_400hz_423.csv
time,j1,j2,j3,j4,j5,j6,j7,gripper1,gripper2,imu_ax,imu_ay,imu_az,imu_gx,imu_gy,imu_gz
0.0,0.00016700293,-0.785875,4.0107683e-05,-2.3551247,9.29385e-05,1.570997,0.786,0.04,0.04,-9.52386,-0.0522737726569175,0.07086146,-3.5293485e-08,-0.0011641270248219,1.1277822e-06
0.0025,0.00016700437450000002,-0.7858577739999998,4.010801750000001e-05,-2.3551391900000005,9.294370800000008e-05,1.570996565,0.786,0.04,0.04,-9.570454500000679,-0.044336347770761626,0.06159210139986511,-3.1864369049950104e-08,-0.0013252444739942147,1.1295341550000255e-06
0.005,0.00016700581900000005,-0.7858405479999995,4.010835200000001e-05,-2.355153680000001,9.294891600000015e-05,1.57099613,0.786,0.04,0.04,-9.617049000001357,-0.03639892288460575,0.052322742799730225,-2.84352530999002e-08,-0.0014863619231665292,1.131286110000051e-06
0.0075,0.00016700726350000005,-0.7858233219999993,4.010868650000002e-05,-2.3551681700000007,9.295412400000023e-05,1.570995695,0.786,0.04,0.04,-9.663643500002035,-0.028461497998449874,0.04305338419959534,-2.5006137149850302e-08,-0.0016474793723388437,1.1330380650000766e-06
0.01,0.00016700870800000008,-0.7858060959999991,4.010902100000002e-05,-2.355182660000001,9.29593320000003e-05,1.57099526,0.786,0.04,0.04,-9.710238000002713,-0.020524073112293997,0.03378402559946045,-2.15770211998004e-08,-0.0018085968215111584,1.134790020000102e-06
0.0125,0.0001670101525000001,-0.7857888699999988,4.010935550000003e-05,-2.3551971500000013,9.296454000000038e-05,1.570994825,0.786,0.04,0.04,-9.75683250000339,-0.012586648226138121,0.024514666999325564,-1.81479052497505e-08,-0.001969714270683473,1.1365419750001274e-06
0.015,0.00016701159700000014,-0.7857716439999985,4.010969000000003e-05,-2.3552116400000016,9.296974800000045e-05,1.57099439,0.786,0.04,0.04,-9.803427000004069,-0.004649223339982245,0.01524530839919068,-1.4718789299700602e-08,-0.0021308317198557875,1.1382939300001529e-06
0.0175,0.00016701536800000082,-0.7857548569999985,4.010838304999955e-05,-2.3552257350000017,9.297454650000039e-05,1.57099396,0.786,0.04,0.04,-9.834379174999968,0.0006420938880181326,0.008996303624979728,8.264704862775851e-08,-0.002287617931156775,1.2118766350211414e-06
0.02,0.00016702379200000082,-0.7857389479999984,4.010379319999955e-05,-2.3552390400000016,9.297852600000038e-05,1.57099354,0.786,0.04,0.04,-9.834046699999968,0.0006411958020178918,0.00878800649997954,3.678863304280178e-07,-0.0024357416667188897,1.4291208400213389e-06
0.0225,0.00016703221600000083,-0.7857230389999984,4.009920334999955e-05,-2.3552523450000016,9.298250550000039e-05,1.57099312,0.786,0.04,0.04,-9.833714224999968,0.0006402977160176509,0.008579709374979351,6.531256122282772e-07,-0.0025838654022810044,1.6463650450215364e-06
0.025,0.00016704064000000086,-0.7857071299999985,4.009461349999954e-05,-2.355265650000001,9.298648500000039e-05,1.5709927,0.786,0.04,0.04,-9.833381749999967,0.0006393996300174101,0.00837141224997916,9.383648940285369e-07,-0.002731989137843119,1.8636092500217342e-06
0.0275,0.00016704906400000086,-0.7856912209999984,4.009002364999954e-05,-2.355278955000001,9.29904645000004e-05,1.57099228,0.786,0.04,0.04,-9.833049274999967,0.0006385015440171693,0.008163115124978972,1.2236041758287961e-06,-0.0028801128734052338,2.0808534550219315e-06
0.03,0.00016705748800000087,-0.7856753119999984,4.008543379999953e-05,-2.355292260000001,9.29944440000004e-05,1.57099186,0.786,0.04,0.04,-9.832716799999966,0.0006376034580169285,0.007954817999978782,1.5088434576290554e-06,-0.003028236608967348,2.2980976600221292e-06
0.0325,0.00016706591200000087,-0.7856594029999984,4.008084394999953e-05,-2.355305565000001,9.29984235000004e-05,1.57099144,0.786,0.04,0.04,-9.832384324999966,0.0006367053720166876,0.007746520874978593,1.7940827394293151e-06,-0.003176360344529463,2.515341865022327e-06
0.035,0.00016708661200000302,-0.7856443449999984,4.006767059999803e-05,-2.355318100000001,9.300071460000016e-05,1.57099101,0.786,0.04,0.04,-9.832091949999969,0.0006367392430547264,0.007547814409978131,2.379380650082929e-06,-0.0033164569642548172,2.8945714400519036e-06
0.0375,0.00016711345000000342,-0.7856297124999981,4.0050205499997774e-05,-2.3553302500000015,9.300216150000018e-05,1.570990575,0.786,0.04,0.04,-9.831819624999964,0.0006372390926116887,0.007353903274975309,3.1147078750936284e-06,-0.003452540026063652,3.3547937000585995e-06
0.04,0.0001671402880000038,-0.7856150799999979,4.003274039999752e-05,-2.3553424000000014,9.300360840000021e-05,1.57099014,0.786,0.04,0.04,-9.831547299999961,0.0006377389421686509,0.007159992139972487,3.850035100104329e-06,-0.0035886230878724875,3.815015960065297e-06
0.0425,0.0001671671260000042,-0.7856004474999977,4.001527529999727e-05,-2.3553545500000017,9.300505530000022e-05,1.570989705,0.786,0.04,0.04,-9.831274974999957,0.0006382387917256132,0.006966081004969665,4.58536232511503e-06,-0.0037247061496813233,4.275238220071994e-06
0.045,0.0001671939640000046,-0.7855858149999975,3.9997810199997014e-05,-2.355366700000002,9.300650220000025e-05,1.5709892699999999,0.786,0.04,0.04,-9.831002649999954,0.0006387386412825755,0.006772169869966844,5.3206895501257295e-06,-0.003860789211490158,4.735460480078691e-06
0.0475,0.00016722080200000497,-0.7855711824999974,3.998034509999676e-05,-2.3553788500000024,9.300794910000028e-05,1.5709888349999999,0.786,0.04,0.04,-9.83073032499995,0.0006392384908395377,0.006578258734964022,6.0560167751364296e-06,-0.003996872273298994,5.195682740085387e-06
0.05,0.00016724764000001233,-0.7855565499999974,3.9962879999991653e-05,-2.3553910000000022,9.300939599999941e-05,1.5709884,0.786,0.04,0.04,-9.830457999999938,0.0006397383403966284,0.006384347599969977,6.791344000290731e-06,-0.004132955335105529,5.655905000162193e-06
0.0525,0.00016730927050001156,-0.7855430319999975,3.992114789999218e-05,-2.355402160000002,9.300641159999944e-05,1.57098798,0.786,0.04,0.04,-9.830145999999942,0.0006408797547921389,0.006234302209971888,8.244345850272228e-06,-0.004257542896107797,6.4665066501518705e-06
0.055,0.00016737090100001076,-0.7855295139999977,3.987941579999271e-05,-2.355413320000002,9.300342719999949e-05,1.57098756,0.786,0.04,0.04,-9.829833999999947,0.0006420211691876493,0.006084256819973799,9.697347700253728e-06,-0.004382130457110066,7.27710830014155e-06
0.0575,0.00016743253150000998,-0.7855159959999979,3.9837683699993245e-05,-2.3554244800000017,9.300044279999952e-05,1.57098714,0.786,0.04,0.04,-9.82952199999995,0.0006431625835831598,0.005934211429975709,1.1150349550235228e-05,-0.004506718018112334,8.087709950131228e-06
0.06,0.00016749416200000918,-0.7855024779999981,3.979595159999377e-05,-2.355435640000002,9.299745839999955e-05,1.57098672,0.786,0.04,0.04,-9.829209999999954,0.0006443039979786702,0.00578416603997762,1.2603351400216723e-05,-0.004631305579114603,8.898311600120906e-06
0.0625,0.0001675557925000084,-0.7854889599999982,3.9754219499994304e-05,-2.3554468000000015,9.29944739999996e-05,1.5709863,0.786,0.04,0.04,-9.828897999999958,0.0006454454123741807,0.00563412064997953,1.4056353250198223e-05,-0.004755893140116872,9.708913250110584e-06
0.065,0.0001676174230000076,-0.7854754419999984,3.971248739999484e-05,-2.355457960000001,9.299148959999963e-05,1.5709858799999998,0.786,0.04,0.04,-9.828585999999962,0.0006465868267696912,0.005484075259981441,1.5509355100179723e-05,-0.004880480701119141,1.0519514900100264e-05
0.0675,0.00016769758850001406,-0.7854622534999985,3.965783769999033e-05,-2.355468780000001,9.298616249999879e-05,1.57098562,0.7860000575,0.04,0.04,-9.828291349999969,0.000647783451131612,0.005336844719983,1.728193820028954e-05,-0.005001505231498364,1.1448291950139878e-05
0.07,0.00016781482400001578,-0.7854497239999984,3.9577352799989165e-05,-2.3554789200000013,9.297614999999865e-05,1.57098568,0.7860002300000001,0.04,0.04,-9.828031399999965,0.000649090495426296,0.005195243879980939,1.969368380032464e-05,-0.0051154037006351915,1.2613419800156835e-05
0.0725,0.0001679320595000175,-0.7854371944999982,3.949686789998799e-05,-2.3554890600000014,9.29661374999985e-05,1.57098574,0.7860004025,0.04,0.04,-9.827771449999961,0.00065039753972098,0.00505364303997888,2.2105429400359724e-05,-0.005229302169772018,1.3778547650173785e-05
0.075,0.0001680492950000192,-0.785424664999998,3.9416382999986825e-05,-2.3554992000000015,9.295612499999836e-05,1.5709858,0.7860005750000001,0.04,0.04,-9.827511499999957,0.000651704584015664,0.004912042199976818,2.451717500039482e-05,-0.005343200638908846,1.4943675500190742e-05
0.0775,0.0001681665305000209,-0.7854121354999978,3.933589809998565e-05,-2.3555093400000016,9.294611249999821e-05,1.57098586,0.7860007475,0.04,0.04,-9.827251549999954,0.000653011628310348,0.004770441359974758,2.6928920600429917e-05,-0.005457099108045674,1.6108803350207695e-05
0.08,0.0001682837660000226,-0.7853996059999976,3.925541319998448e-05,-2.3555194800000017,9.293609999999808e-05,1.57098592,0.7860009200000001,0.04,0.04,-9.82699159999995,0.000654318672605032,0.004628840519972697,2.9340666200465016e-05,-0.005570997577182501,1.7273931200224652e-05
0.0825,0.00016840100150002432,-0.7853870764999974,3.917492829998331e-05,-2.3555296200000018,9.292608749999793e-05,1.5709859800000001,0.7860010925,0.04,0.04,-9.826731649999946,0.0006556257168997161,0.004487239679970637,3.1752411800500116e-05,-0.005684896046319329,1.843905905024161e-05
0.085,0.00016857181200004027,-0.7853751399999976,3.9057093499972185e-05,-2.355539520000002,9.291090999999638e-05,1.5709860900000001,0.7860013400000001,0.04,0.0399999995,-9.826433899999934,0.0006582458270719676,0.0043582523299750065,3.44794733005877e-05,-0.005790232028832708,2.0158460200406753e-05
0.08750000000000001,0.00016876941000003776,-0.7853634999999978,3.8920583749973923e-05,-2.3555493000000016,9.28931499999966e-05,1.570986225,0.786001625,0.04,0.03999999875,-9.826117249999939,0.0006615224701823759,0.004235571724976568,3.736419275055097e-05,-0.005891286768038451,2.2154998000381336e-05
0.09,0.00016896700800003524,-0.7853518599999979,3.878407399997566e-05,-2.3555590800000017,9.287538999999684e-05,1.57098636,0.7860019100000001,0.04,0.039999998,-9.825800599999942,0.0006647991132927841,0.004112891119978131,4.0248912200514226e-05,-0.0059923415072441946,2.4151535800355902e-05
0.0925,0.00016916460600003273,-0.785340219999998,3.86475642499774e-05,-2.3555688600000018,9.285762999999706e-05,1.570986495,0.7860021950000001,0.04,0.03999999725,-9.825483949999947,0.0006680757564031923,0.003990210514979693,4.3133631650477496e-05,-0.006093396246449938,2.6148073600330482e-05
0.095,0.0001693622040000302,-0.7853285799999982,3.851105449997914e-05,-2.3555786400000014,9.283986999999728e-05,1.5709866300000002,0.7860024800000001,0.04,0.0399999965,-9.82516729999995,0.0006713523995136006,0.003867529909981255,4.601835110044077e-05,-0.006194450985655681,2.8144611400305062e-05
0.0975,0.00016955980200002768,-0.7853169399999984,3.837454474998088e-05,-2.3555884200000015,9.282210999999751e-05,1.570986765,0.7860027650000001,0.04,0.03999999575,-9.824850649999956,0.000674629042624009,0.003744849304982817,4.890307055040404e-05,-0.006295505724861424,3.0141149200279642e-05
0.1,0.000169757400000039,-0.7853052999999987,3.823803499997297e-05,-2.3555982000000015,9.280434999999607e-05,1.5709869,0.78600305,0.04,0.039999995,-9.824533999999977,0.0006779056857340488,0.0036221686999870946,5.178779000048758e-05,-0.006396560464066279,3.213768700030514e-05
0.10250000000000001,0.00017006371800003928,-0.7852944699999986,3.8025752299972774e-05,-2.3556070050000013,9.277346949999604e-05,1.5709870350000001,0.7860033365000001,0.04,0.039999995,-9.824354899999976,0.0006782886863220891,0.0035208159499870023,5.561701550049107e-05,-0.0064906393643588845,3.4534136350307325e-05
0.105,0.00017037003600003958,-0.7852836399999986,3.781346959997258e-05,-2.355615810000001,9.274258899999601e-05,1.57098717,0.786003623,0.04,0.039999995,-9.824175799999976,0.0006786716869101294,0.0034194631999869105,5.944624100049453e-05,-0.00658471826465149,3.6930585700309494e-05
0.1075,0.00017067635400003984,-0.7852728099999986,3.760118689997239e-05,-2.3556246150000013,9.271170849999599e-05,1.570987305,0.7860039095000001,0.04,0.039999995,-9.823996699999977,0.0006790546874981698,0.0033181104499868186,6.327546650049801e-05,-0.006678797164944095,3.932703505031168e-05
0.11,0.0001709826720000401,-0.7852619799999986,3.73889041999722e-05,-2.355633420000001,9.268082799999596e-05,1.57098744,0.786004196,0.04,0.039999995,-9.823817599999977,0.0006794376880862102,0.0032167576999867263,6.710469200050151e-05,-0.006772876065236701,4.172348440031385e-05
0.1125,0.0001712889900000404,-0.7852511499999986,3.717662149997201e-05,-2.3556422250000013,9.264994749999593e-05,1.570987575,0.7860044825,0.04,0.039999995,-9.823638499999976,0.0006798206886742505,0.003115404949986634,7.093391750050498e-05,-0.0068669549655293064,4.4119933750316036e-05
0.115,0.00017159530800004067,-0.7852403199999985,3.6964338799971815e-05,-2.355651030000001,9.26190669999959e-05,1.57098771,0.786004769,0.04,0.039999995,-9.823459399999976,0.0006802036892622909,0.003014052199986542,7.476314300050848e-05,-0.006961033865821913,4.651638310031822e-05
0.11750000000000001,0.00017194837300006172,-0.7852297149999986,3.6719473499957144e-05,-2.3556597550000014,9.258264449999343e-05,1.570988005,0.7860051520000001,0.04,0.039999995,-9.823240349999958,0.0006814541848147327,0.0029215190149896463,7.919155850077789e-05,-0.007051882077951456,4.913945270042529e-05
0.12,0.00017239493200006822,-0.7852195599999985,3.640944299995263e-05,-2.3556683200000013,9.253513799999275e-05,1.57098862,0.786005728,0.04,0.039999995,-9.822941399999953,0.0006844396702949362,0.002846624959988557,8.481835400085974e-05,-0.007136268913758753,5.221576280047004e-05
0.1225,0.00017284149100007474,-0.7852094049999984,3.609941249994812e-05,-2.3556768850000016,9.248763149999205e-05,1.570989235,0.786006304,0.04,0.039999995,-9.82264244999995,0.0006874251557751396,0.002771730904987467,9.044514950094162e-05,-0.007220655749566052,5.5292072900514806e-05
0.125,0.00017328805000008124,-0.7851992499999981,3.5789381999943605e-05,-2.3556854500000015,9.244012499999136e-05,1.5709898500000001,0.7860068800000001,0.04,0.039999995,-9.822343499999945,0.000690410641255343,0.002696836849986377,9.607194500102351e-05,-0.00730504258537335,5.836838300055958e-05
0.1275,0.00017373460900008773,-0.785189094999998,3.54793514999391e-05,-2.3556940150000014,9.239261849999068e-05,1.5709904650000002,0.7860074560000001,0.04,0.039999995,-9.82204454999994,0.0006933961267355465,0.002621942794985287,0.0001016987405011054,-0.007389429421180648,6.144469310060435e-05
0.13,0.00017418116800009423,-0.7851789399999979,3.516932099993458e-05,-2.3557025800000018,9.234511199998998e-05,1.5709910800000002,0.786008032,0.04,0.039999995,-9.821745599999936,0.0006963816122157499,0.0025470487399841973,0.00010732553600118728,-0.007473816256987946,6.452100320064911e-05
0.1325,0.00017462772700010072,-0.7851687849999978,3.4859290499930066e-05,-2.3557111450000017,9.229760549998929e-05,1.5709916950000002,0.786008608,0.04,0.039999995,-9.821446649999931,0.0006993670976959533,0.0024721546849831074,0.00011295233150126916,-0.007558203092795244,6.75973133006939e-05
0.135,0.00017519065500013785,-0.7851589829999979,3.446811489990418e-05,-2.3557191300000015,9.223631639998487e-05,1.5709923600000002,0.7860093000000001,0.04,0.039999995,-9.821223599999959,0.000703231309308615,0.002395924739982935,0.00011903657800140098,-0.007637357898073465,7.1170210500848e-05
0.1375,0.00017581176750012994,-0.785149357499998,3.403636674990968e-05,-2.3557268250000014,9.216813599998574e-05,1.5709930500000002,0.7860100500000001,0.04,0.039999995,-9.821038499999961,0.0007075348839870502,0.002319026849983914,0.0001253495500013206,-0.007713896688089861,7.499140125079935e-05
0.14,0.00017643288000012203,-0.7851397319999981,3.360461859991518e-05,-2.3557345200000013,9.20999555999866e-05,1.5709937400000002,0.7860108000000001,0.04,0.039999995,-9.820853399999963,0.0007118384586654855,0.002242128959984893,0.00013166252200124022,-0.007790435478106257,7.88125920007507e-05
0.14250000000000002,0.00017705399250011412,-0.7851301064999983,3.317287044992068e-05,-2.355742215000001,9.203177519998748e-05,1.57099443,0.7860115500000001,0.04,0.039999995,-9.820668299999966,0.0007161420333439206,0.0021652310699858722,0.00013797549400115984,-0.007866974268122651,8.263378275070204e-05
0.145,0.0001776751050001062,-0.7851204809999983,3.274112229992618e-05,-2.355749910000001,9.196359479998834e-05,1.57099512,0.7860123000000001,0.04,0.039999995,-9.820483199999968,0.0007204456080223559,0.002088333179986852,0.0001442884660010794,-0.007943513058139047,8.645497350065335e-05
0.1475,0.0001782962175000983,-0.7851108554999985,3.230937414993168e-05,-2.355757605000001,9.189541439998922e-05,1.57099581,0.7860130500000001,0.04,0.039999995,-9.82029809999997,0.000724749182700791,0.002011435289987831,0.000150601438000999,-0.008020051848155442,9.02761642506047e-05
0.15,0.00017891733000012115,-0.7851012299999987,3.187762599991572e-05,-2.3557653000000007,9.182723399998624e-05,1.5709965000000001,0.7860138000000001,0.04,0.039999995,-9.820112999999958,0.0007290527573790492,0.001934537399992257,0.00015691441000114574,-0.008096590638170562,9.409735500065549e-05
0.1525,0.0001797498690001219,-0.7850920904999986,3.1298483949915194e-05,-2.355772815000001,9.173268689998616e-05,1.5709976700000001,0.7860146700000001,0.04,0.03999999575,-9.819826199999957,0.000732139646425297,0.0018813282299922087,0.00016478795650115292,-0.00816436489113666,9.86019682506596e-05
0.155,0.00018058240800012266,-0.7850829509999987,3.071934189991467e-05,-2.355780330000001,9.163813979998607e-05,1.5709988400000001,0.7860155400000002,0.04,0.0399999965,-9.819539399999957,0.0007352265354715449,0.0018281190599921603,0.00017266150300116007,-0.008232139144102755,0.0001031065815006637
0.1575,0.00018141494700012341,-0.7850738114999987,3.0140199849914144e-05,-2.355787845000001,9.154359269998599e-05,1.5710000100000001,0.7860164100000001,0.04,0.03999999725,-9.819252599999958,0.0007383134245177927,0.0017749098899921118,0.00018053504950116725,-0.008299913397068853,0.0001076111947506678
0.16,0.00018224748600012417,-0.7850646719999986,2.9561057799913615e-05,-2.355795360000001,9.144904559998589e-05,1.57100118,0.7860172800000002,0.04,0.039999998,-9.818965799999956,0.0007414003135640404,0.0017217007199920634,0.0001884085960011744,-0.008367687650034948,0.00011211580800067191
0.1625,0.00018308002500012495,-0.7850555324999986,2.898191574991309e-05,-2.355802875000001,9.13544984999858e-05,1.57100235,0.7860181500000002,0.04,0.03999999875,-9.818678999999957,0.0007444872026102882,0.0016684915499920148,0.00019628214250118158,-0.008435461903001045,0.000116620421250676
0.165,0.0001839125640001257,-0.7850463929999987,2.8402773699912562e-05,-2.355810390000001,9.125995139998572e-05,1.57100352,0.7860190200000001,0.04,0.0399999995,-9.818392199999957,0.0007475740916565361,0.0016152823799919665,0.00020415568900118873,-0.008503236155967143,0.00012112503450068011
0.1675,0.00018482858500016943,-0.7850373684999986,2.7765396149882073e-05,-2.355817795000001,9.115613669998085e-05,1.5710047300000003,0.7860200100000002,0.04,0.03999999975,-9.818139599999972,0.0007518674246976691,0.0015640711549926138,0.00021269192300154272,-0.008568716607997325,0.00012598995500087378
0.17,0.00018591157000018518,-0.7850285739999985,2.70115475998711e-05,-2.3558249800000013,9.103378679997907e-05,1.5710060200000002,0.7860212400000003,0.04,0.039999999,-9.817955399999969,0.0007585736457269267,0.0015168558199919267,0.00022255353200168623,-0.008629609458158811,0.00013157549000095508
0.17250000000000001,0.00018699455500020094,-0.7850197794999983,2.625769904986013e-05,-2.3558321650000016,9.09114368999773e-05,1.5710073100000002,0.7860224700000003,0.04,0.03999999825,-9.817771199999966,0.0007652798667561843,0.0014696404849912396,0.00023241514100182974,-0.008690502308320297,0.00013716102500103635
0.17500000000000002,0.0001880775400002167,-0.7850109849999982,2.550385049984916e-05,-2.3558393500000014,9.078908699997552e-05,1.5710086000000003,0.7860237000000003,0.04,0.0399999975,-9.817586999999964,0.0007719860877854419,0.0014224251499905525,0.00024227675000197327,-0.008751395158481784,0.00014274656000111765
0.1775,0.00018916052500023245,-0.7850021904999981,2.4750001949838198e-05,-2.3558465350000017,9.066673709997374e-05,1.5710098900000002,0.7860249300000003,0.04,0.03999999675,-9.817402799999961,0.0007786923088146994,0.0013752098149898658,0.00025213835900211667,-0.00881228800864327,0.00014833209500119887
0.18,0.0001902435100002482,-0.784993395999998,2.3996153399827226e-05,-2.355853720000002,9.054438719997196e-05,1.5710111800000002,0.7860261600000004,0.04,0.039999996,-9.817218599999958,0.000785398529843957,0.0013279944799891787,0.0002619999680022602,-0.008873180858804756,0.00015391763000128014
0.1825,0.00019132649500026397,-0.7849846014999978,2.3242304849816254e-05,-2.355860905000002,9.042203729997018e-05,1.5710124700000003,0.7860273900000003,0.04,0.03999999525,-9.817034399999956,0.0007921047508732146,0.0012807791449884916,0.0002718615770024037,-0.008934073708966242,0.00015950316500136144
0.185,0.00019260378100033,-0.784975977999998,2.2352949299770193e-05,-2.355867690000002,9.027591059996206e-05,1.5710141200000003,0.7860288900000004,0.04,0.0399999955,-9.816827399999948,0.0007973785453951843,0.0012441040499924596,0.00028259985200268354,-0.008991034422082924,0.00016552542100149842
0.1875,0.00019397821750031252,-0.7849674399999981,2.1395840249782378e-05,-2.3558742750000015,9.011789549996408e-05,1.5710159500000003,0.7860305250000004,0.04,0.03999999625,-9.816608999999952,0.0008019361266643113,0.0012126990749928594,0.00029377646000254125,-0.009046029066679404,0.00017176603750141894
0.19,0.000195352654000295,-0.7849589019999981,2.0438731199794563e-05,-2.3558808600000014,8.995988039996609e-05,1.5710177800000003,0.7860321600000004,0.04,0.039999997,-9.816390599999954,0.0008064937079334382,0.0011812940999932592,0.00030495306800239897,-0.009101023711275883,0.0001780066540013395
0.1925,0.00019672709050027752,-0.7849503639999982,1.948162214980675e-05,-2.3558874450000014,8.98018652999681e-05,1.5710196100000002,0.7860337950000004,0.04,0.03999999775,-9.816172199999956,0.0008110512892025652,0.001149889124993659,0.0003161296760022567,-0.009156018355872365,0.00018424727050126005
0.195,0.00019810152700026,-0.7849418259999983,1.8524513099818934e-05,-2.3558940300000013,8.96438501999701e-05,1.5710214400000002,0.7860354300000003,0.04,0.0399999985,-9.815953799999958,0.0008156088704716921,0.001118484149994059,0.0003273062840021144,-0.009211013000468844,0.0001904878870011806
0.1975,0.00019947596350024252,-0.7849332879999984,1.7567404049831123e-05,-2.3559006150000013,8.948583509997211e-05,1.5710232700000002,0.7860370650000003,0.04,0.03999999925,-9.815735399999962,0.0008201664517408191,0.0010870791749944587,0.00033848289200197204,-0.009266007645065324,0.00019672850350110113
0.2,0.0002008504000002797,-0.7849247499999986,1.6610294999805147e-05,-2.3559072000000008,8.932781999996777e-05,1.5710251000000004,0.7860387000000003,0.04,0.04,-9.815516999999957,0.0008247240330105652,0.0010556741999949572,0.00034965950000203695,-0.009321002289660365,0.00020296912000119288
0.2025,0.00020255893450028126,-0.7849163574999986,1.5420101924804064e-05,-2.355913680000001,8.913094889996759e-05,1.5710275150000004,0.7860407025000004,0.04,0.04,-9.815258849999957,0.0008330628392299777,0.001024871864994929,0.00036210158450204825,-0.009367211442448323,0.0002102553700011995
0.20500000000000002,0.0002042674690002828,-0.7849079649999986,1.4229908849802981e-05,-2.355920160000001,8.893407779996741e-05,1.5710299300000004,0.7860427050000003,0.04,0.04,-9.815000699999958,0.0008414016454493903,0.0009940695299949013,0.0003745436690020596,-0.00941342059523628,0.00021754162000120613
0.20750000000000002,0.00020597600350028437,-0.7848995724999986,1.3039715774801898e-05,-2.3559266400000007,8.873720669996723e-05,1.5710323450000003,0.7860447075000003,0.04,0.04,-9.814742549999957,0.0008497404516688029,0.0009632671949948731,0.0003869857535020709,-0.009459629748024237,0.00022482787000121276
0.21,0.00020768453800028592,-0.7848911799999986,1.1849522699800827e-05,-2.355933120000001,8.854033559996705e-05,1.5710347600000003,0.7860467100000004,0.04,0.04,-9.814484399999957,0.0008580792578882154,0.0009324648599948453,0.0003994278380020821,-0.009505838900812193,0.0002321141200012193
0.2125,0.00020939307250028745,-0.7848827874999986,1.0659329624799744e-05,-2.355939600000001,8.834346449996688e-05,1.5710371750000005,0.7860487125000003,0.04,0.04,-9.814226249999956,0.000866418064107628,0.0009016625249948174,0.0004118699225020934,-0.009552048053600149,0.00023940037000122594
0.215,0.000211101607000289,-0.7848743949999986,9.46913654979866e-06,-2.3559460800000007,8.81465933999667e-05,1.5710395900000005,0.7860507150000003,0.04,0.04,-9.813968099999956,0.0008747568703270407,0.0008708601899947893,0.0004243120070021048,-0.009598257206388107,0.00024668662000123257
0.2175,0.0002129362180003549,-0.7848660269999986,8.190977414752695e-06,-2.355952545000001,8.793499269995901e-05,1.5710421950000006,0.7860528575000004,0.04,0.04,-9.813731249999966,0.0008833784231698625,0.0008436437499965909,0.00043733973150241487,-0.00964237060398534,0.0002542918225014019
0.22,0.0002150229820003568,-0.7848577079999987,6.736886159751371e-06,-2.355958980000001,8.769393279995878e-05,1.5710451800000005,0.7860552800000005,0.04,0.04,-9.813536999999966,0.0008925654692590708,0.0008235990999965726,0.0004515387360024278,-0.009682292491204326,0.00026253493000140946
0.2225,0.0002171097460003587,-0.7848493889999986,5.2827949047500475e-06,-2.355965415000001,8.745287289995856e-05,1.5710481650000006,0.7860577025000004,0.04,0.04,-9.813342749999967,0.0009017525153482793,0.0008035544499965544,0.00046573774050244075,-0.009722214378423313,0.00027077803750141696
0.225,0.0002191965100003606,-0.7848410699999986,3.828703649748724e-06,-2.3559718500000013,8.721181299995835e-05,1.5710511500000006,0.7860601250000004,0.04,0.04,-9.813148499999967,0.0009109395614374876,0.0007835097999965362,0.00047993674500245364,-0.0097621362656423,0.00027902114500142445
0.2275,0.0002212832740003625,-0.7848327509999986,2.3746123947474007e-06,-2.3559782850000013,8.697075309995812e-05,1.5710541350000007,0.7860625475000004,0.04,0.04,-9.812954249999965,0.000920126607526696,0.0007634651499965179,0.0004941357495024665,-0.009802058152861285,0.00028726425250143195
0.23,0.0002233700380003644,-0.7848244319999986,9.205211397460773e-07,-2.3559847200000013,8.67296931999579e-05,1.5710571200000005,0.7860649700000004,0.04,0.04,-9.812759999999965,0.0009293136536159043,0.0007434204999964997,0.0005083347540024795,-0.009841980040080273,0.0002955073600014395
0.2325,0.0002254568020003663,-0.7848161129999985,-5.33570115255247e-07,-2.3559911550000012,8.648863329995768e-05,1.5710601050000006,0.7860673925000005,0.04,0.04,-9.812565749999965,0.0009385006997051127,0.0007233758499964815,0.0005225337585024924,-0.009881901927299258,0.000303750467501447
0.23500000000000001,0.00022782596700044296,-0.7848077609999985,-2.1847062803087235e-06,-2.355997590000001,8.621470099994876e-05,1.5710634800000007,0.7860701400000005,0.04,0.04,-9.812373799999966,0.0009475518134437651,0.0007093955229980683,0.0005379355200028237,-0.009917999710893613,0.0003126502800016283
0.23750000000000002,0.00023033633250044524,-0.7847993924999985,-3.934364900310316e-06,-2.356004025000001,8.59243324999485e-05,1.5710670500000008,0.7860730500000005,0.04,0.04,-9.812182999999965,0.0009565349610071933,0.0006984473574980583,0.0005539386600028383,-0.009952185442677163,0.0003218784450016367
0.24,0.0002328466980004475,-0.7847910239999986,-5.68402352031189e-06,-2.356010460000001,8.563396399994824e-05,1.5710706200000006,0.7860759600000005,0.04,0.04,-9.811992199999965,0.0009655181085706214,0.0006874991919980485,0.0005699418000028526,-0.009986371174460714,0.00033110661000164496
0.2425,0.00023535706350044977,-0.7847826554999985,-7.4336821403134815e-06,-2.356016895000001,8.534359549994798e-05,1.5710741900000007,0.7860788700000005,0.04,0.04,-9.811801399999966,0.0009745012561340495,0.0006765510264980384,0.0005859449400028672,-0.010020556906244265,0.00034033477500165337
0.245,0.00023786742900045208,-0.7847742869999985,-9.183340760315075e-06,-2.3560233300000015,8.50532269999477e-05,1.5710777600000008,0.7860817800000005,0.04,0.04,-9.811610599999966,0.0009834844036974778,0.0006656028609980285,0.0006019480800028819,-0.010054742638027817,0.0003495629400016618
0.2475,0.00024037779450045436,-0.7847659184999985,-1.0932999380316668e-05,-2.3560297650000015,8.476285849994744e-05,1.5710813300000006,0.7860846900000005,0.04,0.04,-9.811419799999966,0.000992467551260906,0.0006546546954980185,0.0006179512200028964,-0.010088928369811368,0.0003587911050016702
0.25,0.00024288816000054214,-0.7847575499999985,-1.2682658000377927e-05,-2.3560362000000015,8.447248999993723e-05,1.5710849000000007,0.7860876000000007,0.04,0.04,-9.811228999999967,0.0010014506988248954,0.0006437065299989717,0.0006339543600032332,-0.010123114101593994,0.0003680192700018617
0.2525,0.00024586853550054484,-0.7847490119999985,-1.4760333800379818e-05,-2.356042620000001,8.412745099993692e-05,1.5710890400000008,0.7860910650000006,0.04,0.04,-9.811046299999967,0.0010135197138901114,0.0006380529894989664,0.0006517289610032494,-0.01015221551061206,0.00037825429050187105
0.255,0.00024884891100054754,-0.7847404739999985,-1.6838009600381708e-05,-2.356049040000001,8.37824119999366e-05,1.5710931800000008,0.7860945300000006,0.04,0.04,-9.810863599999967,0.0010255887289553273,0.0006323994489989613,0.0006695035620032655,-0.010181316919630127,0.0003884893110018804
0.2575,0.0002518292865005503,-0.7847319359999985,-1.8915685400383602e-05,-2.356055460000001,8.34373729999363e-05,1.5710973200000007,0.7860979950000007,0.04,0.04,-9.810680899999966,0.0010376577440205433,0.0006267459084989561,0.0006872781630032817,-0.010210418328648193,0.00039872433150188967
0.26,0.000254809662000553,-0.7847233979999985,-2.0993361200385493e-05,-2.3560618800000013,8.309233399993598e-05,1.5711014600000006,0.7861014600000007,0.04,0.04,-9.810498199999966,0.0010497267590857593,0.000621092367998951,0.000705052764003298,-0.010239519737666259,0.000408959352001899
0.2625,0.0002577900375005557,-0.7847148599999985,-2.3071037000387383e-05,-2.356068300000001,8.274729499993567e-05,1.5711056000000008,0.7861049250000007,0.04,0.04,-9.810315499999966,0.0010617957741509752,0.0006154388274989458,0.0007228273650033141,-0.010268621146684326,0.00041919437250190835
0.265,0.0002607704130005584,-0.7847063219999985,-2.5148712800389274e-05,-2.356074720000001,8.240225599993535e-05,1.5711097400000007,0.7861083900000007,0.04,0.04,-9.810132799999966,0.0010738647892161912,0.0006097852869989407,0.0007406019660033303,-0.010297722555702393,0.00042942939300191763
0.2675,0.0002639232220006585,-0.7846977064999984,-2.7346745000459146e-05,-2.3560811750000012,8.2037661799924e-05,1.5711141100000008,0.7861120600000008,0.04,0.03999999975,-9.809949799999965,0.0010866409516919466,0.0006035349369985985,0.0007589586070036752,-0.010325245372955592,0.0004400445760021417
0.27,0.0002674208980006617,-0.7846889359999983,-2.9785490000461366e-05,-2.356087700000001,8.163395719992362e-05,1.571118940000001,0.7861161400000009,0.04,0.039999999,-9.809766199999965,0.0011008314089875845,0.0005960909679985917,0.000778479328003693,-0.01034961100668173,0.00045142008400215203
0.2725,0.0002709185740006649,-0.7846801654999983,-3.222423500046359e-05,-2.356094225000001,8.123025259992326e-05,1.571123770000001,0.7861202200000008,0.04,0.03999999825,-9.809582599999965,0.0011150218662832226,0.0005886469989985849,0.0007980000490037108,-0.010373976640407867,0.0004627955920021624
0.275,0.0002744162500006681,-0.7846713949999983,-3.466298000046581e-05,-2.3561007500000013,8.08265479999229e-05,1.5711286000000009,0.7861243000000008,0.04,0.0399999975,-9.809398999999965,0.0011292123235788604,0.0005812030299985781,0.0008175207700037285,-0.010398342274134003,0.00047417110000217273
0.2775,0.0002779139260006713,-0.7846626244999984,-3.710172500046803e-05,-2.356107275000001,8.042284339992253e-05,1.5711334300000008,0.7861283800000007,0.04,0.03999999675,-9.809215399999966,0.0011434027808744983,0.0005737590609985714,0.0008370414910037463,-0.010422707907860141,0.0004855466080021831
0.28,0.00028141160200067443,-0.7846538539999983,-3.954047000047025e-05,-2.3561138000000015,8.001913879992215e-05,1.571138260000001,0.7861324600000007,0.04,0.039999996,-9.809031799999964,0.0011575932381701363,0.0005663150919985645,0.0008565622120037641,-0.010447073541586279,0.0004969221160021934
0.28250000000000003,0.0002849092780006776,-0.7846450834999983,-4.197921500047247e-05,-2.3561203250000013,7.961543419992179e-05,1.571143090000001,0.7861365400000008,0.04,0.03999999525,-9.808848199999964,0.0011717836954657742,0.0005588711229985578,0.0008760829330037819,-0.010471439175312416,0.0005082976240022039
0.28500000000000003,0.0002887838460007909,-0.7846361239999983,-4.4681023500551495e-05,-2.3561269100000013,7.91667983999083e-05,1.5711485600000012,0.7861410450000008,0.04,0.0399999955,-9.808661899999963,0.0011867071967601062,0.0005588748500007255,0.0008967807160041433,-0.010492554306987683,0.0005202114840023713
0.28750000000000003,0.00029284686000079457,-0.7846270699999982,-4.751436375055408e-05,-2.3561335250000015,7.869569699990788e-05,1.5711543500000011,0.7861457625000009,0.04,0.03999999625,-9.808474249999964,0.001201997220053465,0.0005626024250007289,0.0009180670300041626,-0.010512044187638937,0.0005323945200023825
0.29,0.00029690987400079815,-0.7846180159999983,-5.034770400055659e-05,-2.3561401400000013,7.822459559990746e-05,1.5711601400000013,0.7861504800000009,0.04,0.039999997,-9.808286599999963,0.0012172872433468237,0.0005663300000007323,0.0009393533440041816,-0.010531534068290188,0.0005445775560023933
0.2925,0.00030097288800080184,-0.7846089619999982,-5.3181044250559174e-05,-2.3561467550000015,7.775349419990703e-05,1.5711659300000012,0.7861551975000008,0.04,0.03999999775,-9.808098949999964,0.0012325772666401825,0.0005700575750007356,0.0009606396580042009,-0.010551023948941442,0.0005567605920024043
0.295,0.00030503590200080553,-0.7845999079999982,-5.601438450056176e-05,-2.3561533700000012,7.72823927999066e-05,1.571171720000001,0.7861599150000009,0.04,0.0399999985,-9.807911299999963,0.0012478672899335415,0.000573785150000739,0.0009819259720042202,-0.010570513829592695,0.0005689436280024154
0.2975,0.0003090989160008092,-0.7845908539999982,-5.884772475056433e-05,-2.3561599850000015,7.681129139990618e-05,1.5711775100000012,0.7861646325000009,0.04,0.03999999925,-9.807723649999962,0.0012631573132269004,0.0005775127250007425,0.0010032122860042397,-0.010590003710243948,0.0005811266640024266
0.3,0.00031316193000093575,-0.7845817999999981,-6.168106500065265e-05,-2.356166600000001,7.634018999989176e-05,1.5711833000000013,0.7861693500000011,0.04,0.04,-9.807535999999963,0.0012784473365209013,0.0005812402999988985,0.0010244986000046423,-0.010609493590894038,0.0005933097000026951
0.3025,0.00031783881000094,-0.7845723349999981,-6.494295375065563e-05,-2.3561736800000013,7.579918799989126e-05,1.5711899150000013,0.786174787500001,0.04,0.03999999925,-9.807349549999962,0.0012969462492074082,0.0005757346399988935,0.0010477007350046634,-0.010623176768424811,0.0006067794300027074
0.305,0.0003225156900009443,-0.7845628699999981,-6.820484250065859e-05,-2.3561807600000013,7.525818599989077e-05,1.5711965300000013,0.7861802250000011,0.04,0.0399999985,-9.807163099999963,0.001315445161893915,0.0005702289799988885,0.0010709028700046847,-0.010636859945955583,0.0006202491600027196
0.3075,0.00032719257000094853,-0.784553404999998,-7.146673125066157e-05,-2.3561878400000014,7.471718399989029e-05,1.5712031450000012,0.7861856625000011,0.04,0.03999999775,-9.806976649999962,0.0013339440745804218,0.0005647233199988833,0.0010941050050047058,-0.010650543123486355,0.0006337188900027319
0.31,0.0003318694500009528,-0.784543939999998,-7.472862000066453e-05,-2.3561949200000014,7.417618199988978e-05,1.5712097600000012,0.786191100000001,0.04,0.039999997,-9.806790199999963,0.0013524429872669287,0.0005592176599988783,0.0011173071400047269,-0.010664226301017127,0.0006471886200027442
0.3125,0.000336546330000957,-0.7845344749999981,-7.799050875066749e-05,-2.3562020000000015,7.36351799998893e-05,1.5712163750000012,0.7861965375000011,0.04,0.03999999625,-9.806603749999962,0.0013709418999534356,0.0005537119999988733,0.001140509275004748,-0.0106779094785479,0.0006606583500027564
0.315,0.0003412232100009613,-0.7845250099999981,-8.125239750067047e-05,-2.3562090800000015,7.309417799988881e-05,1.5712229900000012,0.7862019750000011,0.04,0.0399999955,-9.806417299999962,0.0013894408126399423,0.0005482063399988683,0.001163711410004769,-0.010691592656078672,0.0006741280800027687
0.3175,0.00034612106500110244,-0.7845153779999979,-8.466854250076898e-05,-2.3562162900000017,7.25266734998719e-05,1.5712299400000016,0.7862076650000013,0.03999999975,0.03999999525,-9.80624669999997,0.00140792472521222,0.0005477039580019622,0.0011875196800051656,-0.010704303113745787,0.0006878426250029326
0.32,0.0003514608700011073,-0.7845054119999979,-8.839320000077236e-05,-2.3562237600000016,7.190616399987133e-05,1.5712375600000015,0.7862138600000013,0.039999999,0.039999996,-9.806107799999971,0.0014263786375560668,0.0005572081320019709,0.0012125402200051883,-0.010715068131687391,0.0007020468000029455
0.3225,0.0003568006750011122,-0.784495445999998,-9.211785750077576e-05,-2.3562312300000015,7.128565449987077e-05,1.5712451800000016,0.7862200550000013,0.03999999825,0.03999999675,-9.805968899999971,0.0014448325498999136,0.0005667123060019795,0.0012375607600052113,-0.010725833149628997,0.0007162509750029585
0.325,0.00036214048000111703,-0.784485479999998,-9.584251500077915e-05,-2.356238700000002,7.06651449998702e-05,1.5712528000000017,0.7862262500000012,0.0399999975,0.0399999975,-9.805829999999972,0.0014632864622437605,0.0005762164800019882,0.001262581300005234,-0.010736598167570601,0.0007304551500029714
0.3275,0.0003674802850011219,-0.7844755139999979,-9.956717250078254e-05,-2.3562461700000017,7.004463549986964e-05,1.5712604200000015,0.7862324450000012,0.03999999675,0.03999999825,-9.80569109999997,0.0014817403745876073,0.0005857206540019968,0.0012876018400052567,-0.010747363185512207,0.0007446593250029843
0.33,0.0003728200900011268,-0.7844655479999979,-0.00010329183000078593,-2.3562536400000016,6.942412599986907e-05,1.5712680400000016,0.7862386400000013,0.039999996,0.039999999,-9.80555219999997,0.001500194286931454,0.0005952248280020055,0.0013126223800052797,-0.010758128203453812,0.0007588635000029973
0.3325,0.0003781598950011316,-0.7844555819999979,-0.00010701648750078932,-2.3562611100000015,6.88036164998685e-05,1.5712756600000017,0.7862448350000013,0.03999999525,0.03999999975,-9.805413299999971,0.0015186481992753007,0.0006047290020020141,0.0013376429200053024,-0.010768893221395416,0.0007730676750030102
0.335,0.000383974470001233,-0.7844452339999979,-0.00011107264700086015,-2.356268660000002,6.812797139985673e-05,1.5712839500000018,0.7862515900000014,0.039999994500000004,0.0399999995,-9.80526614999997,0.001540829893206469,0.0006017207639981125,0.0013639527300054917,-0.01077689798548944,0.0007881094400031499
0.3375,0.00039002643000115596,-0.784434694999998,-0.0001152945575008064,-2.3562762500000014,6.74247584998657e-05,1.5712925750000017,0.7862586250000013,0.039999993750000004,0.03999999875,-9.80511487499997,0.0015648754779295179,0.0005924563199982305,0.0013909071750051484,-0.01078352262266099,0.000803570000002953
0.34,0.0003960783900010789,-0.7844241559999982,-0.00011951646800075264,-2.3562838400000015,6.672154559987465e-05,1.5713012000000015,0.7862656600000012,0.039999993000000005,0.039999998,-9.804963599999972,0.0015889210626525666,0.0005831918759983485,0.0014178616200048052,-0.01079014725983254,0.0008190305600027562
0.3425,0.00040213035000100187,-0.7844136169999982,-0.00012373837850069888,-2.356291430000001,6.60183326998836e-05,1.5713098250000015,0.7862726950000012,0.03999999225,0.03999999725,-9.804812324999975,0.0016129666473756155,0.0005739274319984664,0.0014448160650044621,-0.010796771897004091,0.0008344911200025594
0.34500000000000003,0.0004081823100009248,-0.7844030779999984,-0.00012796028900064515,-2.356299020000001,6.531511979989255e-05,1.5713184500000013,0.7862797300000011,0.0399999915,0.0399999965,-9.804661049999977,0.0016370122320986643,0.0005646629879985844,0.0014717705100041189,-0.010803396534175643,0.0008499516800023625
0.34750000000000003,0.0004142342700008477,-0.7843925389999985,-0.0001321821995005914,-2.356306610000001,6.46119068999015e-05,1.571327075000001,0.786286765000001,0.03999999075,0.03999999575,-9.804509774999978,0.0016610578168217132,0.0005553985439987023,0.0014987249550037756,-0.010810021171347193,0.0008654122400021657
0.35000000000000003,0.0004202862300008677,-0.7843819999999986,-0.00013640411000060538,-2.356314200000001,6.390869399989919e-05,1.5713357000000012,0.786293800000001,0.03999999,0.039999995,-9.804358499999973,0.0016851034015449929,0.000546134100001154,0.0015256794000036624,-0.010816645808518096,0.0008808728000021087
0.3525,0.0004270998660009667,-0.7843708099999984,-0.00014115784250067444,-2.356322210000001,6.311696264988768e-05,1.5713454050000013,0.7863017350000011,0.0399999897,0.039999994250000004,-9.80415502499997,0.0017109624110198736,0.0005551966110012857,0.0015544393050040803,-0.010818185145035573,0.0008974315550023493
0.355,0.00043391350200106584,-0.7843596199999983,-0.0001459115750007436,-2.356330220000001,6.232523129987615e-05,1.5713551100000014,0.7863096700000013,0.0399999894,0.039999993500000004,-9.803951549999967,0.001736821420494755,0.0005642591220014177,0.0015831992100044988,-0.01081972448155305,0.0009139903100025903
0.3575,0.000440727138001165,-0.7843484299999981,-0.00015066530750081279,-2.3563382300000013,6.153349994986464e-05,1.5713648150000015,0.7863176050000014,0.0399999891,0.039999992750000005,-9.803748074999964,0.0017626804299696363,0.0005733216330015495,0.0016119591150049173,-0.010821263818070527,0.0009305490650028312
0.36,0.00044754077400126414,-0.7843372399999979,-0.00015541904000088196,-2.3563462400000015,6.074176859985311e-05,1.5713745200000018,0.7863255400000014,0.0399999888,0.039999992,-9.803544599999961,0.0017885394394445177,0.0005823841440016814,0.0016407190200053358,-0.010822803154588006,0.0009471078200030722
0.3625,0.0004543544100013633,-0.7843260499999978,-0.00016017277250095116,-2.3563542500000016,5.9950037249841585e-05,1.5713842250000019,0.7863334750000016,0.0399999885,0.03999999125,-9.803341124999958,0.001814398448919399,0.0005914466550018132,0.0016694789250057543,-0.010824342491105483,0.000963666575003313
0.365,0.0004611680460014625,-0.7843148599999976,-0.00016492650500102033,-2.356362260000002,5.915830589983006e-05,1.571393930000002,0.7863414100000017,0.0399999882,0.0399999905,-9.803137649999956,0.0018402574583942803,0.0006005091660019451,0.0016982388300061729,-0.01082588182762296,0.000980225330003554
0.3675,0.00046825209900171286,-0.7843034199999973,-0.00016986907150119514,-2.356370485000002,5.833515859980097e-05,1.5714040300000023,0.786349652000002,0.0399999878,0.0399999899,-9.802953249999966,0.0018666604883098457,0.000604556575498656,0.0017275996750068657,-0.010826148977502649,0.00099714081000396
0.37,0.0004758769860017198,-0.7842914799999973,-0.00017518930600119998,-2.356379140000002,5.744917939980016e-05,1.5714149200000023,0.786358508000002,0.0399999872,0.0399999896,-9.802806999999966,0.0018941515591056808,0.0005985737819986505,0.0017581624000068935,-0.010823871754109326,0.001014769740003976
0.3725,0.00048350187300172674,-0.7842795399999973,-0.00018050954050120483,-2.356387795000002,5.656320019979936e-05,1.5714258100000025,0.786367364000002,0.0399999866,0.0399999893,-9.802660749999967,0.0019216426299015158,0.0005925909884986451,0.0017887251250069214,-0.010821594530716004,0.0010323986700039923
0.375,0.0004911267600017337,-0.7842675999999973,-0.00018582977500120968,-2.356396450000002,5.567722099979855e-05,1.5714367000000025,0.786376220000002,0.039999986,0.039999989,-9.802514499999967,0.0019491337006973509,0.0005866081949986397,0.001819287850006949,-0.010819317307322683,0.0010500276000040083
0.3775,0.0004987516470017406,-0.7842556599999972,-0.00019115000950121452,-2.356405105000002,5.4791241799797745e-05,1.5714475900000024,0.786385076000002,0.0399999854,0.0399999887,-9.802368249999967,0.001976624771493186,0.0005806254014986342,0.001849850575006977,-0.01081704008392936,0.0010676565300040243
0.38,0.0005063765340017476,-0.7842437199999973,-0.00019647024400121937,-2.356413760000002,5.390526259979694e-05,1.5714584800000024,0.786393932000002,0.0399999848,0.0399999884,-9.802221999999967,0.002004115842289021,0.0005746426079986288,0.0018804133000070047,-0.010814762860536039,0.0010852854600040404
0.3825,0.0005140014210017544,-0.7842317799999973,-0.00020179047850122422,-2.356422415000002,5.301928339979613e-05,1.5714693700000024,0.786402788000002,0.039999984200000005,0.0399999881,-9.802075749999966,0.002031606913084856,0.0005686598144986234,0.0019109760250070327,-0.010812485637142715,0.0011029143900040564
0.385,0.0005222001880020374,-0.784219299999997,-0.00020751147500142178,-2.3564311700000022,5.206662659976325e-05,1.5714810700000028,0.7864123060000023,0.039999983600000004,0.0399999876,-9.801933299999966,0.002062006923377669,0.0005695093900010243,0.0019428502600078107,-0.010808295290915905,0.001121255000004489
0.3875,0.000530685895002161,-0.7842065499999968,-0.00021343285250150797,-2.3564399750000025,5.1080630999748904e-05,1.571493175000003,0.7864221550000025,0.039999983,0.039999987,-9.801792749999965,0.0020938614034174624,0.0005737751500010863,0.001975380250008284,-0.010803148383273339,0.0011399514500047613
0.39,0.0005391716020022845,-0.7841937999999966,-0.00021935423000159413,-2.3564487800000027,5.0094635399734555e-05,1.5715052800000031,0.7864320040000027,0.0399999824,0.0399999864,-9.801652199999962,0.002125715883457256,0.0005780409100011485,0.0020079102400087576,-0.010798001475630774,0.0011586479000050332
0.3925,0.000547657309002408,-0.7841810499999964,-0.0002252756075016803,-2.3564575850000025,4.910863979972021e-05,1.5715173850000033,0.7864418530000028,0.0399999818,0.0399999858,-9.801511649999961,0.0021575703634970494,0.0005823066700012105,0.002040440230009231,-0.01079285456798821,0.0011773443500053054
0.395,0.0005561430160025315,-0.7841682999999963,-0.00023119698500176649,-2.3564663900000027,4.812264419970586e-05,1.5715294900000036,0.7864517020000029,0.0399999812,0.039999985200000004,-9.801371099999958,0.002189424843536843,0.0005865724300012726,0.0020729702200097044,-0.010787707660345645,0.0011960408000055774
0.3975,0.000564628723002655,-0.784155549999996,-0.00023711836250185267,-2.356475195000003,4.713664859969151e-05,1.5715415950000038,0.7864615510000031,0.0399999806,0.0399999846,-9.801230549999957,0.0022212793235766365,0.0005908381900013346,0.002105500210010178,-0.01078256075270308,0.0012147372500058496
0.4,0.0005731144300030766,-0.7841427999999956,-0.00024303974000214698,-2.356484000000003,4.615065299964254e-05,1.5715537000000044,0.7864714000000036,0.03999998,0.039999984,-9.801089999999938,0.002253133803617179,0.0005951039499963083,0.0021380302000112697,-0.010777413845058807,0.0012334337000064694
0.4025,0.0005825103805029569,-0.7841291559999958,-0.0002495968295020635,-2.356493795000003,4.505891654965644e-05,1.5715672000000043,0.7864823290000035,0.039999979549999995,0.0399999834,-9.80089889999994,0.002287275984428359,0.0005838290334964519,0.002172449470010832,-0.010767051717263125,0.0012531919100062178
0.405,0.0005919063310028372,-0.784115511999996,-0.00025615391900198,-2.356503590000003,4.396718009967034e-05,1.5715807000000042,0.7864932580000034,0.0399999791,0.0399999828,-9.800707799999943,0.0023214181652395395,0.0005725541169965954,0.0022068687400103935,-0.010756689589467442,0.0012729501200059662
0.40750000000000003,0.0006013022815027176,-0.7841018679999961,-0.0002627110085018965,-2.356513385000003,4.2875443649684236e-05,1.5715942000000038,0.7865041870000031,0.03999997865,0.0399999822,-9.800516699999944,0.00235556034605072,0.000561279200496739,0.0022412880100099552,-0.010746327461671758,0.0012927083300057146
0.41000000000000003,0.000610698232002598,-0.7840882239999962,-0.000269268098001813,-2.3565231800000026,4.178370719969814e-05,1.5716077000000037,0.786515116000003,0.0399999782,0.0399999816,-9.800325599999947,0.0023897025268619005,0.0005500042839968825,0.002275707280009517,-0.010735965333876076,0.001312466540005463
0.41250000000000003,0.0006200941825024784,-0.7840745799999964,-0.0002758251875017295,-2.3565329750000026,4.0691970749712034e-05,1.5716212000000036,0.7865260450000029,0.03999997775,0.039999981,-9.800134499999949,0.002423844707673081,0.0005387293674970261,0.0023101265500090787,-0.010725603206080393,0.0013322247500052117
0.41500000000000004,0.0006294901330023587,-0.7840609359999966,-0.00028238227700164603,-2.3565427700000026,3.9600234299725936e-05,1.5716347000000035,0.7865369740000028,0.039999977299999996,0.039999980399999996,-9.799943399999952,0.002457986888484261,0.0005274544509971696,0.0023445458200086404,-0.010715241078284709,0.0013519829600049601
0.4175,0.0006392059330025617,-0.7840469699999965,-0.00028916276000178783,-2.3565526250000026,3.847134889970236e-05,1.5716486550000037,0.786548272000003,0.039999977,0.03999998,-9.799782299999976,0.0024934869725351436,0.0005203700200003208,0.0023795549000089522,-0.01070429589599066,0.0013720937050051493
0.42,0.0006495614320027124,-0.7840323599999962,-0.000296390030001893,-2.356562600000003,3.7268165599684854e-05,1.571663520000004,0.7865603080000031,0.039999977,0.03999998,-9.799681199999974,0.00253170286306247,0.0005216665600003397,0.002415743600009479,-0.010692184604701149,0.0013929095200054522
0.4225,0.0006599169310028631,-0.784017749999996,-0.0003036173000019982,-2.356572575000003,3.606498229966734e-05,1.5716783850000042,0.7865723440000033,0.039999977,0.03999998,-9.799580099999972,0.002569918753589796,0.0005229631000003585,0.0024519323000100055,-0.010680073313411637,0.0014137253350057553
0.425,0.0006702724300030137,-0.7840031399999958,-0.00031084457000210336,-2.3565825500000033,3.486179899964983e-05,1.5716932500000043,0.7865843800000035,0.039999977,0.03999998,-9.79947899999997,0.0026081346441171223,0.0005242596400003774,0.002488121000010532,-0.010667962022122127,0.0014345411500060583
0.4275,0.0006806279290031645,-0.7839885299999956,-0.00031807184000220854,-2.356592525000003,3.3658615699632326e-05,1.5717081150000045,0.7865964160000036,0.039999977,0.03999998,-9.79937789999997,0.0026463505346444485,0.0005255561800003961,0.002524309700011059,-0.010655850730832615,0.0014553569650063612
0.43,0.0006909834280033151,-0.7839739199999953,-0.0003252991100023137,-2.3566025000000033,3.245543239961481e-05,1.5717229800000048,0.7866084520000038,0.039999977,0.03999998,-9.799276799999967,0.0026845664251717743,0.000526852720000415,0.0025604984000115855,-0.010643739439543103,0.001476172780006664
0.4325,0.0007013389270034659,-0.7839593099999952,-0.0003325263800024189,-2.3566124750000035,3.1252249099597305e-05,1.571737845000005,0.786620488000004,0.039999977,0.03999998,-9.799175699999966,0.0027227823156991005,0.0005281492600004339,0.002596687100012112,-0.010631628148253592,0.001496988595006967
0.435,0.0007123668010038654,-0.7839440059999947,-0.000340223298002698,-2.356623140000004,2.9970970199550892e-05,1.5717536800000056,0.7866333000000044,0.039999977,0.03999998,-9.799011899999934,0.0027632931247494903,0.000515289325993218,0.002634144330012957,-0.01061589000746002,0.001518501220007436
0.4375,0.0007237308625038757,-0.7839283549999947,-0.0003481550400027052,-2.3566341500000036,2.865064349954969e-05,1.5717700000000057,0.7866465000000045,0.039999977,0.03999998,-9.798816749999933,0.002804951393059658,0.0004953511549931998,0.0026722358250129913,-0.01059833844191719,0.001540362250007456
0.44,0.0007350949240038861,-0.7839127039999947,-0.0003560867820027124,-2.356645160000004,2.7330316799548486e-05,1.5717863200000055,0.7866597000000045,0.039999977,0.03999998,-9.798621599999933,0.002846609661369826,0.0004754129839931817,0.0027103273200130263,-0.010580786876374359,0.001562223280007476
0.4425,0.0007464589855038965,-0.7838970529999947,-0.00036401852400271966,-2.356656170000004,2.6009990099547286e-05,1.5718026400000056,0.7866729000000046,0.039999977,0.03999998,-9.798426449999933,0.002888267929679994,0.00045547481299316355,0.002748418815013061,-0.010563235310831528,0.0015840843100074957
0.445,0.0007578230470039069,-0.7838814019999947,-0.00037195026600272686,-2.3566671800000036,2.4689663399546082e-05,1.5718189600000056,0.7866861000000045,0.039999977,0.03999998,-9.798231299999934,0.002929926197990162,0.00043553664199314537,0.0027865103100130953,-0.010545683745288697,0.0016059453400075155
0.4475,0.0007691871085039172,-0.7838657509999946,-0.0003798820080027341,-2.356678190000004,2.336933669954488e-05,1.5718352800000057,0.7866993000000045,0.039999977,0.03999998,-9.798036149999932,0.0029715844663003297,0.00041559847099312725,0.0028246018050131303,-0.010528132179745865,0.0016278063700075355
0.45,0.000780551170004293,-0.7838500999999942,-0.0003878137500029966,-2.356689200000004,2.2049009999501246e-05,1.5718516000000062,0.786712500000005,0.039999977,0.03999998,-9.797840999999968,0.003013242734611656,0.00039566029999546954,0.002862693300013811,-0.010510580614202528,0.0016496674000079142
0.4525,0.0007929725545041349,-0.7838333059999943,-0.0003964840275028862,-2.356701110000004,2.060590859951962e-05,1.571869465000006,0.7867269300000048,0.0399999764,0.039999979549999995,-9.797748149999968,0.003058253100622488,0.00038255184049563643,0.0029026539450133023,-0.010491560958319464,0.0016725668650076227
0.455,0.0008053939390039766,-0.7838165119999946,-0.00040515430500277577,-2.356713020000004,1.9162807199537992e-05,1.5718873300000058,0.7867413600000046,0.0399999758,0.0399999791,-9.79765529999997,0.00310326346663332,0.0003694433809958033,0.0029426145900127935,-0.0104725413024364,0.0016954663300073312
0.4575,0.0008178153235038185,-0.7837997179999948,-0.0004138245825026654,-2.3567249300000035,1.7719705799556367e-05,1.5719051950000056,0.7867557900000045,0.0399999752,0.03999997865,-9.79756244999997,0.003148273832644152,0.0003563349214959702,0.0029825752350122847,-0.010453521646553337,0.0017183657950070397
0.46,0.0008302367080036604,-0.783782923999995,-0.000422494860002555,-2.3567368400000035,1.6276604399574742e-05,1.5719230600000054,0.7867702200000043,0.0399999746,0.0399999782,-9.797469599999973,0.0031932841986549837,0.0003432264619961371,0.003022535880011776,-0.010434501990670276,0.001741265260006748
0.4625,0.0008426580925035022,-0.7837661299999953,-0.0004311651375024446,-2.3567487500000035,1.4833502999593115e-05,1.5719409250000052,0.7867846500000041,0.039999974,0.03999997775,-9.797376749999973,0.003238294564665816,0.000330118002496304,0.003062496525011267,-0.010415482334787212,0.0017641647250064565
0.465,0.0008550794770033441,-0.7837493359999954,-0.0004398354150023342,-2.3567606600000035,1.3390401599611488e-05,1.571958790000005,0.7867990800000039,0.0399999734,0.039999977299999996,-9.797283899999975,0.0032833049306766476,0.0003170095429964709,0.0031024571700107584,-0.010396462678904149,0.001787064190006165
0.4675,0.0008678693850035925,-0.7837321494999953,-0.0004487631220025078,-2.3567726900000032,1.190450514958264e-05,1.5719771750000051,0.7868139400000042,0.03999997285,0.039999976799999996,-9.797178849999966,0.0033301083604006976,0.0003046319389971009,0.0031430178200110913,-0.010376683948555863,0.0018103051750063537
0.47000000000000003,0.0008813963400037894,-0.783714177999995,-0.0004582056880026452,-2.3567849600000037,1.033301859955977e-05,1.5719966000000054,0.7868296600000044,0.0399999724,0.0399999762,-9.797049399999963,0.003380497917546976,0.00029371604599694206,0.003184778480011699,-0.010355387069278913,0.001834229200006702
0.47250000000000003,0.0008949232950039862,-0.7836962064999947,-0.0004676482540027826,-2.3567972300000037,8.7615320495369e-06,1.5720160250000057,0.7868453800000047,0.039999971950000004,0.0399999756,-9.796919949999962,0.0034308874746932544,0.0002828001529967832,0.0032265391400123065,-0.010334090190001964,0.00185815322500705
0.47500000000000003,0.0009084502500041831,-0.7836782349999944,-0.00047709082000292,-2.3568095000000038,7.190045499514031e-06,1.572035450000006,0.7868611000000049,0.0399999715,0.039999975,-9.79679049999996,0.0034812770318395324,0.00027188425999662434,0.003268299800012914,-0.010312793310725014,0.0018820772500073983
0.47750000000000004,0.0009219772050043799,-0.7836602634999942,-0.0004865333860030574,-2.356821770000004,5.618558949491161e-06,1.5720548750000063,0.7868768200000051,0.03999997105,0.0399999744,-9.796661049999958,0.003531666588985811,0.0002609683669964655,0.003310060460013522,-0.010291496431448064,0.0019060012750077464
0.48,0.0009355041600045765,-0.7836422919999939,-0.0004959759520031947,-2.3568340400000043,4.047072399468326e-06,1.5720743000000066,0.7868925400000054,0.039999970600000004,0.0399999738,-9.796531599999957,0.003582056146132088,0.0002500524739963069,0.003351821120014129,-0.010270199552171115,0.0019299253000080942
0.4825,0.0009490311150047734,-0.7836243204999936,-0.0005054185180033321,-2.3568463100000043,2.4755858494454575e-06,1.5720937250000069,0.7869082600000056,0.03999997015,0.039999973200000004,-9.796402149999954,0.0036324457032783663,0.00023913658099614804,0.0033935817800147365,-0.010248902672894165,0.001953849325008442
0.485,0.0009633270500052606,-0.7836055209999931,-0.0005153983210036723,-2.3568592900000045,8.14826499388896e-07,1.5721142500000076,0.7869248740000061,0.039999969,0.0399999723,-9.79624339999994,0.0036844516173194152,0.0002105241627865765,0.003436579180015629,-0.010224467050274763,0.0019784463000089344
0.4875,0.000978007475005274,-0.7835863074999931,-0.0005256467425036816,-2.3568726250000047,-8.905692506126569e-07,1.5721353250000076,0.7869419350000062,0.039999967500000004,0.03999997125,-9.796069999999938,0.003737265709806548,0.0001730634819865424,0.003480194950015669,-0.010198462055986658,0.0020033797500089573
0.49,0.0009926879000052872,-0.7835670939999931,-0.000535895164003691,-2.356885960000005,-2.5959650006142097e-06,1.5721564000000077,0.7869589960000062,0.039999966000000005,0.0399999702,-9.795896599999939,0.003790079802293681,0.0001356028011865083,0.0035238107200157086,-0.010172457061698555,0.00202831320000898
0.4925,0.0010073683250053007,-0.7835478804999931,-0.0005461435855037003,-2.3568992950000047,-4.301360750615763e-06,1.5721774750000077,0.7869760570000062,0.0399999645,0.03999996915,-9.795723199999939,0.0038428938947808145,9.814212038647418e-05,0.0035674264900157483,-0.01014645206741045,0.0020532466500090027
0.495,0.0010220487500053142,-0.783528666999993,-0.0005563920070037096,-2.356912630000005,-6.006756500617315e-06,1.5721985500000077,0.7869931180000062,0.039999963,0.0399999681,-9.795549799999938,0.0038957079872679475,6.068143958644007e-05,0.003611042260015788,-0.010120447073122346,0.0020781801000090256
0.4975,0.0010367291750053274,-0.783509453499993,-0.000566640428503719,-2.3569259650000047,-7.712152250618868e-06,1.5722196250000078,0.7870101790000062,0.0399999615,0.039999967049999995,-9.795376399999938,0.0039485220797550805,2.322075878640598e-05,0.003654658030015828,-0.010094442078834243,0.002103113550009048
0.5,0.0010514096000057778,-0.7834902399999926,-0.0005768888500040335,-2.3569393000000054,-9.417548000671172e-06,1.5722407000000083,0.7870272400000067,0.03999996,0.039999966,-9.79520299999996,0.004001336172244096,-1.42399220056882e-05,0.003698273800016502,-0.010068437084545561,0.002128047000009386
0.5025000000000001,0.0010672910000055758,-0.7834696689999928,-0.0005879762485038926,-2.356953745000005,-1.1262449150647723e-05,1.572263545000008,0.7870456930000065,0.039999959700000004,0.039999966,-9.795090199999962,0.004059323715066329,-2.9875524205489476e-05,0.0037436339050159256,-0.010040842741718107,0.002153846490009058
0.505,0.0010831724000053733,-0.7834490979999931,-0.0005990636470037512,-2.356968190000005,-1.3107350300624193e-05,1.5722863900000077,0.7870641460000063,0.0399999594,0.039999966,-9.794977399999963,0.00411731125788856,-4.551112640529005e-05,0.003788994010015347,-0.010013248398890654,0.002179645980008729
0.5075000000000001,0.0010990538000051715,-0.7834285269999933,-0.0006101510455036103,-2.356982635000005,-1.4952251450600744e-05,1.5723092350000074,0.787082599000006,0.0399999591,0.039999966,-9.794864599999963,0.004175298800710792,-6.114672860509133e-05,0.00383435411501477,-0.0099856540560632,0.002205445470008401
0.51,0.0011149352000049688,-0.7834079559999936,-0.0006212384440034688,-2.3569970800000046,-1.6797152600577213e-05,1.5723320800000071,0.7871010520000058,0.0399999588,0.039999966,-9.794751799999965,0.0042332863435330225,-7.67823308048919e-05,0.0038797142200141916,-0.009958059713235747,0.002231244960008072
0.5125,0.0011308166000047663,-0.7833873849999938,-0.0006323258425033275,-2.3570115250000043,-1.8642053750553683e-05,1.5723549250000068,0.7871195050000055,0.0399999585,0.039999966,-9.794638999999966,0.004291273886355253,-9.241793300469249e-05,0.003925074325013613,-0.009930465370408294,0.002257044450007743
0.515,0.0011466980000045645,-0.7833668139999941,-0.0006434132410031865,-2.3570259700000045,-2.0486954900530237e-05,1.5723777700000066,0.7871379580000053,0.039999958200000005,0.039999966,-9.794526199999968,0.004349261429177486,-0.00010805353520449376,0.003970434430013037,-0.00990287102758084,0.002282843940007415
0.5175,0.0011629953200048605,-0.7833457679999938,-0.0006547912380033933,-2.3570405350000043,-2.2380091550564543e-05,1.5724012100000069,0.7871568920000056,0.0399999578,0.0399999656,-9.794423749999977,0.004409233341011658,-0.00013641375151526823,0.0040163955050133825,-0.009874727809793322,0.0023090563800076723
0.52,0.00118012448000511,-0.7833237719999935,-0.0006667504320035676,-2.3570553400000045,-2.436969920059354e-05,1.5724258400000073,0.7871767880000059,0.0399999572,0.0399999644,-9.794341999999975,0.004473173990864735,-0.0001902231960160525,0.00406355852001407,-0.009845486842087057,0.002336094720008066
0.5225,0.001197253640005359,-0.7833017759999932,-0.0006787096260037415,-2.3570701450000047,-2.6359306850622453e-05,1.5724504700000077,0.7871966840000062,0.0399999566,0.0399999632,-9.794260249999974,0.004537114640717809,-0.0002440326405168344,0.004110721535014755,-0.009816245874380791,0.002363133060008459
0.525,0.0012143828000056086,-0.7832797799999929,-0.0006906688200039158,-2.357084950000005,-2.8348914500651448e-05,1.5724751000000081,0.7872165800000065,0.039999955999999996,0.039999962,-9.794178499999973,0.004601055290570886,-0.0002978420850176187,0.004157884550015443,-0.009787004906674526,0.0023901714000088533
0.5275,0.0012315119600058574,-0.7832577839999926,-0.0007026280140040895,-2.357099755000005,-3.033852215068036e-05,1.5724997300000085,0.7872364760000068,0.0399999554,0.0399999608,-9.794096749999973,0.00466499594042396,-0.00035165152951840056,0.004205047565016128,-0.00975776393896826,0.002417209740009246
0.53,0.001248641120006107,-0.7832357879999922,-0.0007145872080042639,-2.357114560000005,-3.232812980070936e-05,1.572524360000009,0.7872563720000071,0.0399999548,0.0399999596,-9.794014999999971,0.004728936590277037,-0.0004054609740191848,0.004252210580016815,-0.009728522971261994,0.00244424808000964
0.5325,0.001265770280006356,-0.7832137919999919,-0.0007265464020044377,-2.3571293650000054,-3.431773745073827e-05,1.5725489900000091,0.7872762680000074,0.0399999542,0.0399999584,-9.79393324999997,0.004792877240130111,-0.00045927041851996674,0.004299373595017501,-0.009699282003555729,0.002471286420010033
0.535,0.0012837621300067696,-0.7831908379999915,-0.0007391083500047266,-2.3571448900000056,-3.64075430007863e-05,1.57257488000001,0.7872971700000079,0.0399999536,0.039999957600000004,-9.79376134999992,0.004858557600552374,-0.000500801957013005,0.004347751000018,-0.009666542522596517,0.002498875710010239
0.5375,0.0013021853250065347,-0.7831674049999917,-0.0007519716750045626,-2.3571607750000054,-3.854744750075901e-05,1.5726014000000095,0.7873185750000076,0.039999953,0.039999957,-9.793544374999923,0.004925107816257755,-0.0005361945425125536,0.004396735600017375,-0.009632053785013792,0.0025267404750098834
0.54,0.0013206085200063004,-0.783143971999992,-0.0007648350000043991,-2.3571766600000053,-4.068735200073181e-05,1.572627920000009,0.7873399800000073,0.0399999524,0.0399999564,-9.793327399999926,0.004991658031963139,-0.0005715871280121038,0.0044457202000167525,-0.009597565047431065,0.0025546052400095293
0.5425,0.0013390317150060655,-0.7831205389999923,-0.000777698325004235,-2.357192545000005,-4.282725650070452e-05,1.5726544400000089,0.7873613850000071,0.039999951799999996,0.0399999558,-9.793110424999929,0.00505820824766852,-0.0006069797135116523,0.0044947048000161275,-0.00956307630984834,0.002582470005009174
0.545,0.0013574549100058312,-0.7830971059999926,-0.0007905616500040715,-2.357208430000005,-4.496716100067733e-05,1.5726809600000085,0.7873827900000068,0.0399999512,0.0399999552,-9.792893449999932,0.0051247584633739044,-0.0006423722990112025,0.004543689400015505,-0.009528587572265613,0.00261033477000882
0.5475,0.0013758781050055963,-0.7830736729999929,-0.0008034249750039074,-2.3572243150000047,-4.710706550065003e-05,1.572707480000008,0.7874041950000065,0.0399999506,0.0399999546,-9.792676474999933,0.005191308679079285,-0.0006777648845107511,0.00459267400001488,-0.009494098834682888,0.0026381995350084645
0.55,0.0013943013000057521,-0.7830502399999928,-0.0008162883000040164,-2.357240200000005,-4.9246970000668115e-05,1.5727340000000083,0.7874256000000066,0.03999995,0.039999954,-9.792459499999975,0.005257858894785925,-0.0007131574700177316,0.004641658600014745,-0.009459610097099575,0.0026660643000083464
0.5525,0.0014140642350057697,-0.7830252889999927,-0.0008300877600040286,-2.3572571800000053,-5.154245675067016e-05,1.5727624700000085,0.7874485560000066,0.03999994955,0.039999954,-9.792372274999975,0.0053287208313328475,-0.0007740789545177857,0.00469231801001479,-0.009423104953010093,0.002694740505008372
0.555,0.0014338271700057882,-0.7830003379999927,-0.0008438872200040415,-2.357274160000005,-5.38379435006723e-05,1.5727909400000084,0.7874715120000066,0.0399999491,0.039999954,-9.792285049999974,0.005399582767879774,-0.0008350004390178425,0.004742977420014837,-0.009386599808920608,0.0027234167100083986
0.5575,0.0014535901050058057,-0.7829753869999927,-0.0008576866800040538,-2.357291140000005,-5.6133430250674334e-05,1.5728194100000084,0.7874944680000067,0.03999994865,0.039999954,-9.792197824999974,0.005470444704426696,-0.0008959219235178965,0.004793636830014882,-0.009350094664831126,0.0027520929150084243
0.56,0.0014733530400058241,-0.7829504359999926,-0.0008714861400040667,-2.3573081200000052,-5.842891700067648e-05,1.5728478800000085,0.7875174240000068,0.0399999482,0.039999954,-9.792110599999974,0.0055413066409736225,-0.0009568434080179534,0.0048442962400149295,-0.009313589520741643,0.002780769120008451
0.5625,0.0014931159750058416,-0.7829254849999926,-0.000885285600004079,-2.357325100000005,-6.072440375067852e-05,1.5728763500000085,0.7875403800000068,0.03999994775,0.039999954,-9.792023374999975,0.005612168577520546,-0.0010177648925180074,0.0048949556500149745,-0.00927708437665216,0.0028094453250084766
0.5650000000000001,0.0015128789100058602,-0.7829005339999926,-0.0008990850600040917,-2.357342080000005,-6.301989050068066e-05,1.5729048200000086,0.7875633360000068,0.0399999473,0.039999954,-9.791936149999975,0.005683030514067472,-0.0010786863770180643,0.004945615060015022,-0.009240579232562676,0.002838121530008503
0.5675,0.0015331034650063857,-0.782875062499992,-0.000913207070004459,-2.3573594300000056,-6.536889700074162e-05,1.5729339550000092,0.7875868300000074,0.03999994665,0.03999995345,-9.791835249999961,0.005756678851345171,-0.0011339400200132612,0.0049968529700158216,-0.009203406423318673,0.0028671902000090145
0.5700000000000001,0.001554251260006694,-0.7828485499999915,-0.0009279741800046742,-2.3573775200000058,-6.782494300077742e-05,1.5729644200000097,0.7876114000000077,0.0399999456,0.039999951799999996,-9.79170699999996,0.0058358999900769756,-0.0011778579800139012,0.0050492478800165845,-0.009164898283767412,0.0028970438000094495
0.5725,0.0015753990550070012,-0.7828220374999912,-0.0009427412900048888,-2.357395610000006,-7.02809890008131e-05,1.5729948850000102,0.7876359700000082,0.03999994455,0.03999995015,-9.791578749999957,0.005915121128808777,-0.0012217759400145395,0.005101642790017346,-0.009126390144216151,0.002926897400009883
0.5750000000000001,0.0015965468500073094,-0.7827955249999908,-0.000957508400005104,-2.357413700000006,-7.273703500084889e-05,1.5730253500000106,0.7876605400000085,0.039999943499999996,0.0399999485,-9.791450499999955,0.005994342267540581,-0.0012656939000151796,0.00515403770001811,-0.00908788200466489,0.0029567510000103187
0.5775,0.0016176946450076168,-0.7827690124999904,-0.0009722755100053187,-2.3574317900000064,-7.519308100088459e-05,1.5730558150000111,0.7876851100000088,0.03999994245,0.03999994685,-9.791322249999954,0.006073563406272383,-0.0013096118600158177,0.005206432610018871,-0.009049373865113631,0.0029866046000107524
0.58,0.0016388424400079241,-0.7827424999999901,-0.0009870426200055333,-2.3574498800000065,-7.764912700092027e-05,1.5730862800000116,0.7877096800000093,0.039999941399999996,0.039999945200000005,-9.791193999999951,0.006152784545004184,-0.001353529820016456,0.005258827520019632,-0.00901086572556237,0.003016458200011186
0.5825,0.0016599902350082324,-0.7827159874999897,-0.0010018097300057483,-2.3574679700000067,-8.010517300095606e-05,1.5731167450000119,0.7877342500000096,0.03999994035,0.03999994355,-9.79106574999995,0.0062320056837359885,-0.001397447780017096,0.005311222430020395,-0.00897235758601111,0.003046311800011621
0.585,0.0016820908200087061,-0.7826883649999892,-0.0010172426200060795,-2.3574868100000073,-8.267184200101106e-05,1.5731485900000126,0.7877599260000102,0.0399999396,0.0399999427,-9.790963399999965,0.006312237540291033,-0.0014652531400307523,0.005364733560020849,-0.00893236305563062,0.0030766779000118085
0.5875,0.001704667800008419,-0.7826601874999896,-0.001033008400005879,-2.357506025000007,-8.529382250097774e-05,1.5731811250000123,0.7877861550000098,0.039999939,0.039999942250000003,-9.790873999999965,0.006392974755756807,-0.0015450022000297386,0.0054188028000201624,-0.008891625329836833,0.003107300250011419
0.59,0.0017272447800081312,-0.7826320099999898,-0.001048774180005678,-2.357525240000007,-8.79158030009443e-05,1.5732136600000117,0.7878123840000095,0.0399999384,0.0399999418,-9.790784599999967,0.006473711971222577,-0.0016247512600287214,0.005472872040019473,-0.008850887604043048,0.0031379226000110287
0.5925,0.0017498217600078441,-0.7826038324999902,-0.0010645399600054777,-2.3575444550000064,-9.053778350091098e-05,1.5732461950000114,0.7878386130000091,0.039999937799999996,0.03999994135,-9.790695199999968,0.006554449186688351,-0.0017045003200277077,0.0055269412800187856,-0.008810149878249261,0.0031685449500106393
0.595,0.0017723987400075562,-0.7825756549999906,-0.0010803057400052766,-2.3575636700000064,-9.315976400087753e-05,1.5732787300000108,0.7878648420000088,0.0399999372,0.039999940899999996,-9.79060579999997,0.006635186402154121,-0.0017842493800266906,0.005581010520018096,-0.008769412152455476,0.0031991673000102486
0.5975,0.0017949757200072694,-0.782547477499991,-0.0010960715200050762,-2.357582885000006,-9.578174450084422e-05,1.5733112650000105,0.7878910710000084,0.0399999366,0.03999994045,-9.790516399999971,0.006715923617619895,-0.001863998440025677,0.005635079760017409,-0.008728674426661687,0.0032297896500098596
0.6,0.0018175527000074368,-0.7825192999999908,-0.0011118373000051933,-2.357602100000006,-9.840372500086362e-05,1.5733438000000106,0.7879173000000087,0.039999936,0.03999994,-9.790426999999958,0.006796660833087942,-0.0019437475000187248,0.005689149000017231,-0.008687936700867272,0.003260412000009739
0.6025,0.0018416025450074592,-0.7824894259999907,-0.001128632380005209,-2.357622530000006,-0.00010119661475086622,1.5733784500000108,0.7879452690000087,0.0399999351,0.039999938799999996,-9.790296424999958,0.00688476134094344,-0.002004302695018781,0.005744873550017284,-0.008645163010792553,0.0032919083700097686
0.605,0.0018656523900074805,-0.7824595519999907,-0.0011454274600052239,-2.3576429600000064,-0.0001039895045008687,1.5734131000000107,0.7879732380000087,0.039999934200000004,0.0399999376,-9.790165849999958,0.0069728618487989325,-0.002064857890018835,0.005800598100017333,-0.008602389320717836,0.0033234047400097964
0.6075,0.0018897022350075029,-0.7824296779999907,-0.0011622225400052396,-2.357663390000006,-0.0001067823942508713,1.5734477500000108,0.7880012070000088,0.0399999333,0.0399999364,-9.790035274999958,0.0070609623566544304,-0.0021254130850188917,0.005856322650017384,-0.008559615630643115,0.003354901110009826
0.61,0.0019137520800075244,-0.7823998039999907,-0.0011790176200052545,-2.3576838200000063,-0.00010957528400087378,1.573482400000011,0.7880291760000088,0.0399999324,0.0399999352,-9.789904699999958,0.007149062864509923,-0.0021859682800189455,0.005912047200017434,-0.008516841940568398,0.003386397480009854
0.6125,0.0019378019250075468,-0.7823699299999907,-0.0011958127000052702,-2.357704250000006,-0.00011236817375087639,1.5735170500000109,0.7880571450000088,0.0399999315,0.039999934,-9.789774124999958,0.00723716337236542,-0.002246523475019002,0.005967771750017486,-0.008474068250493677,0.003417893850009883
0.615,0.001961851770007568,-0.7823400559999907,-0.001212607780005285,-2.3577246800000062,-0.00011516106350087886,1.573551700000011,0.7880851140000088,0.039999930600000004,0.0399999328,-9.789643549999958,0.007325263880220914,-0.0023070786700190556,0.006023496300017536,-0.00843129456041896,0.0034493902200099114
0.6175,0.001986406840008185,-0.78230959599999,-0.0012297559450057162,-2.357745485000007,-0.0001180126000009505,1.5735870850000118,0.7881136620000095,0.03999992975,0.039999932,-9.789528674999973,0.0074145067949140595,-0.002380923795032152,0.006079725150018325,-0.008387842262149399,0.003481127260010315
0.62,0.0020119723600085567,-0.7822779639999895,-0.0012476102800059756,-2.3577670400000073,-0.00012098143000099365,1.5736239400000125,0.78814336800001,0.039999929000000004,0.039999932,-9.789445199999971,0.007506034523279254,-0.0024813487800336115,0.006136962600019157,-0.008343032747492082,0.0035133456400107833
0.6225,0.0020375378800089293,-0.7822463319999889,-0.0012654646150062358,-2.3577885950000073,-0.00012395026000103693,1.573660795000013,0.7881730740000105,0.039999928250000004,0.039999932,-9.78936172499997,0.007597562251644453,-0.002581773765035075,0.006194200050019991,-0.008298223232834766,0.003545564020011253
0.625,0.0020631034000093006,-0.7822146999999885,-0.0012833189500064954,-2.3578101500000077,-0.00012691909000108004,1.5736976500000135,0.7882027800000109,0.0399999275,0.039999932,-9.789278249999969,0.007689089980009648,-0.0026821987500365344,0.006251437500020823,-0.00825341371817745,0.003577782400011721
0.6275000000000001,0.0020886689200096736,-0.782183067999988,-0.0013011732850067557,-2.357831705000008,-0.00012988792000112332,1.573734505000014,0.7882324860000113,0.03999992675,0.039999932,-9.789194774999968,0.007780617708374848,-0.002782623735037998,0.006308674950021657,-0.00820860420352013,0.0036100007800121906
0.63,0.002114234440010045,-0.7821514359999876,-0.001319027620007015,-2.3578532600000086,-0.00013285675000116647,1.5737713600000145,0.7882621920000117,0.039999926,0.039999932,-9.789111299999966,0.007872145436740042,-0.0028830487200394573,0.006365912400022489,-0.008163794688862814,0.003642219160012659
0.6325000000000001,0.0021397999600104175,-0.7821198039999872,-0.0013368819550072754,-2.3578748150000086,-0.00013582558000120975,1.573808215000015,0.7882918980000122,0.03999992525,0.039999932,-9.789027824999966,0.007963673165105241,-0.002983473705040921,0.006423149850023323,-0.008118985174205496,0.0036744375400131284
0.635,0.0021664042200109533,-0.7820869539999865,-0.0013554622300076496,-2.3578971400000093,-0.00013891483600127184,1.5738465600000158,0.7883228130000127,0.0399999245,0.0399999313,-9.788911799999946,0.008061639126431002,-0.0030678402600308264,0.0064815209700238,-0.008072790317218416,0.0037073773400134475
0.6375000000000001,0.0021935278500106086,-0.7820534949999869,-0.0013744054750074088,-2.357919850000009,-0.0001420643050012318,1.5738856500000153,0.7883543325000124,0.03999992375,0.03999993025,-9.788779499999949,0.008162824204231076,-0.0031441776000298563,0.006540458925023051,-0.008025902789067738,0.003740677850013024
0.64,0.0022206514800102626,-0.7820200359999874,-0.0013933487200071672,-2.3579425600000086,-0.00014521377400119164,1.5739247400000147,0.788385852000012,0.039999923,0.0399999292,-9.78864719999995,0.008264009282031144,-0.0032205149400288827,0.006599396880022299,-0.00797901526091706,0.0037739783600125995
0.6425,0.0022477751100099166,-0.7819865769999877,-0.0014122919650069257,-2.357965270000008,-0.00014836324300115144,1.5739638300000143,0.7884173715000116,0.03999992225,0.03999992815,-9.788514899999951,0.008365194359831213,-0.003296852280027909,0.006658334835021548,-0.007932127732766383,0.0038072788700121746
0.645,0.0022748987400095714,-0.7819531179999882,-0.0014312352100066849,-2.357987980000008,-0.0001515127120011114,1.5740029200000138,0.7884488910000111,0.0399999215,0.0399999271,-9.788382599999954,0.008466379437631287,-0.003373189620026939,0.006717272790020799,-0.007885240204615705,0.0038405793800117514
0.6475,0.0023020223700092254,-0.7819196589999886,-0.0014501784550064432,-2.358010690000008,-0.00015466218100107125,1.5740420100000132,0.7884804105000107,0.03999992075,0.039999926049999995,-9.788250299999955,0.008567564515431357,-0.0034495269600259655,0.006776210745020047,-0.007838352676465026,0.0038738798900113266
0.65,0.0023291460000094046,-0.7818861999999884,-0.0014691217000065684,-2.358033400000008,-0.00015781165000109204,1.5740811000000134,0.7885119300000109,0.03999992,0.039999925,-9.788117999999972,0.00866874959323179,-0.003525864300039518,0.006835148700019823,-0.007791465148313576,0.00390718040001108
0.6525,0.0023578689750090383,-0.7818508749999888,-0.0014891826400063126,-2.3580573400000078,-0.0001611468325010495,1.574122470000013,0.7885453005000105,0.03999992075,0.03999992605,-9.788028749999972,0.00877103172245859,-0.0036465570000379787,0.006895690200019051,-0.007742220349594314,0.003941020865010648
0.655,0.0023865919500086733,-0.7818155499999894,-0.0015092435800060577,-2.358081280000007,-0.0001644820150010071,1.5741638400000124,0.78857867100001,0.0399999215,0.0399999271,-9.787939499999974,0.008873313851685395,-0.003767249700036445,0.006956231700018281,-0.00769297555087505,0.0039748613300102185
0.6575,0.002415314925008307,-0.7817802249999898,-0.0015293045200058016,-2.3581052200000068,-0.00016781719750096457,1.574205210000012,0.7886120415000096,0.03999992225,0.03999992815,-9.787850249999975,0.008975595980912196,-0.0038879424000349055,0.007016773200017509,-0.007643730752155788,0.004008701795009787
0.66,0.002444037900007942,-0.7817448999999902,-0.0015493654600055467,-2.3581291600000065,-0.00017115238000092216,1.5742465800000114,0.7886454120000091,0.039999923,0.0399999292,-9.787760999999977,0.009077878110139001,-0.004008635100033371,0.00707731470001674,-0.007594485953436524,0.004042542260009357
0.6625,0.002472760875007575,-0.7817095749999907,-0.001569426400005291,-2.358153100000006,-0.00017448756250087964,1.5742879500000109,0.7886787825000088,0.03999992375,0.03999993025,-9.787671749999976,0.009180160239365801,-0.004129327800031832,0.007137856200015968,-0.007545241154717262,0.004076382725008925
0.665,0.00250148385000721,-0.7816742499999911,-0.001589487340005036,-2.358177040000006,-0.00017782274500083723,1.5743293200000104,0.7887121530000083,0.0399999245,0.0399999313,-9.787582499999978,0.009282442368592606,-0.004250020500030298,0.007198397700015198,-0.007495996355997998,0.004110223190008495
0.6675,0.002530753505007511,-0.7816382799999908,-0.001609930380005246,-2.358201425000006,-0.00018122131700087208,1.5743714900000108,0.7887461550000087,0.03999992475,0.0399999319,-9.787477749999967,0.009388155490187775,-0.004361740655023197,0.007259467665015369,-0.007446061423966926,0.004144363775008594
0.67,0.0025611165200079534,-0.7816010199999902,-0.0016311376200055553,-2.3582267000000066,-0.00018474666800092347,1.5744152600000114,0.7887814200000092,0.039999924,0.039999931600000004,-9.787341999999965,0.00950073059651219,-0.0044555157200245644,0.0073215945600162745,-0.007394746225313738,0.0041791046000091
0.6725,0.0025914795350083946,-0.7815637599999897,-0.0016523448600058634,-2.358251975000007,-0.0001882720190009747,1.574459030000012,0.7888166850000097,0.03999992325,0.0399999313,-9.787206249999963,0.0096133057028366,-0.004549290785025927,0.007383721455017177,-0.007343431026660552,0.004213845425009605
0.675,0.002621842550008837,-0.7815264999999891,-0.0016735521000061726,-2.3582772500000075,-0.00019179737000102608,1.5745028000000127,0.7888519500000102,0.0399999225,0.039999931,-9.787070499999961,0.009725880809161017,-0.004643065850027293,0.007445848350018083,-0.007292115828007364,0.004248586250010111
0.6775,0.0026522055650092784,-0.7814892399999886,-0.0016947593400064808,-2.3583025250000076,-0.0001953227210010773,1.5745465700000134,0.7888872150000108,0.03999992175,0.039999930700000005,-9.78693474999996,0.009838455915485426,-0.004736840915028656,0.007507975245018985,-0.0072408006293541785,0.004283327075010616
0.68,0.002682568580009721,-0.7814519799999881,-0.0017159665800067898,-2.358327800000008,-0.00019884807200112867,1.574590340000014,0.7889224800000113,0.039999921,0.0399999304,-9.786798999999958,0.009951031021809843,-0.004830615980030023,0.00757010214001989,-0.007189485430700991,0.004318067900011122
0.6825,0.0027129315950101623,-0.7814147199999876,-0.001737173820007098,-2.3583530750000086,-0.0002023734230011799,1.5746341100000147,0.7889577450000118,0.03999992025,0.039999930100000004,-9.786663249999956,0.010063606128134254,-0.004924391045031385,0.0076322290350207935,-0.0071381702320478056,0.004352808725011628
0.685,0.0027444145100109,-0.7813761299999866,-0.0017591638000076135,-2.358379310000009,-0.0002060286740012655,1.5746794700000157,0.7889943270000127,0.03999992,0.03999993,-9.786573599999977,0.01017830623317722,-0.005050440360048368,0.0076954028000216675,-0.007085701124724546,0.004388046270012071
0.6875,0.0027764573750109285,-0.7813368749999866,-0.0017815451500076335,-2.358406025000009,-0.0002097488750012688,1.5747256250000157,0.7890315675000127,0.03999992,0.03999993,-9.786506999999977,0.010294068837577832,-0.005192626800048494,0.0077591000000217245,-0.007032655063067133,0.004423532175012103
0.6900000000000001,0.0028085002400109584,-0.7812976199999866,-0.0018039265000076544,-2.358432740000009,-0.0002134690760012723,1.5747717800000158,0.7890688080000128,0.03999992,0.03999993,-9.786440399999979,0.01040983144197845,-0.005334813240048627,0.007822797200021783,-0.006979609001409719,0.004459018080012135
0.6925,0.002840543105010987,-0.7812583649999865,-0.0018263078500076742,-2.358459455000009,-0.00021718927700127558,1.5748179350000158,0.7891060485000128,0.03999992,0.03999993,-9.786373799999978,0.010525594046379063,-0.005476999680048753,0.00788649440002184,-0.006926562939752306,0.004494503985012167
0.6950000000000001,0.002872585970011017,-0.7812191099999864,-0.001848689200007695,-2.3584861700000093,-0.00022090947800127906,1.574864090000016,0.7891432890000128,0.03999992,0.03999993,-9.786307199999978,0.010641356650779681,-0.005619186120048886,0.007950191600021899,-0.0068735168780948925,0.0045299898900122
0.6975,0.002904628835011045,-0.7811798549999864,-0.001871070550007715,-2.358512885000009,-0.00022462967900128237,1.5749102450000159,0.7891805295000128,0.03999992,0.03999993,-9.786240599999978,0.010757119255180293,-0.005761372560049012,0.008013888800021955,-0.0068204708164374805,0.004565475795012232
0.7000000000000001,0.002936671700011669,-0.7811405999999858,-0.0018934519000081511,-2.3585396000000096,-0.00022834988000135475,1.574956400000017,0.7892177700000136,0.03999992,0.03999993,-9.786173999999972,0.010872881859583327,-0.005903559000046491,0.008077586000022495,-0.006767424754779657,0.004600961700012512
0.7025,0.00297043329501216,-0.7810993349999851,-0.0019170346600084938,-2.35856789000001,-0.00023226946250141172,1.5750050150000177,0.7892570145000142,0.03999992075,0.0399999303,-9.78608939999997,0.01099563371394521,-0.006038066700048445,0.00814267100002344,-0.006713196495528349,0.004637163195013038
0.705,0.0030041948900126503,-0.7810580699999845,-0.0019406174200088365,-2.3585961800000104,-0.00023618904500146865,1.5750536300000182,0.7892962590000148,0.0399999215,0.039999930600000004,-9.786004799999969,0.011118385568307094,-0.0061725744000504,0.008207756000024387,-0.006658968236277041,0.004673364690013564
0.7075,0.0030379564850131426,-0.7810168049999839,-0.00196420018000918,-2.3586244700000107,-0.00024010862750152578,1.575102245000019,0.7893355035000154,0.03999992225,0.0399999309,-9.785920199999968,0.011241137422668983,-0.00630708210005236,0.008272841000025335,-0.00660473997702573,0.004709566185014092
0.71,0.003071718080013633,-0.7809755399999834,-0.001987782940009523,-2.358652760000011,-0.00024402821000158272,1.5751508600000197,0.789374748000016,0.039999923,0.039999931200000005,-9.785835599999967,0.011363889277030867,-0.006441589800054315,0.008337926000026282,-0.0065505117177744225,0.004745767680014618
0.7125,0.0031054796750141253,-0.7809342749999827,-0.0020113657000098667,-2.3586810500000115,-0.0002479477925016398,1.5751994750000204,0.7894139925000164,0.03999992375,0.0399999315,-9.785750999999966,0.011486641131392757,-0.006576097500056275,0.00840301100002723,-0.006496283458523112,0.004781969175015145
0.715,0.0031392412700146158,-0.7808930099999821,-0.002034948460010209,-2.358709340000012,-0.0002518673750016968,1.5752480900000212,0.789453237000017,0.0399999245,0.0399999318,-9.785666399999963,0.011609392985754639,-0.00671060520005823,0.008468096000028177,-0.006442055199271804,0.0048181706700156715
0.7175,0.003173588525015571,-0.7808510449999809,-0.002058940585010877,-2.3587380550000128,-0.0002558548835018076,1.5752975550000226,0.7894931585000181,0.03999992525,0.039999932200000005,-9.78557982499996,0.011734619131368777,-0.00684250708505554,0.008533666350029171,-0.006387603748565684,0.004854602630016173
0.72,0.003209107100015118,-0.7808076799999816,-0.0020837514400105605,-2.3587676200000125,-0.000259978244001755,1.5753487200000218,0.7895344340000177,0.039999926,0.0399999328,-9.785489299999961,0.011864793859477547,-0.006969197340053924,0.008600207400028323,-0.006332705914950834,0.004891495520015702
0.7225,0.0032446256750146667,-0.7807643149999821,-0.002108562295010245,-2.3587971850000122,-0.0002641016045017026,1.5753998850000213,0.7895757095000171,0.03999992675,0.0399999334,-9.785398774999962,0.011994968587586322,-0.007095887595052313,0.008666748450027477,-0.0062778080813359815,0.004928388410015234
0.725,0.0032801442500142134,-0.7807209499999826,-0.0021333731500099286,-2.358826750000012,-0.00026822496500165,1.5754510500000205,0.7896169850000165,0.039999927500000004,0.039999934,-9.785308249999964,0.012125143315695091,-0.007222577850050697,0.008733289500026628,-0.006222910247721132,0.004965281300014763
0.7275,0.003315662825013762,-0.7806775849999832,-0.0021581840050096134,-2.3588563150000113,-0.00027234832550159763,1.57550221500002,0.7896582605000161,0.039999928250000004,0.0399999346,-9.785217724999965,0.012255318043803866,-0.007349268105049087,0.008799830550025783,-0.006168012414106279,0.005002174190014294
0.73,0.003351181400013309,-0.7806342199999837,-0.0021829948600092966,-2.358885880000011,-0.00027647168600154504,1.5755533800000192,0.7896995360000155,0.039999929000000004,0.0399999352,-9.785127199999966,0.012385492771912636,-0.007475958360047471,0.008866371600024934,-0.0061131145804914295,0.005039067080013824
0.7325,0.0033866999750128577,-0.7805908549999843,-0.0022078057150089815,-2.3589154450000107,-0.0002805950465014926,1.5756045450000187,0.789740811500015,0.03999992975,0.0399999358,-9.785036674999967,0.012515667500021413,-0.007602648615045861,0.008932912650024088,-0.006058216746876577,0.005075959970013355
0.735,0.0034234147500133705,-0.7805460739999837,-0.00223345280000934,-2.3589459000000113,-0.0002848571440015521,1.5756574500000193,0.7897834930000156,0.039999930200000006,0.0399999364,-9.78494994999997,0.012648842576939368,-0.0077643400300642105,0.009000416600024362,-0.0060018205549362625,0.005113289180013455
0.7375,0.0034607276250134054,-0.7805005849999836,-0.0022595180000093643,-2.3589768000000113,-0.00028918861000155617,1.5757112250000194,0.7898268775000156,0.0399999305,0.039999937,-9.78486512499997,0.012783517828259509,-0.007943532025064377,0.009068402000024426,-0.00594467518383442,0.005150836550013489
0.74,0.0034980405000134386,-0.7804550959999836,-0.0022855832000093874,-2.3590077000000114,-0.00029352007600156,1.5757650000000194,0.7898702620000156,0.0399999308,0.0399999376,-9.78478029999997,0.012918193079579645,-0.008122724020064536,0.009136387400024485,-0.005887529812732579,0.005188383920013523
0.7425,0.003535353375013473,-0.7804096069999835,-0.002311648400009412,-2.3590386000000114,-0.00029785154200156404,1.5758187750000194,0.7899136465000157,0.039999931100000004,0.0399999382,-9.78469547499997,0.013052868330899785,-0.008301916015064704,0.009204372800024549,-0.0058303844416307355,0.005225931290013558
0.745,0.0035726662500135064,-0.7803641179999835,-0.002337713600009435,-2.359069500000011,-0.00030218300800156786,1.5758725500000195,0.7899570310000157,0.0399999314,0.039999938799999996,-9.78461064999997,0.01318754358221992,-0.008481108010064863,0.00927235820002461,-0.005773239070528895,0.005263478660013592
0.7475,0.0036099791250135413,-0.7803186289999835,-0.0023637788000094593,-2.359100400000011,-0.00030651447400157196,1.5759263250000195,0.7900004155000158,0.039999931700000005,0.0399999394,-9.78452582499997,0.01332221883354006,-0.00866030000506503,0.009340343600024673,-0.005716093699427051,0.0053010260300136265
0.75,0.0036472920000142402,-0.7802731399999827,-0.002389844000009948,-2.3591313000000116,-0.00031084594000165304,1.5759801000000204,0.7900438000000165,0.039999932,0.03999994,-9.784440999999951,0.01345689408486323,-0.008839492000054258,0.009408329000025221,-0.005658948328324387,0.005338573400013888
0.7525000000000001,0.003686435775014811,-0.780225478999982,-0.0024171890000103465,-2.359163595000012,-0.0003153897595017193,1.5760364700000213,0.7900892860000172,0.03999993365,0.0399999415,-9.784308699999949,0.01359991366049096,-0.008988636700056432,0.009477658325026232,-0.005599540192611371,0.005376747230014444
0.755,0.0037255795500153797,-0.7801778179999813,-0.002444534000010744,-2.3591958900000125,-0.00031993357900178527,1.5760928400000223,0.7901347720000178,0.039999935300000004,0.039999942999999996,-9.784176399999948,0.013742933236118682,-0.009137781400058598,0.00954698765002724,-0.005540132056898358,0.005414921060014999
0.7575000000000001,0.00376472332501595,-0.7801301569999806,-0.0024718790000111427,-2.359228185000013,-0.0003244773985018515,1.576149210000023,0.7901802580000186,0.03999993695,0.0399999445,-9.784044099999946,0.013885952811746413,-0.009286926100060773,0.00961631697502825,-0.005480723921185342,0.005453094890015555
0.76,0.0038038671000165188,-0.7800824959999799,-0.00249922400001154,-2.3592604800000134,-0.00032902121800191755,1.5762055800000239,0.7902257440000192,0.03999993860000001,0.039999946,-9.783911799999943,0.014028972387374135,-0.00943607080006294,0.009685646300029258,-0.005421315785472329,0.00549126872001611
0.7625000000000001,0.0038430108750170896,-0.7800348349999792,-0.0025265690000119386,-2.359292775000014,-0.00033356503750198375,1.5762619500000246,0.7902712300000199,0.039999940250000005,0.0399999475,-9.783779499999943,0.014171991963001866,-0.009585215500065114,0.009754975625030268,-0.005361907649759313,0.005529442550016666
0.765,0.0038821546500176583,-0.7799871739999785,-0.002553914000012336,-2.3593250700000143,-0.0003381088570020498,1.5763183200000255,0.7903167160000205,0.0399999419,0.039999949,-9.78364719999994,0.014315011538629588,-0.009734360200067281,0.009824304950031275,-0.0053024995140463,0.005567616380017221
0.7675000000000001,0.003921920590019098,-0.7799387664999767,-0.002581693870013342,-2.3593579000000156,-0.0003427248155022168,1.5763755950000276,0.7903629230000222,0.03999994355000001,0.0399999505,-9.783534624999966,0.014459771383622684,-0.009900889750093744,0.009894120350032965,-0.005242427275487462,0.005605986840018052
0.77,0.003962930860019694,-0.779888865999976,-0.002610343480013758,-2.359391800000016,-0.00034748505200228597,1.5764346800000284,0.7904105720000228,0.039999945200000005,0.039999952,-9.783461499999966,0.014608011767339288,-0.010102189000096668,0.009964907900033994,-0.005181026831239734,0.005644750560018615
0.7725,0.00400394113002029,-0.7798389654999753,-0.0026389930900141746,-2.3594257000000165,-0.00035224528850235514,1.5764937650000292,0.7904582210000236,0.03999994685,0.0399999535,-9.783388374999964,0.014756252151055893,-0.010303488250099593,0.010035695450035022,-0.005119626386992007,0.005683514280019179
0.775,0.004044951400020888,-0.7797890649999746,-0.002667642700014592,-2.359459600000017,-0.0003570055250024245,1.57655285000003,0.7905058700000243,0.0399999485,0.039999955000000004,-9.783315249999964,0.014904492534772502,-0.010504787500102527,0.010106483000036054,-0.005058225942744277,0.005722278000019744
0.7775,0.0040859616700214835,-0.7797391644999738,-0.0026962923100150083,-2.3594935000000175,-0.00036176576150249366,1.576611935000031,0.7905535190000249,0.03999995015,0.0399999565,-9.783242124999962,0.015052732918489107,-0.010706086750105452,0.010177270550037082,-0.0049968254984965495,0.005761041720020307
0.78,0.004126971940022081,-0.7796892639999732,-0.0027249419200154256,-2.3595274000000184,-0.00036652599800256306,1.5766710200000318,0.7906011680000257,0.0399999518,0.039999958,-9.78316899999996,0.015200973302205718,-0.010907386000108387,0.010248058100038114,-0.00493542505424882,0.005799805440020872
0.7825,0.004167982210022677,-0.7796393634999724,-0.002753591530015842,-2.359561300000019,-0.00037128623450263223,1.5767301050000326,0.7906488170000263,0.03999995345,0.0399999595,-9.78309587499996,0.015349213685922321,-0.011108685250111312,0.010318845650039144,-0.004874024610001092,0.005838569160021435
0.785,0.004210259830022793,-0.7795879629999724,-0.0027831272100159233,-2.3595962600000187,-0.00037619345000264553,1.5767910200000328,0.7906979400000265,0.039999954399999996,0.0399999606,-9.783006849999948,0.015503188408994518,-0.011291148700091914,0.010390566650038343,-0.004812071006711965,0.005877711930020892
0.7875,0.004253171125021074,-0.7795358124999744,-0.002813105925014723,-2.3596317500000175,-0.0003811741550024461,1.5768528500000303,0.7907478000000245,0.039999955,0.0399999615,-9.782909874999952,0.015660030301737304,-0.011464194250084986,0.010462754375035454,-0.004749840823902837,0.005917044225019317
0.79,0.004296082420019358,-0.7794836619999765,-0.002843084640013524,-2.359667240000016,-0.0003861548600022469,1.5769146800000278,0.7907976600000225,0.0399999556,0.0399999624,-9.782812899999957,0.015816872194480094,-0.011637239800078065,0.010534942100032566,-0.004687610641093706,0.005956376520017744
0.7925,0.00433899371501764,-0.7794315114999786,-0.0028730633550123237,-2.3597027300000146,-0.0003911355650020475,1.5769765100000255,0.7908475200000205,0.0399999562,0.0399999633,-9.78271592499996,0.01597371408722288,-0.011810285350071136,0.010607129825029676,-0.004625380458284578,0.005995708815016169
0.795,0.004381905010015924,-0.7793793609999806,-0.0029030420700111247,-2.359738220000013,-0.0003961162700018483,1.577038340000023,0.7908973800000185,0.0399999568,0.0399999642,-9.782618949999964,0.016130555979965672,-0.011983330900064215,0.010679317550026789,-0.004563150275475447,0.006035041110014596
0.7975,0.0044248163050142056,-0.7793272104999828,-0.0029330207850099244,-2.359773710000012,-0.0004010969750016489,1.5771001700000205,0.7909472400000165,0.0399999574,0.0399999651,-9.782521974999968,0.016287397872708456,-0.012156376450057287,0.010751505275023897,-0.0045009200926663185,0.0060743734050130215
0.8,0.004467727600013053,-0.7792750599999841,-0.0029629995000091196,-2.3598092000000106,-0.00040607768000151497,1.5771620000000188,0.7909971000000152,0.039999958,0.039999966,-9.782424999999986,0.016444239765452454,-0.012329422000065472,0.01082369300002138,-0.004438689909856769,0.006113705700011603
0.8025,0.004512574000014316,-0.7792205859999827,-0.002994331125010002,-2.3598461300000118,-0.0004112827580016616,1.5772266200000207,0.7910492250000166,0.039999958,0.039999966,-9.782375199999985,0.01660521868621476,-0.012554369050071809,0.01089714635002345,-0.0043750225100462154,0.006153570345012726
0.805,0.004557420400015582,-0.7791661119999811,-0.003025662750010886,-2.359883060000013,-0.00041648783600180847,1.5772912400000223,0.7911013500000181,0.039999958,0.039999966,-9.782325399999982,0.01676619760697707,-0.012779316100078156,0.010970599700025521,-0.004311355110235659,0.006193434990013851
0.8075,0.004602266800016845,-0.7791116379999795,-0.003056994375011769,-2.3599199900000136,-0.0004216929140019551,1.5773558600000241,0.7911534750000195,0.039999958,0.039999966,-9.78227559999998,0.016927176527739375,-0.013004263150084494,0.011044053050027591,-0.004247687710425105,0.006233299635014974
0.81,0.00464711320001811,-0.779057163999978,-0.003088326000012653,-2.359956920000015,-0.00042689799200210197,1.577420480000026,0.791205600000021,0.039999958,0.039999966,-9.78222579999998,0.017088155448501688,-0.013229210200090841,0.011117506400029663,-0.004184020310614549,0.006273164280016099
0.8125,0.004691959600019374,-0.7790026899999765,-0.003119657625013536,-2.359993850000016,-0.0004321030700022486,1.5774851000000278,0.7912577250000224,0.039999958,0.039999966,-9.782175999999978,0.017249134369263994,-0.013454157250097179,0.011190959750031733,-0.004120352910803995,0.006313028925017222
0.8150000000000001,0.004736806000020639,-0.7789482159999749,-0.0031509892500144196,-2.3600307800000166,-0.0004373081480023955,1.5775497200000297,0.791309850000024,0.039999958,0.039999966,-9.782126199999977,0.017410113290026306,-0.013679104300103526,0.011264413100033805,-0.0040566855109934385,0.006352893570018347
0.8175,0.004782308370022651,-0.7788929599999725,-0.0031827795300158257,-2.3600682550000185,-0.00044258928000262884,1.5776152900000326,0.7913627280000263,0.039999958,0.039999966,-9.782050999999939,0.017574553471141462,-0.013895030700095746,0.011338283900036147,-0.003992394090132678,0.006392922315019527
0.8200000000000001,0.004829122680023334,-0.7788361399999717,-0.0032154871200163024,-2.360106820000019,-0.00044802252000270806,1.5776827600000336,0.7914171120000271,0.039999958,0.039999966,-9.781924999999937,0.01774591617294741,-0.01409291580009863,0.011412989600037235,-0.003926854627174193,0.006433279260020115
0.8225,0.004875936990024014,-0.7787793199999709,-0.0032481947100167774,-2.3601453850000196,-0.000453455760002787,1.5777502300000346,0.7914714960000279,0.039999958,0.039999966,-9.781798999999936,0.01791727887475335,-0.014290800900101507,0.011487695300038321,-0.003861315164215711,0.006473636205020701
0.8250000000000001,0.0049227513000246964,-0.77872249999997,-0.003280902300017254,-2.36018395000002,-0.0004588890000028662,1.5778177000000355,0.7915258800000287,0.039999958,0.039999966,-9.781672999999934,0.0180886415765593,-0.014488686000104391,0.01156240100003941,-0.003795775701257226,0.00651399315002129
0.8275,0.004969565610025376,-0.7786656799999692,-0.0033136098900177296,-2.3602225150000207,-0.0004643222400029451,1.5778851700000367,0.7915802640000295,0.039999958,0.039999966,-9.78154699999993,0.01826000427836524,-0.014686571100107267,0.011637106700040496,-0.003730236238298743,0.006554350095021876
0.8300000000000001,0.0050163799200260584,-0.7786088599999683,-0.0033463174800182063,-2.3602610800000217,-0.00046975548000302434,1.5779526400000377,0.7916346480000302,0.039999958,0.039999966,-9.781420999999929,0.018431366980171185,-0.014884456200110151,0.011711812400041583,-0.0036646967753402584,0.0065947070400224645
