rsonawane2002/My_IMU/logs_2/traj_2504/imu_2504.csv
time,j1,j2,j3,j4,j5,j6,j7,gripper1,gripper2,imu_ax,imu_ay,imu_az,imu_gx,imu_gy,imu_gz
45.23333333333205,0.00016700293,-0.785875,4.0107683e-05,-2.3551247,9.29385e-05,1.570997,0.786,0.04,0.04,-9.374941158048467,-0.18544248680692824,-0.08803682430438046,0.002566721625988954,-0.0024171774558716746,-0.001978103414235795
45.249999999998714,0.0001669971,-0.78576016,4.0120456e-05,-2.3552213,9.296647e-05,1.5709941,0.786,0.04,0.04,-9.916181880222988,-0.03870826654482108,0.13629760372343175,0.0011503718053238856,-0.005534480552884473,0.0013519153227931706
45.26666666666538,0.00016693176,-0.78565425,4.0173032e-05,-2.35531,9.293965e-05,1.5709913,0.786,0.04,0.04,-9.879771179086053,-0.4043304775830143,-0.43632074570531343,0.0008479050774730544,-0.003383730850532008,0.0014357936306642275
45.283333333332045,0.00016670948,-0.7855569,4.0331484e-05,-2.355391,9.2782444e-05,1.5709884,0.786,0.04,0.039999995,-9.804000969982496,-0.7486024429850311,0.02186650591178571,0.0045428330381589435,-0.00888113479008501,0.005191866949556744
45.29999999999871,0.00016619144,-0.78546727,4.069083e-05,-2.3554647,9.235164e-05,1.5709856,0.786,0.04,0.04,-9.945179492436628,0.049979772301756376,-0.11055291979697933,-0.00012823068949175976,-0.0011778290280251458,0.0010065337894148761
45.31666666666538,0.00016520073,-0.7853847,4.137143e-05,-2.3555315,9.150217e-05,1.5709854,0.7860019,0.04,0.04,-9.977028361829547,-0.3792879870574123,0.022069789395253912,-0.0069471010783232635,0.0012154108883690525,-0.002985659348954219
45.33333333333204,0.00016352696,-0.78530884,4.251706e-05,-2.3555918,9.004874e-05,1.5709859,0.7860038,0.04,0.04,-9.516699410886897,-0.03824163845572706,-0.14354423939963487,-0.0003755198320124467,-0.0028007756571375333,0.0006831651332204221
45.34999999999871,0.00016092916,-0.785239,4.4291923e-05,-2.355649,8.77792e-05,1.5709867,0.78600574,0.04,0.04,-9.984368245719239,0.016308480949835107,0.22038785232595157,-0.001466724123977628,-0.008057914513424951,-0.0033584108655009895
45.366666666665374,0.00015713958,-0.7851746,4.6878868e-05,-2.3556995,8.445895e-05,1.5709877,0.78600955,0.04,0.04,-9.665205391567936,-0.18975982937801059,0.002555659347215077,-0.0012105123332891597,-0.014832010239697352,-0.0005190812707140591
45.38333333333204,0.00015186636,-0.78511566,5.0477127e-05,-2.3557434,7.983063e-05,1.5709887,0.7860153,0.04,0.04,-9.811725121462477,0.06305451998131678,0.04034973158979229,0.000892863228757084,-0.006450156158167747,-0.004440906131080186
45.399999999998705,0.00014479627,-0.7850615,5.5300465e-05,-2.3557827,7.361236e-05,1.5709931,0.7860229,0.039999995,0.04,-9.862453927813991,0.12297973671129861,0.013099131985930625,0.00746423807184331,-0.009263630473012555,0.006119068981436385
45.41666666666537,0.00013559729,-0.78501177,6.157555e-05,-2.355817,6.551663e-05,1.5709978,0.78603244,0.03999999,0.039999995,-9.810045390387193,-0.3650552064151642,-0.24174656060620558,0.003352359510603916,-0.014063503165120558,0.0006686401324873289
45.43333333333204,0.00012392108,-0.784966,6.9540285e-05,-2.3558447,5.5236433e-05,1.5710058,0.7860448,0.039999988,0.039999988,-10.231252711748713,-0.10988803770778137,-0.07278051244490778,0.002018667933023915,-0.011352764791332156,-0.0060178997462915235
45.4499999999987,0.000109404966,-0.7849239,7.944241e-05,-2.3558676,4.245081e-05,1.5710144,0.78606004,0.039999984,0.039999984,-10.100176968650326,-0.25775531116375894,0.1794485713421026,7.893361609879951e-05,-0.011623827979274599,-0.006754760656310692
45.46666666666537,9.167368e-05,-0.7848854,9.153808e-05,-2.3558867,2.6829977e-05,1.5710264,0.78607893,0.039999977,0.039999973,-9.696408030558468,-0.027202452361175928,-0.21926075298854417,0.0020736621966981296,-0.013075751790401767,0.00017152844155187306
45.483333333332034,7.0341615e-05,-0.78485006,0.000106090854,-2.3558986,8.032737e-06,1.5710388,0.78610146,0.039999973,0.03999997,-9.578859089087588,0.09619101292320308,0.2824762552872671,0.0019601197690438197,-0.016718911067495106,-0.002325216273830602
45.4999999999987,4.5014065e-05,-0.7848176,0.0001233702,-2.3559046,-1.4288261e-05,1.571055,0.7861282,0.03999997,0.039999966,-9.779061457139145,-0.2220897795019632,0.3555824223236882,0.003916290513152907,-0.011365730945123595,-0.0011990421249133383
45.516666666665365,1.5288957e-05,-0.78478795,0.00014365096,-2.3559053,-4.0487663e-05,1.571075,0.78615963,0.03999997,0.039999966,-9.936828539300198,0.08052234955846765,-0.21848456845322334,5.703799410093083e-05,-0.013268313523589233,-0.003395266395358004
45.53333333333203,-1.9241914e-05,-0.7847609,0.0001672119,-2.3559012,-7.092508e-05,1.5710981,0.7861961,0.03999997,0.03999996,-9.8523765390857,-0.10441993338344616,0.2419638993364621,0.002971766799714148,-0.01276656352060157,-0.00658852661991314
45.5499999999987,-5.899152e-05,-0.78473616,0.00019433515,-2.3558898,-0.00010596578,1.5711241,0.7862381,0.03999997,0.03999996,-9.969921525582162,-0.20258999006754638,0.3561604680588412,0.007677054818392976,-0.015124049969647793,-0.002686844834793
45.56666666666536,-0.00010437643,-0.7847135,0.00022530557,-2.3558717,-0.00014597636,1.5711539,0.78628594,0.03999997,0.03999996,-9.839733001846724,-0.29746566906003485,-0.33686083661935035,0.0032498765733277725,-0.017361670030378078,-0.0070446978967228764
45.58333333333203,-0.00015581585,-0.7846929,0.00026040952,-2.3558474,-0.00019132682,1.571188,0.7863402,0.03999997,0.03999996,-9.786690108189745,-0.20882414803745505,0.21617432926037264,0.005090758154708187,-0.013533328996761539,-0.005507739127539463
45.599999999998694,-0.00021373057,-0.78467405,0.00029993453,-2.3558168,-0.00024238796,1.5712265,0.7864012,0.03999997,0.03999996,-9.739778029650143,-0.22546391997629167,0.018076701163296093,0.007674379655580549,-0.020927785637306975,-0.008673704295556533
45.61666666666536,-0.000278542,-0.7846571,0.00034416877,-2.3557794,-0.00029953182,1.5712694,0.78646964,0.03999997,0.03999996,-9.943304340133787,0.020613173861953916,0.02530469351906004,0.007484231978634014,-0.020015731782147852,-0.00411058768493824
45.633333333332025,-0.00035067165,-0.7846419,0.0003934003,-2.3557348,-0.0003631294,1.5713168,0.78654575,0.03999997,0.039999958,-9.678717473681454,0.16237266672062547,0.3295862084646982,0.004490079409038872,-0.018576006648326884,-0.005516689197793902
45.64999999999869,-0.00043054004,-0.7846282,0.0004479166,-2.3556826,-0.00043355237,1.5713699,0.7866301,0.039999973,0.03999996,-10.025190813493879,-0.01326397826060439,0.3170553898348577,0.005800938014491261,-0.014388847514032032,-0.004857283007111762
45.66666666666536,-0.0005185661,-0.784616,0.00050800404,-2.3556228,-0.0005111705,1.5714284,0.7867229,0.039999973,0.03999996,-9.863957959423898,0.249303936085805,-0.03182831325343458,0.007701391312983323,-0.018760931306792402,-0.0074865319075017155
45.68333333333202,-0.00061516685,-0.78460497,0.0005739477,-2.3555548,-0.0005963506,1.5714927,0.78682476,0.039999973,0.03999996,-9.343844959516305,0.09568778013100757,-0.0026198012601442782,0.009270119910918183,-0.02641710268747775,-0.007621566026033176
45.69999999999869,-0.00072075636,-0.78459525,0.00064603053,-2.3554785,-0.00068945735,1.5715631,0.78693616,0.039999973,0.039999958,-9.666462638233353,0.11712262940720918,-0.043465814755846974,0.0070476478587705674,-0.01828495610179753,-0.009444199698524542
45.716666666665354,-0.0008357455,-0.7845868,0.0007245341,-2.355394,-0.00079085457,1.5716395,0.7870575,0.039999977,0.03999996,-9.999212334202111,0.34201304130807936,-0.1991359381721677,0.008463130578885274,-0.02215776747642612,-0.011198210939815947
45.73333333333202,-0.0009605417,-0.7845792,0.0008097363,-2.3553007,-0.00090090197,1.5717227,0.7871891,0.039999977,0.03999996,-9.991763937867644,-0.2114649717699922,0.15260889782181863,0.012241525933686902,-0.020957399622912414,-0.011108375297476663
45.749999999998685,-0.0010955482,-0.7845729,0.00090191275,-2.3551984,-0.0010199517,1.5718131,0.78733164,0.039999977,0.039999958,-9.854385840099235,-0.0609569732068585,0.19105597654411816,0.010174983459770347,-0.027385319211654685,-0.00973144301467419
45.76666666666535,-0.001241163,-0.7845675,0.0010013364,-2.355087,-0.0011483588,1.5719104,0.7874853,0.039999977,0.039999958,-9.946282590875658,0.09766446704558103,0.16851154213869224,0.013436023981203294,-0.0231020532339079,-0.008515274016833463
45.78333333333202,-0.0013977799,-0.78456306,0.0011082762,-2.3549654,-0.0012864687,1.5720149,0.78765047,0.03999998,0.039999966,-9.657727556627492,-0.0500999689338184,-0.1504808341622065,0.010729351801043615,-0.026934541529958743,-0.015472772251140639
45.79999999999868,-0.0015657877,-0.78455955,0.0012229979,-2.3548343,-0.0014346255,1.5721271,0.7878277,0.03999998,0.039999973,-9.602375984180865,-0.26237526671111583,-0.07320205854774398,0.010846742457856844,-0.027147080480277256,-0.010939240326092408
45.81666666666535,-0.0017455698,-0.7845569,0.0013457634,-2.354694,-0.0015931629,1.5722473,0.7880173,0.039999977,0.039999954,-9.622434003925305,-0.059382065722843456,-0.08195431588448945,0.016663923435026613,-0.03409908511293036,-0.014163478221200922
45.833333333332014,-0.0019375028,-0.78455484,0.0014768313,-2.3545423,-0.0017624173,1.5723755,0.78821975,0.039999966,0.03999994,-9.855098863328422,-0.2504222144463212,-0.09011610527474431,0.012073787727182638,-0.03180742716655929,-0.015072336099653118
45.84999999999868,-0.002141958,-0.7845538,0.001616455,-2.35438,-0.0019427154,1.572512,0.78843546,0.039999966,0.03999994,-10.059367615240513,-0.1802218889614839,-0.04638812492250982,0.02075976608430797,-0.028066198720914967,-0.01998098719949348
45.866666666665346,-0.0023593009,-0.78455347,0.0017648848,-2.354207,-0.00213438,1.5726573,0.78866476,0.03999997,0.039999947,-9.980433933923551,-0.07533294061154924,-0.09352949027243915,0.017717247447102607,-0.0320730293293727,-0.012388340051089993
45.88333333333201,-0.0025898903,-0.7845538,0.0019223655,-2.3540225,-0.0023377263,1.5728117,0.78890795,0.03999998,0.039999977,-10.112987248027562,-0.20986650305290688,-0.012673871500242267,0.02505847637331082,-0.034334607183478125,-0.020530790023904615
45.89999999999868,-0.0028340786,-0.784555,0.0020891381,-2.3538275,-0.002553064,1.5729748,0.78916556,0.039999988,0.039999995,-10.050471315847831,0.02571689471621188,-0.08506987623964796,0.018329071625044522,-0.035100594982005746,-0.018377966505559253
45.91666666666534,-0.0030922114,-0.78455687,0.002265439,-2.3536203,-0.0027806887,1.5731474,0.7894379,0.03999999,0.04,-10.124173642002933,-0.030204653846063904,-0.08154608559569225,0.019533560088297864,-0.03991355683580052,-0.02175396044539025
45.93333333333201,-0.0033646259,-0.7845593,0.0024515009,-2.3534007,-0.0030208977,1.5733297,0.7897253,0.039999988,0.04,-9.943482633198405,-0.6613045981105269,0.1770962816779076,0.023198670668280654,-0.03782759676293733,-0.024237879916372086
45.949999999998674,-0.0036516555,-0.7845624,0.00264755,-2.35317,-0.0032740051,1.5735217,0.7900281,0.03999998,0.04,-9.919855671714524,0.37327607912816035,-0.0671242828393141,0.024263666001700233,-0.037194412510800974,-0.023007222469382166
45.96666666666534,-0.0039536245,-0.78456616,0.0028538092,-2.3529258,-0.0035403043,1.5737239,0.7903467,0.039999973,0.04,-9.819729107680217,0.03288518006556146,-0.005048827042335148,0.024593260302524587,-0.03972413071316854,-0.02400956280518549
45.983333333332006,-0.0042708507,-0.78457046,0.0030704942,-2.3526688,-0.0038200533,1.5739363,0.7906813,0.039999973,0.04,-10.001494877869439,-0.10721490210255158,0.021838893608724153,0.029999771149732513,-0.03980098904690648,-0.027693282596566428
45.99999999999867,-0.004603641,-0.7845754,0.0032978172,-2.3524005,-0.004113536,1.5741588,0.7910325,0.039999973,0.04,-9.656257419742868,-0.055924029763631644,0.2524246475118798,0.0343252608440118,-0.046270535437685285,-0.02492615440547594
46.01666666666534,-0.004952302,-0.78458095,0.0035359866,-2.3521183,-0.004421011,1.5743921,0.7914006,0.039999977,0.04,-9.808961700625636,0.18561808934424215,0.11836597013249235,0.03220785940985136,-0.04269481764876731,-0.032494094292552705
46.033333333332,-0.0053171283,-0.784587,0.003785205,-2.351822,-0.004742738,1.5746362,0.7917854,0.039999977,0.04,-9.966671259447464,-0.15843566253010172,0.2068412122155719,0.03404727344395585,-0.0450547511151162,-0.026211484643034053
46.04999999999867,-0.005698408,-0.78459364,0.0040456685,-2.3515122,-0.005078974,1.5748914,0.7921877,0.039999977,0.04,-9.47069027346597,0.1967466209871091,-0.21604858886767392,0.03320734959683479,-0.04674024120024256,-0.030257172849691188
46.066666666665334,-0.006096421,-0.7846007,0.0043175695,-2.3511891,-0.0054299682,1.5751578,0.79260767,0.03999998,0.04,-10.186720927694191,0.05943047327436056,0.1861110845935327,0.0361169992515292,-0.047366155914572695,-0.027072046911671692
46.083333333332,-0.0065114405,-0.78460854,0.0046010963,-2.3508532,-0.0057959636,1.5754355,0.79304546,0.03999998,0.04,-10.099819025306967,-0.28369040950987146,0.1568025471337648,0.041094967609202254,-0.05329574563603928,-0.027958965246040236
46.099999999998666,-0.006943734,-0.7846169,0.004896428,-2.3505027,-0.0061771837,1.5757247,0.7935016,0.039999988,0.04,-9.882089122344041,0.0101802376728993,0.09311841219058757,0.03668586591570552,-0.055309214636028545,-0.034914710950926034
46.11666666666533,-0.0073935585,-0.7846255,0.0052037435,-2.3501377,-0.0065738703,1.576026,0.79397625,0.04,0.04,-9.85863792041896,0.16154366013616372,0.2687458354855281,0.03989612404863897,-0.05147068090495351,-0.036787609144977605
46.133333333332,-0.007861164,-0.78463495,0.005523213,-2.3497577,-0.0069862427,1.5763391,0.7944696,0.03999999,0.04,-9.908129632418262,-0.05789765597293303,0.316296419063121,0.046384651513776735,-0.05694488629145135,-0.036009447257723974
46.14999999999866,-0.008346796,-0.78464484,0.005855005,-2.349363,-0.007414511,1.5766643,0.79498196,0.039999984,0.04,-10.021214661901775,-0.33499418404969655,0.35103574117904957,0.04305884715680117,-0.057949401308881716,-0.03742295969299319
46.16666666666533,-0.008850685,-0.78465503,0.006199278,-2.3489532,-0.00785887,1.5770018,0.7955136,0.03999998,0.04,-9.482674809751467,-0.3712442795568248,0.39574788900321534,0.04877372949581957,-0.0583514988386333,-0.03873954355479371
46.183333333331994,-0.009373064,-0.78466594,0.00655619,-2.3485284,-0.008319529,1.5773516,0.7960648,0.039999988,0.04,-10.00684373846219,-0.06107178089250773,0.3569755745092319,0.052119177021852904,-0.060301787487456085,-0.04460523510417709
46.19999999999866,-0.009914153,-0.7846773,0.0069258916,-2.3480883,-0.008796684,1.5777137,0.7966357,0.039999995,0.04,-9.716711836700469,-0.2600209819752927,-0.10575644558867028,0.046843845577036324,-0.060983378367091154,-0.043222090006686656
46.216666666665326,-0.010474161,-0.7846893,0.0073085288,-2.3476326,-0.009290501,1.5780884,0.7972266,0.039999995,0.04,-9.968988114359199,0.20667623984602387,0.5246188268029792,0.048420490524559164,-0.05616292189047226,-0.04171072742005311
46.23333333333199,-0.011053296,-0.78470165,0.00770424,-2.3471606,-0.009801174,1.5784762,0.7978377,0.039999995,0.04,-9.713266338711923,0.23736756442708612,0.05386991703298613,0.05297386978129854,-0.06545130881857547,-0.0442470370568686
46.24999999999866,-0.011651754,-0.78471464,0.0081131635,-2.346673,-0.010328895,1.5788769,0.7984691,0.03999999,0.04,-9.43035818275859,-0.14247127940380153,-0.16461355208672396,0.05439305534669951,-0.06310204328707729,-0.0442537500971164
46.26666666666532,-0.01226973,-0.7847282,0.008535428,-2.3461688,-0.010873827,1.5792907,0.7991212,0.03999999,0.04,-9.834898406792263,-0.08426389961366135,0.48063568989294075,0.051432269608487215,-0.06481202042504851,-0.048656775158828935
46.28333333333199,-0.012907403,-0.7847423,0.008971163,-2.3456488,-0.011436143,1.5797178,0.79979396,0.039999995,0.04,-9.965155738439169,0.08480453547861563,0.12272702356492177,0.05927525188996856,-0.07037154085599355,-0.046549792909463206
46.299999999998654,-0.013564949,-0.78475684,0.009420482,-2.3451126,-0.012015982,1.5801581,0.8004878,0.039999984,0.04,-9.632086844648384,-0.37866835316343717,0.08239038748533029,0.06474861338917856,-0.0728289729546111,-0.053599190513728086
46.31666666666532,-0.014242536,-0.7847719,0.009883506,-2.3445606,-0.012613505,1.5806121,0.80120265,0.03999999,0.04,-9.848606991088916,-0.4667048452757423,0.3477427305898266,0.05960177173771941,-0.07370440980986469,-0.056281542843429753
46.333333333331986,-0.014940326,-0.78478736,0.01036034,-2.3439918,-0.013228822,1.5810791,0.80193895,0.039999995,0.04,-10.128766820117056,-0.128240538846121,-0.0801297863965949,0.06549065131828444,-0.07555090283741248,-0.055376771589571515
46.34999999999865,-0.015658472,-0.78480345,0.01085109,-2.343406,-0.013862068,1.5815601,0.80269665,0.03999999,0.04,-9.027231756523268,-0.30517971908259844,0.09305681833496451,0.06375864005156422,-0.07961361577865145,-0.05491075281809976
46.36666666666532,-0.016397119,-0.7848199,0.01135586,-2.3428035,-0.01451342,1.582055,0.80347604,0.03999999,0.04,-9.8005558277639,-0.09396710698202651,-0.11110197142660957,0.06543977360832541,-0.07910705866358161,-0.05694144153271524
46.38333333333198,-0.01715641,-0.7848368,0.011874745,-2.3421845,-0.015182964,1.5825634,0.80427724,0.039999995,0.04,-9.86485904811684,-0.39450667064942463,0.5622158427867479,0.06504664064611913,-0.08087487380394588,-0.062359258450609176
46.39999999999865,-0.017936477,-0.7848545,0.012407835,-2.341548,-0.0158708,1.5830857,0.80510044,0.04,0.04,-9.90001593114298,-0.11487923318996912,0.27167271670919446,0.06977870876534693,-0.08506273391560498,-0.06560731775178746
46.416666666665314,-0.01873744,-0.78487265,0.012955214,-2.3408945,-0.016577102,1.5836221,0.80594563,0.04,0.04,-9.742973386954208,-0.7073080068101245,0.37639959891587377,0.07492953662986329,-0.0846706260517531,-0.059750785711719274
46.43333333333198,-0.019559426,-0.7848911,0.013516961,-2.3402245,-0.017301947,1.5841726,0.806813,0.04,0.04,-9.915637624556245,-0.2378775354982155,0.3278288714188924,0.07453993579867647,-0.08911449836966329,-0.06319989034859914
46.449999999998646,-0.02040253,-0.78491026,0.014093154,-2.3395371,-0.018045394,1.5847373,0.80770254,0.04,0.04,-9.755334623265025,-0.12202910075767934,0.44910978787596423,0.07437983220451612,-0.0936029508090841,-0.06240429841041836
46.46666666666531,-0.021266863,-0.7849298,0.014683863,-2.338832,-0.018807575,1.5853162,0.8086145,0.04,0.04,-9.763733107142139,-0.22750811941776908,0.28543123795625,0.08156834761069177,-0.09338774966244343,-0.06569305660318611
46.48333333333198,-0.022152526,-0.78494984,0.015289158,-2.3381095,-0.01958854,1.5859089,0.809549,0.04,0.04,-10.23722736548438,-0.4044843508583421,0.22386737225577702,0.08241863220580598,-0.08963612030102933,-0.06780651410904433
46.49999999999864,-0.023059605,-0.7849704,0.01590909,-2.33737,-0.020388389,1.5865163,0.8105061,0.04,0.04,-10.012839372472673,0.011183760934101283,0.458971238053062,0.08313895322962325,-0.09550757278215,-0.07225520068493858
46.51666666666531,-0.02398818,-0.78499156,0.016543731,-2.3366122,-0.021207184,1.587138,0.8114859,0.039999995,0.04,-9.74370569017988,-0.43926828104323723,0.6134805241049361,0.0798484025826624,-0.09227767680836389,-0.06982077221450712
46.533333333331974,-0.024938338,-0.7850134,0.017193122,-2.3358374,-0.022044998,1.5877745,0.8124884,0.039999995,0.04,-9.769937526061918,-0.33230704713461817,0.2137926281323252,0.09093589174702757,-0.09920374087653606,-0.0745440505634131
46.54999999999864,-0.025910133,-0.7850355,0.017857317,-2.3350446,-0.022901885,1.5884254,0.8135138,0.039999995,0.04,-9.70348369101303,-0.14703814609871213,0.4882836677829404,0.09007905021042893,-0.10050942458450396,-0.07191421978072891
46.566666666665306,-0.026903633,-0.78505826,0.01853635,-2.3342342,-0.023777924,1.5890908,0.8145622,0.039999995,0.04,-9.673020544101691,-0.3422801996480257,-0.017139502971450615,0.08896667985630564,-0.10025743424064894,-0.07483755638530566
46.58333333333197,-0.027918901,-0.78508145,0.019230265,-2.3334064,-0.024673158,1.5897708,0.81563354,0.04,0.04,-9.681818098071265,-0.606303995143403,0.10484584815608416,0.09398721869078619,-0.10716471823409247,-0.08100039875370427
46.59999999999864,-0.028955976,-0.78510517,0.0199391,-2.3325603,-0.025587654,1.5904655,0.8167277,0.04,0.04,-10.050995301717716,-0.18494967508575408,0.5786124267884911,0.0953853556873958,-0.10539270698293006,-0.07991086608570615
46.6166666666653,-0.0300149,-0.78512955,0.02066288,-2.3316965,-0.026521426,1.5911747,0.8178449,0.03999999,0.04,-10.515545305050948,-0.7024386953028605,0.6606217262493953,0.0971623463011869,-0.10573649201188327,-0.08331288369245561
46.63333333333197,-0.031095723,-0.78515434,0.021401629,-2.3308148,-0.027474472,1.5918984,0.81898534,0.04,0.04,-9.53411207482299,-0.19095181578570317,0.4008952888774382,0.09788104381656071,-0.10978901332814114,-0.08579231345735978
46.649999999998634,-0.03219846,-0.78517956,0.02215537,-2.3299148,-0.028446818,1.5926374,0.820149,0.04,0.04,-9.728322172952586,-0.4066376827629502,0.35748959276904085,0.10083963395711713,-0.10965320431569663,-0.08949235346466822
46.6666666666653,-0.03332314,-0.7852053,0.02292412,-2.3289979,-0.029438503,1.5933905,0.82133573,0.04,0.04,-9.769009175860157,0.08949344454882086,0.4461025017135798,0.10098382585406698,-0.11188924398116254,-0.08891476484615038
46.683333333331966,-0.034469765,-0.7852316,0.023707885,-2.328062,-0.030449552,1.5941584,0.82254565,0.04,0.04,-10.113930689767063,-0.6482898637476253,0.4572682121163083,0.1048222061478117,-0.11441689806576658,-0.08760513466394765
46.69999999999863,-0.035638373,-0.7852584,0.024506673,-2.3271089,-0.031479985,1.594941,0.82377887,0.04,0.04,-10.000890546023273,-0.9982140602817149,0.47352800732637906,0.10469660037136037,-0.11739485302114071,-0.09197150343131444
46.7166666666653,-0.03682896,-0.7852858,0.025320498,-2.326138,-0.032529764,1.5957384,0.8250352,0.04,0.04,-9.89629317633495,-0.6113315927786647,0.34030257000869335,0.10615019211964992,-0.1182424407529785,-0.09373619117714084
46.73333333333196,-0.03804153,-0.7853136,0.026149344,-2.3251488,-0.03359893,1.5965505,0.82631475,0.04,0.04,-9.737311613092258,-0.49268111213066984,0.7751012690878112,0.1113774285021854,-0.12376192203441407,-0.08796508671854739
46.74999999999863,-0.03927605,-0.7853419,0.02699322,-2.3241422,-0.03468751,1.5973772,0.82761747,0.04,0.04,-9.75502540806832,-0.5393215256684712,0.6980531392242981,0.11458649529237389,-0.12330943676375002,-0.0903537352335011
46.766666666665294,-0.040532544,-0.7853707,0.02785211,-2.3231165,-0.035795424,1.5982186,0.8289434,0.04,0.04,-9.966061405395058,-0.5077505372017941,0.47385704196845346,0.11308076308543566,-0.11985989546254897,-0.09485795554871802
46.78333333333196,-0.04181096,-0.7854002,0.028726002,-2.322074,-0.03692264,1.5990746,0.8302923,0.04,0.04,-9.899972593723499,-0.5598725484767584,0.3999597289389272,0.11337333626070491,-0.12699645740267593,-0.10573300528620767
46.799999999998626,-0.043111283,-0.78543013,0.029614868,-2.321013,-0.038069163,1.5999454,0.8316644,0.04,0.04,-9.924970978479902,-0.20639365098488804,0.6219868569334621,0.11565291597644328,-0.1300373589454454,-0.10371176294228511
46.81666666666529,-0.044433486,-0.7854604,0.030518703,-2.319934,-0.039234962,1.6008307,0.8330596,0.04,0.04,-9.664270599526223,-0.6138996552470433,0.789055976400913,0.11859380272599959,-0.13134367532326585,-0.09696667443668833
46.83333333333196,-0.04577751,-0.78549147,0.031437468,-2.3188376,-0.04042001,1.6017306,0.8344778,0.04,0.04,-9.798455328263563,-0.5429357313913292,0.7140939528831403,0.12036091591931453,-0.13611147131056006,-0.0997411669612205
46.84999999999862,-0.047143344,-0.78552294,0.032371152,-2.317723,-0.04162425,1.6026452,0.8359189,0.04,0.04,-9.56880090958062,-0.5337001170837836,0.5737640645778597,0.11816452691031137,-0.13516251196546245,-0.10643342455049802
46.86666666666529,-0.04853091,-0.7855548,0.033319697,-2.316591,-0.042847708,1.6035744,0.83738357,0.04,0.04,-9.508027832619455,-0.9030800259357303,0.566853308428492,0.12800701300494682,-0.14038351275417763,-0.10602921711505083
46.883333333331954,-0.049940165,-0.7855874,0.034283075,-2.3154416,-0.044090286,1.604518,0.8388707,0.04,0.04,-9.870149876206364,-0.7099717423139821,0.7016063138611285,0.12603833247309942,-0.14167887807480456,-0.10126653659364131
46.89999999999862,-0.051371057,-0.78562033,0.035261266,-2.314274,-0.045351915,1.6054764,0.8403804,0.04,0.04,-9.497575824390575,-1.027736827424355,0.7487912215952892,0.12706219872977534,-0.14099984495167486,-0.10643734510224952
46.916666666665286,-0.0528235,-0.78565377,0.0362542,-2.3130898,-0.046632547,1.6064489,0.8419131,0.04,0.04,-9.965526605700518,-0.7889162944850867,0.5833162997328939,0.1312378824661687,-0.14540557779512286,-0.11155490914152298
46.93333333333195,-0.054297432,-0.7856877,0.037261836,-2.3118877,-0.0479321,1.6074362,0.8434685,0.04,0.04,-9.605361060096097,-0.7162377176867771,0.627810077445268,0.1337953071599283,-0.1433402486193344,-0.11124553756997706
46.94999999999862,-0.0557928,-0.78572226,0.038284115,-2.3106675,-0.049250506,1.6084378,0.84504646,0.04,0.04,-9.518880736428196,-0.6219933302901999,0.7269269603138864,0.13404343217760437,-0.14975231005278739,-0.11251290291648049
46.96666666666528,-0.057309493,-0.7857572,0.039320976,-2.3094306,-0.050587744,1.6094533,0.84664685,0.04,0.04,-9.727339962885448,-0.7191048007693791,0.9538979683632562,0.1340043591642616,-0.14960982348915117,-0.11126636997008535
46.98333333333195,-0.05884743,-0.7857925,0.04037237,-2.3081763,-0.05194373,1.6104833,0.84826964,0.04,0.04,-9.828231929600864,-0.6658650224103407,1.3238986307685852,0.13810361038420457,-0.15087408601519156,-0.12077641720882774
46.999999999998614,-0.060406517,-0.78582835,0.041438248,-2.306904,-0.05331836,1.6115273,0.8499147,0.04,0.04,-9.839908725050993,-0.5245443815792161,1.0467549650443104,0.13784757521040986,-0.15790923786847974,-0.12105366798171682
47.01666666666528,-0.06198667,-0.7858649,0.04251853,-2.305615,-0.05471153,1.6125854,0.8515821,0.04,0.04,-9.501937296109237,-0.9922229897539457,0.5600150879043256,0.14345694203315215,-0.15437157548727537,-0.1205905484191969
47.033333333331946,-0.06358776,-0.78590184,0.04361314,-2.304309,-0.05612318,1.6136577,0.8532716,0.04,0.04,-9.77282266132438,-0.911868573385141,1.136964343594482,0.14020253262325402,-0.1546731702469653,-0.12298403551059629
47.04999999999861,-0.06520972,-0.7859393,0.044722017,-2.3029852,-0.05755319,1.6147438,0.85498303,0.04,0.04,-9.793177009925117,-0.7592563999763673,1.084541651086771,0.14718905245230932,-0.16141112804454955,-0.1234385846260229
47.06666666666528,-0.06685239,-0.7859771,0.045845065,-2.301645,-0.059001442,1.615844,0.8567164,0.04,0.04,-10.019096253136484,-0.7553908775076608,1.024795451349822,0.14665998540534747,-0.1626368977190379,-0.12463125523340197
47.08333333333194,-0.068515696,-0.7860155,0.04698222,-2.3002882,-0.06046786,1.6169578,0.85847163,0.04,0.04,-9.640459206538212,-0.6976583193772067,1.0216525832822774,0.15495923548226706,-0.1627215778778874,-0.12220662069592404
47.09999999999861,-0.070199475,-0.78605425,0.04813339,-2.2989154,-0.06195237,1.6180854,0.86024845,0.04,0.04,-9.922510050647688,-0.9512155944941008,1.245401242790669,0.14966290142388086,-0.16762469952039877,-0.12605327725352947
47.116666666665274,-0.071903646,-0.7860936,0.0492985,-2.2975233,-0.063454814,1.6192266,0.86204666,0.04,0.04,-9.359104719394406,-0.5811394814340174,1.0388051271898573,0.14723214530536577,-0.163196367978057,-0.13319688620346276
47.13333333333194,-0.073628016,-0.7861333,0.05047745,-2.2961156,-0.06497509,1.6203811,0.8638664,0.04,0.04,-10.000920118240877,-0.7828704181525176,1.2828624240156652,0.1506740513643776,-0.17092636231750724,-0.13066646913228497
47.149999999998606,-0.07537251,-0.7861735,0.051670153,-2.2946928,-0.06651307,1.6215494,0.86570716,0.04,0.04,-10.122338355737897,-0.5470337995334851,0.895363464032268,0.1532657911901722,-0.1696875250459692,-0.13053257669377558
47.16666666666527,-0.07713695,-0.7862143,0.0528765,-2.2932541,-0.0680686,1.6227311,0.867569,0.04,0.04,-9.575531106660403,-0.9673154209039357,1.085791647135287,0.15332533447876812,-0.17378602276854976,-0.1304221746702592
47.18333333333194,-0.078921184,-0.7862555,0.054096404,-2.2917986,-0.0696416,1.623926,0.8694518,0.04,0.04,-9.555205682159874,-1.200793161610756,1.3542128209881508,0.15927467111077392,-0.16824043678764652,-0.13688981581610468
47.1999999999986,-0.08072506,-0.786297,0.055329755,-2.290327,-0.07123195,1.625134,0.87135524,0.04,0.04,-9.603817929605793,-0.9896453378473944,1.0701467472856319,0.16177551958127814,-0.175304826002473,-0.13133543909560527
47.21666666666527,-0.08254844,-0.786339,0.056576446,-2.2888389,-0.072839454,1.6263549,0.8732793,0.04,0.04,-9.7084134710894,-1.0296476869354856,1.1698564212940514,0.16628894173054967,-0.17879795865046516,-0.13413300003759296
47.233333333331935,-0.084391154,-0.7863815,0.057836365,-2.2873354,-0.074463986,1.6275889,0.8752237,0.04,0.04,-9.464669457203096,-1.3923339267350763,1.1941341398699645,0.1618291982546262,-0.18131141817226581,-0.1347791891535207
47.2499999999986,-0.08625306,-0.7864245,0.0591094,-2.2858164,-0.07610542,1.6288358,0.8771884,0.04,0.04,-9.507854241200016,-0.9125666125509736,1.7496628217928374,0.15957325679416426,-0.18433470263957139,-0.13967479167314456
47.266666666665266,-0.08813399,-0.7864679,0.06039545,-2.2842817,-0.07776359,1.6300954,0.8791732,0.04,0.04,-9.598391456599066,-0.9965358631620395,1.2379957479584962,0.16400723136860568,-0.18291598018017458,-0.14152037420241362
47.28333333333193,-0.09003375,-0.7865118,0.061694384,-2.2827318,-0.07943834,1.6313677,0.8811779,0.04,0.04,-9.845699253221,-1.0680073350262373,1.7342717137288035,0.16702501217253618,-0.18970596023558187,-0.1396891907947318
47.2999999999986,-0.09195216,-0.7865561,0.06300608,-2.2811668,-0.08112955,1.6326524,0.88320214,0.04,0.04,-9.536055297085259,-1.0901130860386057,1.6959307838843634,0.16529371523551395,-0.19075127713931495,-0.1425856219438943
47.31666666666526,-0.09388905,-0.78660077,0.06433045,-2.2795866,-0.08283707,1.6339494,0.88524616,0.04,0.04,-9.818365821517679,-1.3374988449051093,1.3984713556926212,0.16926829706041108,-0.18944324270232965,-0.1445088387986775
47.33333333333193,-0.095844254,-0.7866457,0.065667324,-2.277991,-0.08456067,1.6352587,0.88730925,0.04,0.04,-9.240223622869863,-1.2275367764520908,1.5507106671756739,0.17238453860509317,-0.19106600988016237,-0.14346968936315288
47.349999999998595,-0.09781752,-0.78669137,0.06701658,-2.2763813,-0.08630025,1.6365801,0.8893916,0.04,0.04,-9.692613286389896,-0.8939194088844914,1.6924286837853706,0.17402128426316157,-0.19552339682905945,-0.14491939407746138
47.36666666666526,-0.09980871,-0.7867374,0.0683781,-2.274757,-0.088055566,1.6379135,0.8914928,0.04,0.04,-9.755347343427351,-1.2115118470655388,1.5677256033007076,0.1781128838597616,-0.19549844841743005,-0.1471266608440829
47.383333333331926,-0.10181761,-0.7867837,0.06975173,-2.2731178,-0.08982649,1.6392589,0.8936127,0.04,0.04,-9.763168394808563,-1.3084960775922412,1.7692615442238453,0.1770319589455431,-0.19790468178356566,-0.14692548866538022
47.39999999999859,-0.103844054,-0.78683037,0.07113733,-2.2714643,-0.0916128,1.6406159,0.895751,0.04,0.04,-9.543226506792202,-1.206891523931802,1.653006029468992,0.18080665253605174,-0.1971999702069908,-0.14438631483534267
47.41666666666526,-0.10588779,-0.7868778,0.0725348,-2.2697966,-0.09341442,1.6419847,0.8979076,0.04,0.04,-9.794521592299493,-1.1223010606278163,1.6875546166711333,0.17508265044594118,-0.20006671316335928,-0.1460797667415612
47.43333333333192,-0.10794863,-0.78692555,0.07394394,-2.2681158,-0.09523107,1.643365,0.9000824,0.04,0.04,-9.384736102166144,-1.1043369703902062,1.8596633160579499,0.17825599981072895,-0.2042616977295334,-0.14400563519302817
47.44999999999859,-0.11002638,-0.78697366,0.075364664,-2.266421,-0.0970626,1.6447566,0.9022748,0.04,0.04,-9.785951957591578,-1.4628462189855522,1.7979801259414092,0.18148898421205256,-0.19584640897464356,-0.15566934322026696
47.466666666665255,-0.1121208,-0.78702193,0.07679681,-2.2647126,-0.09890884,1.6461592,0.9044846,0.04,0.04,-9.484744355081286,-1.5788053877008346,1.6904584782131034,0.1827258796143995,-0.20399614051604528,-0.1526874718206658
47.48333333333192,-0.11423166,-0.78707063,0.0782402,-2.2629902,-0.10076951,1.6475728,0.906712,0.04,0.04,-9.720943780492238,-1.1317830987394089,1.6342940525960648,0.18522297582995212,-0.21060523776646853,-0.15606938192188596
47.499999999998586,-0.116358764,-0.7871199,0.079694696,-2.2612543,-0.10264451,1.6489972,0.90895647,0.04,0.04,-9.595858790772471,-1.355382782554883,1.8896848136747126,0.18219914174896468,-0.2108048750490668,-0.15425788188186124
47.51666666666525,-0.118501864,-0.7871696,0.081160136,-2.259506,-0.10453361,1.6504323,0.91121805,0.04,0.04,-9.537088937845532,-1.1172508303851445,1.706186990603312,0.18812762746466127,-0.21249619347043844,-0.1574046902743566
47.53333333333192,-0.120660774,-0.7872195,0.0826364,-2.2577448,-0.10643662,1.651878,0.913496,0.04,0.04,-9.68913474120637,-1.4497329042458185,1.823743569059786,0.18541284708815062,-0.2094449932507445,-0.15535460732577078
47.54999999999858,-0.12283524,-0.78726983,0.084123276,-2.2559707,-0.10835327,1.6533344,0.9157906,0.04,0.04,-9.652964090936022,-0.9921506323959985,2.323658592006685,0.19210233367681614,-0.2160769119467385,-0.15784735736424074
47.56666666666525,-0.12502499,-0.7873205,0.08562069,-2.2541838,-0.11028343,1.6548016,0.91810143,0.04,0.04,-9.389423797517788,-1.3410308445828092,2.1803101041352018,0.1849517533680559,-0.21067483616649987,-0.16297990048700456
47.583333333331915,-0.12722985,-0.7873716,0.08712837,-2.2523854,-0.11222687,1.6562773,0.9204281,0.04,0.04,-9.075819397481627,-1.1853004520524208,2.2435905405812475,0.18835000909162894,-0.21371978700343036,-0.15756754239749632
47.59999999999858,-0.12944949,-0.78742296,0.0886462,-2.250574,-0.11418337,1.6577644,0.9227703,0.04,0.04,-9.610231222328213,-1.443049178711887,2.235807609346431,0.18915037640620105,-0.21812011635656148,-0.15892742642906094
47.616666666665246,-0.13168378,-0.7874746,0.09017402,-2.2487514,-0.11615272,1.6592593,0.9251279,0.04,0.04,-9.100607653760513,-1.741694795054745,2.2193749953754116,0.19664984210687186,-0.21408531030010072,-0.16110343558182913
47.63333333333191,-0.13393234,-0.7875265,0.091711685,-2.246917,-0.11813466,1.6607655,0.9275007,0.04,0.04,-9.623506434022776,-1.4790257543736076,1.8160660772073338,0.19444625902294743,-0.2171386566272776,-0.16130881070038955
47.64999999999858,-0.136195,-0.78757906,0.093258955,-2.245071,-0.12012901,1.6622806,0.9298883,0.04,0.04,-9.660996114135536,-1.8959772941031716,2.3603465890624964,0.19707012831177895,-0.2188410545384738,-0.1677581469593496
47.66666666666524,-0.13847151,-0.787632,0.094815716,-2.2432137,-0.12213556,1.6638058,0.93229055,0.04,0.04,-9.046443197854666,-1.2291255903131382,2.4856992326813616,0.19488249527487617,-0.2200587206014567,-0.16540373386995819
47.68333333333191,-0.14076163,-0.78768516,0.096381776,-2.2413447,-0.124154076,1.6653395,0.9347071,0.04,0.04,-9.064182234404516,-1.9316926556856544,2.4495671249811726,0.20303388012462534,-0.22742956025732822,-0.16144010133176198
47.699999999998575,-0.14306502,-0.7877387,0.09795696,-2.239465,-0.12618424,1.6668819,0.93713766,0.04,0.04,-9.775011726032554,-1.5423751562715378,2.0642766216567776,0.20238481473653894,-0.22864971911141524,-0.16312050851020155
47.71666666666524,-0.14538151,-0.7877924,0.09954108,-2.2375753,-0.12822592,1.668433,0.93958193,0.039999995,0.04,-9.332572651803863,-1.2421796670193272,1.8526197529052273,0.2028251123897,-0.2267335823434338,-0.17202931933638807
47.733333333331906,-0.14771076,-0.7878464,0.10113395,-2.2356746,-0.13027893,1.6699929,0.94203985,0.039999984,0.04,-9.609852628739253,-1.4861255046748587,2.178737751029445,0.20164450927448585,-0.22871988850156066,-0.16278994768257782
47.74999999999857,-0.15005259,-0.78790075,0.1027354,-2.2337644,-0.13234292,1.6715616,0.94451094,0.039999988,0.04,-9.222534203309156,-1.3498832042496793,2.233321064220674,0.19917431356441748,-0.22930298236129823,-0.1649498033086214
47.76666666666524,-0.15240662,-0.7879553,0.104345225,-2.2318437,-0.13441776,1.6731384,0.946995,0.039999977,0.04,-9.240576459520698,-1.6100728642993594,2.475924109616835,0.19353564402478934,-0.2302355812392164,-0.16676179350762582
47.7833333333319,-0.15477264,-0.78801024,0.10596327,-2.2299125,-0.1365031,1.6747229,0.9494916,0.039999966,0.04,-9.524476193903586,-1.6676539716199048,2.7454447804644637,0.19846542491864003,-0.23231410031205219,-0.17020445285760097
47.79999999999857,-0.15715042,-0.78806543,0.10758934,-2.2279725,-0.13859881,1.6763153,0.95200056,0.03999997,0.04,-9.33112888444717,-1.7063301820574754,2.3846285424594797,0.20235569459766403,-0.2307630332454591,-0.16623107878266008
47.816666666665235,-0.15953963,-0.78812087,0.109223224,-2.226023,-0.14070454,1.6779153,0.95452166,0.039999966,0.04,-9.425401783148333,-1.3824919526227974,2.9935897129224642,0.2018158764301824,-0.2328391362577131,-0.16412818815432367
47.8333333333319,-0.16194005,-0.7881766,0.11086478,-2.224064,-0.14282013,1.6795226,0.95705473,0.039999966,0.04,-9.470673372806079,-1.5765808746610488,2.6139149873230996,0.20222494358730875,-0.23476901499473712,-0.1699954565033933
47.849999999998566,-0.16435136,-0.7882327,0.11251376,-2.2220962,-0.14494528,1.6811372,0.9595991,0.039999958,0.04,-9.25925827246054,-1.5754366575413208,2.4207290046329772,0.20728821064983288,-0.23919189570431268,-0.16972381266225686
47.86666666666523,-0.1667732,-0.788289,0.11417001,-2.2201197,-0.14707977,1.6827588,0.96215457,0.03999995,0.04,-9.470220689812715,-1.5004678740507889,2.4644312813033764,0.21072745881847366,-0.24073027337174532,-0.16754959630003055
47.8833333333319,-0.16920535,-0.78834546,0.11583329,-2.218135,-0.14922334,1.6843874,0.9647209,0.039999936,0.04,-9.297610934853827,-1.5414406739930135,2.7817176756940607,0.21337606023753258,-0.24139899761616398,-0.1690985093149731
47.89999999999856,-0.17164753,-0.7884022,0.117503464,-2.2161427,-0.15137571,1.6860229,0.9672979,0.039999925,0.04,-9.120831822695227,-2.076451806257097,2.713761933040322,0.20821449568157943,-0.23453149860157022,-0.1690393483347254
47.91666666666523,-0.17409943,-0.7884592,0.11918029,-2.214142,-0.15353663,1.6876649,0.9698852,0.03999993,0.04,-9.5161721978185,-1.874767348357383,3.0171301891842726,0.20208565020913666,-0.24074702721941077,-0.17223617404408334
47.933333333331895,-0.17656076,-0.78851646,0.12086359,-2.212134,-0.15570587,1.6893133,0.9724824,0.039999917,0.04,-9.235975800780963,-1.908469308206336,2.8992023649604954,0.2044953674271247,-0.23915926240660362,-0.1717418495240237
47.94999999999856,-0.17903128,-0.7885739,0.12255317,-2.2101183,-0.1578832,1.6909678,0.97508925,0.039999906,0.04,-9.24359443940533,-1.6469113252600218,3.032061936394133,0.2031286219976412,-0.24244983974447348,-0.1698259328095604
47.966666666665226,-0.18151064,-0.7886316,0.12424878,-2.208095,-0.16006829,1.692628,0.9777055,0.03999989,0.04,-9.059129429695181,-1.7306049255027274,3.063104572183791,0.2075196226935044,-0.244395506202295,-0.17390724524520154
47.98333333333189,-0.18399855,-0.78868955,0.12595028,-2.206065,-0.16226095,1.6942941,0.98033077,0.03999989,0.04,-9.442996794042033,-1.8389423610896372,2.8799739313507606,0.2010957589079599,-0.2426824354649247,-0.17298950680372022
47.99999999999856,-0.18649474,-0.78874767,0.12765741,-2.2040281,-0.1644609,1.6959658,0.9829648,0.039999887,0.04,-9.100070630556369,-2.2898881495982093,3.598687089234165,0.21130288754060325,-0.24600468704646716,-0.16926529651775654
48.01666666666522,-0.18899895,-0.78880596,0.12937,-2.2019846,-0.16666782,1.6976427,0.9856071,0.039999876,0.04,-8.441504057849112,-2.0491839997089416,2.5054945846555117,0.2156340402631331,-0.24901145315603665,-0.17487500576706264
48.03333333333189,-0.19151081,-0.7888645,0.13108785,-2.1999347,-0.16888148,1.6993247,0.9882574,0.03999987,0.04,-9.378828010695301,-1.996249652024722,3.0829406532282126,0.21024828033046922,-0.24771811595400656,-0.16629725814364907
48.049999999998555,-0.19403006,-0.78892326,0.13281073,-2.1978788,-0.17110161,1.7010117,0.9909156,0.039999865,0.04,-9.007003059186161,-2.1214045432999273,3.245649707433256,0.20804984095600856,-0.24399167729186294,-0.17444147263630633
48.06666666666522,-0.19655636,-0.78898215,0.13453846,-2.1958172,-0.17332795,1.7027036,0.9935813,0.03999986,0.04,-8.840252203937462,-1.7846834002730352,2.9387859322001915,0.20922434589370065,-0.250488132341522,-0.17115415840768994
48.083333333331886,-0.19908938,-0.7890411,0.13627085,-2.1937501,-0.17556027,1.7044,0.9962539,0.03999985,0.04,-9.42943978116931,-1.8133844387980929,3.56038309953267,0.20940631693876194,-0.2517217465208353,-0.17109443439706598
48.09999999999855,-0.20162885,-0.7891002,0.13800763,-2.1916776,-0.17779824,1.7061006,0.9989335,0.039999846,0.04,-8.782207298738193,-1.923283963851871,3.58878525490568,0.20895840564962123,-0.2546889722771044,-0.1748260969259698
48.11666666666522,-0.20417444,-0.7891595,0.13974866,-2.1896002,-0.18004155,1.7078052,1.0016195,0.03999983,0.04,-9.440332388227159,-2.3670638990107586,2.9731235194362573,0.2061695395706704,-0.2543037339035656,-0.1758364927609601
48.13333333333188,-0.20672587,-0.789219,0.14149365,-2.187518,-0.18229,1.7095137,1.0043116,0.03999982,0.04,-8.881318589465144,-1.9038514870038943,3.240320488658474,0.21160084047481875,-0.24995435365577334,-0.17672440980832177
48.14999999999855,-0.20928285,-0.78927875,0.1432424,-2.1854312,-0.1845433,1.7112259,1.0070095,0.039999805,0.04,-8.819148746024544,-2.182863478074645,3.4853707318400757,0.21128160067232882,-0.25399900086848953,-0.17099962979420738
48.166666666665215,-0.211845,-0.7893384,0.14499472,-2.1833403,-0.18680121,1.7129416,1.009713,0.039999798,0.04,-9.15150583126426,-1.7541108072959546,3.635914704525539,0.21191247768514376,-0.2556372170652916,-0.1699993583357457
48.18333333333188,-0.21441202,-0.78939825,0.1467504,-2.1812456,-0.1890634,1.7146608,1.0124216,0.03999979,0.04,-8.805040840789914,-2.074515777999982,3.6846146800992594,0.2119274398636909,-0.2496250470570842,-0.17491541301584082
48.199999999998546,-0.21698366,-0.78945833,0.1485092,-2.1791468,-0.19132961,1.716383,1.0151353,0.039999772,0.04,-8.900728299529364,-1.924976637457425,3.487363978735786,0.21186578576201617,-0.25451477906053555,-0.1705108138847786
48.21666666666521,-0.21955955,-0.7895185,0.15027098,-2.177045,-0.19359958,1.7181079,1.0178534,0.03999976,0.04,-8.998474876170123,-2.1136712547182297,3.4071398823379364,0.21515733250683902,-0.25790441061324154,-0.17463308822851797
48.23333333333188,-0.22213945,-0.78957886,0.15203546,-2.1749394,-0.195873,1.7198356,1.0205755,0.03999974,0.04,-8.804057882197146,-1.83723416656435,3.760188692189293,0.2089090309548499,-0.25586476906619826,-0.17889284497700833
48.24999999999854,-0.22472295,-0.78963923,0.15380244,-2.172831,-0.19814971,1.7215657,1.0233015,0.039999735,0.04,-8.767021824032073,-1.8719885862382373,3.973837673515904,0.2024543474302179,-0.25118981556051334,-0.17957477935203411
48.26666666666521,-0.22730976,-0.7896998,0.1555717,-2.1707194,-0.20042923,1.723298,1.0260308,0.03999973,0.04,-8.781619763378561,-2.0602162454198485,3.6984706076585447,0.20220387258506664,-0.26062158257441664,-0.17440711157758293
48.283333333331875,-0.22989963,-0.78976035,0.15734297,-2.168606,-0.20271152,1.7250322,1.0287633,0.039999712,0.04,-8.977906035235524,-2.1977679907996808,3.4980002006227426,0.21358607325576587,-0.25508405969521303,-0.17298726135081294
48.29999999999854,-0.23249216,-0.78982097,0.15911615,-2.1664903,-0.20499606,1.7267684,1.0314989,0.0399997,0.04,-9.092580073342445,-2.166002033734645,3.7462033122712755,0.21206824075602687,-0.2570548131904679,-0.1729351124040741
48.316666666665206,-0.23508707,-0.78988177,0.1608909,-2.1643727,-0.20728269,1.7285058,1.0342369,0.03999968,0.04,-9.046730635350102,-2.0247487670411695,4.19272045921881,0.20840821101920787,-0.25752183062023426,-0.17631662702663164
48.33333333333187,-0.23768403,-0.78994256,0.16266713,-2.1622534,-0.20957115,1.7302451,1.0369769,0.039999668,0.04,-8.693232849676278,-2.402899654410551,4.142517892472255,0.21094992734538576,-0.26069597292983376,-0.17273246246327656
48.34999999999854,-0.24028271,-0.7900034,0.16444449,-2.1601322,-0.21186109,1.7319854,1.0397187,0.039999656,0.04,-8.75250340168877,-2.0067058721072457,4.193551615167152,0.21257749448666988,-0.2564575660400835,-0.1702465920597475
48.3666666666652,-0.24288282,-0.7900644,0.16622284,-2.1580095,-0.21415234,1.7337265,1.0424623,0.03999965,0.04,-8.5239459577116,-2.357306312548152,4.124162509869408,0.2070726750361778,-0.2647659190510444,-0.17386659051849582
48.38333333333187,-0.24548404,-0.7901253,0.16800196,-2.155887,-0.2164445,1.7354683,1.0452071,0.03999963,0.04,-8.642448327136227,-2.00150176855401,3.6552988971227265,0.2111449261308755,-0.26315530941404935,-0.17133745258265295
48.399999999998535,-0.24808605,-0.7901863,0.16978161,-2.1537633,-0.21873732,1.7372106,1.0479524,0.03999962,0.04,-8.955671726823182,-2.1735346707014034,4.129096080297432,0.2117254624391281,-0.25941384307444637,-0.17204888551168243
48.4166666666652,-0.25068852,-0.7902473,0.17156163,-2.151639,-0.22103055,1.7389535,1.0506982,0.039999608,0.04,-8.539948398689928,-2.479331589568433,4.113392823901657,0.2086617994957816,-0.26223939021099296,-0.16955105555957564
48.433333333331866,-0.25329113,-0.7903085,0.1733417,-2.1495144,-0.2233239,1.7406963,1.053444,0.039999597,0.04,-8.680744435474178,-1.9325725447554711,4.214085721213947,0.20571923950391963,-0.26039594947094563,-0.16984722146592685
48.44999999999853,-0.25589356,-0.79036963,0.17512168,-2.1473906,-0.22561707,1.742439,1.0561899,0.039999574,0.04,-8.714566677594581,-2.3307381100945634,4.679767744770565,0.20507464175005619,-0.2580944030173797,-0.17406351460798802
48.4666666666652,-0.2584954,-0.79043067,0.17690128,-2.1452675,-0.22790979,1.7441813,1.0589354,0.039999563,0.04,-8.661016108820828,-1.9763288732991222,4.028934632984899,0.20518316166154932,-0.26333144833518707,-0.1729811798286572
48.48333333333186,-0.26109648,-0.7904917,0.17868033,-2.1431446,-0.23020174,1.745923,1.0616798,0.039999545,0.04,-8.737995525568328,-2.0120749528649817,4.48662005942919,0.2031722386196201,-0.2623863644131551,-0.17037026833075955
48.49999999999853,-0.26369643,-0.7905528,0.18045865,-2.1410224,-0.2324927,1.7476642,1.0644232,0.03999953,0.04,-8.749530429392214,-2.6006089946545923,4.0837376826664,0.2098469782393763,-0.26015901815807846,-0.1727991872128056
48.516666666665195,-0.2662949,-0.7906138,0.18223594,-2.1389017,-0.23478234,1.7494042,1.0671648,0.039999507,0.04,-8.25529949545685,-2.4978219821753127,4.127447072277113,0.2061080794503445,-0.25980902297541103,-0.17093810099685183
48.53333333333186,-0.2688916,-0.79067487,0.18401204,-2.136782,-0.23707046,1.7511429,1.0699046,0.039999496,0.04,-8.45598464218016,-2.2524492005161143,4.340134573057449,0.20962290598875213,-0.26441091212601225,-0.16595736522496343
48.549999999998526,-0.27148622,-0.7907356,0.18578671,-2.1346645,-0.23935667,1.7528801,1.0726423,0.039999485,0.04,-8.227256191234831,-2.4276866475851797,4.375566686848048,0.20467602185590245,-0.25997373634872584,-0.16886645178174625
48.56666666666519,-0.27407852,-0.79079634,0.18755972,-2.132549,-0.2416408,1.754616,1.0753772,0.039999466,0.04,-8.548719896311924,-2.327655632478495,4.644031441792584,0.20294818910778953,-0.25721313569679577,-0.16803713476972096
48.58333333333186,-0.276668,-0.790857,0.18933086,-2.1304352,-0.24392253,1.7563499,1.0781093,0.039999455,0.04,-8.113597062923859,-2.3328015497040586,4.875744104056192,0.19826849027239576,-0.25556010177287125,-0.1697193196828239
48.59999999999852,-0.27925447,-0.7909177,0.19109993,-2.1283243,-0.24620153,1.7580819,1.0808381,0.03999943,0.04,-8.376940786988017,-2.5172687592197924,4.561521094795984,0.2023117921728611,-0.25415110369723104,-0.16266879355411099
48.61666666666519,-0.28183746,-0.79097843,0.1928667,-2.1262162,-0.24847752,1.7598115,1.0835634,0.03999941,0.04,-8.267541324186352,-2.349734898872724,4.776751570895301,0.20368185387568385,-0.26601203979043725,-0.16350101841252715
48.633333333331855,-0.2844169,-0.79103905,0.19463092,-2.1241102,-0.2507503,1.7615387,1.0862849,0.0399994,0.04,-8.17308761635555,-2.8553809920638544,4.821890039217841,0.20480669642171967,-0.26569743352510033,-0.1574785475046975
48.64999999999852,-0.28699237,-0.7910997,0.19639245,-2.122008,-0.25301954,1.7632633,1.0890019,0.03999939,0.04,-8.048202664363187,-2.3854256132561233,4.4006495398531165,0.2034267701739568,-0.26049542035805967,-0.15927016133323668
48.666666666665186,-0.28956336,-0.79116035,0.19815102,-2.1199093,-0.25528502,1.7649848,1.0917146,0.03999937,0.04,-8.215362793999285,-2.5825752901331303,4.736753408289773,0.20088564084209334,-0.25890990991582047,-0.16306631307657815
48.68333333333185,-0.29212978,-0.7912207,0.19990642,-2.1178145,-0.2575464,1.7667036,1.0944223,0.03999936,0.04,-8.060919935036528,-2.383194490801125,4.640852153439094,0.20179517614423592,-0.2622449917650934,-0.1627750595017235
48.69999999999852,-0.29469138,-0.79128104,0.20165846,-2.1157238,-0.25980338,1.7684189,1.0971248,0.039999347,0.04,-7.900859312838292,-2.2730777911028,5.202089998763982,0.20060259339222092,-0.2575931023286671,-0.15479674393197274
48.71666666666518,-0.29724756,-0.7913413,0.20340689,-2.113637,-0.26205567,1.7701305,1.0998217,0.039999325,0.04,-7.850380950775379,-2.3652200398741887,4.780733872602881,0.1923611509511975,-0.2571365658081662,-0.16030058488190949
48.73333333333185,-0.29979822,-0.7914014,0.20515157,-2.111555,-0.26430312,1.7718384,1.1025127,0.039999306,0.04,-7.955384792349611,-2.3088256666081484,4.749762386378023,0.19541100594124677,-0.2585858931835324,-0.15420291834983468
48.749999999998515,-0.30234304,-0.7914614,0.20689224,-2.1094778,-0.26654544,1.7735424,1.1051978,0.03999929,0.04,-8.337655364045785,-2.371661213061625,5.046942829068022,0.19191233630409413,-0.25900905436037897,-0.15495121260560238
48.76666666666518,-0.30488163,-0.79152143,0.20862861,-2.1074054,-0.26878226,1.7752424,1.1078764,0.039999284,0.04,-8.234488086386225,-2.614256440668722,5.314684287658006,0.19404084756889586,-0.2558798634859702,-0.162709323714743
48.783333333331846,-0.30741382,-0.7915812,0.21036059,-2.1053386,-0.2710133,1.776938,1.1105481,0.03999927,0.04,-7.803028351560843,-2.369642860133874,5.009724861763529,0.18936825962047976,-0.25702363942369566,-0.16409045964575864
48.79999999999851,-0.30993915,-0.7916409,0.21208794,-2.1032774,-0.2732384,1.7786288,1.1132127,0.039999247,0.04,-7.795615441854191,-2.7165740682550856,5.255356366028369,0.1946492044629447,-0.25733338161093394,-0.1534460912067886
48.81666666666518,-0.31245735,-0.79170036,0.21381044,-2.1012216,-0.2754572,1.7803149,1.1158695,0.03999924,0.04,-7.845752396609316,-2.3280554108540086,5.150210025516887,0.19320763071966068,-0.26149816542773946,-0.1516783228862148
48.833333333331844,-0.31496826,-0.79175985,0.21552788,-2.0991716,-0.27766952,1.7819964,1.1185186,0.039999213,0.04,-7.936331741365793,-2.5138580859740354,5.415744359335936,0.19480547488320815,-0.2598399649578473,-0.15011572039728135
48.84999999999851,-0.3174714,-0.7918192,0.21724002,-2.0971284,-0.27987504,1.7836725,1.1211596,0.039999202,0.04,-7.809541889718211,-2.6197171646137085,5.290970958837072,0.19251308303907327,-0.2561817625455269,-0.15094532397411675
48.866666666665175,-0.31996644,-0.7918783,0.2189467,-2.0950913,-0.28207347,1.785343,1.1237919,0.039999183,0.04,-8.071204717362015,-2.357205894801399,5.548171317573262,0.18434102884920314,-0.25487921606445163,-0.15110252213930864
48.88333333333184,-0.3224533,-0.7919371,0.22064775,-2.0930612,-0.2842646,1.7870083,1.1264155,0.039999165,0.04,-8.043908991471957,-2.3221242234807407,5.557778779266812,0.18920869720847502,-0.2507765473675194,-0.14960185135864212
48.899999999998506,-0.3249315,-0.79199576,0.22234288,-2.091038,-0.28644815,1.7886674,1.1290301,0.03999915,0.04,-7.546212932312695,-2.4718670607162934,5.419428334388887,0.18690862410542916,-0.25965878096664935,-0.15384366311684483
48.91666666666517,-0.32740083,-0.7920544,0.22403191,-2.0890222,-0.2886238,1.7903209,1.1316352,0.039999135,0.04,-7.706929286532536,-2.2632975072086827,5.510528691709304,0.18241097369130646,-0.2522062501286087,-0.15552726219298432
48.93333333333184,-0.32986093,-0.79211265,0.22571468,-2.0870137,-0.29079142,1.791968,1.1342306,0.03999912,0.04,-7.701954260312361,-2.8242222915628665,5.447624796369131,0.179397343644085,-0.2526292688771821,-0.1503875522983083
48.949999999998504,-0.3323115,-0.79217064,0.22739093,-2.0850132,-0.29295066,1.7936091,1.136816,0.039999105,0.04,-7.439519398807268,-2.459921360618384,5.582508109369162,0.18672065404236124,-0.25482012827364714,-0.1462616873655012
48.96666666666517,-0.3347523,-0.7922286,0.22906052,-2.0830202,-0.29510126,1.7952434,1.1393913,0.039999086,0.04,-7.404586945390433,-2.226061723926551,5.556367491832968,0.1841287959560627,-0.25373042760066633,-0.14092118748184115
48.983333333331835,-0.33718306,-0.79228634,0.23072316,-2.0810359,-0.29724303,1.796871,1.1419559,0.03999907,0.04,-7.6766415178831,-2.304252665593184,5.303705048390473,0.18054746932121507,-0.2482797835553275,-0.1469898993995818
48.9999999999985,-0.33960342,-0.7923437,0.23237875,-2.0790596,-0.2993756,1.7984917,1.1445092,0.039999057,0.04,-7.27316239532676,-2.9298622456154964,5.427367145547742,0.17967709178282826,-0.24999372651305327,-0.14125351347065024
49.01666666666517,-0.34201312,-0.79240084,0.23402709,-2.0770917,-0.30149874,1.8001055,1.1470515,0.039999038,0.04,-7.493614589634819,-2.2878156910583454,5.489062449328951,0.18167689338826917,-0.24569558274466355,-0.14562508221851148
49.03333333333183,-0.34441188,-0.7924578,0.23566791,-2.0751338,-0.30361226,1.8017117,1.1495823,0.039999016,0.04,-7.606583159148048,-2.4182423164122673,5.388227539734558,0.17788133495439692,-0.24754098382846187,-0.14270856767676124
49.0499999999985,-0.34679955,-0.7925146,0.23730108,-2.0731843,-0.30571595,1.8033103,1.152101,0.039998997,0.04,-7.937962118271154,-2.304084275444194,5.694850075447656,0.17863794204719313,-0.24425058981360778,-0.1448571677786999
49.066666666665164,-0.3491757,-0.79257095,0.2389264,-2.0712445,-0.30780962,1.8049012,1.1546078,0.03999898,0.04,-7.3100227121772825,-2.506779832626822,5.799323436980022,0.17933124648272572,-0.24215793742163633,-0.1392624489577974
49.08333333333183,-0.35154015,-0.7926271,0.24054365,-2.0693138,-0.30989283,1.8064842,1.1571023,0.039998967,0.04,-7.622652698702049,-2.3249199739847715,5.925272359006557,0.1767461422310607,-0.240712272929875,-0.13868226492625566
49.099999999998495,-0.3538924,-0.7926832,0.2421527,-2.0673928,-0.3119655,1.808059,1.1595839,0.039998956,0.04,-7.387103195959855,-2.226078642866026,5.696537111009541,0.16874909997681284,-0.24049446516973147,-0.1379888303456432
49.11666666666516,-0.35623235,-0.7927389,0.24375339,-2.0654821,-0.3140274,1.8096257,1.1620524,0.03999894,0.04,-7.37482257843991,-2.701110154471923,5.903962079434338,0.1724471436742371,-0.24046793156359617,-0.14103037473726945
49.13333333333183,-0.35855973,-0.79279417,0.24534546,-2.0635817,-0.31607804,1.8111843,1.164508,0.039998922,0.04,-7.696393324242275,-2.514227765172991,5.70742230653213,0.17168405262645237,-0.2445208393020584,-0.1377061244755642
49.14999999999849,-0.36087433,-0.7928492,0.24692874,-2.0616913,-0.3181173,1.8127351,1.1669497,0.039998904,0.04,-7.230924895527285,-2.3205249605428544,5.841534699340318,0.16671705991010852,-0.24052768055542895,-0.1343869517181005
49.16666666666516,-0.36317578,-0.7929041,0.24850301,-2.0598125,-0.32014513,1.814275,1.1693778,0.039998885,0.04,-7.62813238981532,-2.2627769049935242,5.650868593127754,0.17227684799157125,-0.24149881587008212,-0.12536409794072553
49.183333333331824,-0.36546385,-0.7929586,0.25006816,-2.0579445,-0.32216117,1.8158069,1.1717916,0.039998874,0.04,-7.384039389208079,-2.654953486791285,6.185161091141663,0.16956832571933975,-0.23850692637945609,-0.1300290256041433
49.19999999999849,-0.36773828,-0.79301286,0.2516242,-2.0560873,-0.32416523,1.8173307,1.1741909,0.03999886,0.04,-7.320189689229043,-2.9580074323881242,5.988196112633269,0.16954864287325705,-0.2379878041790114,-0.1311162099243892
49.216666666665155,-0.3699988,-0.79306674,0.25317052,-2.0542414,-0.326157,1.8188437,1.1765758,0.03999885,0.04,-7.0913321761907495,-2.353373155912549,6.08957152427015,0.1688955554745165,-0.23856089548206277,-0.12265273815150386
49.23333333333182,-0.37224522,-0.7931204,0.2547071,-2.0524075,-0.32813627,1.8203484,1.1789457,0.039998837,0.04,-7.009480822745861,-2.298023893771882,6.296277780066392,0.16149862159967446,-0.23471165220372517,-0.1326905194924128
49.24999999999849,-0.3744774,-0.7931737,0.2562339,-2.0505846,-0.33010286,1.8218423,1.1813004,0.03999881,0.04,-7.45392587035294,-2.564396453616706,6.293291175945808,0.16065364681194122,-0.22927731203286614,-0.1339835027856482
49.26666666666515,-0.37669486,-0.7932266,0.25775072,-2.048774,-0.33205652,1.8233273,1.1836399,0.039998792,0.04,-7.074727713519138,-2.6326944822421794,6.772573040181716,0.1598129675614107,-0.2333944739318345,-0.13539939605866247
49.28333333333182,-0.3788973,-0.79327935,0.2592574,-2.0469754,-0.33399713,1.8248019,1.1859634,0.039998777,0.04,-6.949477919099406,-2.919810164855927,6.201539680367818,0.16087976592292302,-0.22944731514178993,-0.12893298691535465
49.299999999998484,-0.3810847,-0.79333156,0.2607537,-2.0451894,-0.33592436,1.8262664,1.1882709,0.03999876,0.04,-7.05674204440125,-2.1643053239467847,6.149786936581018,0.15618837271981542,-0.22464445023433668,-0.12046630394171842
49.31666666666515,-0.3832566,-0.79338354,0.26223946,-2.0434158,-0.33783817,1.8277206,1.190562,0.039998747,0.04,-6.996000859741054,-2.6281564897114738,6.2037883461867604,0.15960941388306174,-0.226286406033411,-0.12353375446411799
49.333333333331815,-0.38541302,-0.79343504,0.2637146,-2.041655,-0.33973813,1.8291647,1.1928369,0.039998733,0.04,-7.042467126743428,-2.6720520741864813,6.059211405912094,0.15903979510922153,-0.22397255051674497,-0.12133261742338573
49.34999999999848,-0.38755363,-0.7934863,0.26517883,-2.0399072,-0.34162423,1.830598,1.1950948,0.039998718,0.04,-6.45092791906372,-2.23551061834056,6.407365000266541,0.1598097023005,-0.2218398771444916,-0.12212171371809484
49.36666666666515,-0.38967815,-0.79353726,0.26663208,-2.0381722,-0.34349614,1.8320203,1.1973362,0.0399987,0.04,-6.8974716176470885,-2.6390298426048697,6.034962797551665,0.15071675477576682,-0.22390202820292815,-0.11918217046512525
49.38333333333181,-0.3917865,-0.7935879,0.26807424,-2.0364509,-0.34535375,1.8334318,1.1995603,0.039998677,0.04,-7.30564693458126,-2.473932417319317,6.204740491769421,0.14855116562871465,-0.22025760361044974,-0.11931830776920829
49.39999999999848,-0.3938782,-0.793638,0.26950517,-2.0347428,-0.34719676,1.8348324,1.2017668,0.03999867,0.04,-7.197153712714698,-2.5433486941834387,6.633324351502875,0.1457874643737386,-0.21568152602876844,-0.12213860052622816
49.416666666665144,-0.39595318,-0.7936877,0.27092463,-2.0330484,-0.34902507,1.8362216,1.203956,0.039998658,0.04,-7.089206470903547,-2.476939415182394,6.432609955842928,0.152591033608372,-0.21796333132714024,-0.1185427998433048
49.43333333333181,-0.3980113,-0.79373735,0.27233246,-2.0313678,-0.3508384,1.8375994,1.2061272,0.039998647,0.04,-6.823514666829243,-2.258700905252313,6.416258365236393,0.14400451786199406,-0.21324201659604136,-0.11591347921760681
49.449999999998475,-0.40005213,-0.7937862,0.27372864,-2.029701,-0.35263664,1.8389658,1.20828,0.039998636,0.04,-6.735768964685991,-2.243841113428932,6.3403437850601145,0.14235656700714722,-0.21254576663604716,-0.11686674004561375
49.46666666666514,-0.4020757,-0.7938349,0.27511287,-2.0280483,-0.3544196,1.8403206,1.2104146,0.039998624,0.04,-6.72140086049149,-2.593607973143251,6.428532050606513,0.14365532768777373,-0.21686545521839942,-0.1140329150342345
49.48333333333181,-0.4040817,-0.7938834,0.2764851,-2.02641,-0.35618696,1.8416636,1.2125306,0.039998602,0.04,-6.747959644382199,-2.5268133994866893,6.516643357674127,0.14382376811495148,-0.21512290066676323,-0.10452819091071641
49.49999999999847,-0.40606993,-0.79393107,0.27784508,-2.024786,-0.3579388,1.8429946,1.2146279,0.039998576,0.04,-6.879599348294866,-2.3781609954655623,6.7220796301362995,0.13959594661360808,-0.20863540801967703,-0.11106070634514113
49.51666666666514,-0.4080401,-0.79397845,0.27919286,-2.0231767,-0.35967472,1.8443136,1.2167062,0.03999856,0.04,-6.324470592017381,-2.19870666558648,6.779585662853625,0.1384446610605341,-0.20498452637719097,-0.11431032669672275
49.533333333331804,-0.4099922,-0.79402566,0.28052828,-2.0215824,-0.36139476,1.8456205,1.2187653,0.039998546,0.04,-6.6686590038862565,-2.3464004760401242,6.64129929819268,0.13912273188136487,-0.20731860139544328,-0.10680633038900979
49.54999999999847,-0.4119258,-0.79407215,0.281851,-2.020003,-0.36309865,1.8469152,1.2208049,0.039998535,0.04,-6.684712982035173,-2.730065009908668,6.899867432932825,0.13588589195250556,-0.20867818389318057,-0.10680804714243325
49.566666666665135,-0.4138409,-0.7941183,0.2831611,-2.0184388,-0.36478612,1.8481973,1.2228253,0.03999853,0.04,-6.464692938322259,-2.4872137304297315,6.906886400331048,0.1375445022774398,-0.20253789989585164,-0.10466786605886566
49.5833333333318,-0.41573736,-0.7941642,0.2844584,-2.0168898,-0.36645707,1.849467,1.2248256,0.03999852,0.04,-6.538088922237868,-2.805817350631526,6.75212604687217,0.12749119710487278,-0.20236102382900678,-0.10403902152018533
49.59999999999847,-0.41761482,-0.7942094,0.28574276,-2.0153563,-0.36811134,1.8507243,1.2268062,0.039998498,0.04,-6.9288317891157005,-2.8396850361814976,6.578498000264725,0.1343372561280459,-0.20065167383607033,-0.10303490665013598
49.61666666666513,-0.4194733,-0.7942543,0.2870141,-2.0138385,-0.36974883,1.8519686,1.2287667,0.03999848,0.04,-6.709133911853375,-2.1620049841679476,6.829028570978535,0.13032294520611304,-0.19962234928494552,-0.10274835551489346
49.6333333333318,-0.4213125,-0.79429877,0.28827235,-2.012337,-0.37136936,1.8532002,1.2307067,0.039998464,0.04,-6.4978681105141245,-2.907619312399751,6.774066063712957,0.12960012144569266,-0.19508932345175004,-0.10199520506047569
49.649999999998464,-0.42313224,-0.79434276,0.28951728,-2.0108514,-0.37297294,1.8544183,1.2326263,0.039998453,0.04,-6.140132154595302,-2.6593928830883264,7.047762757549591,0.1271820262990765,-0.19377602884805797,-0.09736926444260148
49.66666666666513,-0.4249325,-0.7943863,0.29074883,-2.0093813,-0.37455922,1.8556238,1.2345252,0.039998446,0.04,-6.571431049123016,-2.5567587294879583,6.884904430058415,0.1254857111308028,-0.19746677304058666,-0.09373034602725944
49.683333333331795,-0.426713,-0.7944294,0.2919669,-2.007927,-0.3761282,1.8568158,1.2364036,0.039998446,0.04,-6.716128708811377,-2.4336406124096372,6.457457415834145,0.12094376807875841,-0.18626819211774392,-0.0926463617990013
49.69999999999846,-0.4284737,-0.7944719,0.2931713,-2.006489,-0.37767965,1.8579949,1.2382607,0.03999843,0.04,-6.681806789758277,-2.4207848620760655,7.052603696554108,0.11910856142578564,-0.1869430841023854,-0.09629547104276003
49.71666666666513,-0.43021435,-0.79451406,0.29436207,-2.0050673,-0.37921345,1.8591604,1.2400967,0.039998416,0.04,-6.481540968516226,-2.4962455395107974,6.858067312813183,0.11812827584705547,-0.1853556432848282,-0.09584308153311652
49.73333333333179,-0.4319348,-0.79455566,0.2955391,-2.0036623,-0.38072944,1.8603121,1.2419118,0.039998397,0.04,-5.969103215380524,-2.5939767001250673,7.278018979364304,0.1223679472302625,-0.18534751155569382,-0.08960447424060518
49.74999999999846,-0.4336351,-0.7945968,0.29670224,-2.002274,-0.38222757,1.8614504,1.2437052,0.03999838,0.04,-6.7434717118950624,-2.6836810699534035,6.8185225774924225,0.11828745705582444,-0.18443719096452046,-0.08875688278846151
49.766666666665124,-0.43531486,-0.7946375,0.29785132,-2.0009024,-0.38370773,1.8625749,1.2454771,0.039998375,0.04,-6.515583740086056,-2.6921788661251567,7.039123240503563,0.1218902446799322,-0.18446079127961693,-0.0918812621729174
49.78333333333179,-0.43697417,-0.7946778,0.29898643,-1.9995468,-0.3851698,1.8636856,1.2472271,0.039998367,0.04,-6.299275215070998,-2.3690425605197634,6.762274430234232,0.11069874502771468,-0.1776769817073549,-0.09225870890232384
49.799999999998455,-0.43861276,-0.7947175,0.3001074,-1.9982083,-0.38661358,1.8647828,1.2489552,0.039998356,0.04,-6.428119038210233,-2.145934222475596,6.848302160281352,0.11349022542226282,-0.1781996471363094,-0.08809744435076039
49.81666666666512,-0.44023058,-0.7947567,0.30121407,-1.9968867,-0.38803902,1.8658661,1.2506617,0.039998353,0.04,-6.581284713935936,-2.2159601385838394,6.896332561990123,0.11465976719258843,-0.17570861917939842,-0.08455346834667526
49.83333333333179,-0.44182748,-0.7947956,0.30230656,-1.9955823,-0.38944614,1.866935,1.2523462,0.039998338,0.04,-6.075272288737283,-2.7003551527466128,7.250874107648027,0.11126642365234793,-0.1716648956932858,-0.08749433991592186
49.84999999999845,-0.44340336,-0.79483384,0.3033846,-1.9942952,-0.3908347,1.8679901,1.2540084,0.03999833,0.04,-6.202014700047968,-2.874126738247713,6.9836508344140364,0.10715845956995265,-0.16868198356191708,-0.08445853388758165
49.86666666666512,-0.444958,-0.7948715,0.30444816,-1.9930254,-0.39220458,1.8690313,1.2556484,0.039998304,0.04,-6.300198849183725,-2.548362937288873,7.329122043637619,0.10657099491850373,-0.16951983051982608,-0.0797733082179152
49.883333333331784,-0.44649145,-0.79490876,0.30549735,-1.9917728,-0.3935558,1.8700581,1.2572658,0.039998285,0.04,-6.052810192363385,-2.119359824467384,7.050243304098516,0.10923746463396003,-0.1698131960795745,-0.07236318241202391
49.89999999999845,-0.4480036,-0.79494554,0.30653194,-1.9905375,-0.39488825,1.8710705,1.2588608,0.03999829,0.04,-6.543540353899169,-2.1325444488418346,7.2372675932647255,0.10485577016203122,-0.16215249727696784,-0.07702361424587881
49.916666666665115,-0.44949445,-0.79498184,0.3075518,-1.9893198,-0.39620182,1.8720684,1.2604334,0.039998278,0.04,-6.286589210807205,-2.1517804434963583,7.190784976289301,0.10200596125792562,-0.1592529413749874,-0.07599208582366493
49.93333333333178,-0.45096377,-0.7950176,0.3085571,-1.9881196,-0.39749643,1.873052,1.2619833,0.039998267,0.04,-6.327787557054616,-2.293056071915885,7.221971751053213,0.09878615030652188,-0.15442744787667328,-0.07621805799633853
49.94999999999845,-0.45241147,-0.7950529,0.3095475,-1.986937,-0.3987721,1.8740209,1.2635103,0.039998263,0.04,-5.715148293736307,-2.53413422748549,7.29395649338654,0.10078080727949491,-0.15560351378064755,-0.07523000065179276
49.96666666666511,-0.45383763,-0.7950876,0.31052315,-1.9857721,-0.4000288,1.8749757,1.2650146,0.03999826,0.04,-5.898653384982387,-2.7018354289901536,7.238035725567023,0.0959430329461832,-0.15368109409809752,-0.07694172224858205
49.98333333333178,-0.455242,-0.7951219,0.311484,-1.984625,-0.40126622,1.875916,1.2664961,0.03999825,0.04,-6.100983528922956,-2.3953632781436434,7.3039567918090915,0.0951403164047589,-0.14862712743048556,-0.07732055676553655
49.999999999998444,-0.45662463,-0.7951555,0.31243,-1.9834958,-0.4024846,1.8768415,1.2679545,0.039998237,0.04,-6.1523793184577835,-2.729572549902578,7.069690649561338,0.09362753061814641,-0.14540518456594018,-0.0709767379783024
50.01666666666511,-0.45798546,-0.79518884,0.313361,-1.9823841,-0.40368372,1.8777524,1.2693895,0.039998222,0.04,-6.025290985344823,-2.097585738508622,7.452074181968707,0.09577739135956317,-0.14825688465818382,-0.06774434351682092
50.033333333331775,-0.45932445,-0.79522157,0.31427702,-1.9812905,-0.4048635,1.8786489,1.2708012,0.03999821,0.04,-5.904551592663566,-2.388213407756442,7.351502559045128,0.09195560857366113,-0.14688485340445484,-0.06591077890170287
50.04999999999844,-0.46064153,-0.7952535,0.3151781,-1.9802146,-0.406024,1.8795307,1.2721896,0.039998204,0.04,-5.883484528417615,-2.4231123322421646,7.804594953428404,0.08888844221445759,-0.1412896235505255,-0.06692708294446419
50.06666666666511,-0.46193668,-0.79528517,0.31606418,-1.9791566,-0.40716523,1.8803978,1.2735553,0.039998192,0.04,-6.056285686261632,-1.9519671208043765,7.551338351793997,0.09122181119693851,-0.14428323715560623,-0.06366218011159591
50.08333333333177,-0.46320984,-0.7953164,0.31693524,-1.9781169,-0.408287,1.88125,1.2748979,0.039998192,0.04,-6.027861187882459,-2.3492674929884028,7.387728607645767,0.08887789740754075,-0.14216159451083957,-0.06388693261861467
50.09999999999844,-0.46446097,-0.7953469,0.31779128,-1.9770945,-0.40938947,1.8820875,1.2762175,0.03999819,0.04,-5.884887150897642,-2.35431173579466,7.286369481836129,0.08729863715407658,-0.14412711861580876,-0.06328102832382944
50.116666666665104,-0.4656901,-0.7953771,0.3186323,-1.9760904,-0.41047254,1.8829105,1.277514,0.03999818,0.04,-6.045669293711895,-2.449434362042479,7.617840441910042,0.08391412437230646,-0.13464844467737952,-0.06624647094604134
50.13333333333177,-0.46689716,-0.79540664,0.31945813,-1.9751043,-0.41153622,1.8837187,1.2787874,0.039998177,0.04,-6.118560955670459,-2.4439395457513244,7.410226320979719,0.08349353780245627,-0.13067291468536374,-0.06452775533875342
50.149999999998435,-0.4680822,-0.7954356,0.32026902,-1.9741366,-0.41258037,1.8845117,1.2800373,0.039998174,0.04,-5.777060433633728,-2.3818854101347413,7.4750899487445865,0.08329519699649893,-0.1370956057299728,-0.05967873248099765
50.1666666666651,-0.46924514,-0.7954643,0.3210648,-1.9731867,-0.41360512,1.8852903,1.2812638,0.03999817,0.04,-5.68245607688371,-2.0916719016762855,7.603380660027217,0.07741222679833108,-0.13405523033101868,-0.05943669599647619
50.18333333333177,-0.4703861,-0.7954922,0.32184547,-1.9722548,-0.41461045,1.8860539,1.2824672,0.03999815,0.04,-5.7462262098103585,-2.4142960994126947,7.306464819860783,0.07780972235809407,-0.12397935337784455,-0.05475598901462812
50.19999999999843,-0.471505,-0.79551965,0.32261097,-1.9713408,-0.41559634,1.886803,1.2836477,0.039998144,0.04,-5.939184350600486,-2.2071206120731333,7.446423325024188,0.07762188576835888,-0.12410112831047229,-0.0549972651123987
50.2166666666651,-0.47260192,-0.79554653,0.32336146,-1.9704446,-0.4165628,1.8875374,1.2848047,0.039998133,0.04,-6.001805836677263,-2.0742176677623796,7.567027488532294,0.07710469519539137,-0.12504167468882305,-0.05394741764932453
50.233333333331764,-0.47367692,-0.7955728,0.32409695,-1.9695665,-0.41751,1.888257,1.2859384,0.039998133,0.04,-5.669825357341522,-1.9647954222016502,7.585462717217628,0.07334020102063137,-0.12252267511497765,-0.052839641074048226
50.24999999999843,-0.4747298,-0.79559875,0.32481742,-1.9687064,-0.41843775,1.8889619,1.2870488,0.039998125,0.04,-5.792252770212088,-2.0717360328482526,7.513489755132097,0.07405270131459611,-0.11900041038892246,-0.05337943340709909
50.266666666665095,-0.4757609,-0.7956243,0.32552287,-1.9678638,-0.41934624,1.8896524,1.2881365,0.03999812,0.04,-5.3836964271205705,-2.363094421221506,7.584193684971255,0.07709235383378654,-0.11535501202219532,-0.05173928045661707
50.28333333333176,-0.47677,-0.79564905,0.3262133,-1.9670393,-0.42023546,1.890328,1.2892008,0.03999812,0.04,-5.821808275090463,-2.524176714529641,7.433382971776887,0.07253894635885857,-0.11560929237074115,-0.04941882288484624
50.29999999999843,-0.47775736,-0.79567343,0.32688886,-1.9662327,-0.42110544,1.890989,1.2902421,0.039998114,0.04,-5.672653459376024,-2.6474134409958148,7.18644898445002,0.06814716567202984,-0.10916182602608826,-0.05205174719352943
50.31666666666509,-0.47872284,-0.7956974,0.3275496,-1.965444,-0.42195618,1.8916354,1.2912602,0.03999811,0.04,-5.677424583724378,-2.3604911514039513,7.2092615678605645,0.0638907950517029,-0.11255892526689751,-0.052638436937941575
50.33333333333176,-0.4796666,-0.7957206,0.32819542,-1.9646726,-0.42278785,1.8922672,1.2922556,0.0399981,0.04,-5.57365935100653,-2.28251378846851,7.786833610269905,0.06008398651229073,-0.10810292942413229,-0.04875777956572217
50.349999999998424,-0.48058882,-0.79574347,0.3288265,-1.9639192,-0.42360038,1.8928845,1.2932283,0.039998095,0.04,-5.527942785353054,-2.611109213209638,7.793028808602058,0.0681418793375261,-0.10004567168593775,-0.04658842760317113
50.36666666666509,-0.48148942,-0.79576576,0.32944274,-1.9631829,-0.424394,1.8934872,1.2941784,0.039998095,0.04,-5.952220606570838,-2.460945673371957,7.8077594607422744,0.06189540461787139,-0.10312679453702395,-0.04514945561608961
50.383333333331755,-0.48236856,-0.7957874,0.33004433,-1.9624647,-0.42516857,1.8940756,1.2951059,0.03999809,0.04,-5.656096057719337,-2.458902249570987,7.503769165430222,0.06016119033198046,-0.1015536922229602,-0.045289706555984285
50.39999999999842,-0.48322624,-0.7958088,0.33063135,-1.9617641,-0.42592442,1.8946499,1.2960104,0.039998084,0.04,-5.589764571180769,-2.5217700684949445,7.283387964107179,0.06379202110675639,-0.099453025880307,-0.04177618199683199
50.41666666666509,-0.4840627,-0.7958294,0.33120376,-1.9610811,-0.42666137,1.89521,1.2968926,0.039998073,0.04,-5.779153894865947,-2.1053015793632524,7.540315959334092,0.06429334581919356,-0.09717648783819487,-0.041125997687814594
50.43333333333175,-0.48487797,-0.79584956,0.33176166,-1.9604152,-0.42737976,1.895756,1.2977523,0.039998062,0.04,-5.620897131101996,-2.465168083422752,7.831712233544163,0.06311052808998108,-0.09336409935692651,-0.03950214720078012
50.44999999999842,-0.4856722,-0.7958693,0.33230516,-1.9597661,-0.42807955,1.8962877,1.2985898,0.03999806,0.04,-5.700880361957222,-2.0344156404619715,7.7804309462458425,0.052890753193907535,-0.09459276749585471,-0.03682505722319477
50.466666666665084,-0.48644552,-0.7958883,0.33283436,-1.9591341,-0.42876095,1.8968054,1.2994053,0.039998055,0.04,-5.414459680620943,-2.0684707785880354,7.5808573259606025,0.05376113364629275,-0.09265280316462658,-0.0432716917250827
50.48333333333175,-0.487198,-0.7959067,0.33334926,-1.9585191,-0.42942387,1.897309,1.300199,0.039998047,0.04,-5.3027915812897355,-2.3733952808361427,7.59720703383711,0.05439198805553038,-0.0872708624844729,-0.035470684870931815
50.499999999998415,-0.48792976,-0.7959249,0.33385003,-1.9579215,-0.43006867,1.8977988,1.3009708,0.039998047,0.04,-5.414427538565613,-2.040337520971564,7.70579450912189,0.05296183417560042,-0.08490272456455294,-0.03731941372077066
50.51666666666508,-0.4886409,-0.79594254,0.3343367,-1.9573404,-0.4306953,1.8982748,1.3017209,0.039998043,0.04,-5.378286776656854,-2.201967406736126,7.614633099559294,0.050308249961715165,-0.07924457964819523,-0.04318377882420997
50.53333333333175,-0.48933172,-0.7959595,0.33480948,-1.956776,-0.43130392,1.898737,1.3024493,0.039998043,0.04,-5.627418488658709,-2.246422122250732,8.084692829689965,0.05052886087898233,-0.07693075394048587,-0.03279027176800809
50.54999999999841,-0.49000227,-0.7959762,0.33526847,-1.9562284,-0.4318947,1.8991859,1.3031566,0.03999804,0.04,-5.579812501093023,-1.9002377540138655,7.957552701811254,0.04898681741760765,-0.08387999266829751,-0.03510163207826737
50.56666666666508,-0.49065265,-0.79599255,0.33571365,-1.9556968,-0.43246782,1.8996214,1.3038424,0.039998036,0.04,-5.497802484359997,-2.6025971771336853,8.08803129019316,0.05155475892324301,-0.07576523488559243,-0.03104711972859735
50.583333333331744,-0.49128324,-0.796008,0.3361452,-1.9551814,-0.4330234,1.9000432,1.3045074,0.03999804,0.04,-5.412354747545493,-2.5414691923611823,7.550052217912757,0.049240248510716775,-0.07425835551495907,-0.029280160901530836
50.59999999999841,-0.49189416,-0.7960232,0.33656335,-1.9546822,-0.43356153,1.9004521,1.3051512,0.039998036,0.04,-5.375520454613314,-2.2755061835246853,7.908417275777429,0.04754153642788849,-0.07664009345050753,-0.02991357694490512
50.616666666665076,-0.49248552,-0.796038,0.3369681,-1.9541991,-0.43408254,1.9008478,1.3057748,0.03999804,0.04,-5.368640285937909,-2.1641869598732533,7.636717174993596,0.04770477398118553,-0.07035719943433329,-0.028753841634021345
50.63333333333174,-0.4930575,-0.79605204,0.33735955,-1.9537319,-0.4345865,1.9012305,1.3063782,0.039998032,0.04,-5.519677902798091,-2.527838712013764,8.026032408684792,0.04558435288507122,-0.06931848492391013,-0.028904322589436527
50.64999999999841,-0.4936103,-0.7960658,0.3377379,-1.9532801,-0.43507358,1.9016004,1.306961,0.03999803,0.04,-5.366010507963947,-2.414434378794908,7.777889003269549,0.040784489128853546,-0.06459017481649744,-0.03135121301785314
50.66666666666507,-0.49414402,-0.7960792,0.33810326,-1.9528437,-0.43554398,1.9019575,1.307524,0.03999803,0.04,-5.679718716986843,-2.2848834087313112,7.922650772973354,0.03954767180722484,-0.06176577241751565,-0.025399832464537534
50.68333333333174,-0.4946592,-0.7960921,0.3384559,-1.9524226,-0.43599787,1.9023024,1.3080672,0.039998025,0.04,-5.589901572656691,-2.219857065308383,7.659049328132147,0.04322136043756836,-0.06666593515619483,-0.024056568345194936
50.699999999998404,-0.49515578,-0.7961044,0.33879584,-1.952017,-0.43643537,1.9026347,1.3085908,0.039998017,0.04,-5.601292549491818,-2.0348967003307497,7.998373791688275,0.03592027723496814,-0.05906962700023078,-0.02736049551427494
50.71666666666507,-0.49563405,-0.79611635,0.33912328,-1.9516261,-0.43685684,1.9029548,1.3090954,0.039998017,0.04,-5.613018845460089,-2.3456978852685224,7.559353410893362,0.03419557090997856,-0.05334469832226113,-0.02555033975818971
50.733333333331736,-0.49609435,-0.796128,0.33943838,-1.9512497,-0.43726224,1.9032631,1.309581,0.039998017,0.04,-5.366450986075416,-2.606826561312606,7.79568309722139,0.031352971149337425,-0.05870842582914692,-0.02287830492397888
50.7499999999984,-0.496537,-0.796139,0.33974135,-1.9508882,-0.43765217,1.9035593,1.310048,0.039998017,0.04,-5.560674362786732,-2.053470449764075,7.918772886744075,0.037708093652733324,-0.06094321974603561,-0.016593135488265378
50.76666666666507,-0.4969621,-0.79614973,0.34003246,-1.950541,-0.43802664,1.9038436,1.3104963,0.039998017,0.04,-5.516285930057388,-2.2688427259033204,7.984323716235652,0.03291451601547365,-0.05742659295291153,-0.01923762800184112
50.78333333333173,-0.49737,-0.79616004,0.3403117,-1.9502077,-0.4383859,1.9041166,1.3109264,0.039998017,0.04,-5.494040487965208,-2.3731267031456897,7.959280855082687,0.03004338531909173,-0.0530469245947993,-0.018176771982608402
50.7999999999984,-0.49776095,-0.79617,0.3405794,-1.9498882,-0.43873024,1.9043782,1.3113385,0.039998014,0.04,-5.499344237746862,-2.0105795985689743,7.7803361344647435,0.03064099316926885,-0.05296640141797577,-0.017982476778106958
50.816666666665064,-0.49813515,-0.7961792,0.34083572,-1.9495825,-0.43905985,1.9046286,1.3117328,0.039998006,0.04,-5.137046328480959,-1.8731205109780285,7.746503271834962,0.03176477364358584,-0.049740886742812775,-0.021871643104640515
50.83333333333173,-0.49849305,-0.7961882,0.34108078,-1.94929,-0.4393751,1.9048682,1.3121104,0.03999801,0.04,-5.049783968448192,-2.1562907340175586,7.895571623733627,0.02628124534458404,-0.04803296711296131,-0.024057576595127174
50.849999999998396,-0.49883482,-0.7961969,0.34131485,-1.9490108,-0.43967608,1.9050971,1.3124706,0.039998006,0.04,-5.388641769184998,-2.695719483351049,7.84355657435045,0.024977648619368603,-0.04677802516100665,-0.017263955344641965
50.86666666666506,-0.49916086,-0.79620504,0.3415381,-1.9487444,-0.4399632,1.9053154,1.3128144,0.039998006,0.04,-5.184487957746095,-2.1770359837636337,8.139881201372816,0.029483921504132888,-0.04443668940872518,-0.015399728832736003
50.88333333333173,-0.4994715,-0.79621273,0.34175086,-1.9484901,-0.44023672,1.9055233,1.3131418,0.039998006,0.04,-5.33787450590529,-2.244150099461616,7.633191625377234,0.026463593691534636,-0.04533532564425988,-0.020269286883515144
50.89999999999839,-0.49976695,-0.79622006,0.34195325,-1.9482489,-0.4404969,1.9057211,1.3134532,0.039998006,0.04,-5.341849611872659,-2.357738116330885,7.712916152612816,0.029503593013455655,-0.0476555623126287,-0.01424005832322073
50.91666666666506,-0.5000476,-0.79622716,0.3421455,-1.9480199,-0.44074398,1.9059091,1.3137493,0.039998006,0.04,-5.309535636068468,-1.9820306099877563,8.037192787914199,0.023014803638593317,-0.0456851101521936,-0.015865876591034424
50.933333333331724,-0.5003138,-0.79623395,0.34232783,-1.9478023,-0.44097844,1.9060872,1.31403,0.039998,0.04,-5.49168546638305,-2.547921935444347,7.864693148470278,0.02690183288244657,-0.040059465902589526,-0.013056023839952158
50.94999999999839,-0.5005661,-0.79624027,0.34250057,-1.9475961,-0.44120046,1.906256,1.3142958,0.039998,0.04,-5.232858848303355,-2.2967064908725945,7.4946507871387755,0.03117094234733287,-0.0419973667690117,-0.01183673053793568
50.966666666665056,-0.5008048,-0.796246,0.34266397,-1.9474012,-0.4414104,1.9064156,1.3145472,0.039998002,0.04,-5.401771606245737,-2.1132810768303907,8.169265051445716,0.017167054909478632,-0.03245279126621074,-0.011530295696586305
50.98333333333172,-0.50103,-0.7962516,0.34281823,-1.9472173,-0.4416086,1.9065663,1.3147844,0.039997995,0.04,-5.188833545258979,-2.2167505844057387,8.29919834440178,0.019538939035724668,-0.03087194886642816,-0.01426127125064992
50.99999999999839,-0.50124216,-0.7962569,0.34296358,-1.9470443,-0.44179544,1.9067084,1.3150084,0.03999799,0.04,-5.3477659686454295,-2.32426753637281,7.969764351123514,0.016863485415430566,-0.03126263300601446,-0.0136712291449971
51.01666666666505,-0.5014418,-0.7962621,0.34310034,-1.946881,-0.44197115,1.9068421,1.3152187,0.039997987,0.04,-5.215824611509795,-1.870949308451221,7.637027185061028,0.024179765434871464,-0.03506024279445107,-0.009033175673980605
51.03333333333172,-0.50162935,-0.7962669,0.34322876,-1.9467279,-0.4421362,1.9069674,1.3154163,0.03999799,0.04,-5.32258928849051,-2.0604872420032483,8.008219732822957,0.020150704819334727,-0.03320785816492834,-0.008153195982965109
51.049999999998384,-0.5018052,-0.7962713,0.34334916,-1.9465843,-0.44229087,1.9070845,1.3156013,0.039997987,0.04,-5.743247433546269,-2.493092066105144,8.08562858208181,0.022007874202672705,-0.03064765489602282,-0.009779028015309466
51.06666666666505,-0.50196964,-0.79627544,0.34346184,-1.94645,-0.44243556,1.9071939,1.3157744,0.039997987,0.04,-5.032557940056359,-2.324285438458507,7.846561435956416,0.02058742590634268,-0.02936692698459588,-0.007258245629842641
51.083333333331716,-0.5021233,-0.7962794,0.3435671,-1.9463246,-0.4425706,1.9072967,1.3159362,0.039997984,0.04,-5.432421220877205,-2.305381190293278,8.168209684566692,0.02170116735877663,-0.027647748157512177,-0.009687199345715873
51.09999999999838,-0.50226635,-0.796283,0.34366515,-1.9462076,-0.44269645,1.9073929,1.3160868,0.039997984,0.04,-5.084293679720916,-2.1830807504529224,7.876525556557272,0.016107615721948212,-0.025151772288138394,-0.006821166745648926
51.11666666666505,-0.50239944,-0.79628646,0.3437564,-1.9460989,-0.4428134,1.9074824,1.3162268,0.03999798,0.04,-5.61461313328032,-2.039301598155777,7.871862323771779,0.01234390183232433,-0.020695009911079004,-0.012835844016402694
51.13333333333171,-0.502523,-0.79628974,0.34384105,-1.9459978,-0.44292206,1.9075645,1.3163571,0.039997987,0.04,-5.64127715505027,-2.3479245804668296,8.457337939029108,0.018445608179144972,-0.0218959767044916,-0.00857078526285714
51.14999999999838,-0.5026375,-0.7962927,0.34391946,-1.9459043,-0.44302264,1.907642,1.3164775,0.039997987,0.04,-5.521943575549549,-2.2715523857131887,7.605142786571639,0.01164069790855628,-0.02030635110790537,-0.010918561774054451
51.166666666665044,-0.50274336,-0.79629534,0.34399208,-1.9458178,-0.4431157,1.9077125,1.3165889,0.039997987,0.04,-5.458928562000358,-1.8973113545050584,7.968130270235991,0.014626795334305425,-0.026438088842510858,-0.006844093057899527
51.18333333333171,-0.50284094,-0.79629767,0.34405902,-1.9457381,-0.4432015,1.9077786,1.3166919,0.039997984,0.04,-5.197349126746048,-2.1669835125302654,7.7687005699735385,0.012304148982091331,-0.019342836104131195,-0.007963970675419528
51.199999999998376,-0.50293094,-0.79629993,0.34412083,-1.9456651,-0.44328073,1.9078379,1.3167865,0.039997984,0.04,-5.158817018119619,-2.1655383320494996,7.822268008142978,0.016784247266129933,-0.02038748400060491,-0.0016498363200276893
51.21666666666504,-0.503014,-0.79630214,0.3441778,-1.9455973,-0.44335353,1.907893,1.3168737,0.039997984,0.04,-5.731044099963303,-2.2229992472844717,7.929068432645821,0.019614087661699392,-0.025805278453829534,-0.005102039138738815
51.23333333333171,-0.5030904,-0.79630417,0.3442301,-1.9455354,-0.4434205,1.9079438,1.3169541,0.03999798,0.04,-5.2098572020582035,-2.553383465068128,7.708908371799975,0.016345293948675486,-0.023160768336192645,-0.0037233765690329918
51.24999999999837,-0.5031606,-0.796306,0.3442784,-1.9454782,-0.4434822,1.9079909,1.3170282,0.03999798,0.04,-5.362681540157242,-2.1827104111871676,7.530447334535651,0.009396162370866025,-0.015977899397226325,-0.009008848126824018
51.26666666666504,-0.5032252,-0.7963076,0.34432277,-1.9454254,-0.44353896,1.9080342,1.317096,0.03999798,0.04,-5.144954528554231,-2.463416402397996,7.9371761384492485,0.014319784578192343,-0.01897821689491045,-0.0019436885575977749
51.283333333331704,-0.5032847,-0.79630923,0.34436357,-1.9453765,-0.44359112,1.9080737,1.3171587,0.03999798,0.04,-5.274755686294315,-1.9890138896555971,7.9284744108749265,0.010286101528201455,-0.01824608069411211,-0.007421058120566322
51.29999999999837,-0.5033394,-0.79631054,0.34440103,-1.9453315,-0.44363925,1.9081094,1.317216,0.03999798,0.04,-4.964363923454237,-2.448893445784541,7.76639794840097,0.012977804268086599,-0.01928941268064179,-0.004630384628723867
51.316666666665036,-0.50338995,-0.79631174,0.34443548,-1.9452901,-0.4436835,1.9081435,1.317269,0.03999798,0.04,-5.436398955818473,-2.204471344640442,8.072470711572118,0.014297187110286989,-0.012080383709730568,-0.007865409977181138
51.3333333333317,-0.5034363,-0.79631287,0.34446728,-1.9452524,-0.4437241,1.9081749,1.3173178,0.039997984,0.04,-5.745401822969044,-2.4480907832205787,8.158822147178777,0.016193098631922895,-0.01164455447922333,0.001974315053609879
51.34999999999837,-0.5034791,-0.796314,0.34449655,-1.9452178,-0.4437616,1.9082029,1.3173628,0.03999798,0.04,-5.495743703767817,-2.4240360654804665,7.786237510668046,0.011250524943837718,-0.013264520585303644,-0.0039458376565557896
51.36666666666503,-0.5035185,-0.79631484,0.34452343,-1.945186,-0.4437962,1.9082295,1.317404,0.039997976,0.04,-5.364451284272753,-2.3297056721080422,8.100704745995625,0.010621338074876764,-0.01940057856158012,-0.00047652429856238817
51.3833333333317,-0.5035547,-0.79631567,0.3445482,-1.9451562,-0.44382796,1.9082537,1.317442,0.03999798,0.04,-5.413305970049407,-2.5663636246918307,8.013875501929311,0.0102174818337836,-0.012613012903853978,-0.007014554726840694
51.399999999998364,-0.50358796,-0.79631644,0.344571,-1.9451294,-0.44385704,1.908276,1.3174771,0.039997976,0.04,-5.203529557183053,-2.3792352753617565,8.06665003992714,0.009381889545765262,-0.017076262808670993,-0.008241347801826672
51.41666666666503,-0.50361854,-0.79631716,0.34459198,-1.9451044,-0.4438839,1.9082963,1.3175094,0.03999798,0.04,-5.178602331169571,-2.206296808087205,7.887405352806121,0.01275841578813388,-0.011982135767659139,-0.0057867525898912505
51.433333333331696,-0.50364685,-0.7963178,0.34461126,-1.9450815,-0.44390854,1.9083154,1.3175391,0.039997976,0.04,-5.501582307350239,-1.8862925047612675,7.773935020121963,0.01111344726870001,-0.013113536042471318,-0.0019762201060089736
51.44999999999836,-0.5036728,-0.79631835,0.34462905,-1.9450604,-0.44393116,1.9083326,1.3175664,0.03999798,0.04,-5.638613511030536,-2.1177208056232937,7.783428972122156,0.007685494299578696,-0.011863736080157347,-0.004891920275745721
51.46666666666503,-0.50369674,-0.7963188,0.3446454,-1.9450412,-0.44395208,1.9083486,1.3175914,0.03999798,0.04,-5.374417591249165,-2.272458604649879,7.971034285239808,0.009506206521521746,-0.01819695622672675,-0.0008298784876797488
51.48333333333169,-0.50371873,-0.7963193,0.34466046,-1.9450232,-0.4439713,1.9083631,1.3176146,0.039997976,0.04,-4.933708792974451,-2.2555413954188497,8.237897269416845,0.013224597026629011,-0.012177871773268274,-0.0034102987426678174
51.49999999999836,-0.503739,-0.7963198,0.34467438,-1.9450067,-0.44398895,1.9083766,1.3176358,0.03999798,0.04,-5.531874931471088,-2.0237103272320396,7.988588912701841,0.011924787861567216,-0.016458385466106205,0.0027789748376207215
51.516666666665024,-0.5037576,-0.79632026,0.34468707,-1.9449916,-0.44400522,1.9083891,1.3176552,0.03999798,0.04,-5.399128340105999,-1.8602979509965056,7.569308498773026,0.010644167655827428,-0.018770521317417736,-0.005968683007101969
51.53333333333169,-0.50377464,-0.79632074,0.3446988,-1.9449775,-0.44402012,1.9084005,1.3176732,0.039997976,0.04,-5.308318946229665,-2.421259770737879,7.571424815169498,0.01023057279424371,-0.01505878386447406,-0.0037204144255644526
51.549999999998356,-0.5037903,-0.79632115,0.3447096,-1.9449648,-0.44403386,1.908411,1.3176895,0.039997976,0.04,-5.074812432937463,-2.101246637645829,7.992881805602417,0.011971423095196564,-0.012693172680710981,-0.0024975701432259655
51.56666666666502,-0.5038049,-0.7963215,0.34471956,-1.9449531,-0.4440465,1.9084208,1.3177047,0.03999798,0.04,-5.369448778637129,-1.9945970314899564,7.752465517000265,0.011784743349801683,-0.016643196985957665,-0.006345073595182377
51.58333333333169,-0.5038181,-0.79632187,0.34472877,-1.944942,-0.44405812,1.9084296,1.3177189,0.039997976,0.04,-5.26090597215467,-2.012461633382377,7.7375124817891825,0.00767176240362588,-0.010667893475727875,-0.0052438801334680485
51.59999999999835,-0.5038305,-0.7963222,0.3447372,-1.9449321,-0.44406882,1.9084376,1.3177316,0.039997976,0.04,-5.278165359021629,-2.1179076416483014,7.7989199482162705,0.01385013950886998,-0.00882541050309468,-0.005357467815284531
51.61666666666502,-0.50384164,-0.7963226,0.3447449,-1.9449229,-0.44407865,1.9084451,1.3177433,0.039997976,0.04,-5.460844308539385,-2.108264706096767,8.090373839806126,0.01256904723205783,-0.014290394124551546,-0.002312638381620254
51.633333333331684,-0.5038521,-0.79632294,0.34475207,-1.9449148,-0.44408774,1.908452,1.3177545,0.039997976,0.04,-5.37764266920583,-2.3979509512075183,7.736905153506379,0.005208148122977961,-0.007968161337576952,-0.003890191098843428
51.64999999999835,-0.5038616,-0.7963233,0.3447586,-1.944907,-0.4440962,1.9084585,1.3177646,0.03999798,0.04,-5.295333526775382,-1.7735198802073495,7.842677498568705,-0.0011823138172324663,0.004991728646372483,-0.0024532242190718036
51.666666666665016,-0.5038616,-0.7963233,0.3447586,-1.944907,-0.4440962,1.9084585,1.3177646,0.03999798,0.04,-5.393432753351519,-2.539893334398011,8.049754391517709,0.005762612359372224,-0.0034502862833342943,0.0005059783656339134
51.68333333333168,-0.5038616,-0.7963233,0.3447586,-1.944907,-0.4440962,1.9084585,1.3177646,0.03999798,0.04,-5.362683512580605,-2.0017983990524604,7.720822927680674,0.005800292604177083,-0.0026982648914720252,0.0027831199511365754
51.69999999999835,-0.5038616,-0.7963233,0.3447586,-1.944907,-0.4440962,1.9084585,1.3177646,0.03999798,0.04,-5.491221600788782,-2.296499041000791,8.18380314276944,0.0006549037154828664,0.002255181486835106,-0.00024043985663279208
51.71666666666501,-0.5038616,-0.7963233,0.3447586,-1.944907,-0.4440962,1.9084585,1.3177646,0.03999798,0.04,-5.35389640296537,-2.3356826074044523,7.965799980722664,-0.00601675044377011,6.294647129203717e-05,-0.0031281597912692378
51.73333333333168,-0.5038616,-0.7963233,0.3447586,-1.944907,-0.4440962,1.9084585,1.3177646,0.03999798,0.04,-5.604066058582091,-2.2916188309722205,7.845515235709703,-0.003059757040414266,0.0014176242401072899,-0.0041469924086133085
51.749999999998344,-0.5038616,-0.7963233,0.3447586,-1.944907,-0.4440962,1.9084585,1.3177646,0.03999798,0.04,-5.409986333580915,-2.294012667344814,7.986781399576975,-0.00035363739371165276,0.0038283161832457194,-0.000617599779271548
51.76666666666501,-0.5038616,-0.7963233,0.3447586,-1.944907,-0.4440962,1.9084585,1.3177646,0.03999798,0.04,-5.446904306365997,-2.2351316153564325,7.87201715752706,0.0008894334274902301,-0.0024051055990874015,-0.0011157469734795963
51.783333333331676,-0.5038616,-0.7963233,0.3447586,-1.944907,-0.4440962,1.9084585,1.3177646,0.03999798,0.04,-5.587699534869464,-2.1646440888757046,7.901228772202748,-0.005202855490429584,0.0012765768086158095,-0.0011044589930863371
51.79999999999834,-0.5038616,-0.7963233,0.3447586,-1.944907,-0.4440962,1.9084585,1.3177646,0.03999798,0.04,-5.37545981104461,-1.9872384469872537,8.11828079332766,0.0013866225621094511,-0.001438074295868916,0.002441685945905138
51.81666666666501,-0.5038616,-0.7963233,0.3447586,-1.944907,-0.4440962,1.9084585,1.3177646,0.03999798,0.04,-5.1871710901748544,-2.3256215933685622,7.981315717449181,0.0029035232568237167,-0.001029864331030485,0.0036077327516390156
51.83333333333167,-0.5038616,-0.7963233,0.3447586,-1.944907,-0.4440962,1.9084585,1.3177646,0.03999798,0.04,-5.291178654687032,-2.6880814709198755,8.01413551229752,0.006271396751742636,0.003481326236296833,0.004689961805517486
51.84999999999834,-0.5038616,-0.7963233,0.3447586,-1.944907,-0.4440962,1.9084585,1.3177646,0.03999798,0.04,-5.2219968061452535,-2.379679558163092,8.13493315993932,-0.0037070056446797356,0.0027145458248975934,-0.0029688838387134583
51.866666666665004,-0.5038616,-0.7963233,0.3447586,-1.944907,-0.4440962,1.9084585,1.3177646,0.03999798,0.04,-5.66237152859169,-2.1964920410150177,8.125443309086949,-0.0006857080653924773,0.0009242219932988254,-0.002707495830459021
51.88333333333167,-0.5038616,-0.7963233,0.3447586,-1.944907,-0.4440962,1.9084585,1.3177646,0.03999798,0.04,-5.394776414172316,-2.157110530594124,7.894845912095029,-0.004561019720899388,-0.00019455068842007224,0.0022614808178746454
51.899999999998336,-0.5038616,-0.7963233,0.3447586,-1.944907,-0.4440962,1.9084585,1.3177646,0.03999798,0.04,-5.220364324881148,-2.5306942239421466,8.088940359601938,0.000892299169695007,0.004475648870521337,-0.0020187712138589205
51.916666666665,-0.5038616,-0.7963233,0.3447586,-1.944907,-0.4440962,1.9084585,1.3177646,0.03999798,0.04,-4.976578826294886,-2.2127791235627106,7.8777970945745235,-0.0035822524963522334,-0.0020396506331835608,-0.0025061067289409334
51.93333333333167,-0.5038616,-0.7963233,0.3447586,-1.944907,-0.4440962,1.9084585,1.3177646,0.03999798,0.04,-4.984343291634377,-2.4180142038899946,7.671245191358204,0.00032226954823843097,-0.0005986305410527736,-0.0006975159355648931
51.94999999999833,-0.5038616,-0.7963233,0.3447586,-1.944907,-0.4440962,1.9084585,1.3177646,0.03999798,0.04,-5.109733396590173,-2.118410532351339,7.616049238706593,0.0024522499496194504,-0.0042425862641478265,0.002872645426196905
51.966666666665,-0.5038616,-0.7963233,0.3447586,-1.944907,-0.4440962,1.9084585,1.3177646,0.03999798,0.04,-5.718715326064925,-1.8807863065384713,8.187248561851233,0.0037028546902340975,0.001950288830135961,0.0013997547771646855
51.983333333331665,-0.5038616,-0.7963233,0.3447586,-1.944907,-0.4440962,1.9084585,1.3177646,0.03999798,0.04,-5.156753187051159,-2.3458238796234525,7.966632933351828,-0.0009762214083454514,0.000950174436817276,0.0005719256517749558
51.99999999999833,-0.5038616,-0.7963233,0.3447586,-1.944907,-0.4440962,1.9084585,1.3177646,0.03999798,0.04,-5.549270560148995,-2.3239938263259567,8.036053513295462,0.004883394867511792,-0.0026229462632420875,0.0025071819497809143
52.016666666664996,-0.5038616,-0.7963233,0.3447586,-1.944907,-0.4440962,1.9084585,1.3177646,0.03999798,0.04,-5.342276193119148,-2.341401458869622,7.844818388085473,0.001838715434221675,-0.0062725536427745855,-0.0003239118949613316
52.03333333333166,-0.5038616,-0.7963233,0.3447586,-1.944907,-0.4440962,1.9084585,1.3177646,0.03999798,0.04,-5.348952118863415,-2.10856066230385,8.201760525007625,-0.0031838117728747407,-0.0012767023250128302,0.004514341438052849
52.04999999999833,-0.5038616,-0.7963233,0.3447586,-1.944907,-0.4440962,1.9084585,1.3177646,0.03999798,0.04,-5.495805058035675,-1.874823258388782,8.333100076852451,-0.002064603482285881,0.000945153330803183,-0.007168887096256988
52.06666666666499,-0.5038616,-0.7963233,0.3447586,-1.944907,-0.4440962,1.9084585,1.3177646,0.03999798,0.04,-5.427226391563487,-2.201269396257905,8.115762263023955,-0.0008047456729550391,0.0023031443838586905,-0.0014933172489223047
52.08333333333166,-0.5038616,-0.7963233,0.3447586,-1.944907,-0.4440962,1.9084585,1.3177646,0.03999798,0.04,-5.219959570707067,-2.22944577164635,7.770572972654601,0.00010287455768702302,0.002104179427583384,0.004430108622292188
52.099999999998325,-0.5038616,-0.7963233,0.3447586,-1.944907,-0.4440962,1.9084585,1.3177646,0.03999798,0.04,-5.050575749489142,-1.9896928517002135,8.113829152902236,0.00020216744801601258,0.0024399769613432133,0.0018475076938674459
52.11666666666499,-0.5038616,-0.7963233,0.3447586,-1.944907,-0.4440962,1.9084585,1.3177646,0.03999798,0.04,-4.782612756927874,-2.324415717312217,8.205153957033788,0.002726174243737968,-0.0009443056860173709,-0.0018984221225287392
52.133333333331656,-0.5038616,-0.7963233,0.3447586,-1.944907,-0.4440962,1.9084585,1.3177646,0.03999798,0.04,-5.446132185943978,-2.047639484032043,7.864464117910252,0.005221356830292024,0.0022305559314046777,0.0011775239363761058
52.14999999999832,-0.5038616,-0.7963233,0.3447586,-1.944907,-0.4440962,1.9084585,1.3177646,0.03999798,0.04,-4.881943453692799,-2.3274293300893274,8.194073424010103,0.0010023974452959704,-0.005602771025716614,0.0020654934713206802
52.16666666666499,-0.5038616,-0.7963233,0.3447586,-1.944907,-0.4440962,1.9084585,1.3177646,0.03999798,0.04,-5.7276226189394155,-2.267958692918771,7.9862798944649835,-0.0023235580984373033,0.001293944928691972,-0.0011619851956222653
52.18333333333165,-0.5038616,-0.7963233,0.3447586,-1.944907,-0.4440962,1.9084585,1.3177646,0.03999798,0.04,-5.655239330312456,-1.9966638115746855,7.673414821013781,-0.0017354687637633874,0.0025776940683104785,-0.0035121195714143813
52.19999999999832,-0.5038616,-0.7963233,0.3447586,-1.944907,-0.4440962,1.9084585,1.3177646,0.03999798,0.04,-5.252106208942286,-2.185038661762915,8.053582219595398,-0.0030656205235850445,-0.001335915253883337,0.0006651627531075873
52.216666666664985,-0.5038616,-0.7963233,0.3447586,-1.944907,-0.4440962,1.9084585,1.3177646,0.03999798,0.04,-5.309647637209856,-2.3889986573837176,7.9421086913261005,0.00027213143884329964,0.0054576760651666705,-0.0019194348430072094
52.23333333333165,-0.5038616,-0.7963233,0.3447586,-1.944907,-0.4440962,1.9084585,1.3177646,0.03999798,0.04,-5.676081008071354,-2.4243591999803447,8.236359601504853,-0.0017163338762383289,0.005115137635417925,-0.0038848606721669492
52.249999999998316,-0.5038616,-0.7963233,0.3447586,-1.944907,-0.4440962,1.9084585,1.3177646,0.03999798,0.04,-5.225823313324954,-2.2511160482337504,7.805256748494881,-0.002102566709797183,0.004234145889880045,0.0016181480074250296
52.26666666666498,-0.5038616,-0.7963233,0.3447586,-1.944907,-0.4440962,1.9084585,1.3177646,0.03999798,0.04,-5.6425739677494295,-2.2603016194348893,7.672585963016521,-0.0008317776842864869,-0.0005710304349278672,0.0005652396144430396
52.28333333333165,-0.5038616,-0.7963233,0.3447586,-1.944907,-0.4440962,1.9084585,1.3177646,0.03999798,0.04,-5.210357207872001,-2.386365296024625,8.019400157166963,-5.386895750652281e-05,-0.0029333482949933697,0.005686908437588847
52.29999999999831,-0.5038616,-0.7963233,0.3447586,-1.944907,-0.4440962,1.9084585,1.3177646,0.03999798,0.04,-5.228718275795628,-2.105144528744311,8.079024732386227,-0.0012404516147049604,0.00034405236324594517,0.00197411938815528
52.31666666666498,-0.5038616,-0.7963233,0.3447586,-1.944907,-0.4440962,1.9084585,1.3177646,0.03999798,0.04,-5.308612652776605,-2.2283495828875726,8.336291078822034,0.0016105025815661585,0.0016803283293244523,-0.0013603706820039044
52.333333333331645,-0.5038616,-0.7963233,0.3447586,-1.944907,-0.4440962,1.9084585,1.3177646,0.03999798,0.04,-5.484034600909307,-1.947538569807922,8.208539716592162,0.0007878412300009428,-0.0007591912943691317,0.004138274085070107
52.34999999999831,-0.5038616,-0.7963233,0.3447586,-1.944907,-0.4440962,1.9084585,1.3177646,0.03999798,0.04,-5.570557120815481,-1.9654201119893175,7.996561208736415,0.001072169696527226,-0.00298851245303406,0.0046762660782413345
52.366666666664976,-0.5038616,-0.7963233,0.3447586,-1.944907,-0.4440962,1.9084585,1.3177646,0.03999798,0.04,-5.386334514892186,-2.4190780152997546,8.144105383441033,-0.0014140115202454122,0.003333450659404723,-0.0022416013318656814
52.38333333333164,-0.5038616,-0.7963233,0.3447586,-1.944907,-0.4440962,1.9084585,1.3177646,0.03999798,0.04,-5.230796891476985,-1.9591056553805914,8.184003574130374,-0.006469708512837555,0.003074025781410937,-0.0024507871208456346
