rsonawane2002/My_IMU/logs_2/traj_362/imu_400hz_362.csv
time,j1,j2,j3,j4,j5,j6,j7,gripper1,gripper2,imu_ax,imu_ay,imu_az,imu_gx,imu_gy,imu_gz
0.0,0.00016700293,-0.785875,4.0107683e-05,-2.3551247,9.29385e-05,1.570997,0.786,0.04,0.04,-9.500047,-0.0502239093184471,0.11205149,-1.915212e-07,-0.0011641273740679,7.4140377e-07
0.0025,0.000167002801,-0.785857774,4.010763935e-05,-2.35513919,9.29433675e-05,1.570996565,0.786,0.04,0.04,-9.550220500000046,-0.042597401447703645,0.09660285049998595,-1.3470239399994832e-07,-0.0013255208497868318,7.967049045000503e-07
0.005,0.000167002672,-0.785840548,4.01075957e-05,-2.3551536800000004,9.294823500000001e-05,1.57099613,0.786,0.04,0.04,-9.600394000000092,-0.03497089357696019,0.0811542109999719,-7.788358799989665e-08,-0.0014869143255057636,8.520060390001006e-07
0.0075,0.000167002543,-0.7858233219999999,4.010755205e-05,-2.3551681700000002,9.295310250000001e-05,1.570995695,0.786,0.04,0.04,-9.650567500000136,-0.027344385706216744,0.06570557149995784,-2.106478199984498e-08,-0.0016483078012246952,9.073071735001509e-07
0.01,0.000167002414,-0.785806096,4.0107508400000003e-05,-2.35518266,9.295797000000003e-05,1.5709952600000001,0.786,0.04,0.04,-9.700741000000182,-0.01971787783547329,0.05025693199994379,3.57540240002067e-08,-0.001809701276943627,9.626083080002011e-07
0.0125,0.000167002285,-0.78578887,4.010746475e-05,-2.3551971500000004,9.296283750000002e-05,1.570994825,0.786,0.04,0.04,-9.750914500000228,-0.012091369964729835,0.03480829249992974,9.257283000025841e-08,-0.0019710947526625586,1.0179094425002515e-06
0.015,0.000167002156,-0.785771644,4.01074211e-05,-2.3552116400000003,9.296770500000002e-05,1.57099439,0.786,0.04,0.04,-9.801088000000274,-0.004464862093986388,0.019359652999915697,1.4939163600031004e-07,-0.0021324882283814905,1.0732105770003018e-06
0.0175,0.00016700070949999995,-0.785754867,4.010486249999995e-05,-2.3552257350000003,9.2971376e-05,1.57099396,0.786,0.04,0.04,-9.834436099999998,0.0006147199397671941,0.0089872338649986,3.068651780022844e-07,-0.0022899181582042368,1.1722884750011884e-06
0.02,0.00016699662799999997,-0.785738988,4.009727399999994e-05,-2.3552390400000003,9.2972654e-05,1.5709935400000001,0.786,0.04,0.04,-9.834133399999997,0.0006004502996800362,0.0087672554599984,6.656481920026106e-07,-0.0024394209962348276,1.358919900001358e-06
0.0225,0.00016699254649999996,-0.7857231089999999,4.008968549999994e-05,-2.3552523450000002,9.297393200000001e-05,1.57099312,0.786,0.04,0.04,-9.833830699999996,0.0005861806595928782,0.0085472770549982,1.0244312060029369e-06,-0.002588923834265419,1.5455513250015276e-06
0.025,0.00016698846499999995,-0.7857072299999999,4.008209699999993e-05,-2.35526565,9.297521000000001e-05,1.5709927,0.786,0.04,0.04,-9.833527999999996,0.0005719110195057202,0.008327298649998,1.3832142200032635e-06,-0.00273842667229601,1.7321827500016975e-06
0.0275,0.00016698438349999994,-0.7856913509999999,4.007450849999992e-05,-2.355278955,9.297648800000001e-05,1.57099228,0.786,0.04,0.04,-9.833225299999997,0.0005576413794185622,0.0081073202449978,1.7419972340035897e-06,-0.002887929510326601,1.9188141750018673e-06
0.03,0.00016698030199999996,-0.7856754719999999,4.0066919999999914e-05,-2.35529226,9.297776600000002e-05,1.57099186,0.786,0.04,0.04,-9.832922599999996,0.0005433717393314042,0.0078873418399976,2.1007802480039156e-06,-0.0030374323483571917,2.1054456000020367e-06
0.0325,0.00016697622049999995,-0.7856595929999999,4.0059331499999906e-05,-2.355305565,9.297904400000002e-05,1.57099144,0.786,0.04,0.04,-9.832619899999996,0.0005291020992442463,0.007667363434997399,2.4595632620042424e-06,-0.003186935186387783,2.292077025002207e-06
0.035,0.0001669649499999998,-0.7856445729999998,4.0038488099999646e-05,-2.3553181,9.29743139999999e-05,1.57099101,0.786,0.04,0.04,-9.832382899999997,0.0005063207645430758,0.007452076169997288,3.16761124001124e-06,-0.003330112318510023,2.6083965500048538e-06
0.0375,0.0001669500849999998,-0.7856299824999998,4.0011017249999626e-05,-2.35533025,9.29665799999999e-05,1.570990575,0.786,0.04,0.04,-9.832178749999997,0.0004792835825351312,0.007239134474997095,4.050291700012041e-06,-0.00347012659767826,2.9895601250052e-06
0.04,0.00016693521999999977,-0.7856153919999997,3.99835463999996e-05,-2.3553424,9.295884599999989e-05,1.57099014,0.786,0.04,0.04,-9.831974599999997,0.00045224640052718656,0.007026192779996901,4.932972160012845e-06,-0.0036101408768464977,3.370723700005547e-06
0.0425,0.00016692035499999978,-0.7856008014999998,3.9956075549999574e-05,-2.35535455,9.295111199999988e-05,1.5709897050000001,0.786,0.04,0.04,-9.831770449999997,0.00042520921851924194,0.006813251084996708,5.815652620013649e-06,-0.0037501551560147352,3.751887275005894e-06
0.045,0.00016690548999999977,-0.7855862109999998,3.9928604699999554e-05,-2.3553667000000003,9.294337799999987e-05,1.57098927,0.786,0.04,0.04,-9.831566299999997,0.00039817203651129737,0.006600309389996515,6.69833308001445e-06,-0.0038901694351829723,4.133050850006241e-06
0.0475,0.00016689062499999975,-0.7855716204999997,3.990113384999953e-05,-2.35537885,9.293564399999986e-05,1.570988835,0.786,0.04,0.04,-9.831362149999997,0.0003711348545033528,0.006387367694996321,7.581013540015254e-06,-0.00403018371435121,4.514214425006587e-06
0.05,0.00016687575999999935,-0.7855570299999998,3.987366299999882e-05,-2.355391,9.292790999999959e-05,1.5709884,0.786,0.04,0.04,-9.831157999999997,0.0003440976724952154,0.006174425999996749,8.46369400003068e-06,-0.004170197993519298,4.895378000014096e-06
0.0525,0.00016684007349999932,-0.7855436154999997,3.980862134999876e-05,-2.355402025,9.290531549999957e-05,1.57098798,0.786,0.04,0.03999999925,-9.830936149999996,0.0003064620017531749,0.005995736054996588,1.015020940003221e-05,-0.004301999229940278,5.6702436500147995e-06
0.055,0.0001668043869999993,-0.7855302009999997,3.97435796999987e-05,-2.35541305,9.288272099999954e-05,1.57098756,0.786,0.04,0.0399999985,-9.830714299999997,0.00026882633101113425,0.0058170461099964245,1.1836724800033746e-05,-0.004433800466361258,6.445109300015505e-06
0.0575,0.00016676870049999926,-0.7855167864999998,3.967853804999864e-05,-2.355424075,9.286012649999952e-05,1.57098714,0.786,0.04,0.03999999775,-9.830492449999996,0.00023119066026909362,0.005638356164996262,1.352324020003528e-05,-0.004565601702782238,7.21997495001621e-06
0.06,0.0001667330139999992,-0.7855033719999998,3.961349639999858e-05,-2.3554351000000002,9.28375319999995e-05,1.57098672,0.786,0.04,0.039999997,-9.830270599999995,0.00019355498952705307,0.0054596662199961,1.520975560003681e-05,-0.004697402939203217,7.994840600016913e-06
0.0625,0.00016669732749999917,-0.7854899574999997,3.954845474999852e-05,-2.3554461250000003,9.281493749999949e-05,1.5709863,0.786,0.04,0.03999999625,-9.830048749999996,0.00015591931878501246,0.005280976274995937,1.6896271000038344e-05,-0.004829204175624197,8.769706250017619e-06
0.065,0.00016666164099999914,-0.7854765429999997,3.948341309999846e-05,-2.3554571500000003,9.279234299999947e-05,1.57098588,0.786,0.04,0.0399999955,-9.829826899999995,0.00011828364804297183,0.005102286329995775,1.858278640003988e-05,-0.004961005412045177,9.544571900018323e-06
0.0675,0.0001666147214999983,-0.7854635034999997,3.939834074999692e-05,-2.3554678350000002,9.276044799999877e-05,1.57098559,0.786,0.04,0.03999999525,-9.829629949999998,7.604787242472986e-05,0.004923758549995623,2.0575761150063996e-05,-0.005090672266672564,1.0360700800022069e-05
0.07,0.00016654533599999824,-0.7854512139999997,3.927320699999681e-05,-2.3554778400000003,9.270995199999871e-05,1.57098556,0.786,0.04,0.039999996,-9.829482799999996,2.4611887055089388e-05,0.004745555099995461,2.3181654600066366e-05,-0.005216070357713234,1.1259356200022887e-05
0.0725,0.00016647595049999817,-0.7854389244999997,3.91480732499967e-05,-2.3554878450000003,9.265945599999867e-05,1.57098553,0.786,0.04,0.03999999675,-9.829335649999996,-2.6824098314550795e-05,0.0045673516499953,2.5787548050068725e-05,-0.005341468448753902,1.2158011600023701e-05
0.075,0.00016640656499999811,-0.7854266349999997,3.9022939499996585e-05,-2.3554978500000003,9.260895999999862e-05,1.5709855,0.786,0.04,0.0399999975,-9.829188499999995,-7.826008368419126e-05,0.0043891481999951375,2.83934415000711e-05,-0.005466866539794571,1.305666700002452e-05
0.0775,0.00016633717949999805,-0.7854143454999997,3.889780574999647e-05,-2.3555078550000004,9.255846399999858e-05,1.57098547,0.786,0.04,0.03999999825,-9.829041349999995,-0.00012969606905383172,0.004210944749994975,3.0999334950073475e-05,-0.00559226463083524,1.3955322400025338e-05
0.08,0.000166267793999998,-0.7854020559999997,3.877267199999636e-05,-2.3555178600000004,9.250796799999853e-05,1.57098544,0.786,0.04,0.039999999,-9.828894199999995,-0.00018113205442347216,0.004032741299994813,3.3605228400075844e-05,-0.00571766272187591,1.4853977800026155e-05
0.0825,0.00016619840849999793,-0.7853897664999997,3.864753824999625e-05,-2.3555278650000004,9.245747199999849e-05,1.57098541,0.786,0.04,0.03999999975,-9.828747049999995,-0.00023256803979311265,0.0038545378499946514,3.6211121850078214e-05,-0.005843060812916579,1.5752633200026972e-05
0.085,0.00016609619399999634,-0.7853781729999997,3.8464404999993445e-05,-2.35553711,9.238194349999728e-05,1.5709854600000002,0.786,0.04,0.04,-9.828591499999995,-0.0002874079742485486,0.0036889329999950735,3.959204470011654e-05,-0.00596397388726833,1.7017026600044758e-05
0.08750000000000001,0.00016597756499999624,-0.7853669274999997,3.825227199999325e-05,-2.3555459750000005,9.22938987499972e-05,1.57098555,0.786,0.04,0.04,-9.828431749999995,-0.00034394988324665005,0.0035296274499949285,4.336048225011997e-05,-0.006082644453275928,1.8464289000046074e-05
0.09,0.00016585893599999613,-0.7853556819999996,3.8040138999993056e-05,-2.3555548400000004,9.220585399999712e-05,1.57098564,0.786,0.04,0.04,-9.828271999999995,-0.0004004917922447512,0.0033703218999947843,4.712891980012338e-05,-0.006201315019283525,1.9911551400047383e-05
0.0925,0.000165740306999996,-0.7853444364999996,3.782800599999286e-05,-2.3555637050000002,9.211780924999704e-05,1.57098573,0.786,0.04,0.04,-9.828112249999995,-0.00045703370124285266,0.003211016349994639,5.0897357350126816e-05,-0.006319985585291124,2.13588138000487e-05
0.095,0.0001656216779999959,-0.7853331909999997,3.761587299999267e-05,-2.35557257,9.202976449999695e-05,1.57098582,0.786,0.04,0.04,-9.827952499999995,-0.0005135756102409542,0.0030517107999944943,5.466579490013025e-05,-0.006438656151298722,2.2806076200050018e-05
0.0975,0.0001655030489999958,-0.7853219454999997,3.740373999999247e-05,-2.3555814350000004,9.194171974999689e-05,1.57098591,0.786,0.04,0.04,-9.827792749999995,-0.0005701175192390556,0.002892405249994349,5.8434232450133675e-05,-0.00655732671730632,2.4253338600051334e-05
0.1,0.00016538441999999325,-0.7853106999999997,3.7191606999987996e-05,-2.3555903000000002,9.185367499999495e-05,1.570986,0.786,0.04,0.04,-9.827632999999997,-0.0006266594282375727,0.0027330996999947116,6.22026700001795e-05,-0.006675997283313743,2.5700601000070492e-05
0.10250000000000001,0.00016519874699999308,-0.7853004339999996,3.686169834998769e-05,-2.355598655,9.171482824999483e-05,1.570986135,0.785999715,0.04,0.04,-9.827521249999997,-0.0006946260546126196,0.0025877436699945793,6.713618200018398e-05,-0.006789864599708901,2.7638204850072257e-05
0.105,0.00016501307399999291,-0.7852901679999996,3.6531789699987395e-05,-2.3556070100000004,9.15759814999947e-05,1.5709862700000001,0.78599943,0.04,0.04,-9.827409499999996,-0.0007625926809876661,0.002442387639994448,7.206969400018844e-05,-0.0069037319161040596,2.957580870007401e-05
0.1075,0.00016482740099999275,-0.7852799019999996,3.62018810499871e-05,-2.3556153650000002,9.143713474999457e-05,1.570986405,0.785999145,0.04,0.04,-9.827297749999996,-0.000830559307362713,0.0022970316099943156,7.700320600019295e-05,-0.007017599232499218,3.1513412550075774e-05
0.11,0.00016464172799999258,-0.7852696359999995,3.5871972399986794e-05,-2.3556237200000005,9.129828799999444e-05,1.57098654,0.78599886,0.04,0.04,-9.827185999999996,-0.0008985259337377599,0.0021516755799941834,8.193671800019743e-05,-0.0071314665488943765,3.345101640007754e-05
0.1125,0.0001644560549999924,-0.7852593699999996,3.55420637499865e-05,-2.3556320750000004,9.115944124999432e-05,1.570986675,0.785998575,0.04,0.04,-9.827074249999995,-0.0009664925601128068,0.0020063195499940506,8.687023000020192e-05,-0.007245333865289536,3.5388620250079305e-05
0.115,0.00016427038199999224,-0.7852491039999996,3.521215509998619e-05,-2.3556404300000002,9.102059449999419e-05,1.5709868100000002,0.78599829,0.04,0.04,-9.826962499999995,-0.0010344591864878537,0.0018609635199939186,9.180374200020641e-05,-0.007359201181684694,3.7326224100081064e-05
0.11750000000000001,0.00016405572899998836,-0.7852391544999996,3.4831568299979394e-05,-2.3556485000000005,9.085994999999126e-05,1.570986945,0.785998005,0.04,0.04,-9.826877399999999,-0.001103661081291049,0.0017243906314949127,9.762347050032456e-05,-0.007473113224846498,3.944589630010618e-05
0.12,0.0001637831159999881,-0.7852298379999996,3.434962519997896e-05,-2.3556560000000006,9.065570999999108e-05,1.57098708,0.78599772,0.04,0.04,-9.826845599999999,-0.001175333512950069,0.001605384025994805,0.00010521563200033144,-0.007587114721541576,4.192970520010843e-05
0.1225,0.00016351050299998786,-0.7852205214999995,3.386768209997852e-05,-2.3556635000000004,9.04514699999909e-05,1.570987215,0.785997435,0.04,0.04,-9.826813799999998,-0.0012470059446090891,0.0014863774204946965,0.00011280779350033835,-0.007701116218236655,4.441351410011069e-05
0.125,0.0001632378899999876,-0.7852112049999995,3.338573899997808e-05,-2.3556710000000005,9.024722999999071e-05,1.57098735,0.78599715,0.04,0.04,-9.826782,-0.0013186783762681093,0.0013673708149945882,0.00012039995500034525,-0.007815117714931734,4.689732300011295e-05
0.1275,0.00016296527699998737,-0.7852018884999995,3.2903795899977644e-05,-2.3556785000000002,9.004298999999053e-05,1.570987485,0.785996865,0.04,0.04,-9.8267502,-0.0013903508079271295,0.00124836420949448,0.00012799211650035218,-0.007929119211626812,4.938113190011521e-05
0.13,0.0001626926639999871,-0.7851925719999995,3.24218527999772e-05,-2.3556860000000004,8.983874999999034e-05,1.57098762,0.7859965800000001,0.04,0.04,-9.826718399999999,-0.0014620232395861498,0.0011293576039943715,0.00013558427800035907,-0.008043120708321892,5.1864940800117474e-05
0.1325,0.00016242005099998685,-0.7851832554999996,3.1939909699976766e-05,-2.3556935000000006,8.963450999999016e-05,1.570987755,0.785996295,0.04,0.04,-9.826686599999999,-0.00153369567124517,0.001010350998494263,0.000143176439500366,-0.00815712220501697,5.4348749700119735e-05
0.135,0.00016207498099998126,-0.7851745449999995,3.133171019996703e-05,-2.35570029,8.937600499998597e-05,1.5709879,0.78599601,0.04,0.04,-9.826647499999998,-0.001610076450746627,0.0008960273119944999,0.00015167982100044005,-0.008270708099013108,5.723050480015131e-05
0.1375,0.00016169368249998093,-0.7851661374999995,3.0660382499966414e-05,-2.355706725,8.909036749998571e-05,1.57098805,0.785995725,0.04,0.04,-9.826604749999998,-0.0016888114041687888,0.0007840450849943979,0.0001606388125004482,-0.00838408619165982,6.0311233000154116e-05
0.14,0.00016131238399998057,-0.7851577299999996,2.9989054799965805e-05,-2.3557131600000005,8.880472999998545e-05,1.5709882,0.78599544,0.04,0.04,-9.826561999999997,-0.0017675463575909506,0.000672062857994296,0.00016959780400045634,-0.008497464284306535,6.339196120015692e-05
0.14250000000000002,0.00016093108549998023,-0.7851493224999996,2.9317727099965195e-05,-2.3557195950000005,8.85190924999852e-05,1.57098835,0.7859951550000001,0.04,0.04,-9.826519249999997,-0.0018462813110131124,0.000560080630994194,0.0001785567955004645,-0.008610842376953247,6.647268940015973e-05
0.145,0.00016054978699997987,-0.7851409149999995,2.864639939996459e-05,-2.3557260300000005,8.823345499998493e-05,1.5709885000000001,0.78599487,0.04,0.04,-9.826476499999998,-0.001925016264435273,0.00044809840399409335,0.00018751578700047257,-0.00872422046959996,6.95534176001625e-05
0.1475,0.00016016848849997954,-0.7851325074999995,2.797507169996398e-05,-2.3557324650000004,8.794781749998468e-05,1.57098865,0.785994585,0.04,0.04,-9.826433749999998,-0.0020037512178574346,0.0003361161769939913,0.00019647477850048072,-0.008837598562246673,7.263414580016531e-05
0.15,0.000159787189999972,-0.7851240999999995,2.730374399995085e-05,-2.3557389000000004,8.766217999997891e-05,1.5709888,0.7859943,0.04,0.04,-9.826390999999997,-0.002082486171280141,0.00022413394999441013,0.00020543377000056573,-0.008950976654893375,7.57148740002057e-05
0.1525,0.0001592738764999715,-0.7851165549999995,2.6402982149950028e-05,-2.3557443150000004,8.727575149997856e-05,1.57098946,0.7859937300000001,0.0399999985,0.0399999985,-9.826361599999998,-0.0021711977198768466,0.00012169413649431687,0.00021580166200057518,-0.009064135700470523,7.948449640020913e-05
0.155,0.00015876056299997106,-0.7851090099999996,2.550222029994921e-05,-2.3557497300000003,8.68893229999782e-05,1.57099012,0.78599316,0.039999997,0.039999997,-9.826332199999998,-0.0022599092684735525,1.9254322994223614e-05,0.00022616955400058463,-0.00917729474604767,8.325411880021256e-05
0.1575,0.00015824724949997057,-0.7851014649999996,2.4601458449948387e-05,-2.3557551450000003,8.650289449997787e-05,1.57099078,0.78599259,0.0399999955,0.0399999955,-9.826302799999999,-0.002348620817070258,-8.318549050586964e-05,0.00023653744600059406,-0.009290453791624818,8.702374120021599e-05
0.16,0.00015773393599997012,-0.7850939199999996,2.370069659994757e-05,-2.3557605600000002,8.611646599997751e-05,1.57099144,0.78599202,0.039999994,0.039999994,-9.826273399999998,-0.0024373323656669637,-0.0001856253040059629,0.0002469053380006035,-0.009403612837201966,9.079336360021943e-05
0.1625,0.00015722062249996966,-0.7850863749999996,2.2799934749946747e-05,-2.355765975,8.573003749997716e-05,1.5709921,0.78599145,0.0399999925,0.0399999925,-9.826243999999999,-0.0025260439142636695,-0.00028806511750605616,0.00025727323000061293,-0.009516771882779114,9.456298600022286e-05
0.165,0.00015670730899996918,-0.7850788299999996,2.189917289994593e-05,-2.35577139,8.53436089999768e-05,1.57099276,0.78599088,0.039999991,0.039999991,-9.826214599999998,-0.0026147554628603753,-0.00039050493100614936,0.0002676411220006224,-0.009629930928356263,9.833260840022628e-05
0.1675,0.00015614172149995916,-0.7850715624999997,2.0907757549928534e-05,-2.35577658,8.491815299996932e-05,1.57099344,0.785990308,0.0399999899,0.0399999899,-9.826179949999997,-0.0027026931289635594,-0.0004882841130053906,0.0002789212685007986,-0.009742655465386146,0.00010230306350026643
0.17,0.00015547158599995856,-0.7850648499999996,1.9735035199927466e-05,-2.35578132,8.441464199996886e-05,1.57099416,0.785989732,0.0399999896,0.0399999896,-9.826134799999997,-0.002789083030080123,-0.0005767420320054712,0.0002920259240008105,-0.009854510985321738,0.00010667518400027041
0.17250000000000001,0.00015480145049995796,-0.7850581374999996,1.8562312849926398e-05,-2.3557860600000002,8.39111309999684e-05,1.57099488,0.785989156,0.0399999893,0.0399999893,-9.826089649999997,-0.002875472931196687,-0.0006651999510055518,0.00030513057950082246,-0.00996636650525733,0.0001110473045002744
0.17500000000000002,0.00015413131499995733,-0.7850514249999996,1.738959049992533e-05,-2.3557908000000003,8.340761999996793e-05,1.5709956,0.7859885799999999,0.039999989,0.039999989,-9.826044499999997,-0.0029618628323132504,-0.0007536578700056322,0.0003182352350008344,-0.010078222025192922,0.00011541942500027838
0.1775,0.00015346117949995673,-0.7850447124999996,1.6216868149924276e-05,-2.3557955400000004,8.290410899996749e-05,1.57099632,0.7859880039999999,0.0399999887,0.0399999887,-9.825999349999996,-0.0030482527334298134,-0.0008421157890057119,0.0003313398905008462,-0.010190077545128512,0.00011979154550028231
0.18,0.00015279104399995613,-0.7850379999999996,1.5044145799923208e-05,-2.3558002800000004,8.240059799996702e-05,1.57099704,0.7859874279999999,0.0399999884,0.0399999884,-9.825954199999996,-0.0031346426345463772,-0.0009305737080057924,0.0003444445460008581,-0.010301933065064104,0.00012416366600028628
0.1825,0.00015212090849995552,-0.7850312874999995,1.387142344992214e-05,-2.3558050200000005,8.189708699996656e-05,1.57099776,0.785986852,0.0399999881,0.0399999881,-9.825909049999996,-0.0032210325356629406,-0.0010190316270058729,0.00035754920150087005,-0.010413788584999696,0.00012853578650029026
0.185,0.00015132885899995035,-0.7850251049999997,1.2487648869913313e-05,-2.3558092700000004,8.130281999996276e-05,1.57099882,0.7859860879999999,0.0399999876,0.039999987199999996,-9.825932100000003,-0.003314618417067447,-0.0010946815900040306,0.0003715978460008452,-0.01052792165429069,0.00013349576700030582
0.1875,0.0001504758524999612,-0.7850191874999998,1.0998348174932274e-05,-2.3558132750000005,8.06631749999709e-05,1.57100005,0.7859852299999999,0.039999987,0.039999986,-9.825989250000003,-0.0034118022886148445,-0.001163927575003149,0.0003861184850006603,-0.010643193498259042,0.00013874967750023893
0.19,0.0001496228459999721,-0.7850132699999998,9.509047479951237e-06,-2.35581728,8.002352999997905e-05,1.57100128,0.7859843719999999,0.0399999864,0.0399999848,-9.826046400000003,-0.003508986160162242,-0.0012331735600022674,0.00040063912400047547,-0.010758465342227394,0.00014400358800017201
0.1925,0.00014876983949998294,-0.7850073524999999,8.019746784970199e-06,-2.355821285,7.93838849999872e-05,1.57100251,0.7859835139999999,0.0399999858,0.0399999836,-9.826103550000001,-0.00360617003170964,-0.0013024195450013856,0.00041515976300029057,-0.010873737186195748,0.00014925749850010512
0.195,0.0001479168329999938,-0.785001435,6.53044608998916e-06,-2.3558252900000003,7.874423999999534e-05,1.57100374,0.785982656,0.039999985200000004,0.039999982399999995,-9.8261607,-0.0037033539032570372,-0.001371665530000504,0.00042968040200010567,-0.0109890090301641,0.00015451140900003824
0.1975,0.00014706382650000465,-0.7849955175,5.0411453950081225e-06,-2.355829295,7.810459500000349e-05,1.57100497,0.785981798,0.0399999846,0.0399999812,-9.82621785,-0.0038005377748044347,-0.0014409115149996224,0.00044420104099992077,-0.011104280874132452,0.00015976531949997135
0.2,0.0001462108200000155,-0.7849896000000001,3.5518447000270834e-06,-2.3558333,7.746495000001163e-05,1.5710062,0.78598094,0.039999984,0.03999998,-9.826274999999999,-0.0038977216463518326,-0.0015101574999987406,0.0004587216799997359,-0.011219552718100805,0.00016501922999990446
0.2025,0.00014514781350000386,-0.784984485,1.6995220450067286e-06,-2.355836225,7.66690470000029e-05,1.57100749,0.785980079,0.0399999834,0.039999979549999995,-9.8262972,-0.003990472748409603,-0.0015693048099997852,0.0004759883929999373,-0.011336631560697686,0.0001708842899999787
0.20500000000000002,0.0001440848069999884,-0.78497937,-1.5280061002022792e-07,-2.35583915,7.587314399999132e-05,1.57100878,0.7859792179999999,0.0399999828,0.0399999791,-9.826319400000001,-0.0040832238504672925,-0.001628452120000646,0.0004932551060001885,-0.0114537104032946,0.00017674935000006406
0.20750000000000002,0.00014302180049997293,-0.7849742549999998,-2.005123265047185e-06,-2.355842075,7.507724099997972e-05,1.57101007,0.785978357,0.0399999822,0.03999997865,-9.826341600000001,-0.004175974952524982,-0.0016875994300015068,0.0005105218190004398,-0.011570789245891513,0.00018261441000014942
0.21,0.00014195879399995747,-0.7849691399999998,-3.857445920074121e-06,-2.355845,7.428133799996816e-05,1.57101136,0.7859774959999999,0.0399999816,0.0399999782,-9.826363800000001,-0.004268726054582671,-0.0017467467400023667,0.0005277885320006909,-0.011687868088488425,0.0001884794700002347
0.2125,0.000140895787499942,-0.7849640249999997,-5.7097685751010764e-06,-2.3558479250000004,7.348543499995658e-05,1.5710126500000001,0.7859766349999999,0.039999981,0.03999997775,-9.826386000000001,-0.004361477156640361,-0.0018058940500032274,0.0005450552450009422,-0.01180494693108534,0.00019434453000032005
0.215,0.00013983278099992654,-0.7849589099999996,-7.562091230128034e-06,-2.3558508500000004,7.268953199994499e-05,1.57101394,0.785975774,0.039999980399999996,0.039999977299999996,-9.826408200000001,-0.00445422825869805,-0.0018650413600040882,0.0005623219580011934,-0.011922025773682253,0.0002002095900004054
0.2175,0.00013869041249989708,-0.7849540574999997,-9.551448700179096e-06,-2.3558534200000003,7.183472349992305e-05,1.57101541,0.7859748199999999,0.039999979649999996,0.03999997645,-9.826438100000004,-0.004551203805030187,-0.0019164470700028424,0.0005800360750014724,-0.012040231702858707,0.0002063738015005351
0.22,0.00013738931999989588,-0.7849497299999997,-1.1814875800181155e-05,-2.35585528,7.086210399992216e-05,1.57101724,0.7859736799999999,0.0399999786,0.0399999748,-9.826483400000004,-0.004656628239908218,-0.0019523695800028752,0.0005986450000014893,-0.012160691805193441,0.00021313631600054125
0.2225,0.00013608822749989468,-0.7849454024999997,-1.4078302900183217e-05,-2.3558571400000003,6.988948449992127e-05,1.5710190700000002,0.7859725399999999,0.039999977549999996,0.03999997315,-9.826528700000004,-0.004762052674786249,-0.001988292090002908,0.0006172539250015063,-0.012281151907528176,0.0002198988305005474
0.225,0.00013478713499989352,-0.7849410749999997,-1.634173000018528e-05,-2.355859,6.891686499992038e-05,1.5710209000000002,0.7859713999999999,0.0399999765,0.039999971499999995,-9.826574000000004,-0.00486747710966428,-0.0020242146000029404,0.0006358628500015232,-0.01240161200986291,0.00022666134500055356
0.2275,0.00013348604249989232,-0.7849367474999996,-1.8605157100187337e-05,-2.3558608600000004,6.79442454999195e-05,1.5710227300000001,0.7859702599999999,0.03999997545,0.03999996985,-9.826619300000004,-0.004972901544542311,-0.002060137110002973,0.0006544717750015402,-0.012522072112197646,0.00023342385950055972
0.23,0.00013218494999989112,-0.7849324199999996,-2.0868584200189398e-05,-2.35586272,6.697162599991862e-05,1.5710245600000001,0.7859691199999999,0.0399999744,0.0399999682,-9.826664600000004,-0.0050783259794203416,-0.002096059620003006,0.0006730807000015571,-0.01264253221453238,0.00024018637400056588
0.2325,0.00013088385749988996,-0.7849280924999996,-2.3132011300191456e-05,-2.3558645800000004,6.599900649991773e-05,1.57102639,0.7859679799999999,0.03999997335,0.039999966549999995,-9.826709900000004,-0.0051837504142983725,-0.0021319821300030384,0.000691689625001574,-0.012762992316867113,0.00024694888850057203
0.23500000000000001,0.00012940476899986594,-0.7849242849999997,-2.5702449000232894e-05,-2.3558657500000004,6.489435199989991e-05,1.5710282400000002,0.7859666449999999,0.0399999723,0.0399999652,-9.8267342,-0.005282011255629925,-0.002159390620001979,0.00071208355500182,-0.012884820904593164,0.0002541489800006343
0.23750000000000002,0.0001278366824998645,-0.7849207374999997,-2.8426392000235374e-05,-2.3558665750000003,6.372367999989884e-05,1.5710301000000002,0.7859652124999998,0.03999997125,0.039999964,-9.826748,-0.005376690300189606,-0.0021825421000020006,0.0007333699875018393,-0.013007333735014611,0.00026156786000064105
0.24,0.0001262685959998631,-0.7849171899999997,-3.115033500023782e-05,-2.3558674,6.255300799989779e-05,1.5710319600000002,0.7859637799999999,0.0399999702,0.0399999628,-9.826761800000002,-0.005471369344749287,-0.002205693580002021,0.0007546564200018584,-0.013129846565436056,0.0002689867400006477
0.2425,0.00012470050949986168,-0.7849136424999996,-3.387427800024031e-05,-2.355868225,6.138233599989673e-05,1.5710338200000002,0.7859623474999998,0.03999996915,0.0399999616,-9.826775600000001,-0.0055660483893089675,-0.002228845060002042,0.0007759428525018779,-0.013252359395857503,0.00027640562000065446
0.245,0.00012313242299986024,-0.7849100949999996,-3.659822100024278e-05,-2.3558690500000004,6.021166399989566e-05,1.5710356800000003,0.7859609149999999,0.0399999681,0.0399999604,-9.826789400000001,-0.005660727433868648,-0.0022519965400020635,0.0007972292850018972,-0.01337487222627895,0.0002838245000006612
0.2475,0.00012156433649985881,-0.7849065474999997,-3.932216400024527e-05,-2.3558698750000002,5.904099199989459e-05,1.5710375400000003,0.7859594824999998,0.03999996705,0.039999959200000004,-9.8268032,-0.005755406478428329,-0.0022751480200020845,0.0008185157175019166,-0.013497385056700395,0.000291243380000668
0.25,0.00011999624999983042,-0.7849029999999998,-4.204610700029423e-05,-2.3558707,5.787031999987355e-05,1.5710394000000003,0.7859580499999999,0.039999966,0.039999958,-9.826817000000007,-0.0058500855229894075,-0.0022982994999997423,0.0008398021500021685,-0.01361989788712235,0.0002986622600007478
0.2525,0.00011813159549982871,-0.7849002174999997,-4.528115595029717e-05,-2.3558706700000003,5.647995649987228e-05,1.5710418450000003,0.7859563699999998,0.0399999666,0.0399999583,-9.826904750000008,-0.005960119375969063,-0.00229546790499974,0.0008636456025021903,-0.013747991947468952,0.0003068846090007553
0.255,0.00011626694099982701,-0.7848974349999998,-4.851620490030012e-05,-2.35587064,5.5089592999871017e-05,1.5710442900000003,0.7859546899999998,0.0399999672,0.0399999586,-9.826992500000008,-0.006070153228948718,-0.0022926363099997375,0.000887489055002212,-0.013876086007815553,0.00031510695800076276
0.2575,0.00011440228649982532,-0.7848946524999997,-5.175125385030306e-05,-2.35587061,5.369922949986975e-05,1.5710467350000004,0.7859530099999998,0.0399999678,0.0399999589,-9.827080250000009,-0.006180187081928373,-0.0022898047149997347,0.0009113325075022336,-0.014004180068162154,0.00032332930700077026
0.26,0.00011253763199982362,-0.7848918699999997,-5.4986302800306007e-05,-2.35587058,5.230886599986848e-05,1.5710491800000004,0.7859513299999998,0.0399999684,0.039999959200000004,-9.827168000000007,-0.006290220934908028,-0.0022869731199997322,0.0009351759600022553,-0.014132274128508756,0.00033155165600077776
0.2625,0.00011067297749982193,-0.7848890874999997,-5.8221351750308944e-05,-2.35587055,5.091850249986722e-05,1.5710516250000004,0.7859496499999998,0.039999969,0.0399999595,-9.827255750000008,-0.006400254787887683,-0.00228414152499973,0.000959019412502277,-0.014260368188855357,0.00033977400500078526
0.265,0.00010880832299982023,-0.7848863049999997,-6.14564007003119e-05,-2.35587052,4.9528138999865956e-05,1.5710540700000002,0.7859479699999998,0.039999969600000004,0.0399999598,-9.827343500000008,-0.006510288640867339,-0.002281309929999727,0.0009828628650022987,-0.014388462249201959,0.0003479963540007927
0.2675,0.00010683476099978673,-0.7848837824999998,-6.487899000036959e-05,-2.355870125,4.805718984984116e-05,1.5710567000000004,0.7859462024999998,0.03999997,0.0399999599,-9.827423800000005,-0.006614964897753494,-0.0022744214299985402,0.0010074732750025444,-0.014518002001581558,0.0003565338805008922
0.27,0.00010464338399978474,-0.7848817799999998,-6.867666000037306e-05,-2.3558689999999998,4.642506939983967e-05,1.5710597000000004,0.7859442599999997,0.03999997,0.0399999596,-9.827489200000006,-0.00670892596245733,-0.0022594191199985262,0.0010336176000025682,-0.014650433138025888,0.0003657017620009006
0.2725,0.00010245200699978274,-0.7848797774999998,-7.247433000037651e-05,-2.355867875,4.4792948949838184e-05,1.5710627000000004,0.7859423174999998,0.03999997,0.0399999593,-9.827554600000006,-0.006802887027161165,-0.0022444168099985127,0.0010597619250025919,-0.014782864274470219,0.0003748696435009089
0.275,0.00010026062999978074,-0.7848777749999998,-7.627200000037996e-05,-2.3558667499999997,4.31608284998367e-05,1.5710657000000003,0.7859403749999998,0.03999997,0.039999959,-9.827620000000007,-0.006896848091865001,-0.002229414499998499,0.0010859062500026158,-0.01491529541091455,0.0003840375250009173
0.2775,9.806925299977875e-05,-0.7848757724999998,-8.006967000038343e-05,-2.355865625,4.1528708049835213e-05,1.5710687000000003,0.7859384324999997,0.03999997,0.039999958700000005,-9.827685400000007,-0.006990809156568837,-0.0022144121899984855,0.0011120505750026395,-0.01504772654735888,0.0003932054065009256
0.28,9.587787599977675e-05,-0.7848737699999998,-8.386734000038688e-05,-2.3558644999999996,3.9896587599833725e-05,1.5710717000000003,0.7859364899999998,0.03999997,0.0399999584,-9.827750800000006,-0.007084770221272673,-0.0021994098799984715,0.0011381949000026635,-0.01518015768380321,0.000402373288000934
0.28250000000000003,9.368649899977477e-05,-0.7848717674999999,-8.766501000039034e-05,-2.3558633749999998,3.826446714983224e-05,1.5710747000000003,0.7859345474999998,0.03999997,0.0399999581,-9.827816200000006,-0.007178731285976508,-0.002184407569998458,0.0011643392250026872,-0.015312588820247542,0.00041154116950094233
0.28500000000000003,9.125691299973572e-05,-0.7848702899999999,-9.187265800045756e-05,-2.3558615599999997,3.645612329980335e-05,1.5710780700000004,0.7859323999999998,0.03999997,0.039999958,-9.82790740000001,-0.007285492867243025,-0.0021596563199969276,0.001192027310002951,-0.015448065102114565,0.00042117443900102305
0.28750000000000003,8.870822249973339e-05,-0.7848690749999999,-9.628529500046159e-05,-2.3558593999999995,3.455966774980162e-05,1.5710816250000004,0.7859301499999998,0.03999997,0.039999958,-9.828011500000011,-0.007398654706787912,-0.002130030599996901,0.0012204872750029771,-0.01558506395669223,0.00043104040250103206
0.29,8.615953199973113e-05,-0.7848678599999999,-0.0001006979320004655,-2.3558572399999997,3.2663212199799936e-05,1.5710851800000003,0.7859278999999997,0.03999997,0.039999958,-9.828115600000011,-0.007511816546332799,-0.0021004048799968746,0.0012489472400030023,-0.015722062811269893,0.0004409063660010408
0.2925,8.36108414997288e-05,-0.7848666449999999,-0.00010511056900046952,-2.3558550799999995,3.076675664979821e-05,1.5710887350000005,0.7859256499999997,0.03999997,0.039999958,-9.82821970000001,-0.007624978385877687,-0.0020707791599968474,0.0012774072050030284,-0.01585906166584756,0.0004507723295010498
0.295,8.10621509997265e-05,-0.7848654299999999,-0.00010952320600047354,-2.35585292,2.8870301099796483e-05,1.5710922900000004,0.7859233999999997,0.03999997,0.039999958,-9.82832380000001,-0.007738140225422574,-0.0020411534399968206,0.0013058671700030542,-0.015996060520425223,0.0004606382930010588
0.2975,7.851346049972418e-05,-0.7848642149999998,-0.00011393584300047756,-2.3558507599999996,2.697384554979476e-05,1.5710958450000003,0.7859211499999997,0.03999997,0.039999958,-9.82842790000001,-0.007851302064967463,-0.0020115277199967935,0.00133432713500308,-0.016133059375002885,0.0004705042565010678
0.3,7.596476999967948e-05,-0.784863,-0.00011834848000055447,-2.3558485999999994,2.5077389999761713e-05,1.5710994000000005,0.7859188999999996,0.03999997,0.039999958,-9.828532000000006,-0.007964463904510114,-0.0019819019999934855,0.0013627871000033776,-0.016270058229581098,0.00048037022000116755
0.3025,7.30277804996768e-05,-0.7848625694999999,-0.0001234290205005591,-2.3558452699999997,2.2893974999759727e-05,1.5711035250000005,0.7859163199999997,0.039999970450000005,0.0399999583,-9.828599200000006,-0.008057134086276344,-0.0019222121999934313,0.0013937342000034058,-0.016412076726571433,0.0004910683370011773
0.305,7.009079099967413e-05,-0.7848621389999999,-0.00012850956100056372,-2.3558419399999995,2.0710559999757737e-05,1.5711076500000005,0.7859137399999997,0.0399999709,0.0399999586,-9.828666400000007,-0.008149804268042573,-0.0018625223999933769,0.001424681300003434,-0.016554095223561768,0.0005017664540011871
0.3075,6.715380149967145e-05,-0.7848617084999999,-0.00013359010150056834,-2.3558386099999997,1.852714499975575e-05,1.5711117750000005,0.7859111599999997,0.03999997135,0.0399999589,-9.828733600000007,-0.008242474449808803,-0.0018028325999933227,0.001455628400003462,-0.016696113720552103,0.0005124645710011968
0.31,6.421681199966878e-05,-0.7848612779999999,-0.00013867064200057298,-2.3558352799999995,1.6343729999753764e-05,1.5711159000000006,0.7859085799999997,0.0399999718,0.039999959200000004,-9.828800800000007,-0.008335144631575031,-0.0017431427999932683,0.0014865755000034902,-0.016838132217542434,0.0005231626880012065
0.3125,6.127982249966611e-05,-0.7848608475,-0.0001437511825005776,-2.35583195,1.4160314999751775e-05,1.5711200250000006,0.7859059999999998,0.03999997225,0.0399999595,-9.828868000000007,-0.008427814813341261,-0.001683452999993214,0.0015175226000035183,-0.01698015071453277,0.0005338608050012162
0.315,5.834283299966343e-05,-0.784860417,-0.00014883172300058224,-2.3558286199999996,1.1976899999749787e-05,1.5711241500000006,0.7859034199999997,0.039999972700000004,0.0399999598,-9.828935200000007,-0.00852048499510749,-0.00162376319999316,0.0015484697000035465,-0.017122169211523104,0.000544558922001226
0.3175,5.5265993849627555e-05,-0.7848602435,-0.00015415270700064378,-2.3558249099999995,9.690224269723354e-06,1.5711284750000005,0.7859007349999997,0.03999997335,0.0399999603,-9.829019500000014,-0.008619690220815423,-0.0015579768199913474,0.0015802024550036955,-0.017266030237095022,0.0005555784550012941
0.32,5.190945539967029e-05,-0.784860584,-0.00015995457800056993,-2.3558204399999996,7.197027079755097e-06,1.5711332000000005,0.7858978399999997,0.0399999744,0.0399999612,-9.829138000000011,-0.008731965534399989,-0.0014799972799923403,0.0016135065200032714,-0.017413576319828192,0.0005672408200011455
0.3225,4.855291694971303e-05,-0.7848609245,-0.00016575644900049605,-2.3558159699999996,4.703829889786841e-06,1.5711379250000006,0.7858949449999998,0.03999997545,0.0399999621,-9.82925650000001,-0.008844240847984554,-0.001402017739993333,0.0016468105850028475,-0.017561122402561365,0.0005789031850009971
0.325,4.519637849975577e-05,-0.784861265,-0.00017155832000042217,-2.3558114999999997,2.210632699818585e-06,1.5711426500000005,0.7858920499999998,0.0399999765,0.039999963,-9.829375000000008,-0.008956516161569119,-0.0013240381999943258,0.0016801146500024233,-0.017708668485294534,0.0005905655500008486
0.3275,4.1839840049798505e-05,-0.7848616055,-0.00017736019100034832,-2.35580703,-2.8256449014967177e-07,1.5711473750000005,0.7858891549999998,0.039999977549999996,0.0399999639,-9.829493500000007,-0.009068791475153685,-0.0012460586599953188,0.0017134187150019994,-0.017856214568027707,0.0006022279150007001
0.33,3.848330159984124e-05,-0.784861946,-0.00018316206200027444,-2.35580256,-2.775761680117927e-06,1.5711521000000004,0.7858862599999998,0.0399999786,0.039999964799999996,-9.829612000000006,-0.00918106678873825,-0.0011680791199963115,0.0017467227800015753,-0.01800376065076088,0.0006138902800005517
0.3325,3.5126763149883973e-05,-0.7848622865,-0.00018896393300020056,-2.35579809,-5.268958870086184e-06,1.5711568250000003,0.7858833649999999,0.039999979649999996,0.0399999657,-9.829730500000004,-0.009293342102322816,-0.0010900995799973043,0.0017800268450011512,-0.01815130673349405,0.0006255526450004032
0.335,3.1469569099812976e-05,-0.784863157,-0.00019528249400032306,-2.35579278,-7.98423264013883e-06,1.5711619300000004,0.7858801999999998,0.0399999797,0.0399999654,-9.829830500000005,-0.00939061874524193,-0.00099543287999494,0.001814838580001747,-0.018302991986282182,0.0006376878100006078
0.3375,2.766204724970562e-05,-0.7848642925000001,-0.0002018594000005085,-2.3557870499999995,-1.081054470021852e-05,1.5711672250000004,0.7858768999999998,0.03999997925,0.0399999645,-9.829921250000007,-0.009480396052829342,-0.0008924225999920356,0.0018504041500027497,-0.018456746824097512,0.0006500593750009565
0.34,2.3854525399598267e-05,-0.7848654280000001,-0.00020843630600069394,-2.3557813199999993,-1.3636856760298208e-05,1.5711725200000006,0.7858735999999996,0.039999978799999995,0.0399999636,-9.830012000000009,-0.009570173360416753,-0.0007894123199891312,0.0018859697200037525,-0.018610501661912842,0.0006624309400013054
0.3425,2.0047003549490915e-05,-0.7848665635000002,-0.00021501321200087937,-2.3557755899999995,-1.6463168820377895e-05,1.5711778150000006,0.7858702999999996,0.03999997835,0.0399999627,-9.830102750000012,-0.009659950668004163,-0.0006864020399862268,0.0019215352900047553,-0.018764256499728172,0.0006748025050016542
0.34500000000000003,1.623948169938356e-05,-0.7848676990000002,-0.0002215901180010648,-2.355769859999999,-1.9289480880457583e-05,1.5711831100000009,0.7858669999999994,0.0399999779,0.0399999618,-9.830193500000014,-0.009749727975591574,-0.0005833917599833224,0.0019571008600057583,-0.018918011337543502,0.000687174070002003
0.34750000000000003,1.2431959849276206e-05,-0.7848688345000002,-0.00022816702400125025,-2.355764129999999,-2.2115792940537274e-05,1.5711884050000011,0.7858636999999994,0.03999997745,0.0399999609,-9.830284250000018,-0.009839505283178986,-0.00048038147998041804,0.001992666430006761,-0.019071766175358832,0.0006995456350023518
0.35000000000000003,8.624437999063504e-06,-0.7848699700000005,-0.00023474393000161666,-2.3557583999999987,-2.494210500069465e-05,1.5711937000000014,0.7858603999999992,0.039999977,0.03999996,-9.830375000000027,-0.00992928259077102,-0.0003773711999727114,0.002028232000008323,-0.019225521013175494,0.0007119172000029113
0.3525,4.3343287991182205e-06,-0.7848719395000004,-0.0002421498605015222,-2.355751439999999,-2.8124319750654065e-05,1.5711995650000012,0.7858566739999993,0.039999977,0.039999959700000004,-9.830501000000027,-0.010040235938527075,-0.0002523615749743058,0.0020663579500078363,-0.019385381788048148,0.0007252538350027412
0.355,4.421959917284214e-08,-0.7848739090000004,-0.0002495557910014279,-2.3557444799999985,-3.130653450061355e-05,1.5712054300000011,0.7858529479999993,0.039999977,0.0399999594,-9.830627000000025,-0.010151189286283132,-0.00012735194997589742,0.002104483900007351,-0.0195452425629208,0.0007385904700025714
0.3575,-4.245889600772537e-06,-0.7848758785000003,-0.0002569617215013336,-2.3557375199999986,-3.4488749250573035e-05,1.571211295000001,0.7858492219999993,0.039999977,0.0399999591,-9.830753000000023,-0.01026214263403919,-2.3423249774890504e-06,0.0021426098500068654,-0.019705103337793458,0.0007519271050024016
0.36,-8.535998800717915e-06,-0.7848778480000003,-0.00026436765200123935,-2.3557305599999987,-3.767096400053252e-05,1.571217160000001,0.7858454959999994,0.039999977,0.0399999588,-9.83087900000002,-0.010373095981795248,0.00012266730002091926,0.00218073580000638,-0.01986496411266611,0.0007652637400022318
0.3625,-1.2826108000663294e-05,-0.7848798175000002,-0.00027177358250114503,-2.355723599999999,-4.0853178750492005e-05,1.571223025000001,0.7858417699999994,0.039999977,0.0399999585,-9.831005000000019,-0.010484049329551305,0.0002476769250193277,0.0022188617500058946,-0.020024824887538765,0.0007786003750020619
0.365,-1.711621720060867e-05,-0.7848817870000002,-0.0002791795130010507,-2.355716639999999,-4.403539350045149e-05,1.5712288900000009,0.7858380439999995,0.039999977,0.039999958200000005,-9.831131000000019,-0.010595002677307362,0.000372686550017736,0.0022569877000054093,-0.02018468566241142,0.0007919370100018922
0.3675,-2.15777243006423e-05,-0.7848840400000003,-0.0002868798050011082,-2.355709204999999,-4.7344063500476164e-05,1.5712349950000009,0.7858341744999995,0.03999997715,0.0399999581,-9.831249250000013,-0.010697122709836922,0.0005089966450212453,0.002295971320005441,-0.02034695940094434,0.0008055071780018767
0.37,-2.6382027200646675e-05,-0.7848868600000003,-0.00029516882000111573,-2.3557008199999987,-5.09056440004794e-05,1.5712415800000008,0.7858300179999994,0.0399999776,0.0399999584,-9.831352000000013,-0.010781576111924087,0.00066790768002139,0.0023366702800054783,-0.020514059066794894,0.0008195444120018895
0.3725,-3.118633010065105e-05,-0.7848896800000004,-0.0003034578350011233,-2.355692434999999,-5.446722450048265e-05,1.571248165000001,0.7858258614999994,0.039999978049999996,0.039999958700000005,-9.831454750000013,-0.010866029514011255,0.0008268187150215346,0.0023773692400055153,-0.020681158732645446,0.0008335816460019023
0.375,-3.5990633000655425e-05,-0.7848925000000003,-0.0003117468500011308,-2.355684049999999,-5.802880500048589e-05,1.571254750000001,0.7858217049999994,0.0399999785,0.039999959,-9.831557500000013,-0.010950482916098422,0.0009857297500216792,0.0024180682000055523,-0.020848258398495998,0.0008476188800019149
0.3775,-4.0794935900659796e-05,-0.7848953200000004,-0.00032003586500113835,-2.355675664999999,-6.159038550048913e-05,1.5712613350000009,0.7858175484999994,0.03999997895,0.0399999593,-9.831660250000013,-0.011034936318185588,0.001144640785021824,0.0024587671600055897,-0.02101535806434655,0.0008616561140019277
0.38,-4.5599238800664174e-05,-0.7848981400000005,-0.0003283248800011459,-2.3556672799999987,-6.515196600049238e-05,1.571267920000001,0.7858133919999994,0.039999979399999996,0.0399999596,-9.831763000000013,-0.011119389720272755,0.0013035518200219687,0.0024994661200056266,-0.0211824577301971,0.0008756933480019405
0.3825,-5.0403541700668546e-05,-0.7849009600000004,-0.00033661389500115347,-2.355658894999999,-6.871354650049562e-05,1.571274505000001,0.7858092354999994,0.03999997985,0.0399999599,-9.831865750000013,-0.011203843122359922,0.0014624628550221133,0.0025401650800056636,-0.02134955739604765,0.0008897305820019533
0.385,-5.5571729400749374e-05,-0.7849043400000005,-0.00034552765300129224,-2.355649639999999,-7.254340200055523e-05,1.5712816300000012,0.7858047449999993,0.03999998,0.0399999598,-9.831972000000015,-0.011294037476194995,0.001636080890025348,0.0025824430800060324,-0.02152067571880852,0.0009044030240020996
0.3875,-6.092185950075424e-05,-0.7849080000000005,-0.00035475378250130065,-2.3556399499999987,-7.650739500055884e-05,1.5712890250000011,0.7858000874999993,0.03999998,0.0399999595,-9.832080000000015,-0.01138710230590222,0.0018170524250255126,0.0026255106000060715,-0.02169380337002328,0.0009193930700021132
0.39,-6.627198960075912e-05,-0.7849116600000006,-0.00036397991200130906,-2.3556302599999985,-8.047138800056243e-05,1.571296420000001,0.7857954299999993,0.03999998,0.039999959200000004,-9.832188000000015,-0.011480167135609445,0.0019980239600256773,0.002668578120006111,-0.021866931021238045,0.0009343831160021269
0.3925,-7.162211970076399e-05,-0.7849153200000005,-0.00037320604150131747,-2.355620569999999,-8.443538100056604e-05,1.5713038150000012,0.7857907724999994,0.03999998,0.0399999589,-9.832296000000015,-0.01157323196531667,0.0021789954950258423,0.00271164564000615,-0.022040058672452807,0.0009493731620021405
0.395,-7.697224980076885e-05,-0.7849189800000005,-0.0003824321710013259,-2.3556108799999986,-8.839937400056965e-05,1.571311210000001,0.7857861149999994,0.03999998,0.0399999586,-9.832404000000016,-0.011666296795023895,0.002359967030026007,0.002754713160006189,-0.022213186323667568,0.0009643632080021542
0.3975,-8.232237990077372e-05,-0.7849226400000006,-0.0003916583005013343,-2.3556011899999985,-9.236336700057327e-05,1.571318605000001,0.7857814574999994,0.03999998,0.0399999583,-9.832512000000015,-0.011759361624731119,0.002540938565026172,0.0027977806800062286,-0.022386313974882333,0.000979353254002168
0.4,-8.767251000086262e-05,-0.7849263000000006,-0.0004008844300014869,-2.3555914999999983,-9.63273600006388e-05,1.571326000000001,0.7857767999999993,0.03999998,0.039999958,-9.832620000000023,-0.011852426454440639,0.0027219101000292905,0.0028408482000066523,-0.02255944162609809,0.000994343300002281
0.4025,-9.360001350086802e-05,-0.7849308150000006,-0.0004111016155014962,-2.3555803249999983,-0.0001007169045006428,1.5713341900000013,0.7857716699999993,0.0399999806,0.0399999583,-9.832773300000023,-0.011961257923410323,0.0029231786300294737,0.002886560085006694,-0.022739402484175063,0.0010100175650022954
0.405,-9.952751700087341e-05,-0.7849353300000006,-0.00042131880100150553,-2.3555691499999982,-0.0001051064490006468,1.5713423800000013,0.7857665399999992,0.0399999812,0.0399999586,-9.832926600000023,-0.012070089392380006,0.003124447160029657,0.0029322719700067357,-0.022919363342252037,0.0010256918300023095
0.40750000000000003,-0.00010545502050087881,-0.7849398450000007,-0.0004315359865015148,-2.355557974999998,-0.00010949599350065079,1.5713505700000012,0.7857614099999992,0.0399999818,0.0399999589,-9.833079900000023,-0.01217892086134969,0.0033257156900298396,0.002977983855006777,-0.02309932420032901,0.0010413660950023239
0.41000000000000003,-0.00011138252400088421,-0.7849443600000007,-0.0004417531720015241,-2.355546799999998,-0.00011388553800065478,1.5713587600000012,0.7857562799999992,0.0399999824,0.039999959200000004,-9.833233200000022,-0.012287752330319375,0.003526984220030023,0.0030236957400068187,-0.023279285058405985,0.001057040360002338
0.41250000000000003,-0.00011731002750088961,-0.7849488750000007,-0.0004519703575015334,-2.355535624999998,-0.00011827508250065877,1.5713669500000012,0.7857511499999992,0.039999983,0.0399999595,-9.833386500000023,-0.012396583799289058,0.003728252750030206,0.00306940762500686,-0.02345924591648296,0.0010727146250023524
0.41500000000000004,-0.000123237531000895,-0.7849533900000006,-0.0004621875430015427,-2.355524449999998,-0.00012266462700066276,1.5713751400000011,0.7857460199999992,0.039999983600000004,0.0399999598,-9.833539800000022,-0.012505415268258742,0.0039295212800303896,0.003115119510006902,-0.023639206774559933,0.0010883888900023665
0.4175,-0.00012936797500099273,-0.7849582000000008,-0.00047275300000171046,-2.355512764999998,-0.0001272037330007348,1.5713836100000014,0.7857407149999991,0.039999984,0.0399999599,-9.833673300000013,-0.012601995654415062,0.004143350455036291,0.0031616155450072997,-0.023821370862452673,0.0011043697250025203
0.42,-0.00013590430000099868,-0.7849636000000009,-0.0004840150000017207,-2.355500059999998,-0.00013204196200073922,1.5713926400000013,0.7857350599999992,0.039999984,0.0399999596,-9.833767200000013,-0.012674073874961372,0.004382300920036508,0.0032096798800073435,-0.024007941409973945,0.0011209637000025353
0.4225,-0.00014244062500100464,-0.7849690000000008,-0.000495277000001731,-2.355487354999998,-0.00013688019100074363,1.5714016700000013,0.7857294049999991,0.039999984,0.0399999593,-9.833861100000014,-0.012746152095507684,0.004621251385036726,0.0032577442150073872,-0.02419451195749522,0.0011375576750025504
0.425,-0.00014897695000101057,-0.7849744000000008,-0.0005065390000017412,-2.355474649999998,-0.00014171842000074803,1.5714107000000013,0.7857237499999992,0.039999984,0.039999959,-9.833955000000014,-0.012818230316053994,0.004860201850036944,0.003305808550007431,-0.024381082505016496,0.0011541516500025656
0.4275,-0.00015551327500101653,-0.7849798000000009,-0.0005178010000017514,-2.355461944999998,-0.00014655664900075244,1.5714197300000015,0.7857180949999991,0.039999984,0.039999958700000005,-9.834048900000015,-0.012890308536600304,0.005099152315037161,0.003353872885007475,-0.02456765305253777,0.0011707456250025807
0.43,-0.0001620496000010225,-0.7849852000000008,-0.0005290630000017618,-2.355449239999998,-0.00015139487800075685,1.5714287600000014,0.7857124399999992,0.039999984,0.0399999584,-9.834142800000015,-0.012962386757146616,0.005338102780037379,0.0034019372200075186,-0.024754223600059046,0.0011873396000025957
0.4325,-0.00016858592500102842,-0.7849906000000009,-0.000540325000001772,-2.3554365349999977,-0.00015623310700076126,1.5714377900000014,0.7857067849999991,0.039999984,0.0399999581,-9.834236700000014,-0.013034464977692926,0.005577053245037596,0.0034500015550075623,-0.02494079414758032,0.001203933575002611
0.435,-0.0001755489890011357,-0.784996610000001,-0.0005523191900019561,-2.355422859999998,-0.00016138568000084028,1.5714473900000014,0.7857007649999991,0.0399999844,0.039999958200000005,-9.834372200000024,-0.013127685431407375,0.005833623960041997,0.0034996967300079933,-0.025132075883478672,0.0012209751600027322
0.4375,-0.0001827254225011422,-0.785002925000001,-0.0005646794750019673,-2.3554086999999977,-0.0001666954250008451,1.5714572750000015,0.785694562499999,0.039999985,0.0399999585,-9.834528500000024,-0.013231477001698395,0.006099004800042238,0.0035502073250080392,-0.025325713213563895,0.001238240550002748
0.44,-0.00018990185600114876,-0.785009240000001,-0.0005770397600019786,-2.3553945399999976,-0.00017200517000084994,1.5714671600000016,0.785688359999999,0.0399999856,0.0399999588,-9.834684800000025,-0.013335268571989413,0.00636438564004248,0.003600717920008085,-0.025519350543649115,0.0012555059400027636
0.4425,-0.00019707828950115528,-0.785015555000001,-0.0005894000450019898,-2.3553803799999975,-0.00017731491500085476,1.5714770450000015,0.785682157499999,0.039999986200000004,0.0399999591,-9.834841100000025,-0.013439060142280433,0.006629766480042721,0.0036512285150081315,-0.025712987873734338,0.0012727713300027795
0.445,-0.00020425472300116183,-0.785021870000001,-0.000601760330002001,-2.3553662199999974,-0.00018262466000085962,1.5714869300000016,0.785675954999999,0.0399999868,0.0399999594,-9.834997400000026,-0.013542851712571453,0.006895147320042963,0.0037017391100081774,-0.025906625203819558,0.001290036720002795
0.4475,-0.00021143115650116835,-0.785028185000001,-0.0006141206150020123,-2.3553520599999977,-0.00018793440500086445,1.5714968150000017,0.785669752499999,0.0399999874,0.039999959700000004,-9.835153700000026,-0.013646643282862473,0.007160528160043205,0.0037522497050082233,-0.02610026253390478,0.0013073021100028109
0.45,-0.00021860759000128476,-0.7850345000000012,-0.000626480900002212,-2.355337899999997,-0.00019324415000095024,1.5715067000000018,0.7856635499999989,0.039999988,0.03999996,-9.835310000000018,-0.013750434853147177,0.007425909000049403,0.0038027603000086673,-0.0262938998639912,0.0013245675000029093
0.4525,-0.00022645520150118485,-0.785041775000001,-0.00063999257000204,-2.3553220899999974,-0.00019904843300087632,1.5715175450000016,0.785656754999999,0.0399999883,0.0399999615,-9.835418300000017,-0.01381565066986767,0.007727674350045561,0.003855701975007993,-0.02649487191814233,0.0013423386000026832
0.455,-0.00023430281300108492,-0.785049050000001,-0.0006535042400018679,-2.3553062799999975,-0.00020485271600080243,1.5715283900000014,0.7856499599999991,0.0399999886,0.039999963,-9.835526600000014,-0.013880866486588166,0.008029439700041718,0.0039086436500073195,-0.026695843972293454,0.0013601097000024568
0.4575,-0.000242150424500985,-0.7850563250000009,-0.0006670159100016959,-2.355290469999998,-0.00021065699900072853,1.5715392350000015,0.7856431649999991,0.0399999889,0.0399999645,-9.835634900000013,-0.013946082303308661,0.008331205050037876,0.003961585325006645,-0.02689681602644458,0.0013778808000022304
0.46,-0.0002499980360008851,-0.7850636000000007,-0.0006805275800015239,-2.3552746599999983,-0.00021646128200065464,1.5715500800000013,0.7856363699999992,0.0399999892,0.039999966000000005,-9.835743200000012,-0.014011298120029155,0.008632970400034034,0.004014527000005971,-0.027097788080595705,0.0013956519000020043
0.4625,-0.0002578456475007852,-0.7850708750000007,-0.0006940392500013519,-2.3552588499999985,-0.00022226556500058075,1.571560925000001,0.7856295749999993,0.0399999895,0.039999967500000004,-9.835851500000011,-0.01407651393674965,0.008934735750030192,0.004067468675005297,-0.027298760134746834,0.001413423000001778
0.465,-0.00026569325900068527,-0.7850781500000006,-0.0007075509200011799,-2.3552430399999986,-0.00022806984800050685,1.571571770000001,0.7856227799999994,0.039999989799999996,0.039999969,-9.835959800000008,-0.014141729753470144,0.00923650110002635,0.004120410350004623,-0.02749973218889796,0.0014311941000015517
0.4675,-0.00027377488200075434,-0.7850857350000007,-0.0007214639680012984,-2.3552266799999986,-0.00023404641300055773,1.5715829550000011,0.7856157789999993,0.0399999899,0.03999997,-9.836082400000013,-0.01421752744355162,0.00954848650002933,0.004174191435004893,-0.027702915854770346,0.0014492207100016356
0.47000000000000003,-0.0002823245280009954,-0.785093940000001,-0.0007361797720017133,-2.355209219999998,-0.00024036754200073594,1.5715948200000014,0.7856083659999991,0.0399999896,0.03999997,-9.836233600000018,-0.014314488880347549,0.009880912000038704,0.004229651340006457,-0.02791052274408369,0.0014677583400021582
0.47250000000000003,-0.0002908741740012365,-0.7851021450000012,-0.0007508955760021282,-2.3551917599999976,-0.0002466886710009142,1.5716066850000017,0.7856009529999989,0.0399999893,0.03999997,-9.83638480000002,-0.014411450317143477,0.010213337500048075,0.00428511124500802,-0.028118129633397035,0.001486295970002681
0.47500000000000003,-0.0002994238200014775,-0.7851103500000014,-0.0007656113800025431,-2.355174299999997,-0.0002530098000010924,1.5716185500000022,0.7855935399999987,0.039999989,0.03999997,-9.836536000000025,-0.014508411753939406,0.010545763000057449,0.004340571150009584,-0.02832573652271038,0.0015048336000032035
0.47750000000000004,-0.00030797346600171856,-0.7851185550000017,-0.000780327184002958,-2.3551568399999967,-0.00025933092900127066,1.5716304150000024,0.7855861269999985,0.0399999887,0.03999997,-9.83668720000003,-0.014605373190735335,0.010878188500066822,0.004396031055011148,-0.02853334341202372,0.0015233712300037263
0.48,-0.00031652311200195944,-0.7851267600000019,-0.0007950429880033726,-2.3551393799999962,-0.0002656520580014487,1.5716422800000027,0.7855787139999982,0.0399999884,0.03999997,-9.836838400000035,-0.014702334627531262,0.011210614000076186,0.004451490960012711,-0.02874095030133706,0.0015419088600042484
0.4825,-0.00032507275800220054,-0.7851349650000021,-0.0008097587920037875,-2.3551219199999958,-0.00027197318700162697,1.5716541450000032,0.7855713009999981,0.0399999881,0.03999997,-9.836989600000038,-0.01479929606432719,0.01154303950008556,0.004506950865014275,-0.028948557190650405,0.0015604464900047712
0.485,-0.0003341108040023975,-0.7851438170000025,-0.0008253121970041255,-2.355103349999995,-0.0002786537070017719,1.5716666900000034,0.785563476999998,0.0399999882,0.039999969,-9.837112200000028,-0.014864767342818613,0.011897970000094581,0.004564048080014959,-0.029160919599290437,0.001579990710005178
0.4875,-0.00034339305000227933,-0.7851529925000023,-0.0008412844025039221,-2.3550842249999953,-0.00028551392250168457,1.5716795750000032,0.7855554474999981,0.0399999885,0.039999967500000004,-9.837220500000026,-0.014914493542176685,0.01226415300008992,0.004621963950014222,-0.029375659767590958,0.0016000382250049227
0.49,-0.0003526752960021612,-0.7851621680000022,-0.0008572566080037187,-2.3550650999999956,-0.00029237413800159727,1.571692460000003,0.7855474179999982,0.0399999888,0.039999966000000005,-9.837328800000025,-0.014964219741534756,0.012630336000085257,0.004679879820013484,-0.02959039993589148,0.0016200857400046676
0.4925,-0.000361957542002043,-0.7851713435000021,-0.0008732288135035154,-2.355045974999996,-0.0002992343535015099,1.571705345000003,0.7855393884999983,0.0399999891,0.0399999645,-9.837437100000024,-0.01501394594089283,0.012996519000080595,0.004737795690012747,-0.029805140104192,0.0016401332550044123
0.495,-0.0003712397880019248,-0.785180519000002,-0.000889201019003312,-2.3550268499999962,-0.00030609456900142256,1.5717182300000028,0.7855313589999984,0.0399999894,0.039999963,-9.837545400000023,-0.015063672140250901,0.013362702000075933,0.004795711560012009,-0.03001988027249252,0.001660180770004157
0.4975,-0.00038052203400180663,-0.7851896945000018,-0.0009051732245031086,-2.355007724999996,-0.0003129547845013352,1.5717311150000026,0.7855233294999985,0.0399999897,0.0399999615,-9.83765370000002,-0.015113398339608973,0.01372888500007127,0.004853627430011272,-0.03023462044079304,0.001680228285003902
0.5,-0.0003898042800018272,-0.7851988700000019,-0.0009211454300031433,-2.354988599999996,-0.00031981500000135,1.5717440000000025,0.7855152999999985,0.03999999,0.03999996,-9.83776200000003,-0.015163124538974821,0.014095068000072776,0.004911543300010958,-0.030449360609094894,0.0017002758000037087
0.5025000000000001,-0.00039984933600183657,-0.7852090535000018,-0.0009384257255031594,-2.3549676449999963,-0.0003272368095013569,1.5717578750000025,0.7855066194999984,0.03999999075,0.03999996,-9.83793060000003,-0.015255606407316479,0.014495157450073149,0.004971786105011014,-0.030671441927592757,0.0017206639200037276
0.505,-0.0004098943920018455,-0.7852192370000018,-0.0009557060210031747,-2.3549466899999962,-0.0003346586190013635,1.5717717500000026,0.7854979389999984,0.0399999915,0.03999996,-9.83809920000003,-0.015348088275658131,0.014895246900073504,0.005032028910011067,-0.030893523246090612,0.0017410520400037456
0.5075000000000001,-0.00041993944800185483,-0.7852294205000019,-0.0009729863165031909,-2.354925734999996,-0.00034208042850137043,1.5717856250000026,0.7854892584999984,0.03999999225,0.03999996,-9.83826780000003,-0.015440570143999787,0.015295336350073878,0.005092271715011124,-0.03111560456458847,0.0017614401600037648
0.51,-0.00042998450400186374,-0.7852396040000018,-0.0009902666120032062,-2.354904779999996,-0.00034950223800137703,1.5717995000000027,0.7854805779999984,0.039999993000000005,0.03999996,-9.838436400000031,-0.015533052012341439,0.01569542580007423,0.005152514520011177,-0.03133768588308632,0.0017818282800037828
0.5125,-0.00044002956000187266,-0.7852497875000019,-0.0010075469075032217,-2.354883824999996,-0.00035692404750138363,1.5718133750000027,0.7854718974999984,0.039999993750000004,0.03999996,-9.838605000000031,-0.01562553388068309,0.016095515250074587,0.005212757325011231,-0.031559767201584175,0.0018022164000038008
0.515,-0.00045007461600188206,-0.7852599710000019,-0.0010248272030032378,-2.354862869999996,-0.00036434585700139056,1.5718272500000028,0.7854632169999984,0.039999994500000004,0.03999996,-9.838773600000032,-0.015718015749024747,0.01649560470007496,0.005273000130011287,-0.03178184852008204,0.00182260452000382
0.5175,-0.0004603839215020402,-0.785270502000002,-0.001042560570003509,-2.3548412949999955,-0.00037196220350150703,1.5718414950000028,0.7854543009999982,0.03999999525,0.0399999603,-9.838918050000018,-0.015794888325044124,0.01690981925008329,0.005334035370011788,-0.03200630135838524,0.0018431296650039154
0.52,-0.00047122172600205033,-0.7852817280000021,-0.0010612000800035264,-2.3548184799999956,-0.00037996762400151446,1.571856480000003,0.7854449139999983,0.039999996,0.0399999612,-9.839014200000019,-0.015840542316445355,0.017352284000083706,0.0053966554800118464,-0.03223549723629512,0.0018639288600039348
0.5225,-0.00048205953050205994,-0.7852929540000021,-0.001079839590003543,-2.3547956649999957,-0.00038797304450152156,1.571871465000003,0.7854355269999982,0.03999999675,0.0399999621,-9.839110350000018,-0.015886196307846587,0.017794748750084098,0.005459275590011902,-0.032464693114204995,0.0018847280550039532
0.525,-0.0004928973350020701,-0.7853041800000021,-0.0010984791000035602,-2.354772849999996,-0.00039597846500152904,1.571886450000003,0.7854261399999982,0.0399999975,0.039999963,-9.839206500000019,-0.01593185029924782,0.01823721350008451,0.0055218957000119605,-0.032693888992114874,0.0019055272500039726
0.5275,-0.0005037351395020796,-0.7853154060000022,-0.0011171186100035768,-2.3547500349999955,-0.00040398388550153615,1.571901435000003,0.7854167529999981,0.03999999825,0.0399999639,-9.839302650000018,-0.01597750429064905,0.018679678250084902,0.005584515810012017,-0.03292308487002475,0.001926326445003991
0.53,-0.0005145729440020897,-0.7853266320000021,-0.001135758120003594,-2.3547272199999956,-0.00041198930600154363,1.5719164200000029,0.7854073659999982,0.039999999,0.039999964799999996,-9.83939880000002,-0.016023158282050285,0.019122143000085315,0.0056471359200120745,-0.03315228074793463,0.0019471256400040104
0.5325,-0.0005254107485020994,-0.7853378580000021,-0.0011543976300036106,-2.3547044049999957,-0.00041999472650155074,1.5719314050000028,0.7853979789999982,0.03999999975,0.0399999657,-9.839494950000018,-0.016068812273451513,0.01956460775008571,0.005709756030012131,-0.03338147662584451,0.001967924835004029
0.535,-0.0005367967350022695,-0.7853497740000024,-0.0011739769800039024,-2.354680369999995,-0.000428403552001676,1.571947150000003,0.785388124999998,0.04,0.0399999667,-9.83963310000003,-0.016138376668111378,0.02003045950009295,0.005773983210012658,-0.03361522220079722,0.0019891761100041803
0.5375,-0.00054845681250228,-0.7853620350000023,-0.0011940262500039203,-2.3546557249999953,-0.00043701408000168366,1.5719632750000032,0.785378037499998,0.04,0.03999996775,-9.839792250000032,-0.016219896264390115,0.020508004750093373,0.005839013925012715,-0.03385124262426935,0.002010653425004199
0.54,-0.0005601168900022909,-0.7853742960000024,-0.001214075520003939,-2.354631079999995,-0.0004456246080016917,1.5719794000000031,0.785367949999998,0.04,0.0399999688,-9.839951400000032,-0.016301415860668855,0.02098555000009382,0.005904044640012776,-0.03408726304774149,0.0020321307400042194
0.5425,-0.0005717769675023012,-0.7853865570000024,-0.0012341247900039566,-2.354606434999995,-0.0004542351360016993,1.571995525000003,0.7853578624999981,0.04,0.03999996985,-9.840110550000032,-0.016382935456947592,0.021463095250094245,0.005969075355012834,-0.03432328347121362,0.0020536080550042383
0.545,-0.0005834370450023121,-0.7853988180000024,-0.0012541740600039754,-2.3545817899999952,-0.0004628456640017074,1.5720116500000032,0.785347774999998,0.04,0.0399999709,-9.840269700000032,-0.016464455053226336,0.02194064050009469,0.006034106070012895,-0.03455930389468576,0.0020750853700042585
0.5475,-0.0005950971225023225,-0.7854110790000025,-0.0012742233300039932,-2.354557144999995,-0.000471456192001715,1.5720277750000031,0.785337687499998,0.04,0.03999997195,-9.840428850000032,-0.016545974649505073,0.022418185750095115,0.006099136785012952,-0.03479532431815789,0.0020965626850042774
0.55,-0.0006067572000025037,-0.7854233400000027,-0.001294272600004304,-2.3545324999999946,-0.0004800667200018483,1.5720439000000035,0.7853275999999979,0.04,0.039999973,-9.840588000000022,-0.016627494245774383,0.022895731000103614,0.006164167500013468,-0.035031344741631526,0.0021180400000043523
0.5525,-0.0006192686625025147,-0.7854366795000027,-0.001315781475004323,-2.3545058599999944,-0.0004893033645018565,1.5720612250000034,0.7853167849999978,0.04,0.039999975550000004,-9.840697500000022,-0.01666189916432586,0.023413529800104076,0.006231475170013529,-0.035274839587558504,0.0021397911550043716
0.555,-0.0006317801250025264,-0.7854500190000027,-0.001337290350004343,-2.3544792199999947,-0.0004985400090018651,1.5720785500000034,0.7853059699999978,0.04,0.0399999781,-9.840807000000023,-0.016696304082877336,0.023931328600104558,0.006298782840013591,-0.035518334433485496,0.002161542310004392
0.5575,-0.0006442915875025376,-0.7854633585000027,-0.0013587992250043623,-2.3544525799999945,-0.0005077766535018733,1.5720958750000036,0.7852951549999978,0.04,0.03999998065,-9.840916500000022,-0.016730709001428812,0.024449127400105016,0.006366090510013651,-0.03576182927941248,0.0021832934650044115
0.56,-0.0006568030500025492,-0.7854766980000027,-0.0013803081000043824,-2.3544259399999947,-0.0005170132980018819,1.5721132000000035,0.7852843399999978,0.04,0.0399999832,-9.841026000000022,-0.016765113919980288,0.024966926200105502,0.006433398180013714,-0.03600532412533947,0.0022050446200044317
0.5625,-0.0006693145125025603,-0.7854900375000028,-0.0014018169750044014,-2.3543992999999945,-0.0005262499425018901,1.5721305250000035,0.7852735249999978,0.04,0.03999998575,-9.841135500000021,-0.016799518838531764,0.02548472500010596,0.006500705850013774,-0.03624881897126645,0.002226795775004451
0.5650000000000001,-0.000681825975002572,-0.7855033770000027,-0.0014233258500044215,-2.354372659999995,-0.0005354865870018988,1.5721478500000037,0.7852627099999978,0.04,0.0399999883,-9.841245000000022,-0.016833923757083244,0.026002523800106443,0.006568013520013837,-0.03649231381719344,0.0022485469300044716
0.5675,-0.0006946308375027647,-0.7855170890000029,-0.001445337645004752,-2.3543453349999943,-0.0005449393110020408,1.5721655800000038,0.7852516399999976,0.04,0.0399999899,-9.841370350000032,-0.016880499571576363,0.026532228600114276,0.006636099935014379,-0.03673798348759801,0.0022706680250047196
0.5700000000000001,-0.0007080225000027772,-0.785531546000003,-0.0014683552800047735,-2.354316639999994,-0.00055482419400205,1.572184120000004,0.7852400599999976,0.04,0.0399999896,-9.841527400000032,-0.016951417177930188,0.027085745400114793,0.0067057438400144435,-0.03698800280695373,0.0022935290000047413
0.5725,-0.0007214141625027892,-0.785546003000003,-0.001491372915004794,-2.354287944999994,-0.0005647090770020587,1.5722026600000039,0.7852284799999976,0.04,0.0399999893,-9.841684450000033,-0.01702233478428401,0.027639262200115283,0.006775387745014506,-0.03723802212630944,0.0023163899750047617
0.5750000000000001,-0.0007348058250028017,-0.785560460000003,-0.0015143905500048156,-2.354259249999994,-0.000574593960002068,1.572221200000004,0.7852168999999976,0.04,0.039999989,-9.841841500000031,-0.017093252390637838,0.0281927790001158,0.0068450316500145705,-0.03748804144566516,0.002339250950004783
0.5775,-0.0007481974875028135,-0.785574917000003,-0.001537408185004836,-2.3542305549999942,-0.0005844788430020768,1.5722397400000039,0.7852053199999975,0.04,0.0399999887,-9.841998550000032,-0.01716416999699166,0.02874629580011629,0.006914675555014632,-0.03773806076502086,0.0023621119250048033
0.58,-0.0007615891500028255,-0.7855893740000031,-0.0015604258200048564,-2.354201859999994,-0.0005943637260020856,1.572258280000004,0.7851937399999975,0.04,0.0399999884,-9.842155600000032,-0.017235087603345484,0.029299812600116784,0.006984319460014694,-0.03798808008437657,0.0023849729000048232
0.5825,-0.000774980812502838,-0.7856038310000031,-0.0015834434550048779,-2.354173164999994,-0.0006042486090020948,1.5722768200000041,0.7851821599999975,0.04,0.0399999881,-9.842312650000032,-0.01730600520969931,0.0298533294001173,0.007053963365014759,-0.03823809940373229,0.002407833875004845
0.585,-0.0007889781300030432,-0.7856190350000033,-0.0016074992400052297,-2.3541431199999936,-0.0006145789030022457,1.5722962000000043,0.7851700599999973,0.04,0.0399999862,-9.842424600000019,-0.017340143211189193,0.03044142330012883,0.0071251040400152985,-0.03849267698829865,0.0024315828300051487
0.5875,-0.0008032782750030565,-0.7856346125000033,-0.0016320741000052526,-2.3541123999999933,-0.0006251319025022556,1.5723160000000043,0.7851576999999973,0.04,0.0399999835,-9.842514000000019,-0.017355891410264668,0.031046805750129393,0.007196993100015365,-0.03874953370546817,0.002455775775005171
0.59,-0.0008175784200030692,-0.7856501900000034,-0.0016566489600052744,-2.3540816799999935,-0.000635684902002265,1.5723358000000043,0.7851453399999974,0.04,0.0399999808,-9.84260340000002,-0.017371639609340142,0.03165218820012993,0.00726888216001543,-0.03900639042263769,0.0024799687200051925
0.5925,-0.0008318785650030826,-0.7856657675000034,-0.0016812238200052975,-2.3540509599999933,-0.0006462379015022748,1.5723556000000043,0.7851329799999973,0.04,0.0399999781,-9.84269280000002,-0.017387387808415616,0.0322575706501305,0.0073407712200154965,-0.039263247139807216,0.002504161665005215
0.595,-0.0008461787100030953,-0.7856813450000034,-0.0017057986800053193,-2.3540202399999934,-0.0006567909010022842,1.5723754000000043,0.7851206199999973,0.04,0.0399999754,-9.84278220000002,-0.01740313600749109,0.032862953100131036,0.00741266028001556,-0.03952010385697673,0.0025283546100052364
0.5975,-0.0008604788550031086,-0.7856969225000034,-0.0017303735400053422,-2.353989519999993,-0.000667343900502294,1.5723952000000043,0.7851082599999972,0.04,0.039999972700000004,-9.84287160000002,-0.017418884206566565,0.0334683355501316,0.007484549340015627,-0.03977696057414625,0.002552547555005259
0.6,-0.0008747790000033257,-0.7857125000000037,-0.0017549484000057142,-2.353958799999993,-0.0006778969000024536,1.5724150000000046,0.7850958999999971,0.04,0.03999997,-9.842961000000038,-0.01743463240565212,0.03407371800013964,0.007556438400016182,-0.04003381729131732,0.0025767405000054525
0.6025,-0.0008900154690035478,-0.785729210000004,-0.001781128110006096,-2.3539259799999925,-0.0006891380710026175,1.572436060000005,0.7850827299999968,0.0399999985,0.0399999643,-9.84313155000004,-0.017496569920345574,0.034713474000148965,0.007630577490017262,-0.04029776901012839,0.0026017208700058166
0.605,-0.0009052519380037691,-0.7857459200000042,-0.0018073078200064763,-2.353893159999992,-0.0007003792420027808,1.572457120000005,0.7850695599999967,0.039999997,0.0399999586,-9.843302100000043,-0.017558507435039023,0.03535323000015826,0.00770471658001834,-0.040561720728939446,0.0026267012400061794
0.6075,-0.0009204884070039912,-0.7857626300000045,-0.0018334875300068578,-2.3538603399999913,-0.0007116204130029446,1.5724781800000054,0.7850563899999965,0.039999995499999996,0.0399999529,-9.843472650000045,-0.017620444949732476,0.035992986000167586,0.0077788556700194205,-0.04082567244775052,0.0026516816100065435
0.61,-0.0009357248760042126,-0.7857793400000046,-0.0018596672400072382,-2.353827519999991,-0.0007228615840031079,1.5724992400000057,0.7850432199999964,0.039999994,0.039999947200000004,-9.843643200000049,-0.017682382464425925,0.03663274200017688,0.007852994760020498,-0.04108962416656158,0.0026766619800069067
0.6125,-0.0009509613450044347,-0.7857960500000049,-0.00188584695000762,-2.3537946999999906,-0.0007341027550032717,1.572520300000006,0.7850300499999961,0.0399999925,0.039999941500000004,-9.84381375000005,-0.017744319979119377,0.037272498000186206,0.007927133850021579,-0.041353575885372654,0.0027016423500072708
0.615,-0.0009661978140046561,-0.7858127600000051,-0.0019120266600080003,-2.35376187999999,-0.0007453439260034352,1.5725413600000064,0.7850168799999959,0.039999991,0.0399999358,-9.843984300000052,-0.017806257493812826,0.0379122540001955,0.008001272940022655,-0.04161752760418371,0.0027266227200076335
0.6175,-0.0009817555120050394,-0.7858298700000056,-0.0019387569200086574,-2.353728314999989,-0.0007568214345037173,1.5725628800000069,0.7850034314999956,0.0399999895,0.03999993125,-9.844127600000029,-0.01785126375034792,0.038568787800214666,0.008076157650023758,-0.04188376795508938,0.0027515143350076874
0.62,-0.0009979556680048327,-0.7858477800000053,-0.0019665882800083026,-2.35369325999999,-0.0007687716180035649,1.5725853200000066,0.7849894259999958,0.039999988,0.039999929000000004,-9.844216400000027,-0.017862407490614345,0.03925887720020586,0.008152533600022783,-0.042154585570177726,0.0027762284400073725
0.6225,-0.0010141558240046268,-0.7858656900000052,-0.001994419640007949,-2.35365820499999,-0.000780721801503413,1.5726077600000063,0.784975420499996,0.0399999865,0.039999926750000005,-9.844305200000026,-0.017873551230880767,0.03994896660019709,0.008228909550021812,-0.042425403185266095,0.0028009425450070584
0.625,-0.0010303559800044202,-0.7858836000000049,-0.002022251000007594,-2.3536231499999904,-0.0007926719850032606,1.572630200000006,0.7849614149999962,0.039999984999999995,0.0399999245,-9.844394000000024,-0.01788469497114719,0.04063905600018829,0.008305285500020838,-0.04269622080035444,0.002825656650006743
0.6275000000000001,-0.0010465561360042143,-0.7859015100000046,-0.00205008236000724,-2.3535880949999908,-0.0008046221685031087,1.5726526400000058,0.7849474094999963,0.039999983499999996,0.03999992225,-9.844482800000023,-0.017895838711413613,0.04132914540017952,0.008381661450019867,-0.042967038415442804,0.002850370755006429
0.63,-0.0010627562920040078,-0.7859194200000045,-0.002077913720006885,-2.353553039999991,-0.0008165723520029563,1.5726750800000056,0.7849334039999966,0.039999981999999996,0.03999992,-9.844571600000021,-0.017906982451680035,0.04201923480017072,0.008458037400018895,-0.04323785603053116,0.002875084860006114
0.6325000000000001,-0.0010789564480038019,-0.7859373300000042,-0.0021057450800065314,-2.3535179849999914,-0.0008285225355028044,1.5726975200000053,0.7849193984999967,0.0399999805,0.03999991775,-9.84466040000002,-0.017918126191946458,0.04270932420016194,0.008534413350017924,-0.04350867364561952,0.0028997989650058
0.635,-0.0010958169900039713,-0.7859560600000044,-0.0021347082100068217,-2.3534815299999914,-0.000840958467002929,1.5727208700000055,0.7849048239999966,0.03999998,0.039999916600000004,-9.844769000000028,-0.017939797975129113,0.04342955160016986,0.008612201000018133,-0.04378371313220704,0.002924789000005805
0.6375000000000001,-0.0011130077250039875,-0.7859752000000044,-0.002164237225006849,-2.353444374999991,-0.0008536372725029408,1.5727446750000056,0.7848899649999965,0.03999998,0.039999916,-9.844887500000027,-0.017966733779764422,0.04416484800017055,0.008690694500018206,-0.04406086355454196,0.0029499170000058285
0.64,-0.0011301984600040026,-0.7859943400000045,-0.0021937662400068753,-2.3534072199999914,-0.0008663160780029521,1.5727684800000057,0.7848751059999965,0.03999998,0.0399999154,-9.845006000000028,-0.01799366958439973,0.044900144400171205,0.008769188000018276,-0.04433801397687687,0.0029750450000058507
0.6425,-0.0011473891950040179,-0.7860134800000045,-0.0022232952550069016,-2.353370064999991,-0.0008789948835029633,1.5727922850000056,0.7848602469999965,0.03999998,0.0399999148,-9.845124500000027,-0.018020605389035042,0.04563544080017186,0.008847681500018346,-0.04461516439921178,0.003000173000005873
0.645,-0.0011645799300040339,-0.7860326200000045,-0.002252824270006929,-2.3533329099999913,-0.0008916736890029752,1.5728160900000057,0.7848453879999965,0.03999998,0.0399999142,-9.845243000000028,-0.01804754119367035,0.04637073720017254,0.008926175000018419,-0.0448923148215467,0.0030253010000058965
0.6475,-0.0011817706650040492,-0.7860517600000045,-0.0022823532850069555,-2.3532957549999916,-0.0009043524945029864,1.5728398950000058,0.7848305289999965,0.03999998,0.0399999136,-9.845361500000028,-0.01807447699830566,0.047106033600173194,0.009004668500018489,-0.045169465243881615,0.0030504290000059188
0.65,-0.0011989614000043058,-0.7860709000000048,-0.002311882300007395,-2.353258599999991,-0.0009170313000031752,1.572863700000006,0.7848156699999963,0.03999998,0.039999913,-9.845480000000043,-0.01810141280294619,0.04784133000018458,0.00908316200001909,-0.04544661566621824,0.0030755570000060477
0.6525,-0.0012171690900043219,-0.7860912400000049,-0.002343154315007423,-2.3532190899999907,-0.0009304581450031871,1.5728889000000061,0.7847999544999963,0.0399999806,0.039999913,-9.845656550000042,-0.01815042207018699,0.048621880500185274,0.009163886900019161,-0.045730971731312964,0.0031011319100060705
0.655,-0.001235376780004339,-0.7861115800000049,-0.002374426330007452,-2.3531795799999906,-0.0009438849900031996,1.572914100000006,0.7847842389999963,0.0399999812,0.039999913,-9.845833100000043,-0.01819943133742779,0.04940243100018601,0.009244611800019236,-0.0460153277964077,0.0031267068200060946
0.6575,-0.0012535844700043552,-0.7861319200000049,-0.00240569834500748,-2.3531400699999905,-0.0009573118350032115,1.572939300000006,0.7847685234999963,0.0399999818,0.039999913,-9.846009650000042,-0.018248440604668587,0.0501829815001867,0.009325336700019308,-0.04629968386150242,0.003152281730006117
0.66,-0.001271792160004372,-0.7861522600000049,-0.002436970360007509,-2.353100559999991,-0.0009707386800032239,1.572964500000006,0.7847528079999962,0.0399999824,0.039999913,-9.846186200000043,-0.01829744987190939,0.050963532000187425,0.009406061600019383,-0.046584039926597154,0.003177856640006141
0.6625,-0.0012899998500043883,-0.7861726000000049,-0.002468242375007537,-2.3530610499999907,-0.000984165525003236,1.5729897000000062,0.7847370924999962,0.039999983,0.039999913,-9.846362750000043,-0.018346459139150187,0.05174408250018812,0.009486786500019455,-0.04686839599169188,0.0032034315500061635
0.665,-0.0013082075400044052,-0.786192940000005,-0.002499514390007566,-2.3530215399999905,-0.0009975923700032484,1.5730149000000062,0.7847213769999962,0.039999983600000004,0.039999913,-9.846539300000043,-0.01839546840639099,0.05252463300018885,0.00956751140001953,-0.047152752056786616,0.0032290064600061876
0.6675,-0.0013267628900046746,-0.7862136950000053,-0.002531382180008028,-2.35298124999999,-0.0010112748950034465,1.5730405800000065,0.7847053549999959,0.039999984,0.03999991285,-9.846680900000019,-0.018423687200989962,0.05332075890020089,0.009648901600020087,-0.04743918869651454,0.0032547202150063114
0.67,-0.0013460135600046926,-0.7862352800000053,-0.0025644415200080585,-2.3529393999999897,-0.00102546878000346,1.5730672200000064,0.7846887199999959,0.039999984,0.0399999124,-9.846752600000018,-0.018410325050350663,0.054148035600201656,0.009731622400020163,-0.047729786485504355,0.0032807116600063356
0.6725,-0.0013652642300047097,-0.7862568650000054,-0.0025975008600080877,-2.35289754999999,-0.0010396626650034724,1.5730938600000066,0.7846720849999959,0.039999984,0.03999991195,-9.846824300000018,-0.018396962899711367,0.05497531230020239,0.009814343200020238,-0.048020384274494156,0.003306703105006359
0.675,-0.0013845149000047275,-0.7862784500000053,-0.0026305602000081187,-2.35285569999999,-0.0010538565500034858,1.5731205000000066,0.7846554499999959,0.039999984,0.0399999115,-9.846896000000017,-0.018383600749072068,0.055802589000203164,0.009897064000020314,-0.04831098206348396,0.003332694550006383
0.6775,-0.0014037655700047448,-0.7863000350000053,-0.002663619540008148,-2.3528138499999898,-0.0010680504350034984,1.5731471400000065,0.7846388149999959,0.039999984,0.039999911049999996,-9.846967700000018,-0.018370238598432773,0.056629865700203896,0.009979784800020387,-0.048601579852473764,0.003358685995006406
0.68,-0.0014230162400047626,-0.7863216200000054,-0.002696678880008179,-2.3527719999999896,-0.0010822443200035118,1.5731737800000065,0.7846221799999958,0.039999984,0.0399999106,-9.847039400000018,-0.018356876447793474,0.05745714240020467,0.010062505600020465,-0.04889217764146358,0.00338467744000643
0.6825,-0.0014422669100047796,-0.7863432050000053,-0.002729738220008208,-2.35273014999999,-0.0010964382050035243,1.5732004200000067,0.7846055449999958,0.039999984,0.03999991015,-9.847111100000017,-0.018343514297154178,0.058284419100205404,0.010145226400020538,-0.04918277543045337,0.0034106688850064535
0.685,-0.001462229850005064,-0.7863656560000057,-0.002764018040008695,-2.3526867099999893,-0.0011111557300037332,1.573228060000007,0.7845882959999956,0.039999984,0.0399999096,-9.847243900000041,-0.018363838642844854,0.05914357120021809,0.010229374300021148,-0.049477751553132616,0.0034369118300065717
0.6875,-0.001482548925005082,-0.7863885400000057,-0.0027989081000087263,-2.352642474999989,-0.0011261350750037466,1.573256200000007,0.7845707399999956,0.039999984,0.039999909,-9.84740725000004,-0.018401006236681672,0.06001866100021887,0.010314235750021224,-0.0497749168426541,0.003463280525006595
0.6900000000000001,-0.001502868000005101,-0.7864114240000057,-0.0028337981600087586,-2.352598239999989,-0.0011411144200037604,1.5732843400000072,0.7845531839999955,0.039999984,0.0399999084,-9.84757060000004,-0.01843817383051849,0.060893750800219686,0.010399097200021303,-0.0500720821321756,0.0034896492200066197
0.6925,-0.001523187075005119,-0.7864343080000058,-0.0028686882200087897,-2.352554004999989,-0.0011560937650037738,1.5733124800000071,0.7845356279999955,0.039999984,0.0399999078,-9.847733950000041,-0.018475341424355307,0.06176884060022046,0.010483958650021379,-0.05036924742169709,0.003516017915006643
0.6950000000000001,-0.0015435061500051381,-0.7864571920000057,-0.002903578280008822,-2.352509769999989,-0.0011710731100037879,1.5733406200000073,0.7845180719999956,0.039999984,0.039999907200000004,-9.84789730000004,-0.01851250901819213,0.06264393040022129,0.010568820100021458,-0.05066641271121859,0.003542386610006668
0.6975,-0.001563825225005156,-0.7864800760000058,-0.002938468340008853,-2.352465534999989,-0.001186052455003801,1.5733687600000072,0.7845005159999955,0.039999984,0.0399999066,-9.848060650000042,-0.018549676612028946,0.06351902020022206,0.010653681550021533,-0.050963578000740084,0.003568755305006691
0.7000000000000001,-0.0015841443000054534,-0.7865029600000061,-0.002973358400009363,-2.352421299999988,-0.0012010318000040198,1.5733969000000076,0.7844829599999953,0.039999984,0.039999906,-9.84822400000002,-0.018586844205849086,0.06439411000023694,0.010738543000022156,-0.05126074329026318,0.0035951240000068004
0.7025,-0.0016055564850054724,-0.7865271460000062,-0.0030101219150093957,-2.352374604999988,-0.0012168152200040339,1.5734265550000077,0.7844644604999952,0.0399999849,0.0399999066,-9.848298250000019,-0.01855851979925502,0.06532440550023777,0.010825538500022233,-0.051564181037324706,0.003621825605006824
0.705,-0.0016269686700054915,-0.7865513320000062,-0.0030468854300094283,-2.352327909999988,-0.001232598640004048,1.5734562100000078,0.7844459609999952,0.0399999858,0.039999907200000004,-9.84837250000002,-0.018530195392660955,0.06625470100023859,0.010912534000022312,-0.05186761878438623,0.0036485272100068478
0.7075,-0.0016483808550055113,-0.7865755180000062,-0.0030836489450094626,-2.352281214999988,-0.0012483820600040626,1.5734858650000076,0.7844274614999952,0.039999986700000004,0.0399999078,-9.848446750000019,-0.018501870986066888,0.06718499650023946,0.010999529500022392,-0.05217105653144777,0.0036752288150068728
0.71,-0.0016697930400055303,-0.7865997040000062,-0.0031204124600094953,-2.352234519999988,-0.0012641654800040767,1.5735155200000077,0.7844089619999952,0.0399999876,0.0399999084,-9.84852100000002,-0.018473546579472824,0.06811529200024029,0.01108652500002247,-0.05247449427850929,0.0037019304200068964
0.7125,-0.0016912052250055503,-0.7866238900000063,-0.0031571759750095296,-2.352187824999988,-0.0012799489000040912,1.5735451750000078,0.7843904624999952,0.0399999885,0.039999909,-9.848595250000018,-0.018445222172878757,0.06904558750024115,0.01117352050002255,-0.05277793202557083,0.0037286320250069214
0.715,-0.0017126174100055693,-0.7866480760000063,-0.0031939394900095622,-2.352141129999988,-0.0012957323200041052,1.5735748300000079,0.7843719629999951,0.0399999894,0.0399999096,-9.84866950000002,-0.01841689776628469,0.06997588300024198,0.011260516000022628,-0.05308136977263235,0.003755333630006945
0.7175,-0.001734402105005881,-0.7866727000000067,-0.0032313412750100963,-2.3520936299999873,-0.0013117896950043345,1.5736049800000083,0.7843531434999949,0.0399999905,0.03999991015,-9.848768350000038,-0.018406810518361027,0.07092199500025523,0.01134816365002322,-0.053386817686340515,0.003782129530007044
0.72,-0.001756931820005901,-0.7866982000000067,-0.0032700196000101304,-2.3520445199999873,-0.0013283949800043493,1.5736361200000082,0.7843336839999949,0.039999992,0.0399999106,-9.848916400000038,-0.01843319758773537,0.0718997400002561,0.0114371156000233,-0.053696285933337196,0.0038091140200070678
0.7225,-0.001779461535005922,-0.7867237000000067,-0.0033086979250101668,-2.3519954099999874,-0.0013450002650043649,1.5736672600000083,0.7843142244999949,0.0399999935,0.039999911049999996,-9.849064450000037,-0.018459584657109715,0.07287748500025701,0.011526067550023382,-0.05400575418033389,0.003836098510007093
0.725,-0.0018019912500059421,-0.7867492000000068,-0.003347376250010201,-2.351946299999987,-0.0013616055500043796,1.5736984000000083,0.7842947649999948,0.039999995,0.0399999115,-9.849212500000037,-0.018485971726484057,0.07385523000025787,0.011615019500023461,-0.05431522242733057,0.003863083000007117
0.7275,-0.001824520965005963,-0.7867747000000068,-0.0033860545750102372,-2.351897189999987,-0.001378210835004395,1.5737295400000082,0.7842753054999949,0.0399999965,0.03999991195,-9.84936055000004,-0.018512358795858403,0.07483297500025879,0.011703971450023543,-0.054624690674327264,0.003890067490007142
0.73,-0.001847050680005983,-0.7868002000000068,-0.0034247329000102714,-2.351848079999987,-0.0013948161200044097,1.5737606800000083,0.7842558459999949,0.039999998,0.0399999124,-9.84950860000004,-0.01853874586523275,0.07581072000025965,0.011792923400023622,-0.054934158921323945,0.003917051980007166
0.7325,-0.001869580395006004,-0.7868257000000068,-0.0034634112250103077,-2.351798969999987,-0.0014114214050044253,1.5737918200000083,0.7842363864999948,0.0399999995,0.03999991285,-9.849656650000039,-0.01856513293460709,0.07678846500026057,0.011881875350023706,-0.05524362716832064,0.003944036470007191
0.735,-0.0018928710700063293,-0.7868521150000072,-0.003503393470010865,-2.351748259999986,-0.0014285861200046643,1.5738240400000088,0.7842162659999946,0.039999999,0.0399999119,-9.84975980000002,-0.01854523122309482,0.07780406500027662,0.011972164400024321,-0.05555758252748361,0.003971235370007301
0.7375,-0.0019165422250063515,-0.7868789875000072,-0.003544027675010903,-2.351696749999986,-0.0014460305500046807,1.5738568000000088,0.7841958149999946,0.0399999975,0.03999991025,-9.84984050000002,-0.018502185121167025,0.07883859250027758,0.012063122000024407,-0.05587378144272704,0.003998541475007326
0.74,-0.0019402133800063724,-0.7869058600000073,-0.003584661880010939,-2.351645239999986,-0.001463474980004696,1.573889560000009,0.7841753639999945,0.039999996,0.039999908599999995,-9.849921200000022,-0.01845913901923923,0.0798731200002785,0.012154079600024487,-0.05618998035797046,0.004025847580007351
0.7425,-0.0019638845350063946,-0.7869327325000073,-0.003625296085010977,-2.351593729999986,-0.0014809194100047123,1.573922320000009,0.7841549129999945,0.0399999945,0.03999990695,-9.850001900000022,-0.018416092917311437,0.08090764750027947,0.012245037200024572,-0.0565061792732139,0.004053153685007377
0.745,-0.0019875556900064155,-0.7869596050000073,-0.003665930290011013,-2.351542219999986,-0.0014983638400047278,1.573955080000009,0.7841344619999945,0.039999993,0.0399999053,-9.850082600000022,-0.018373046815383643,0.08194217500028039,0.012335994800024652,-0.05682237818845732,0.0040804597900074005
0.7475,-0.0020112268450064373,-0.7869864775000073,-0.0037065644950110507,-2.351490709999986,-0.0015158082700047443,1.573987840000009,0.7841140109999944,0.0399999915,0.039999903649999995,-9.850163300000021,-0.01833000071345585,0.08297670250028136,0.012426952400024737,-0.05713857710370075,0.004107765895007426
0.75,-0.002034898000006776,-0.7870133500000076,-0.0037471987000116313,-2.3514391999999855,-0.0015332527000049933,1.5740206000000094,0.7840935599999941,0.03999999,0.039999902,-9.850244000000044,-0.018286954611543508,0.08401123000029527,0.012517910000025358,-0.05745477601894592,0.0041350720000075175
0.7525000000000001,-0.0020597336050067992,-0.7870415875000076,-0.0037898285950116713,-2.3513849149999855,-0.0015515534200050104,1.5740549650000095,0.7840721159999942,0.03999999075,0.0399999017,-9.850408250000045,-0.018300543911758765,0.08509336675029627,0.012610848800025444,-0.0577773759142447,0.004162624255007543
0.755,-0.0020845692100068215,-0.7870698250000077,-0.003832458490011709,-2.3513306299999854,-0.0015698541400050265,1.5740893300000096,0.7840506719999941,0.0399999915,0.039999901399999996,-9.850572500000045,-0.01831413321197402,0.08617550350029723,0.012703787600025527,-0.05809997580954346,0.004190176510007568
0.7575000000000001,-0.0021094048150068446,-0.7870980625000077,-0.003875088385011749,-2.351276344999985,-0.0015881548600050438,1.5741236950000095,0.7840292279999941,0.03999999225,0.0399999011,-9.850736750000046,-0.01832772251218928,0.08725764025029824,0.012796726400025615,-0.05842257570484223,0.004217728765007593
0.76,-0.002134240420006867,-0.7871263000000077,-0.003917718280011787,-2.351222059999985,-0.00160645558000506,1.5741580600000096,0.784007783999994,0.039999993000000005,0.039999900799999995,-9.850901000000045,-0.01834131181240454,0.0883397770002992,0.012889665200025697,-0.058745175600140996,0.004245281020007618
0.7625000000000001,-0.00215907602500689,-0.7871545375000077,-0.003960348175011827,-2.351167774999985,-0.001624756300005077,1.5741924250000094,0.7839863399999941,0.039999993750000004,0.0399999005,-9.851065250000046,-0.018354901112619795,0.08942191375030022,0.012982604000025783,-0.05906777549543977,0.004272833275007644
0.765,-0.002183911630006912,-0.7871827750000078,-0.004002978070011864,-2.351113489999985,-0.0016430570200050934,1.5742267900000095,0.7839648959999941,0.039999994500000004,0.0399999002,-9.851229500000045,-0.018368490412835052,0.09050405050030116,0.013075542800025866,-0.059390375390738534,0.004300385530007667
0.7675000000000001,-0.002209142990007148,-0.7872114800000081,-0.004046286050012269,-2.3510583449999842,-0.0016616486950052668,1.5742617150000098,0.7839431119999939,0.039999994750000004,0.0399998995,-9.85135160000001,-0.018358186073585255,0.09160559075031324,0.013169084050026026,-0.059714686125606826,0.004328007250007626
0.77,-0.0022351658600068165,-0.7872411200000077,-0.004090950200011699,-2.351001479999985,-0.0016808222800050224,1.5742977600000094,0.7839206479999942,0.039999994000000004,0.039999898,-9.85138940000001,-0.018300094455465325,0.0927459380002987,0.013263830200024819,-0.06004241853960984,0.004355767900007271
0.7725,-0.0022611887300064844,-0.7872707600000073,-0.00413561435001113,-2.3509446149999857,-0.0016999958650047778,1.5743338050000089,0.7838981839999944,0.039999993250000004,0.0399998965,-9.851427200000009,-0.018242002837345395,0.09388628525028415,0.01335857635002361,-0.06037015095361287,0.004383528550006917
0.775,-0.0022872116000061536,-0.787300400000007,-0.004180278500010562,-2.3508877499999867,-0.001719169450004534,1.5743698500000085,0.7838757199999947,0.0399999925,0.039999895,-9.85146500000001,-0.01818391121922546,0.09502663250026967,0.013453322500022406,-0.060697883367615904,0.004411289200006565
0.7775,-0.002313234470005822,-0.7873300400000066,-0.004224942650009993,-2.3508308849999873,-0.0017383430350042897,1.574405895000008,0.783853255999995,0.03999999175,0.0399998935,-9.85150280000001,-0.018125819601105535,0.09616697975025512,0.013548068650021197,-0.06102561578161892,0.004439049850006211
0.78,-0.002339257340005491,-0.7873596800000062,-0.004269606800009425,-2.3507740199999883,-0.001757516620004046,1.5744419400000076,0.7838307919999953,0.039999991,0.039999892,-9.851540600000009,-0.0180677279829856,0.09730732700024063,0.013642814800019993,-0.06135334819562196,0.004466810500005858
0.7825,-0.002365280210005159,-0.7873893200000058,-0.004314270950008855,-2.350717154999989,-0.0017766902050038013,1.574477985000007,0.7838083279999956,0.03999999025,0.0399998905,-9.851578400000008,-0.01800963636486567,0.09844767425022609,0.013737560950018783,-0.061681080609624975,0.004494571150005504
0.785,-0.0023921093500055483,-0.7874199040000063,-0.004360316700009522,-2.350658549999988,-0.0017964567900040876,1.5745151200000076,0.7837851659999953,0.03999999,0.0399998897,-9.851690100000031,-0.01799223795533237,0.0996219230002427,0.013833607400019701,-0.062012648582526426,0.004522259030005633
0.7875,-0.002419341625005944,-0.7874509600000068,-0.004407053250010201,-2.350599074999987,-0.0018165198750043792,1.5745528000000082,0.783761654999995,0.03999999,0.039999889250000004,-9.851838750000033,-0.01799518615007462,0.10081312250026,0.013930304000021106,-0.06234613433487539,0.004549910525006035
0.79,-0.002446573900006341,-0.7874820160000072,-0.004453789800010883,-2.350539599999986,-0.0018365829600046717,1.5745904800000088,0.7837381439999945,0.03999999,0.0399998888,-9.851987400000034,-0.017998134344816865,0.10200432200027736,0.014027000600022516,-0.06267962008722437,0.004577562020006439
0.7925,-0.002473806175006737,-0.7875130720000076,-0.004500526350011562,-2.3504801249999856,-0.0018566460450049633,1.5746281600000094,0.7837146329999942,0.03999999,0.03999988835,-9.852136050000038,-0.018001082539559114,0.10319552150029467,0.01412369720002392,-0.06301310583957334,0.0046052135150068405
0.795,-0.0025010384500071337,-0.7875441280000082,-0.0045472629000122425,-2.3504206499999847,-0.0018767091300052555,1.57466584000001,0.7836911219999938,0.03999999,0.039999887899999996,-9.85228470000004,-0.018004030734301363,0.10438672100031203,0.01422039380002533,-0.06334659159192232,0.004632865010007243
0.7975,-0.0025282707250075293,-0.7875751840000086,-0.004593999450012922,-2.3503611749999838,-0.0018967722150055471,1.5747035200000106,0.7836676109999935,0.03999999,0.03999988745,-9.852433350000041,-0.018006978929043613,0.10557792050032934,0.014317090400026735,-0.06368007734427128,0.004660516505007645
0.8,-0.002555503000008285,-0.7876062400000094,-0.004640736000014217,-2.350301699999982,-0.0019168353000061028,1.5747412000000116,0.7836440999999928,0.03999999,0.039999887,-9.852582000000016,-0.018009927123763488,0.10676912000036515,0.014413787000028683,-0.064013563096622,0.004688168000008143
0.8025,-0.00258396649000831,-0.7876387390000095,-0.004689582000014261,-2.350239344999982,-0.0019378033050061216,1.5747805750000115,0.7836195299999927,0.0399999897,0.03999988595,-9.852639900000018,-0.017936014663406472,0.10802369450036627,0.01451233400002877,-0.06435302346954712,0.004716145850008169
0.805,-0.0026124299800083365,-0.7876712380000095,-0.004738428000014306,-2.350176989999982,-0.001958771310006141,1.5748199500000115,0.7835949599999927,0.0399999894,0.0399998849,-9.852697800000017,-0.017862102203049453,0.10927826900036743,0.014610881000028863,-0.06469248384247225,0.004744123700008194
0.8075,-0.0026408934700083617,-0.7877037370000095,-0.004787274000014349,-2.350114634999982,-0.00197973931500616,1.5748593250000116,0.7835703899999927,0.0399999891,0.03999988385,-9.852755700000017,-0.017788189742692438,0.11053284350036854,0.014709428000028951,-0.06503194421539737,0.0047721015500082195
0.81,-0.0026693569600083882,-0.7877362360000095,-0.004836120000014395,-2.3500522799999817,-0.0020007073200061795,1.5748987000000116,0.7835458199999927,0.0399999888,0.0399998828,-9.852813600000017,-0.01771427728233542,0.11178741800036972,0.014807975000029042,-0.0653714045883225,0.004800079400008245
0.8125,-0.0026978204500084134,-0.7877687350000097,-0.004884966000014438,-2.349989924999982,-0.002021675325006198,1.5749380750000115,0.7835212499999927,0.0399999885,0.03999988175,-9.852871500000017,-0.017640364821978404,0.11304199250037084,0.01490652200002913,-0.06571086496124762,0.0048280572500082695
0.8150000000000001,-0.00272628394000844,-0.7878012340000097,-0.004933812000014483,-2.3499275699999815,-0.0020426433300062175,1.5749774500000115,0.7834966799999927,0.0399999882,0.039999880700000004,-9.852929400000018,-0.017566452361621385,0.114296567000372,0.015005069000029223,-0.06605032533417275,0.004856035100008296
0.8175,-0.0027551647850088375,-0.7878342200000101,-0.004983373150015165,-2.3498643699999806,-0.00206391814000651,1.575017405000012,0.7834717499999924,0.0399999876,0.0399998795,-9.853008250000036,-0.017513466160741103,0.11556822200038835,0.015104212250029841,-0.06639143191288222,0.004883977230008289
0.8200000000000001,-0.0027848803400088652,-0.7878681800000101,-0.005034364600015212,-2.3497994799999806,-0.0020858065600065302,1.5750585200000122,0.7834460999999924,0.0399999864,0.039999878,-9.853129000000036,-0.017502332478758337,0.11687403800038958,0.015204548000029934,-0.066735830903156,0.004911847920008315
0.8225,-0.0028145958950088917,-0.7879021400000101,-0.005085356050015258,-2.3497345899999806,-0.0021076949800065497,1.5750996350000122,0.7834204499999924,0.0399999852,0.0399998765,-9.853249750000037,-0.017491198796775572,0.11817985400039074,0.015304883750030024,-0.06708022989342978,0.00493971861000834
0.8250000000000001,-0.0028443114500089194,-0.7879361000000101,-0.0051363475000153055,-2.3496696999999807,-0.00212958340000657,1.5751407500000123,0.7833947999999923,0.039999983999999995,0.039999875,-9.853370500000036,-0.017480065114792807,0.11948567000039195,0.015405219500030118,-0.06742462888370357,0.004967589300008365
0.8275,-0.002874027005008946,-0.7879700600000102,-0.005187338950015351,-2.3496048099999802,-0.0021514718200065894,1.5751818650000124,0.7833691499999923,0.0399999828,0.0399998735,-9.853491250000037,-0.01746893143281004,0.12079148600039312,0.015505555250030206,-0.06776902787397734,0.00499545999000839
0.8300000000000001,-0.0029037425600089736,-0.7880040200000102,-0.005238330400015399,-2.3495399199999802,-0.00217336024000661,1.5752229800000124,0.7833434999999922,0.0399999816,0.039999872,-9.853612000000037,-0.017457797750827276,0.12209730200039434,0.015605891000030299,-0.06811342686425115,0.005023330680008416
0.8325,-0.002933458115009,-0.7880379800000102,-0.005289321850015444,-2.3494750299999803,-0.0021952486600066295,1.5752640950000125,0.7833178499999922,0.039999980399999996,0.0399998705,-9.853732750000036,-0.01744666406884451,0.1234031180003955,0.01570622675003039,-0.06845782585452492,0.0050512013700084405
0.835,-0.002964022030009413,-0.7880729400000107,-0.005341766940016151,-2.349408159999979,-0.0022177609800069333,1.575306350000013,0.7832914639999918,0.039999979299999995,0.0399998684,-9.853820200000023,-0.0173847500234577,0.1247516020004161,0.015807769900031028,-0.06880655586730167,0.005079068940008464
