rsonawane2002/My_IMU/logs_incomplete/traj_257/clean_257.csv
time,j1,j2,j3,j4,j5,j6,j7,gripper1,gripper2,imu_ax,imu_ay,imu_az,imu_gx,imu_gy,imu_gz,quat_x,quat_y,quat_z,quat_w
67.3333333333308,0.00016700293,-0.785875,4.0107683e-05,-2.3551247,9.29385e-05,1.570997,0.786,0.04,0.04,0.0,-0.0,0.0,2.875329272945135e-08,-0.0011641195053377316,4.421952117202833e-08,0.9999995971961153,0.00020320632366974898,0.0008736418299892524,3.263050917662294e-05
67.34999999999746,0.00016700423,-0.78576016,4.0124312e-05,-2.3552213,9.298346e-05,1.5709941,0.786,0.04,0.04,-0.29199846037168964,-5.20895308965476e-05,0.02012840473437638,-3.05286476904339e-07,-0.0022381748924279197,2.3176950527192677e-07,0.9999996850592765,0.000203204537064801,0.0007665025180915971,3.260603712999186e-05
67.36666666666413,0.00016699647,-0.7856541,4.0207386e-05,-2.35531,9.309061e-05,1.5709913,0.786,0.04,0.04,0.02313109738310004,-0.00011516107268517029,-0.0015688823368442684,-2.483107980583151e-06,-0.0032241411260383454,1.2857734565160873e-06,0.9999997559102153,0.0002031833797332331,0.0006677078408859523,3.2592378066076e-05
67.3833333333308,0.00016696737,-0.78555655,4.04673e-05,-2.355391,9.336745e-05,1.5709884,0.786,0.04,0.04,0.02232898165446251,-0.00031224508287894357,-0.001457360406753594,-7.89626656686253e-06,-0.004127125154748795,3.998197889849736e-06,0.9999998124003528,0.0002031099519766031,0.0005769597699074414,3.2604148767081175e-05
67.39999999999746,0.00016690105,-0.78546643,4.1062496e-05,-2.3554654,9.398033e-05,1.5709856,0.786,0.04,0.039999995,0.019586676712335382,-0.0006059794142809934,-0.0012951495178326056,-1.8018529890106642e-05,-0.004948652744078931,9.855710845209999e-06,0.999999857214816,0.00020293618348903088,0.0004932748167563724,3.266815068007801e-05
67.41666666666413,0.00016677871,-0.7853829,4.2194606e-05,-2.3555338,9.5112475e-05,1.5709862,0.786,0.04,0.039999995,0.01854490011554688,-0.0009605203405696136,0.001444468362721274,-3.414547762867426e-05,-0.005694180763149701,1.7931920058416825e-05,0.9999998917408167,0.00020260026642211304,0.0004176066446507399,3.2805140070881226e-05
67.4333333333308,0.0001665787,-0.7853054,4.4104236e-05,-2.3555996,9.6996904e-05,1.570987,0.786,0.04,0.039999995,0.011123928456369114,-0.0013938141765499799,-0.002065297247222375,-5.741128739905166e-05,-0.006352070817007577,2.9623460344368972e-05,0.9999999190674765,0.00020202801586499078,0.00034634915607613295,3.3045169875099826e-05
67.44999999999746,0.00016627673,-0.7852332,4.7066882e-05,-2.3556588,9.988851e-05,1.5709879,0.786,0.04,0.04,0.017315300555575952,-0.0018831242992130997,3.0259067251847682e-06,-8.879769246090697e-05,-0.006952534707201476,4.4043381519191997e-05,0.9999999396854904,0.00020113405148708974,0.00028117126199835095,3.341901050835199e-05
67.46666666666412,0.00016584592,-0.78516555,5.1388535e-05,-2.355717,0.00010409725,1.5709924,0.786,0.04,0.04,0.007726163935628527,-0.0024456336960444855,0.00040831475800473527,-0.00012915358196389552,-0.00747984136330568,6.435973332263604e-05,0.99999995515602,0.00019982391756408037,0.00022046360879139678,3.3972891205021726e-05
67.48333333333079,0.00016525746,-0.78510165,5.7403075e-05,-2.3557742,0.00010996111,1.5709971,0.786,0.04,0.039999995,0.005886130626708841,-0.0030597478719671697,-0.0014588016374883495,-0.0001789269501762095,-0.007944660941385772,9.145647995412724e-05,0.9999999666262989,0.00019799400125305512,0.00016228901131557064,3.475706316402003e-05
67.49999999999746,0.00016448114,-0.7850409,6.54692e-05,-2.3558269,0.0001178024,1.5710056,0.7860014,0.04,0.04,0.012362521493303191,-0.0036913421705079296,0.002970907469235229,-0.0002387214168613113,-0.008363314962882864,0.00012153151256970903,0.9999999740794274,0.00019621805045051666,0.00010980645721942047,3.580730667579093e-05
67.51666666666412,0.00016348476,-0.7849823,7.596666e-05,-2.355878,0.00012799015,1.5710155,0.7860033,0.039999995,0.04,0.005256405223685867,-0.004378577486604,0.000471721858774643,-0.00031561694965994845,-0.008703586171436701,0.00015680338879387883,0.9999999787090497,0.00019396087881716297,5.982706267315819e-05,3.717257386436887e-05
67.53333333333079,0.00016223457,-0.7849256,8.929436e-05,-2.3559294,0.00014091907,1.5710279,0.7860052,0.03999999,0.04,0.002835542091927934,-0.005106405460848074,0.0007999964181104602,-0.0004059017816534344,-0.008993139035713955,0.0001991334818372424,0.9999999809626541,0.00019083034100167803,1.2022948280335094e-05,3.8909139614928494e-05
67.54999999999745,0.00016069574,-0.78486997,0.00010586755,-2.3559806,0.00015699405,1.5710441,0.7860071,0.039999988,0.03999999,0.0024596563174217323,-0.005860104468712283,0.0021827524659734365,-0.0005074177550898405,-0.009233792942648485,0.00024889139280483813,0.9999999811738584,0.00018669729698280314,-3.330794091951408e-05,4.107290238816617e-05
67.56666666666412,0.00015883258,-0.7848147,0.00012611605,-2.3560348,0.00017662218,1.5710644,0.786009,0.039999984,0.03999999,-0.0031838032540365546,-0.006630805159141848,0.0015151774085397918,-0.0006203888718265584,-0.009418116608003884,0.00030342650093184394,0.9999999795549929,0.00018142808500546005,-7.786443323066074e-05,4.371491317351432e-05
67.58333333333078,0.00015660813,-0.7847594,0.00015048157,-2.356092,0.00020023517,1.5710903,0.7860109,0.03999998,0.03999999,-0.003522545690937129,-0.007432927122021942,0.002886369511601039,-0.0007449684104491161,-0.009560774418429683,0.0003646343865278633,0.9999999762704982,0.00017488549292944832,-0.00012114001347326044,4.6895251901724466e-05
67.59999999999745,0.00015398474,-0.78470296,0.000179416,-2.3561502,0.00022827054,1.5711218,0.78601474,0.039999977,0.039999988,-0.0011393250531011034,-0.008251049239962482,0.004277419259990367,-0.0008815119949082267,-0.009655925592818793,0.00043353318212196665,0.9999999713853133,0.00016788258840923264,-0.00016271765231599283,5.067321556785986e-05
67.61666666666412,0.00015092423,-0.7846453,0.00021338035,-2.3562114,0.0002611733,1.5711575,0.78601855,0.039999973,0.039999984,-0.005267769539174516,-0.009083143633276392,0.0023679637001228215,-0.001038255562776188,-0.009696813981448928,0.0005094022126174557,0.9999999649090762,0.0001593225068490762,-0.00020435583929236532,5.5107860889524435e-05
67.63333333333078,0.00014738785,-0.78458554,0.00025284206,-2.3562772,0.0002993949,1.5712001,0.78602237,0.039999966,0.03999998,-0.00784870092738199,-0.0099276077090642,0.004393290954429752,-0.0012069273558398676,-0.009697732976867846,0.000591495044758893,0.9999999568620176,0.0001490603335795316,-0.00024581639597070067,6.026009736465633e-05
67.64999999999745,0.00014333644,-0.7845232,0.00029827448,-2.3563488,0.00034339368,1.571249,0.7860264,0.039999958,0.039999973,-0.010601544325616885,-0.010782501468564803,0.003466287777209587,-0.0013874200391679452,-0.009653927117283951,0.0006816232324587739,0.9999999468507923,0.0001370685950429476,-0.0002883215197318971,6.619149633616136e-05
67.66666666666411,0.00013873048,-0.7844575,0.00035015488,-2.356423,0.00039363047,1.571305,0.78603214,0.039999947,0.03999996,-0.005892667669415985,-0.011645751658305838,0.006003608057691956,-0.0015801389632949673,-0.009574693375807205,0.0007790035365558175,0.9999999351339458,0.00012391428785368466,-0.0003302324950148404,7.296473546998168e-05
67.68333333333078,0.00013353018,-0.7843881,0.0004089637,-2.3565042,0.00045056932,1.5713686,0.78603786,0.039999943,0.03999996,-0.013874537782676555,-0.012510204528706726,0.004427555857344778,-0.0017922708763903792,-0.009445532495811784,0.0008828298416831983,0.9999999209811502,0.00010861499188523074,-0.0003738146803073769,8.064156322627544e-05
67.69999999999744,0.00012769582,-0.78431463,0.0004751833,-2.356593,0.0005146773,1.57144,0.78604496,0.03999994,0.039999958,-0.014631124159825148,-0.013380614255369492,0.0048133042056086595,-0.0020153439661415207,-0.009281236107225406,0.000994864185401735,0.9999999039372401,9.170724966011254e-05,-0.000419217665114421,8.928516290785092e-05
67.71666666666411,0.00012118739,-0.7842364,0.00054929696,-2.3566892,0.00058642006,1.57152,0.7860526,0.039999936,0.039999958,-0.015538930224545666,-0.014250220697146565,0.005598705334342036,-0.0022556510216033146,-0.009084335979626962,0.0011134155159968546,0.9999998836406374,7.262505585589995e-05,-0.0004665314461010372,9.895818603385073e-05
67.73333333333078,0.000113965056,-0.78415275,0.0006317878,-2.3567932,0.00066626543,1.5716089,0.7860608,0.039999936,0.039999958,-0.016089647449168964,-0.015120991957355478,0.006189563752734273,-0.0025087529608261872,-0.008853318255352002,0.001240219917235854,0.9999998596029959,5.124965875687034e-05,-0.0005158759654718481,0.0001097244235013535
67.74999999999744,0.00010598911,-0.7840633,0.0007231376,-2.356905,0.00075467816,1.5717076,0.78607035,0.039999936,0.03999996,-0.016763799160224302,-0.015987190817124113,0.006959369285253203,-0.00277537986445746,-0.008587206210516842,0.0013735531729845824,0.9999998313611925,2.7790992189399667e-05,-0.0005671925137896504,0.00012164661810166793
67.76666666666411,9.7219825e-05,-0.78396726,0.0008238269,-2.3570247,0.000852123,1.5718164,0.7860804,0.039999936,0.039999966,-0.017448262490837863,-0.01685153172230296,0.0076136967154916135,-0.0030576039044504398,-0.008283965546769013,0.0015142766720730502,0.9999997983046064,1.7146286760260189e-06,-0.0006206608541936648,0.0001347883920691817
67.78333333333077,8.761773e-05,-0.7838648,0.0009343338,-2.3571532,0.0009590623,1.5719358,0.78609186,0.039999936,0.039999966,-0.018831065869839847,-0.017709133331940234,0.007364677189491964,-0.003351982564662348,-0.007942819013523129,0.0016632171279912147,0.9999997596710823,-2.6707698669514743e-05,-0.0006765206037306794,0.00014921242927949893
67.79999999999744,7.714373e-05,-0.78375494,0.0010551331,-2.357294,0.0010759542,1.5720664,0.78610426,0.03999994,0.039999973,-0.025706558087801312,-0.01855485938011752,0.006885783923848976,-0.0036618733814811084,-0.0075655708821987635,0.0018186404541726472,0.9999997134136548,-5.782724645849475e-05,-0.00073662078934539,0.0001649800913915207
67.8166666666641,6.57589e-05,-0.7836373,0.0011866956,-2.357445,0.0012032537,1.5722089,0.7861176,0.039999947,0.039999984,-0.02197662101359743,-0.019401068198019813,0.008528968261445335,-0.003985165831475012,-0.007167026491922965,0.0019813772360828515,0.9999996594044906,-9.178719494667398e-05,-0.0007997410063614313,0.00018215470405907563
67.83333333333077,5.3424643e-05,-0.7835118,0.0013294892,-2.3576062,0.0013414122,1.5723634,0.78613245,0.039999947,0.039999984,-0.02231729929718096,-0.020236208043565643,0.008572106130522172,-0.004320806016482294,-0.006734496955509552,0.002152229105492189,0.9999995967123805,-0.00012846008326846878,-0.0008658829934967637,0.00020079772154284423
67.84999999999744,4.010295e-05,-0.783377,0.0014839753,-2.3577805,0.0014908762,1.5725303,0.78614813,0.039999947,0.039999988,-0.028791798769534083,-0.021054533862633652,0.008382156758290904,-0.004671515372157138,-0.006265492956153037,0.0023294532380525156,0.9999995223669264,-0.0001683102360999717,-0.0009370751455407446,0.00022097003229236965
67.8666666666641,2.5755993e-05,-0.7832333,0.0016506118,-2.3579664,0.0016520869,1.5727104,0.7861653,0.039999954,0.04,-0.025584525585498064,-0.021871319766030538,0.0093491105673138,-0.00503320379221804,-0.0057785843963713245,0.0025138371932380537,0.9999994362286192,-0.00021114676442965554,-0.0010119487553300716,0.0002427327837840108
67.88333333333077,1.0346466e-05,-0.78308016,0.00182985,-2.3581653,0.001825483,1.5729045,0.7861837,0.039999954,0.04,-0.02799318645505533,-0.02267274942759929,0.009603693753046372,-0.005408838146474481,-0.005257984166740728,0.0027053350340970747,0.9999993363465707,-0.000257221504853562,-0.001091012815090759,0.000266147615288337
67.89999999999743,-6.1624355e-06,-0.7829171,0.0020221348,-2.3583782,0.0020115094,1.5731125,0.7862034,0.03999995,0.039999995,-0.030629127197734363,-0.02346769760880895,0.009318291296378511,-0.005796714528503701,-0.004709190482958135,0.0029055165305254312,0.9999992200857453,-0.000306663886321452,-0.0011751342345610784,0.0002912811228970159
67.9166666666641,-2.3806719e-05,-0.7827435,0.0022279068,-2.3586054,0.002210555,1.5733349,0.7862244,0.039999947,0.04,-0.031496545762110806,-0.024218022133515923,0.009816302877752037,-0.0061959579615493325,-0.00413771723281137,0.003109333203716187,0.9999990853109257,-0.0003595424363567007,-0.0012644649373458406,0.00031817443412923517
67.93333333333076,-4.2622476e-05,-0.7825592,0.0024475972,-2.3588467,0.0024230634,1.5735725,0.78624696,0.039999943,0.04,-0.031150994426965006,-0.02499793685297475,0.010537828036771835,-0.006607013998518355,-0.0035419441846412103,0.003322631811138097,0.9999989303685126,-0.0004159217599064621,-0.0013586505410286686,0.0003469000255647721
67.94999999999743,-6.264464e-05,-0.78236383,0.0026816335,-2.3591027,0.0026494393,1.573826,0.7862709,0.03999994,0.04,-0.03255979950895771,-0.02574029879098272,0.010886248703290136,-0.007030067535666749,-0.0029201218122986428,0.003541906540670008,0.9999987527784634,-0.0004759532767676195,-0.0014578733697011837,0.00037751189909183156
67.9666666666641,-8.390785e-05,-0.78215677,0.0029304337,-2.3593745,0.0028900874,1.5740954,0.7862964,0.039999936,0.04,-0.03482752426673397,-0.026467893419642678,0.010807102235510513,-0.007463599914157883,-0.0022706010095388546,0.003767958513356916,0.9999985490323305,-0.0005396943876655102,-0.0015628525503523685,0.0004100671983419273
67.98333333333076,-0.00010644605,-0.7819379,0.00319441,-2.359662,0.0031453958,1.5743809,0.7863236,0.03999993,0.04,-0.03494928423044552,-0.02717731741976181,0.010890980596967026,-0.007908071073385653,-0.0015998709759438724,0.003999883939363808,0.9999983163543231,-0.0006072006332570316,-0.0016735922995992616,0.00044461750404492105
67.99999999999743,-0.00013029277,-0.78170675,0.0034739652,-2.359966,0.0034157715,1.5746835,0.78635234,0.03999993,0.04,-0.03638482432983814,-0.027886872384879843,0.011552033692829866,-0.008363550112744554,-0.0009066423526131219,0.004240125977162883,0.9999980516002,-0.0006786414873791881,-0.0017901567671659616,0.0004812278921767612
68.0166666666641,-0.00015548049,-0.7814631,0.0037694974,-2.3602874,0.0037015898,1.5750033,0.7863825,0.03999993,0.04,-0.03833853028845091,-0.02856084377980357,0.011072669095213428,-0.008828528080200272,-0.00018943097991384883,0.0044860626600407,0.9999977502483504,-0.00075418352214718,-0.0019132064948815754,0.0005199484211724451
68.03333333333076,-0.00018204158,-0.7812064,0.0040813945,-2.3606262,0.0040032337,1.5753407,0.7864143,0.03999993,0.04,-0.03867686523830738,-0.029232718273420957,0.011779356626306914,-0.009302006654723076,0.0005461286748799851,0.004739312144976549,0.999997408942785,-0.0008338108766975336,-0.00204262766035864,0.0005608381045370247
68.04999999999742,-0.00021000739,-0.7809365,0.0044100364,-2.3609824,0.0043210792,1.5756963,0.78644794,0.03999993,0.04,-0.03893225774564968,-0.02988736915142315,0.01211308993529503,-0.009784611822679229,0.0013035640502595848,0.004999602335017181,0.9999970239478791,-0.0009175637230220196,-0.002178396238548672,0.0006039553185841372
68.06666666666409,-0.00023940855,-0.780653,0.0047557973,-2.3613567,0.004655459,1.5760702,0.78648335,0.039999925,0.04,-0.04041410031989656,-0.030496441389576447,0.011897903343949245,-0.010276174305083464,0.002081689332888069,0.00526379958423904,0.999996590249891,-0.001005537851204209,-0.002320935593682589,0.0006493382720461488
68.08333333333076,-0.00027027534,-0.7803554,0.0051190387,-2.3617494,0.005006745,1.5764631,0.7865206,0.03999992,0.04,-0.04126128890058478,-0.0311206033397916,0.012626382276126336,-0.010776182208065935,0.0028807361525558725,0.005535783809329606,0.9999961034035376,-0.0010977935864896376,-0.002470252358358254,0.0006970511235540035
68.09999999999742,-0.00030263688,-0.7800438,0.0055001182,-2.3621614,0.0053752605,1.5768753,0.7865597,0.039999917,0.04,-0.04272009465038362,-0.031695244341082424,0.012172924012188169,-0.011284172648959622,0.0036994113491995995,0.00581232181223019,0.9999955579198186,-0.0011944177473501257,-0.002626651574109218,0.0007471334443116531
68.11666666666409,-0.0003365221,-0.77971756,0.005899383,-2.3625922,0.0057613514,1.5773075,0.78660065,0.03999991,0.04,-0.04243360376516847,-0.03228321409916527,0.013038025024014743,-0.011799633190329374,0.004536465475541596,0.0060957264043867455,0.9999949493422913,-0.0012954946281450656,-0.0027899023435895586,0.0007996427265333706
68.13333333333075,-0.00037195886,-0.77937645,0.0063171736,-2.363043,0.006165342,1.5777594,0.7866435,0.039999906,0.04,-0.044878264824554925,-0.032828084822803666,0.012417506132744727,-0.0123220291509171,0.0053956979838549884,0.006385100336639318,0.9999942700711087,-0.0014010714677264962,-0.002960817318080875,0.0008546253575386678
68.14999999999742,-0.00040897465,-0.7790202,0.006753819,-2.3635147,0.00658755,1.5782319,0.7866883,0.039999902,0.04,-0.04615186627885404,-0.03335781228537352,0.01268646276930685,-0.01285058472231821,0.006269852999531637,0.006679603496953131,0.9999935140205655,-0.001511190711866593,-0.0031394645869091123,0.0009121302216701948
68.16666666666409,-0.0004475961,-0.77864856,0.007209642,-2.3640063,0.0070283073,1.5787253,0.7867351,0.039999902,0.04,-0.045185483136944704,-0.033898635471372486,0.013171143875156943,-0.013385325978281489,0.0071597409197116345,0.006982238464828521,0.9999926760940561,-0.0016259247208837717,-0.00332549552829695,0.0009722173324436196
68.18333333333075,-0.0004878488,-0.77826136,0.007684956,-2.3645186,0.007487895,1.5792395,0.78678393,0.0399999,0.04,-0.046697287451680225,-0.0343744189936589,0.012676494061447663,-0.013925737418092667,0.008069882631919156,0.007288158216946592,0.9999917482027753,-0.0017453083789387934,-0.0035194262473694513,0.0010349221753743194
68.19999999999742,-0.00052975793,-0.77785814,0.008180065,-2.365052,0.007966602,1.5797753,0.7868348,0.03999989,0.04,-0.0473992994845851,-0.034848365441123366,0.01335957759818207,-0.014470976687717033,0.008995527475229241,0.007599752991134107,0.9999907238362556,-0.0018694017484014599,-0.003721147518264155,0.0011002907306496082
68.21666666666408,-0.000573348,-0.77743876,0.008695269,-2.3656068,0.00846471,1.5803328,0.78688765,0.039999884,0.04,-0.048446787155387305,-0.03530094454003794,0.012921497796947179,-0.015020845487464131,0.009939619625776414,0.007916101725667781,0.9999895943950948,-0.0019982615574263107,-0.003931027469450248,0.0011683643765176548
68.23333333333075,-0.00061864295,-0.7770029,0.009230852,-2.3661835,0.008982524,1.5809122,0.7869426,0.03999988,0.04,-0.04957695667135997,-0.03575223000819999,0.013046840674224569,-0.015574660790983153,0.01089750596227533,0.00824029350607268,0.999988351442552,-0.002131906918137301,-0.004149256035969826,0.0012392039571012484
68.24999999999741,-0.00066566555,-0.7765505,0.009787091,-2.3667824,0.009520291,1.5815141,0.78699964,0.03999988,0.04,-0.04994530551418741,-0.03614839063359812,0.01299036892554728,-0.016131689258955632,0.011871629845397129,0.008568236452145675,0.9999869870675924,-0.00227038384624156,-0.004375785156166223,0.0013128430738874653
68.26666666666408,-0.00071443815,-0.7760812,0.010364262,-2.3674035,0.010078285,1.5821385,0.7870588,0.039999872,0.04,-0.05038410194417864,-0.03656370435479936,0.01305280884997817,-0.016691646975014393,0.012859323007129816,0.008902228084855034,0.9999854922214872,-0.0024137372596085933,-0.004610746205191034,0.0013893302065626446
68.28333333333075,-0.00076498225,-0.7755948,0.010962621,-2.3680472,0.010656769,1.5827858,0.7871201,0.03999987,0.04,-0.0514958479574279,-0.036936898421099235,0.013021479553221305,-0.01725365449433186,0.013863314175048193,0.009242152392631289,0.9999838571265787,-0.002561941107814729,-0.004854360573906436,0.0014687162520433332
68.29999999999741,-0.00081731856,-0.775091,0.011582427,-2.368714,0.011255952,1.5834562,0.7871836,0.03999986,0.04,-0.0525525573072505,-0.03726564675421151,0.012733894723671035,-0.017817990373047148,0.014880877693755797,0.009583945706147463,0.9999820709699898,-0.002715058736801904,-0.00510690959782968,0.0015510219165616118
68.31666666666408,-0.00087146746,-0.7745696,0.012223923,-2.369404,0.011876092,1.5841502,0.7872493,0.039999854,0.04,-0.0527514440689103,-0.037622545750805314,0.01317354106720181,-0.01838328371497814,0.015911006935637094,0.00993313893234091,0.9999801250502777,-0.002873057892907472,-0.005368198607888493,0.0016363026863524732
68.33333333333074,-0.0009274484,-0.77403057,0.012887343,-2.370118,0.012517432,1.584868,0.7873173,0.039999846,0.04,-0.05399105178418573,-0.037932106579638414,0.012527706144260797,-0.018949688245719933,0.01695467248495068,0.010288022996108776,0.9999780072834922,-0.0030359876223613465,-0.005638569743910798,0.0017246042259056829
68.34999999999741,-0.0009852794,-0.7734738,0.013572914,-2.370856,0.013180143,1.5856091,0.7873875,0.03999984,0.04,-0.05520460903007951,-0.03817999260476053,0.011843070946726542,-0.019516498598893865,0.018010138931569754,0.010643597213512716,0.9999757040211883,-0.0032038347108019226,-0.005918544461056339,0.0018159410610739167
68.36666666666407,-0.0010449794,-0.7728989,0.0142808575,-2.3716178,0.013864478,1.586375,0.78746,0.03999984,0.04,-0.05404623430533828,-0.038508399406753796,0.013161888937740507,-0.020082738252028318,0.01907502872161112,0.011008072878731769,0.9999732092632264,-0.0033765861525359092,-0.006207244376965103,0.0019103766651293527
68.38333333333074,-0.0011065651,-0.77230567,0.015011376,-2.3724034,0.014570644,1.5871652,0.7875349,0.03999983,0.04,-0.054965444141186204,-0.038748870350667486,0.012513459983010122,-0.020648727324934515,0.020154885471880622,0.011377041304681187,0.9999705087224598,-0.0035542470386728396,-0.006505162345656543,0.002007953233901869
68.3999999999974,-0.0011700524,-0.77169394,0.015764678,-2.3732142,0.015298808,1.5879799,0.7876121,0.039999828,0.04,-0.057594921327575044,-0.03893850026704011,0.011644815134359554,-0.021213575407618347,0.021247632552525174,0.011747993647622246,0.9999675856088966,-0.003736815628715689,-0.006813030064719175,0.002108687223831324
68.41666666666407,-0.0012354583,-0.7710637,0.016540961,-2.3740492,0.016049184,1.5888195,0.78769165,0.039999824,0.04,-0.05559921179114635,-0.039203753002912956,0.012292598475927008,-0.021776437201391722,0.02234732312923053,0.012125810097681135,0.9999644326748017,-0.00392426884583904,-0.007130060241940393,0.0022126319923596264
68.43333333333074,-0.0013027972,-0.7704147,0.017340403,-2.374909,0.016821925,1.5896841,0.78777355,0.03999982,0.04,-0.05708729409472646,-0.03935091278442354,0.011782866585030582,-0.022337285364233007,0.023461091674437974,0.012506195929793587,0.9999610343107136,-0.004116623555331814,-0.007456657782267284,0.0023198115159799703
68.4499999999974,-0.0013720839,-0.7697468,0.018163176,-2.375794,0.017617209,1.5905743,0.7878579,0.03999981,0.04,-0.05813107819108154,-0.039513041602232124,0.011673435802395105,-0.022895005485305344,0.02458563569310132,0.012890746755971773,0.9999573764307397,-0.004313803626782681,-0.0077929602323368085,0.002430265590178039
68.46666666666407,-0.0014433315,-0.7690599,0.019009454,-2.376704,0.018435199,1.5914893,0.7879446,0.0399998,0.04,-0.058025095219482736,-0.03967008890225915,0.010978873830458369,-0.023449823167966524,0.025720619747056958,0.01327932574166786,0.9999534435315525,-0.004515827614157925,-0.008139165099358895,0.0025440247316161593
68.48333333333073,-0.001516553,-0.7683538,0.019879397,-2.3776398,0.019276056,1.5924302,0.7880337,0.039999798,0.04,-0.05933403941611459,-0.03978963306211156,0.011078548199816574,-0.024000252698388166,0.026864714356729075,0.013672725153667652,0.9999492211292156,-0.004722667609450423,-0.008495291629846725,0.0026611264249699913
68.4999999999974,-0.0015917616,-0.7676285,0.020773161,-2.3786006,0.020139936,1.5933968,0.7881253,0.039999794,0.04,-0.05838203800880848,-0.039926478005563454,0.010900098006794146,-0.024546409968389325,0.028017737945316652,0.014070666846891552,0.9999446962666059,-0.004934275332259479,-0.008861151173604828,0.0027816065698380143
68.51666666666407,-0.0016689675,-0.7668839,0.021690875,-2.379588,0.021026941,1.5943896,0.78821933,0.03999979,0.04,-0.060752514704742744,-0.03993000215382417,0.010216130226381459,-0.025087609764820773,0.029181556897579536,0.014468893612587692,0.9999398503285024,-0.005150573115931259,-0.009237181008950785,0.0029054790650391822
68.53333333333073,-0.0017481828,-0.76611984,0.022632683,-2.3806002,0.021937247,1.5954082,0.78831583,0.039999787,0.04,-0.058828305305125284,-0.0400800882462346,0.010382317286694587,-0.025623686136190035,0.0303539993756139,0.014874849608864593,0.9999346711299604,-0.00537156959433603,-0.009622984940528278,0.003032799555746182
68.5499999999974,-0.0018294172,-0.76533574,0.023598716,-2.381639,0.022870947,1.5964532,0.78841484,0.039999783,0.04,-0.061842219288710254,-0.04006334450179991,0.009849971225861509,-0.026153377762903114,0.031537296169898386,0.015280914687621758,0.9999291356783739,-0.005597182353713186,-0.010019329069877932,0.003163576486952798
68.56666666666406,-0.0019126802,-0.76453227,0.024589088,-2.3827035,0.023828171,1.5975243,0.78851634,0.03999978,0.04,-0.06009692975501579,-0.04011575683155119,0.009260770474672775,-0.02667698468986448,0.03272620406320555,0.01569265157597867,0.9999232327348615,-0.005827371808053802,-0.01042566902014844,0.0032978478371326427
68.58333333333073,-0.0019979805,-0.76370883,0.02560391,-2.3837945,0.02480902,1.5986218,0.7886203,0.039999772,0.04,-0.06200449706053046,-0.040089307501525034,0.009004899645947972,-0.027193333260801505,0.03392462281198923,0.01610687939750806,0.9999169402267973,-0.006062109225496147,-0.0108425035213555,0.0034356362739901653
68.5999999999974,-0.0020853272,-0.7628655,0.02664329,-2.384911,0.025813593,1.599746,0.78872675,0.03999977,0.04,-0.06042028763988405,-0.040110293356279,0.009093496435452764,-0.027702032001460004,0.03512940558957914,0.016523808702591923,0.9999102468525846,-0.006301319658895827,-0.01126928917069827,0.0035769723715629487
68.61666666666406,-0.0021747262,-0.7620024,0.027707316,-2.3860548,0.026841972,1.6008967,0.78883576,0.03999977,0.04,-0.06318616193767834,-0.03999712858107837,0.0076471798775346045,-0.028202539973455017,0.036345255333661716,0.01694294060958581,0.9999031268239559,-0.006544895574859264,-0.01170679376966332,0.003721866363084052
68.63333333333073,-0.0022661856,-0.7611193,0.028796079,-2.3872247,0.027894232,1.6020741,0.7889473,0.03999976,0.04,-0.0620067497044019,-0.03996753647867862,0.007892006044674105,-0.02869457461645549,0.03756688891796707,0.01736401852712912,0.999895565826344,-0.006792811316633923,-0.012154653244875245,0.0038703436189855404
68.64999999999739,-0.002359711,-0.76021576,0.029909654,-2.3884218,0.028970474,1.6032784,0.7890615,0.039999753,0.04,-0.06419687180907463,-0.039860050524447715,0.007172132069643844,-0.029177600200528387,0.038795912151358455,0.017789381501591185,0.999887538009154,-0.007044893803365207,-0.012613517404806672,0.004022435079725723
68.66666666666406,-0.0024553086,-0.75929224,0.03104812,-2.3896453,0.03007074,1.6045098,0.7891782,0.03999975,0.04,-0.06248292451638271,-0.03978361940093003,0.007063975746346429,-0.029651653566121476,0.040027224385524224,0.01821538407776878,0.9998790329996609,-0.0073011699545593445,-0.01308263521440026,0.0041781504047537195
68.68333333333072,-0.0025529831,-0.75834846,0.03221153,-2.390896,0.031195145,1.605768,0.78929734,0.03999975,0.04,-0.06431333930652094,-0.03964405198198309,0.0059333835874531005,-0.0301153034560085,0.04126805051020589,0.018647967752605007,0.9998700212938464,-0.007561575185147276,-0.013562775970249897,0.004337534615807248
68.69999999999739,-0.0026527387,-0.75738454,0.033399943,-2.3921735,0.0323437,1.6070534,0.7894191,0.039999742,0.04,-0.06333676084322448,-0.039503857619626465,0.006034561351020429,-0.030568039690872045,0.042510589345609445,0.019078900614742572,0.9998604913396739,-0.007825943335757033,-0.014053368639359097,0.004500588714581903
68.71666666666405,-0.0027545788,-0.7564003,0.034613427,-2.3934777,0.03351647,1.6083659,0.78954345,0.03999974,0.04,-0.06375300377774451,-0.03937373121401938,0.005384149234255453,-0.031010068502122866,0.04376192408465475,0.019512749465555333,0.9998504197310063,-0.00809422271883923,-0.01455464684786836,0.004667330869148277
68.73333333333072,-0.0028585067,-0.7553957,0.035852008,-2.394809,0.034713488,1.6097053,0.78967035,0.039999735,0.04,-0.06473825495079133,-0.03914126770046822,0.004463149901656749,-0.03144051536239348,0.04501788804070676,0.01994752030761715,0.9998397813334378,-0.008366308104006626,-0.015066933549293062,0.004837774822512966
68.74999999999739,-0.0029645239,-0.75437075,0.037115727,-2.3961668,0.03593479,1.611072,0.7897998,0.03999973,0.04,-0.06366739816354716,-0.03899197824575734,0.004482954465045985,-0.03185891193934462,0.04627721267412527,0.020384766109613817,0.9998285614051314,-0.008642114503796277,-0.015589807453936054,0.00501194163949882
68.76666666666405,-0.0030726327,-0.7533253,0.03840461,-2.397552,0.0371804,1.6124656,0.78993183,0.039999727,0.04,-0.06559487585180435,-0.038710007636670596,0.0033272255157035246,-0.03226472503787542,0.047544015505835965,0.020822397641801847,0.9998167292950116,-0.008921524724856035,-0.016123889850182316,0.005189835691861294
68.78333333333072,-0.0031828347,-0.7522594,0.039718658,-2.3989644,0.038450327,1.6138866,0.7900665,0.039999723,0.04,-0.0651954400817445,-0.03845110086246328,0.0030027279368960436,-0.0326576670583865,0.048811304220811425,0.02126215186792911,0.9998042672621184,-0.009204398275322503,-0.01666893835202325,0.005371471964393947
68.79999999999738,-0.0032951294,-0.75117314,0.04105792,-2.4004037,0.039744586,1.615335,0.79020363,0.039999716,0.04,-0.06476602759417638,-0.03825171869283883,0.002550640929066539,-0.03303760081892691,0.05008121020244241,0.021701491912436678,0.9997911563337352,-0.00949070075207271,-0.01722474052427866,0.005556854322241723
68.81666666666405,-0.0034095177,-0.7500664,0.042422373,-2.4018705,0.041063156,1.6168106,0.79034346,0.03999971,0.04,-0.06598457418340864,-0.0378870780680815,0.0015561295140464892,-0.0334033586626123,0.051358095798666584,0.02214219079009027,0.9997773672823436,-0.009780211173970264,-0.01779176929626872,0.005745979871789258
68.83333333333071,-0.003525998,-0.7489394,0.043812025,-2.403364,0.042406082,1.618313,0.7904859,0.03999971,0.04,-0.06474729663039636,-0.03766689435835413,0.0009405642510840195,-0.03375514371596231,0.05263429735883876,0.02258467531784962,0.9997628816247041,-0.010072854901244285,-0.018369753255679272,0.0059388790972566274
68.84999999999738,-0.003644569,-0.747792,0.04522687,-2.404884,0.04377335,1.6198429,0.7906309,0.0399997,0.04,-0.06481340514845613,-0.03735534068076002,0.000890285644805644,-0.034092521611769316,0.05391498880546848,0.023028181908144076,0.999747681176705,-0.010368566532584892,-0.01895842024838129,0.00613556122506402
68.86666666666405,-0.0037652291,-0.74662435,0.046666868,-2.4064312,0.045164928,1.6214004,0.79077834,0.039999697,0.04,-0.06521777827084296,-0.03697004021276651,4.22368903851833e-05,-0.03441483295850844,0.055200453610983816,0.023469844685241513,0.9997317418749401,-0.010667208553885114,-0.019557855685950958,0.0063360263835886685
68.88333333333071,-0.0038879751,-0.7454362,0.048132017,-2.408005,0.04658079,1.622985,0.7909285,0.039999686,0.04,-0.0653240739021399,-0.03663792880084504,-0.0006515124711725662,-0.03472133441537841,0.05649040887536136,0.023911807607741323,0.999715037605198,-0.010968570854046211,-0.020168265183870108,0.006540269025853333
68.89999999999738,-0.0040128054,-0.7442275,0.0496223,-2.4096062,0.04802093,1.6245962,0.79108113,0.039999682,0.04,-0.06683603177664033,-0.03622480435048342,-0.0022055903049933434,-0.03501223400614186,0.05778376663374887,0.0243542084182704,0.999697529950602,-0.011272598782001002,-0.020790329593453186,0.006748282949079183
68.91666666666404,-0.004139714,-0.7429984,0.05113766,-2.4112349,0.049485322,1.6262349,0.79123634,0.03999968,0.04,-0.06665652954076506,-0.03582672626037953,-0.002297708192111614,-0.035286645998485064,0.059073186091923954,0.02479701790959076,0.999679203295761,-0.011579111509128437,-0.021423628115302143,0.006960088576248064
68.93333333333071,-0.004268701,-0.74174905,0.052678067,-2.4128897,0.050973892,1.6279006,0.7913941,0.03999967,0.04,-0.06467058819519256,-0.03548548761543868,-0.002640763429528903,-0.03554445260762661,0.06036255798992059,0.025236436400097713,0.9996600436147198,-0.01188799742013311,-0.02206768048116406,0.00717566691929625
68.94999999999737,-0.0043997574,-0.74047977,0.054243464,-2.414572,0.052486576,1.6295931,0.7915546,0.039999664,0.04,-0.06646673767694011,-0.034936521434912604,-0.0043959080879396595,-0.035785499732101114,0.061655136799055654,0.025674708884773245,0.9996400156926374,-0.012199026001029371,-0.022723048229388212,0.007394989507409313
68.96666666666404,-0.0045328806,-0.73919004,0.05583379,-2.4162807,0.054023355,1.6313127,0.7917175,0.03999966,0.04,-0.06551877576776999,-0.03458316283407037,-0.004127654926255886,-0.03600974624360316,0.06294715188522022,0.02611383719529342,0.9996191001872994,-0.012512149421911879,-0.023389429253777495,0.007618087473928989
68.9833333333307,-0.004668062,-0.73788023,0.057448998,-2.4180162,0.05558417,1.6330591,0.791883,0.039999653,0.04,-0.06569894570533918,-0.034110634930852035,-0.005333185659095463,-0.036216021144728425,0.06424078002515135,0.02655043718450119,0.9995972705760323,-0.012827216964594405,-0.024066908368183614,0.007844939992567877
68.99999999999737,-0.0048052943,-0.73655045,0.059089,-2.419778,0.057168946,1.6348325,0.7920511,0.03999965,0.04,-0.0652387990881298,-0.03362378786253006,-0.005878291608674147,-0.03640402409059694,0.0655342809907144,0.02698883222160095,0.9995745080216388,-0.013144011811183768,-0.02475527262562668,0.008075539860404152
69.01666666666404,-0.004944574,-0.7352004,0.06075373,-2.4215667,0.05877761,1.6366327,0.7922216,0.039999653,0.04,-0.06612262614527076,-0.03309705871011037,-0.006730943745569817,-0.03657443107000865,0.06682852797150336,0.027422551971117773,0.9995507779434044,-0.013462455467260737,-0.025454873511909015,0.008309874849832583
69.0333333333307,-0.0050858944,-0.7338305,0.0624431,-2.4233818,0.06041009,1.6384593,0.7923947,0.03999965,0.04,-0.06544813815101413,-0.032589225064812155,-0.00777980806256906,-0.03672551545378619,0.06812228813484328,0.027854803224939342,0.9995260588643132,-0.013782332478487034,-0.026165586992625632,0.00854792489187901
69.04999999999737,-0.0052292435,-0.73244077,0.06415704,-2.4252229,0.062066298,1.6403126,0.7925703,0.03999964,0.04,-0.06471140708625978,-0.03212025933492513,-0.008144609974647388,-0.03685825549580012,0.06941366351898859,0.028284558211705182,0.999500332120316,-0.014103523634143841,-0.026887139399645953,0.008789678457328523
69.06666666666403,-0.005374615,-0.7310312,0.06589547,-2.4270906,0.063746125,1.6421921,0.79274833,0.039999638,0.04,-0.0660769200263811,-0.03148895640310706,-0.00953773066545427,-0.03697164071335927,0.07070688649748133,0.02871049147506119,0.9994735590282953,-0.01442587628196389,-0.02762002988796571,0.009035089695090735
69.0833333333307,-0.0055219997,-0.72960204,0.067658246,-2.4289849,0.06544948,1.6440983,0.79292893,0.03999965,0.04,-0.06535351593115468,-0.03090451146077755,-0.010094590921960744,-0.03706547001350338,0.07199491967655436,0.02913176039324017,0.9994457246517594,-0.014749147750601767,-0.028363894644441612,0.00928415836517873
69.09999999999737,-0.0056713866,-0.728153,0.06944527,-2.4309049,0.06717631,1.6460305,0.79311204,0.03999965,0.04,-0.06477238557232035,-0.030409392631891574,-0.0106318273952688,-0.037139963197207505,0.0732818215438085,0.0295505111837326,0.9994168002259004,-0.01507321087183527,-0.029118816529673457,0.009536889647424673
69.11666666666403,-0.0058227647,-0.7266845,0.07125643,-2.432851,0.06892645,1.647989,0.7932976,0.039999656,0.04,-0.0650744261700531,-0.02973230494879575,-0.011815007783932963,-0.03719518222046536,0.07456667868196103,0.029962587172755725,0.9993867612050649,-0.01539791032217387,-0.029884756776778355,0.009793222051703222
69.1333333333307,-0.005976125,-0.72519666,0.07309165,-2.434823,0.070699796,1.6499733,0.7934855,0.03999966,0.04,-0.06440776102536461,-0.02919065125275011,-0.012678489857576025,-0.03722995591452194,0.07584771590587358,0.03037182202674124,0.9993555813210195,-0.015723122538519988,-0.030661707482133965,0.010053118642785285
69.14999999999736,-0.0061314567,-0.72368944,0.074950755,-2.4368207,0.072496235,1.6519835,0.79367596,0.039999664,0.04,-0.06440261220839183,-0.028517088244506272,-0.013278742549127642,-0.037243661376538006,0.07712598487965375,0.030779569861463338,0.9993232388661001,-0.016048584465741908,-0.03144957055499593,0.010316574563291698
69.16666666666403,-0.006288749,-0.7221628,0.07683363,-2.4388435,0.0743157,1.6540195,0.79386884,0.03999966,0.04,-0.06339298338684518,-0.02798940734982658,-0.013756984199209121,-0.037237618099950645,0.07840076521301498,0.031183657057593378,0.9992897130844077,-0.016374162469018676,-0.03224815887748368,0.010583589945426776
69.1833333333307,-0.0064479886,-0.72061694,0.07874015,-2.440892,0.07615798,1.6560811,0.7940641,0.03999966,0.04,-0.06440580621125402,-0.02720527426533781,-0.01520592807648935,-0.03721059009477018,0.07967420131920207,0.03158151636804321,0.9992549685317402,-0.01669968787017037,-0.03305778790036893,0.010854075216438464
69.19999999999736,-0.006609162,-0.7190522,0.08067019,-2.4429655,0.07802298,1.6581677,0.7942619,0.03999965,0.04,-0.06306772984814302,-0.026633429170661027,-0.016093315709264644,-0.03716279691799387,0.08094310065647124,0.03197515783489194,0.9992189858810168,-0.0170249411553093,-0.03387826988259511,0.01112800356455133
69.21666666666403,-0.0067722555,-0.7174685,0.08262358,-2.4450643,0.07991051,1.6602794,0.794462,0.039999653,0.04,-0.06356827443252389,-0.02583920033418785,-0.017024832548329094,-0.03709444880333999,0.08220643612763465,0.032362025149646076,0.9991817331719457,-0.017349771994414984,-0.03470976972561828,0.011405323004769964
69.23333333333069,-0.0069372575,-0.71586627,0.08460018,-2.4471877,0.08182048,1.6624165,0.7946645,0.03999965,0.04,-0.06182673513055459,-0.025297843665969544,-0.01721818880993098,-0.0370047590927431,0.08346397663335496,0.03274379690018149,0.9991432086587925,-0.017674044487725322,-0.0355515618476606,0.01168602552841312
69.24999999999736,-0.0071041537,-0.71424514,0.08659979,-2.4493365,0.083752684,1.6645784,0.7948693,0.039999645,0.04,-0.0639758780979438,-0.024336315174716683,-0.018903532433189874,-0.03689370480014113,0.08472082681278126,0.03311939016411698,0.9991033561208996,-0.01799751434497298,-0.0364045529989281,0.011970037021887927
69.26666666666402,-0.0072729285,-0.7126057,0.08862228,-2.4515092,0.085707024,1.6667653,0.79507655,0.03999964,0.04,-0.06051477505997216,-0.023907172198137094,-0.01877034204467165,-0.036761429246769256,0.0859672009099727,0.03348959989948551,0.9990621896408883,-0.0183199951890513,-0.03726763155732362,0.01225735062459934
69.28333333333069,-0.0074435673,-0.7109475,0.090667516,-2.453706,0.08768329,1.6689765,0.79528606,0.03999964,0.04,-0.06162738751493979,-0.023113933286855737,-0.020022310859890702,-0.03660808641335331,0.08721406959444113,0.033851051430462034,0.9990196585019887,-0.018641385099359722,-0.038141465466654915,0.01254788030718013
69.29999999999735,-0.007616055,-0.70927125,0.09273526,-2.4559278,0.08968135,1.6712121,0.7954979,0.03999964,0.04,-0.06238554995676715,-0.022165935062709585,-0.021737289177248265,-0.03643297480895795,0.08845283293561634,0.0342073153317797,0.9989757334540602,-0.01896139544644329,-0.03902618584219432,0.012841583674013207
69.31666666666402,-0.007790378,-0.70757693,0.094825365,-2.4581735,0.091701016,1.6734718,0.79571193,0.03999964,0.04,-0.06041538508751998,-0.021574346472844064,-0.021792523128860708,-0.03623646617263473,0.0896826290544712,0.0345561783717417,0.998930407079883,-0.019279938550486552,-0.039921270628443965,0.013138414368531809
69.33333333333069,-0.007966517,-0.7058646,0.09693768,-2.4604423,0.09374212,1.6757556,0.7959283,0.039999634,0.04,-0.059168312951163315,-0.020935993582871237,-0.022190115010478628,-0.03601836570004841,0.09090653863560164,0.03489650802234248,0.9988836678006356,-0.019596793854300437,-0.04082640663878678,0.01343831807726682
69.34999999999735,-0.008144451,-0.7041346,0.09907195,-2.4627345,0.09580442,1.6780633,0.796147,0.039999638,0.04,-0.05924929952980662,-0.019996287685650205,-0.0234207485007909,-0.03577844322885987,0.09212647880534541,0.035228673731943425,0.9988354883893049,-0.019911733329579955,-0.041741691818488184,0.0137412217084523
69.36666666666402,-0.008324175,-0.70238686,0.101228066,-2.4650502,0.09788785,1.6803944,0.7963679,0.039999634,0.04,-0.059704756586875796,-0.019287317312016716,-0.024672972874784094,-0.03551754071096438,0.09334221479806237,0.0355534506823591,0.9987858300251978,-0.020224620962354084,-0.04266743479547715,0.014047079973403279
69.38333333333068,-0.008505661,-0.7006218,0.10340574,-2.4673893,0.09999211,1.6827487,0.7965909,0.03999963,0.04,-0.05892799821605177,-0.018329846657580418,-0.025667155781983197,-0.035234906993997464,0.09454898330586559,0.035868446805271695,0.998734672608732,-0.020535272438567526,-0.04360352196402242,0.014355806746244768
69.39999999999735,-0.008688897,-0.6988392,0.10560485,-2.4697516,0.10211702,1.6851262,0.7968162,0.039999627,0.04,-0.05865837564478227,-0.017634174300909522,-0.02614595997707525,-0.03493047725347703,0.09574512747124414,0.0361747374491701,0.9986819952061623,-0.020843488191146103,-0.04454987353083147,0.014667318072891289
69.41666666666401,-0.00887386,-0.69703954,0.10782513,-2.472137,0.10426243,1.6875265,0.79704356,0.039999627,0.04,-0.05815013167227434,-0.016745215750987863,-0.027441213524093122,-0.03460457866805659,0.09693288189163715,0.03647283878986467,0.9986277724748077,-0.021149068921193472,-0.04550649501753584,0.014981583260438271
69.43333333333068,-0.009060537,-0.6952229,0.11006638,-2.4745445,0.1064281,1.6899495,0.7972731,0.039999627,0.04,-0.05642259105511638,-0.016034514572554892,-0.02752347259824539,-0.03425739521309231,0.09811070828890503,0.036760261422674106,0.998572002253763,-0.0214518524846277,-0.046472887048785216,0.015298532911347383
69.44999999999735,-0.009248903,-0.6933896,0.11232838,-2.4769747,0.10861385,1.692395,0.79750484,0.03999963,0.04,-0.056871579526718286,-0.015103692761325727,-0.029020790194755897,-0.03388880646034776,0.09928033043374349,0.03703871444262055,0.9985146498996873,-0.021751589541078673,-0.04744932091209513,0.015618073924852184
69.46666666666401,-0.00943894,-0.6915395,0.11461094,-2.4794264,0.110819444,1.6948627,0.7977387,0.039999623,0.04,-0.05490072961724657,-0.01444914251839402,-0.028957455990874514,-0.03349942212239403,0.10044021923466745,0.037306692039194816,0.9984557130798009,-0.022048192417592295,-0.048435295291616845,0.015940150546252533
69.48333333333068,-0.009630629,-0.68967307,0.11691381,-2.4819,0.11304469,1.6973524,0.7979745,0.039999623,0.04,-0.05525627883611328,-0.01346332206602352,-0.03045456074384223,-0.03308872842367599,0.10159317175641339,0.037564257911965285,0.9983951577688243,-0.0223414583297285,-0.0494310477781503,0.016264676419154193
69.49999999999734,-0.009823952,-0.68779045,0.11923677,-2.484395,0.115289316,1.6998637,0.79821247,0.039999623,0.04,-0.05416411256089493,-0.012624553088649848,-0.031180495174210066,-0.03265699523815796,0.10273506151851602,0.037809880229458206,0.9983329703120728,-0.022631180530528917,-0.050436400787514234,0.016591549996005497
69.51666666666401,-0.010018882,-0.6858916,0.12157959,-2.4869118,0.117553145,1.7023966,0.7984523,0.03999962,0.04,-0.054470139032458675,-0.011729996106610296,-0.03201157401115928,-0.032204521697119376,0.10386684241498656,0.03804527110384226,0.9982691218013885,-0.02291723082605553,-0.05145144092676042,0.016920703759299244
69.53333333333067,-0.010215407,-0.68397707,0.12394202,-2.4894493,0.11983591,1.7049507,0.79869425,0.03999962,0.04,-0.05235177499107735,-0.010940668073100568,-0.032585605494106495,-0.03173087932286516,0.10498676905456819,0.03826910405927281,0.9982036125065398,-0.023199360965178027,-0.05247575219257257,0.017252045140353944
69.54999999999734,-0.0104135,-0.68204665,0.12632382,-2.4920077,0.122137405,1.7075256,0.7989381,0.039999623,0.04,-0.05279109811215932,-0.009995993942904513,-0.03365927551239878,-0.03123714641498515,0.10609739714297597,0.0384813308950753,0.9981364035406798,-0.02347744565574401,-0.05350962614057298,0.017585487842393832
69.566666666664,-0.01061314,-0.680101,0.12872474,-2.4945862,0.12445738,1.7101214,0.79918385,0.039999615,0.04,-0.05037679253869776,-0.00926041039460701,-0.033767334044720876,-0.030722687741476247,0.10719534711676729,0.038681203601502956,0.9980675135236701,-0.023751328588757902,-0.05455228681009172,0.017920960988101645
69.58333333333067,-0.010814303,-0.67814004,0.13114455,-2.4971852,0.12679559,1.7127376,0.7994315,0.03999962,0.04,-0.05111028953144192,-0.008245261696254724,-0.0352306313668338,-0.03018785729659787,0.10828458028809412,0.03886868887310374,0.9979968974347504,-0.02402079754215458,-0.05560420198340812,0.01825833283296719
69.59999999999734,-0.01101697,-0.67616415,0.13358293,-2.4998045,0.1291518,1.7153736,0.7996812,0.039999615,0.04,-0.05029554257534041,-0.007276647478671183,-0.036172629418596,-0.02963335760441959,0.10936162614963091,0.03904357886141903,0.9979245374624929,-0.024285576368885592,-0.056665334452671176,0.01859753161222338
69.616666666664,-0.0112211155,-0.6741733,0.13603966,-2.5024428,0.13152578,1.7180295,0.7999328,0.03999962,0.04,-0.04818458236490741,-0.006631629570336139,-0.03598708797498684,-0.02905974732003832,0.11042321111631101,0.03920562605272876,0.9978504399344772,-0.02454559991970993,-0.057735143046058014,0.018938487389525728
69.63333333333067,-0.011426719,-0.6721678,0.13851449,-2.5051012,0.13391729,1.720705,0.80018634,0.039999615,0.04,-0.04923588160157255,-0.0055119158260868995,-0.03761647419593395,-0.028467164633776965,0.1114758980857955,0.039351933242002785,0.9977745659885131,-0.024800595348177516,-0.058814001184118454,0.019281058101795267
69.64999999999733,-0.0116337575,-0.67014796,0.1410072,-2.5077782,0.13632594,1.7234,0.8004417,0.03999961,0.04,-0.04634012135198429,-0.004835028254143725,-0.03736652534591656,-0.027856274891676004,0.11251168596123717,0.03948798568221691,0.9976969377191541,-0.025050562543374556,-0.05990112522443628,0.0196251109278186
69.666666666664,-0.011842206,-0.6681138,0.14351743,-2.5104742,0.13875161,1.7261139,0.8006989,0.039999604,0.04,-0.046993739837319914,-0.0037569340611248725,-0.03877788308459529,-0.027226019417981147,0.11353849133931604,0.039608534313954905,0.9976175100479909,-0.025295206236958415,-0.06099697664146195,0.019970604088946253
69.68333333333067,-0.012052039,-0.66606593,0.14604498,-2.5131886,0.14119393,1.7288462,0.8009578,0.0399996,0.04,-0.045127584762849615,-0.002938103873595388,-0.039402125456189374,-0.026578042506554822,0.11455003208456294,0.03971211805804693,0.9975362823490646,-0.025534477019766792,-0.06210121348593942,0.020317361150212532
69.69999999999733,-0.012263232,-0.6640042,0.14858952,-2.5159216,0.14365272,1.7315972,0.80121845,0.039999597,0.04,-0.04525512037512058,-0.0019536283317078684,-0.03993986032642116,-0.025911096415882823,0.11554714552688783,0.03980748979037403,0.9974532390309531,-0.025768130229524584,-0.06321378938526732,0.02066533916222071
69.716666666664,-0.012475763,-0.66192883,0.15115078,-2.5186718,0.14612763,1.7343662,0.8014809,0.039999593,0.04,-0.04264000728144701,-0.0012481145389209303,-0.03992066330285038,-0.025226911644424657,0.1165310088052004,0.03988342172137162,0.9973683898665907,-0.025996050597010073,-0.06433424481339546,0.021014404406784065
69.73333333333066,-0.012689608,-0.6598402,0.15372847,-2.5214405,0.14861844,1.7371528,0.8017449,0.039999586,0.04,-0.044302600918810775,2.150377645948609e-05,-0.04211880154587622,-0.024525239581560068,0.11750195014331236,0.03994626907536472,0.997281674620067,-0.026218079360413166,-0.06546323636236245,0.02136442057747789
69.74999999999733,-0.012904738,-0.6577385,0.15632232,-2.5242264,0.15112486,1.739957,0.8020106,0.039999574,0.04,-0.04160273817743754,0.0006610706570653324,-0.041588627352928675,-0.02380652884336086,0.11845275756064738,0.03999387902956164,0.9971931222120398,-0.02643403236160997,-0.06660003694923468,0.021715294712942083
69.766666666664,-0.013121129,-0.6556243,0.158932,-2.5270286,0.15364659,1.7427783,0.802278,0.039999567,0.04,-0.039175771992217,0.0014315163061939806,-0.04169479362250428,-0.023071376939942198,0.11938912243889405,0.04002621874778735,0.997102754906795,-0.02664381504124223,-0.06774403280886362,0.022066927654741785
69.78333333333066,-0.013338754,-0.6534972,0.16155732,-2.5298474,0.15618335,1.7456164,0.8025469,0.039999563,0.04,-0.04009772265742839,0.002433731844903031,-0.04290991149422663,-0.022319976608383835,0.1203160812768635,0.04004286418219631,0.9970105201174241,-0.02684730483502124,-0.06889576285050651,0.022419162774859808
69.79999999999733,-0.013557591,-0.6513577,0.16419789,-2.5326836,0.15873495,1.7484714,0.8028174,0.03999956,0.04,-0.040529442362813306,0.003613497612681149,-0.0441474410200815,-0.021551574135714666,0.12122612375299918,0.04004698020527041,0.9969163925328717,-0.02704423442497933,-0.07005537625794836,0.022771911227852774
69.81666666666399,-0.013777612,-0.6492065,0.16685343,-2.535536,0.16130096,1.7513422,0.8030894,0.039999556,0.04,-0.037618709725295574,0.004406881908292082,-0.04447639125872982,-0.02076858690318517,0.12211541362257414,0.04003353036015987,0.9968203905762354,-0.02723456633699634,-0.07122234256741582,0.02312499182890271
69.83333333333066,-0.013998792,-0.64704335,0.16952363,-2.538404,0.16388123,1.7542287,0.80336285,0.039999556,0.04,-0.03651774314819001,0.005087023317534856,-0.04439407094716241,-0.019970143565076287,0.12298753684140495,0.040007535668880406,0.9967225083135853,-0.027418151987899823,-0.07239649195210555,0.023478379749714156
69.84999999999732,-0.014221099,-0.6448685,0.1722082,-2.5412872,0.16647534,1.7571306,0.8036379,0.039999556,0.04,-0.035556834226957434,0.006056749746941037,-0.0449913172048122,-0.019157444792194195,0.12384423193188968,0.03996203314116989,0.9966227419121134,-0.02759480693893648,-0.0735777056165529,0.023831872981109777
69.86666666666399,-0.014444514,-0.64268225,0.17490683,-2.5441854,0.1690831,1.7600478,0.8039144,0.039999552,0.04,-0.034523513063522415,0.006916887002511585,-0.04538102491491447,-0.018330856785327435,0.12468198451765306,0.039901625900954585,0.9965210910466024,-0.027764445782556987,-0.0747657455875232,0.024185407509869937
69.88333333333065,-0.014669006,-0.64048505,0.17761919,-2.5470984,0.17170414,1.7629797,0.8041922,0.039999552,0.04,-0.033426260071256486,0.007894662177038159,-0.046039204910819365,-0.01749028995800836,0.12550437985492977,0.03982745223493167,0.9964175491319642,-0.027927020500940102,-0.07596048692348077,0.024538820960617966
69.89999999999732,-0.014894542,-0.638277,0.18034494,-2.550026,0.17433816,1.7659265,0.8044714,0.03999955,0.04,-0.03256284042287838,0.008794700085490437,-0.04627112546398138,-0.016635544644669972,0.1263078334914147,0.03973879993918082,0.9963121211361969,-0.02808228999452891,-0.07716172056110245,0.02489198959114138
69.91666666666399,-0.015121101,-0.6360583,0.18308385,-2.5529683,0.17698488,1.7688882,0.804752,0.03999955,0.04,-0.03235260650340521,0.009733392337368807,-0.0467756493908178,-0.015768810167789124,0.12709554780232885,0.039630337711275415,0.9962048049040126,-0.028230096143076845,-0.07836932233404155,0.02524475539224053
69.93333333333065,-0.015348658,-0.6338295,0.18583553,-2.5559225,0.17964394,1.7718624,0.8050339,0.039999545,0.04,-0.027273279928463623,0.010038528928613122,-0.04657486464398897,-0.014891625279574924,0.12786440957616782,0.0395027829014261,0.9960956134998065,-0.028370563384771542,-0.07958285419946089,0.025597054852891484
69.94999999999732,-0.015577178,-0.6315905,0.18859968,-2.55889,0.1823151,1.7748512,0.80531704,0.039999545,0.04,-0.028882493991067015,0.011253347448442197,-0.04651662274228752,-0.01400138805081344,0.1286172810619582,0.039358808531705064,0.9959845706347125,-0.028503468764174585,-0.08080191325513301,0.025948759899213743
69.96666666666398,-0.015806638,-0.6293418,0.19137602,-2.5618706,0.184998,1.7778524,0.80560136,0.039999545,0.04,-0.027664459622700477,0.012129558121859452,-0.04825472018965549,-0.013100071021557622,0.1293554819705273,0.03919758365950045,0.9958716153744926,-0.02862874736721484,-0.08202711603361067,0.026299672066229816
69.98333333333065,-0.016037004,-0.62708336,0.19416416,-2.564866,0.1876923,1.7808663,0.805887,0.03999955,0.04,-0.030616397691884956,0.013845921569177744,-0.05048525474991017,-0.012186842334182435,0.13007355754381245,0.03902015019875266,0.9957566716013392,-0.028746012852730842,-0.08325935320440783,0.02664953677791144
69.99999999999731,-0.01626826,-0.6248157,0.19696377,-2.567871,0.19039778,1.7838924,0.80617374,0.039999552,0.04,-0.02109211187666382,0.012985342975591063,-0.04581740062088446,-0.011265546479024974,0.13076093068925965,0.038826721348540275,0.9956399382220424,-0.028855607623696638,-0.08449583498130787,0.026998540639936494
70.01666666666398,-0.016500358,-0.6225391,0.19977452,-2.5708895,0.193114,1.7869319,0.80646163,0.03999955,0.04,-0.026190308515117167,0.015172260458595765,-0.04900408627124264,-0.010333194111689453,0.1314395454639595,0.03861317531852737,0.9955213264494975,-0.028957117886803423,-0.0857377020303589,0.027346304292829405
70.03333333333065,-0.016733281,-0.6202538,0.20259613,-2.5739186,0.19584069,1.7899824,0.8067507,0.03999955,0.04,-0.02183365959529393,0.015259673684253627,-0.048528153089977266,-0.009392882875600639,0.13209903422512548,0.03838525241310048,0.9954008463202716,-0.029050619159453974,-0.08698463672599725,0.027692772432272215
70.04999999999731,-0.016967,-0.6179601,0.20542818,-2.57696,0.1985776,1.7930441,0.80704075,0.039999545,0.04,-0.0236952801925705,0.01677044033958075,-0.050448359749055705,-0.008443362776836619,0.13273933912746166,0.0381408104977491,0.9952784368858902,-0.029135929488289847,-0.08823725807433931,0.028037777557338456
70.06666666666398,-0.017201485,-0.6156583,0.2082704,-2.5800107,0.20132428,1.7961167,0.80733186,0.039999545,0.04,-0.017766207082092755,0.016585118428813495,-0.04747668402935723,-0.007486931566356256,0.13335358845949197,0.03787721488907894,0.9951542366047507,-0.02921316793769589,-0.0894937968716122,0.02838127037611886
70.08333333333064,-0.017436704,-0.6133484,0.21112247,-2.5830743,0.20408045,1.7992002,0.8076239,0.03999955,0.04,-0.02364873635258835,0.018850628276334547,-0.0518798839380441,-0.006522013845050967,0.1339558921955057,0.03759495090915141,0.995028076113973,-0.02928195298596608,-0.09075621519217107,0.028722889448056885
70.09999999999731,-0.017672628,-0.6110308,0.21398398,-2.586146,0.20684583,1.8022934,0.80791706,0.03999954,0.04,-0.015266466061714112,0.018073130172435725,-0.04787942640160914,-0.005551061309325492,0.13452553802609618,0.03730100040327808,0.9949001203983004,-0.02934249038004461,-0.09202240443621361,0.029062790153771615
70.11666666666397,-0.017909233,-0.608706,0.21685459,-2.5892272,0.20962003,1.8053968,0.80821097,0.03999955,0.04,-0.016052412461875498,0.01942550289849021,-0.04897178065765839,-0.004573682630201817,0.13508155977458927,0.03698655449589565,0.9947703585728511,-0.029394724590640207,-0.09329244549314175,0.029400739531353894
70.13333333333064,-0.018146474,-0.6063743,0.219734,-2.592321,0.21240273,1.8085097,0.8085058,0.039999552,0.04,-0.020515421648692467,0.021463259947090974,-0.053073222594735014,-0.00358950694683588,0.1356211822680242,0.03665421362078067,0.9946386404605826,-0.029438241656229505,-0.09456803683150436,0.029736362264888662
70.1499999999973,-0.018384341,-0.6040357,0.22262184,-2.5954225,0.21519364,1.8116318,0.8088016,0.039999552,0.04,-0.012888735030447407,0.02066023738949152,-0.04858939701251064,-0.0026023118447311006,0.13612456657164942,0.03630878296657468,0.9945051430138742,-0.02947324635990923,-0.09584703850958853,0.030069810057648614
70.16666666666397,-0.01862279,-0.60169065,0.22551772,-2.598532,0.21799244,1.8147626,0.80909824,0.03999955,0.04,-0.011878660692077325,0.02156442704164263,-0.04905946706958986,-0.00161067674264892,0.13661189576151692,0.0359456021332905,0.9943698713284425,-0.02949972584556608,-0.09712933488743615,0.030400945275062454
70.18333333333064,-0.018861793,-0.599339,0.22842135,-2.6016498,0.22079869,1.8179018,0.8093956,0.039999552,0.04,-0.01251737600571623,0.02261087918503102,-0.049849301564997006,-0.0006152405463907967,0.1370826150558652,0.03556422208848463,0.994232782564418,-0.02951763787098476,-0.09841533776667122,0.030729536622020673
70.1999999999973,-0.019101324,-0.59698164,0.23133235,-2.6047752,0.22361201,1.821049,0.8096939,0.039999556,0.04,-0.010089753080033681,0.023258971009987306,-0.04962940593788989,0.0003836425016130046,0.13752951031146446,0.03516599917455858,0.9940939276419236,-0.02952687792775014,-0.09970449662179935,0.03105543203188724
70.21666666666397,-0.019341346,-0.59461856,0.23425035,-2.6079082,0.22643216,1.8242036,0.80999273,0.039999556,0.04,-0.009714247597725212,0.024070256871527862,-0.04996261679819369,0.001385166694262946,0.13795529696482614,0.03475209376194113,0.9939532859471504,-0.029527488079135775,-0.10099693019573855,0.03137854192973189
70.23333333333063,-0.019581841,-0.59225005,0.23717506,-2.6110487,0.22925882,1.8273654,0.81029224,0.03999955,0.04,-0.008654877653158088,0.024769363283139167,-0.05003554815894429,0.002389414957620878,0.13835872697286516,0.03432359423668174,0.9938108682250286,-0.029519391815658203,-0.10229249779671279,0.031698716049045436
70.2499999999973,-0.019822765,-0.5898769,0.24010612,-2.6141963,0.23209158,1.830534,0.8105924,0.039999552,0.04,-0.007058340516064021,0.025549333926011553,-0.050054518180098206,0.0033941977250151606,0.13873650349368644,0.03387556233460587,0.9936667109522623,-0.02950256236143979,-0.10359081602486385,0.032015764784326974
70.26666666666397,-0.020064095,-0.5874988,0.24304312,-2.6173503,0.23493017,1.8337091,0.81089324,0.039999545,0.04,-0.005895362796537462,0.0260766988475436,-0.04946171203992211,0.004400605674525965,0.13909294223914742,0.03341592911528696,0.9935208224632847,-0.02947694602598131,-0.10489174663438659,0.03232965315074464
70.28333333333063,-0.020305796,-0.5851164,0.24598575,-2.6205087,0.23777418,1.8368903,0.81119466,0.03999954,0.04,-0.0015816021822212534,0.02603227720687773,-0.04744007608088463,0.005406166934980153,0.1394269679054471,0.032937611075582546,0.9933733175841264,-0.02944274237167284,-0.10619409943011222,0.03264031372044513
70.2999999999973,-0.020547833,-0.58272964,0.24893358,-2.6236725,0.24062327,1.8400773,0.8114966,0.03999954,0.04,-0.003081656598702409,0.02733257225940866,-0.048943078540775176,0.006412727460380768,0.13974634665997362,0.032443601751737106,0.9932241252192099,-0.029399790135188248,-0.10749859832601678,0.03294754589470744
70.31666666666396,-0.020790184,-0.5803387,0.25188622,-2.6268427,0.24347703,1.8432693,0.811799,0.039999545,0.04,-0.00397073876439169,0.028631608160856192,-0.050369624900614696,0.0074181877270631524,0.14004303187584086,0.03193406229136575,0.9930731827997298,-0.02934799042132207,-0.10880584512120786,0.033251122232253245
70.33333333333063,-0.021032816,-0.57794416,0.25484356,-2.630017,0.24633531,1.8464665,0.8121018,0.039999545,0.04,0.0005864981108771872,0.02802713000442658,-0.04770264127766932,0.008421678692741214,0.1403096317107526,0.03141160572022958,0.9929206356570012,-0.029287583553675892,-0.1101143724321702,0.03355106138339693
70.3499999999973,-0.021275692,-0.5755467,0.25780493,-2.6331954,0.24919757,1.8496681,0.81240505,0.03999955,0.04,0.0017378576361970488,0.02919689144403881,-0.04797880468641047,0.00942417874618108,0.14055842461937973,0.030871773552126475,0.9927664978563985,-0.02921842165640166,-0.11142410555870297,0.03384720476336883
70.36666666666396,-0.021518793,-0.5731462,0.26077008,-2.6363797,0.25206348,1.8528739,0.8127088,0.03999955,0.04,-0.0008127618192466102,0.030668698770652814,-0.05020965030924085,0.010423995289279717,0.14078604780522888,0.03031888151302746,0.9926106672032199,-0.02914030889798849,-0.11273605410970268,0.03413924216327683
70.38333333333063,-0.021762077,-0.57074285,0.26373863,-2.6395662,0.25493276,1.8560833,0.8130129,0.03999955,0.04,0.005282695788011438,0.029709485959822368,-0.04623366578462296,0.01141902138669433,0.1409835169980656,0.029754945692670676,0.9924533066561003,-0.029053619595038983,-0.11404858071459634,0.034427351521511586
70.39999999999729,-0.02200552,-0.5683372,0.26671034,-2.6427567,0.25780505,1.8592958,0.8133173,0.039999552,0.04,0.0034938458470357148,0.031178826251510028,-0.04846056169149904,0.012411078467602685,0.14116303520016435,0.029174466406472865,0.9922943475359385,-0.028958217114957694,-0.11536239664415067,0.03471119344342457
70.41666666666396,-0.022249086,-0.5659294,0.26968467,-2.6459498,0.26068002,1.8625115,0.81362194,0.039999552,0.039999995,0.006177440511523358,0.03136108159462747,-0.04666680324292294,0.01339832152202619,0.14131566255444344,0.028581211295084452,0.9921338707403159,-0.028854168407463153,-0.11667674462513597,0.034990809636713374
70.43333333333062,-0.022492746,-0.5635196,0.27266142,-2.6491446,0.26355723,1.8657299,0.81392676,0.03999956,0.04,0.008025055115834512,0.0315394934929325,-0.04565976589561149,0.014380668678347641,0.14144754290980122,0.02797414929880035,0.9919719225621279,-0.02874164946167695,-0.11799122155299407,0.03526604700062319
70.44999999999729,-0.022736471,-0.5611083,0.27564007,-2.6523433,0.26643637,1.8689501,0.81423175,0.039999563,0.04,0.00575681990557797,0.03333541299589404,-0.0485491976017105,0.015358551132804002,0.14155963358898965,0.027352474479478764,0.9918083794323121,-0.02862037463238387,-0.11930699914897676,0.035536637401686604
70.46666666666395,-0.022980226,-0.5586958,0.2786204,-2.655543,0.2693171,1.8721725,0.814537,0.039999563,0.04,0.01035421255015656,0.03263877739314025,-0.04498307486959785,0.016329421196159488,0.1416394465164134,0.026720827314248075,0.9916434270605852,-0.028490601813619437,-0.12062243325467087,0.03580262241174725
70.48333333333062,-0.023223987,-0.55628216,0.28160185,-2.6587436,0.27219912,1.8753959,0.81484234,0.03999957,0.04,0.011398078605751039,0.03318875635736074,-0.04492890167986374,0.0172937204949746,0.14169993705439257,0.02607567577982889,0.9914770410364184,-0.02835235308890413,-0.12193772958056588,0.03606398864140231
70.49999999999729,-0.023467716,-0.553868,0.28458428,-2.6619444,0.27508202,1.8786205,0.8151477,0.039999563,0.039999988,0.013074767654153163,0.03342764119247388,-0.0439491960074756,0.0182509304115321,0.14173730414725844,0.02541985698038142,0.9913093026523658,-0.02820583454247286,-0.12325224358859377,0.036320542713745095
70.51666666666395,-0.023711378,-0.5514534,0.28756726,-2.6651459,0.27796543,1.8818455,0.8154533,0.03999956,0.039999988,0.012793765177265826,0.03436219650685968,-0.04480687913659409,0.01920109369976214,0.14175593337191825,0.02474892084305813,0.9911401607330436,-0.028050856248604705,-0.1245664964153828,0.036572109818728354
70.53333333333062,-0.023954948,-0.5490388,0.2905502,-2.6683476,0.28084898,1.8850707,0.8157588,0.039999556,0.03999998,0.01433513365671768,0.03489903675976125,-0.04386561207250228,0.020143003579138577,0.14175066661900607,0.024069247216459227,0.9909696697758056,-0.02788753538784871,-0.12588003706582515,0.03681868035018098
70.54999999999728,-0.024198396,-0.54662424,0.29353306,-2.6715493,0.2837323,1.8882955,0.81606424,0.039999556,0.03999998,0.014904286238381914,0.03514441065056717,-0.04380739663623068,0.021075390844352504,0.14172003518995868,0.0233778746241273,0.9907978184429684,-0.027716060373562543,-0.12719298955378133,0.03706003743111226
70.56666666666395,-0.024441691,-0.5442104,0.29651526,-2.6747503,0.28661507,1.8915198,0.8163697,0.039999556,0.039999984,0.017074241003656176,0.03548837466663679,-0.04258136311792171,0.021999318618942137,0.14166402057574634,0.022675840735026348,0.9906246934811817,-0.027536344321679646,-0.12850471218708376,0.03729618415371258
70.58333333333061,-0.024684798,-0.5417972,0.2994965,-2.6779504,0.28949696,1.8947431,0.8166751,0.039999556,0.039999984,0.01770769399611627,0.03586182573160901,-0.04220969554440401,0.02291337355695207,0.14158665727309347,0.021964709975154956,0.9904502991709949,-0.02734851205175641,-0.1298152049590293,0.03752700790213231
70.59999999999728,-0.024927687,-0.5393851,0.3024764,-2.681149,0.29237753,1.8979648,0.8169803,0.039999556,0.03999998,0.01898047674511183,0.03622516398124609,-0.041635255069816246,0.023817252623011986,0.1414854029826471,0.02124549530128872,0.9902746575887152,-0.027152733345416107,-0.13112431905695313,0.037752411330614244
70.61666666666395,-0.02517032,-0.5369745,0.30545464,-2.6843464,0.29525644,1.9011848,0.81728536,0.03999956,0.039999984,0.01951098314652011,0.03683477173587191,-0.04160406410400608,0.02471084778113125,0.14135908512072734,0.020516358260917578,0.9900977925496919,-0.026948967363113537,-0.13243196111141137,0.03797222698861453
70.63333333333061,-0.025412686,-0.5345656,0.30843082,-2.6875424,0.2981335,1.9044027,0.8175903,0.03999956,0.039999977,0.020360373851091573,0.03715296526479728,-0.041025168438602044,0.025593819204869445,0.14120874610259218,0.019781705590273785,0.9899197276408765,-0.026737205696593824,-0.133737989244385,0.038186449060099034
70.64999999999728,-0.025654742,-0.5321589,0.31140456,-2.6907341,0.30100828,1.9076182,0.817895,0.039999563,0.039999977,0.02510191458653388,0.03617403450933976,-0.037333263133731975,0.026463511842948095,0.1410309427432214,0.019038849368669467,0.9897406410575733,-0.026517870689142284,-0.1350410077475174,0.038395210633524954
70.66666666666394,-0.025896458,-0.5297544,0.31437558,-2.6939235,0.30388036,1.9108304,0.8181992,0.03999957,0.039999984,0.02267083536979797,0.03764876910912762,-0.03978337765520035,0.027321905854461814,0.1408400724511134,0.018285171306137882,0.9895603956169805,-0.02629096855612243,-0.13634218106794116,0.03859816136013144
70.68333333333061,-0.026137799,-0.5273525,0.3173434,-2.6971095,0.30674934,1.9140391,0.81850314,0.03999956,0.03999997,0.024748006878394513,0.03769640457050305,-0.038171923966112686,0.02816906810587294,0.14062050147668406,0.017526670870103345,0.9893790800086132,-0.026056521551723097,-0.13764090659374498,0.038795290409877836
70.69999999999727,-0.02637874,-0.52495354,0.32030773,-2.7002916,0.30961502,1.9172442,0.8188066,0.039999567,0.039999977,0.025988393223630446,0.03775889275567934,-0.03720712797021797,0.02900359794564357,0.14037890633389177,0.016760883380773403,0.989196740732475,-0.02581469157207044,-0.13893687165654975,0.03898660690004844
70.71666666666394,-0.026619248,-0.5225576,0.3232681,-2.70347,0.31247693,1.920445,0.81910986,0.03999957,0.039999973,0.02634566496901858,0.03831304494016918,-0.03709912530400761,0.029825566021438404,0.14011537196088442,0.01599036000621848,0.9890133695129554,-0.0255653694698181,-0.14023025253989732,0.03917196805240409
70.7333333333306,-0.026859306,-0.52016526,0.32622418,-2.706643,0.3153347,1.9236411,0.81941265,0.039999567,0.03999997,0.029100467411979913,0.037900557213693675,-0.03493324385042129,0.030632176665004063,0.1398267099797734,0.015212862577326458,0.988829081090035,-0.025308949561227378,-0.14152022119515276,0.03935139712410745
70.74999999999727,-0.02709886,-0.51777685,0.3291757,-2.7098114,0.3181881,1.9268323,0.819715,0.03999957,0.03999997,0.02903050606706259,0.03840633198655685,-0.03511152578563603,0.03142614252638318,0.13951761909989685,0.014431157868741634,0.9886438744290338,-0.025045410202164546,-0.1428068941187376,0.03952477670922197
70.76666666666394,-0.027337898,-0.5153925,0.33212218,-2.7129743,0.32103682,1.9300184,0.8200167,0.039999563,0.03999994,0.030396166011992243,0.03846090483594633,-0.03373529233343664,0.032206935154426186,0.13918648858352922,0.013649740183661885,0.988457801273953,-0.024774955422541566,-0.14408992735404394,0.03969218461586639
70.7833333333306,-0.027576385,-0.5130125,0.33506343,-2.7161307,0.32388034,1.9331987,0.8203179,0.039999556,0.039999917,0.03217491507063741,0.03820277039287556,-0.03248377281221959,0.03297283924888529,0.13883583444585476,0.012861570618505708,0.9882709223457975,-0.02449774142873502,-0.1453689997190058,0.03985346448395131
70.79999999999727,-0.027814293,-0.51063687,0.33799896,-2.719282,0.32671842,1.9363728,0.8206187,0.039999556,0.039999925,0.030655687305647383,0.03929177300791009,-0.03368215785461981,0.033722815145005136,0.13846438354736013,0.01206374363360982,0.9880831482051915,-0.024213636923567657,-0.14664484964650093,0.040008500246900815
70.81666666666393,-0.028051589,-0.50826615,0.34092844,-2.7224276,0.32955074,1.9395404,0.8209188,0.039999556,0.03999992,0.03185222126655951,0.039425572274975895,-0.032811355373696394,0.03445762605576676,0.13806652074078274,0.011266597073552376,0.987894541056893,-0.023922828774313447,-0.14791710273775133,0.04015725004398919
70.8333333333306,-0.028288245,-0.5059008,0.3438516,-2.7255657,0.33237687,1.9427009,0.82121813,0.039999556,0.039999917,0.03529872882730434,0.038473279951178885,-0.029908271910472628,0.03517550214755713,0.13764212865249645,0.010468442809685619,0.9877052358865378,-0.02362576883964837,-0.14918484190689144,0.04029978901024108
70.84999999999727,-0.028524224,-0.50354064,0.34676796,-2.7286959,0.3351965,1.9458542,0.8215169,0.03999956,0.039999917,0.03564903732891089,0.038634795891950846,-0.028968056926204078,0.035879792605068045,0.1371994419355721,0.009667596262787084,0.987515258343527,-0.023322400541878195,-0.1504479945170474,0.040436136282781455
70.86666666666393,-0.028759506,-0.5011865,0.3496772,-2.7318187,0.33800927,1.9489998,0.82181484,0.039999563,0.039999917,0.03596621029300362,0.03919644767418351,-0.029178556599096517,0.03656758554780644,0.13673679657273613,0.00886367581178596,0.9873246173187203,-0.02301285506898571,-0.15170661225751625,0.04056614765249383
70.8833333333306,-0.028994063,-0.49883834,0.352579,-2.7349336,0.3408148,1.9521375,0.8221121,0.039999567,0.03999992,0.036723954335815545,0.03915062362382926,-0.02801478977638716,0.037238610329852304,0.13625273094404217,0.008058946142146209,0.9871333559782198,-0.02269724842022752,-0.15296049593320568,0.04068979126507646
70.89999999999726,-0.029227866,-0.49649674,0.35547295,-2.7380397,0.34361285,1.9552667,0.82240856,0.039999574,0.039999925,0.03867771721079993,0.03877380548298892,-0.026389581875330137,0.03789388027880722,0.13574717267740316,0.007255716659254452,0.9869415551310704,-0.02237577825848908,-0.15420916752921382,0.04080715565606467
70.91666666666393,-0.02946088,-0.49416175,0.35835877,-2.7411375,0.3464031,1.9583873,0.82270426,0.039999574,0.03999992,0.03821287139985641,0.03922264856059399,-0.026536551546163523,0.03853200191006027,0.13522367608150815,0.006451852715956552,0.9867491928845061,-0.02204848289850678,-0.15545289268408924,0.04091812434361092
70.9333333333306,-0.029693082,-0.49183378,0.361236,-2.7442267,0.349185,1.9614985,0.82299894,0.039999567,0.039999917,0.03901401613570776,0.03947493727851081,-0.025850808613325782,0.03915210083060536,0.134678287753449,0.005646910943930522,0.9865562927914371,-0.02171561269163155,-0.1566916013394301,0.041022620451753
70.94999999999726,-0.029924437,-0.48951295,0.36410433,-2.7473078,0.3519584,1.9646,0.8232928,0.039999567,0.039999917,0.03863640138723756,0.03984778823277191,-0.026155941440531016,0.039756104501672065,0.1341093516398376,0.004845258008062653,0.9863628184328328,-0.02137706838853298,-0.15792564154567795,0.04112059219827253
70.96666666666393,-0.030154932,-0.4871995,0.36696357,-2.750375,0.35472292,1.9676919,0.8235856,0.039999567,0.039999917,0.04640350853708508,0.03625126375698673,-0.017609524428241485,0.04034058989691042,0.1335127627471885,0.004047891737612996,0.9861692101153023,-0.021033800274499345,-0.15915208939265993,0.04121262802253709
70.98333333333059,-0.030384518,-0.48489392,0.36981326,-2.7534335,0.35747838,1.9707731,0.8238777,0.03999957,0.039999917,0.040408839595240664,0.03958659270696385,-0.02432679945825189,0.04091195214617459,0.13291564152218263,0.003248393950299591,0.9859751064394306,-0.020685113175999942,-0.16037356163437264,0.041298139223886365
70.99999999999726,-0.030613182,-0.4825964,0.37265307,-2.7564828,0.3602242,1.973844,0.8241685,0.039999563,0.03999991,0.04098673270860331,0.039718459122350946,-0.022852321031696654,0.04146307119878159,0.1322908024189456,0.002452297847078719,0.9857805949002251,-0.020331398253775935,-0.16158957657647766,0.04137706738084673
71.01666666666392,-0.030840887,-0.4803071,0.3754827,-2.7595186,0.3629602,1.9769039,0.8244583,0.039999563,0.039999917,0.047016243894537624,0.0367300863472142,-0.01666649886780114,0.04199568221064166,0.13164081972667457,0.0016602003177363378,0.9855859555663531,-0.01997320230077724,-0.1627983327295142,0.04144994862121299
71.03333333333059,-0.03106761,-0.4780265,0.37830165,-2.7625449,0.36568588,1.9799522,0.82474715,0.039999567,0.039999917,0.042303549160882525,0.03972782579338974,-0.02153366388701894,0.04251384277143461,0.13098469526589998,0.0008711433701434762,0.9853909400893313,-0.019610054327624905,-0.16400165817329335,0.04151622665346325
71.04999999999725,-0.031293325,-0.47575474,0.3811097,-2.765558,0.36840114,1.9829888,0.8250348,0.03999957,0.039999917,0.04701590559674784,0.037203628397886046,-0.016069107219451872,0.04301149917764796,0.13029986379265915,8.988864610948166e-05,0.985195812795283,-0.01924262552601161,-0.16519786989808008,0.041576382654632905
71.06666666666392,-0.031518012,-0.47349206,0.38390657,-2.7685604,0.37110543,1.9860137,0.82532126,0.039999574,0.039999917,0.04423092070005019,0.03896281357941289,-0.01856349228375187,0.04349265069549327,0.12960248729664836,-0.0006888429232095317,0.9850004494427477,-0.018870763959813207,-0.16638795356609723,0.0416300104881608
71.08333333333059,-0.031741638,-0.47123882,0.3866918,-2.771549,0.37379873,1.989026,0.8256065,0.039999582,0.039999917,0.04851760702335728,0.0368296358800313,-0.013998090504729888,0.04395564428539607,0.12888400977249392,-0.0014590637628324188,0.9848050569364242,-0.018494871338301803,-0.1675706303310968,0.04167761290026972
71.09999999999725,-0.03196416,-0.4689953,0.3894652,-2.7745266,0.37648052,1.9920247,0.82589066,0.039999582,0.03999992,0.04505641279063388,0.03883650215239509,-0.017985836960376922,0.044399354642637515,0.12815189078859107,-0.0022289450512697623,0.9846093956152016,-0.01811477720822396,-0.16874758024354644,0.04171866578537507
71.11666666666392,-0.032185566,-0.46676162,0.39222634,-2.7774897,0.3791504,1.9950103,0.8261736,0.039999582,0.039999925,0.049713313466415165,0.03651675437802426,-0.01182273892565977,0.044823999948811755,0.12739239831362945,-0.0029902666363304936,0.9844137931149415,-0.017731032624336066,-0.169916826101811,0.0417536419323504
71.13333333333058,-0.032405842,-0.46453813,0.39497492,-2.7804391,0.38180822,1.9979826,0.8264551,0.03999958,0.039999913,0.04880552547184003,0.03701648770984001,-0.012348314417787165,0.04523241010366885,0.12662041518171735,-0.0037418127697067954,0.9842182223584403,-0.017343696292795148,-0.17107866511340927,0.04178250015866897
71.14999999999725,-0.03262495,-0.46232513,0.39771068,-2.7833753,0.3844536,2.000941,0.8267352,0.03999958,0.039999913,0.0486949877754439,0.03718688100561307,-0.012402640636510753,0.04562260576556221,0.12583244677423672,-0.004488403686311829,0.9840226580887171,-0.01695291305021834,-0.1722333829200625,0.04180513024783623
71.16666666666391,-0.03284286,-0.46012282,0.40043318,-2.786298,0.38708627,2.003888,0.82701415,0.03999958,0.03999992,0.04898925019017897,0.03709267693147167,-0.009585630391240052,0.045994000208522415,0.12502722268260227,-0.005229208481514799,0.9838273479174152,-0.01655850574392577,-0.17337968481993724,0.04182164833017513
71.18333333333058,-0.033059552,-0.45793143,0.4031422,-2.7892058,0.38970593,2.0068195,0.82729167,0.039999574,0.039999913,0.050978548066205054,0.03595007982244436,-0.009435515592448596,0.04634509645120889,0.12421343151992187,-0.0059572967155739065,0.9836321390860044,-0.016161080099513746,-0.17451849242645215,0.04183216762619912
71.19999999999725,-0.033275004,-0.4557512,0.40583757,-2.7920988,0.39231217,2.0097353,0.82756764,0.03999958,0.039999917,0.05080583794799809,0.03603239813790848,-0.00931339888730065,0.0466788355766741,0.12338234104270226,-0.0066784086103536255,0.9834370210148031,-0.015760843196779898,-0.17564999322421163,0.0418366035857436
71.21666666666391,-0.03348919,-0.4535825,0.40851876,-2.7949762,0.3949048,2.0126355,0.82784235,0.039999574,0.03999992,0.051936661886087254,0.035482310005463535,-0.007333021044386712,0.046995112685523865,0.1225310406368022,-0.007391537438176943,0.9832420992126588,-0.015357756191267615,-0.17677368424901777,0.041835131381196065
71.23333333333058,-0.033702087,-0.45142558,0.41118544,-2.7978384,0.39748356,2.0155191,0.8281156,0.03999957,0.039999913,0.051801981619548076,0.03557424042094359,-0.007326373487881455,0.04729374997836172,0.12166431203201952,-0.008091868061212162,0.9830473406921343,-0.014951988465025701,-0.177889856123053,0.04182777889852488
71.24999999999724,-0.03391366,-0.44928056,0.41383734,-2.8006845,0.40004796,2.0183864,0.8283874,0.03999957,0.039999917,0.05290630649799066,0.03483302085032225,-0.005186018630332079,0.04757333412728987,0.12077575801224003,-0.008783457509334847,0.982852852031239,-0.014543821201133879,-0.1789980091834663,0.04181460543021496
71.26666666666391,-0.03412391,-0.4471477,0.41647416,-2.803515,0.40259784,2.0212371,0.8286575,0.039999567,0.039999913,0.052169034672799874,0.035158124197665064,-0.005310115962742223,0.047836030564661514,0.1198727226469248,-0.009464029788118777,0.982658623218466,-0.014133330568834934,-0.18009832143673704,0.041795619352874916
71.28333333333057,-0.034332786,-0.44502726,0.41909575,-2.8063295,0.40513298,2.024072,0.828926,0.03999957,0.039999913,0.052840843996970754,0.03450341532664769,-0.0034435336524252236,0.048080964563861336,0.11895090229984173,-0.010131349263496486,0.9824647800797963,-0.013720700469197758,-0.18119020433353952,0.04177090057638532
71.29999999999724,-0.03454029,-0.4429196,0.4217016,-2.8091264,0.40765297,2.02689,0.8291928,0.039999574,0.039999913,0.05501855009741874,0.03333573755787134,-0.000609237512039229,0.04830789491114226,0.11801545289851195,-0.010786706856181022,0.982271443371541,-0.013306276152370337,-0.182273052597121,0.04174073368633533
71.3166666666639,-0.03474638,-0.44082484,0.4242915,-2.8119056,0.41015756,2.0296907,0.8294581,0.03999957,0.03999991,0.0548856980126855,0.03311569234781819,-0.0004038616191470723,0.04851732304427009,0.11706949164562386,-0.011432492720330659,0.9820785833644401,-0.012890086779285378,-0.18334717195430775,0.041705111150487875
71.33333333333057,-0.034951027,-0.43874314,0.42686522,-2.8146677,0.41264647,2.0324736,0.82972187,0.039999574,0.039999913,0.05429136771610832,0.03321551377094556,-0.0006636350852851081,0.04870922876553768,0.11611221583179837,-0.012066988641651663,0.9818861629632085,-0.012472258654449257,-0.18441290414956396,0.04166397158898265
71.34999999999724,-0.03515422,-0.43667495,0.4294224,-2.8174124,0.41511944,2.035239,0.829984,0.03999957,0.039999906,0.05479752789068204,0.032886454190061976,0.0010663902447083373,0.04888375398010521,0.11513838171561458,-0.012686844570085357,0.9816943054175632,-0.012052903157137394,-0.18546969212353273,0.04161744273516635
71.3666666666639,-0.035355963,-0.43462035,0.4319628,-2.8201382,0.41757607,2.037986,0.83024436,0.03999958,0.03999992,0.056314762764420045,0.031688963018938754,0.0031678692599124147,0.04903901662781891,0.11415279215210278,-0.013296276643025046,0.9815030677441885,-0.011632457711440738,-0.1865173019285131,0.04156573128968561
71.38333333333057,-0.03555619,-0.43257958,0.43448612,-2.822847,0.4200163,2.0407147,0.83050287,0.03999958,0.039999917,0.05436854251925638,0.03258073480605361,0.001582047838333267,0.04917933339529024,0.11315604919087266,-0.013890259506871686,0.9813123623352472,-0.011210811116368376,-0.18755637244870332,0.041508702653937475
71.39999999999723,-0.035754915,-0.43055287,0.43699205,-2.8255363,0.42243966,2.0434246,0.8307595,0.039999582,0.03999992,0.056853314264015964,0.030869707373815114,0.00522208712012695,0.04930187159594973,0.11214316323246412,-0.014470029909889714,0.9811223608648352,-0.010788371779592182,-0.18858604475236096,0.04144668587496356
71.4166666666639,-0.035952087,-0.42854044,0.43948048,-2.8282068,0.4248461,2.0461156,0.8310144,0.03999958,0.039999917,0.05621600777003799,0.030754775622898745,0.005282674000639531,0.04940827860739826,0.11112088801450773,-0.015036830731530698,0.980933066763644,-0.010365185652130397,-0.18960644476844393,0.04137967566741398
71.43333333333057,-0.036147706,-0.42654258,0.44195086,-2.830858,0.4272352,2.0487874,0.83126736,0.03999958,0.039999917,0.056824542591171756,0.030434202707785296,0.006628295921828897,0.049497735484565486,0.11008622757611031,-0.015590186925254351,0.9807445272342665,-0.009941421637791284,-0.1906174302916576,0.04130781651043453
71.44999999999723,-0.036341753,-0.4245593,0.4444031,-2.8334897,0.4296067,2.0514393,0.8315187,0.03999958,0.039999925,0.05679355389786034,0.029823086413915956,0.007234561467195366,0.04957009527504666,0.10904170948859637,-0.01613050080687589,0.9805567396596245,-0.009517138061681961,-0.19161914622365062,0.041231143468514836
71.4666666666639,-0.036534194,-0.42259106,0.4468369,-2.8361015,0.43196034,2.0540714,0.83176816,0.039999574,0.039999925,0.05723157345618457,0.029439381040041734,0.00859691862288292,0.049625862992433475,0.1079848987438145,-0.016654144249136207,0.9803697913377537,-0.009092613361167757,-0.19261124640553384,0.041149779741091456
71.48333333333056,-0.036725014,-0.42063788,0.4492521,-2.8386936,0.43429607,2.0566838,0.83201563,0.039999574,0.039999925,0.05693347077074806,0.028936961700509745,0.009243944921022429,0.049666403042912935,0.10691992079909299,-0.017161640881847434,0.9801837010256401,-0.008667973595822923,-0.1935937482830165,0.04106384179728916
71.49999999999723,-0.036914192,-0.41870013,0.45164838,-2.8412654,0.4366134,2.0592752,0.8322612,0.03999957,0.039999925,0.05751849562980471,0.028476929476795032,0.009950766689237334,0.0496904103378487,0.1058435766655004,-0.01765480896471948,0.979998457561833,-0.00824342302904155,-0.19456683132024347,0.04097337310000733
71.5166666666639,-0.037101727,-0.41677785,0.4540254,-2.8438165,0.43891227,2.061846,0.83250475,0.03999957,0.039999925,0.057822638209525934,0.027762217763982466,0.011822465586408537,0.04969988163270296,0.10475487663417832,-0.018130704153121832,0.9798141662558243,-0.00781907291793404,-0.19553004426988388,0.04087864345749708
71.53333333333056,-0.037287578,-0.41487134,0.456383,-2.8463469,0.44119224,2.0643957,0.83274627,0.039999574,0.039999936,0.057732055578230135,0.027463178778508457,0.01204636021434613,0.04969220134785174,0.10365842121998109,-0.01859325370540492,0.9796308133221718,-0.007395162846148041,-0.19648360069249102,0.04077960047784646
71.54999999999723,-0.037471753,-0.41298074,0.458721,-2.848856,0.44345322,2.066924,0.8329858,0.039999574,0.03999994,0.05807374061899129,0.026657216083725288,0.013512572562379699,0.04967092149241335,0.10255082630356968,-0.019038072180187007,0.9794484714603073,-0.006971797801108024,-0.19742723580935087,0.04067643482616107
71.56666666666389,-0.037654217,-0.4111064,0.46103895,-2.8513439,0.4456949,2.069431,0.8332234,0.03999957,0.03999994,0.0581062272121069,0.02651920307020772,0.014324090433182057,0.04963464584156764,0.1014350529403521,-0.019466874228364142,0.9792671755236123,-0.006549014413057537,-0.19836089542748434,0.040569255815593744
71.58333333333056,-0.03783495,-0.4092483,0.46333683,-2.8538098,0.44791713,2.071916,0.8334589,0.039999574,0.039999943,0.05846399479376707,0.025384515319748502,0.01553112439786064,0.04958311970305021,0.10031135037090985,-0.019877386428240107,0.9790869511447684,-0.006127154723482254,-0.19928454909953383,0.04045823232954998
71.59999999999722,-0.038013928,-0.40740675,0.46561432,-2.8562536,0.45011976,2.074379,0.8336922,0.039999574,0.039999943,0.05870857219969494,0.024869815057038114,0.01661268443888808,0.04951785502506993,0.09917931207396644,-0.020271769665188094,0.9789078498215857,-0.005706365427088793,-0.20019804714548048,0.04034353567088783
71.61666666666389,-0.03819115,-0.40558186,0.46787116,-2.8586755,0.45230243,2.0768197,0.8339231,0.039999582,0.039999958,0.058181838818882614,0.024810321488366593,0.01701018046128544,0.04943807727856875,0.09804090587242226,-0.020652567657021864,0.9787298839879913,-0.005286813487924055,-0.20110146058336356,0.04022519537845437
71.63333333333055,-0.038366605,-0.4037739,0.47010726,-2.861075,0.45446497,2.0792382,0.8341521,0.03999958,0.039999954,0.05854991844955748,0.023940393159493922,0.01847511362456089,0.049346399129276575,0.09689297970960167,-0.021014021636464805,0.978553141579156,-0.004868462439007013,-0.20199448296750835,0.04010331694178427
71.64999999999722,-0.038540263,-0.40198302,0.47232226,-2.8634522,0.45660713,2.0816338,0.834379,0.039999582,0.03999997,0.05808789741862386,0.023887113823051198,0.018338971435039042,0.04923839567708656,0.09574022145785227,-0.021362503614391876,0.9783775668614758,-0.004451442769121654,-0.20287750833534318,0.039977968071605544
71.66666666666389,-0.038712114,-0.40020928,0.4745161,-2.8658066,0.45872882,2.0840068,0.83460385,0.03999958,0.039999973,0.05852071945693371,0.02275482409866969,0.020213045719896794,0.04911789328239122,0.09457997691765148,-0.021689809425564116,0.9782032676986142,-0.004035964706868898,-0.20375010615899558,0.03984937004315176
71.68333333333055,-0.03888215,-0.39845294,0.47668844,-2.8681374,0.46082968,2.0863564,0.8348264,0.03999958,0.039999973,0.059151931907241995,0.021928284304961743,0.021563420587722426,0.0489844311118081,0.09341171242199572,-0.021997599141332314,0.9780302821116194,-0.003622328185798445,-0.20461219254054647,0.03971771235772297
71.69999999999722,-0.039050344,-0.39671418,0.47883907,-2.870445,0.46290958,2.088683,0.8350469,0.039999574,0.039999977,0.058421970923183686,0.02189803786530886,0.02178181741984142,0.04883812923024827,0.0922412758943364,-0.02229211137681865,0.9778586305785812,-0.003210428913384563,-0.20546380456593535,0.039583036296686865
71.71666666666388,-0.03921671,-0.39499307,0.4809679,-2.8727293,0.46496835,2.0909855,0.8352649,0.03999957,0.039999973,0.05832259147171559,0.02125568494245611,0.022166553156210966,0.04867927211080368,0.09106567861348046,-0.022566389457378072,0.9776882857157866,-0.0028006195230813346,-0.20630518052747834,0.039445468585602717
71.73333333333055,-0.039381202,-0.39328977,0.48307464,-2.87499,0.46700567,2.0932643,0.8354807,0.03999957,0.03999998,0.05835671348033422,0.02076349566602076,0.023291301955008503,0.048508393937357744,0.08988270580874413,-0.022825311618820496,0.9775193074104874,-0.0023929396425330512,-0.20713615221669907,0.03930511320997205
71.74999999999721,-0.039543845,-0.39160454,0.48515913,-2.877227,0.46902156,2.0955186,0.8356943,0.039999567,0.039999984,0.058165998387615936,0.020262063813281106,0.02343370642082787,0.048326247950235116,0.08869472560275769,-0.023066451813675018,0.977351661383288,-0.0019873784573941644,-0.20795699129418577,0.03916210017432407
71.76666666666388,-0.039704584,-0.38993743,0.48722118,-2.8794394,0.47101572,2.097749,0.8359056,0.039999567,0.039999984,0.05905357946085488,0.01882357868806528,0.026440054181064987,0.04813199086119763,0.08749793073417397,-0.023286828709934287,0.9771855497563389,-0.00158431160042799,-0.2087668212618009,0.0390167354400349
71.78333333333055,-0.039863426,-0.38828865,0.48926058,-2.8816285,0.472988,2.0999546,0.83611465,0.039999563,0.03999998,0.057109066488414406,0.01991133053915739,0.02386646777887691,0.047926980898139904,0.0863006792437325,-0.02349077568371391,0.9770207698329548,-0.0011835441740505538,-0.20956676638965463,0.03886881736292607
71.79999999999721,-0.040020358,-0.38665825,0.4912773,-2.8837926,0.4749383,2.1021357,0.8363212,0.039999556,0.039999977,0.05870356167489987,0.017706605215250804,0.027492960631492203,0.04770964900184786,0.08509412357910169,-0.023676589258043737,0.976857533677732,-0.0007855901312206292,-0.2103558812792371,0.038718793323656166
71.81666666666388,-0.040175356,-0.38504648,0.4932711,-2.885932,0.47686633,2.1042922,0.83652556,0.039999552,0.03999998,0.05824475116311678,0.017565099537575346,0.027867734856845683,0.047482690346042855,0.08388536296470342,-0.02384673030037273,0.9766958656279379,-0.0003903340276882824,-0.21113418927711655,0.038566667252108375
71.83333333333054,-0.040328436,-0.38345346,0.4952417,-2.8880467,0.47877213,2.1064236,0.8367275,0.039999556,0.039999984,0.057728569430159915,0.017357935722872586,0.027815153248378355,0.04724547188510926,0.08267477014843705,-0.02399667432936093,0.9765357201068248,2.154909963455119e-06,-0.21190199886749203,0.03841263108357768
71.84999999999721,-0.04047957,-0.38187912,0.497189,-2.890137,0.48065543,2.1085298,0.8369272,0.039999567,0.04,0.05726169838793371,0.016934448346406228,0.02808669224036997,0.04699706859428951,0.08146086155762265,-0.02413093262990202,0.9763770847159411,0.0003918090277987074,-0.21265949170783227,0.03825670547567046
71.86666666666387,-0.040628765,-0.38032377,0.49911296,-2.8922014,0.48251605,2.1106112,0.8371242,0.039999563,0.03999999,0.05825019373960627,0.015370493460908907,0.030944816134426123,0.046738789800991734,0.0802407233156027,-0.02424422349827942,0.9762201636221832,0.0007781446341846598,-0.2134058040420163,0.03809920510439298
71.88333333333054,-0.04077599,-0.37878764,0.5010134,-2.8942406,0.48435396,2.1126666,0.83731896,0.039999556,0.039999988,0.057579921943939905,0.015365126152511177,0.02995252709159235,0.04647182688578362,0.07902448006022988,-0.024344150292755308,0.9760648282537632,0.0011613381408882753,-0.21414165202693167,0.037940152962936714
71.8999999999972,-0.040921237,-0.37727055,0.5028901,-2.8962543,0.48616886,2.1146965,0.83751136,0.03999956,0.039999995,0.05725422078569631,0.014786304624003765,0.031123253781484284,0.046195456406429414,0.07780196185090525,-0.02442577428531354,0.9759111492908755,0.0015412604709583604,-0.214866818573708,0.03777967022006182
71.91666666666387,-0.04106453,-0.37577283,0.5047429,-2.8982422,0.48796076,2.1167004,0.8377014,0.03999956,0.039999995,0.057350994920002396,0.014121970542457785,0.03183918531054486,0.04591019217419096,0.07657941887312016,-0.02448957450635534,0.9757591446776182,0.0019178371908043315,-0.21558131280823747,0.03761796175219344
71.93333333333054,-0.04120584,-0.3742945,0.50657177,-2.900205,0.48972946,2.118678,0.8378887,0.039999552,0.03999999,0.05644871972714238,0.014083475808257528,0.03135840980773574,0.04561533720399302,0.07535406782691557,-0.024537526086199676,0.9756087631928985,0.0022908615367671736,-0.21628549058154126,0.0374550356900679
71.9499999999972,-0.04134515,-0.3728357,0.50837654,-2.9021413,0.4914748,2.1206303,0.83807373,0.03999955,0.03999999,0.057090098251033616,0.012772542045713653,0.03399008694584538,0.045312629306071564,0.07412471926623761,-0.02456811387095289,0.9754602009316573,0.0026602907144758227,-0.21697854920066553,0.03729113082838741
71.96666666666387,-0.041482467,-0.37139645,0.51015717,-2.9040523,0.49319682,2.1225564,0.83825636,0.03999955,0.039999995,0.055970181360809335,0.01289764943945837,0.03294444763680682,0.045001209025054174,0.07289850640661685,-0.024583274409884837,0.975313354911361,0.0030261554834319798,-0.21766107406496737,0.03712625690021103
71.98333333333053,-0.041617777,-0.36997688,0.5119135,-2.9059365,0.49489534,2.124456,0.83843625,0.039999545,0.03999999,0.056841162044785065,0.011413771803392425,0.03476161437009351,0.04468301823739969,0.07166978722033533,-0.024577199141544492,0.9751682824898757,0.0033880311606515594,-0.2183328735099318,0.036960768599912784
71.9999999999972,-0.04175108,-0.36857706,0.51364535,-2.907795,0.49657017,2.1263292,0.8386137,0.039999545,0.039999995,0.05553911593095817,0.011887649496178376,0.03418670137618207,0.04435703305725745,0.07044112072138596,-0.024560092332053557,0.9750249746703108,0.003746124086671508,-0.21899412534455195,0.03679454291143967
72.01666666666387,-0.041882373,-0.3671971,0.5153528,-2.909627,0.49822128,2.1281762,0.8387887,0.03999954,0.03999999,0.055868598303243644,0.010698896342864472,0.03573629874810136,0.04402454107469776,0.06921185658204997,-0.0245231769679884,0.9748835179988791,0.004100250042844246,-0.21964452453410666,0.036627819016444116
72.03333333333053,-0.04201164,-0.36583704,0.5170356,-2.911433,0.49984857,2.1299968,0.838961,0.03999954,0.039999995,0.05505592890476807,0.010724000180772908,0.03529720239042744,0.04368465296319718,0.06798364211552092,-0.024471292111386406,0.9747438630659031,0.0044503267645555344,-0.2202843987951636,0.03646065899708883
72.0499999999972,-0.042138893,-0.36449695,0.51869357,-2.913212,0.5014521,2.1317906,0.83913106,0.03999954,0.04,0.05564308603558388,0.009417677106260403,0.03710584169005493,0.043338678226816175,0.06675525815753353,-0.024402665027276123,0.9746060846837558,0.004796461317033276,-0.2209134760787188,0.036293384287655335
72.06666666666386,-0.042264123,-0.36317694,0.520327,-2.9149647,0.50303125,2.133557,0.8392986,0.039999533,0.04,0.0547881941326156,0.009464004300641093,0.03609296268358708,0.042983540087537284,0.06552938680279632,-0.024320439980527055,0.9744701004571277,0.005138201998203388,-0.22153228395997662,0.03612574371244902
72.08333333333053,-0.042387314,-0.36187702,0.52193534,-2.9166908,0.5045864,2.1352966,0.8394633,0.03999953,0.04,0.05445155451163641,0.008997430969071019,0.03704126563185417,0.04262562512209446,0.06430152272102992,-0.02422052375797039,0.9743359634235083,0.005475632902781737,-0.22214062970898,0.035958148678648286
72.0999999999972,-0.042508483,-0.36059734,0.5235188,-2.9183898,0.5061177,2.1370096,0.83962554,0.039999526,0.04,0.05478716358676694,0.007674027392445826,0.03893238713025271,0.04226245653562462,0.06307316471176372,-0.024105373624806546,0.9742038142973748,0.005808823406601091,-0.22273796560288833,0.03579084321671707
72.11666666666386,-0.04262761,-0.35933787,0.52507704,-2.920062,0.5076248,2.1386955,0.8397854,0.039999522,0.04,0.05395515066181078,0.007917134701829198,0.03806272473365624,0.04189175700399257,0.06185072222517958,-0.023977636848439565,0.9740735433595158,0.006137789859608659,-0.22332488893189162,0.0356237792244876
72.13333333333053,-0.04274471,-0.3580987,0.5266106,-2.9217079,0.50910777,2.140354,0.83994234,0.03999952,0.04,0.053296616237119565,0.00738221571102704,0.0376430000038841,0.041515229287117414,0.060629209122095185,-0.023833227199173142,0.9739451264085391,0.00646205075755366,-0.22390162450715723,0.03545694837570528
72.14999999999719,-0.042859767,-0.35687968,0.5281189,-2.923326,0.51056623,2.1419861,0.840097,0.03999952,0.04,0.05396601892020403,0.006152629900957329,0.04097508759522972,0.041135654519490264,0.05940707606680841,-0.02367467734162841,0.973818802721505,0.006781835679475325,-0.22446717728143226,0.03529068565751135
72.16666666666386,-0.04297279,-0.35568106,0.5296021,-2.9249172,0.5120005,2.1435905,0.8402492,0.03999951,0.04,0.05307894651227496,0.006170949049455476,0.03888292652853842,0.04075077789132758,0.05819321918302439,-0.023502472531918575,0.9736943501609567,0.007097079203004719,-0.2250226171399441,0.03512500116595888
72.18333333333052,-0.043083787,-0.3545029,0.53106016,-2.9264815,0.51341033,2.145167,0.8403985,0.039999515,0.04,0.05271158400765863,0.005830447253196702,0.03945475849221891,0.04036173690710932,0.05697920351933654,-0.023315651720572657,0.9735718167847018,0.00740750788997942,-0.22556783035481084,0.03495998138469508
72.19999999999719,-0.043192744,-0.35334513,0.5324932,-2.928018,0.5147958,2.1467173,0.8405454,0.039999507,0.04,0.05288500078789449,0.004549363618921998,0.04174718134556388,0.03996926466947888,0.055766416957313214,-0.023117328382901654,0.9734514056083199,0.007713189325660644,-0.22610200714036266,0.03479583303661813
72.21666666666385,-0.04329966,-0.35220772,0.53390074,-2.9295285,0.51615673,2.14824,0.8406898,0.039999504,0.04,0.051232399495082515,0.005720443710122147,0.03917992253882341,0.039572283691288804,0.05456210814734806,-0.0229069674275064,0.973332879720924,0.008014314563387392,-0.2266262768373202,0.034632451012119064
72.23333333333052,-0.04340455,-0.35109064,0.53528315,-2.9310114,0.5174935,2.1497343,0.84083146,0.0399995,0.04,0.051935085333199016,0.0038759840513158395,0.04020510014043355,0.039171389223153955,0.053357531325179744,-0.022680598932903494,0.9732162167734909,0.008310563785406339,-0.2271407855607014,0.03447018238317852
72.24999999999719,-0.043507397,-0.34999403,0.5366403,-2.9324672,0.51880574,2.1512015,0.8409706,0.039999496,0.04,0.0513747044760815,0.0038045870722869246,0.041605668231736725,0.038768848308834224,0.0521517436530991,-0.022441647210055746,0.9731016122666607,0.008601960235079894,-0.22764478653052703,0.034309031604089955
72.26666666666385,-0.043608226,-0.3489178,0.53797203,-2.9338958,0.52009356,2.1526425,0.84110713,0.039999496,0.04,0.05092133253489228,0.0033890204901410037,0.04245139345828708,0.03836264756253105,0.050952786687950946,-0.022191523839178474,0.9729891427724312,0.008888561760997905,-0.22813801874072234,0.03414917161291329
72.28333333333052,-0.043707047,-0.3478621,0.53927875,-2.9352977,0.52135676,2.1540558,0.84124106,0.039999496,0.04,0.05019214625163748,0.0033760985014619216,0.04072534271635231,0.03795301908698715,0.049763217761045045,-0.021929312924448295,0.97287863120434,0.009170126851561435,-0.22862136627234794,0.033990419286334526
72.29999999999718,-0.043803845,-0.3468268,0.54056007,-2.936673,0.5225957,2.1554418,0.84137243,0.03999949,0.04,0.04983152693213144,0.0029352895177470195,0.041259167423790544,0.037542255988936325,0.04857370573572001,-0.021654660457539714,0.9727700904704454,0.009446923784851765,-0.22909480311134786,0.03383308889973673
72.31666666666385,-0.043898627,-0.34581196,0.54181623,-2.9380205,0.5238103,2.156801,0.84150124,0.03999949,0.04,0.05029589997924688,0.0015002653466544835,0.04351124486222657,0.03712759154655413,0.047387513164055706,-0.02136728958084816,0.972663708774547,0.009718669213234383,-0.2295575963925095,0.03367739657634821
72.33333333333051,-0.043991394,-0.3448175,0.54304713,-2.939341,0.5250005,2.1581326,0.84162736,0.039999485,0.04,0.049270080032259855,0.0019084072900965587,0.0418231195827623,0.036710671750594406,0.046212960520710736,-0.02107205159077806,0.9725593065035721,0.009985362437669534,-0.23001060354320357,0.03352327740496768
72.34999999999718,-0.044082165,-0.3438433,0.5442531,-2.9406352,0.52616644,2.1594367,0.84175104,0.039999485,0.04,0.04838812766712053,0.0017489772011658467,0.041290147986905446,0.03629315747649794,0.04504173319535469,-0.0207651450472647,0.9724568634658757,0.010247087092646228,-0.23045399604209715,0.03337066994317362
72.36666666666385,-0.044170942,-0.34288943,0.5454338,-2.9419022,0.52730805,2.160714,0.841872,0.039999485,0.04,0.04872432949090122,0.0008327070697977668,0.04318744745344105,0.03587358535935863,0.04387197569692379,-0.020447734345876,0.9723565078047463,0.010503697126751648,-0.23088726753902886,0.03321993023455576
72.38333333333051,-0.044257734,-0.34195584,0.54658943,-2.9431417,0.5284254,2.1619644,0.8419903,0.03999948,0.04,0.04855654604116744,0.00010846743093706479,0.04388823592669233,0.035452836312029126,0.042709606667751185,-0.020120387314057464,0.9722582958055045,0.010755137720337486,-0.2313102499489624,0.033071158409424734
72.39999999999718,-0.04434254,-0.3410425,0.5477201,-2.944354,0.5295187,2.1631875,0.84210616,0.039999478,0.04,0.04799442953882238,-0.00017988712129879403,0.043041241998598156,0.035031265676148435,0.041558591832018765,-0.01978644057023925,0.972162117504264,0.011001521990002757,-0.23172347181692662,0.03292440451457427
72.41666666666384,-0.044425376,-0.34014928,0.5488258,-2.9455402,0.5305878,2.1643841,0.8422196,0.039999474,0.04,0.04669849332448184,0.0004730033693722824,0.04242264040404953,0.03460759356858828,0.04041186631709899,-0.019445048012497808,0.9720679932381924,0.011242882108095773,-0.23212694705475917,0.032779484053505954
72.43333333333051,-0.04450624,-0.33927616,0.5499067,-2.9466996,0.5316327,2.1655536,0.8423303,0.039999463,0.04,0.04679718913430664,-0.00042390337360309616,0.0427161259481168,0.034183590483771266,0.03927248003531667,-0.0190927649012393,0.9719758845898372,0.011478974811874541,-0.23252088932745352,0.03263661960807186
72.44999999999717,-0.044585157,-0.33842313,0.5509626,-2.947832,0.5326538,2.1666956,0.8424386,0.03999945,0.04,0.04673225863822683,-0.001095336028278382,0.043121126609624305,0.03375987199035334,0.038139830908126685,-0.01873405308176736,0.971885783005312,0.011710049912398534,-0.23290536427443323,0.03249601229988425
