rsonawane2002/My_IMU/logs_2/traj_497/clean_497.csv
time,j1,j2,j3,j4,j5,j6,j7,gripper1,gripper2,imu_ax,imu_ay,imu_az,imu_gx,imu_gy,imu_gz,quat_x,quat_y,quat_z,quat_w
2719.3333333403475,0.00016700293,-0.785875,4.0107683e-05,-2.3551247,9.29385e-05,1.570997,0.786,0.04,0.04,0.0,-0.0,0.0,2.875329272945135e-08,-0.0011641195053377316,4.421952117202833e-08,0.9999995971961153,0.00020320632366974898,0.0008736418299892524,3.263050917662294e-05
2719.3500000070144,0.00016701443,-0.78576016,4.010919e-05,-2.3552213,9.296904e-05,1.5709941,0.786,0.04,0.04,-0.2919984598163339,-3.4729344408201013e-05,0.02012840799676674,-7.755856284991735e-07,-0.002237629248812711,1.7105723316733593e-08,0.9999996850592852,0.00020320478969641955,0.0007665025189923724,3.260417885708713e-05
2719.3666666736813,0.00016708618,-0.7856542,4.007287e-05,-2.35531,9.296249e-05,1.5709913,0.786,0.04,0.04,0.023196976366568478,5.58370266707923e-06,-0.0016027187625056172,-7.077623621673619e-06,-0.003221389569444621,-4.078781395736835e-07,0.9999997558902884,0.00020318613033652174,0.0006677376512149086,3.257589628136185e-05
2719.383333340348,0.00016731677,-0.7855566,3.993756e-05,-2.355391,9.286282e-05,1.5709884,0.786,0.04,0.04,0.02226311768158684,1.0700029655374716e-05,-0.0014234251609401838,-2.341589813086784e-05,-0.004119689592836226,-1.5898640750497243e-06,0.9999998123826639,0.00020312271511436426,0.000576989603882893,3.2539158162227315e-05
2719.400000007015,0.0001678476,-0.78546655,3.9615607e-05,-2.3554654,9.258935e-05,1.5709856,0.786,0.04,0.04,0.019652572531736467,1.8227692884361865e-05,-0.0013288623373686193,-5.527728903172046e-05,-0.004928452079561567,-3.852655241624908e-06,0.9999998571835036,0.0002029748912630895,0.0004933345106110555,3.2484250974399414e-05
2719.416666673682,0.00016885821,-0.7853831,3.8995597e-05,-2.3555336,9.2040136e-05,1.5709827,0.7859981,0.04,0.04,0.01785280982786741,2.7407484484714842e-05,-0.0010240279256557017,-0.00010691355222468209,-0.005655086728599304,-7.483784580831147e-06,0.9999998925617329,0.00020173863780798953,0.00041608695459509945,3.239893004801978e-05
2719.433333340349,0.00017056259,-0.7853058,3.7944705e-05,-2.355599,9.109312e-05,1.5709828,0.7859962,0.04,0.04,0.012597544906634006,3.888396623972666e-05,-1.7371570781854473e-05,-0.00017422471001302643,-0.006300122356312141,-1.2734658691324077e-05,0.9999999199639836,0.00020030776542168807,0.00034482967825559205,3.22694633583464e-05
2719.4500000070157,0.00017320547,-0.78523374,3.631091e-05,-2.355658,8.9608664e-05,1.5709833,0.7859924,0.04,0.04,0.01644891327365894,5.186422952655552e-05,3.548997915547858e-05,-0.0002702722633917992,-0.006863664952220297,-1.9842597188287825e-05,0.9999999408980794,0.0001976598509028281,0.0002794733113307758,3.20794229674064e-05
2719.4666666736825,0.0001770589,-0.7851665,3.3925146e-05,-2.355716,8.743182e-05,1.5709839,0.78598833,0.04,0.04,0.007402391459798707,6.702167282739233e-05,-0.002140252141913379,-0.0003904587585163825,-0.0073421537658340625,-2.9007550443964703e-05,0.999999956983559,0.0001945532390796746,0.0002171866122805724,3.181025983805225e-05
2719.4833333403494,0.00018241964,-0.7851031,3.0603213e-05,-2.3557703,8.439303e-05,1.5709847,0.7859823,0.04,0.04,0.010371838032430247,8.253517575288459e-05,-0.00040603590030219294,-0.0005462686408710388,-0.007757198188547252,-4.040742711009407e-05,0.9999999688528485,0.0001900403405601715,0.00015871467183813378,3.144238925053343e-05
2719.5000000070163,0.00018960581,-0.78504264,2.6147169e-05,-2.3558216,8.031092e-05,1.5709857,0.78597337,0.04,0.04,0.00860090846523942,9.983481609661957e-05,-0.0002317693279296762,-0.0007337409988765369,-0.008098971603793876,-5.4201539947077993e-05,0.9999999773348287,0.00018355522630875105,0.00010334225269802655,3.095480096158403e-05
2719.516666673683,0.00019895475,-0.7849849,2.0347425e-05,-2.3558722,7.499296e-05,1.5709866,0.7859619,0.04,0.04,0.004181876555042763,0.00011822867641860359,-0.0012174610687587517,-0.0009523978872905299,-0.008369439771182421,-7.05260463464045e-05,0.9999999829570986,0.00017521196349407965,4.966864051077519e-05,3.0324850412159176e-05
2719.53333334035,0.00021082046,-0.78492904,1.29839445e-05,-2.3559227,6.823695e-05,1.5709909,0.7859476,0.04,0.04,0.0031673771961227004,0.00013687973878521087,0.0013895060592128416,-0.0012074437884402238,-0.008577671712461042,-8.950140973126375e-05,0.9999999859946439,0.00016473252652577917,-1.382288935679197e-06,2.9529577686886095e-05
2719.550000007017,0.0002255714,-0.7848744,3.827439e-06,-2.3559732,5.983246e-05,1.5709956,0.7859299,0.04,0.04,0.0014321242362003161,0.00015736551951899252,-0.0004253670771614537,-0.0015007253892597135,-0.00871237345680515,-0.0001112325587236476,0.9999999867449939,0.00015174540716909402,-5.1658277447649e-05,2.8544100945873496e-05
2719.566666673684,0.0002435888,-0.7848206,-7.359075e-06,-2.3560238,4.9571543e-05,1.5710003,0.7859082,0.04,0.039999995,0.0010271076793078038,0.0001705446020739017,-0.00043377633305308194,-0.0018332009116338336,-0.008784788226473888,-0.00013503990451521354,0.9999999852552472,0.00013584563543259242,-0.00010142755100284561,2.7348135338769058e-05
2719.5833333403507,0.00026526462,-0.7847669,-2.081927e-05,-2.3560748,3.7219954e-05,1.5710078,0.7858821,0.04,0.039999995,0.0001246754301797992,0.00019875397400202625,0.0017793608136917882,-0.002205496679584334,-0.008795508473138171,-0.00016257683816292947,0.9999999815979833,0.00011671466657154123,-0.0001500344702667113,2.5910950535902577e-05
2719.6000000070176,0.00029099986,-0.78471255,-3.6802732e-05,-2.3561282,2.2548522e-05,1.5710163,0.78585094,0.04,0.039999995,-0.0044733185162071365,0.00022084369777337453,-5.3911263453443325e-06,-0.002618463522861864,-0.00873534550546248,-0.00019308906304548173,0.9999999753603609,9.39122234461469e-05,-0.00019968442742629916,2.4205404022718435e-05
2719.6166666736844,0.000321203,-0.78465724,-5.55636e-05,-2.3561857,5.323872e-06,1.5710249,0.78581446,0.04,0.039999995,-0.007902477978594113,0.00024284730611597006,-0.001210121630901284,-0.0030720818893818433,-0.008620056475226134,-0.00022662183666295917,0.9999999657991454,6.720443337944065e-05,-0.0002517781694162305,2.2204177456232664e-05
2719.6333333403513,0.000356289,-0.78460026,-7.735973e-05,-2.3562443,-1.4703891e-05,1.5710372,0.78577214,0.04,0.04,-0.0027006513475535954,0.00027293898225829935,0.003143684417183934,-0.003568473472921505,-0.008458689732729988,-0.0002646079413180088,0.9999999531046614,3.620651065122359e-05,-0.0003034547199070498,1.9874518321853425e-05
2719.650000007018,0.00039667703,-0.7845412,-0.00010245254,-2.356309,-3.7747635e-05,1.5710496,0.78572345,0.04,0.039999995,-0.012395223644889874,0.00027663295430173525,-0.001431842552523932,-0.004107814781527993,-0.008222368659497305,-0.00030284661960163005,0.9999999353772775,5.326065176962809e-07,-0.00035909509063189563,1.7200961203969186e-05
2719.666666673685,0.00044279086,-0.78447914,-0.00013110509,-2.3563752,-6.407629e-05,1.5710657,0.78566796,0.04,0.04,-0.0049615326527252535,0.0003165859858788407,0.003666037142457945,-0.0046905030726337605,-0.007948183160013427,-0.00034704601303762236,0.9999999128934586,-4.014511584202683e-05,-0.0004152124933349084,1.414321314116665e-05
2719.683333340352,0.0004950559,-0.78441405,-0.00016358274,-2.3564482,-9.391732e-05,1.5710821,0.785605,0.04,0.04,-0.014589592296276876,0.0003281862043569175,-0.0010445580938212018,-0.005316913451897714,-0.007601530526642312,-0.00039229254190273496,0.9999998829289851,-8.627411923045637e-05,-0.0004760091670912968,1.0680131535146115e-05
2719.700000007019,0.00055389997,-0.7843452,-0.00020015148,-2.3565242,-0.00012750727,1.5711021,0.785534,0.04,0.039999995,-0.00828755816892901,0.00034251043717628484,0.003364127141058937,-0.005986840794831484,-0.007216525336325719,-0.0004405352628606663,0.9999998454555414,-0.0001382727206877141,-0.000538445414433264,6.788500459349658e-06
2719.7166666736857,0.00061975134,-0.78427196,-0.00024107788,-2.3566058,-0.00016510225,1.5711253,0.7854547,0.04,0.039999995,-0.013214512734660566,0.00037175703986194286,0.002300709365821163,-0.00669977367246731,-0.006762560465598656,-0.0004927406797373796,0.9999997981314243,-0.000196410747225566,-0.0006042797405942306,2.433983634808912e-06
2719.7333333403526,0.0006930381,-0.78419405,-0.00028662838,-2.356695,-0.00020694615,1.5711493,0.78536636,0.04,0.039999995,-0.017801771904379926,0.00039213049171578666,-0.00013824899804948387,-0.007457110766642185,-0.006253334370616299,-0.0005480519123617674,0.9999997375633028,-0.000261136968601063,-0.0006757773254216691,-2.4115664936126054e-06
2719.7500000070195,0.0007741875,-0.7841109,-0.00033706916,-2.3567915,-0.00025328313,1.571177,0.78526855,0.04,0.039999995,-0.017227977024769636,0.0004110963823853234,0.0022526212173579196,-0.008257747143429663,-0.005706433112243659,-0.0006064604636920388,0.9999996619822509,-0.00033281041891737253,-0.0007518059245527198,-7.775668160976387e-06
2719.7666666736864,0.0008636255,-0.78402203,-0.00039266518,-2.3568957,-0.00030436806,1.5712082,0.7851607,0.04,0.04,-0.018161359287049983,0.00043813352859392823,0.002404884290907461,-0.009101928870890175,-0.005108082826199405,-0.0006687309331513346,0.9999995683941619,-0.0004118199501944642,-0.0008327234520831466,-1.3691990620607808e-05
2719.7833333403532,0.00096177525,-0.78392714,-0.00045368008,-2.3570077,-0.00036043022,1.5712421,0.7850424,0.04,0.04,-0.019198046819668413,0.00044741580659670246,0.0017437947705811752,-0.009989335542648872,-0.0044601459060207085,-0.0007332385205276316,0.9999994529996419,-0.0004985238477670874,-0.0009192753025159521,-2.0181888257431762e-05
2719.80000000702,0.0010690578,-0.7838253,-0.000520376,-2.357128,-0.0004217108,1.5712787,0.7849131,0.04,0.04,-0.020621028916423256,0.0004646425437649488,0.0022505643922476892,-0.01091989423024999,-0.0037657017253240957,-0.0008007657041207532,0.9999993115669392,-0.0005932800777720955,-0.0010119983050375094,-2.7273202033900434e-05
2719.816666673687,0.0011858906,-0.783717,-0.00059301296,-2.3572567,-0.000488451,1.5713181,0.78477234,0.039999995,0.04,-0.020801657288682662,0.0004832384717659772,0.0018086659584026776,-0.01189328710928524,-0.003027113331595049,-0.0008718579809017389,0.9999991399060124,-0.0006964755807867112,-0.0011108034986682842,-3.4994116847872745e-05
2719.833333340354,0.0013126873,-0.78360116,-0.0006718486,-2.357396,-0.0005608848,1.5713614,0.7846195,0.03999999,0.039999995,-0.02492831432316933,0.0004948484467055131,0.002245313457760467,-0.01290913792860137,-0.0022407791125026934,-0.0009456108369088148,0.9999989320401724,-0.0008084969201078262,-0.0012167046709757705,-4.337036417513576e-05
2719.8500000070208,0.0014498574,-0.7834776,-0.0007571379,-2.3575459,-0.00063924637,1.5714084,0.78445417,0.039999988,0.039999988,-0.025636217255442517,0.0005083056700105513,0.0021640664332522874,-0.013967075493711388,-0.0014141787387912583,-0.0010211187665930804,0.9999986820033989,-0.0009296997379530541,-0.0013300004207389565,-5.242845796586433e-05
2719.8666666736876,0.0015978061,-0.78334504,-0.00084913324,-2.3577049,-0.00072376855,1.5714593,0.7842758,0.039999988,0.039999988,-0.024113307259732153,0.0005212759439445294,0.0037826764776482946,-0.015066422496273813,-0.0005474679462911802,-0.0011003546261506222,0.999998384022804,-0.0010604381301489282,-0.0014503635713527866,-6.219536596450921e-05
2719.8833333403545,0.001756933,-0.7832044,-0.00094808394,-2.3578758,-0.0008146737,1.571514,0.78408396,0.03999999,0.039999988,-0.028023117888986704,0.0005277192623861669,0.00187129855491186,-0.016206823230399518,0.00036559533092226856,-0.0011816007737668645,0.9999980296756903,-0.0012010958412849875,-0.0015788379311793433,-7.269322045092389e-05
2719.9000000070214,0.0019276335,-0.78305423,-0.0010542356,-2.3580577,-0.0009121935,1.5715725,0.7838782,0.03999999,0.039999988,-0.027922191525320272,0.000539929949834345,0.0030492268899839914,-0.017387852460704907,0.0013172253385704885,-0.0012664442169965364,0.9999976108695428,-0.0013519656630384084,-0.001715632921508217,-8.395076608192052e-05
2719.9166666736883,0.0021102966,-0.782895,-0.0011678308,-2.3582513,-0.0010165577,1.5716357,0.783658,0.03999999,0.03999999,-0.0284160745446016,0.0005526011832344838,0.0030858087433305315,-0.01860912263481465,0.0023072140050170555,-0.0013547767359289309,0.9999971194598736,-0.0015134286540389498,-0.0018604812224282052,-9.599627911666422e-05
2719.933333340355,0.0023053049,-0.78272605,-0.0012891081,-2.3584576,-0.0011279784,1.5717032,0.78342295,0.03999999,0.03999999,-0.030941909224213582,0.0005528849962628361,0.0027555137201984437,-0.01986993363446172,0.003341494520027158,-0.0014449389683560913,0.9999965441525985,-0.0016858347198021283,-0.0020143971024519985,-0.00010885068354018877
2719.950000007022,0.002513035,-0.7825469,-0.0014183029,-2.358677,-0.001246672,1.571775,0.7831726,0.03999999,0.039999995,-0.03221621532425445,0.0005574322634813178,0.00273775584322955,-0.021169869695729232,0.0044114120372697975,-0.0015385295002985884,0.999995873550762,-0.0018694726845778981,-0.002177828678953387,-0.00012253805505569898
2719.966666673689,0.0027338588,-0.7823572,-0.0015556462,-2.358909,-0.0013728492,1.5718511,0.7829064,0.03999999,0.03999999,-0.031702708801750745,0.00055747282146251,0.0031747301817430795,-0.022508514844399412,0.005515653237965206,-0.0016329215500305782,0.9999950962706041,-0.002064749585012655,-0.0023506281414340043,-0.00013708113356832467
2719.983333340356,0.0029681423,-0.7821568,-0.0017013649,-2.3591542,-0.0015067197,1.5719317,0.78262395,0.03999999,0.03999999,-0.033184621129001,0.000555671558628211,0.002941701777170458,-0.023884628003220755,0.0066585084267315265,-0.0017306360389657497,0.9999941986643202,-0.002271982651164149,-0.0025332736264364352,-0.00015250334606444345
2720.0000000070227,0.0032162413,-0.78194517,-0.001855682,-2.3594139,-0.0016484894,1.5720176,0.7823248,0.03999999,0.039999995,-0.035139827906283116,0.0005537471408458071,0.0033838083980830547,-0.025297766054904865,0.007836424846209465,-0.0018316062325897196,0.9999931661782949,-0.002491486184547599,-0.00272609437260014,-0.00016882764305829965
2720.0166666736895,0.0034785068,-0.78172207,-0.0020188165,-2.3596878,-0.0017983567,1.5721084,0.7820085,0.039999988,0.039999988,-0.03541716322539301,0.0005478556795496242,0.003257728967787088,-0.02674749952313045,0.009048396830357207,-0.0019331726426788402,0.9999919833292106,-0.002723573391321699,-0.0029293005272854455,-0.00018607448657256137
2720.0333333403564,0.0037552824,-0.7814871,-0.0021909822,-2.3599763,-0.0019565201,1.5722038,0.78167486,0.039999988,0.039999988,-0.03643733328642096,0.0005422755631918219,0.002973108094117549,-0.028232867553798266,0.01029516188503378,-0.0020378402838093232,0.9999906324376551,-0.0029684965278518032,-0.003143459975816247,-0.00020426620662992146
2720.0500000070233,0.004046907,-0.7812401,-0.0023723901,-2.3602798,-0.0021231715,1.5723045,0.7813234,0.03999999,0.03999999,-0.03718906037459835,0.0005287413172250975,0.0034211440390619074,-0.029753974794735953,0.011572287854131284,-0.0021446968225561393,0.9999890962680019,-0.003226567161497568,-0.003368485091331472,-0.00022342257440395783
2720.06666667369,0.0043537095,-0.7809806,-0.0025632447,-2.3605983,-0.0022985006,1.5724106,0.78095335,0.039999995,0.039999995,-0.037722695692332664,0.0005175785093602681,0.003626776549681132,-0.03131036065997498,0.012883805058574428,-0.002253657146067247,0.9999873547776862,-0.003498242835220504,-0.00360461624090573,-0.00024356425753391256
2720.083333340357,0.004676011,-0.78070843,-0.0027637472,-2.3609326,-0.0024826922,1.5725218,0.7805648,0.039999995,0.04,-0.03914850000794612,0.0005041618437612045,0.0031202397921425984,-0.03289945067872635,0.014226619972216008,-0.0023655237512517947,0.9999853864966802,-0.0037836223638467643,-0.0038523918668426057,-0.0002647107798477901
2720.100000007024,0.005014128,-0.7804232,-0.0029740948,-2.3612833,-0.0026759251,1.5726386,0.7801572,0.039999995,0.04,-0.04068137595711896,0.0004818145933488025,0.0033068711477124424,-0.034522405589139146,0.015600531511555646,-0.00247846696081732,0.9999831682325735,-0.004083042962346335,-0.004112141986533985,-0.0002868797567020713
2720.116666673691,0.0053683664,-0.7801247,-0.0031944797,-2.3616507,-0.0028783767,1.5727607,0.77973014,0.039999995,0.04,-0.0414672732627519,0.0004660420485196829,0.0029854510285920455,-0.03617828490152385,0.017001401785133763,-0.002593262514322285,0.9999806746610347,-0.004396837942752907,-0.004384286173152896,-0.00031008921146914145
2720.1333333403577,0.005739029,-0.7798127,-0.0034250878,-2.3620343,-0.0030902182,1.5728889,0.7792832,0.039999995,0.04,-0.04067068601618651,0.00043694575387125904,0.0038842600388111492,-0.037866092611133696,0.018428838397338655,-0.0027098856855069086,0.9999778832449758,-0.00472528200267099,-0.004668290466629644,-0.00033435761086020077
2720.1500000070246,0.006126407,-0.77948684,-0.0036661022,-2.3624356,-0.0033116178,1.5730228,0.77881616,0.039999995,0.04,-0.04350784214681713,0.0004113445673206706,0.0031185621107487904,-0.039584777984560976,0.019887564372982183,-0.0028281947279286384,0.9999747632331228,-0.005068617899870196,-0.004965140948283541,-0.0003597009990879707
2720.1666666736915,0.006530787,-0.7791469,-0.0039177006,-2.362854,-0.003542738,1.5731626,0.77832854,0.04,0.04,-0.0430078128702327,0.0003821266311676368,0.003292793923526105,-0.04133404045158279,0.02137290374378515,-0.0029481806421555266,0.9999712864255372,-0.0054271457927294875,-0.005274780804125775,-0.00038613529864771665
2720.1833333403583,0.006952445,-0.77879256,-0.0041800556,-2.36329,-0.0037837382,1.5733085,0.77782017,0.04,0.04,-0.04407283313041521,0.0003479771346839942,0.0035271827282912227,-0.04311304541478628,0.022882751100762287,-0.0030696994656098445,0.9999674224423248,-0.005801045691566831,-0.005597391746221245,-0.00041367689896973906
2720.200000007025,0.0073916498,-0.77842396,-0.0044533373,-2.363744,-0.004034774,1.57346,0.7772907,0.04,0.04,-0.044471192761297296,0.0003209797966566524,0.002769920380663038,-0.04492170821811933,0.024419739457249554,-0.003192688673629089,0.9999631377730606,-0.006190583684882118,-0.005933304686985444,-0.0004423394478358672
2720.216666673692,0.007848666,-0.77804047,-0.004737706,-2.3642166,-0.0042959927,1.5736179,0.7767398,0.04,0.04,-0.046160357502378346,0.0002676268398023546,0.003308565270154773,-0.046759097660919624,0.02597979530829568,-0.003317043212501397,0.9999583971409629,-0.006596029857778788,-0.006282791087337778,-0.0004721372095910913
2720.233333340359,0.008323745,-0.7776421,-0.0050333226,-2.3647072,-0.0045675416,1.5737822,0.776167,0.04,0.04,-0.04539830061118799,0.00023737142072884835,0.0033313365194409528,-0.048624344048812024,0.027563851711008905,-0.0034427148487700242,0.9999531659735584,-0.00701767502220895,-0.006645675574337315,-0.0005030833933414858
2720.250000007026,0.008817139,-0.7772285,-0.0053403415,-2.365217,-0.0048495615,1.5739526,0.7755721,0.04,0.04,-0.047426112620496674,0.00018359194312502088,0.002743387904646788,-0.05051633395292707,0.02917375394906703,-0.0035691539075244205,0.999947402484453,-0.007455697631446399,-0.007022706720962064,-0.0005351894384664988
2720.2666666736927,0.009329081,-0.7767993,-0.0056589115,-2.365746,-0.0051421905,1.5741293,0.7749549,0.04,0.04,-0.04812519654864289,0.0001420475864850803,0.0029644878653867224,-0.05243490409804401,0.030803920356968734,-0.0036970398945302685,0.9999410662972491,-0.007910326770102854,-0.007414007461566793,-0.0005684681791378458
2720.2833333403596,0.009859804,-0.77635455,-0.0059891753,-2.366294,-0.0054455595,1.5743128,0.77431506,0.039999995,0.039999995,-0.04732049336495514,8.61797977916713e-05,0.003270421283385616,-0.0543792764859372,0.03245442205451861,-0.0038258023760633,0.9999341184640693,-0.008381794197604911,-0.007819253872005634,-0.0006029315040678192
2720.3000000070265,0.010409532,-0.775894,-0.0063312734,-2.3668613,-0.005759799,1.574503,0.77365226,0.039999995,0.039999995,-0.04873963316702756,3.385497756140405e-05,0.00288626121662805,-0.05634882778942227,0.0341280756491041,-0.00395583027831563,0.9999265123151571,-0.008870329649411545,-0.008238897033884493,-0.0006385897133226274
2720.3166666736934,0.0109784845,-0.77541745,-0.006685342,-2.3674486,-0.006085031,1.5746994,0.77296627,0.04,0.04,-0.04945976789627604,-2.5314846852054432e-05,0.0024532972275670417,-0.058342570941929184,0.035822144272088324,-0.004086697748055687,0.9999181992906301,-0.009376132756851828,-0.008673328564681353,-0.000675450604306829
2720.3333333403602,0.011566866,-0.7749248,-0.0070515103,-2.3680556,-0.0064213756,1.5749027,0.772257,0.04,0.04,-0.04945636797313302,-8.510359413374264e-05,0.0027223744934357086,-0.060360082432129314,0.037534512717751205,-0.004218260459984044,0.9999091339996918,-0.009899339327063742,-0.009122373982009952,-0.0007135249163896729
2720.350000007027,0.01217488,-0.77441573,-0.0074299034,-2.368683,-0.0067689484,1.5751128,0.7715236,0.039999995,0.039999995,-0.05103657151575014,-0.00015468115107408233,0.0024967350067406358,-0.06240123472337415,0.03926837903853475,-0.0043507109882770685,0.9998992597843085,-0.01044041575116486,-0.009586514821733779,-0.0007528182432249381
2720.366666673694,0.012802723,-0.7738901,-0.007820644,-2.3693316,-0.0071278596,1.5753298,0.77076674,0.039999995,0.04,-0.052020712645539646,-0.0002245288175700428,0.002068648987507693,-0.06446312047998194,0.04101842466611127,-0.0044845055575124075,0.9998885252260775,-0.010999140928038744,-0.010066113067401763,-0.0007933396367370702
2720.383333340361,0.013450577,-0.7733476,-0.008223848,-2.3699996,-0.0074982163,1.5755537,0.7699857,0.04,0.04,-0.04983950782937452,-0.0002841317954093239,0.0028086058343035347,-0.06654828197799466,0.04278219351947096,-0.0046179234178913755,0.9998768802609704,-0.011575940082938179,-0.010560518142508617,-0.0008350972080800538
2720.4000000070278,0.014118613,-0.7727884,-0.008639622,-2.370689,-0.00788012,1.5757846,0.76918006,0.04,0.04,-0.052569271932534356,-0.0003636526932760775,0.0018683034663347087,-0.06865442800965593,0.044568186722029605,-0.004751279755513899,0.999864260062486,-0.012171066936791942,-0.01107048010372983,-0.0008780942947641035
2720.4166666736946,0.014807011,-0.77221215,-0.0090680765,-2.3713992,-0.00827367,1.5760225,0.76835006,0.039999995,0.04,-0.05250577475581775,-0.0004407653284948382,0.0019519161736925028,-0.0707797798964051,0.04636878334317892,-0.004885933036820861,0.9998506077056157,-0.012784504850238458,-0.011596033741089407,-0.0009223382897476348
2720.4333333403615,0.015515929,-0.77161884,-0.009509312,-2.3721306,-0.008678952,1.5762672,0.7674953,0.04,0.04,-0.05298880534094774,-0.0005231136741577986,0.0014563553315305455,-0.0729258583525233,0.048183811442499766,-0.005020283614107772,0.9998358580237033,-0.01341653039626964,-0.012137422812239352,-0.0009678272615045092
2720.4500000070284,0.016245527,-0.7710083,-0.009963428,-2.372883,-0.009096065,1.5765191,0.7666155,0.039999995,0.04,-0.05268591240461529,-0.0006003766099451323,0.001733057011699124,-0.07509088181033075,0.05001334675119429,-0.005154348560129595,0.999819950171511,-0.014067301537041853,-0.01269444417449527,-0.0010145706497888928
2720.4666666736953,0.016995953,-0.7703805,-0.010430522,-2.3736572,-0.009525091,1.5767783,0.76571065,0.04,0.04,-0.05393312048282972,-0.0006840512125249796,0.0012849116229007862,-0.07727411186253869,0.05185773527206005,-0.005289354182007586,0.9998028148977999,-0.014736944838377397,-0.01326743116013138,-0.0010625674930760188
2720.483333340362,0.017767353,-0.76973504,-0.010910668,-2.3744528,-0.009966115,1.5770447,0.7647805,0.04,0.04,-0.053935006405048114,-0.000794013649025628,0.0013691395393422567,-0.07947494485077196,0.05371549067685202,-0.005423466907850963,0.9997843831835339,-0.015425621640208158,-0.01385644906103052,-0.0011118267637980634
2720.500000007029,0.018559853,-0.7690719,-0.011403959,-2.3752701,-0.010419205,1.5773185,0.76382494,0.04,0.04,-0.05437617728287769,-0.0008724183257947981,0.0011407281491404575,-0.08169335823910145,0.05558667324311372,-0.0055582084832259335,0.9997645833559248,-0.016133479187703276,-0.01446159310922462,-0.0011623429774541502
2720.516666673696,0.01937358,-0.7683912,-0.011910473,-2.3761086,-0.010884438,1.5775998,0.76284367,0.04,0.04,-0.05338087211359532,-0.0009599799359226056,0.001054321083437948,-0.08392795395982161,0.05746952203221706,-0.005692358779444594,0.9997433469227478,-0.016860698076409615,-0.01508254154282596,-0.0012141188934453777
2720.533333340363,0.020208657,-0.7676925,-0.012430285,-2.3769698,-0.011361881,1.5778884,0.76183665,0.04,0.04,-0.05632929439332024,-0.0010708137703490436,0.000329179967284432,-0.0861780864749529,0.05936962411207815,-0.005826226593085963,0.9997205850991132,-0.017607375598343675,-0.015720253908404352,-0.0012671506149201934
2720.5500000070297,0.021065196,-0.76697606,-0.012963464,-2.3778527,-0.011851599,1.5781841,0.7608039,0.04,0.04,-0.05453157404013975,-0.0011617819963320774,0.000258226976002085,-0.08844324942648316,0.061276482557769754,-0.005959600161098408,0.999696228549638,-0.018373569148053645,-0.016374259531464305,-0.0013214405728897013
2720.5666666736965,0.021943294,-0.7662414,-0.013510078,-2.3787577,-0.012353655,1.5784875,0.7597451,0.04,0.04,-0.05572998161151865,-0.001258249818332567,0.00035771454678368286,-0.09072385362936719,0.0631944122133399,-0.006092159870261116,0.9996701925970595,-0.019159452698991417,-0.017044803153255544,-0.0013769860928970355
2720.5833333403634,0.02284306,-0.7654887,-0.014070186,-2.3796852,-0.012868102,1.5787983,0.75866026,0.04,0.04,-0.0559405501405319,-0.0013783049435885575,-0.00033756949815444415,-0.09301823181227133,0.06512278794390816,-0.006224387213132093,0.9996423924628127,-0.019965151337287514,-0.01773201030376539,-0.0014337830695213174
2720.6000000070303,0.023764575,-0.7647179,-0.014643845,-2.3806353,-0.013394992,1.5791168,0.75754905,0.04,0.04,-0.0563732172802478,-0.0014790612524156381,-0.0004094210400706899,-0.0953264033061986,0.06706047856480955,-0.00635589742196779,0.9996127418249277,-0.020790836585566057,-0.018435887535501485,-0.0014918264312853847
2720.616666673697,0.02470793,-0.7639288,-0.015231106,-2.3816082,-0.013934377,1.5794429,0.7564115,0.039999995,0.04,-0.057043577014970204,-0.0015951173048401506,-0.0009126866432618286,-0.09764642415276631,0.06900613352613727,-0.00648677147849892,0.9995811478729131,-0.021636567731481635,-0.019156769068779934,-0.0015511133793894337
2720.633333340364,0.025673198,-0.7631211,-0.015832022,-2.3826036,-0.014486297,1.5797765,0.75524753,0.039999988,0.03999999,-0.05647177387033686,-0.0016973358959115458,-0.00074987591196507,-0.09997847663037102,0.07095804186298538,-0.006616440520870553,0.9995475242369856,-0.02250242143984453,-0.019894482717000977,-0.0016116384455288936
2720.650000007031,0.026660448,-0.7622955,-0.01644663,-2.3836215,-0.015050791,1.5801177,0.754057,0.039999988,0.03999999,-0.05590997840498879,-0.0018092359587517466,-0.0014096629016080442,-0.10232206040176411,0.07291761909986921,-0.0067451350713152135,0.9995117817659929,-0.023388540377318547,-0.020648826634746414,-0.00167339433399382
2720.666666673698,0.027669746,-0.7614515,-0.017074978,-2.3846624,-0.015627902,1.5804664,0.75284,0.039999984,0.039999988,-0.05750738132812572,-0.0019222289184992955,-0.001920984466297071,-0.1046765217364874,0.07488630829254853,-0.006872716878167682,0.9994738169928686,-0.02429491773130072,-0.02142034370107695,-0.0017363737682173504
2720.6833333403647,0.028701155,-0.76058847,-0.017717103,-2.3857262,-0.016217656,1.5808227,0.7515963,0.039999977,0.03999998,-0.05779641948013836,-0.0020553091015481587,-0.0017031375841636276,-0.10704162324739018,0.07685989362832697,-0.006999036579821337,0.9994335268251329,-0.025221722907206395,-0.022209189763280984,-0.0018005670015439905
2720.7000000070316,0.02975471,-0.7597074,-0.01837303,-2.3868127,-0.016820092,1.5811869,0.7503258,0.039999973,0.039999977,-0.05626412135415482,-0.002145198636462303,-0.002192604022943634,-0.10941577348364409,0.07883544214884662,-0.007123981398343821,0.999390827338094,-0.026169026796573302,-0.023014656592730453,-0.0018659718430524069
2720.7166666736985,0.030830467,-0.75880736,-0.019042784,-2.3879223,-0.017435223,1.5815587,0.7490285,0.039999966,0.03999997,-0.05811874505976533,-0.002301745323778667,-0.0025288853689131585,-0.11179902869437938,0.08082125402794307,-0.007247584907742702,0.9993455978564689,-0.027136915123916697,-0.02383755536537799,-0.0019325725488326321
2720.7333333403653,0.03192846,-0.757889,-0.019726394,-2.3890545,-0.01806307,1.5819383,0.7477043,0.03999996,0.039999966,-0.056614190671688824,-0.0024022109968342437,-0.002815601011341151,-0.1141904382826259,0.08280759412687295,-0.007369596460043523,0.9992977475761842,-0.028125455770028642,-0.024677297078568583,-0.0020003589151203196
2720.750000007032,0.033048715,-0.7569519,-0.020423872,-2.3902094,-0.018703653,1.5823256,0.74635345,0.039999954,0.039999958,-0.05693553240531113,-0.002524630057665258,-0.0030203462223266087,-0.11658925644294535,0.08479995919176106,-0.007490131885188184,0.9992471695581105,-0.029134600766531765,-0.025534037315912115,-0.0020693251627519733
2720.766666673699,0.03419125,-0.75599605,-0.021135233,-2.3913875,-0.019356988,1.5827205,0.7449757,0.03999995,0.039999954,-0.057954637048784896,-0.002649077251784147,-0.0036477534079315532,-0.11899612825434819,0.08679876648511237,-0.007608960117465518,0.9991937425705274,-0.030164483566195537,-0.026408170304192253,-0.0021394579388749413
2720.783333340366,0.03535609,-0.7550216,-0.021860495,-2.3925889,-0.020023085,1.5831232,0.74357086,0.039999954,0.039999958,-0.05804101376156723,-0.0027727202962780223,-0.0041753078606543426,-0.1214095399150322,0.08879778741793742,-0.0077258246896512416,0.9991373535209034,-0.03121523527308871,-0.02729964336765038,-0.0022107370015282454
2720.800000007033,0.036543254,-0.7540286,-0.02259966,-2.3938131,-0.020701952,1.5835336,0.74213946,0.039999954,0.03999996,-0.057092502323174976,-0.0029042998106762127,-0.004344215582463562,-0.12382802338769724,0.09079861629598554,-0.00784165378378443,0.999077903978088,-0.032286659712279515,-0.028208164822635596,-0.0022831611228272576
2720.8166666736997,0.037752733,-0.753017,-0.023352731,-2.3950603,-0.021393578,1.5839516,0.74068075,0.03999995,0.039999958,-0.057337533432177956,-0.003019184913910771,-0.0048243181977269955,-0.1262538449753508,0.09280284886229202,-0.00795457624239462,0.999015261029105,-0.03337914211714825,-0.02913395062682304,-0.0023566975508507878
2720.8333333403666,0.03898454,-0.7519867,-0.02411971,-2.3963304,-0.022097977,1.5843772,0.73919487,0.039999943,0.03999995,-0.05734919480644418,-0.0031519131649308026,-0.005097033038437004,-0.12868229880740237,0.0948066350193735,-0.008065504276175778,0.9989493080327043,-0.03449266575923163,-0.030076977573145376,-0.0024313391099756937
2720.8500000070335,0.040238645,-0.7509378,-0.024900595,-2.3976235,-0.022815146,1.5848105,0.7376827,0.03999994,0.039999947,-0.05749231838403368,-0.0032480338116622903,-0.005624803772352749,-0.13111391546397808,0.09681278967687602,-0.008174265324744204,0.9988799407694969,-0.03562680672598893,-0.031037221359553828,-0.0025070821911615795
2720.8666666737004,0.041515037,-0.74987024,-0.025695372,-2.3989396,-0.023545071,1.5852517,0.73614347,0.039999936,0.039999943,-0.05723365550012183,-0.003389285139208508,-0.005722887042858282,-0.1335520440511737,0.09881817382960006,-0.00828050019456084,0.9988070255780758,-0.03678198617652957,-0.03201460002250247,-0.0025838990277988936
2720.8833333403672,0.042813707,-0.74878395,-0.026504027,-2.4002788,-0.024287734,1.5857004,0.7345773,0.039999932,0.03999994,-0.05769809058271402,-0.0035326838481653054,-0.006549826078505738,-0.13599229749565755,0.10082577976655882,-0.008384437145220441,0.9987304289772838,-0.03795818210351266,-0.033009417540315,-0.0026617663113600054
2720.900000007034,0.04413463,-0.747679,-0.027326548,-2.401641,-0.025043126,1.5861567,0.73298436,0.039999932,0.03999994,-0.05716866937903742,-0.003645789669170108,-0.006772333445237422,-0.1384348654690214,0.10282992411720017,-0.008485772549889935,0.998650032912564,-0.039155331192199876,-0.034021471526496185,-0.002740671110459171
2720.916666673701,0.04547776,-0.7465554,-0.02816291,-2.4030259,-0.025811227,1.586621,0.7313646,0.039999925,0.039999932,-0.05703810837602852,-0.00376638428620079,-0.006929382621900793,-0.1408793759434591,0.10483383831984386,-0.008584491925713061,0.9985657125309064,-0.04037348351728141,-0.03505058950730386,-0.002820595950057247
2720.933333340368,0.04684307,-0.7454133,-0.02901309,-2.4044333,-0.026592018,1.5870931,0.7297181,0.03999992,0.039999932,-0.0560704928659117,-0.003888962595277254,-0.007346548256137453,-0.14332518626296042,0.10683547607676389,-0.00868145327333808,0.9984773444079524,-0.04161263717178022,-0.03609656903328863,-0.002901522992859319
2720.9500000070348,0.048230503,-0.7442528,-0.029877068,-2.4058638,-0.027385473,1.5875727,0.7280448,0.039999917,0.03999993,-0.05721661745035078,-0.00398886765072522,-0.008420569772660258,-0.14577160142707252,0.10883897490452271,-0.008774808377723847,0.9983847785150513,-0.04287281011598544,-0.03715986263437117,-0.0029834193814081795
2720.9666666737016,0.049640022,-0.7430738,-0.030754812,-2.407317,-0.028191563,1.5880601,0.726345,0.039999913,0.039999925,-0.05634990456249156,-0.004133904287163164,-0.008288393443578457,-0.14821784095988227,0.11083750638117915,-0.008865227446843565,0.9982878972920977,-0.044153909411610306,-0.03824008856353148,-0.003066273054828104
2720.9833333403685,0.051071577,-0.7418765,-0.031646274,-2.408793,-0.029010255,1.5885552,0.72461855,0.039999913,0.039999925,-0.05662695912458382,-0.004267764620239419,-0.009124129331272712,-0.15066415186193974,0.11283502405301739,-0.00895267293123387,0.9981865525610275,-0.045456021987805885,-0.03933743112028333,-0.0031500578140984717
2721.0000000070354,0.052525084,-0.74066067,-0.032551445,-2.410292,-0.029841516,1.5890577,0.7228657,0.039999913,0.039999925,-0.056768190164246946,-0.00432728605423505,-0.009722046091775738,-0.1531089555834253,0.1148285360451925,-0.00903696508264435,0.998080602423784,-0.04677902542053942,-0.04045207404017453,-0.003234741400674152
2721.0166666737023,0.054000504,-0.7394266,-0.033470266,-2.411813,-0.030685307,1.5895677,0.7210864,0.039999906,0.039999917,-0.05522731052816088,-0.004478021406047975,-0.00976885694716767,-0.15555266053577702,0.11681540239324303,-0.009118045280988456,0.9979699235843675,-0.048122975906594014,-0.04158348661449291,-0.0033203090048199127
2721.033333340369,0.055497743,-0.73817414,-0.03440268,-2.4133573,-0.031541597,1.5900853,0.71928054,0.039999902,0.039999917,-0.05691727488421616,-0.004601059323473475,-0.010663355213424985,-0.157994008727753,0.1187996923281244,-0.009196669497757132,0.9978543483281007,-0.04948792269379597,-0.04273217992293313,-0.003406732920001058
2721.050000007036,0.05701672,-0.73690367,-0.035348643,-2.4149241,-0.032410316,1.5906104,0.7174487,0.0399999,0.039999913,-0.05562768109146354,-0.004701948094940241,-0.011126630809510374,-0.1604315498909309,0.1207757534934666,-0.009270942122909132,0.9977337594216218,-0.0508735994876095,-0.04389777055705148,-0.0034939842146247567
2721.066666673703,0.058557354,-0.73561484,-0.03630812,-2.4165118,-0.03329142,1.5911429,0.7155906,0.039999884,0.0399999,-0.052829990528646675,-0.004761223332059705,-0.010361866380326212,-0.16286664025220773,0.12274689589144419,-0.00934185354129163,0.9976080345617102,-0.05228013549540856,-0.04507954956623572,-0.003582041514087157
2721.08333334037,0.060119573,-0.7343081,-0.03728104,-2.4181218,-0.034184877,1.5916829,0.7137066,0.03999987,0.039999884,-0.054963047029277234,-0.004922236120059095,-0.011997652357598199,-0.16529748954896953,0.12471764764246966,-0.009409475232869544,0.9974770097783311,-0.05370736571088519,-0.0462780559442008,-0.003670881379458797
2721.1000000070367,0.061703257,-0.7329834,-0.038267348,-2.4197547,-0.03509065,1.5922302,0.71179646,0.039999858,0.039999872,-0.05586463766242833,-0.004981431267488991,-0.012937129710310913,-0.1677244856807254,0.12668244538514672,-0.009473271729893987,0.9973405056247214,-0.055155436164914376,-0.04749371101285747,-0.00376046751221306
2721.1166666737035,0.06330834,-0.731641,-0.039266985,-2.4214098,-0.036008637,1.592785,0.70986056,0.039999858,0.039999876,-0.05421065149060489,-0.0051452543018006,-0.012931419388295673,-0.17014517250536826,0.1286354210054683,-0.009534009147186915,0.997198407973968,-0.05662414872800643,-0.04872589215894302,-0.0038507594481288804
2721.1333333403704,0.0649347,-0.73028046,-0.040279895,-2.423087,-0.036938794,1.5933472,0.7078991,0.03999986,0.03999988,-0.054224725668627904,-0.005194781152158181,-0.013212490489888928,-0.17256028956776992,0.13058301391790939,-0.00959016389386481,0.9970505604583532,-0.05811339619801075,-0.049974751503789834,-0.0039417361848960815
2721.1500000070373,0.06658222,-0.72890246,-0.041305993,-2.4247856,-0.037881073,1.5939165,0.7059121,0.039999854,0.039999872,-0.05307025498957341,-0.005268056213123158,-0.014018193779774535,-0.17496978946352304,0.1325208690375015,-0.009642244250596704,0.9968968241722779,-0.05962314865838274,-0.05123996466159281,-0.0040333758522258815
2721.166666673704,0.0682508,-0.72750676,-0.042345222,-2.426506,-0.038835395,1.5944932,0.70389974,0.03999985,0.03999987,-0.05321278731011958,-0.005383549068770175,-0.014348380382833703,-0.17737239909679747,0.13445212088235492,-0.009690376104513697,0.9967370413170966,-0.06115334663986138,-0.05252159352362486,-0.004125636305412654
2721.183333340371,0.06994029,-0.7260937,-0.04339748,-2.4282482,-0.03980169,1.5950772,0.7018621,0.03999985,0.03999987,-0.052687153717867474,-0.005469805237368498,-0.014919289790582546,-0.17976768437041232,0.13637578292189662,-0.009734416756492264,0.9965710684825329,-0.0627039213393242,-0.053819402036176855,-0.004218492233350227
2721.200000007038,0.07165058,-0.72466314,-0.044462726,-2.430012,-0.040779885,1.5956682,0.6997993,0.039999854,0.039999872,-0.05286747625217192,-0.005512700044602026,-0.01565498881808125,-0.18215463494646555,0.13829111675443556,-0.009774232504240699,0.9963987345636638,-0.0642747922536946,-0.05513365982803953,-0.004311889915084107
2721.216666673705,0.07338156,-0.7232153,-0.045540858,-2.4317966,-0.041769918,1.5962665,0.6977115,0.039999854,0.039999876,-0.05087112572728092,-0.0056183013159271,-0.015454929175029442,-0.18453340402508744,0.14019331349941558,-0.009810635421049582,0.9962199214808186,-0.06586586735010812,-0.056463654435526776,-0.004405824639581616
2721.2333333403717,0.07513306,-0.72175014,-0.046631802,-2.4336028,-0.042771697,1.5968719,0.695599,0.039999846,0.03999987,-0.052379129625035326,-0.005678545534298831,-0.016812996561177407,-0.1869024840993328,0.14209104049661037,-0.009842038614012928,0.9960344406685815,-0.0674770105383805,-0.05780998115752167,-0.004500236593359633
2721.2500000070386,0.07690497,-0.7202681,-0.047735464,-2.4354298,-0.043785155,1.5974842,0.69346195,0.039999843,0.039999865,-0.05029926660502504,-0.005731696143006053,-0.016839482935870898,-0.1892624592472671,0.14397467404012726,-0.009868756727053722,0.9958421712153948,-0.06910811113765332,-0.05917198639421477,-0.004595109373791113
2721.2666666737055,0.07869709,-0.7187692,-0.048851762,-2.4372776,-0.04481021,1.5981036,0.69130063,0.039999835,0.039999858,-0.05004549975509143,-0.0057498170934142286,-0.01741684595886195,-0.19161206788575727,0.14585061825443799,-0.009891220848965654,0.9956429636660421,-0.07075898283980651,-0.06054961058265662,-0.0046904059595027445
2721.2833333403723,0.08050936,-0.71725345,-0.0499806,-2.439146,-0.045846753,1.59873,0.6891151,0.039999824,0.03999985,-0.05001047391386404,-0.00590671787016727,-0.01802854686099309,-0.193952128228862,0.14771565432097936,-0.00990976058049347,0.995436646462493,-0.07242960886428901,-0.061942942409564564,-0.004786076150372969
2721.300000007039,0.082341574,-0.715721,-0.051121864,-2.4410362,-0.046894718,1.5993631,0.6869052,0.039999805,0.03999983,-0.05125885132450936,-0.005944662833879018,-0.019398543443371885,-0.19628116131896048,0.14957038551538224,-0.009922684865081292,0.9952230160667742,-0.07412006204914232,-0.06335242767915748,-0.0048820692274583665
2721.316666673706,0.08419359,-0.7141717,-0.052275483,-2.442946,-0.04795401,1.6000032,0.68467164,0.039999794,0.039999824,-0.047764275371098286,-0.005941219989382806,-0.01820227631821325,-0.19859640872950035,0.15140811189287218,-0.00993183378076748,0.995002002118362,-0.07582991695442205,-0.06477696463696361,-0.00497838603949081
2721.333333340373,0.086065225,-0.7126064,-0.053441346,-2.444876,-0.049024545,1.6006503,0.68241423,0.039999783,0.039999813,-0.04789141610483938,-0.005973441179665893,-0.01962948777083362,-0.20090026786282428,0.1532359852755073,-0.009935195954050208,0.9947734297341693,-0.07755924481679917,-0.06621655215697754,-0.0050749639218274165
2721.35000000704,0.087956324,-0.7110246,-0.05461934,-2.446826,-0.05010622,1.601304,0.6801333,0.03999977,0.039999798,-0.04786759010886321,-0.006030027097493097,-0.020049062067939438,-0.2031906896706533,0.1550551616073838,-0.009934073497184066,0.9945371271390395,-0.0793078665338278,-0.06767139598966204,-0.005171770749822411
2721.3666666737067,0.08986671,-0.7094268,-0.05580937,-2.4487956,-0.05119894,1.6019645,0.67782897,0.039999757,0.039999787,-0.04641233004560874,-0.006023263177233271,-0.02041642519865494,-0.20546690469989182,0.1568617008542837,-0.009928133296634209,0.9942929646337794,-0.08107564499742546,-0.06914101818517374,-0.005268763834032981
2721.3833333403736,0.091796234,-0.70781314,-0.057011325,-2.4507847,-0.0523026,1.6026316,0.6755016,0.03999976,0.039999794,-0.04618838443235518,-0.006091622683365543,-0.020980759474564792,-0.20772878029934652,0.1586565473236049,-0.009918135724292024,0.9940407855000049,-0.08286240863264133,-0.0706253854489278,-0.005365904240761423
2721.4000000070405,0.09374468,-0.70618296,-0.05822509,-2.452794,-0.053417105,1.6033051,0.6731514,0.039999757,0.03999979,-0.047890454077781364,-0.0060973084318079185,-0.022048052661394202,-0.2099761030089833,0.16043855291020545,-0.009902134920829399,0.9937803732297192,-0.08466799745800016,-0.07212526651053928,-0.005463142011300435
2721.4166666737074,0.09571188,-0.7045375,-0.05945057,-2.4548225,-0.054542337,1.6039852,0.6707784,0.03999976,0.039999794,-0.04438062316667324,-0.0060691892478125994,-0.022046960002630733,-0.21220789986210342,0.16220155338627598,-0.00988071674992437,0.9935116516747656,-0.0864923194393407,-0.07363937999974483,-0.005560429635873372
2721.4333333403742,0.09769765,-0.7028767,-0.06068763,-2.4568698,-0.05567817,1.6046714,0.66838306,0.039999753,0.03999979,-0.04405001127520958,-0.006093379434944125,-0.022747410635726162,-0.21442334290490478,0.16395336676755906,-0.009855503628753582,0.9932344552589968,-0.088335123357098,-0.0751678988177958,-0.005657725264419548
2721.450000007041,0.09970179,-0.7012005,-0.061936133,-2.458937,-0.056824543,1.6053642,0.6659656,0.03999974,0.03999978,-0.04528500431784099,-0.006127209616956127,-0.023541537372895327,-0.21662245894171717,0.1656916070023985,-0.009825040881567701,0.9929486068886723,-0.09019626990243731,-0.07671099577673123,-0.0057550065572602475
2721.466666673708,0.10172411,-0.6995091,-0.06319599,-2.4610217,-0.05798131,1.6060634,0.66352624,0.039999723,0.039999764,-0.04151762342019527,-0.006050015502839616,-0.022815168342571468,-0.21880474316937465,0.16741278384449826,-0.009788366457933212,0.9926540238993871,-0.09207556447094065,-0.07826768607436504,-0.005852228659012006
2721.483333340375,0.10376439,-0.6978026,-0.064467065,-2.4631252,-0.059148367,1.6067688,0.6610651,0.03999971,0.03999975,-0.04311753074761615,-0.006055353549828425,-0.024291442184143364,-0.22096996925208545,0.16912331521390728,-0.009746647903843431,0.9923505007357727,-0.09397288679208583,-0.07983849755354429,-0.005949331543595528
2721.5000000070418,0.10582245,-0.6960813,-0.06574921,-2.465247,-0.060325585,1.6074803,0.65858257,0.039999694,0.03999974,-0.04157617132232172,-0.006056048231181492,-0.02464619850925942,-0.2231165222354709,0.1708194187419866,-0.009700697566760834,0.9920379065866599,-0.09588800217787384,-0.08142312595778466,-0.0060462792489629595
2721.5166666737086,0.10789809,-0.6943453,-0.06704233,-2.4673872,-0.061512873,1.6081977,0.65607876,0.039999686,0.03999973,-0.04194275669657799,-0.006005489156971425,-0.02560841341561204,-0.22524489606868128,0.17249865269111833,-0.009648266130554646,0.9917160630194796,-0.09782080009978775,-0.08302171269171657,-0.006143015441559414
2721.5333333403755,0.109991066,-0.69259465,-0.06834626,-2.4695456,-0.062710084,1.6089214,0.6535541,0.03999967,0.039999716,-0.040900465832161004,-0.006005651154730382,-0.02550835815133823,-0.22735342258118993,0.17415985352071653,-0.009590344839363104,0.9913848547342844,-0.09977100083659338,-0.08463383339278735,-0.006239506453895154
2721.5500000070424,0.11210115,-0.6908298,-0.06966091,-2.4717212,-0.063917086,1.6096513,0.6510087,0.039999656,0.039999705,-0.03866564067043221,-0.005883712347250908,-0.02552827858723905,-0.22944282924433526,0.17580363636516216,-0.009527839256214254,0.991044181632143,-0.10173840801687344,-0.0862588274371902,-0.006335698574670055
2721.5666666737093,0.1142282,-0.68905085,-0.07098609,-2.4739146,-0.06513378,1.610387,0.6484428,0.039999638,0.039999686,-0.03961252031472462,-0.0059360626382093384,-0.027014699471616943,-0.23151198943698675,0.1774365449133795,-0.009459531447861786,0.9906938257899074,-0.10372295940336992,-0.08789724933142243,-0.0064315468072051
2721.583333340376,0.11637191,-0.68725795,-0.07232172,-2.4761252,-0.06636006,1.6111283,0.6458568,0.039999615,0.039999668,-0.03805448272897749,-0.0057327381721455906,-0.027029204449835476,-0.23355953021385698,0.17904894500551904,-0.009386408803242752,0.9903336883419528,-0.1057242833059084,-0.08954864473366586,-0.006527011631634755
2721.600000007043,0.11853211,-0.6854513,-0.073667616,-2.4783523,-0.06759574,1.6118755,0.64325094,0.039999593,0.039999645,-0.036405782738846426,-0.005787819437038516,-0.026952704749061418,-0.2355862165028514,0.18064503710825203,-0.009307009082549372,0.9899636611815583,-0.10774220839012197,-0.09121246895453326,-0.0066220524343150455
2721.61666667371,0.12070851,-0.683631,-0.07502364,-2.4805965,-0.06884071,1.6126279,0.6406253,0.03999957,0.039999623,-0.03743869731511751,-0.005631826732823732,-0.02861433012795178,-0.23759103875472104,0.18222667237867377,-0.0092221859208181,0.989583517694596,-0.10977661012811522,-0.09288942321116737,-0.006716578851310949
2721.633333340377,0.12290094,-0.68179727,-0.07638966,-2.4828572,-0.07009484,1.6133856,0.6379806,0.03999956,0.039999615,-0.035694524153417895,-0.005607451132424654,-0.02844668800117134,-0.2395730855919784,0.18378594141458765,-0.00913246533670337,0.9891931862557054,-0.11182706827693174,-0.09457887203196687,-0.006810582282932086
2721.6500000070437,0.12510912,-0.6799505,-0.07776554,-2.4851346,-0.071357995,1.6141487,0.6353166,0.039999552,0.039999608,-0.03541829536117813,-0.005477084858264425,-0.02915352391976711,-0.24153297038762647,0.18532693156791885,-0.009036199867999403,0.9887925051081664,-0.11389357464547722,-0.0962806861258132,-0.006903982585030625
2721.6666666737106,0.12733284,-0.6780906,-0.07915109,-2.4874277,-0.072630025,1.6149174,0.6326339,0.039999537,0.039999597,-0.03372678922581862,-0.005457045600120933,-0.028865097370522896,-0.24346852414927295,0.18684838262402967,-0.008935423654066334,0.988381383762776,-0.11597578017426396,-0.09799440753950409,-0.0069967660481635606
2721.6833333403774,0.12957188,-0.6762181,-0.080546185,-2.489736,-0.073910825,1.6156914,0.6299329,0.03999952,0.03999958,-0.032164034652670814,-0.005326736373488343,-0.02918410065431143,-0.24537998363858543,0.1883508270166384,-0.008828348036259842,0.9879597260283364,-0.11807342109095707,-0.09971957927601312,-0.007088898850102669
2721.7000000070443,0.13182592,-0.6743329,-0.08195069,-2.49206,-0.07520025,1.6164706,0.6272136,0.03999951,0.03999957,-0.03245800759466011,-0.005119403029677644,-0.030035072579437383,-0.24726739864297692,0.18984018691583734,-0.008715995606502068,0.9875273554146803,-0.12018630229023834,-0.10145648463047753,-0.007180304722845819
2721.716666673711,0.13409479,-0.6724354,-0.08336442,-2.4943993,-0.07649812,1.6172551,0.6244764,0.039999492,0.039999556,-0.03176991460867029,-0.005170621615882727,-0.03042653269775819,-0.24913012775062823,0.19130866668468624,-0.00859874950924587,0.9870841550229134,-0.12231423259460522,-0.10320481143996356,-0.007270921752822943
2721.733333340378,0.13637818,-0.6705258,-0.084787235,-2.4967542,-0.077804305,1.6180444,0.6217218,0.039999485,0.03999955,-0.03133956329688381,-0.004944899626815533,-0.03144090872753136,-0.25096629410536664,0.19275741040070762,-0.008475385851993401,0.9866299884659017,-0.12445679222681162,-0.10496472158310598,-0.0073607031843381885
2721.750000007045,0.13867588,-0.66860414,-0.08621896,-2.4991238,-0.079118684,1.6188387,0.61894983,0.039999463,0.03999953,-0.029845389845117865,-0.004861016275469268,-0.031134811333499712,-0.25277778301617376,0.1941848989312099,-0.008347066084954155,0.9861647476037974,-0.1266139190580598,-0.10673569824830094,-0.007449617691239601
2721.766666673712,0.14098758,-0.6666708,-0.08765948,-2.5015078,-0.08044108,1.6196378,0.61616087,0.039999448,0.039999515,-0.028463954113711054,-0.004635492812108885,-0.03136337760121233,-0.25456164266510617,0.1955913700269166,-0.00821237850535022,0.9856883506857527,-0.12878524938744576,-0.10851736985725799,-0.007537592578358243
2721.7833333403787,0.14331302,-0.6647259,-0.089108564,-2.5039058,-0.081771374,1.6204419,0.6133554,0.039999433,0.039999504,-0.027684750559231475,-0.004566800249795541,-0.03164031555777935,-0.256318922507107,0.19697874316246633,-0.008073363110343727,0.9852006928356226,-0.13097047334280246,-0.11030954183398083,-0.007624626479286805
2721.8000000070456,0.14565203,-0.6627699,-0.090566084,-2.5063174,-0.08310939,1.6212506,0.6105336,0.039999414,0.039999485,-0.026188659788561885,-0.004456279283791484,-0.03195669146345281,-0.2580487235732489,0.19834625542552753,-0.007927928000698962,0.9847016758800586,-0.13316940435587726,-0.11211184229341772,-0.007710647189475612
2721.8166666737125,0.14800422,-0.6608027,-0.09203189,-2.5087433,-0.084454976,1.6220638,0.60769564,0.0399994,0.03999947,-0.027183056763524505,-0.00419408914956905,-0.03320462763645171,-0.25975009971749724,0.1996960843405458,-0.007777346904995416,0.9841911097224273,-0.13538180125840435,-0.11392478570409974,-0.00779555217043216
2721.8333333403793,0.1503694,-0.65882474,-0.093505815,-2.511182,-0.08580795,1.6228815,0.6048422,0.039999384,0.03999946,-0.02419509908124784,-0.004120819902112341,-0.0322623805199207,-0.26142289988888595,0.2010193912434918,-0.007622138109661912,0.9836690117525578,-0.13760722962611088,-0.11574731808657289,-0.007879341859485859
2721.850000007046,0.1527473,-0.65683603,-0.09498766,-2.5136344,-0.087168224,1.623704,0.60197353,0.039999362,0.039999437,-0.024948405815239383,-0.003955936976421381,-0.0333418342223446,-0.2630673957916575,0.20232616570950085,-0.007461235826025658,0.9831352184112829,-0.1398454591726113,-0.1175797460037197,-0.007961984545401568
2721.866666673713,0.15513755,-0.65483713,-0.09647726,-2.516099,-0.088535614,1.6245303,0.5990897,0.03999934,0.039999418,-0.02196984992290929,-0.0036214938808849795,-0.0331295525770825,-0.26468339550942155,0.2036100079376763,-0.007295344050418401,0.9825896766504295,-0.1420962789576786,-0.11942143209126825,-0.008043407465525149
2721.88333334038,0.15754,-0.65282804,-0.09797444,-2.5185766,-0.089909926,1.6253608,0.59619135,0.039999317,0.039999396,-0.02311427959713619,-0.0036525320509909337,-0.03422354680888695,-0.2662682601133223,0.20487429824213757,-0.007123730722547964,0.9820322451492741,-0.14435930197777253,-0.12127270664280546,-0.008123548676167682
2721.900000007047,0.15995432,-0.65080905,-0.099479064,-2.5210662,-0.09129104,1.6261955,0.59327835,0.039999295,0.039999377,-0.020668298492076964,-0.0033671324278720938,-0.03357818540816737,-0.26782389498513404,0.20611377237867062,-0.006947512734323952,0.9814628733409559,-0.14663444116019858,-0.12313281526675669,-0.00820236084512906
2721.9166666737137,0.1623802,-0.6487804,-0.10099091,-2.5235674,-0.09267881,1.6270343,0.59035146,0.03999928,0.039999362,-0.01976360464504001,-0.0031450507383151693,-0.033874960321811365,-0.26934710652338756,0.20733275221621852,-0.006765960334443849,0.9808815114001085,-0.14892117118877768,-0.12500155850769537,-0.008279839119735477
2721.9333333403806,0.1648174,-0.6467423,-0.10250981,-2.5260808,-0.09407303,1.627877,0.58741105,0.039999265,0.03999935,-0.020018990138992443,-0.0030170026464479416,-0.03482893664115139,-0.2708399205380737,0.20853150148812663,-0.006580001788494466,0.9802880278860273,-0.1512192134158539,-0.12687911958061251,-0.008355889639198241
2721.9500000070475,0.16726562,-0.64469486,-0.1040356,-2.5286052,-0.095473565,1.6287236,0.58445734,0.039999258,0.039999343,-0.01770645119785197,-0.0028074295369159147,-0.03410677284858554,-0.2723014234506913,0.20970493583465605,-0.006388174592544621,0.979682404830375,-0.15352829864582823,-0.12876480027511727,-0.008430503591104626
2721.9666666737144,0.16972455,-0.6426385,-0.10556811,-2.5311408,-0.09688025,1.629574,0.5814906,0.03999925,0.039999336,-0.017416104058920467,-0.0025222484038793513,-0.03493019805040909,-0.27373037982912113,0.21085891814427407,-0.006191483204364603,0.9790645350058983,-0.15584814951827686,-0.13065863721245666,-0.008503593781254688
2721.9833333403813,0.17219393,-0.64057344,-0.10710714,-2.5336869,-0.09829291,1.6304278,0.57851064,0.03999924,0.03999933,-0.015783928446255757,-0.0023632009293669126,-0.034724495516402776,-0.2751274200747321,0.21198765313853396,-0.005990696368088695,0.9784343428081161,-0.15817869198475434,-0.13256019710811073,-0.008575101066518568
2722.000000007048,0.17467347,-0.6384999,-0.10865254,-2.536244,-0.099711366,1.6312853,0.5755188,0.039999228,0.039999317,-0.015949900836886854,-0.0021520298245893826,-0.03555375916075576,-0.27648878991710746,0.21309572187721476,-0.0057852778399013,0.977791793103766,-0.16051918337566584,-0.13446956949487962,-0.00864499781336723
2722.016666673715,0.17716281,-0.6364183,-0.11020409,-2.538811,-0.10113548,1.632146,0.5725152,0.039999217,0.03999931,-0.013855013969310548,-0.0018345589013330638,-0.035286855072524936,-0.2778180869633574,0.21417781072344197,-0.005575465699986893,0.9771368596190083,-0.1628693473192481,-0.1363862616351979,-0.008713260863760192
2722.033333340382,0.17966172,-0.6343286,-0.11176163,-2.5413878,-0.10256504,1.63301,0.5694998,0.039999206,0.0399993,-0.01311633764260467,-0.0017058875827050124,-0.035282149686244324,-0.2791148275814099,0.21523754767122572,-0.0053601223898612806,0.9764694545392422,-0.16522908660595478,-0.13831004425062934,-0.008779803561909539
2722.0500000070488,0.18216988,-0.63223124,-0.11332498,-2.5439742,-0.103999935,1.6338773,0.566473,0.03999919,0.039999288,-0.012085104997727747,-0.0014098509388282138,-0.035480612328564476,-0.28037659942893656,0.21627268663768562,-0.005141404564880499,0.9757895411156446,-0.1675980380906406,-0.14024065817517878,-0.00884459564256582
2722.0666666737156,0.18468708,-0.63012636,-0.11489393,-2.5465705,-0.10543992,1.6347479,0.56343573,0.039999183,0.03999928,-0.012287496390572805,-0.0013507777794765502,-0.03618157824147872,-0.2816023098829973,0.21728498473709162,-0.004917772840005934,0.9750970693278047,-0.16997567682041528,-0.1421781610974742,-0.008907591408956795
2722.0833333403825,0.1872129,-0.62801427,-0.116468295,-2.549175,-0.10688487,1.6356212,0.560388,0.039999172,0.03999927,-0.008870675185401744,-0.0009099827272270045,-0.03506166856568349,-0.2827949295623763,0.21827071392703562,-0.004689348273824785,0.9743920802815603,-0.17236171064334038,-0.14412173896961689,-0.008968776117637996
2722.1000000070494,0.18974712,-0.6258951,-0.11804791,-2.551788,-0.1083346,1.6364976,0.55733,0.039999172,0.039999273,-0.009122429910468632,-0.0007882130567675449,-0.03552379106135373,-0.2839529262522532,0.21923449191413882,-0.004457707537376444,0.9736744809063308,-0.17475598715022062,-0.14607136616644625,-0.009028076938496702
2722.1166666737163,0.19228937,-0.6237693,-0.11963256,-2.5544095,-0.10978893,1.6373767,0.55426234,0.039999153,0.039999254,-0.00800095674713397,-0.00044066112822142844,-0.035959168602572866,-0.28507368597370475,0.22017485107157872,-0.0042217084769359155,0.9729442636710632,-0.1771579859649868,-0.1480268976128575,-0.009085448889007038
2722.133333340383,0.19483934,-0.62163687,-0.12122206,-2.557039,-0.111247726,1.6382587,0.5511853,0.03999915,0.03999925,-0.00731024288862514,-0.00023701125924056876,-0.03567106667166087,-0.2861595455618631,0.22108976492580873,-0.003981601190011546,0.972201409651661,-0.17956742192507275,-0.1499880144249665,-0.009140874321534027
2722.15000000705,0.19739674,-0.61949843,-0.1228162,-2.559676,-0.11271077,1.6391431,0.5480992,0.03999914,0.039999243,-0.0053734592263765535,3.873221705551211e-05,-0.03568833668667892,-0.28720892054780367,0.2219797270928366,-0.0037383019234430194,0.971445922933595,-0.18198396379849574,-0.1519543376554921,-0.009194291901197428
2722.166666673717,0.19996129,-0.617354,-0.12441482,-2.5623205,-0.114177875,1.6400301,0.54500455,0.039999135,0.03999924,-0.005406550727915516,0.00022991168515881788,-0.03595814426755606,-0.28822163178722593,0.22284600234736673,-0.0034907623945613295,0.9706777643408853,-0.18440724444397516,-0.1539258392068869,-0.009245649529187145
2722.183333340384,0.20253262,-0.6152039,-0.12601773,-2.5649717,-0.115648896,1.6409197,0.54190165,0.03999913,0.03999924,-0.0032795106522431894,0.0005866824295437667,-0.035286526169819865,-0.28919731971884277,0.22368682751707103,-0.0032405545005818708,0.9698970012445632,-0.18683686936375057,-0.15590187786339516,-0.00929492882293816
2722.2000000070507,0.20511043,-0.61304826,-0.12762475,-2.56763,-0.11712365,1.6418113,0.5387908,0.03999912,0.039999228,-0.003712784815590453,0.0008629727145506583,-0.036355738648574665,-0.29013647966189726,0.22450439392809254,-0.0029861300636535235,0.9691035139389819,-0.18927254623805168,-0.15788289538446962,-0.00934204777865552
2722.2166666737176,0.20769452,-0.6108876,-0.12923563,-2.5702946,-0.11860196,1.6427048,0.53567237,0.03999911,0.03999922,-0.0013926389271778916,0.0009737058919968844,-0.03556174853351912,-0.291038392779404,0.22529258168265362,-0.0027288730450110554,0.9682973779128593,-0.19171401056599668,-0.1598681020826673,-0.009387013170766253
2722.2333333403844,0.21028443,-0.60872203,-0.13085018,-2.5729656,-0.12008362,1.6436006,0.5325468,0.039999098,0.03999921,-0.0013153537569143836,0.0013378051940206998,-0.03588698193253137,-0.29190088947899423,0.22605593350470915,-0.002467638346192482,0.9674785954867129,-0.19416077629250014,-0.1618574683250617,-0.00942974930486729
2722.2500000070513,0.21287991,-0.6065518,-0.13246824,-2.5756428,-0.12156845,1.6444981,0.52941453,0.03999908,0.03999919,-0.0004490870501472344,0.0015846837087302168,-0.03608433186013116,-0.29272561450097323,0.2267931158509327,-0.0022033979575825247,0.9666471507240895,-0.19661251555045012,-0.16385090762347082,-0.00947020574688167
2722.266666673718,0.21548063,-0.6043772,-0.13408957,-2.5783248,-0.1230563,1.6453977,0.5262759,0.03999908,0.03999919,0.002175344578869698,0.001836767114648391,-0.034495067657691614,-0.293512161795532,0.22750177840012178,-0.0019361723386384054,0.9658031903868243,-0.1990688522420458,-0.1658474580846079,-0.009508425344931248
2722.283333340385,0.21808626,-0.6021984,-0.13571405,-2.5810118,-0.124546975,1.6462989,0.5231312,0.039999083,0.0399992,0.002329238365583741,0.002170242823901214,-0.03515839954890687,-0.29426044555733627,0.22818614683960087,-0.0016669600704842386,0.9649466782810808,-0.20152942518751138,-0.1678472669242327,-0.009544309506971695
2722.300000007052,0.2206966,-0.6000157,-0.13734144,-2.5837038,-0.12604026,1.6472018,0.5199808,0.039999075,0.03999919,0.00286300280742946,0.0022548260728123826,-0.03527865826309373,-0.2949694167109756,0.22884551033663242,-0.0013947283140688695,0.9640776068365302,-0.20399398865858703,-0.1698501870219219,-0.009577815832806907
2722.316666673719,0.22331111,-0.5978294,-0.13897154,-2.5864003,-0.12753601,1.6481063,0.5168253,0.03999907,0.039999187,0.004194919717592782,0.0027567918426001092,-0.034851354785692124,-0.29563865525072297,0.22947661948859194,-0.0011197705681195939,0.9631960989855394,-0.20646194257816558,-0.17185578121979014,-0.009608934760152616
2722.3333333403857,0.2259296,-0.59564,-0.1406041,-2.5891008,-0.12903409,1.649012,0.51366496,0.039999068,0.039999187,0.00561938661383099,0.002940284980927632,-0.03488034150391783,-0.29627002971266003,0.23008114115870004,-0.0008434937645823148,0.962302157061954,-0.20893309072531868,-0.1738638479151136,-0.009637660609629142
2722.3500000070526,0.2285518,-0.5934475,-0.142239,-2.5918052,-0.13053423,1.6499189,0.5105002,0.039999057,0.039999176,0.0062280799933311926,0.003138698327736361,-0.03449716460071084,-0.2968609181480465,0.23065957779771468,-0.0005639926525789849,0.9613958476830176,-0.21140701420027774,-0.17587412305236963,-0.009663914596876011
2722.3666666737195,0.23117732,-0.59125215,-0.14387599,-2.594513,-0.13203627,1.6508272,0.5073314,0.039999053,0.039999172,0.0074238865998665915,0.0034028987170774128,-0.034015397625597465,-0.29741230860486845,0.23120934666200954,-0.00028249087492385454,0.9604772522174834,-0.2138833472816385,-0.17788622834564416,-0.009687698040099712
2722.3833333403863,0.23380587,-0.58905417,-0.14551486,-2.5972235,-0.13354,1.6517364,0.5041589,0.039999045,0.03999917,0.00858410036612689,0.0036534411702988934,-0.03380052021713098,-0.2979241078612267,0.23173385041633493,-1.1613705383408529e-07,0.9595464292164319,-0.21636171108608718,-0.17989996087288404,-0.009708976868370474
2722.400000007053,0.23643704,-0.58685404,-0.14715543,-2.599937,-0.1350453,1.6526467,0.5009832,0.039999038,0.03999916,0.009328295972266254,0.004026243540011104,-0.033710844639367465,-0.298395865905562,0.23223092668217699,0.0002848896680245315,0.958603463846963,-0.21884172997346044,-0.18191500133487654,-0.00972772389406633
2722.41666667372,0.2390706,-0.58465195,-0.14879753,-2.602653,-0.13655195,1.6535574,0.4978045,0.03999904,0.03999917,0.010075445924773163,0.004259852782467766,-0.0339288956246353,-0.29882733120889526,0.23270076515557359,0.0005715234515177746,0.9576483639959915,-0.22132307796334275,-0.18393140870581137,-0.00974386925860376
2722.433333340387,0.24170619,-0.5824482,-0.15044095,-2.605371,-0.13805977,1.6544693,0.49462324,0.039999045,0.039999172,0.011640330743101224,0.004452887595139676,-0.03262030875177402,-0.2992185630844324,0.23314112084920277,0.0008588857124494313,0.9566813190834156,-0.22380538520773285,-0.18594836864565167,-0.009757431365626486
2722.450000007054,0.24434353,-0.580243,-0.15208544,-2.6080909,-0.13956861,1.6553816,0.49143982,0.03999903,0.03999916,0.012111136621983931,0.004737993842131999,-0.033064938534166366,-0.2995693958298233,0.2335565339631204,0.0011467784155432164,0.9557023333654798,-0.22628831272015162,-0.1879660289088564,-0.009768393024400522
2722.4666666737207,0.24698222,-0.57803667,-0.15373087,-2.6108122,-0.14107819,1.6562942,0.48825473,0.03999904,0.03999917,0.013295358277121139,0.005047452607076508,-0.032577385762011524,-0.2998780250894797,0.23394304815334882,0.0014376321119330706,0.9547115531401512,-0.22877135359656037,-0.18998403862513674,-0.009776663132189622
2722.4833333403876,0.249622,-0.5758295,-0.15537691,-2.6135342,-0.1425884,1.6572076,0.48506835,0.039999038,0.03999917,0.014833519101831172,0.005093888573423633,-0.03138857839626308,-0.30014762808649065,0.2343003355377849,0.0017277105716157922,0.9537091426309342,-0.23125423872709588,-0.19200170297692967,-0.009782350784896948
2722.5000000070545,0.25226262,-0.57362163,-0.15702352,-2.6162574,-0.14409903,1.6581211,0.481881,0.03999904,0.039999172,0.014485313879775141,0.005468014164805579,-0.0323634024247621,-0.3003757382471508,0.23463364245841772,0.0020189193983548856,0.9526950677979844,-0.2337366152890451,-0.1940194588478132,-0.009785297901263491
2722.5166666737214,0.25490358,-0.5714135,-0.15867043,-2.6189814,-0.1456099,1.6590346,0.478693,0.03999904,0.039999172,0.015845431766092766,0.00584990252352896,-0.031796268421602214,-0.3005621645636961,0.23493640227147883,0.002310965900447034,0.9516694851304456,-0.2362180754692458,-0.19603687322361266,-0.00978551122157343
2722.5333333403883,0.25754455,-0.5692053,-0.16031735,-2.6217055,-0.14712082,1.6599482,0.47550493,0.03999905,0.039999183,0.016839137418256378,0.005990202575817394,-0.03105165529184717,-0.3007076879338464,0.23520817002859912,0.0026035795218225587,0.9506325511508336,-0.23869819672693152,-0.19805356889247575,-0.009783016954002782
2722.550000007055,0.26018527,-0.5669973,-0.16196415,-2.6244297,-0.1486316,1.6608618,0.4723171,0.039999053,0.039999187,0.017712838272121445,0.006201366852294499,-0.030743673490585266,-0.30081321535242683,0.23545245049165459,0.002895854266343728,0.9495843789939808,-0.24117666290440337,-0.2000692869177782,-0.009777774446326208
2722.566666673722,0.26282555,-0.5647898,-0.16361062,-2.627153,-0.1501421,1.6617752,0.46912986,0.039999057,0.039999194,0.019438297708651575,0.006337721114831746,-0.02965860638521889,-0.30087701065111383,0.2356655540526157,0.003188230536731218,0.9485251353259578,-0.24365315748632443,-0.20208353969560014,-0.009769825275541311
2722.583333340389,0.2654648,-0.56258297,-0.1652566,-2.6298747,-0.15165211,1.6626885,0.46594357,0.03999906,0.0399992,0.020491516016019062,0.00678099863008208,-0.028834190454496422,-0.3008991559824086,0.235852863921349,0.0034810367079552646,0.9474550257845521,-0.24612720021011597,-0.20409589662288957,-0.009759119531080872
2722.6000000070558,0.2681029,-0.5603771,-0.16690187,-2.6325953,-0.15316142,1.6636012,0.46275875,0.039999064,0.039999202,0.02058307101400203,0.006868265955991409,-0.029348038781584762,-0.3008805271812453,0.2360142447962748,0.003772997785160031,0.946374087186129,-0.24859846202399047,-0.20610656101115687,-0.009745629280953383
2722.6166666737226,0.27073947,-0.55817264,-0.16854626,-2.6353137,-0.15466984,1.6645135,0.4595758,0.03999906,0.0399992,0.022431713192938574,0.007090802089874254,-0.027804144069509817,-0.30082071068282573,0.2361453127952542,0.004064601984302481,0.9452826057466596,-0.2510665156849109,-0.20811472649297388,-0.009729367471646658
2722.6333333403895,0.2733742,-0.55596966,-0.17018951,-2.6380312,-0.15617716,1.6654253,0.45639497,0.03999906,0.039999202,0.021124465426103356,0.007260150666829612,-0.02919137402981331,-0.3007212002415319,0.2362505304220225,0.004354406041301422,0.9441805186524058,-0.2535311593841307,-0.2101209426648137,-0.009710245736460794
2722.6500000070564,0.27600664,-0.5537685,-0.1718314,-2.6407473,-0.15768327,1.6663362,0.4532168,0.039999057,0.0399992,0.022289666393215946,0.007682902609525838,-0.028778388754235884,-0.3005789391318503,0.23632393378316685,0.004644566626274799,0.9430680078635025,-0.2559918915302323,-0.21212501295686917,-0.009688286390617636
2722.6666666737233,0.2786366,-0.5515695,-0.17347175,-2.6434593,-0.15918797,1.6672462,0.4500416,0.03999905,0.03999919,0.026193717597333688,0.007641010040224799,-0.025217934200649772,-0.30039599368979747,0.23636292276844503,0.004934468097267299,0.9419455126384245,-0.258448368562434,-0.21412544570849065,-0.009663617743486046
2722.68333334039,0.28126383,-0.54937303,-0.17511038,-2.646169,-0.16069101,1.6681551,0.4468697,0.03999905,0.03999919,0.024464128122891893,0.007860144859483942,-0.027340104337469917,-0.30017246728302716,0.2363803917633324,0.005222277490087758,0.9408129505084544,-0.26090032474039526,-0.21612301806071096,-0.009636066119666008
2722.700000007057,0.28388777,-0.54717904,-0.17674707,-2.6488757,-0.16219226,1.6690632,0.4437015,0.03999905,0.039999194,0.02522282516568275,0.008182673895431453,-0.026151898923609807,-0.2999076522679207,0.23636441788763002,0.005508526878682732,0.9396705688995405,-0.26334733598566007,-0.2181172472264158,-0.009605677260901743
2722.716666673724,0.28650823,-0.5449879,-0.17838164,-2.6515784,-0.16369155,1.6699698,0.44053745,0.039999045,0.03999919,0.027266785685919892,0.008375579167306524,-0.02504975004185006,-0.2996014549861651,0.23631951951089228,0.005793587419367649,0.9385185890303807,-0.2657890057529513,-0.2201077688283406,-0.009572490098748335
2722.733333340391,0.28912497,-0.5428,-0.18001391,-2.6542778,-0.16518867,1.6708752,0.43737796,0.039999053,0.0399992,0.026772138216735186,0.008424448687668201,-0.025400521034102397,-0.2992548119482731,0.23624462190308432,0.006077638026116411,0.9373571300589104,-0.2682250477025248,-0.22209455359354904,-0.009536444661588777
2722.7500000070577,0.29173768,-0.54061544,-0.18164364,-2.6569726,-0.16668344,1.6717795,0.43422332,0.03999906,0.039999206,0.02854012969715214,0.008456393214822944,-0.02353947001041412,-0.2988670084968445,0.2361390316084549,0.00635967322623399,0.9361864811686522,-0.2706551581438333,-0.22407689115150262,-0.009497615441309332
2722.7666666737246,0.29434595,-0.53843474,-0.18327063,-2.659663,-0.16817571,1.6726822,0.43107402,0.03999906,0.039999206,0.029158721363642393,0.008852832832818847,-0.0236672902783841,-0.29843791961795946,0.2360058946648675,0.006639255668574529,0.9350068085922024,-0.2730788969582123,-0.22605479047143945,-0.009455983673019981
2722.7833333403914,0.2969494,-0.536258,-0.1848947,-2.6623485,-0.16966523,1.6735834,0.42793033,0.03999907,0.03999922,0.029594127301746376,0.00895931261245611,-0.022914406834395606,-0.29796898967603713,0.23584220514197363,0.006916271430515819,0.9338183199469497,-0.27549594217339735,-0.22802796930080335,-0.00941150328056873
2722.8000000070583,0.29954785,-0.53408533,-0.18651563,-2.6650283,-0.17115186,1.6744826,0.42479274,0.039999075,0.039999224,0.03108458308214157,0.009034290073164919,-0.021851431918507025,-0.297458857135676,0.23564990092733182,0.007191183885350276,0.9326212379035972,-0.27790593144339343,-0.2299961533812437,-0.00936425702196235
2722.816666673725,0.30214095,-0.5319174,-0.18813324,-2.6677036,-0.1726354,1.6753799,0.42166156,0.03999908,0.039999228,0.03018324664245675,0.009269466810911398,-0.022925791832739684,-0.29690833696388963,0.23542797248264666,0.007464106677202185,0.9314156469278009,-0.28030859542774883,-0.23195954557612192,-0.009314139976811346
2722.833333340392,0.30472824,-0.529754,-0.18974733,-2.6703725,-0.17411572,1.6762754,0.41853723,0.039999075,0.039999224,0.032494091876422715,0.009439961958742499,-0.020085930433499932,-0.2963172862456983,0.23517228389396455,0.00773465211856331,0.9302019722847336,-0.28270345245300904,-0.2339172449717759,-0.009261276021973082
2722.850000007059,0.30730948,-0.5275958,-0.1913577,-2.6730351,-0.17559256,1.6771686,0.41542017,0.039999075,0.039999224,0.03292250890647441,0.009517479688121722,-0.020356018224432226,-0.29568716142246126,0.23488809113957254,0.008002404442854622,0.9289803789048066,-0.285090195221317,-0.23586922822825704,-0.009205616413891192
2722.866666673726,0.3098845,-0.52544284,-0.19296414,-2.6756911,-0.17706577,1.6780597,0.41231066,0.039999083,0.03999923,0.03349723674979099,0.009480786839637101,-0.019333771368867936,-0.2950175994172629,0.23457565791330862,0.008266941598575325,0.9277510696521272,-0.28746860939563856,-0.23781522202781652,-0.009147215058795052
2722.8833333403927,0.31245285,-0.52329546,-0.19456649,-2.6783402,-0.1785352,1.6789484,0.40920904,0.03999909,0.039999243,0.034212865635341316,0.009744725278160865,-0.018807982485236074,-0.29430779088113435,0.23423245791919717,0.008528587525355909,0.926514291725688,-0.28983831098034746,-0.2397550093317286,-0.00908604514895636
2722.9000000070596,0.31501418,-0.5211537,-0.19616447,-2.680982,-0.18000063,1.6798348,0.40611577,0.039999098,0.03999925,0.034529041397513005,0.009830057203642772,-0.018069873690151894,-0.29355822648023533,0.23385945518415224,0.008786686282385117,0.9252702828314296,-0.29219894051676437,-0.24168840180596549,-0.00902215619488367
2722.9166666737265,0.31756827,-0.51901823,-0.197758,-2.6836174,-0.18146193,1.680719,0.40303123,0.039999098,0.03999925,0.03458754822469601,0.009919249099268196,-0.018240693930304808,-0.29276964784590886,0.23345610639773007,0.009041767173930078,0.9240192450752289,-0.2945502280880577,-0.24361526411383136,-0.008955498569334365
2722.9333333403933,0.3201148,-0.51688915,-0.19934683,-2.6862445,-0.18291888,1.6816006,0.39995575,0.039999098,0.03999925,0.03643987760937328,0.009935627970396321,-0.016262366819974616,-0.29194244510999456,0.23302041599226153,0.009292621085726288,0.9227615194048283,-0.2968918272918849,-0.24553504320716835,-0.008886154974575516
2722.95000000706,0.3226534,-0.5147664,-0.20093079,-2.6888635,-0.18437137,1.6824793,0.3968898,0.0399991,0.039999254,0.03638283667199982,0.010180657746977628,-0.0160964786365847,-0.291075957997011,0.23255630843460987,0.009540223897444005,0.9214972851968259,-0.2992233530141835,-0.24744787154130204,-0.008814150867120498
2722.966666673727,0.32518384,-0.5126507,-0.20250967,-2.6914737,-0.18581912,1.6833555,0.39383367,0.03999911,0.03999926,0.0379048544775884,0.00998327448686609,-0.014351911516419236,-0.29017111625469316,0.23206064284769712,0.009785502313770417,0.9202269585130838,-0.3015445656855826,-0.24935284412472203,-0.00873949988069167
2722.983333340394,0.32770583,-0.510542,-0.2040833,-2.694075,-0.18726204,1.6842285,0.39078766,0.03999911,0.03999926,0.037750177999362755,0.010196205591064822,-0.014473497315248274,-0.28922913482711016,0.2315386731526664,0.010024181309854562,0.9189506331065471,-0.30385518482691765,-0.2512503261174964,-0.008662227930936382
2723.000000007061,0.33021894,-0.5084406,-0.20565145,-2.696668,-0.18869995,1.6850986,0.3877523,0.03999911,0.03999926,0.037838901307463146,0.010338949447137591,-0.0142336817538391,-0.2882482427574397,0.23098587075399996,0.010259963007406631,0.9176685939301134,-0.30615481441919307,-0.2531401291769318,-0.008582326174438038
2723.0166666737277,0.332723,-0.5063468,-0.20721401,-2.6992514,-0.19013268,1.6859655,0.3847278,0.039999116,0.03999927,0.03882335823603977,0.010330209358509757,-0.013031435855004325,-0.28722981266025066,0.2304014634402863,0.010491985272425872,0.9163811126022456,-0.3084432252805995,-0.2550219326125011,-0.00849983123107203
2723.0333333403946,0.33521765,-0.50426096,-0.20877072,-2.7018256,-0.19156002,1.686829,0.3817145,0.039999124,0.039999276,0.03910964368358805,0.010343992159959903,-0.012763929483750047,-0.2861740730582881,0.22978541748319006,0.010719961015702273,0.9150884057197745,-0.31072016163574673,-0.2568956657577548,-0.008414736191764687
2723.0500000070615,0.33770263,-0.5021832,-0.21032138,-2.704389,-0.19298184,1.6876893,0.37871286,0.039999127,0.03999928,0.04087046548035822,0.010207995754635268,-0.010074635719670155,-0.2850810048733857,0.22913784542469534,0.010943485007721045,0.9137909751111254,-0.3129852624381297,-0.2587603849499382,-0.008327213372629738
2723.0666666737284,0.34017754,-0.5001137,-0.21186587,-2.7069426,-0.19439791,1.6885462,0.3757233,0.039999135,0.039999288,0.04010573078718771,0.01045493980690454,-0.01091165086326562,-0.28395075786918433,0.2284627998613136,0.011162301674715346,0.9124889515863722,-0.3152381646874955,-0.26061650391475755,-0.008237150266442143
2723.0833333403953,0.3426422,-0.49805287,-0.213404,-2.7094858,-0.19580813,1.6893996,0.37274596,0.039999146,0.0399993,0.040588148217191033,0.010370432476683455,-0.010100233169829664,-0.28278538620708327,0.2277588049970199,0.011376349597855724,0.9111825760583663,-0.3174787560070881,-0.26246374620794277,-0.008144599334779753
2723.100000007062,0.34509635,-0.49600086,-0.21493559,-2.7120173,-0.19721231,1.6902493,0.36978126,0.039999153,0.039999306,0.04239646086321436,0.01023387847075563,-0.007831918543099725,-0.2815828423177331,0.22702091190023427,0.011585823636269178,0.9098722872575006,-0.3197067066746512,-0.2643014287132647,-0.008049681247100326
2723.116666673729,0.34753957,-0.49395785,-0.21646044,-2.7145386,-0.19861028,1.6910952,0.36682978,0.03999916,0.039999317,0.04074384206480541,0.01053048406410434,-0.009476352818249545,-0.28034451601022015,0.22625871267157568,0.01178949778755712,0.9085581731681758,-0.32192160705501704,-0.26613020416331706,-0.007952314909108976
2723.133333340396,0.34997162,-0.49192414,-0.21797834,-2.7170475,-0.20000187,1.6919372,0.3638916,0.039999172,0.03999933,0.04340107758942224,0.010261796334938567,-0.006072928474298855,-0.2790713372232117,0.22546029110625487,0.01198966566499498,0.9072407474005924,-0.32412329638977383,-0.26794897060298994,-0.007852652178691657
2723.1500000070628,0.35239232,-0.48990008,-0.21948919,-2.7195446,-0.20138691,1.6927754,0.36096725,0.03999918,0.039999336,0.04271216684816892,0.010217800275655331,-0.006476999280713436,-0.2777635729979423,0.2246364533295922,0.012183967111810454,0.9059202206095788,-0.3263114980833656,-0.26975783028629596,-0.007750684389884615
2723.1666666737297,0.35480112,-0.48788568,-0.22099276,-2.7220306,-0.20276529,1.6936095,0.35805693,0.03999918,0.039999336,0.04205280412654666,0.010543317116362694,-0.006909096296681128,-0.2764211953580926,0.22378430424753834,0.012373077291073065,0.9045967422781597,-0.32848591680919537,-0.27155712012845407,-0.007646360265082936
2723.1833333403965,0.35719806,-0.48588124,-0.22248888,-2.7245042,-0.20413676,1.6944393,0.355161,0.039999187,0.039999343,0.043558656722764155,0.010105056633345766,-0.004929726737123996,-0.2750448983295729,0.22289627533271622,0.012558047823397922,0.9032706955871289,-0.3306463865208389,-0.2733462437785199,-0.0075398001585203125
2723.2000000070634,0.35958275,-0.4838872,-0.22397743,-2.726965,-0.20550127,1.695265,0.3522799,0.039999202,0.039999355,0.04428555909146148,0.010136342452431168,-0.003496609694886299,-0.27363388553115864,0.2219788558023751,0.012737437560798974,0.9019425120772032,-0.3327925937073964,-0.2751246504336169,-0.007431097169868682
2723.2166666737303,0.36195487,-0.48190367,-0.22545815,-2.7294126,-0.20685859,1.6960865,0.3494139,0.039999217,0.039999373,0.044515541497380795,0.010048384538853539,-0.0028871069516100967,-0.27218988258646787,0.22103358931739792,0.012911197010922242,0.9006124567052249,-0.3349242914225831,-0.2768922813406473,-0.007320271609147411
2723.233333340397,0.36431417,-0.47993085,-0.22693093,-2.7318473,-0.20820858,1.6969035,0.3465633,0.039999224,0.039999377,0.044232140119515595,0.010112208293422409,-0.0029310715570662893,-0.2707122619009772,0.2200612425686008,0.013079925720186847,0.8992807300497682,-0.3370412489787838,-0.27864927739876155,-0.007207305538504194
2723.250000007064,0.3666604,-0.47796896,-0.22839552,-2.7342684,-0.20955108,1.6977161,0.34372842,0.03999924,0.039999392,0.04503011954495317,0.00984454810468438,-0.0012184714173635314,-0.26920274237007646,0.219056593437794,0.013242808355981635,0.8979477326537465,-0.33914328831318624,-0.28039507544061143,-0.0070923256248425215
2723.266666673731,0.36899322,-0.4760182,-0.22985177,-2.7366753,-0.21088602,1.6985239,0.34090963,0.039999258,0.03999941,0.04585239081852377,0.00990464688285092,-0.00013997796062259482,-0.26766071447779183,0.2180248316308371,0.013399713110610341,0.8966137880210613,-0.3412300964173004,-0.28212954453476424,-0.006975423296810552
2723.283333340398,0.37131238,-0.4740788,-0.23129962,-2.7390687,-0.21221316,1.699327,0.3381072,0.039999276,0.03999943,0.04474998614147907,0.00993762965693784,-0.0008422923389761472,-0.2660869108950973,0.21696538686241065,0.013551334899680793,0.8952790820046928,-0.3433014594824114,-0.2838528879198351,-0.0068564758914795194
2723.3000000070647,0.37361768,-0.4721509,-0.2327388,-2.7414477,-0.21353231,1.7001255,0.33532152,0.03999929,0.039999444,0.04594756825335722,0.009528180163427546,0.0013391462595824244,-0.26448199974537606,0.21587340067514718,0.013697737357047692,0.8939440504616044,-0.3453571750527348,-0.2855645061572759,-0.00673565936240497
2723.3166666737316,0.3759089,-0.47023493,-0.23416919,-2.7438118,-0.21484342,1.700919,0.33255273,0.039999306,0.03999946,0.04639869528338947,0.009485835326403236,0.00210198059558131,-0.2628462219163584,0.2147532479048721,0.013838135926844825,0.8926089841295244,-0.34739712040425635,-0.2872641819028179,-0.006613016089035811
2723.3333333403984,0.37818572,-0.46833098,-0.23559065,-2.7461615,-0.21614626,1.7017075,0.32980135,0.039999314,0.039999466,0.04597703163279343,0.009530105015904955,0.0020140858411066276,-0.2611795612960143,0.2136069819945724,0.01397217239565119,0.8912741375711276,-0.34942093102585725,-0.28895211311763697,-0.0064885270068200385
2723.3500000070653,0.38044775,-0.46643916,-0.23700298,-2.748496,-0.21744072,1.7024913,0.3270676,0.03999933,0.03999948,0.046292008147263974,0.009342768697434556,0.0035600060614426887,-0.25948300489136134,0.2124295804291338,0.014100808914797716,0.8899399167368407,-0.3514284383799084,-0.29062780059878984,-0.00636229639312254
2723.366666673732,0.38269487,-0.46455985,-0.23840603,-2.750815,-0.21872668,1.7032695,0.3243518,0.03999934,0.039999492,0.04727063165309575,0.009227634224329151,0.004443994953828856,-0.25775751918565126,0.2112240723696752,0.014223507642312533,0.8886065956866203,-0.35341945611592523,-0.2922911877278012,-0.006234397936491491
2723.383333340399,0.3849269,-0.46269318,-0.23979974,-2.7531185,-0.22000399,1.7040426,0.3216543,0.039999355,0.039999504,0.046505319646528154,0.009096124148587348,0.0045760922342430455,-0.2560032343581335,0.20999055643656336,0.014340473432002065,0.8872744590661483,-0.3553937772191023,-0.29394221932930376,-0.006104842223719822
2723.400000007066,0.3871434,-0.46083948,-0.24118383,-2.7554066,-0.2212725,1.7048106,0.31897527,0.039999362,0.03999951,0.04675713867026143,0.008922782047439404,0.0055577974249820805,-0.2542202255258475,0.2087297295437574,0.014452273296301159,0.8859438505065124,-0.35735127040877585,-0.2955805786128947,-0.005973678414089861
2723.416666673733,0.3893444,-0.45899883,-0.24255824,-2.7576778,-0.22253205,1.705573,0.3163151,0.039999384,0.039999533,0.048181789124568386,0.00862894521611035,0.007595545524741176,-0.2524093452727838,0.207438821536383,0.014557177478074945,0.8846151742212461,-0.35929169770095415,-0.29720590773906186,-0.005841053473543885
2723.4333333403997,0.39152944,-0.45717138,-0.2439227,-2.759933,-0.22378251,1.7063296,0.3136741,0.0399994,0.03999955,0.04701388778343141,0.008705504231962258,0.006672271085339521,-0.25057169588394285,0.20612354125695312,0.014656008318090729,0.8832885654717936,-0.3612148841065674,-0.29881858784130977,-0.0057069402647641565
2723.4500000070666,0.39369833,-0.45535746,-0.24527712,-2.7621715,-0.22502376,1.7070807,0.3110524,0.039999403,0.03999955,0.04769799249561002,0.008410106254108651,0.008459613451750059,-0.24870607376138074,0.2047781467945306,0.01475022543270241,0.8819644692925204,-0.3631206988887335,-0.3004180290288998,-0.005571425177795008
2723.4666666737335,0.39585096,-0.45355716,-0.24662143,-2.7643936,-0.22625566,1.7078263,0.30845043,0.03999941,0.039999556,0.04723172081404492,0.008259362787986502,0.008463629691191077,-0.24681474013935784,0.20340694367525172,0.014837434544361951,0.8806431053837426,-0.36500897227832496,-0.3020043658760461,-0.0054345274133702085
2723.4833333404003,0.39798698,-0.45177066,-0.24795543,-2.7665987,-0.22747807,1.7085664,0.30586833,0.039999418,0.039999563,0.04753889666470057,0.00803099778807631,0.009851793695636601,-0.24489689677042797,0.20200546625893248,0.014918947904852778,0.8793248619946665,-0.3668795774762435,-0.30357719208503386,-0.005296334079361099
2723.5000000070672,0.40010613,-0.44999823,-0.24927899,-2.7687857,-0.22869089,1.7093006,0.30330655,0.039999425,0.03999957,0.04877561258447294,0.007871609716797456,0.011722176070716461,-0.24295382622048378,0.2005794271533552,0.014993682773384344,0.8780102012032762,-0.36873220225328357,-0.30513612550602115,-0.005156987066068025
2723.516666673734,0.40220827,-0.44824,-0.25059193,-2.7709558,-0.22989398,1.7100289,0.30076522,0.039999437,0.039999582,0.04734142028475219,0.007784358639958966,0.01040042560613852,-0.24098662948887523,0.19912907486229095,0.015062296782247662,0.8766991544252067,-0.3705668471080962,-0.30668165884965237,-0.005016430974088235
2723.533333340401,0.40429318,-0.4464961,-0.25189415,-2.7731087,-0.23108725,1.7107513,0.29824463,0.03999945,0.039999593,0.047320112280491156,0.007591259802888772,0.011303903699078077,-0.2389941800351691,0.19765013619921193,0.015126083416136755,0.8753920538513906,-0.37238336010870504,-0.3082135980103915,-0.004874748145627347
2723.550000007068,0.4063606,-0.44476688,-0.25318554,-2.7752428,-0.23227051,1.7114677,0.2957451,0.039999466,0.039999608,0.04901696178010173,0.0071680614892710715,0.014286447114619794,-0.23697773364799252,0.19614175161641648,0.015183732575994598,0.8740895189770945,-0.3741814954456951,-0.3097310585961971,-0.004732084244161556
2723.5666666737347,0.40841034,-0.44305238,-0.2544659,-2.777359,-0.2334437,1.712178,0.2932669,0.03999948,0.039999623,0.04778040683915963,0.007187225726155988,0.013109397492849784,-0.2349392562296061,0.19461297380883277,0.015234354584753654,0.8727915890532475,-0.3759611862454617,-0.3112345973632546,-0.004588454962753141
2723.5833333404016,0.41044226,-0.44135284,-0.2557352,-2.7794566,-0.23460667,1.7128823,0.29081017,0.039999496,0.039999638,0.0482970768640234,0.00676260726558825,0.01485815486326203,-0.23287753820901858,0.1930564306566808,0.015279733364232662,0.8714987025826555,-0.37772234128624355,-0.312723673204679,-0.004443929270357481
2723.6000000070685,0.41245607,-0.4396684,-0.25699314,-2.7815356,-0.23575932,1.7135801,0.28837523,0.03999952,0.03999966,0.04814575910709884,0.006732361071901116,0.014974481710317011,-0.23079398606990364,0.1914772303719029,0.015318160371369901,0.8702110750133595,-0.3794647889985648,-0.31419847387313715,-0.00429858699566324
2723.6166666737354,0.41445163,-0.43799922,-0.25823972,-2.7835958,-0.23690155,1.7142717,0.28596225,0.039999537,0.03999968,0.048165431585944773,0.006433038819529668,0.015909933345870098,-0.22868859221774224,0.18987108465309807,0.0153515650351248,0.8689290300769472,-0.38118846971931764,-0.3156587525806734,-0.004152488626580353
2723.6333333404023,0.41642863,-0.43634543,-0.25947487,-2.7856379,-0.2380332,1.714957,0.2835716,0.039999563,0.0399997,0.04713207400154351,0.00645791564115733,0.015319613680619959,-0.2265608925378497,0.18824265460299755,0.01537947288771116,0.8676527915821078,-0.38289314867017826,-0.3171047546238685,-0.004005565646475668
2723.650000007069,0.418387,-0.43470722,-0.26069835,-2.78766,-0.23915415,1.7156358,0.28120342,0.039999586,0.039999723,0.048919950150572156,0.005798982890244109,0.0184631751868225,-0.22441414001437965,0.18658538959644724,0.015401406773089175,0.8663828677019045,-0.3845788006875578,-0.31853569320953956,-0.0038580780010148254
2723.666666673736,0.42032653,-0.43308473,-0.2619101,-2.7896626,-0.2402644,1.7163079,0.27885792,0.039999608,0.039999742,0.04795118544221877,0.005900451775150972,0.01774576442202802,-0.22224714414560193,0.18490753450935885,0.01541780871610688,0.8651193828047863,-0.3862453328918576,-0.31995192137274286,-0.003710030271328968
2723.683333340403,0.42224708,-0.4314781,-0.26310998,-2.7916453,-0.24136367,1.7169734,0.2765354,0.039999623,0.039999757,0.04839989516949306,0.005333776137886326,0.019357465978742106,-0.2200608706484763,0.1832041029658759,0.015428215248396437,0.8638627742385344,-0.38789261843169753,-0.32135298282491953,-0.0035614997727564266
2723.70000000707,0.4241484,-0.42988747,-0.2642979,-2.7936082,-0.24245203,1.7176325,0.274236,0.03999962,0.039999753,0.04783592652071178,0.005316099128904739,0.019538051363787723,-0.21785612803083904,0.1814802945653013,0.015432315157081912,0.8626132654120215,-0.3895206040577892,-0.3227389158758756,-0.003412554604519597
2723.7166666737367,0.42603028,-0.4283132,-0.26547372,-2.7955518,-0.24352928,1.718285,0.2719599,0.039999623,0.039999757,0.04733853178231495,0.00517783310562403,0.019133923455849633,-0.21563307698877987,0.17973441652042232,0.015430666014831045,0.861371047530091,-0.3911292019744351,-0.3241098851664125,-0.003263154481496852
2723.7333333404035,0.42789257,-0.4267551,-0.2666376,-2.7974749,-0.24459533,1.7189307,0.26970735,0.03999963,0.03999976,0.047959269970765384,0.004901696056996974,0.02128728211373554,-0.2133919678983834,0.1779643862687306,0.01542389120886005,0.8601365846214724,-0.39271822124820915,-0.32546545327222287,-0.003113393913047917
2723.7500000070704,0.4297352,-0.42521358,-0.267789,-2.7993777,-0.24565019,1.7195696,0.26747867,0.03999964,0.039999772,0.04773736120080585,0.004475486719361654,0.02130261048480797,-0.2111353409239557,0.17617358323837778,0.015410369346952394,0.8589100326680853,-0.3942877365052709,-0.3268056827245014,-0.0029635051259068396
2723.7666666737373,0.431558,-0.4236886,-0.26892805,-2.8012598,-0.24669364,1.7202015,0.265274,0.039999653,0.03999978,0.0477646499638551,0.0042662162683684834,0.022375606566693573,-0.20886080447792743,0.17436067058163413,0.015392669937521967,0.8576917456896642,-0.3958375947198635,-0.328130389392124,-0.002813456874111325
2723.783333340404,0.43336073,-0.4221804,-0.27005464,-2.8031213,-0.24772564,1.7208264,0.26309344,0.039999656,0.039999783,0.04737462526501757,0.004174127511898107,0.022394839673600675,-0.2065715349284642,0.1725275248200528,0.015368857175877375,0.8564819449820715,-0.39736772810845344,-0.329439635743055,-0.0026632647515814484
2723.800000007071,0.43514323,-0.42068905,-0.27116856,-2.8049624,-0.24874613,1.7214445,0.2609372,0.03999968,0.039999805,0.04695941515462376,0.0038385209800081976,0.02294511200430227,-0.204267154555816,0.1706728034996325,0.0153398360337654,0.8552808667730002,-0.39887815799231663,-0.33073333453114334,-0.0025130536390601055
2723.816666673738,0.4369054,-0.4192148,-0.27226985,-2.8067822,-0.24975495,1.7220556,0.2588055,0.039999686,0.03999981,0.047498485183739,0.0034935566861404865,0.02434146015940497,-0.20194694382184072,0.16879672227915177,0.015306263191296673,0.854088910887538,-0.40036875942115346,-0.33201115286299276,-0.0023628696731653773
2723.833333340405,0.43864706,-0.41775763,-0.27335843,-2.808581,-0.250752,1.7226595,0.25669855,0.039999697,0.03999982,0.04690754566372135,0.0034091547173265013,0.024225453796189456,-0.1996137796663236,0.16690370932128487,0.015266032931161522,0.852906271318392,-0.4018394182338808,-0.33327327855694144,-0.002212713067964696
2723.8500000070717,0.44036815,-0.41631758,-0.2744342,-2.8103585,-0.2517374,1.7232561,0.25461644,0.039999712,0.039999835,0.04700612503678592,0.0031478665176498666,0.02528265405462582,-0.1972680950361685,0.16498947162273053,0.015220739539442293,0.8517331855800718,-0.4032901857205986,-0.3345195833080004,-0.0020627812559579975
2723.8666666737386,0.44206846,-0.41489488,-0.27549702,-2.8121147,-0.25271085,1.723846,0.25255936,0.039999723,0.039999843,0.04646068537534909,0.002711542788814969,0.0256512409694154,-0.19490848581053222,0.1630570836457443,0.015171361683465001,0.850569963693699,-0.4047210282762455,-0.33574985679319236,-0.0019130594524711742
2723.8833333404054,0.44374788,-0.41348955,-0.27654678,-2.8138492,-0.25367236,1.7244287,0.25052744,0.03999973,0.03999985,0.04661801256982123,0.0025060228525830563,0.026504217167189204,-0.19253751218181986,0.1611060095668319,0.015115955721280327,0.8494168495868017,-0.4061319055517574,-0.33696406405474894,-0.0017636515069841504
2723.9000000070723,0.4454064,-0.4121018,-0.2775835,-2.8155622,-0.25462198,1.7250037,0.24852078,0.03999974,0.039999854,0.046256994453219846,0.002471614635894681,0.026218932083532653,-0.19015425817528445,0.15913828898410554,0.01505594907438216,0.8482739429434184,-0.4075228277484824,-0.3381624693129354,-0.0016146006579967898
2723.916666673739,0.4470438,-0.4107317,-0.2786071,-2.8172534,-0.25555936,1.7255715,0.24653964,0.039999753,0.03999987,0.046262996648760435,0.001928468449005627,0.027518237917056876,-0.18775970422768226,0.1571506802196228,0.014991306603898205,0.8471416811156127,-0.40889364732139977,-0.3393446749198884,-0.0014659127980360342
2723.933333340406,0.4486599,-0.4093794,-0.27961743,-2.8189228,-0.25648457,1.726132,0.24458411,0.039999764,0.03999988,0.04577345107108499,0.001848948502278236,0.027563081523684918,-0.18535573056002558,0.1551468399303274,0.014921236859294078,0.8460202275363103,-0.41024439867686985,-0.34051075117739904,-0.001317682156979743
2723.950000007073,0.4502545,-0.40804496,-0.28061444,-2.82057,-0.2573977,1.726685,0.24265438,0.039999772,0.039999884,0.04594309501337879,0.0017314524083614224,0.028542138806730843,-0.1829418902095326,0.1531277761142249,0.01484662005706609,0.8449098623751701,-0.4115750236155111,-0.34166058502264907,-0.00117005941894334
2723.96666667374,0.45182782,-0.4067284,-0.28159815,-2.8221948,-0.25829858,1.7272305,0.24075048,0.039999783,0.039999895,0.04573259271418717,0.0011838027092092585,0.02917156860051673,-0.1805197295386437,0.15109172960355743,0.01476763628133224,0.8438107754276792,-0.41288561538022867,-0.3427941032601193,-0.001023061248974877
2723.9833333404067,0.45337948,-0.40542978,-0.28256837,-2.8237975,-0.25918713,1.7277687,0.23887257,0.039999805,0.039999913,0.04520532492855445,0.0011122328938475978,0.029252017309311373,-0.17808849327224574,0.14904160964637306,0.014684320292893207,0.8427231986946414,-0.4141760966288031,-0.3439113296813148,-0.0008767439934906173
2724.0000000070736,0.4549095,-0.40414926,-0.2835252,-2.8253784,-0.26006335,1.7282995,0.23702078,0.03999982,0.039999925,0.044430337809475695,0.0009505542223717245,0.02891196754306602,-0.17564925191658315,0.14697718721231476,0.0145968665870146,0.8416472676566167,-0.4154464944047917,-0.34501239491961627,-0.0007310846404795467
2724.0166666737405,0.45641792,-0.40288693,-0.2844684,-2.8269365,-0.2609271,1.7288227,0.23519523,0.03999984,0.039999943,0.04528044672813536,0.00033028677900170944,0.030887920039990302,-0.1732036826600153,0.1448952545227467,0.014504639075271174,0.8405833225589697,-0.416696846484827,-0.3460969115913016,-0.0005863039197119396
2724.0333333404074,0.45790452,-0.4016428,-0.285398,-2.828472,-0.2617784,1.7293383,0.23339598,0.039999858,0.039999958,0.04470123485187383,0.000305467033680229,0.030818694131085067,-0.17075043620791447,0.14280323990816485,0.014408304492853824,0.8395315209539704,-0.4179271356396897,-0.3471650024188597,-0.00044239827134609955
2724.0500000070742,0.45936912,-0.400417,-0.28631398,-2.8299863,-0.26261714,1.7298462,0.23162313,0.039999884,0.039999984,0.04292730613885132,0.0004784291034093391,0.02843951046150872,-0.16829122566811766,0.14069791491324216,0.014308163398637969,0.8384917832220861,-0.41913731954468136,-0.3482173851545017,-0.0002991823984651726
2724.066666673741,0.46081182,-0.3992096,-0.28721625,-2.8314772,-0.26344338,1.7303469,0.22987677,0.039999902,0.04,0.04482981229646521,-0.00048506247238844225,0.03325619673424374,-0.1658268769991431,0.13857252075841545,0.014205116343959191,0.8374647953790104,-0.42032752702960136,-0.34925271916305584,-0.000157096096308761
2724.083333340408,0.46223253,-0.39802045,-0.2881048,-2.8329453,-0.26425704,1.7308401,0.22815706,0.039999925,0.04,0.043586144066065646,-0.0003968390075048678,0.031752347460134445,-0.16335820710364973,0.1364413188291919,0.014096154920885288,0.83645052368594,-0.4214976982101643,-0.35027162541575574,-1.6051613577605678e-05
2724.100000007075,0.46363106,-0.39684972,-0.2889796,-2.8343909,-0.26505804,1.7313254,0.22646393,0.039999932,0.04,0.043407257849426006,-0.0005008340606238448,0.03181311038832346,-0.16088439973022695,0.13429969532650765,0.013984717108901638,0.8354491050019325,-0.4226478390212043,-0.35127422585790574,0.0001239762274233885
2724.1166666737417,0.46500745,-0.39569762,-0.28984058,-2.8358135,-0.26584628,1.731803,0.22479752,0.039999943,0.04,0.043325437669694544,-0.0009787214722042914,0.03270187745986197,-0.15840888080702592,0.13214494602609017,0.013868888681173683,0.8344608203714536,-0.42377800886230366,-0.3522602295918822,0.0002629022180461873
2724.1333333404086,0.46636176,-0.39456406,-0.29068774,-2.8372128,-0.26662213,1.732273,0.2231579,0.039999954,0.04,0.04335765536210845,-0.0010836783077394774,0.033708130065501773,-0.1559310037500291,0.12998102469696804,0.013748638998301484,0.8334858201455029,-0.4248883409328847,-0.35322956416540524,0.0004004437498311707
2724.1500000070755,0.46769384,-0.39344907,-0.29152104,-2.8385897,-0.26738513,1.7327352,0.2215451,0.039999973,0.04,0.04217972115243551,-0.001275919672204251,0.032311763111136926,-0.15344916304528416,0.12780933750310755,0.013626284117690717,0.8325241457597029,-0.4259787640557217,-0.35418265215045025,0.0005368578117349562
2724.1666666737424,0.46900356,-0.39235264,-0.2923404,-2.8399436,-0.2681354,1.7331898,0.21995917,0.039999995,0.04,0.04218932272747056,-0.0015473076628344518,0.03354091194854858,-0.15096684258669724,0.12562626779837907,0.013500103880794971,0.8315760622039712,-0.42704935725709003,-0.35511920209371334,0.0006719672370912721
2724.1833333404093,0.47029102,-0.39127484,-0.29314584,-2.8412745,-0.26887283,1.7336369,0.21840015,0.039999988,0.04,0.04209968627850724,-0.0019154833902898516,0.03407472342337181,-0.14848319061787085,0.12343600974746763,0.01337093791679908,0.8306417476858867,-0.42810017021854646,-0.3560391580146494,0.0008057421464873455
2724.200000007076,0.47155625,-0.39021572,-0.29393756,-2.8425822,-0.26959753,1.734076,0.2168681,0.03999999,0.04,0.041829192653808356,-0.001909700529437175,0.03418366778030757,-0.14599954831045803,0.12123975066414931,0.01323798444990949,0.8297213285864762,-0.4291312057409903,-0.35694263547837124,0.0009381501646074064
2724.216666673743,0.47279915,-0.38917524,-0.29471514,-2.8438666,-0.27030945,1.7345076,0.21536295,0.039999988,0.04,0.04163537046970589,-0.0024227402142848464,0.03496313087807401,-0.14351715103965287,0.11903587150036221,0.01310208705981139,0.8288149388733128,-0.4301426790099309,-0.3578294705715874,0.0010690112458244898
2724.23333334041,0.47401962,-0.38815337,-0.29547888,-2.8451283,-0.2710086,1.7349312,0.2138849,0.039999984,0.04,0.040716730197254414,-0.0021200047596051097,0.033835423423855815,-0.1410345067980568,0.11682880296210776,0.0129628511263782,0.8279226444587249,-0.43113441243509276,-0.3587001211606425,0.0011984515258404774
2724.250000007077,0.4752177,-0.38715035,-0.29622862,-2.8463666,-0.271695,1.7353469,0.21243383,0.039999988,0.04,0.0411698882990974,-0.0026502579058465536,0.03523372106672973,-0.13855776269851044,0.1146117780011859,0.012819451904507725,0.8270446537533596,-0.43210660890343433,-0.3595542519835404,0.00132631840697931
2724.2666666737437,0.47639352,-0.38616592,-0.2969644,-2.8475816,-0.27236858,1.735755,0.21100974,0.03999999,0.04,0.04058275376760401,-0.0029535643476089057,0.03558847120049835,-0.1360784703795036,0.11239366534549206,0.01267747929699261,0.8261810875810742,-0.4330593793306184,-0.36039183480844617,0.001452549666758449
2724.2833333404105,0.47754693,-0.3852002,-0.29768628,-2.8487737,-0.27302942,1.7361553,0.20961262,0.03999999,0.04,0.03996561499541862,-0.002886574950267118,0.03499032711623551,-0.13360696306660713,0.11017053487345198,0.01252835383008926,0.8253319966467748,-0.43399273914941355,-0.3612131090655091,0.0015771860593027924
2724.3000000070774,0.47867805,-0.38425317,-0.29839426,-2.849943,-0.27367744,1.736548,0.20824252,0.039999995,0.04,0.03959116006585495,-0.003212176367095587,0.035240253186974435,-0.1311364637251908,0.10794539229049833,0.012379668427027559,0.8244975029239118,-0.43490677595325655,-0.36201805654886243,0.0017001866847114655
2724.3166666737443,0.47978684,-0.3833247,-0.29908827,-2.8510892,-0.2743127,1.7369329,0.20689937,0.03999999,0.04,0.03924795114007562,-0.0033211256285456403,0.035319739038475184,-0.1286709096591123,0.10571797470203902,0.012227784589785358,0.8236776489501935,-0.4358015913779524,-0.3628068160864503,0.0018214756486517937
2724.333333340411,0.48087335,-0.38241494,-0.29976833,-2.8522124,-0.27493522,1.7373102,0.2055832,0.039999988,0.04,0.039176628227000077,-0.0036317900274016046,0.03603509417500206,-0.12621033625718361,0.10348647812756419,0.012074273621206541,0.8228726285024194,-0.4366772700656951,-0.3635791958514852,0.00194098260649569
2724.350000007078,0.4819376,-0.38152382,-0.30043453,-2.853313,-0.275545,1.7376795,0.20429388,0.03999999,0.04,0.03855200773816847,-0.0035422757601155652,0.03517031134795401,-0.12375566110703132,0.10125650293320146,0.011918749484922588,0.8220823696208185,-0.4375338845093498,-0.3643356130425374,0.002058769947672692
2724.366666673745,0.48297963,-0.38065132,-0.30108693,-2.8543904,-0.276142,1.7380412,0.20303139,0.039999995,0.04,0.03852153294797711,-0.00398450120348004,0.036349091835874425,-0.1213069443981642,0.09902360393584966,0.011761905032689292,0.8213071217547764,-0.4383715282590212,-0.3650757255004105,0.00217476828282702
