rsonawane2002/My_IMU/logs_2/traj_497/imu_400hz_497.csv
time,j1,j2,j3,j4,j5,j6,j7,gripper1,gripper2,imu_ax,imu_ay,imu_az,imu_gx,imu_gy,imu_gz
0.0,0.00016700293,-0.785875,4.0107683e-05,-2.3551247,9.29385e-05,1.570997,0.786,0.04,0.04,-9.494467,0.0036888832692056,0.086349696,-4.0630974e-07,-0.0011641273740679,7.146905e-07
0.0025,0.00016700465499999996,-0.7858577740000002,4.0107909049999996e-05,-2.35513919,9.294308099999994e-05,1.570996565,0.786,0.04,0.04,-9.545470599999351,0.0032301015715405167,0.07475848650014759,-4.834595939990176e-07,-0.0013251610565909995,7.46497894999595e-07
0.005,0.00016700637999999995,-0.7858405480000005,4.01081351e-05,-2.35515368,9.294766199999989e-05,1.57099613,0.786,0.04,0.04,-9.5964741999987,0.0027713198738754333,0.06316727700029517,-5.606094479980353e-07,-0.001486194739114099,7.7830528999919e-07
0.0075,0.00016700810499999992,-0.7858233220000007,4.010836114999999e-05,-2.35516817,9.295224299999983e-05,1.5709956950000001,0.786,0.04,0.04,-9.647477799998052,0.00231253817621035,0.051576067500442774,-6.37759301997053e-07,-0.0016472284216371986,8.10112684998785e-07
0.01,0.0001670098299999999,-0.785806096000001,4.010858719999999e-05,-2.3551826599999997,9.295682399999977e-05,1.5709952600000001,0.786,0.04,0.04,-9.698481399997402,0.0018537564785452666,0.03998485800059036,-7.149091559960706e-07,-0.0018082621041602982,8.4192007999838e-07
0.0125,0.00016701155499999987,-0.7857888700000011,4.0108813249999986e-05,-2.355197149999999,9.29614049999997e-05,1.570994825,0.786,0.04,0.04,-9.749484999996753,0.0013949747808801832,0.028393648500737945,-7.920590099950882e-07,-0.001969295786683398,8.73727474997975e-07
0.015,0.00016701327999999987,-0.7857716440000013,4.010903929999998e-05,-2.355211639999999,9.296598599999965e-05,1.57099439,0.786,0.04,0.04,-9.800488599996104,0.0009361930832150998,0.016802439000885544,-8.692088639941059e-07,-0.0021303294692064973,9.0553486999757e-07
0.0175,0.00016701801749999904,-0.7857548620000014,4.0107374000000485e-05,-2.355225734999999,9.296871250000009e-05,1.57099396,0.786,0.04,0.04,-9.834368850000033,0.0006304941052802734,0.00900645130001832,-1.2389438199148895e-06,-0.0022868670988695893,9.258958830002256e-07
0.02,0.0001670287799999989,-0.7857389680000016,4.010192600000055e-05,-2.355239039999999,9.29677300000001e-05,1.5709935400000001,0.786,0.04,0.04,-9.834002400000037,0.0006309605669229124,0.008800907200020937,-2.1938489799027304e-06,-0.0024344126228092304,9.23364132000258e-07
0.0225,0.00016703954249999877,-0.7857230740000019,4.009647800000062e-05,-2.3552523449999985,9.296674750000011e-05,1.57099312,0.786,0.04,0.04,-9.833635950000042,0.0006314270285655516,0.008595363100023555,-3.148754139890571e-06,-0.002581958146748872,9.208323810002902e-07
0.025,0.0001670503049999986,-0.7857071800000021,4.009103000000069e-05,-2.3552656499999984,9.296576500000013e-05,1.5709927000000001,0.786,0.04,0.04,-9.833269500000046,0.0006318934902081906,0.008389819000026172,-4.103659299878413e-06,-0.002729503670688513,9.183006300003224e-07
0.0275,0.0001670610674999985,-0.7856912860000023,4.0085582000000764e-05,-2.355278954999998,9.296478250000014e-05,1.57099228,0.786,0.04,0.04,-9.832903050000052,0.0006323599518508297,0.00818427490002879,-5.058564459866254e-06,-0.0028770491946281543,9.157688790003547e-07
0.03,0.00016707182999999836,-0.7856753920000024,4.008013400000083e-05,-2.355292259999998,9.296380000000015e-05,1.5709918600000001,0.786,0.04,0.04,-9.832536600000056,0.0006328264134934687,0.007978730800031406,-6.013469619854095e-06,-0.003024594718567796,9.132371280003869e-07
0.0325,0.0001670825924999982,-0.7856594980000026,4.00746860000009e-05,-2.3553055649999974,9.296281750000017e-05,1.57099144,0.786,0.04,0.04,-9.832170150000062,0.0006332928751361078,0.0077731867000340234,-6.968374779841937e-06,-0.0031721402425074373,9.107053770004191e-07
0.035,0.00016710923899999384,-0.7856444400000026,4.0059339000003616e-05,-2.3553180999999976,9.295252300000267e-05,1.57099101,0.786,0.04,0.04,-9.831879900000045,0.0006332811841275347,0.007566956250036823,-8.92634304956157e-06,-0.0033111659576875764,8.299513490213672e-07
0.0375,0.0001671438274999934,-0.7856298000000028,4.0039042500003876e-05,-2.3553302499999975,9.293757250000286e-05,1.5709905750000002,0.786,0.04,0.04,-9.831627750000049,0.0006330304167931729,0.007360382625039455,-1.138584287453025e-05,-0.0034459317684847105,7.100861825228936e-07
0.04,0.00016717841599999295,-0.785615160000003,4.0018746000004136e-05,-2.3553423999999974,9.292262200000305e-05,1.5709901400000001,0.786,0.04,0.04,-9.831375600000053,0.000632779649458811,0.007153809000042085,-1.3845342699498935e-05,-0.0035806975792818446,5.902210160244197e-07
0.0425,0.00016721300449999251,-0.7856005200000031,3.999844950000439e-05,-2.3553545499999973,9.290767150000324e-05,1.5709897050000001,0.786,0.04,0.04,-9.831123450000055,0.0006325288821244493,0.006947235375044714,-1.630484252446762e-05,-0.0037154633900789787,4.7035584952594585e-07
0.045,0.00016724759299999208,-0.7855858800000034,3.997815300000465e-05,-2.355366699999997,9.289272100000343e-05,1.57098927,0.786,0.04,0.04,-9.830871300000059,0.0006322781147900875,0.006740661750047346,-1.87643423494363e-05,-0.0038502292008761123,3.504906830274723e-07
0.0475,0.00016728218149999162,-0.7855712400000036,3.995785650000491e-05,-2.355378849999997,9.287777050000361e-05,1.570988835,0.786,0.04,0.04,-9.83061915000006,0.0006320273474557256,0.006534088125049975,-2.1223842174404985e-05,-0.003984995011673246,2.3062551652899842e-07
0.05,0.00016731676999999119,-0.7855566000000038,3.993756000000517e-05,-2.355390999999997,9.28628200000038e-05,1.5709884,0.786,0.04,0.04,-9.830367000000065,0.0006317765801213638,0.0063275145000526055,-2.368334199937367e-05,-0.004119760822470381,1.1076035003052455e-07
0.0525,0.0001673963944999787,-0.7855430925000036,3.988926705001291e-05,-2.355402159999997,9.282179950001097e-05,1.5709879800000002,0.786,0.04,0.04,-9.830044200000087,0.0006313816877082356,0.00616007985004477,-2.8470428198719968e-05,-0.004241060721655485,-1.7526645242351865e-07
0.055,0.0001674760189999777,-0.7855295850000038,3.9840974100013526e-05,-2.3554133199999967,9.278077900001149e-05,1.57098756,0.786,0.04,0.04,-9.829721400000091,0.0006309867952950706,0.005992645200046902,-3.325751439865902e-05,-0.004362360620837161,-4.6129325491987696e-07
0.0575,0.00016755564349997667,-0.785516077500004,3.979268115001414e-05,-2.355424479999997,9.2739758500012e-05,1.5709871400000002,0.786,0.04,0.04,-9.829398600000095,0.0006305919028819056,0.005825210550049034,-3.8044600598598074e-05,-0.004483660520018837,-7.473200574162352e-07
0.06,0.00016763526799997566,-0.7855025700000041,3.9744388200014754e-05,-2.3554356399999965,9.269873800001254e-05,1.57098672,0.786,0.04,0.04,-9.8290758000001,0.0006301970104687407,0.005657775900051167,-4.2831686798537106e-05,-0.004604960419200512,-1.0333468599125926e-06
0.0625,0.00016771489249997466,-0.7854890625000043,3.9696095250015375e-05,-2.3554467999999966,9.265771750001306e-05,1.5709863000000002,0.786,0.04,0.04,-9.828753000000104,0.0006298021180555757,0.0054903412500532985,-4.761877299847616e-05,-0.004726260318382188,-1.319373662408951e-06
0.065,0.00016779451699997365,-0.7854755550000044,3.964780230001599e-05,-2.3554579599999963,9.261669700001358e-05,1.57098588,0.786,0.04,0.04,-9.828430200000106,0.0006294072256424108,0.00532290660005543,-5.240585919841521e-05,-0.0048475602175638635,-1.6054004649053093e-06
0.0675,0.00016789813049994788,-0.7854623775000042,3.958460650003197e-05,-2.3554688099999965,9.256188930002832e-05,1.5709854550000002,0.7859999050000002,0.04,0.04,-9.828103850000115,0.0006292745820244553,0.005166345950046347,-5.8181564497334636e-05,-0.004964760201945663,-1.9612556348296493e-06
0.07,0.00016804972199994597,-0.7854498600000045,3.9491605000033156e-05,-2.355479039999996,9.247950720002938e-05,1.5709850200000002,0.7859996200000001,0.04,0.04,-9.82777040000012,0.0006296664359977203,0.005031533300048063,-6.593450799723593e-05,-0.00507376035671518,-2.4567675398233406e-06
0.0725,0.00016820131349994403,-0.7854373425000046,3.939860350003434e-05,-2.355489269999996,9.239712510003042e-05,1.5709845850000002,0.7859993350000002,0.04,0.04,-9.827436950000124,0.0006300582899709853,0.004896720650049781,-7.368745149713718e-05,-0.005182760511484696,-2.9522794448170286e-06
0.075,0.0001683529049999421,-0.7854248250000048,3.9305602000035525e-05,-2.355499499999996,9.231474300003148e-05,1.5709841500000001,0.7859990500000001,0.04,0.04,-9.827103500000128,0.0006304501439442504,0.004761908000051497,-8.144039499703846e-05,-0.005291760666254213,-3.44779134981072e-06
0.0775,0.00016850449649994016,-0.7854123075000049,3.921260050003671e-05,-2.3555097299999956,9.223236090003252e-05,1.5709837150000001,0.7859987650000001,0.04,0.04,-9.826770050000132,0.0006308419979175154,0.004627095350053213,-8.919333849693976e-05,-0.00540076082102373,-3.94330325480441e-06
0.08,0.00016865608799993825,-0.7853997900000051,3.9119599000037894e-05,-2.3555199599999956,9.214997880003357e-05,1.5709832800000003,0.7859984800000002,0.04,0.04,-9.826436600000136,0.0006312338518907804,0.004492282700054929,-9.694628199684104e-05,-0.005509760975793247,-4.438815159798102e-06
0.0825,0.0001688076794999363,-0.7853872725000053,3.902659750003908e-05,-2.3555301899999956,9.206759670003462e-05,1.5709828450000003,0.7859981950000001,0.04,0.04,-9.82610315000014,0.0006316257058640454,0.004357470050056646,-0.00010469922549674233,-0.0056187611305627645,-4.934327064791793e-06
0.085,0.0001690286479998893,-0.785375370000005,3.8890507800068246e-05,-2.3555401399999956,9.19454344000615e-05,1.57098271,0.7859979100000002,0.04,0.04,-9.825814100000114,0.0006308884883770036,0.0042149700800633546,-0.00011401851599562648,-0.005719603085848469,-5.59688202967701e-06
0.08750000000000001,0.00016928430499988607,-0.7853637750000052,3.873287400007025e-05,-2.3555499499999955,9.180338200006331e-05,1.570982725,0.7859976250000001,0.04,0.04,-9.825547250000119,0.0006295867351587301,0.004068626450065217,-0.00012412097999549786,-0.005816365941384478,-6.342958524667512e-06
0.09,0.00016953996199988282,-0.7853521800000053,3.857524020007226e-05,-2.3555597599999953,9.166132960006511e-05,1.57098274,0.7859973400000002,0.04,0.04,-9.825280400000121,0.0006282849819404567,0.003922282820067082,-0.00013422344399536916,-0.005913128796920485,-7.0890350196580085e-06
0.0925,0.00016979561899987955,-0.7853405850000055,3.841760640007427e-05,-2.3555695699999952,9.151927720006693e-05,1.570982755,0.7859970550000002,0.04,0.04,-9.825013550000126,0.0006269832287221833,0.0037759391900689452,-0.00014432590799524054,-0.006009891652456493,-7.83511151464851e-06
0.095,0.0001700512759998763,-0.7853289900000057,3.8259972600076276e-05,-2.3555793799999956,9.137722480006873e-05,1.5709827699999999,0.7859967700000001,0.04,0.04,-9.824746700000128,0.0006256814755039099,0.0036295955600708085,-0.0001544283719951119,-0.006106654507992501,-8.58118800963901e-06
0.0975,0.00017030693299987303,-0.7853173950000059,3.810233880007828e-05,-2.3555891899999954,9.123517240007054e-05,1.570982785,0.7859964850000002,0.04,0.04,-9.824479850000133,0.0006243797222856365,0.003483251930072672,-0.00016453083599498328,-0.006203417363528509,-9.32726450462951e-06
0.1,0.00017056258999986979,-0.7853058000000059,3.794470500008029e-05,-2.3555989999999953,9.109312000007234e-05,1.5709828,0.7859962000000001,0.04,0.04,-9.824213000000137,0.000623077969067363,0.003336908300074535,-0.00017463329999485463,-0.006300180219064517,-1.0073340999620012e-05
0.10250000000000001,0.00017095902199978222,-0.785294991000006,3.7699635750134624e-05,-2.3556078499999953,9.087045160012232e-05,1.570982875,0.7859956300000004,0.04,0.04,-9.823956050000142,0.0006231895444214737,0.0032137471250676566,-0.00018904621199208253,-0.006384694599500034,-1.1104147299433744e-05
0.105,0.00017135545399976637,-0.7852841820000064,3.745456650014443e-05,-2.355616699999995,9.064778320013123e-05,1.5709829499999999,0.7859950600000004,0.04,0.04,-9.823699100000152,0.0006233011197763043,0.0030905859500725856,-0.00020345912399150567,-0.006469208979929311,-1.213495359939249e-05
0.1075,0.0001717518859997505,-0.7852733730000069,3.720949725015424e-05,-2.3556255499999947,9.042511480014014e-05,1.5709830249999999,0.7859944900000004,0.04,0.04,-9.823442150000162,0.0006234126951311348,0.002967424775077514,-0.0002178720359909289,-0.006553723360358589,-1.316575989935124e-05
0.11,0.00017214831799973462,-0.7852625640000073,3.6964428000164044e-05,-2.3556343999999942,9.020244640014905e-05,1.5709830999999999,0.7859939200000005,0.04,0.04,-9.823185200000172,0.0006235242704859653,0.0028442636000824426,-0.00023228494799035215,-0.006638237740787867,-1.4196566199309989e-05
0.1125,0.00017254474999971878,-0.7852517550000077,3.6719358750173853e-05,-2.3556432499999937,8.997977800015796e-05,1.5709831749999998,0.7859933500000005,0.04,0.04,-9.822928250000182,0.0006236358458407958,0.002721102425087371,-0.0002466978599897754,-0.006722752121217145,-1.522737249926874e-05
0.115,0.0001729411819997029,-0.7852409460000082,3.647428950018366e-05,-2.3556520999999933,8.975710960016687e-05,1.5709832499999998,0.7859927800000005,0.04,0.04,-9.822671300000193,0.0006237474211956264,0.0025979412500922996,-0.00026111077198919864,-0.006807266501646423,-1.625817879922749e-05
0.11750000000000001,0.00017339814149955422,-0.7852303780000078,3.6191621800276e-05,-2.3556608999999935,8.949982180025184e-05,1.57098333,0.7859921965000005,0.04,0.04,-9.822393300000247,0.0006235395761911629,0.002481482295079481,-0.000276729970986093,-0.006887537660021786,-1.739516379895932e-05
0.12,0.0001739761559995626,-0.7852202920000076,3.5833757200270794e-05,-2.3556695999999935,8.917329520024708e-05,1.57098342,0.7859915860000005,0.04,0.04,-9.822073200000242,0.0006226928904658807,0.0023784277800779816,-0.0002947617439863553,-0.00695932237425968,-1.874450619897895e-05
0.1225,0.00017455417049957103,-0.7852102060000075,3.547589260026559e-05,-2.3556782999999935,8.884676860024234e-05,1.57098351,0.7859909755000005,0.04,0.04,-9.821753100000237,0.0006218462047405984,0.002275373265076482,-0.00031279351698661775,-0.007031107088497576,-2.0093848598998585e-05
0.125,0.00017513218499957945,-0.7852001200000074,3.511802800026038e-05,-2.355686999999994,8.852024200023758e-05,1.5709836,0.7859903650000005,0.04,0.04,-9.821433000000233,0.0006209995190153161,0.002172318750074982,-0.00033082528998688014,-0.00710289180273547,-2.144319099901822e-05
0.1275,0.00017571019949958784,-0.7851900340000072,3.476016340025517e-05,-2.355695699999994,8.819371540023283e-05,1.57098369,0.7859897545000004,0.04,0.04,-9.821112900000228,0.0006201528332900338,0.0020692642350734823,-0.00034885706298714257,-0.007174676516973365,-2.279253339903786e-05
0.13,0.00017628821399959626,-0.785179948000007,3.4402298800249964e-05,-2.3557043999999943,8.786718880022807e-05,1.57098378,0.7859891440000004,0.04,0.04,-9.820792800000223,0.0006193061475647515,0.0019662097200719825,-0.00036688883598740495,-0.007246461231211259,-2.4141875799057497e-05
0.1325,0.00017686622849960468,-0.7851698620000069,3.404443420024476e-05,-2.3557130999999942,8.754066220022332e-05,1.57098387,0.7859885335000004,0.04,0.04,-9.820472700000218,0.0006184594618394691,0.0018631552050704827,-0.00038492060898766734,-0.007318245945449154,-2.5491218199077134e-05
0.135,0.00017759497399944712,-0.7851601600000065,3.3592952700342606e-05,-2.3557214299999947,8.71279410003134e-05,1.57098398,0.7859877270000006,0.04,0.04,-9.820198900000172,0.0006171903922232278,0.0017752797000552027,-0.00040651388998392857,-0.007383674150289909,-2.706977609883582e-05
0.1375,0.00017839908499943686,-0.7851506500000066,3.309466275034896e-05,-2.3557295749999945,8.667212250031921e-05,1.5709841,0.7859868225000006,0.04,0.04,-9.819948250000175,0.0006157101306608617,0.001694993700056225,-0.000429887924983631,-0.007445924100422381,-2.8762941748814264e-05
0.14,0.00017920319599942663,-0.7851411400000068,3.25963728003553e-05,-2.3557377199999943,8.621630400032502e-05,1.57098422,0.7859859180000006,0.04,0.04,-9.819697600000179,0.0006142298690984955,0.001614707700057247,-0.0004532619599833334,-0.007508174050554854,-3.0456107398792707e-05
0.14250000000000002,0.0001800073069994164,-0.785131630000007,3.2098082850361645e-05,-2.355745864999994,8.576048550033082e-05,1.5709843399999999,0.7859850135000007,0.04,0.04,-9.819446950000183,0.0006127496075361294,0.0015344217000582692,-0.0004766359949830358,-0.007570424000687326,-3.2149273048771154e-05
0.145,0.00018081141799940615,-0.785122120000007,3.1599792900367996e-05,-2.3557540099999943,8.530466700033663e-05,1.5709844599999998,0.7859841090000007,0.04,0.04,-9.819196300000185,0.0006112693459737632,0.0014541357000592923,-0.0005000100299827379,-0.0076326739508197974,-3.3842438698749574e-05
0.1475,0.00018161552899939593,-0.7851126100000072,3.110150295037434e-05,-2.355762154999994,8.484884850034244e-05,1.5709845799999997,0.7859832045000007,0.04,0.04,-9.818945650000188,0.000609789084411397,0.0013738497000603145,-0.0005233840649824403,-0.0076949239009522705,-3.553560434872802e-05
0.15,0.0001824196399993857,-0.7851031000000073,3.0603213000380685e-05,-2.355770299999994,8.439303000034824e-05,1.5709847,0.7859823000000007,0.04,0.04,-9.818695000000192,0.0006083088228490309,0.0012935637000613368,-0.0005467580999821427,-0.007757173851084743,-3.722876999870646e-05
0.1525,0.00018349756549916276,-0.7850940310000071,2.993480640051916e-05,-2.355777994999994,8.37807135004756e-05,1.5709848499999999,0.7859809605000011,0.04,0.04,-9.818430250000205,0.000607048306847964,0.0012032604360701395,-0.0005748805139781571,-0.007808447210078265,-3.92932514983965e-05
0.155,0.00018457549099914905,-0.7850849620000072,2.926639980052767e-05,-2.355785689999994,8.316839700048339e-05,1.5709849999999999,0.7859796210000011,0.04,0.04,-9.818165500000209,0.0006057877908470651,0.0011129571720712892,-0.0006030029279777989,-0.007859720569063403,-4.1357732998370216e-05
0.1575,0.00018565341649913532,-0.7850758930000074,2.859799320053618e-05,-2.355793384999994,8.255608050049119e-05,1.5709851499999998,0.785978281500001,0.04,0.04,-9.817900750000213,0.0006045272748461661,0.001022653908072439,-0.0006311253419774409,-0.007910993928048539,-4.342221449834393e-05
0.16,0.00018673134199912158,-0.7850668240000074,2.792958660054469e-05,-2.3558010799999938,8.194376400049898e-05,1.5709852999999998,0.7859769420000011,0.04,0.04,-9.817636000000215,0.0006032667588452672,0.0009323506440735887,-0.0006592477559770829,-0.007962267287033677,-4.5486695998317645e-05
0.1625,0.00018780926749910787,-0.7850577550000075,2.72611800005532e-05,-2.3558087749999936,8.133144750050678e-05,1.5709854499999998,0.7859756025000011,0.04,0.04,-9.81737125000022,0.0006020062428443683,0.0008420473800747385,-0.0006873701699767248,-0.008013540646018814,-4.755117749829136e-05
0.165,0.00018888719299909413,-0.7850486860000077,2.659277340056171e-05,-2.3558164699999935,8.071913100051458e-05,1.5709856,0.7859742630000012,0.04,0.04,-9.817106500000222,0.0006007457268434693,0.0007517441160758881,-0.0007154925839763667,-0.00806481400500395,-4.9615658998265074e-05
0.1675,0.00019007325699880363,-0.7850397530000074,2.5857181800742168e-05,-2.3558241299999936,8.004502200068052e-05,1.570985745,0.7859727965000015,0.04,0.04,-9.816837150000238,0.0005992371530754552,0.0006659302370655482,-0.0007451735419720199,-0.00811251495030039,-5.1811791997901854e-05
0.17,0.0001914755979987858,-0.7850310920000075,2.4987220200753244e-05,-2.3558317199999936,7.924732800069068e-05,1.5709858799999998,0.7859710760000015,0.04,0.04,-9.81655860000024,0.0005972324637713157,0.0005890951280665264,-0.0007779715879716023,-0.008153071068192144,-5.427122799787054e-05
0.17250000000000001,0.00019287793899876795,-0.7850224310000076,2.411725860076432e-05,-2.3558393099999932,7.844963400070084e-05,1.570986015,0.7859693555000015,0.04,0.04,-9.816280050000245,0.0005952277744671763,0.0005122600190675047,-0.0008107696339711847,-0.008193627186083898,-5.673066399783922e-05
0.17500000000000002,0.0001942802799987501,-0.7850137700000077,2.3247297000775396e-05,-2.3558468999999933,7.765194000071098e-05,1.5709861499999997,0.7859676350000016,0.04,0.04,-9.816001500000247,0.0005932230851630368,0.000435424910068483,-0.0008435676799707671,-0.008234183303975651,-5.919009999780791e-05
0.1775,0.00019568262099873223,-0.7850051090000079,2.2377335400786482e-05,-2.355854489999993,7.685424600072116e-05,1.5709862849999998,0.7859659145000015,0.04,0.04,-9.815722950000252,0.0005912183958588973,0.0003585898010694621,-0.0008763657259703492,-0.008274739421867405,-6.164953599777656e-05
0.18,0.00019708496199871437,-0.7849964480000079,2.1507373800797555e-05,-2.355862079999993,7.60565520007313e-05,1.5709864199999999,0.7859641940000016,0.04,0.04,-9.815444400000255,0.0005892137065547578,0.0002817546920704404,-0.0009091637719699316,-0.008315295539759158,-6.410897199774526e-05
0.1825,0.0001984873029986965,-0.784987787000008,2.0637412200808635e-05,-2.355869669999993,7.525885800074146e-05,1.5709865549999997,0.7859624735000016,0.04,0.04,-9.815165850000259,0.0005872090172506184,0.00020491958307141864,-0.000941961817969514,-0.008355851657650912,-6.656840799771395e-05
0.185,0.00020014132099832295,-0.7849793140000079,1.9611076951040723e-05,-2.3558772499999927,7.431735900095487e-05,1.5709870299999993,0.785960470000002,0.04,0.04,-9.814907900000232,0.0005852225935104531,0.0001346025820631845,-0.0009783978799639546,-0.008390187472075598,-6.930335939729323e-05
0.1875,0.0002019211774983003,-0.784970935000008,1.8506554876054784e-05,-2.3558848249999924,7.330395750096777e-05,1.5709876749999994,0.7859583250000021,0.04,0.04,-9.814660250000236,0.0005832453025523132,6.75446350640383e-05,-0.0010166529499634675,-0.00842141313475368,-7.217606849725665e-05
0.19,0.00020370103399827764,-0.7849625560000081,1.7402032801068848e-05,-2.3558923999999926,7.229055600098068e-05,1.5709883199999992,0.785956180000002,0.04,0.04,-9.814412600000239,0.0005812680115941734,4.866880648920992e-07,-0.0010549080199629805,-0.008452638797431763,-7.504877759722008e-05
0.1925,0.00020548089049825496,-0.7849541770000081,1.629751072608291e-05,-2.3558999749999923,7.127715450099357e-05,1.5709889649999993,0.785954035000002,0.04,0.04,-9.814164950000242,0.0005792907206360336,-6.657125893425413e-05,-0.0010931630899624935,-0.008483864460109845,-7.79214866971835e-05
0.195,0.0002072607469982323,-0.7849457980000083,1.5192988651096973e-05,-2.3559075499999924,7.026375300100648e-05,1.5709896099999994,0.7859518900000021,0.04,0.04,-9.813917300000245,0.0005773134296778937,-0.00013362920593340031,-0.0011314181599620062,-0.008515090122787927,-8.079419579714693e-05
0.1975,0.00020904060349820965,-0.7849374190000084,1.4088466576111036e-05,-2.355915124999992,6.925035150101937e-05,1.5709902549999992,0.7859497450000021,0.04,0.04,-9.813669650000248,0.000575336138719754,-0.00020068715293254655,-0.0011696732299615192,-0.00854631578546601,-8.366690489711035e-05
0.2,0.000210820459998187,-0.7849290400000085,1.2983944501125098e-05,-2.3559226999999923,6.823695000103228e-05,1.5709908999999993,0.7859476000000022,0.04,0.04,-9.813422000000251,0.0005733588477616141,-0.0002677450999316927,-0.0012079282999610322,-0.008577541448144092,-8.653961399707378e-05
0.2025,0.00021303310099771795,-0.7849208440000084,1.161046867641655e-05,-2.355930274999992,6.697627650130021e-05,1.5709916049999992,0.7859449450000027,0.04,0.04,-9.813174500000255,0.0005707424454184535,-0.0003440081599213452,-0.0012519163549546324,-0.00859775608403385,-8.98440968965919e-05
0.20500000000000002,0.0002152457419976898,-0.7849126480000085,1.0236992851434037e-05,-2.355937849999992,6.571560300131625e-05,1.5709923099999992,0.7859422900000027,0.04,0.04,-9.812927000000258,0.0005681260430746418,-0.0004202712199203742,-0.0012959044099540723,-0.008617970719912394,-9.314857979654981e-05
0.20750000000000002,0.00021745838299766162,-0.7849044520000086,8.863517026451525e-06,-2.355945424999992,6.445492950133231e-05,1.5709930149999993,0.7859396350000027,0.04,0.04,-9.812679500000261,0.00056550964073083,-0.0004965342799194033,-0.0013398924649535122,-0.008638185355790936,-9.645306269650774e-05
0.21,0.00021967102399763342,-0.7848962560000088,7.490041201469026e-06,-2.355952999999992,6.319425600134838e-05,1.5709937199999993,0.7859369800000028,0.04,0.04,-9.812432000000264,0.0005628932383870184,-0.0005727973399184314,-0.0013838805199529517,-0.00865839999166948,-9.975754559646563e-05
0.2125,0.00022188366499760527,-0.7848880600000089,6.1165653764865135e-06,-2.355960574999992,6.193358250136442e-05,1.5709944249999992,0.7859343250000028,0.04,0.04,-9.812184500000267,0.0005602768360432067,-0.0006490603999174604,-0.0014278685749523916,-0.008678614627548022,-0.00010306202849642356
0.215,0.0002240963059975771,-0.784879864000009,4.743089551504001e-06,-2.355968149999992,6.067290900138048e-05,1.5709951299999994,0.7859316700000029,0.04,0.04,-9.81193700000027,0.000557660433699395,-0.0007253234599164894,-0.0014718566299518317,-0.008698829263426565,-0.00010636651139638149
0.2175,0.00022647226999700617,-0.7848717100000089,3.268113301858804e-06,-2.355975729999992,5.9319414151705e-05,1.5709958349999993,0.7859288150000036,0.04,0.03999999975,-9.811690350000271,0.0005548996385220182,-0.0007977864449281471,-0.0015178036849447611,-0.00871592564507114,-0.00010978178799597122
0.22,0.00022917487999697173,-0.784863640000009,1.5901362018801682e-06,-2.3559833199999916,5.77802766017246e-05,1.5709965399999992,0.7859255600000036,0.04,0.039999999,-9.811445400000274,0.000551850057676077,-0.0008626492799273214,-0.0015676687399441263,-0.008726785518216812,-0.0001134186519959249
0.2225,0.00023187748999693733,-0.7848555700000092,-8.784089809846774e-08,-2.3559909099999916,5.624113905174419e-05,1.5709972449999992,0.7859223050000036,0.04,0.03999999825,-9.811200450000277,0.0005488004768301358,-0.0009275121149264955,-0.0016175337949434915,-0.008737645391362483,-0.0001170555159958786
0.225,0.00023458009999690292,-0.7848475000000092,-1.7658179980771032e-06,-2.3559984999999912,5.4702001501763793e-05,1.570997949999999,0.7859190500000037,0.04,0.0399999975,-9.810955500000281,0.0005457508959841946,-0.0009923749499256697,-0.0016673988499428566,-0.008748505264508155,-0.0001206923799958323
0.2275,0.0002372827099968685,-0.7848394300000093,-3.4437950980557396e-06,-2.3560060899999913,5.316286395178339e-05,1.5709986549999992,0.7859157950000037,0.04,0.03999999675,-9.810710550000284,0.0005427013151382535,-0.0010572377849248438,-0.0017172639049422218,-0.008759365137653827,-0.000124329243995786
0.23,0.00023998531999683408,-0.7848313600000094,-5.121772198034376e-06,-2.3560136799999913,5.1623726401802983e-05,1.5709993599999992,0.7859125400000038,0.04,0.039999996,-9.810465600000287,0.0005396517342923123,-0.0011221006199240182,-0.001767128959941587,-0.008770225010799498,-0.0001279661079957397
0.2325,0.00024268792999679968,-0.7848232900000095,-6.799749298013011e-06,-2.356021269999991,5.0084588851822585e-05,1.5710000649999991,0.7859092850000038,0.04,0.03999999525,-9.81022065000029,0.0005366021534463711,-0.0011869634549231923,-0.001816994014940952,-0.00878108488394517,-0.00013160297199569338
0.23500000000000001,0.00024575638199610843,-0.7848152300000096,-8.705094497583446e-06,-2.3560288999999908,4.833638410221753e-05,1.5710010499999987,0.7859055900000046,0.04,0.039999995,-9.809969800000303,0.0005326969083450061,-0.0012484342799284562,-0.0018708398299331704,-0.008785779960451509,-0.00013562731999495142
0.23750000000000002,0.00024900775499606706,-0.7848071750000097,-1.072412374755774e-05,-2.356036549999991,4.648364575224112e-05,1.5710021749999985,0.7859016750000047,0.04,0.039999995,-9.809716000000307,0.0005283638311136414,-0.0013082090999276953,-0.0019266760249324593,-0.008787392638621699,-0.00013984540999489772
0.24,0.00025225912799602563,-0.7847991200000098,-1.2743152997532012e-05,-2.3560441999999906,4.463090740226472e-05,1.5710032999999985,0.7858977600000048,0.04,0.039999995,-9.80946220000031,0.0005240307538822766,-0.0013679839199269334,-0.001982512219931748,-0.008789005316791889,-0.00014406349999484397
0.2425,0.00025551050099598425,-0.78479106500001,-1.4762182247506305e-05,-2.3560518499999907,4.277816905228831e-05,1.5710044249999986,0.7858938450000048,0.04,0.039999995,-9.809208400000314,0.0005196976766509117,-0.0014277587399261723,-0.0020383484149310367,-0.008790617994962079,-0.00014828158999479025
0.245,0.0002587618739959428,-0.78478301000001,-1.6781211497480598e-05,-2.3560594999999904,4.09254307023119e-05,1.5710055499999986,0.7858899300000048,0.04,0.039999995,-9.808954600000316,0.0005153645994195469,-0.0014875335599254112,-0.002094184609930326,-0.008792230673132269,-0.00015249967999473655
0.2475,0.00026201324699590145,-0.7847749550000102,-1.8800240747454893e-05,-2.3560671499999906,3.907269235233549e-05,1.5710066749999987,0.785886015000005,0.04,0.039999995,-9.808700800000318,0.000511031522188182,-0.0015473083799246504,-0.002150020804929615,-0.008793843351302457,-0.00015671776999468285
0.25,0.00026526461999586,-0.7847669000000103,-2.0819269997429184e-05,-2.3560747999999903,3.721995400235908e-05,1.5710077999999987,0.785882100000005,0.04,0.039999995,-9.808447000000323,0.0005066984449568172,-0.0016070831999238893,-0.002205856999928904,-0.008795456029472647,-0.00016093585999462913
0.2525,0.0002691249059950356,-0.7847587475000105,-2.321678929691673e-05,-2.3560828099999895,3.5019239202830176e-05,1.5710090749999983,0.785877426000006,0.04,0.039999995,-9.808190950000329,0.0005018296418773814,-0.0016795088249068589,-0.002267791069920351,-0.008786435285594696,-0.00016562437399397046
0.255,0.0002729851919949864,-0.7847505950000107,-2.5614308596886206e-05,-2.3560908199999897,3.281852440285819e-05,1.5710103499999983,0.7858727520000061,0.04,0.039999995,-9.807934900000332,0.0004969608387972634,-0.0017519344499059369,-0.0023297251399195624,-0.008777414541703206,-0.00017031288799391076
0.2575,0.00027684547799493726,-0.7847424425000107,-2.801182789685568e-05,-2.3560988299999894,3.061780960288621e-05,1.5710116249999984,0.7858680780000061,0.04,0.039999995,-9.807678850000336,0.0004920920357171454,-0.0018243600749050146,-0.002391659209918774,-0.008768393797811715,-0.00017500140199385106
0.26,0.0002807057639948881,-0.7847342900000108,-3.0409347196825157e-05,-2.3561068399999896,2.8417094802914233e-05,1.5710128999999984,0.7858634040000062,0.04,0.039999995,-9.807422800000339,0.0004872232326370274,-0.0018967856999040926,-0.0024535932799179855,-0.008759373053920225,-0.00017968991599379136
0.2625,0.000284566049994839,-0.7847261375000109,-3.280686649679463e-05,-2.3561148499999893,2.6216380002942254e-05,1.5710141749999982,0.7858587300000063,0.04,0.039999995,-9.807166750000341,0.00048235442955690935,-0.0019692113249031706,-0.002515527349917197,-0.008750352310028735,-0.0001843784299937317
0.265,0.0002884263359947898,-0.784717985000011,-3.520438579676411e-05,-2.3561228599999895,2.4015665202970272e-05,1.5710154499999982,0.7858540560000064,0.04,0.039999995,-9.806910700000346,0.0004774856264767914,-0.0020416369499022483,-0.0025774614199164086,-0.008741331566137244,-0.000189066943993672
0.2675,0.0002925100169938276,-0.7847097845000113,-3.7740775396165984e-05,-2.3561310749999884,2.1687289503520072e-05,1.5710167299999982,0.7858491160000074,0.04,0.039999995,-9.80666895000029,0.0004726292230835927,-0.0021132952149044626,-0.0026414272099073155,-0.008729546098062054,-0.00019391576599295707
0.27,0.0002970404879937699,-0.7847014880000114,-4.0554905596130154e-05,-2.3561396999999884,1.9103592003552967e-05,1.5710180199999981,0.7858436440000075,0.04,0.039999995,-9.806455800000293,0.00046779761906438417,-0.0021834187599035697,-0.0027094564399064497,-0.008712231181585671,-0.00019908520399289126
0.2725,0.0003015709589937122,-0.7846931915000115,-4.3369035796094324e-05,-2.356148324999988,1.6519894503585862e-05,1.5710193099999983,0.7858381720000076,0.04,0.039999995,-9.806242650000296,0.0004629660150451757,-0.0022535423049026768,-0.0027774856699055834,-0.008694916265109286,-0.00020425464199282545
0.275,0.00030610142999365454,-0.7846848950000116,-4.6183165996058494e-05,-2.356156949999988,1.393619700361876e-05,1.5710205999999982,0.7858327000000077,0.04,0.039999995,-9.8060295000003,0.0004581344110259672,-0.002323665849901784,-0.002845514899904717,-0.008677601348632902,-0.00020942407999275961
0.2775,0.00031063190099359686,-0.7846765985000117,-4.8997296196022664e-05,-2.356165574999988,1.1352499503651654e-05,1.5710218899999981,0.7858272280000077,0.04,0.039999995,-9.8058163500003,0.0004533028070067587,-0.002393789394900891,-0.0029135441299038512,-0.008660286432156517,-0.0002145935179926938
0.28,0.0003151623719935392,-0.7846683020000118,-5.181142639598683e-05,-2.356174199999988,8.76880200368455e-06,1.5710231799999983,0.7858217560000078,0.04,0.039999995,-9.805603200000304,0.00044847120298755025,-0.0024639129398999985,-0.002981573359902985,-0.008642971515680132,-0.00021976295599262797
0.28250000000000003,0.0003196928429934815,-0.7846600055000119,-5.4625556595950996e-05,-2.356182824999988,6.185104503717443e-06,1.5710244699999982,0.7858162840000079,0.04,0.039999995,-9.805390050000307,0.00044363959896834173,-0.0025340364848991056,-0.0030496025899021187,-0.008625656599203748,-0.00022493239399256216
0.28500000000000003,0.00032471159999226495,-0.7846515420000126,-5.774321299519483e-05,-2.356191559999987,3.3210957044153137e-06,1.5710261299999972,0.7858102280000093,0.04,0.0399999955,-9.805181400000304,0.0004371486517009193,-0.0026016751899024153,-0.003121907499890589,-0.008603760972654527,-0.00023056526399138063
0.28750000000000003,0.00032997449999205435,-0.7846429950000129,-6.1012632495064e-05,-2.356200349999987,3.1693125453553104e-07,1.5710279749999971,0.7858038800000096,0.04,0.03999999625,-9.804975000000312,0.0004298280328040023,-0.002668071474899758,-0.0031963502498876103,-0.008579574991054014,-0.00023642984999114593
0.29,0.00033523739999184363,-0.7846344480000133,-6.428205199493309e-05,-2.3562091399999865,-2.6872331953441856e-06,1.5710298199999972,0.7857975320000098,0.04,0.039999997,-9.80476860000032,0.0004225074139070854,-0.0027344677598970996,-0.0032707929998846298,-0.008555389009453502,-0.00024229443599091112
0.2925,0.000340500299991633,-0.7846259010000136,-6.755147149480226e-05,-2.3562179299999864,-5.6913976452239675e-06,1.5710316649999971,0.78579118400001,0.04,0.03999999775,-9.804562200000328,0.0004151867950101683,-0.002800864044894443,-0.0033452357498816505,-0.00853120302785299,-0.00024815902199067644
0.295,0.0003457631999914224,-0.784617354000014,-7.082089099467144e-05,-2.356226719999986,-8.695562095103751e-06,1.571033509999997,0.7857848360000103,0.04,0.0399999985,-9.804355800000337,0.0004078661761132513,-0.0028672603298917857,-0.0034196784998786717,-0.008507017046252478,-0.00025402360799044177
0.2975,0.0003510260999912118,-0.7846088070000143,-7.40903104945406e-05,-2.3562355099999857,-1.1699726544983535e-05,1.571035354999997,0.7857784880000106,0.04,0.03999999925,-9.804149400000345,0.00040054555721633425,-0.002933656614889129,-0.003494121249875693,-0.008482831064651966,-0.0002598881939902071
0.3,0.0003562889999910012,-0.7846002600000147,-7.735972999440977e-05,-2.356244299999985,-1.4703890994863318e-05,1.5710371999999968,0.7857721400000108,0.04,0.04,-9.803943000000354,0.00039322493831941724,-0.0030000528998864718,-0.003568563999872714,-0.008458645083051454,-0.0002657527799899724
0.3025,0.0003623472044897295,-0.7845914010000151,-8.112365149361901e-05,-2.356254004999984,-1.8160452594140085e-05,1.5710390599999968,0.7857648365000124,0.04,0.03999999925,-9.80367165000046,0.0003892330394659175,-0.0030890893148490563,-0.0036494457398628813,-0.008423189912051376,-0.0002716871504899394
0.305,0.0003684054089898177,-0.784582542000015,-8.488757299367379e-05,-2.356263709999984,-2.1617014194190385e-05,1.5710409199999968,0.7857575330000123,0.04,0.0399999985,-9.803400300000456,0.0003852411406181094,-0.003178125729850352,-0.0037303274798640585,-0.00838773474103203,-0.0002776215209900258
0.3075,0.0003744636134899058,-0.7845736830000148,-8.865149449372857e-05,-2.356273414999984,-2.507357579424069e-05,1.5710427799999969,0.7857502295000122,0.04,0.03999999775,-9.803128950000453,0.0003812492417703013,-0.0032671621448516477,-0.0038112092198652353,-0.008352279570012685,-0.00028355589149011215
0.31,0.000380521817989994,-0.7845648240000147,-9.241541599378334e-05,-2.356283119999984,-2.8530137394290992e-05,1.5710446399999969,0.785742926000012,0.04,0.039999997,-9.802857600000449,0.00037725734292249323,-0.003356198559852944,-0.0038920909598664124,-0.008316824398993339,-0.0002894902619901985
0.3125,0.00038658002249008215,-0.7845559650000146,-9.617933749383812e-05,-2.356292824999984,-3.198669899434129e-05,1.571046499999997,0.7857356225000119,0.04,0.03999999625,-9.802586250000445,0.00037326544407468513,-0.003445234974854239,-0.003972972699867589,-0.008281369227973992,-0.0002954246324902849
0.315,0.0003926382269901703,-0.7845471060000144,-9.994325899389289e-05,-2.3563025299999842,-3.54432605943916e-05,1.571048359999997,0.7857283190000118,0.04,0.0399999955,-9.802314900000441,0.00036927354522687703,-0.0035342713898555353,-0.004053854439868766,-0.008245914056954646,-0.00030135900299037126
0.3175,0.00039898272148881453,-0.7845380970000151,-0.00010388516749304997,-2.356312309999984,-3.906406774361367e-05,1.571050404999996,0.7857206755000135,0.04,0.03999999525,-9.802083050000247,0.0003631054467574375,-0.0036223823848605106,-0.004136902739858697,-0.008208566578171568,-0.00030760168748890794
0.32,0.00040589979598872647,-0.7845287880000152,-0.00010818304999299526,-2.356322239999984,-4.301336599356339e-05,1.571052819999996,0.7857123520000135,0.04,0.039999996,-9.80193020000025,0.00035258494901314647,-0.0037086425398594122,-0.004224284159857585,-0.008167434483833558,-0.0003144609999888206
0.3225,0.0004128168704886384,-0.7845194790000153,-0.00011248093249294054,-2.3563321699999835,-4.69626642435131e-05,1.571055234999996,0.7857040285000136,0.04,0.03999999675,-9.80177735000025,0.0003420644512688554,-0.003794902694858314,-0.004311665579856472,-0.008126302389495545,-0.0003213203124887333
0.325,0.00041973394498855034,-0.7845101700000154,-0.00011677881499288581,-2.3563420999999836,-5.091196249346282e-05,1.571057649999996,0.7856957050000138,0.04,0.0399999975,-9.801624500000253,0.0003315439535245643,-0.003881162849857216,-0.00439904699985536,-0.008085170295157535,-0.00032817962498864596
0.3275,0.0004266510194884623,-0.7845008610000155,-0.0001210766974928311,-2.3563520299999836,-5.4861260743412534e-05,1.571060064999996,0.7856873815000139,0.04,0.03999999825,-9.801471650000254,0.00032102345578027326,-0.0039674230048561175,-0.0044864284198542475,-0.008044038200819522,-0.00033503893748855864
0.33,0.0004335680939883742,-0.7844915520000156,-0.0001253745799927764,-2.356361959999983,-5.881055899336225e-05,1.571062479999996,0.785679058000014,0.04,0.039999999,-9.801318800000256,0.0003105029580359822,-0.00405368315985502,-0.004573809839853135,-0.008002906106481512,-0.0003418982499884713
0.3325,0.00044048516848828616,-0.7844822430000157,-0.00012967246249272167,-2.3563718899999833,-6.275985724331197e-05,1.571064894999996,0.7856707345000141,0.04,0.03999999975,-9.801165950000259,0.00029998246029169117,-0.004139943314853921,-0.004661191259852022,-0.007961774012143501,-0.00034875756248838394
0.335,0.00044801736398662376,-0.7844726310000166,-0.00013435285499168798,-2.3563824999999814,-6.706039299236276e-05,1.5710673399999957,0.7856616640000161,0.04,0.04,-9.80092350000049,0.0002919311722623806,-0.004235719429828469,-0.004752942359839726,-0.007913388870745202,-0.0003557450019879687
0.3375,0.00045585711998652397,-0.7844628675000167,-0.00013922450249162597,-2.356393449999981,-7.153654749230578e-05,1.5710697999999956,0.7856522200000162,0.04,0.04,-9.800636250000494,0.00028511448909999243,-0.004336253524827189,-0.00484687829983853,-0.007861377205789055,-0.0003627965049878789
0.34,0.0004636968759864241,-0.7844531040000169,-0.00014409614999156393,-2.356404399999981,-7.601270199224878e-05,1.5710722599999956,0.7856427760000164,0.04,0.04,-9.800349000000498,0.00027829780593760425,-0.004436787619825909,-0.004940814239837334,-0.007809365540832907,-0.00036984800798778913
0.3425,0.0004715366319863243,-0.784443340500017,-0.0001489677974915019,-2.3564153499999807,-8.048885649219179e-05,1.5710747199999957,0.7856333320000165,0.04,0.04,-9.800061750000502,0.00027148112277521606,-0.004537321714824628,-0.005034750179836138,-0.007757353875876759,-0.00037689951098769935
0.34500000000000003,0.00047937638798622453,-0.7844335770000171,-0.00015383944499143987,-2.3564262999999808,-8.49650109921348e-05,1.5710771799999956,0.7856238880000166,0.04,0.04,-9.799774500000504,0.0002646644396128278,-0.004637855809823348,-0.005128686119834942,-0.007705342210920611,-0.00038395101398760957
0.34750000000000003,0.0004872161439861247,-0.7844238135000172,-0.00015871109249137786,-2.356437249999981,-8.94411654920778e-05,1.5710796399999956,0.7856144440000167,0.04,0.04,-9.799487250000508,0.0002578477564504396,-0.004738389904822068,-0.005222622059833746,-0.007653330545964464,-0.0003910025169875198
0.35000000000000003,0.0004950558999860248,-0.7844140500000174,-0.00016358273999131582,-2.3564481999999805,-9.391731999202083e-05,1.5710820999999955,0.7856050000000169,0.04,0.04,-9.799200000000512,0.00025103107328805144,-0.004838923999820788,-0.00531655799983255,-0.007601318881008316,-0.00039805401998743
0.3525,0.0005038825104841531,-0.7844037225000186,-0.00016906805099015196,-2.3564595999999796,-9.895581249095413e-05,1.5710850999999946,0.7855943500000191,0.04,0.03999999925,-9.799025100000314,0.00024085494735121474,-0.004936537849824748,-0.005417018549819638,-0.00754356721892141,-0.00040559028098646977
0.355,0.0005127091209840408,-0.7843933950000186,-0.0001745533619900821,-2.3564709999999796,-0.00010399430499088999,1.5710880999999945,0.7855837000000192,0.04,0.0399999985,-9.798850200000317,0.0002306788214083893,-0.005034151699823506,-0.005517479099818359,-0.00748581555682427,-0.0004131265419863738
0.3575,0.0005215357314839284,-0.7843830675000187,-0.00018003867299001228,-2.356482399999979,-0.00010903279749082583,1.5710910999999945,0.7855730500000194,0.04,0.03999999775,-9.798675300000319,0.00022050269546556385,-0.005131765549822263,-0.00561793964981708,-0.0074280638947271296,-0.00042066280298627787
0.36,0.000530362341983816,-0.7843727400000189,-0.00018552398398994242,-2.356493799999979,-0.00011407128999076168,1.5710940999999945,0.7855624000000195,0.04,0.039999997,-9.798500400000322,0.00021032656952273842,-0.00522937939982102,-0.005718400199815801,-0.00737031223262999,-0.0004281990639861819
0.3625,0.0005391889524837036,-0.784362412500019,-0.0001910092949898726,-2.356505199999979,-0.00011910978249069754,1.5710970999999945,0.7855517500000196,0.04,0.03999999625,-9.798325500000322,0.00020015044357991297,-0.005326993249819778,-0.005818860749814522,-0.00731256057053285,-0.0004357353249860859
0.365,0.0005480155629835912,-0.7843520850000192,-0.00019649460598980274,-2.3565165999999786,-0.00012414827499063338,1.5711000999999944,0.7855411000000198,0.04,0.0399999955,-9.798150600000325,0.00018997431763708754,-0.005424607099818535,-0.005919321299813243,-0.007254808908435711,-0.00044327158598599
0.3675,0.0005571925384815114,-0.7843415380000205,-0.00020219779998850945,-2.356528279999977,-0.00012938701898944477,1.5711032599999935,0.7855300350000222,0.04,0.039999995,-9.797947050000488,0.00017913720951129365,-0.005531005819767963,-0.006021931064799895,-0.007193611771927003,-0.000451017819484715
0.37,0.0005670702439813857,-0.7843305520000207,-0.00020833675998843128,-2.3565405199999767,-0.00013502626598937297,1.5711067399999934,0.7855181400000224,0.04,0.039999995,-9.797686200000491,0.00016697813700845346,-0.005654974279766385,-0.006128839259798534,-0.00712552368653725,-0.000459183997984611
0.3725,0.00057694794948126,-0.7843195660000208,-0.00021447571998835314,-2.356552759999977,-0.00014066551298930118,1.5711102199999936,0.7855062450000225,0.04,0.039999995,-9.797425350000495,0.00015481906450561328,-0.005778942739764806,-0.006235747454797173,-0.007057435601147497,-0.0004673501764845071
0.375,0.0005868256549811342,-0.7843085800000209,-0.00022061467998827497,-2.3565649999999767,-0.00014630475998922939,1.5711136999999935,0.7854943500000227,0.04,0.039999995,-9.797164500000498,0.0001426599920027731,-0.005902911199763228,-0.006342655649795812,-0.006989347515757744,-0.0004755163549844031
0.3775,0.0005967033604810084,-0.7842975940000211,-0.0002267536399881968,-2.3565772399999765,-0.0001519440069891576,1.5711171799999935,0.7854824550000228,0.04,0.039999995,-9.796903650000502,0.0001305009194999329,-0.00602687965976165,-0.006449563844794451,-0.006921259430367991,-0.00048368253348429914
0.38,0.0006065810659808827,-0.7842866080000213,-0.00023289259998811866,-2.3565894799999763,-0.0001575832539890858,1.5711206599999934,0.785470560000023,0.04,0.039999995,-9.796642800000505,0.0001183418469970927,-0.006150848119760071,-0.00655647203979309,-0.006853171344978238,-0.0004918487119841951
0.3825,0.000616458771480757,-0.7842756220000214,-0.00023903155998804049,-2.356601719999976,-0.000163222500989014,1.5711241399999933,0.7854586650000231,0.04,0.039999995,-9.796381950000509,0.00010618277449425251,-0.006274816579758493,-0.006663380234791729,-0.006785083259588484,-0.0005000148904840912
0.385,0.0006270800159784442,-0.7842641690000229,-0.00024563292998660224,-2.356614719999974,-0.00016928663998769247,1.571127699999993,0.785445866000026,0.04,0.039999995,-9.796175400000353,9.400452984317337e-05,-0.006410899089721284,-0.0067747262097773145,-0.006711455295012176,-0.0005085179149829965
0.3875,0.0006380730299783042,-0.784252482500023,-0.0002524655049865152,-2.356628099999974,-0.00017556322498761255,1.571131299999993,0.7854326150000261,0.04,0.039999995,-9.795996000000354,8.181669911789052e-05,-0.006553038624719474,-0.006888291074775868,-0.006635057390818253,-0.0005171893624828861
0.39,0.0006490660439781642,-0.7842407960000232,-0.0002592980799864282,-2.3566414799999738,-0.00018183980998753263,1.571134899999993,0.7854193640000263,0.04,0.039999995,-9.795816600000357,6.962886839260768e-05,-0.006695178159717664,-0.007001855939774423,-0.006558659486624332,-0.0005258608099827757
0.3925,0.0006600590579780242,-0.7842291095000233,-0.00026613065498634126,-2.3566548599999733,-0.0001881163949874527,1.5711384999999929,0.7854061130000265,0.04,0.039999995,-9.795637200000359,5.744103766732484e-05,-0.006837317694715854,-0.0071154208047729765,-0.006482261582430409,-0.0005345322574826653
0.395,0.0006710520719778844,-0.7842174230000235,-0.00027296322998625425,-2.356668239999973,-0.0001943929799873728,1.5711420999999928,0.7853928620000267,0.04,0.039999995,-9.795457800000362,4.5253206942042e-05,-0.006979457229714044,-0.007228985669771531,-0.006405863678236487,-0.0005432037049825548
0.3975,0.0006820450859777444,-0.7842057365000237,-0.00027979580498616724,-2.356681619999973,-0.0002006695649872929,1.5711456999999929,0.7853796110000268,0.04,0.039999995,-9.795278400000363,3.306537621675916e-05,-0.007121596764712235,-0.007342550534770085,-0.006329465774042565,-0.0005518751524824444
0.4,0.0006930380999776044,-0.7841940500000237,-0.00028662837998608023,-2.356694999999973,-0.00020694614998721298,1.5711492999999928,0.785366360000027,0.04,0.039999995,-9.795099000000366,2.0877545491476313e-05,-0.0072637362997104256,-0.007456115399768639,-0.006253067869848642,-0.000560546599982334
0.4025,0.0007052105099750467,-0.7841815775000256,-0.0002941944969844895,-2.3567094749999704,-0.00021389669698575144,1.5711534549999915,0.7853516885000301,0.04,0.039999995,-9.794889300000431,6.772029184315836e-06,-0.007390103304740949,-0.007576170689753888,-0.006171029224228614,-0.0005697252649811838
0.405,0.0007173829199748918,-0.7841691050000257,-0.0003017606139843932,-2.3567239499999704,-0.00022084724398566295,1.5711576099999915,0.7853370170000302,0.04,0.039999995,-9.794679600000434,-7.333487126751475e-06,-0.00751647030973934,-0.007696225979752359,-0.006088990578597093,-0.000578903929981067
0.40750000000000003,0.0007295553299747368,-0.7841566325000259,-0.00030932673098429687,-2.35673842499997,-0.00022779779098557444,1.5711617649999914,0.7853223455000304,0.04,0.039999995,-9.794469900000436,-2.1439003437818785e-05,-0.007642837314737731,-0.00781628126975083,-0.006006951932965573,-0.0005880825949809501
0.41000000000000003,0.0007417277399745818,-0.7841441600000261,-0.00031689284798420053,-2.35675289999997,-0.00023474833798548596,1.5711659199999914,0.7853076740000307,0.04,0.039999995,-9.794260200000439,-3.554451974888609e-05,-0.007769204319736122,-0.007936336559749301,-0.005924913287334052,-0.0005972612599808333
0.41250000000000003,0.0007539001499744268,-0.7841316875000263,-0.0003244589649841042,-2.35676737499997,-0.00024169888498539745,1.5711700749999913,0.7852930025000308,0.04,0.039999995,-9.794050500000441,-4.9650036059953404e-05,-0.007895571324734512,-0.008056391849747773,-0.005842874641702532,-0.0006064399249807164
0.41500000000000004,0.0007660725599742718,-0.7841192150000265,-0.00033202508198400786,-2.3567818499999693,-0.00024864943198530894,1.5711742299999913,0.785278331000031,0.04,0.039999995,-9.793840800000444,-6.375555237102071e-05,-0.008021938329732903,-0.008176447139746244,-0.005760835996071011,-0.0006156185899805995
0.4175,0.0007786593999714728,-0.7841064565000284,-0.0003398489609822671,-2.3567967099999665,-0.0002558373764837059,1.5711785599999901,0.7852631575000344,0.04,0.03999999525,-9.793636150000413,-7.849568497710542e-05,-0.00816031949965465,-0.008298678299730832,-0.005676224269163696,-0.0006250040699791632
0.42,0.000792075099971302,-0.7840931260000286,-0.00034818836398216085,-2.3568123399999665,-0.00026350011598360836,1.57118323999999,0.7852469800000346,0.04,0.039999996,-9.793441600000417,-9.450505018534666e-05,-0.008322728999652583,-0.008425261199729221,-0.005586466379655645,-0.0006348031799790384
0.4225,0.0008054907999711312,-0.7840797955000287,-0.0003565277669820547,-2.356827969999966,-0.0002711628554835108,1.57118791999999,0.7852308025000349,0.04,0.03999999675,-9.793247050000419,-0.00011051441539358791,-0.008485138499650515,-0.00855184409972761,-0.005496708490147592,-0.0006446022899789136
0.425,0.0008189064999709604,-0.7840664650000289,-0.0003648671699819485,-2.356843599999966,-0.0002788255949834132,1.5711925999999898,0.785214625000035,0.04,0.0399999975,-9.793052500000421,-0.00012652378060182916,-0.008647547999648448,-0.008678426999725998,-0.0054069506006395405,-0.0006544013999787888
0.4275,0.0008323221999707895,-0.7840531345000291,-0.0003732065729818423,-2.3568592299999658,-0.00028648833448331566,1.5711972799999898,0.7851984475000352,0.04,0.03999999825,-9.792857950000423,-0.00014253314581007042,-0.00880995749964638,-0.008805009899724386,-0.005317192711131488,-0.0006642005099786641
0.43,0.0008457378999706187,-0.7840398040000293,-0.00038154597598173614,-2.356874859999966,-0.0002941510739832181,1.5712019599999898,0.7851822700000355,0.04,0.039999999,-9.792663400000425,-0.00015854251101831167,-0.008972366999644312,-0.008931592799722774,-0.005227434821623436,-0.0006739996199785393
0.4325,0.0008591535999704479,-0.7840264735000294,-0.00038988537898162996,-2.3568904899999654,-0.00030181381348312055,1.5712066399999898,0.7851660925000357,0.04,0.03999999975,-9.792468850000429,-0.0001745518762265529,-0.009134776499642245,-0.009058175699721163,-0.005137676932115384,-0.0006837987299784145
0.435,0.0008734404749676497,-0.7840125410000313,-0.00039876666997988944,-2.356906899999963,-0.00030997427598152184,1.5712115899999888,0.7851488700000391,0.04,0.04,-9.792277700000415,-0.00019033864369895568,-0.009309143799603719,-0.009189078999707613,-0.0050429692959685635,-0.0006938507799776343
0.4375,0.0008881629374678639,-0.7839983075000311,-0.0004079189049800226,-2.3569236999999634,-0.0003183835999816442,1.571216674999989,0.7851311250000388,0.04,0.04,-9.792088250000413,-0.0002060141123023338,-0.009489489999606342,-0.00932214249970955,-0.004945786786477779,-0.0007040292999777824
0.44,0.0009028853999680783,-0.7839840740000309,-0.0004170711399801558,-2.3569404999999635,-0.0003267929239817666,1.5712217599999891,0.7851133800000385,0.04,0.04,-9.79189880000041,-0.00022168958090571192,-0.009669836199608968,-0.009455205999711487,-0.004848604276986994,-0.0007142078199779305
0.4425,0.0009176078624682925,-0.7839698405000306,-0.000426223374980289,-2.356957299999964,-0.000335202247981889,1.571226844999989,0.7850956350000382,0.04,0.04,-9.791709350000408,-0.00023736504950909004,-0.009850182399611593,-0.009588269499713423,-0.00475142176749621,-0.0007243863399780787
0.445,0.0009323303249685067,-0.7839556070000304,-0.0004353756099804222,-2.356974099999964,-0.00034361157198201136,1.5712319299999893,0.785077890000038,0.04,0.04,-9.791519900000404,-0.00025304051811246813,-0.010030528599614216,-0.00972133299971536,-0.004654239258005426,-0.0007345648599782268
0.4475,0.000947052787468721,-0.7839413735000302,-0.00044452784498055537,-2.3569908999999645,-0.00035202089598213374,1.5712370149999892,0.7850601450000377,0.04,0.04,-9.791330450000402,-0.0002687159867158463,-0.010210874799616841,-0.009854396499717297,-0.004557056748514641,-0.0007447433799783749
0.45,0.0009617752499689352,-0.78392714000003,-0.00045368007998068856,-2.3570076999999645,-0.00036043021998225617,1.5712420999999894,0.7850424000000374,0.04,0.04,-9.7911410000004,-0.00028439145531922443,-0.010391220999619467,-0.009987459999719233,-0.004459874239023857,-0.000754921899978523
0.4525,0.0009778676324654007,-0.7839118640000328,-0.0004636844679784902,-2.3570257449999614,-0.00036962230698023665,1.5712475899999883,0.7850230050000417,0.04,0.04,-9.790988450000327,-0.0003022792574099105,-0.010595256099561317,-0.010126993449699997,-0.00435570167632811,-0.0007655986749770445
0.455,0.0009939600149647568,-0.7838965880000334,-0.00047368885597808984,-2.3570437899999606,-0.0003788143939798688,1.571253079999988,0.7850036100000425,0.04,0.04,-9.790835900000333,-0.0003201670595052647,-0.010799291199553153,-0.010266526899694414,-0.004251529113617614,-0.0007762754499766173
0.4575,0.0010100523974641128,-0.783881312000034,-0.0004836932439776895,-2.3570618349999597,-0.00038800648097950095,1.5712585699999877,0.7849842150000432,0.04,0.04,-9.79068335000034,-0.0003380548616006189,-0.011003326299544987,-0.01040606034968883,-0.004147356550907117,-0.00078695222497619
0.46,0.001026144779963469,-0.7838660360000347,-0.0004936976319772892,-2.357079879999959,-0.0003971985679791331,1.5712640599999874,0.7849648200000441,0.04,0.04,-9.790530800000347,-0.00035594266369597306,-0.011207361399536821,-0.010545593799683246,-0.004043183988196621,-0.0007976289999757628
0.4625,0.001042237162462825,-0.7838507600000353,-0.0005037020199768888,-2.3570979249999584,-0.0004063906549787653,1.5712695499999874,0.7849454250000448,0.04,0.04,-9.790378250000353,-0.00037383046579132724,-0.011411396499528657,-0.010685127249677661,-0.003939011425486125,-0.0008083057749753355
0.465,0.0010583295449621808,-0.7838354840000359,-0.0005137064079764885,-2.3571159699999575,-0.00041558274197839746,1.571275039999987,0.7849260300000456,0.04,0.04,-9.79022570000036,-0.0003917182678866814,-0.011615431599520491,-0.010824660699672079,-0.0038348388627756284,-0.0008189825499749083
0.4675,0.0010748994399582723,-0.7838198850000386,-0.0005240078479740572,-2.357134434999954,-0.00042504780997616325,1.571280669999986,0.7849060620000503,0.03999999975,0.04,-9.790046550000554,-0.0004104630409950318,-0.01181907774951696,-0.010966333949652478,-0.0037284558292321893,-0.0008298532599731928
0.47000000000000003,0.0010924243599580493,-0.7838036400000389,-0.0005349033919739185,-2.3571537399999536,-0.0004350588399760358,1.5712865799999858,0.7848849480000506,0.039999999,0.04,-9.789814200000556,-0.00043092175614770637,-0.012021945999514378,-0.01111228679965062,-0.0036176518539755803,-0.0008411118399730494
0.47250000000000003,0.001109949279957826,-0.783787395000039,-0.0005457989359737798,-2.3571730449999535,-0.00044506986997590835,1.5712924899999858,0.7848638340000508,0.03999999825,0.04,-9.789581850000559,-0.00045138047130038086,-0.012224814249511795,-0.011258239649648762,-0.003506847878718971,-0.0008523704199729061
0.47500000000000003,0.001127474199957603,-0.7837711500000393,-0.0005566944799736411,-2.3571923499999534,-0.00045508089997578087,1.5712983999999857,0.7848427200000511,0.0399999975,0.04,-9.789349500000561,-0.0004718391864530554,-0.012427682499509212,-0.011404192499646904,-0.003396043903462362,-0.0008636289999727628
0.47750000000000004,0.0011449991199573798,-0.7837549050000395,-0.0005675900239735023,-2.3572116549999533,-0.0004650919299756534,1.5713043099999857,0.7848216060000514,0.03999999675,0.04,-9.789117150000566,-0.0004922979016057299,-0.01263055074950663,-0.011550145349645045,-0.0032852399282057524,-0.0008748875799726194
0.48,0.0011625240399571564,-0.7837386600000397,-0.0005784855679733633,-2.357230959999953,-0.00047510295997552575,1.5713102199999855,0.7848004920000516,0.039999996,0.04,-9.788884800000568,-0.000512756616758404,-0.012833418999504041,-0.011696098199643184,-0.0031744359529491456,-0.0008861461599724758
0.4825,0.0011800489599569331,-0.7837224150000399,-0.0005893811119732247,-2.3572502649999527,-0.0004851139899753983,1.5713161299999856,0.7847793780000518,0.03999999525,0.04,-9.788652450000571,-0.0005332153319110786,-0.013036287249501458,-0.011842051049641327,-0.0030636319776925366,-0.0008974047399723324
0.485,0.0011985702699530182,-0.783705416000043,-0.0006008965239707891,-2.3572706299999484,-0.0004956943799731612,1.571322429999984,0.7847570560000566,0.039999994500000004,0.0399999995,-9.788442000000492,-0.0005539624485602045,-0.013253394299446117,-0.01199224629962375,-0.002948067547113416,-0.0009089612099710853
0.4875,0.001217589774952776,-0.7836880400000431,-0.0006127218699706386,-2.3572915249999484,-0.0005065594499730229,1.571328924999984,0.7847341300000569,0.039999993750000004,0.03999999875,-9.788242500000495,-0.0005748537659591535,-0.013477620749443262,-0.01214456274962181,-0.0028301228888466725,-0.0009206666249709363
0.49,0.0012366092799525339,-0.7836706640000434,-0.0006245472159704881,-2.357312419999948,-0.0005174245199728846,1.5713354199999838,0.7847112040000572,0.039999993000000005,0.039999998,-9.788043000000497,-0.0005957450833581025,-0.013701847199440408,-0.012296879199619871,-0.0027121782305799293,-0.0009323720399707873
0.4925,0.0012556287849522917,-0.7836532880000436,-0.0006363725619703375,-2.3573333149999476,-0.0005282895899727461,1.5713419149999837,0.7846882780000575,0.039999992250000005,0.03999999725,-9.7878435000005,-0.0006166364007570515,-0.013926073649437553,-0.012449195649617932,-0.002594233572313186,-0.0009440774549706382
0.495,0.0012746482899520495,-0.7836359120000438,-0.0006481979079701869,-2.3573542099999476,-0.0005391546599726078,1.5713484099999837,0.7846653520000578,0.039999991500000005,0.0399999965,-9.787644000000503,-0.0006375277181560005,-0.014150300099434698,-0.012601512099615991,-0.002476288914046443,-0.0009557828699704892
0.4975,0.0012936677949518074,-0.783618536000044,-0.0006600232539700363,-2.357375104999947,-0.0005500197299724695,1.5713549049999835,0.7846424260000581,0.03999999075,0.03999999575,-9.787444500000506,-0.0006584190355549495,-0.014374526549431844,-0.012753828549614054,-0.002358344255779699,-0.0009674882849703401
0.5,0.0013126872999515652,-0.7836011600000443,-0.0006718485999698858,-2.3573959999999468,-0.0005608847999723312,1.5713613999999836,0.7846195000000584,0.03999999,0.039999995,-9.787245000000508,-0.0006793103529538986,-0.014598752999428989,-0.012906144999612113,-0.002240399597512956,-0.0009791936999701911
0.5025000000000001,0.0013332628149473412,-0.7835826260000475,-0.0006846419949672579,-2.3574184849999424,-0.0005726390354699175,1.571368449999982,0.7845947005000635,0.0399999897,0.03999999395000001,-9.787085400000409,-0.0007011697452420954,-0.014854488749345498,-0.013064770899594031,-0.002116407605671007,-0.0009912137699692371
0.505,0.0013538383299470788,-0.7835640920000477,-0.0006974353899670948,-2.357440969999942,-0.0005843932709697676,1.5713754999999818,0.7845699010000637,0.0399999894,0.0399999929,-9.786925800000411,-0.0007230291375327566,-0.015110224499342234,-0.013223396799592007,-0.0019924156138136635,-0.0010032338399690837
0.5075000000000001,0.0013744138449468173,-0.7835455580000479,-0.0007102287849669322,-2.357463454999942,-0.0005961475064696182,1.5713825499999818,0.7845451015000641,0.0399999891,0.039999991850000007,-9.786766200000413,-0.0007448885298234187,-0.015365960249338985,-0.01338202269958999,-0.0018684236219563143,-0.001015253909968931
0.51,0.001394989359946555,-0.7835270240000481,-0.0007230221799667691,-2.3574859399999415,-0.0006079017419694683,1.5713895999999816,0.7845203020000644,0.039999988800000004,0.0399999908,-9.786606600000415,-0.00076674792211408,-0.015621695999335723,-0.013540648599587968,-0.0017444316300989707,-0.0010272739799687778
0.5125,0.0014155648749462925,-0.7835084900000484,-0.0007358155749666059,-2.357508424999941,-0.0006196559774693184,1.5713966499999816,0.7844955025000647,0.0399999885,0.039999989750000006,-9.786447000000416,-0.0007886073144047412,-0.01587743174933246,-0.013699274499585945,-0.0016204396382416273,-0.0010392940499686244
0.515,0.001436140389946031,-0.7834899560000486,-0.0007486089699664433,-2.357530909999941,-0.000631410212969169,1.5714036999999814,0.784470703000065,0.0399999882,0.0399999887,-9.786287400000418,-0.0008104667066954033,-0.01613316749932921,-0.013857900399583928,-0.0014964476463842783,-0.0010513141199684716
0.5175,0.0014572548349413052,-0.7834709720000526,-0.0007617376669635033,-2.357553849999937,-0.000643472478966468,1.5714109449999798,0.7844452515000707,0.039999988,0.039999988,-9.786144600000288,-0.0008334526296735622,-0.01640170609922204,-0.014018595699564042,-0.0013704470362227296,-0.0010635375749665952
0.52,0.0014794471399404176,-0.7834510880000534,-0.0007755369679629514,-2.357577699999936,-0.000656150805965961,1.5714185799999794,0.7844184960000717,0.039999988,0.039999988,-9.786035400000292,-0.0008586916140533978,-0.016695850399210274,-0.01418342979955745,-0.0012404291894051946,-0.0010761677999660902
0.5225,0.0015016394449395292,-0.7834312040000542,-0.0007893362689623989,-2.3576015499999348,-0.0006688291329654533,1.5714262149999791,0.7843917405000729,0.039999988,0.039999988,-9.785926200000297,-0.0008839305984332323,-0.016989994699198496,-0.01434826389955085,-0.0011104113425876654,-0.0010887980249655845
0.525,0.0015238317499386416,-0.783411320000055,-0.000803135569961847,-2.357625399999934,-0.0006815074599649463,1.5714338499999787,0.7843649850000739,0.039999988,0.039999988,-9.785817000000302,-0.0009091695828130679,-0.01728413899918673,-0.014513097999544257,-0.0009803934957701304,-0.0011014282499650792
0.5275,0.001546024054937753,-0.7833914360000558,-0.0008169348709612945,-2.357649249999933,-0.0006941857869644387,1.5714414849999785,0.784338229500075,0.039999988,0.039999988,-9.785707800000306,-0.0009344085671929024,-0.017578283299174956,-0.014677932099537659,-0.0008503756489526013,-0.0011140584749645735
0.53,0.0015682163599368653,-0.7833715520000566,-0.0008307341719607425,-2.357673099999932,-0.0007068641139639316,1.5714491199999783,0.7843114740000761,0.039999988,0.039999988,-9.785598600000311,-0.000959647551572738,-0.01787242759916319,-0.014842766199531066,-0.0007203578021350663,-0.0011266886999640683
0.5325,0.001590408664935977,-0.7833516680000574,-0.00084453347296019,-2.357696949999931,-0.000719542440963424,1.5714567549999778,0.7842847185000772,0.039999988,0.039999988,-9.785489400000316,-0.0009848865359525724,-0.018166571899151412,-0.015007600299524465,-0.000590339955317537,-0.0011393189249635626
0.535,0.0016137187899310534,-0.783330976000061,-0.0008590283099571264,-2.3577219899999258,-0.0007328590649606125,1.5714647699999762,0.7842566160000831,0.039999988199999996,0.039999988,-9.78528910000071,-0.0010102340950827657,-0.018459443099155867,-0.0151765356995061,-0.000455698580876695,-0.0011521843799624978
0.5375,0.0016375878249314001,-0.7833098800000606,-0.0008738709149573422,-2.3577476249999263,-0.0007464948374608107,1.5714729749999763,0.7842278400000827,0.0399999885,0.039999988,-9.785043250000706,-0.001035635941588845,-0.018751677749160114,-0.015347521749508583,-0.00031874544259405494,-0.0011651674499626864
0.54,0.001661456859931748,-0.7832887840000604,-0.0008887135199575585,-2.357773259999927,-0.0007601306099610094,1.5714811799999766,0.7841990640000823,0.0399999888,0.039999988,-9.784797400000704,-0.0010610377880949252,-0.01904391239916437,-0.015518507799511076,-0.00018179230431140887,-0.0011781505199628757
0.5425,0.001685325894932095,-0.7832676880000601,-0.0009035561249577742,-2.357798894999927,-0.0007737663824612075,1.5714893849999767,0.7841702880000818,0.0399999891,0.039999988,-9.7845515500007,-0.0010864396346010041,-0.01933614704916862,-0.01568949384951356,-4.4839166028768826e-05,-0.0011911335899630643
0.545,0.0017091949299324427,-0.7832465920000597,-0.0009183987299579905,-2.3578245299999274,-0.0007874021549614063,1.5714975899999768,0.7841415120000814,0.0399999894,0.039999988,-9.784305700000695,-0.0011118414811070844,-0.01962838169917288,-0.015860479899516052,9.211397225387724e-05,-0.0012041166599632536
0.5475,0.0017330639649327897,-0.7832254960000594,-0.0009332413349582062,-2.357850164999928,-0.0008010379274616045,1.571505794999977,0.784112736000081,0.039999989699999995,0.039999988,-9.784059850000691,-0.0011372433276131636,-0.019920616349177127,-0.016031465949518535,0.00022906711053651723,-0.0012170997299634423
0.55,0.0017569329999331375,-0.7832044000000591,-0.0009480839399584225,-2.357875799999928,-0.0008146736999618032,1.571513999999977,0.7840839600000806,0.03999999,0.039999988,-9.783814000000689,-0.0011626451741192437,-0.020212850999181384,-0.016202451999521028,0.0003660202488191633,-0.0012300827999636315
0.5525,0.001782538074927948,-0.7831818745000634,-0.0009640066889551937,-2.357903084999923,-0.0008293016699588373,1.5715227749999754,0.7840530960000869,0.03999999,0.039999988,-9.783656800000442,-0.0011921419994075466,-0.020530843649105176,-0.01637952909950171,0.0005087754452308747,-0.0012436595999617951
0.555,0.0018081431499276223,-0.7831593490000637,-0.0009799294379549913,-2.357930369999923,-0.0008439296399586513,1.5715315499999754,0.7840222320000872,0.03999999,0.039999988,-9.783499600000445,-0.0012216388247073217,-0.020848836299101132,-0.016556606199499457,0.0006515306416588453,-0.0012572363999616225
0.5575,0.0018337482249272958,-0.783136823500064,-0.0009958521869547882,-2.3579576549999226,-0.0008585576099584647,1.571540324999975,0.7839913680000876,0.03999999,0.039999988,-9.783342400000446,-0.0012511356500070955,-0.021166828949097077,-0.016733683299497197,0.0007942858380868096,-0.0012708131999614495
0.56,0.0018593532999269704,-0.7831142980000643,-0.0010117749359545858,-2.357984939999922,-0.0008731855799582788,1.571549099999975,0.783960504000088,0.03999999,0.039999988,-9.783185200000448,-0.0012806324753068705,-0.021484821599093037,-0.016910760399494948,0.0009370410345147801,-0.001284389999961277
0.5625,0.0018849583749266437,-0.7830917725000646,-0.0010276976849543827,-2.358012224999922,-0.0008878135499580922,1.571557874999975,0.7839296400000884,0.03999999,0.039999988,-9.783028000000451,-0.0013101293006066443,-0.02180281424908898,-0.01708783749949269,0.0010797962309427446,-0.0012979667999611039
0.5650000000000001,0.0019105634499263183,-0.7830692470000647,-0.0010436204339541804,-2.358039509999921,-0.0009024415199579063,1.5715666499999748,0.7838987760000888,0.03999999,0.039999988,-9.782870800000453,-0.0013396261259064194,-0.022120806899084938,-0.01726491459949044,0.001222551427370715,-0.0013115435999609313
0.5675,0.0019367666549208052,-0.783046268500069,-0.00105991535995075,-2.3580673799999157,-0.0009174117099547522,1.5715756599999726,0.7838671900000954,0.03999999,0.0399999881,-9.782731300000302,-0.0013695338507225552,-0.022457789598916218,-0.017444001249470757,0.0013672160213246028,-0.0013253131599590866
0.5700000000000001,0.001964166119920457,-0.7830223840000693,-0.0010769546399505335,-2.3580964199999155,-0.0009330663399545533,1.5715851399999725,0.7838341600000959,0.03999999,0.0399999884,-9.782627200000302,-0.0014002633745820896,-0.02283275239891145,-0.017627106999468428,0.0015156994103799404,-0.0013394682399589068
0.5725,0.0019915655849201074,-0.7829984995000696,-0.0010939939199503161,-2.3581254599999153,-0.0009487209699543536,1.5715946199999724,0.7838011300000963,0.03999999,0.039999988699999996,-9.782523100000304,-0.0014309928984416226,-0.02320771519890667,-0.017810212749466092,0.0016641827994352718,-0.0013536233199587262
0.5750000000000001,0.0020189650499197595,-0.7829746150000699,-0.0011110331999500996,-2.3581544999999147,-0.0009643755999541547,1.5716040999999723,0.7837681000000967,0.03999999,0.039999989,-9.782419000000305,-0.001461722422301157,-0.023582677998901902,-0.017993318499463767,0.0018126661884906095,-0.0013677783999585464
0.5775,0.00204636451491941,-0.7829507305000702,-0.0011280724799498823,-2.3581835399999145,-0.000980030229953955,1.5716135799999722,0.7837350700000971,0.03999999,0.0399999893,-9.782314900000307,-0.0014924519461606903,-0.02395764079889712,-0.01817642424946143,0.001961149577545941,-0.0013819334799583657
0.58,0.0020737639799190606,-0.7829268460000706,-0.001145111759949665,-2.3582125799999143,-0.0009956848599537553,1.571623059999972,0.7837020400000976,0.03999999,0.0399999896,-9.782210800000307,-0.0015231814700202232,-0.02433260359889234,-0.018359529999459095,0.0021096329666012723,-0.0013960885599581853
0.5825,0.002101163444918712,-0.7829029615000709,-0.0011621510399494484,-2.3582416199999137,-0.0010113394899535564,1.571632539999972,0.7836690100000979,0.03999999,0.0399999899,-9.782106700000309,-0.0015539109938797577,-0.024707566398887573,-0.018542635749456766,0.0022581163556566097,-0.0014102436399580053
0.585,0.0021297974299128455,-0.7828781050000755,-0.0011799585299457978,-2.358271929999908,-0.001027699769950203,1.57164244999997,0.7836344950001051,0.03999999,0.03999999,-9.781915000000701,-0.0015844475244196233,-0.025069363598941633,-0.01872969329943677,0.002411060174464736,-0.0014246168599568497
0.5875,0.0021590486749124738,-0.7828527625000758,-0.0011981501249455665,-2.3583028749999073,-0.0010444128749499905,1.5716525749999697,0.7835992375001054,0.03999999,0.03999999,-9.781679500000704,-0.0016148875582983665,-0.025424577998937117,-0.01891872674943437,0.002566234208179084,-0.0014390991499566657
0.59,0.0021882999199121004,-0.7828274200000761,-0.0012163417199453346,-2.358333819999907,-0.0010611259799497774,1.5716626999999697,0.7835639800001059,0.03999999,0.03999999,-9.781444000000707,-0.0016453275921771082,-0.025779792398932588,-0.01910776019943196,0.002721408241893425,-0.001453581439956481
0.5925,0.0022175511649117287,-0.7828020775000765,-0.0012345333149451033,-2.3583647649999064,-0.001077839084949565,1.5716728249999694,0.7835287225001063,0.03999999,0.03999999,-9.78120850000071,-0.0016757676260558514,-0.026135006798928072,-0.019296793649429555,0.0028765822756077726,-0.001468063729956297
0.595,0.0022468024099113557,-0.7827767350000767,-0.0012527249099448714,-2.358395709999906,-0.001094552189949352,1.5716829499999694,0.7834934650001067,0.03999999,0.03999999,-9.780973000000714,-0.001706207659934593,-0.026490221198923542,-0.019485827099427144,0.0030317563093221135,-0.0014825460199561122
0.5975,0.002276053654910984,-0.7827513925000771,-0.0012709165049446401,-2.3584266549999056,-0.0011112652949491395,1.5716930749999691,0.7834582075001072,0.03999999,0.03999999,-9.780737500000717,-0.0017366476938133362,-0.026845435598919026,-0.01967486054942474,0.0031869303430364614,-0.0014970283099559282
0.6,0.002305304899910611,-0.7827260500000774,-0.0012891080999444082,-2.3584575999999053,-0.0011279783999489264,1.571703199999969,0.7834229500001076,0.03999999,0.03999999,-9.78050200000072,-0.0017670877276920781,-0.027200649998914497,-0.01986389399942233,0.0033421043767508023,-0.0015115105999557433
0.6025,0.0023364644149043833,-0.7826991775000824,-0.0013084873199405325,-2.358490509999899,-0.0011457824399453663,1.571713969999967,0.7833853975001152,0.03999999,0.03999999075,-9.780353800000455,-0.0018011785693351733,-0.027603966548762373,-0.02005878989940194,0.0035025971820309286,-0.0015265673449537966
0.605,0.002367623929903986,-0.7826723050000828,-0.0013278665399402854,-2.358523419999899,-0.0011635864799451393,1.5717247399999668,0.7833478450001157,0.03999999,0.0399999915,-9.780205600000457,-0.0018352694109894233,-0.02800728309875723,-0.020253685799399453,0.0036630899873273015,-0.0015416240899536046
0.6075,0.00239878344490359,-0.7826454325000831,-0.001347245759940039,-2.358556329999898,-0.001181390519944913,1.5717355099999666,0.7833102925001162,0.03999999,0.03999999225,-9.780057400000459,-0.0018693602526436751,-0.028410599648752106,-0.020448581699396975,0.003823582792623682,-0.0015566808349534132
0.61,0.002429942959903192,-0.7826185600000835,-0.001366624979939792,-2.358589239999898,-0.0011991945599446859,1.5717462799999664,0.7832727400001166,0.03999999,0.039999993,-9.77990920000046,-0.0019034510942979254,-0.028813916198746962,-0.02064347759939449,0.003984075597920055,-0.001571737579953221
0.6125,0.002461102474902796,-0.7825916875000839,-0.0013860041999395455,-2.3586221499998974,-0.0012169985999444595,1.5717570499999662,0.7832351875001171,0.03999999,0.03999999375,-9.779761000000462,-0.001937541935952177,-0.029217232748741835,-0.020838373499392014,0.004144568403216435,-0.0015867943249530296
0.615,0.0024922619899023987,-0.7825648150000842,-0.0014053834199392985,-2.358655059999897,-0.0012348026399442325,1.5717678199999663,0.7831976350001176,0.03999999,0.039999994500000004,-9.779612800000464,-0.0019716327776064272,-0.02962054929873669,-0.02103326939938953,0.0043050612085128075,-0.0016018510699528376
0.6175,0.0025240761898958257,-0.7825374150000896,-0.0014251700649352082,-2.3586885999998906,-0.0012529808599404757,1.571778804999964,0.7831592900001256,0.03999999,0.039999994750000004,-9.779465650000457,-0.002005841233659209,-0.03003392764863663,-0.021230099949368798,0.004467267519273456,-0.0016169678149520802
0.62,0.002557199759895403,-0.7825089600000898,-0.0014457715599349454,-2.3587233999998904,-0.0012719074399402343,1.5717902199999638,0.783119360000126,0.03999999,0.039999994000000004,-9.779320600000458,-0.002040284918512375,-0.0304674295986311,-0.021430799799366237,0.004632900841011069,-0.0016322045599518858
0.6225,0.0025903233298949823,-0.7824805050000903,-0.0014663730549346835,-2.35875819999989,-0.0012908340199399937,1.5718016349999637,0.7830794300001266,0.03999999,0.039999993250000004,-9.77917555000046,-0.002074728603365542,-0.030900931548625592,-0.021631499649363686,0.004798534162748688,-0.0016474413049516923
0.625,0.0026234468998945597,-0.7824520500000905,-0.0014869745499344208,-2.3587929999998893,-0.0013097605999397525,1.5718130499999636,0.7830395000001271,0.03999999,0.039999992500000005,-9.779030500000461,-0.002109172288218708,-0.031334433498620064,-0.021832199499361125,0.0049641674844863,-0.001662678049951498
0.6275000000000001,0.002656570469894139,-0.782423595000091,-0.0015075760449341589,-2.358827799999889,-0.001328687179939512,1.5718244649999635,0.7829995700001277,0.03999999,0.039999991750000005,-9.778885450000464,-0.002143615973071875,-0.03176793544861455,-0.022032899349358575,0.00512980080622392,-0.0016779147949513042
0.63,0.0026896940398937162,-0.7823951400000912,-0.0015281775399338961,-2.3588625999998887,-0.0013476137599392705,1.5718358799999632,0.7829596400001281,0.03999999,0.039999991000000006,-9.778740400000466,-0.002178059657925041,-0.03220143739860903,-0.022233599199356014,0.005295434127961533,-0.00169315153995111
0.6325000000000001,0.0027228176098932954,-0.7823666850000917,-0.0015487790349336342,-2.358897399999888,-0.00136654033993903,1.5718472949999631,0.7829197100001286,0.03999999,0.03999999025,-9.778595350000467,-0.002212503342778208,-0.032634939348603516,-0.022434299049353464,0.005461067449699153,-0.0017083882849509163
0.635,0.0027572871498863435,-0.7823371600000972,-0.0015702180699293084,-2.3589335199998813,-0.0013862362499350563,1.571859159999961,0.782878155000137,0.03999999,0.03999999,-9.778485200000299,-0.0022500027901161293,-0.03310143599843792,-0.02263874169933275,0.005630561522584986,-0.0017239945199489296
0.6375000000000001,0.0027924296748858967,-0.7823071000000976,-0.0015920758749290306,-2.3589702999998807,-0.001406316824934801,1.5718712499999608,0.7828357875001376,0.03999999,0.03999999,-9.778392500000301,-0.0022890301187186084,-0.03358442999843178,-0.022845055749330125,0.005801985971072957,-0.0017397854999487289
0.64,0.0028275721998854485,-0.782277040000098,-0.0016139336799287519,-2.35900707999988,-0.001426397399934545,1.5718833399999605,0.7827934200001381,0.03999999,0.03999999,-9.778299800000303,-0.0023280574473210857,-0.03406742399842562,-0.023051369799327495,0.005973410419560921,-0.0017555764799485273
0.6425,0.0028627147248850003,-0.7822469800000984,-0.001635791484928473,-2.3590438599998795,-0.0014464779749342887,1.5718954299999603,0.7827510525001387,0.03999999,0.03999999,-9.778207100000303,-0.0023670847759235626,-0.03455041799841946,-0.02325768384932486,0.006144834868048885,-0.001771367459948326
0.645,0.002897857249884554,-0.7822169200000987,-0.0016576492899281951,-2.359080639999879,-0.0014665585499340336,1.5719075199999601,0.7827086850001391,0.03999999,0.03999999,-9.778114400000305,-0.0024061121045260416,-0.035033411998413325,-0.023463997899322242,0.006316259316536855,-0.0017871584399481253
0.6475,0.0029329997748841056,-0.7821868600000991,-0.0016795070949279164,-2.359117419999879,-0.0014866391249337774,1.5719196099999602,0.7826663175001397,0.03999999,0.03999999,-9.778021700000306,-0.002445139433128519,-0.03551640599840716,-0.02367031194931961,0.006487683765024819,-0.001802949419947924
0.65,0.002968142299883659,-0.7821568000000995,-0.0017013648999276386,-2.359154199999878,-0.001506719699933522,1.57193169999996,0.7826239500001402,0.03999999,0.03999999,-9.777929000000308,-0.002484166761730998,-0.03599939999840102,-0.02387662599931699,0.00665910821351279,-0.0018187403999477233
0.6525,0.0030053571498763238,-0.7821250555001055,-0.0017245124649230737,-2.3591931549998706,-0.0015279851549293284,1.5719445849999572,0.7825790775001491,0.03999999,0.03999999075,-9.777704450000746,-0.0025243063339560386,-0.03646782299844329,-0.024088488099295917,0.006835815216758658,-0.0018350818499456923
0.655,0.003042571999875851,-0.7820933110001059,-0.0017476600299227794,-2.35923210999987,-0.001549250609929058,1.571957469999957,0.7825342050001497,0.03999999,0.0399999915,-9.777479900000749,-0.0025644459061847638,-0.03693624599843733,-0.024300350199293226,0.0070125222200220225,-0.0018514232999454847
0.6575,0.003079786849875376,-0.7820615665001063,-0.0017708075949224842,-2.3592710649998696,-0.0015705160649287868,1.5719703549999569,0.7824893325001503,0.03999999,0.03999999225,-9.777255350000752,-0.0026045854784134868,-0.03740466899843136,-0.02451221229929052,0.007189229223285379,-0.0018677647499452763
0.66,0.003117001699874903,-0.7820298220001067,-0.00179395515992219,-2.359310019999869,-0.0015917815199285167,1.5719832399999567,0.7824444600001509,0.03999999,0.039999993,-9.777030800000755,-0.0026447250506422115,-0.0378730919984254,-0.02472407439928783,0.007365936226548743,-0.0018841061999450685
0.6625,0.0031542165498744286,-0.7819980775001071,-0.0018171027249218948,-2.3593489749998686,-0.0016130469749282455,1.5719961249999563,0.7823995875001515,0.03999999,0.03999999375,-9.776806250000758,-0.0026848646228709344,-0.03834151499841943,-0.024935936499285126,0.007542643229812099,-0.00190044764994486
0.665,0.0031914313998739553,-0.7819663330001075,-0.0018402502899216005,-2.359387929999868,-0.0016343124299279751,1.5720090099999562,0.782354715000152,0.03999999,0.039999994500000004,-9.77658170000076,-0.002725004195099659,-0.03880993799841348,-0.025147798599282435,0.007719350233075463,-0.0019167890999446525
0.6675,0.003229354574866614,-0.7819340150001134,-0.0018638387249170314,-2.3594275949998607,-0.001655982764923779,1.5720221399999537,0.7823089850001609,0.0399999899,0.03999999465000001,-9.77638685000046,-0.0027649517053327513,-0.03929764334821562,-0.025361488999263063,0.007897754432017018,-0.0019331809349440801
0.67,0.0032686943998671875,-0.7819005500001129,-0.001888308899917388,-2.359468679999861,-0.0016784628599241067,1.572035759999954,0.7822615400001602,0.0399999896,0.039999993600000006,-9.776251400000458,-0.0028045150915687127,-0.0398239133982233,-0.02557883599926623,0.008079553022366842,-0.0019496735399443204
0.6725,0.0033080342248677595,-0.7818670850001125,-0.0019127790749177435,-2.3595097649998618,-0.0017009429549244334,1.5720493799999542,0.7822140950001595,0.039999989300000004,0.03999999255000001,-9.776115950000456,-0.0028440784778046724,-0.04035018344823094,-0.025796182999269387,0.008261351612716659,-0.0019661661449445604
0.675,0.0033473740498683327,-0.781833620000112,-0.0019372492499181001,-2.3595508499998625,-0.001723423049924761,1.5720629999999545,0.7821666500001588,0.039999989,0.039999991500000005,-9.775980500000454,-0.0028836418640406343,-0.04087645349823862,-0.026013529999272558,0.008443150203066484,-0.0019826587499448007
0.6775,0.0033867138748689043,-0.7818001550001116,-0.0019617194249184557,-2.3595919349998633,-0.0017459031449250876,1.5720766199999545,0.7821192050001581,0.0399999887,0.03999999045,-9.775845050000452,-0.002923205250276594,-0.04140272354824626,-0.026230876999275714,0.008624948793416302,-0.00199915135494504
0.68,0.0034260536998694776,-0.781766690000111,-0.0019861895999188123,-2.3596330199998636,-0.0017683832399254151,1.5720902399999548,0.7820717600001574,0.0399999884,0.039999989400000005,-9.77570960000045,-0.002962768636512556,-0.04192899359825393,-0.026448223999278882,0.008806747383766125,-0.0020156439599452805
0.6825,0.003465393524870049,-0.7817332250001106,-0.0020106597749191676,-2.3596741049998644,-0.0017908633349257418,1.572103859999955,0.7820243150001567,0.0399999881,0.03999998835,-9.775574150000448,-0.0030023320227485157,-0.042455263648261576,-0.026665570999282042,0.008988545974115943,-0.0020321365649455204
0.685,0.0035061843598619543,-0.7816985730001172,-0.0020360330699141296,-2.3597166499998563,-0.0018141730399211138,1.5721179399999525,0.7819751360001664,0.039999988,0.039999988,-9.775433500000476,-0.0030450895660012666,-0.04300067359815464,-0.026886477399259548,0.009173825103167643,-0.0020489804899434085
0.6875,0.003547700699860292,-0.7816633275001187,-0.002061857924913096,-2.3597599249998544,-0.0018378975499201639,1.572132249999952,0.7819250900001684,0.039999988,0.039999988,-9.775290250000483,-0.003089444187786116,-0.04355565349813242,-0.027109163499250633,0.009360844501596105,-0.002066000074942727
0.6900000000000001,0.0035892170398586316,-0.78162808200012,-0.002087682779912063,-2.3598031999998526,-0.001861622059919215,1.5721465599999513,0.7818750440001704,0.039999988,0.039999988,-9.775147000000487,-0.003133798809570967,-0.04411063339811022,-0.027331849599241727,0.009547863900024576,-0.002083019659942046
0.6925,0.0036307333798569694,-0.7815928365001215,-0.002113507634911029,-2.359846474999851,-0.0018853465699182651,1.5721608699999507,0.7818249980001724,0.039999988,0.039999988,-9.775003750000494,-0.003178153431355816,-0.044665613298088,-0.027554535699232812,0.009734883298453038,-0.0021000392449413647
0.6950000000000001,0.003672249719855309,-0.7815575910001229,-0.002139332489909996,-2.3598897499998492,-0.0019090710799173163,1.5721751799999502,0.7817749520001744,0.039999988,0.039999988,-9.774860500000498,-0.003222508053140667,-0.0452205931980658,-0.027777221799223904,0.009921902696881507,-0.002117058829940684
0.6975,0.0037137660598536466,-0.7815223455001242,-0.002165157344908962,-2.3599330249998474,-0.0019327955899163664,1.5721894899999496,0.7817249060001764,0.039999988,0.039999988,-9.774717250000505,-0.0032668626749255162,-0.04577557309804358,-0.027999907899214988,0.01010892209530997,-0.0021340784149400027
0.7000000000000001,0.0037552823998519866,-0.7814871000001257,-0.0021909821999079294,-2.359976299999846,-0.0019565200999154173,1.572203799999949,0.7816748600001784,0.039999988,0.039999988,-9.774574000000511,-0.003311217296710367,-0.046330552998021385,-0.02822259399920608,0.01029594149373844,-0.002151097999939322
0.7025,0.003799026089842294,-0.7814500500001336,-0.002218193384901897,-2.3600218249998357,-0.0019815178099098774,1.5722189049999455,0.78162214100019,0.0399999883,0.0399999883,-9.774513100000219,-0.0033572080659884027,-0.04694252074779371,-0.028450637199177852,0.010487508354017842,-0.0021685129249372154
0.705,0.0038427697798405426,-0.781413000000135,-0.002245404569900808,-2.360067349999834,-0.0020065155199088763,1.572234009999945,0.7815694220001922,0.0399999886,0.0399999886,-9.774452200000221,-0.003403198835272271,-0.04755448849776921,-0.02867868039916872,0.010679075214313457,-0.002185927849936518
0.7075,0.0038865134698387927,-0.7813759500001365,-0.0022726157548997195,-2.360112874999832,-0.0020315132299078766,1.5722491149999445,0.7815167030001943,0.0399999889,0.0399999889,-9.774391300000223,-0.0034491896045561418,-0.04816645624774473,-0.0289067235991596,0.010870642074609081,-0.0022033427749358213
0.71,0.0039302571598370415,-0.7813389000001381,-0.00229982693989863,-2.3601583999998303,-0.0020565109399068755,1.5722642199999437,0.7814639840001963,0.039999989199999995,0.039999989199999995,-9.774330400000226,-0.0034951803738400102,-0.048778423997720234,-0.029134766799150467,0.011062208934904696,-0.002220757699935124
0.7125,0.003974000849835292,-0.7813018500001395,-0.0023270381248975416,-2.3602039249998286,-0.002081508649905876,1.5722793249999432,0.7814112650001985,0.0399999895,0.0399999895,-9.774269500000228,-0.003541171143123881,-0.04939039174769576,-0.02936280999914135,0.01125377579520032,-0.0022381726249344276
0.715,0.00401774453983354,-0.781264800000141,-0.002354249309896452,-2.3602494499998268,-0.002106506359904875,1.5722944299999426,0.7813585460002006,0.039999989799999996,0.039999989799999996,-9.77420860000023,-0.0035871619124077493,-0.050002359497671255,-0.029590853199132218,0.011445342655495934,-0.0022555875499337304
0.7175,0.004062247124823873,-0.781227125000149,-0.0023819328298904357,-2.360295724999817,-0.0021319379548993484,1.572309804999939,0.7813048975002125,0.03999999025,0.03999999025,-9.774094100000848,-0.0036334305417794017,-0.05060968294771123,-0.02982065859910701,0.011638630460194787,-0.0022731277249319125
0.72,0.004108267499824542,-0.7811882000001484,-0.002410561019890852,-2.360343499999818,-0.0021582373198997308,1.5723257199999394,0.7812493900002117,0.039999991,0.039999991,-9.773872400000846,-0.003680254891336197,-0.051207717797719925,-0.0300539883991104,0.011835360153759446,-0.002290918399932171
0.7225,0.004154287874825213,-0.7811492750001479,-0.002439189209891269,-2.3603912749998184,-0.002184536684900114,1.5723416349999395,0.7811938825002108,0.03999999175,0.03999999175,-9.773650700000841,-0.0037270792408929942,-0.05180575264772864,-0.030287318199113802,0.012032089847324115,-0.0023087090749324304
0.725,0.004200308249825881,-0.7811103500001473,-0.002467817399891685,-2.360439049999819,-0.002210836049900496,1.5723575499999398,0.78113837500021,0.0399999925,0.0399999925,-9.773429000000839,-0.0037739035904497896,-0.05240378749773733,-0.030520647999117193,0.012228819540888773,-0.002326499749932689
0.7275,0.004246328624826552,-0.7810714250001467,-0.002496445589892102,-2.36048682499982,-0.0022371354149008796,1.57237346499994,0.7810828675002092,0.03999999325,0.03999999325,-9.773207300000836,-0.003820727940006587,-0.053001822347746044,-0.030753977799120594,0.01242554923445344,-0.002344290424932948
0.73,0.004292348999827221,-0.7810325000001461,-0.0025250737798925183,-2.3605345999998204,-0.0022634347799012616,1.5723893799999402,0.7810273600002083,0.039999994,0.039999994,-9.772985600000833,-0.0038675522895633826,-0.05359985719775474,-0.03098730759912398,0.012622278928018099,-0.0023620810999332065
0.7325,0.004338369374827892,-0.7809935750001455,-0.0025537019698929353,-2.3605823749998214,-0.002289734144901645,1.5724052949999405,0.7809718525002076,0.039999994750000004,0.039999994750000004,-9.77276390000083,-0.00391437663912018,-0.05419789204776346,-0.031220637399127383,0.012819008621582766,-0.002379871774933466
0.735,0.00438593964981902,-0.7809533830001528,-0.0025832949498874134,-2.3606317299998123,-0.002316919759896572,1.5724217199999375,0.7809144950002181,0.039999995,0.0399999955,-9.772600400000504,-0.003963453648423895,-0.05483504529754161,-0.031457232099108196,0.013018869887283391,-0.0023979954699315307
0.7375,0.004434284874818405,-0.7809125575001533,-0.0026133703248870307,-2.3606818749998117,-0.002344548499896221,1.5724383999999374,0.7808562125002189,0.039999995,0.03999999625,-9.772466000000506,-0.004013656987620001,-0.05549175774753326,-0.03169545924910517,0.013220296939078325,-0.002416285674931298
0.74,0.004482630099817789,-0.7808717320001539,-0.0026434456998866472,-2.3607320199998107,-0.0023721772398958684,1.572455079999937,0.7807979300002197,0.039999995,0.039999997,-9.772331600000507,-0.004063860326816106,-0.056148470197524884,-0.03193368639910213,0.013421723990873251,-0.002434575879931065
0.7425,0.0045309753248171745,-0.7808309065001544,-0.002673521074886265,-2.36078216499981,-0.0023998059798955177,1.572471759999937,0.7807396475002204,0.039999995,0.03999999775,-9.772197200000509,-0.004114063666012213,-0.056805182647516536,-0.0321719135490991,0.013623151042668187,-0.0024528660849308325
0.745,0.004579320549816558,-0.7807900810001549,-0.0027035964498858815,-2.3608323099998096,-0.002427434719895165,1.5724884399999368,0.7806813650002211,0.039999995,0.0399999985,-9.77206280000051,-0.004164267005208317,-0.05746189509750816,-0.03241014069909606,0.013824578094463112,-0.002471156289930599
0.7475,0.004627665774815944,-0.7807492555001554,-0.0027336718248854993,-2.360882454999809,-0.002455063459894814,1.5725051199999365,0.7806230825002218,0.039999995,0.03999999925,-9.771928400000512,-0.004214470344404425,-0.05811860754749981,-0.032648367849093037,0.014026005146258047,-0.002489446494930367
0.75,0.004676010999815327,-0.780708430000156,-0.002763747199885116,-2.3609325999998085,-0.0024826921998944615,1.5725217999999364,0.7805648000002225,0.039999995,0.04,-9.771794000000513,-0.004264673683600529,-0.058775319997491436,-0.032886594999089996,0.014227432198052973,-0.0025077366999301334
0.7525000000000001,0.004726728549805621,-0.7806656455001639,-0.002795299339879074,-2.3609852049997984,-0.0025116771348889125,1.572539319999933,0.7805036600002343,0.039999995,0.04,-9.771657650000522,-0.004315253789342747,-0.05946505149735654,-0.033129901749067506,0.014433519029199898,-0.0025262564349290213
0.755,0.004777446099804974,-0.7806228610001645,-0.002826851479878671,-2.3610378099997975,-0.002540662069888543,1.5725568399999328,0.7804425200002351,0.039999995,0.04,-9.771521300000524,-0.004365833895086402,-0.06015478299734774,-0.0333732084990644,0.014639605860364615,-0.002544776169928785
0.7575000000000001,0.004828163649804329,-0.780580076500165,-0.00285840361987827,-2.361090414999797,-0.0025696470048881745,1.5725743599999324,0.7803813800002358,0.039999995,0.04,-9.771384950000526,-0.0044164140008300596,-0.06084451449733898,-0.033616515249061306,0.014845692691529341,-0.00256329590492855
0.76,0.004878881199803682,-0.7805372920001656,-0.0028899557598778677,-2.3611430199997963,-0.002598631939887805,1.5725918799999323,0.7803202400002366,0.039999995,0.04,-9.771248600000527,-0.0044669941065737144,-0.06153424599733018,-0.03385982199905821,0.015051779522694058,-0.0025818156399283134
0.7625000000000001,0.004929598749803038,-0.7804945075001661,-0.0029215078998774666,-2.361195624999796,-0.0026276168748874365,1.572609399999932,0.7802591000002375,0.039999995,0.04,-9.77111225000053,-0.004517574212317371,-0.06222397749732141,-0.03410312874905511,0.015257866353858783,-0.0026003353749280782
0.765,0.004980316299802391,-0.7804517230001666,-0.0029530600398770643,-2.361248229999795,-0.002656601809887067,1.5726269199999319,0.7801979600002382,0.039999995,0.04,-9.770975900000531,-0.004568154318061027,-0.06291370899731262,-0.03434643549905201,0.015463953185023499,-0.002618855109927842
0.7675000000000001,0.005031839919792293,-0.780408275000175,-0.0029851140448707777,-2.3613016699997846,-0.002686047679881293,1.5726447049999286,0.7801358470002504,0.039999995,0.04,-9.770875000000117,-0.004619914153379179,-0.06362558749704414,-0.03459138529902965,0.015671387779636274,-0.002637492489926227
0.77,0.005084975679791616,-0.7803635000001756,-0.0030181717798703563,-2.361356779999784,-0.002716415419880906,1.5726630199999283,0.7800717880002512,0.039999995,0.04,-9.770845000000117,-0.004674033447887778,-0.0643817599970345,-0.034839621199026484,0.015881517901192504,-0.0026563651599259865
0.7725,0.005138111439790938,-0.7803187250001762,-0.003051229514869935,-2.3614118899997836,-0.0027467831598805186,1.572681334999928,0.7800077290002521,0.039999995,0.04,-9.770815000000118,-0.004728152742396378,-0.06513793249702485,-0.03508785709902332,0.016091648022748734,-0.0026752378299257458
0.775,0.005191247199790263,-0.7802739500001767,-0.0030842872498695146,-2.3614669999997826,-0.0027771508998801326,1.5726996499999277,0.7799436700002529,0.039999995,0.04,-9.770785000000119,-0.0047822720369049805,-0.06589410499701524,-0.035336092999020165,0.016301778144304974,-0.002694110499925506
0.7775,0.005244382959789585,-0.7802291750001773,-0.0031173449848690927,-2.361522109999782,-0.0028075186398797453,1.5727179649999274,0.7798796110002536,0.039999995,0.04,-9.770755000000118,-0.00483639133141358,-0.0666502774970056,-0.035584328899017,0.016511908265861203,-0.0027129831699252652
0.78,0.00529751871978891,-0.7801844000001779,-0.0031504027198686725,-2.361577219999781,-0.0028378863798793593,1.5727362799999272,0.7798155520002544,0.039999995,0.04,-9.77072500000012,-0.004890510625922182,-0.06740644999699599,-0.03583256479901384,0.016722038387417443,-0.0027318558399250254
0.7825,0.005350654479788232,-0.7801396250001784,-0.003183460454868251,-2.3616323299997806,-0.002868254119878972,1.5727545949999269,0.7797514930002553,0.039999995,0.04,-9.77069500000012,-0.004944629920430782,-0.06816262249698635,-0.03608080069901067,0.016932168508973673,-0.0027507285099247847
0.785,0.005405432659777707,-0.7800935000001871,-0.0032175405098617,-2.36168905999977,-0.002899560849872955,1.572773519999923,0.779685446000268,0.039999995,0.04,-9.770545700000836,-0.0049986475610809735,-0.06890570459705524,-0.036332225398988394,0.017144957928993516,-0.0027698301099231717
0.7875,0.005461032049776998,-0.7800467000001877,-0.003252131724861259,-2.3617465999997695,-0.0029313370748725496,1.5727927499999228,0.7796184050002688,0.039999995,0.04,-9.770336750000839,-0.005052614374801046,-0.06964224149704584,-0.03658524449898517,0.01735907699826902,-0.0027890461749229267
0.79,0.005516631439776291,-0.7799999000001883,-0.003286722939860819,-2.3618041399997685,-0.0029631132998721456,1.5728119799999225,0.7795513640002697,0.039999995,0.04,-9.770127800000841,-0.0051065811885211195,-0.07037877839703648,-0.03683826359898196,0.01757319606754453,-0.0028082622399226826
0.7925,0.005572230829775582,-0.7799531000001889,-0.003321314154860378,-2.361861679999768,-0.0029948895248717404,1.5728312099999222,0.7794843230002706,0.039999995,0.04,-9.769918850000844,-0.005160548002241191,-0.07111531529702708,-0.037091282698978725,0.017787315136820036,-0.0028274783049224376
0.795,0.005627830219774875,-0.7799063000001896,-0.0033559053698599384,-2.361919219999767,-0.0030266657498713365,1.5728504399999221,0.7794172820002714,0.039999995,0.04,-9.769709900000846,-0.0052145148159612655,-0.07185185219701773,-0.037344301798975514,0.01800143420609555,-0.0028466943699221934
0.7975,0.0056834296097741654,-0.7798595000001901,-0.003390496584859497,-2.361976759999766,-0.0030584419748709312,1.5728696699999218,0.7793502410002723,0.039999995,0.04,-9.769500950000849,-0.005268481629681337,-0.07258838909700832,-0.03759732089897229,0.018215553275371055,-0.002865910434921948
0.8,0.005739028999773459,-0.7798127000001908,-0.0034250877998590577,-2.3620342999997654,-0.0030902181998705273,1.5728888999999215,0.7792832000002731,0.039999995,0.04,-9.769292000000851,-0.0053224484434014115,-0.07332492599699897,-0.03785033999896907,0.01842967234464657,-0.002885126499921704
0.8025,0.0057971356997625016,-0.7797638210001998,-0.0034612399598522364,-2.362094494999754,-0.003123428139864262,1.5729089849999178,0.7792131440002863,0.039999995,0.04,-9.769160750000536,-0.00537968957773288,-0.07413009269670906,-0.03810799199894691,0.01864849002942407,-0.002904661644920155
0.805,0.005855242399761764,-0.7797149420002004,-0.0034973921198517767,-2.362154689999753,-0.0031566380798638397,1.5729290699999177,0.7791430880002872,0.039999995,0.04,-9.769029500000538,-0.005436930712077692,-0.07493525939669883,-0.038365643998943634,0.01886730771422073,-0.0029241967899199064
0.8075,0.005913349099761022,-0.779666063000201,-0.0035335442798513157,-2.3622148849997524,-0.0031898480198634164,1.5729491549999173,0.7790730320002881,0.039999995,0.04,-9.76889825000054,-0.005494171846422502,-0.07574042609668856,-0.03862329599894035,0.01908612539901738,-0.002943731934919657
0.81,0.005971455799760284,-0.7796171840002016,-0.0035696964398508565,-2.3622750799997516,-0.0032230579598629943,1.5729692399999171,0.779002976000289,0.039999995,0.04,-9.76876700000054,-0.005551412980767315,-0.07654559279667833,-0.03888094799893707,0.01930494308381404,-0.002963267079919409
0.8125,0.006029562499759543,-0.7795683050002022,-0.003605848599850395,-2.362335274999751,-0.0032562678998625705,1.5729893249999167,0.7789329200002899,0.039999995,0.04,-9.768635750000543,-0.005608654115112125,-0.07735075949666806,-0.039138599998933786,0.01952376076861069,-0.00298280222491916
0.8150000000000001,0.0060876691997588045,-0.7795194260002029,-0.003642000759849936,-2.36239546999975,-0.0032894778398621484,1.5730094099999166,0.7788628640002908,0.039999995,0.04,-9.768504500000544,-0.0056658952494569375,-0.07815592619665783,-0.039396251998930515,0.019742578453407347,-0.0030023373699189114
0.8175,0.006146625999747445,-0.7794698430002123,-0.0036786821198428643,-2.3624565199997387,-0.003323173809855654,1.5730297899999126,0.7787917790003045,0.03999999525,0.04,-9.7684089000001,-0.005723846866501977,-0.07898245779638069,-0.03965542879890818,0.019962719920095018,-0.0030219795699173253
0.8200000000000001,0.006207282999746674,-0.779418852000213,-0.003716421879842385,-2.362519279999738,-0.0033578418398552135,1.5730507599999124,0.7787186360003054,0.039999996,0.04,-9.7683846000001,-0.005783219448974078,-0.07985171919636964,-0.03991765519890485,0.02018550895061429,-0.003041835879917073
0.8225,0.0062679399997459,-0.7793678610002136,-0.003754161639841903,-2.362582039999737,-0.0033925098698547713,1.5730717299999122,0.7786454930003064,0.03999999675,0.04,-9.7683603000001,-0.005842592031446176,-0.08072098059635856,-0.0401798815989015,0.02040829798113355,-0.0030616921899168197
0.8250000000000001,0.006328596999745129,-0.7793168700002142,-0.0037919013998414237,-2.362644799999736,-0.003427177899854331,1.573092699999912,0.7785723500003073,0.0399999975,0.04,-9.768336000000101,-0.0059019646139182765,-0.0815902419963475,-0.04044210799889817,0.020631087011652827,-0.0030815484999165673
0.8275,0.006389253999744355,-0.7792658790002149,-0.003829641159840942,-2.3627075599997354,-0.0034618459298538886,1.5731136699999118,0.7784992070003083,0.03999999825,0.04,-9.768311700000103,-0.005961337196390374,-0.08245950339633641,-0.04070433439889482,0.02085387604217209,-0.003101404809916314
0.8300000000000001,0.0064499109997435845,-0.7792148880002155,-0.0038673809198404626,-2.3627703199997345,-0.0034965139598534477,1.5731346399999113,0.7784260640003091,0.039999999,0.04,-9.768287400000103,-0.0060207097788624745,-0.08332876479632537,-0.04096656079889149,0.021076665072691365,-0.0031212611199160616
0.8325,0.00651056799974281,-0.7791638970002162,-0.003905120679839981,-2.3628330799997337,-0.0035311819898530055,1.573155609999911,0.7783529210003101,0.03999999975,0.04,-9.768263100000103,-0.006080082361334572,-0.08419802619631428,-0.041228787198888145,0.021299454103210626,-0.003141117429915808
0.835,0.006572952799731015,-0.779111466000226,-0.003943936099832638,-2.3628975999997217,-0.003566838019846261,1.573177189999907,0.7782777030003243,0.04,0.04,-9.76811560000089,-0.00613977783334124,-0.08505459399638417,-0.04149398769886583,0.021524707040717572,-0.0031611773999142556
