rsonawane2002/My_IMU/logs_2/traj_497/imu_497.csv
time,j1,j2,j3,j4,j5,j6,j7,gripper1,gripper2,imu_ax,imu_ay,imu_az,imu_gx,imu_gy,imu_gz
2719.3333333403475,0.00016700293,-0.785875,4.0107683e-05,-2.3551247,9.29385e-05,1.570997,0.786,0.04,0.04,-9.494467,0.0036888832692056894,0.086349696,-4.0630974e-07,-0.0011641273740679026,7.146905e-07
2719.3500000070144,0.00016701443,-0.78576016,4.010919e-05,-2.3552213,9.296904e-05,1.5709941,0.786,0.04,0.04,-9.834491,0.0006303386180661619,0.009074966,-9.206421e-07,-0.0022376852575689554,9.267398e-07
2719.3666666736813,0.00016708618,-0.7856542,4.007287e-05,-2.35531,9.296249e-05,1.5709913,0.786,0.04,0.04,-9.832048,0.0006334483623504639,0.007704672,-7.2866765e-06,-0.0032213220838457346,9.0986146e-07
2719.383333340348,0.00016731677,-0.7855566,3.993756e-05,-2.355391,9.286282e-05,1.5709884,0.786,0.04,0.04,-9.830367,0.0006317765801213682,0.0063275145,-2.3683342e-05,-0.004119760822504759,1.1076035e-07
2719.400000007015,0.0001678476,-0.78546655,3.9615607e-05,-2.3554654,9.258935e-05,1.5709856,0.786,0.04,0.04,-9.828215,0.0006291439640335739,0.0052112835,-5.559725e-05,-0.004928426817059517,-1.796085e-06
2719.416666673682,0.00016885821,-0.7853831,3.8995597e-05,-2.3555336,9.2040136e-05,1.5709827,0.7859981,0.04,0.04,-9.825992,0.0006317563238553703,0.0043125325,-0.00010728354,-0.005655094515532255,-5.0994977e-06
2719.433333340349,0.00017056259,-0.7853058,3.7944705e-05,-2.355599,9.109312e-05,1.5709828,0.7859962,0.04,0.04,-9.824213,0.0006230779690667987,0.0033369083,-0.0001746333,-0.006300180219113827,-1.0073341e-05
2719.4500000070157,0.00017320547,-0.78523374,3.631091e-05,-2.355658,8.9608664e-05,1.5709833,0.7859924,0.04,0.04,-9.8225,0.0006238218047656119,0.0025158338,-0.00027071938,-0.006863609421998262,-1.6945383e-05
2719.4666666736825,0.0001770589,-0.7851665,3.3925146e-05,-2.355716,8.743182e-05,1.5709839,0.78598833,0.04,0.04,-9.820366,0.0006181772332638502,0.0018288037,-0.0003909312,-0.007342174183577299,-2.5940999e-05
2719.4833333403494,0.00018241964,-0.7851031,3.0603213e-05,-2.3557703,8.439303e-05,1.5709847,0.7859823,0.04,0.04,-9.818695,0.0006083088228479028,0.0012935637,-0.0005467581,-0.007757173851132393,-3.722877e-05
2719.5000000070163,0.00018960581,-0.78504264,2.6147169e-05,-2.3558216,8.031092e-05,1.5709857,0.78597337,0.04,0.04,-9.81693,0.0005999053828418255,0.00069154194,-0.00073424086,-0.008098996244370937,-5.099198e-05
2719.516666673683,0.00019895475,-0.7849849,2.0347425e-05,-2.3558722,7.499296e-05,1.5709866,0.7859619,0.04,0.04,-9.815073,0.0005865407874807715,0.00017930788,-0.0009528945,-0.008369370363652706,-6.738822e-05
2719.53333334035,0.00021082046,-0.78492904,1.29839445e-05,-2.3559227,6.823695e-05,1.5709909,0.7859476,0.04,0.04,-9.813422,0.0005733588477596641,-0.0002677451,-0.0012079283,-0.008577541448175907,-8.6539614e-05
2719.550000007017,0.0002255714,-0.7848744,3.827439e-06,-2.3559732,5.983246e-05,1.5709956,0.7859299,0.04,0.04,-9.811772,0.0005559161654673517,-0.0007761655,-0.001501182,-0.008712305687367916,-0.0001085695
2719.566666673684,0.0002435888,-0.7848206,-7.359075e-06,-2.3560238,4.9571543e-05,1.5710003,0.7859082,0.04,0.039999995,-9.810139,0.0005355856264941394,-0.0012085844,-0.0018336157,-0.008784704841673374,-0.00013281526
2719.5833333403507,0.00026526462,-0.7847669,-2.081927e-05,-2.3560748,3.7219954e-05,1.5710078,0.7858821,0.04,0.039999995,-9.808447,0.0005066984449513257,-0.0016070832,-0.002205857,-0.008795456029474735,-0.00016093586
2719.6000000070176,0.00029099986,-0.78471255,-3.6802732e-05,-2.3561282,2.2548522e-05,1.5710163,0.78585094,0.04,0.039999995,-9.80674,0.00047423975775018334,-0.0020899207,-0.0026187508,-0.00873531773686409,-0.00019219262
2719.6166666736844,0.000321203,-0.78465724,-5.55636e-05,-2.3561857,5.323872e-06,1.5710249,0.78581446,0.04,0.039999995,-9.805319,0.00044202906428836286,-0.002557411,-0.003072279,-0.008619884960353374,-0.00022665554
2719.6333333403513,0.000356289,-0.78460026,-7.735973e-05,-2.3562443,-1.4703891e-05,1.5710372,0.78577214,0.04,0.04,-9.803943,0.0003932249383069575,-0.0030000529,-0.003568564,-0.008458645083010197,-0.00026575278
2719.650000007018,0.00039667703,-0.7845412,-0.00010245254,-2.356309,-3.7747635e-05,1.5710496,0.78572345,0.04,0.039999995,-9.802134,0.00036661227932199836,-0.003593629,-0.0041077756,-0.008222277276217937,-0.00030531525
2719.666666673685,0.00044279086,-0.78447914,-0.00013110509,-2.3563752,-6.407629e-05,1.5710657,0.78566796,0.04,0.04,-9.801115,0.0002964756276924163,-0.0041686967,-0.0046903184,-0.007948063313961029,-0.000351044
2719.683333340352,0.0004950559,-0.78441405,-0.00016358274,-2.3564482,-9.391732e-05,1.5710821,0.785605,0.04,0.04,-9.7992,0.00025103107327595353,-0.004838924,-0.005316558,-0.007601318880915642,-0.00039805402
2719.700000007019,0.00055389997,-0.7843452,-0.00020015148,-2.3565242,-0.00012750727,1.5711021,0.785534,0.04,0.039999995,-9.798034,0.00018319023365620524,-0.005489683,-0.005986295,-0.007216307800263166,-0.00044829576
2719.7166666736857,0.00061975134,-0.78427196,-0.00024107788,-2.3566058,-0.00016510225,1.5711253,0.7854547,0.04,0.039999995,-9.796295,0.00010212975030299276,-0.0063161394,-0.0066990163,-0.006762387230992317,-0.00050273695
2719.7333333403526,0.0006930381,-0.78419405,-0.00028662838,-2.356695,-0.00020694615,1.5711493,0.78536636,0.04,0.039999995,-9.795099,2.0877545466646552e-05,-0.0072637363,-0.0074561154,-0.006253067869693041,-0.0005605466
2719.7500000070195,0.0007741875,-0.7841109,-0.00033706916,-2.3567915,-0.00025328313,1.571177,0.78526855,0.04,0.039999995,-9.793701,-7.315922994166613e-05,-0.008106183,-0.008256484,-0.005706143565475941,-0.0006217377
2719.7666666736864,0.0008636255,-0.78402203,-0.00039266518,-2.3568957,-0.00030436806,1.5712082,0.7851607,0.04,0.04,-9.792404,-0.00017988833133131266,-0.009188913,-0.00910037,-0.0051077576354146,-0.0006870651
2719.7833333403532,0.00096177525,-0.78392714,-0.00045368008,-2.3570077,-0.00036043022,1.5712421,0.7850424,0.04,0.04,-9.791141,-0.00028439145535230637,-0.010391221,-0.00998746,-0.004459874238818884,-0.0007549219
2719.80000000702,0.0010690578,-0.7838253,-0.000520376,-2.357128,-0.0004217108,1.5712787,0.7849131,0.04,0.04,-9.790124,-0.0004036434693261981,-0.011751455,-0.010917683,-0.0037653904873877764,-0.0008261004
2719.816666673687,0.0011858906,-0.783717,-0.00059301296,-2.3572567,-0.000488451,1.5713181,0.78477234,0.039999995,0.04,-9.788575,-0.0005400349036790431,-0.01310391,-0.011890702,-0.0030266973190009594,-0.0009011576
2719.833333340354,0.0013126873,-0.78360116,-0.0006718486,-2.357396,-0.0005608848,1.5713614,0.7846195,0.03999999,0.039999995,-9.787245,-0.0006793103530071676,-0.014598753,-0.012906145,-0.0022403995972126722,-0.0009791937
2719.8500000070208,0.0014498574,-0.7834776,-0.0007571379,-2.3575459,-0.00063924637,1.5714084,0.78445417,0.039999988,0.039999988,-9.786181,-0.0008250396349467337,-0.016303658,-0.013963651,-0.001413786318153143,-0.0010593275
2719.8666666736876,0.0015978061,-0.78334504,-0.00084913324,-2.3577049,-0.00072376855,1.5714593,0.7842758,0.039999988,0.039999988,-9.785453,-0.0009932995308190584,-0.01826462,-0.015062545,-0.0005470006726682186,-0.001143529
2719.8833333403545,0.001756933,-0.7832044,-0.00094808394,-2.3578758,-0.0008146737,1.571514,0.78408396,0.03999999,0.039999988,-9.783814,-0.001162645174190402,-0.020212851,-0.016202452,0.0003660202492028475,-0.0012300828
2719.9000000070214,0.0019276335,-0.78305423,-0.0010542356,-2.3580577,-0.0009121935,1.5715725,0.7838782,0.03999999,0.039999988,-9.782766,-0.0013592906761914492,-0.022332802,-0.017382966,0.0013177215587347746,-0.0013205948
2719.9166666736883,0.0021102966,-0.782895,-0.0011678308,-2.3582513,-0.0010165577,1.5716357,0.783658,0.03999999,0.03999999,-9.782072,-0.0015641541685909033,-0.024832554,-0.018603671,0.0023076108191162348,-0.001414962
2719.933333340355,0.0023053049,-0.78272605,-0.0012891081,-2.3584576,-0.0011279784,1.5717032,0.78342295,0.03999999,0.03999999,-9.780502,-0.0017670877277851105,-0.02720065,-0.019863894,0.0033421043772250414,-0.0015115106
2719.950000007022,0.002513035,-0.7825469,-0.0014183029,-2.358677,-0.001246672,1.571775,0.7831726,0.03999999,0.039999995,-9.779514,-0.0019943600054830313,-0.029889427,-0.0211632,0.004412056412547827,-0.0016118889
2719.966666673689,0.0027338588,-0.7823572,-0.0015556462,-2.358909,-0.0013728492,1.5718511,0.7829064,0.03999999,0.03999999,-9.778547,-0.002223984571173787,-0.03277944,-0.022501199,0.0055162785574793816,-0.0017134672
2719.983333340356,0.0029681423,-0.7821568,-0.0017013649,-2.3591542,-0.0015067197,1.5719317,0.78262395,0.03999999,0.03999999,-9.777929,-0.0024841667618602514,-0.0359994,-0.023876626,0.006659108214080334,-0.0018187404
2720.0000000070227,0.0032162413,-0.78194517,-0.001855682,-2.3594139,-0.0016484894,1.5720176,0.7823248,0.03999999,0.039999995,-9.776432,-0.0027517639100551605,-0.03912222,-0.02528904,0.007837154902517796,-0.0019276834
2720.0166666736895,0.0034785068,-0.78172207,-0.0020188165,-2.3596878,-0.0017983567,1.5721084,0.7820085,0.039999988,0.039999988,-9.775529,-0.003015519818291068,-0.042630687,-0.02673802,0.009049145504832268,-0.0020376341
2720.0333333403564,0.0037552824,-0.7814871,-0.0021909822,-2.3599763,-0.0019565201,1.5722038,0.78167486,0.039999988,0.039999988,-9.774574,-0.0033112172968685627,-0.046330553,-0.028222594,0.01029594149440527,-0.002151098
2720.0500000070233,0.004046907,-0.7812401,-0.0023723901,-2.3602798,-0.0021231715,1.5723045,0.7813234,0.03999999,0.03999999,-9.774168,-0.003617822425439954,-0.050410338,-0.029742882,0.011573053896427155,-0.0022671975
2720.06666667369,0.0043537095,-0.7809806,-0.0025632447,-2.3605983,-0.0022985006,1.5724106,0.78095335,0.039999995,0.039999995,-9.77269,-0.0039299847558140755,-0.054397237,-0.031298414,0.012884585186839104,-0.002385802
2720.083333340357,0.004676011,-0.78070843,-0.0027637472,-2.3609326,-0.0024826922,1.5725218,0.7805648,0.039999995,0.04,-9.771794,-0.004264673683792353,-0.05877532,-0.032886595,0.014227432198822498,-0.0025077367
2720.100000007024,0.005014128,-0.7804232,-0.0029740948,-2.3612833,-0.0026759251,1.5726386,0.7801572,0.039999995,0.04,-9.770885,-0.004601874388754368,-0.06337353,-0.03450864,0.015601344406604767,-0.0026312016
2720.116666673691,0.0053683664,-0.7801247,-0.0031944797,-2.3616507,-0.0028783767,1.5727607,0.77973014,0.039999995,0.04,-9.770685,-0.004962669685482979,-0.06841468,-0.036163546,0.01700221188366413,-0.0027570194
2720.1333333403577,0.005739029,-0.7798127,-0.0034250878,-2.3620343,-0.0030902182,1.5728889,0.7792832,0.039999995,0.04,-9.769292,-0.005322448443621397,-0.073324926,-0.03785034,0.018429672345519066,-0.0028851265
2720.1500000070246,0.006126407,-0.77948684,-0.0036661022,-2.3624356,-0.0033116178,1.5730228,0.77881616,0.039999995,0.04,-9.768417,-0.00570405600592494,-0.078692704,-0.03956802,0.019888456910848618,-0.0030153608
2720.1666666736915,0.006530787,-0.7791469,-0.0039177006,-2.362854,-0.003542738,1.5731626,0.77832854,0.04,0.04,-9.768255,-0.006099873222410679,-0.08448778,-0.041316196,0.021373717114329338,-0.0031477362
2720.1833333403583,0.006952445,-0.77879256,-0.0041800556,-2.36329,-0.0037837382,1.5733085,0.77782017,0.04,0.04,-9.766861,-0.0064989193342626095,-0.09015592,-0.043094113,0.022883616387844086,-0.0032821482
2720.200000007025,0.0073916498,-0.77842396,-0.0044533373,-2.363744,-0.004034774,1.57346,0.7772907,0.04,0.04,-9.766092,-0.006914988160133362,-0.09630799,-0.04490165,0.024420563131570816,-0.0034185324
2720.216666673692,0.007848666,-0.77804047,-0.004737706,-2.3642166,-0.0042959927,1.5736179,0.7767398,0.04,0.04,-9.765319,-0.00733965914696455,-0.102662235,-0.04673784,0.025980636477470398,-0.0035567826
2720.233333340359,0.008323745,-0.7776421,-0.0050333226,-2.3647072,-0.0045675416,1.5737822,0.776167,0.04,0.04,-9.765263,-0.0077893901616334915,-0.109558016,-0.04860192,0.02756456658244133,-0.003696859
2720.250000007026,0.008817139,-0.7772285,-0.0053403415,-2.365217,-0.0048495615,1.5739526,0.7755721,0.04,0.04,-9.763808,-0.008226611651480198,-0.11629613,-0.05049268,0.029174404218792915,-0.0038381796
2720.2666666736927,0.009329081,-0.7767993,-0.0056589115,-2.365746,-0.0051421905,1.5741293,0.7749549,0.04,0.04,-9.763133,-0.008684147149324417,-0.123515375,-0.052409973,0.030804572626948357,-0.0039815186
2720.2833333403596,0.009859804,-0.77635455,-0.0059891753,-2.366294,-0.0054455595,1.5743128,0.77431506,0.039999995,0.039999995,-9.7624655,-0.009144499897956848,-0.1310443,-0.054353062,0.032455094158649445,-0.0041262745
2720.3000000070265,0.010409532,-0.775894,-0.0063312734,-2.3668613,-0.005759799,1.574503,0.77365226,0.039999995,0.039999995,-9.7624035,-0.00963443610817194,-0.13906133,-0.05632132,0.034128639847040176,-0.0042728037
2720.3166666736934,0.0109784845,-0.77541745,-0.006685342,-2.3674486,-0.006085031,1.5746994,0.77296627,0.04,0.04,-9.761028,-0.010106432251632214,-0.14693247,-0.058313724,0.03582258149981499,-0.0044206977
2720.3333333403602,0.011566866,-0.7749248,-0.0070515103,-2.3680556,-0.0064213756,1.5749027,0.772257,0.04,0.04,-9.760373,-0.01059317123144865,-0.15531908,-0.060329877,0.037534814327955246,-0.0045698844
2720.350000007027,0.01217488,-0.77441573,-0.0074299034,-2.368683,-0.0067689484,1.5751128,0.7715236,0.039999995,0.039999995,-9.75963,-0.011092488653957844,-0.16399458,-0.062369622,0.039268434047698975,-0.0047204597
2720.366666673694,0.012802723,-0.7738901,-0.007820644,-2.3693316,-0.0071278596,1.5753298,0.77076674,0.039999995,0.04,-9.759739,-0.011613793671131134,-0.1732145,-0.06443005,0.0410185270011425,-0.004873022
2720.383333340361,0.013450577,-0.7733476,-0.008223848,-2.3699996,-0.0074982163,1.5755537,0.7699857,0.04,0.04,-9.758472,-0.012098142877221107,-0.18228775,-0.066513754,0.042782027274370193,-0.0050258446
2720.4000000070278,0.014118613,-0.7727884,-0.008639622,-2.370689,-0.00788012,1.5757846,0.76918006,0.04,0.04,-9.757663,-0.012600919231772423,-0.1919031,-0.06861845,0.04456779360771179,-0.0051791067
2720.4166666736946,0.014807011,-0.77221215,-0.0090680765,-2.3713992,-0.00827367,1.5760225,0.76835006,0.039999995,0.04,-9.757786,-0.013140687718987465,-0.20202082,-0.070742354,0.04636819288134575,-0.0053342595
2720.4333333403615,0.015515929,-0.77161884,-0.009509312,-2.3721306,-0.008678952,1.5762672,0.7674953,0.04,0.04,-9.756438,-0.013630015775561333,-0.2120341,-0.07288693,0.0481829009950161,-0.005489815
2720.4500000070284,0.016245527,-0.7710083,-0.009963428,-2.372883,-0.009096065,1.5765191,0.7666155,0.039999995,0.04,-9.755775,-0.014139869250357151,-0.22256061,-0.075050436,0.05001204088330269,-0.0056456914
2720.4666666736953,0.016995953,-0.7703805,-0.010430522,-2.3736572,-0.009525091,1.5767783,0.76571065,0.04,0.04,-9.7551,-0.014657662250101566,-0.23341787,-0.077232145,0.05185612291097641,-0.0058031217
2720.483333340362,0.017767353,-0.76973504,-0.010910668,-2.3744528,-0.009966115,1.5770447,0.7647805,0.04,0.04,-9.7552185,-0.015185698866844177,-0.24482466,-0.07943142,0.05371351167559624,-0.005960286
2720.500000007029,0.018559853,-0.7690719,-0.011403959,-2.3752701,-0.010419205,1.5773185,0.76382494,0.04,0.04,-9.7538,-0.01567181758582592,-0.25609946,-0.081648305,0.05558422580361366,-0.006118743
2720.516666673696,0.01937358,-0.7683912,-0.011910473,-2.3761086,-0.010884438,1.5775998,0.76284367,0.04,0.04,-9.753153,-0.01617133989930153,-0.26794142,-0.083881386,0.05746667459607124,-0.006277231
2720.533333340363,0.020208657,-0.7676925,-0.012430285,-2.3769698,-0.011361881,1.5778884,0.76183665,0.04,0.04,-9.7523575,-0.016664525493979454,-0.28006876,-0.086129986,0.0593661405146122,-0.0064359033
2720.5500000070297,0.021065196,-0.76697606,-0.012963464,-2.3778527,-0.011851599,1.5781841,0.7608039,0.04,0.04,-9.752577,-0.017187070101499557,-0.29280314,-0.088393606,0.061272379010915756,-0.0065949457
2720.5666666736965,0.021943294,-0.7662414,-0.013510078,-2.3787577,-0.012353655,1.5784875,0.7597451,0.04,0.04,-9.751082,-0.017631949856877327,-0.30535173,-0.090672724,0.06318966299295425,-0.0067538163
2720.5833333403634,0.02284306,-0.7654887,-0.014070186,-2.3796852,-0.012868102,1.5787983,0.75866026,0.04,0.04,-9.750388,-0.018097437918186188,-0.31851354,-0.09296563,0.06511721014976501,-0.0069130766
2720.6000000070303,0.023764575,-0.7647179,-0.014643845,-2.3806353,-0.013394992,1.5791168,0.75754905,0.04,0.04,-9.749689,-0.018560567870736122,-0.33198047,-0.09527235,0.06705407053232193,-0.007072291
2720.616666673697,0.02470793,-0.7639288,-0.015231106,-2.3816082,-0.013934377,1.5794429,0.7564115,0.039999995,0.04,-9.7498,-0.01903926581144333,-0.3460221,-0.09759085,0.06899891793727875,-0.00723167
2720.633333340364,0.025673198,-0.7631211,-0.015832022,-2.3826036,-0.014486297,1.5797765,0.75524753,0.039999988,0.03999999,-9.748338,-0.019425053149461746,-0.35994068,-0.09992151,0.07094979286193848,-0.007390674
2720.650000007031,0.026660448,-0.7622955,-0.01644663,-2.3836215,-0.015050791,1.5801177,0.754057,0.039999988,0.03999999,-9.747576,-0.0198308564722538,-0.37444273,-0.10226371,0.0729082003235817,-0.0075494098
2720.666666673698,0.027669746,-0.7614515,-0.017074978,-2.3846624,-0.015627902,1.5804664,0.75284,0.039999984,0.039999988,-9.747567,-0.020268050953745842,-0.38947463,-0.10461682,0.07487572729587555,-0.0077076904
2720.6833333403647,0.028701155,-0.76058847,-0.017717103,-2.3857262,-0.016217656,1.5808227,0.7515963,0.039999977,0.03999998,-9.746022,-0.020590445026755333,-0.4043915,-0.106980614,0.07684790343046188,-0.007865648
2720.7000000070316,0.02975471,-0.7597074,-0.01837303,-2.3868127,-0.016820092,1.5811869,0.7503258,0.039999973,0.039999977,-9.745304,-0.02093559503555298,-0.41994187,-0.10935355,0.07882201671600342,-0.008023157
2720.7166666736985,0.030830467,-0.75880736,-0.019042784,-2.3879223,-0.017435223,1.5815587,0.7490285,0.039999966,0.03999997,-9.744384,-0.021251454949378967,-0.43576002,-0.111735605,0.08080636709928513,-0.008179905
2720.7333333403653,0.03192846,-0.757889,-0.019726394,-2.3890545,-0.01806307,1.5819383,0.7477043,0.03999996,0.039999966,-9.744434,-0.021596543490886688,-0.452218,-0.11412595,0.08279094845056534,-0.008336092
2720.750000007032,0.033048715,-0.7569519,-0.020423872,-2.3902094,-0.018703653,1.5823256,0.74635345,0.039999954,0.039999958,-9.742704,-0.021805856376886368,-0.46849382,-0.1165237,0.08478152006864548,-0.008491436
2720.766666673699,0.03419125,-0.75599605,-0.021135233,-2.3913875,-0.019356988,1.5827205,0.7449757,0.03999995,0.039999954,-9.741751,-0.02203180082142353,-0.4853755,-0.118929595,0.08677834272384644,-0.008645849
2720.783333340366,0.03535609,-0.7550216,-0.021860495,-2.3925889,-0.020023085,1.5831232,0.74357086,0.039999954,0.039999958,-9.740874,-0.02222827449440956,-0.50260246,-0.12134206,0.0887751653790474,-0.008799335
2720.800000007033,0.036543254,-0.7540286,-0.02259966,-2.3938131,-0.020701952,1.5835336,0.74213946,0.039999954,0.03999996,-9.74073,-0.022456130012869835,-0.5203983,-0.123759836,0.09077365696430206,-0.008952678
2720.8166666736997,0.037752733,-0.753017,-0.023352731,-2.3950603,-0.021393578,1.5839516,0.74068075,0.03999995,0.039999958,-9.73892,-0.02250460349023342,-0.538057,-0.1261849,0.09277540445327759,-0.009104011
2720.8333333403666,0.03898454,-0.7519867,-0.02411971,-2.3963304,-0.022097977,1.5843772,0.73919487,0.039999943,0.03999995,-9.737903,-0.022588452324271202,-0.5563008,-0.1286129,0.09477639943361282,-0.009254214
2720.8500000070335,0.040238645,-0.7509378,-0.024900595,-2.3976235,-0.022815146,1.5848105,0.7376827,0.03999994,0.039999947,-9.736785,-0.022624868899583817,-0.5748842,-0.13104402,0.09677977114915848,-0.0094029745
2720.8666666737004,0.041515037,-0.74987024,-0.025695372,-2.3989396,-0.023545071,1.5852517,0.73614347,0.039999936,0.039999943,-9.736525,-0.02268334850668907,-0.5940539,-0.13348186,0.09878186136484146,-0.009550524
2720.8833333403672,0.042813707,-0.74878395,-0.026504027,-2.4002788,-0.024287734,1.5857004,0.7345773,0.039999932,0.03999994,-9.734525,-0.022549085319042206,-0.613104,-0.13592207,0.10078611224889755,-0.00969649
2720.900000007034,0.04413463,-0.747679,-0.027326548,-2.401641,-0.025043126,1.5861567,0.73298436,0.039999932,0.03999994,-9.733372,-0.022439131513237953,-0.6327241,-0.13836454,0.10278671979904175,-0.009841046
2720.916666673701,0.04547776,-0.7465554,-0.02816291,-2.4030259,-0.025811227,1.586621,0.7313646,0.039999925,0.039999932,-9.732907,-0.022350657731294632,-0.6529216,-0.14080931,0.10478661209344864,-0.009983869
2720.933333340368,0.04684307,-0.7454133,-0.02901309,-2.4044333,-0.026592018,1.5870931,0.7297181,0.03999992,0.039999932,-9.730852,-0.02205708995461464,-0.6730076,-0.14325546,0.10678417235612869,-0.010125931
2720.9500000070348,0.048230503,-0.7442528,-0.029877068,-2.4058638,-0.027385473,1.5875727,0.7280448,0.039999917,0.03999993,-9.729429,-0.021766604855656624,-0.69364667,-0.14570251,0.10878317803144455,-0.010265105
2720.9666666737016,0.049640022,-0.7430738,-0.030754812,-2.407317,-0.028191563,1.5880601,0.726345,0.039999913,0.039999925,-9.728084,-0.021419107913970947,-0.71461385,-0.14814954,0.11077697575092316,-0.010402519
2720.9833333403685,0.051071577,-0.7418765,-0.031646274,-2.408793,-0.029010255,1.5885552,0.72461855,0.039999913,0.039999925,-9.727389,-0.021100450307130814,-0.7361647,-0.15059686,0.11276943236589432,-0.010537823
2721.0000000070354,0.052525084,-0.74066067,-0.032551445,-2.410292,-0.029841516,1.5890577,0.7228657,0.039999913,0.039999925,-9.725112,-0.02053283527493477,-0.75758034,-0.15304285,0.11475751549005508,-0.010671096
2721.0166666737023,0.054000504,-0.7394266,-0.033470266,-2.411813,-0.030685307,1.5895677,0.7210864,0.039999906,0.039999917,-9.723609,-0.019981632009148598,-0.7795817,-0.15548812,0.11673855036497116,-0.010802561
2721.033333340369,0.055497743,-0.73817414,-0.03440268,-2.4133573,-0.031541597,1.5900853,0.71928054,0.039999902,0.039999917,-9.721916,-0.019366201013326645,-0.8018986,-0.1579312,0.11871669441461563,-0.010932489
2721.050000007036,0.05701672,-0.73690367,-0.035348643,-2.4149241,-0.032410316,1.5906104,0.7174487,0.0399999,0.039999913,-9.721107,-0.018752876669168472,-0.82479745,-0.16037072,0.12068623304367065,-0.011059388
2721.066666673703,0.058557354,-0.73561484,-0.03630812,-2.4165118,-0.03329142,1.5911429,0.7155906,0.039999884,0.0399999,-9.718578,-0.017881441861391068,-0.8475521,-0.16280833,0.12265033274888992,-0.011183996
2721.08333334037,0.060119573,-0.7343081,-0.03728104,-2.4181218,-0.034184877,1.5916829,0.7137066,0.03999987,0.039999884,-9.716561,-0.01700344681739807,-0.87088835,-0.16524181,0.12461373209953308,-0.011305768
2721.1000000070367,0.061703257,-0.7329834,-0.038267348,-2.4197547,-0.03509065,1.5922302,0.71179646,0.039999858,0.039999872,-9.714682,-0.016055960208177567,-0.89451927,-0.16767189,0.12657058238983154,-0.011424934
2721.1166666737035,0.06330834,-0.731641,-0.039266985,-2.4214098,-0.036008637,1.592785,0.70986056,0.039999858,0.039999876,-9.713599,-0.015124678611755371,-0.9186909,-0.17009582,0.12851528823375702,-0.011542639
2721.1333333403704,0.0649347,-0.73028046,-0.040279895,-2.423087,-0.036938794,1.5933472,0.7078991,0.03999986,0.03999988,-9.710761,-0.013880430720746517,-0.9427744,-0.17251472,0.1304541677236557,-0.011656825
2721.1500000070373,0.06658222,-0.72890246,-0.041305993,-2.4247856,-0.037881073,1.5939165,0.7059121,0.039999854,0.039999872,-9.708693,-0.012647917494177818,-0.9674092,-0.17492826,0.1323826164007187,-0.011768451
2721.166666673704,0.0682508,-0.72750676,-0.042345222,-2.426506,-0.038835395,1.5944932,0.70389974,0.03999985,0.03999987,-9.7071905,-0.011425675824284554,-0.9925501,-0.17733541,0.13430388271808624,-0.011877073
2721.183333340371,0.06994029,-0.7260937,-0.04339748,-2.4282482,-0.03980169,1.5950772,0.7018621,0.03999985,0.03999987,-9.704143,-0.009877128526568413,-1.0175941,-0.17973566,0.13621707260608673,-0.011982692
2721.200000007038,0.07165058,-0.72466314,-0.044462726,-2.430012,-0.040779885,1.5956682,0.6997993,0.039999854,0.039999872,-9.701769,-0.008340700529515743,-1.043157,-0.18212806,0.13812145590782166,-0.012085221
2721.216666673705,0.07338156,-0.7232153,-0.045540858,-2.4317966,-0.041769918,1.5962665,0.6977115,0.039999854,0.039999876,-9.699392,-0.006689881905913353,-1.0690395,-0.18451262,0.14001213014125824,-0.012186064
2721.2333333403717,0.07513306,-0.72175014,-0.046631802,-2.4336028,-0.042771697,1.5968719,0.695599,0.039999846,0.03999987,-9.697455,-0.0050369249656796455,-1.0954452,-0.186888,0.1418975591659546,-0.012282447
2721.2500000070386,0.07690497,-0.7202681,-0.047735464,-2.4354298,-0.043785155,1.5974842,0.69346195,0.039999843,0.039999865,-9.694181,-0.003033825196325779,-1.1217393,-0.18925478,0.14376826584339142,-0.012375916
2721.2666666737055,0.07869709,-0.7187692,-0.048851762,-2.4372776,-0.04481021,1.5981036,0.69130063,0.039999835,0.039999858,-9.691374,-0.0010308818891644478,-1.1485311,-0.19161192,0.14563046395778656,-0.012465894
2721.2833333403723,0.08050936,-0.71725345,-0.0499806,-2.439146,-0.045846753,1.59873,0.6891151,0.039999824,0.03999985,-9.688536,0.001090202946215868,-1.1756215,-0.19395995,0.1474812626838684,-0.0125534795
2721.300000007039,0.082341574,-0.715721,-0.051121864,-2.4410362,-0.046894718,1.5993631,0.6869052,0.039999805,0.03999983,-9.686293,0.00321780052036047,-1.203221,-0.1962975,0.14932098984718323,-0.012636716
2721.316666673706,0.08419359,-0.7141717,-0.052275483,-2.442946,-0.04795401,1.6000032,0.68467164,0.039999794,0.039999824,-9.682696,0.00571491988375783,-1.2307109,-0.19862181,0.1511429250240326,-0.012717919
2721.333333340373,0.086065225,-0.7126064,-0.053441346,-2.444876,-0.049024545,1.6006503,0.68241423,0.039999783,0.039999813,-9.679485,0.008243179880082607,-1.2587317,-0.20093541,0.15295422077178955,-0.012794408
2721.35000000704,0.087956324,-0.7110246,-0.05461934,-2.446826,-0.05010622,1.601304,0.6801333,0.03999977,0.039999798,-9.676176,0.010899563319981098,-1.286977,-0.20323631,0.15475581586360931,-0.012866954
2721.3666666737067,0.08986671,-0.7094268,-0.05580937,-2.4487956,-0.05119894,1.6019645,0.67782897,0.039999757,0.039999787,-9.673492,0.01356581225991249,-1.3157327,-0.20552357,0.15654413402080536,-0.0129358
2721.3833333403736,0.091796234,-0.70781314,-0.057011325,-2.4507847,-0.0523026,1.6026316,0.6755016,0.03999976,0.039999794,-9.66929,0.016640352085232735,-1.3443636,-0.2077972,0.15831997990608215,-0.01300146
2721.4000000070405,0.09374468,-0.70618296,-0.05822509,-2.452794,-0.053417105,1.6033051,0.6731514,0.039999757,0.03999979,-9.665706,0.019732799381017685,-1.3734639,-0.2100571,0.16008184850215912,-0.013062491
2721.4166666737074,0.09571188,-0.7045375,-0.05945057,-2.4548225,-0.054542337,1.6039852,0.6707784,0.03999976,0.039999794,-9.662781,0.02283529005944729,-1.4030758,-0.2123022,0.16182373464107513,-0.013120229
2721.4333333403742,0.09769765,-0.7028767,-0.06068763,-2.4568698,-0.05567817,1.6046714,0.66838306,0.039999753,0.03999979,-9.658229,0.02636798843741417,-1.4325145,-0.21453154,0.16355374455451965,-0.013174673
2721.450000007041,0.09970179,-0.7012005,-0.061936133,-2.458937,-0.056824543,1.6053642,0.6659656,0.03999974,0.03999978,-9.654239,0.029922978952527046,-1.4624206,-0.21674556,0.16526930034160614,-0.01322502
2721.466666673708,0.10172411,-0.6995091,-0.06319599,-2.4610217,-0.05798131,1.6060634,0.66352624,0.039999723,0.039999764,-9.65027,0.03364000841975212,-1.492596,-0.21894363,0.16696636378765106,-0.013270695
2721.483333340375,0.10376439,-0.6978026,-0.064467065,-2.4631252,-0.059148367,1.6067688,0.6610651,0.03999971,0.03999975,-9.64658,0.03738580644130707,-1.5232015,-0.22112544,0.16865189373493195,-0.013311773
2721.5000000070418,0.10582245,-0.6960813,-0.06574921,-2.465247,-0.060325585,1.6074803,0.65858257,0.039999694,0.03999974,-9.641628,0.041580554097890854,-1.5537175,-0.22328947,0.170321986079216,-0.013349426
2721.5166666737086,0.10789809,-0.6943453,-0.06704233,-2.4673872,-0.061512873,1.6081977,0.65607876,0.039999686,0.03999973,-9.637177,0.045809775590896606,-1.5846277,-0.2254362,0.17197395861148834,-0.013382105
2721.5333333403755,0.109991066,-0.69259465,-0.06834626,-2.4695456,-0.062710084,1.6089214,0.6535541,0.03999967,0.039999716,-9.632642,0.05020884796977043,-1.6157995,-0.2275642,0.17360664904117584,-0.013410811
2721.5500000070424,0.11210115,-0.6908298,-0.06966091,-2.4717212,-0.063917086,1.6096513,0.6510087,0.039999656,0.039999705,-9.628555,0.05462955683469772,-1.647385,-0.22967389,0.1752210110425949,-0.01343618
2721.5666666737093,0.1142282,-0.68905085,-0.07098609,-2.4739146,-0.06513378,1.610387,0.6484428,0.039999638,0.039999686,-9.622996,0.059560827910900116,-1.6788666,-0.2317643,0.17682309448719025,-0.013455715
2721.583333340376,0.11637191,-0.68725795,-0.07232172,-2.4761252,-0.06636006,1.6111283,0.6458568,0.039999615,0.039999668,-9.61806,0.06450280547142029,-1.7107179,-0.23383407,0.17840377986431122,-0.013472
2721.600000007043,0.11853211,-0.6854513,-0.073667616,-2.4783523,-0.06759574,1.6118755,0.64325094,0.039999593,0.039999645,-9.612919,0.06964842230081558,-1.7428062,-0.23588426,0.17996665835380554,-0.013482872
2721.61666667371,0.12070851,-0.683631,-0.07502364,-2.4805965,-0.06884071,1.6126279,0.6406253,0.03999957,0.039999623,-9.608105,0.07482636719942093,-1.7752529,-0.23791362,0.18151351809501648,-0.013488783
2721.633333340377,0.12290094,-0.68179727,-0.07638966,-2.4828572,-0.07009484,1.6133856,0.6379806,0.03999956,0.039999615,-9.602192,0.08050835877656937,-1.8076221,-0.2399212,0.18303704261779785,-0.013491771
2721.6500000070437,0.12510912,-0.6799505,-0.07776554,-2.4851346,-0.071357995,1.6141487,0.6353166,0.039999552,0.039999608,-9.59662,0.08623476326465607,-1.8403404,-0.24190786,0.18454070389270782,-0.013489395
2721.6666666737106,0.12733284,-0.6780906,-0.07915109,-2.4874277,-0.072630025,1.6149174,0.6326339,0.039999537,0.039999597,-9.591443,0.09200525283813477,-1.8734099,-0.24387102,0.18602366745471954,-0.01348355
2721.6833333403774,0.12957188,-0.6762181,-0.080546185,-2.489736,-0.073910825,1.6156914,0.6299329,0.03999952,0.03999958,-9.58505,0.09830079972743988,-1.9064031,-0.24581169,0.18748605251312256,-0.01347223
2721.7000000070443,0.13182592,-0.6743329,-0.08195069,-2.49206,-0.07520025,1.6164706,0.6272136,0.03999951,0.03999957,-9.578885,0.10465408861637115,-1.9397191,-0.24772958,0.18893378973007202,-0.013455205
2721.716666673711,0.13409479,-0.6724354,-0.08336442,-2.4943993,-0.07649812,1.6172551,0.6244764,0.039999492,0.039999556,-9.572703,0.1112133339047432,-1.9732103,-0.24962385,0.1903594434261322,-0.013434423
2721.733333340378,0.13637818,-0.6705258,-0.084787235,-2.4967542,-0.077804305,1.6180444,0.6217218,0.039999485,0.03999955,-9.566907,0.11781947314739227,-2.0070229,-0.25149286,0.19176353514194489,-0.013408325
2721.750000007045,0.13867588,-0.66860414,-0.08621896,-2.4991238,-0.079118684,1.6188387,0.61894983,0.039999463,0.03999953,-9.55993,0.12496494501829147,-2.0407326,-0.25333846,0.19314511120319366,-0.013378659
2721.766666673712,0.14098758,-0.6666708,-0.08765948,-2.5015078,-0.08044108,1.6196378,0.61616087,0.039999448,0.039999515,-9.5533,0.13217508792877197,-2.0747576,-0.25515768,0.19450397789478302,-0.013343329
2721.7833333403787,0.14331302,-0.6647259,-0.089108564,-2.5039058,-0.081771374,1.6204419,0.6133554,0.039999433,0.039999504,-9.546435,0.13961941003799438,-2.108943,-0.25695172,0.19584235548973083,-0.013304242
2721.8000000070456,0.14565203,-0.6627699,-0.090566084,-2.5063174,-0.08310939,1.6212506,0.6105336,0.039999414,0.039999485,-9.539887,0.14711636304855347,-2.1434128,-0.25871998,0.19715900719165802,-0.013258981
2721.8166666737125,0.14800422,-0.6608027,-0.09203189,-2.5087433,-0.084454976,1.6220638,0.60769564,0.0399994,0.03999947,-9.532225,0.15516094863414764,-2.1777627,-0.26046115,0.19845618307590485,-0.013208409
2721.8333333403793,0.1503694,-0.65882474,-0.093505815,-2.511182,-0.08580795,1.6228815,0.6048422,0.039999384,0.03999946,-9.52501,0.16327784955501556,-2.21239,-0.2621749,0.1997256875038147,-0.013154853
2721.850000007046,0.1527473,-0.65683603,-0.09498766,-2.5136344,-0.087168224,1.623704,0.60197353,0.039999362,0.039999437,-9.5174265,0.17164143919944763,-2.2471538,-0.26386195,0.20097661018371582,-0.013095141
2721.866666673713,0.15513755,-0.65483713,-0.09647726,-2.516099,-0.088535614,1.6245303,0.5990897,0.03999934,0.039999418,-9.510229,0.18006086349487305,-2.2821858,-0.26552185,0.20220300555229187,-0.01303135
2721.88333334038,0.15754,-0.65282804,-0.09797444,-2.5185766,-0.089909926,1.6253608,0.59619135,0.039999317,0.039999396,-9.50191,0.1890655905008316,-2.3170593,-0.26715246,0.203407883644104,-0.012961419
2721.900000007047,0.15995432,-0.65080905,-0.099479064,-2.5210662,-0.09129104,1.6261955,0.59327835,0.039999295,0.039999377,-9.49398,0.1981150060892105,-2.3521962,-0.26875502,0.20458650588989258,-0.012888182
2721.9166666737137,0.1623802,-0.6487804,-0.10099091,-2.5235674,-0.09267881,1.6270343,0.59035146,0.03999928,0.039999362,-9.486158,0.20726895332336426,-2.3875515,-0.27032694,0.20574265718460083,-0.012808802
2721.9333333403806,0.1648174,-0.6467423,-0.10250981,-2.5260808,-0.09407303,1.627877,0.58741105,0.039999265,0.03999935,-9.477366,0.21699151396751404,-2.4227908,-0.2718699,0.20687685906887054,-0.012724667
2721.9500000070475,0.16726562,-0.64469486,-0.1040356,-2.5286052,-0.095473565,1.6287236,0.58445734,0.039999258,0.039999343,-9.468941,0.22678813338279724,-2.458236,-0.27338314,0.20798371732234955,-0.012635808
2721.9666666737144,0.16972455,-0.6426385,-0.10556811,-2.5311408,-0.09688025,1.629574,0.5814906,0.03999925,0.039999336,-9.460159,0.23684434592723846,-2.4937892,-0.2748658,0.20906925201416016,-0.012541055
2721.9833333403813,0.17219393,-0.64057344,-0.10710714,-2.5336869,-0.09829291,1.6304278,0.57851064,0.03999924,0.03999933,-9.451658,0.24698205292224884,-2.5294976,-0.27631772,0.21012794971466064,-0.012442757
2722.000000007048,0.17467347,-0.6384999,-0.10865254,-2.536244,-0.099711366,1.6312853,0.5755188,0.039999228,0.039999317,-9.442224,0.2577028274536133,-2.565098,-0.27773562,0.21116399765014648,-0.012338114
2722.016666673715,0.17716281,-0.6364183,-0.11020409,-2.538811,-0.10113548,1.632146,0.5725152,0.039999217,0.03999931,-9.433064,0.2684996426105499,-2.600868,-0.27912313,0.21217235922813416,-0.012230257
2722.033333340382,0.17966172,-0.6343286,-0.11176163,-2.5413878,-0.10256504,1.63301,0.5694998,0.039999206,0.0399993,-9.423622,0.27957507967948914,-2.636686,-0.28048,0.2131563127040863,-0.012116504
2722.0500000070488,0.18216988,-0.63223124,-0.11332498,-2.5439742,-0.103999935,1.6338773,0.566473,0.03999919,0.039999288,-9.414314,0.29073160886764526,-2.6726596,-0.28180316,0.2141140252351761,-0.011999066
2722.0666666737156,0.18468708,-0.63012636,-0.11489393,-2.5465705,-0.10543992,1.6347479,0.56343573,0.039999183,0.03999928,-9.404259,0.30246788263320923,-2.7085152,-0.28309247,0.2150467038154602,-0.011875445
2722.0833333403825,0.1872129,-0.62801427,-0.116468295,-2.549175,-0.10688487,1.6356212,0.560388,0.039999172,0.03999927,-9.394406,0.3142896890640259,-2.7445078,-0.28434986,0.21595093607902527,-0.011747869
2722.1000000070494,0.18974712,-0.6258951,-0.11804791,-2.551788,-0.1083346,1.6364976,0.55733,0.039999172,0.039999273,-9.384173,0.3263934850692749,-2.7805169,-0.28557453,0.21683143079280853,-0.011615905
2722.1166666737163,0.19228937,-0.6237693,-0.11963256,-2.5544095,-0.10978893,1.6373767,0.55426234,0.039999153,0.039999254,-9.374092,0.3386055827140808,-2.8166559,-0.2867638,0.21768638491630554,-0.011478013
2722.133333340383,0.19483934,-0.62163687,-0.12122206,-2.557039,-0.111247726,1.6382587,0.5511853,0.03999915,0.03999925,-9.36338,0.35137179493904114,-2.8526285,-0.28791976,0.2185140699148178,-0.011335764
2722.15000000705,0.19739674,-0.61949843,-0.1228162,-2.559676,-0.11271077,1.6391431,0.5480992,0.03999914,0.039999243,-9.352735,0.36425089836120605,-2.888726,-0.289041,0.21931487321853638,-0.011189606
2722.166666673717,0.19996129,-0.617354,-0.12441482,-2.5623205,-0.114177875,1.6400301,0.54500455,0.039999135,0.03999924,-9.342025,0.3772522807121277,-2.924854,-0.29012725,0.22009001672267914,-0.0110376105
2722.183333340384,0.20253262,-0.6152039,-0.12601773,-2.5649717,-0.115648896,1.6409197,0.54190165,0.03999913,0.03999924,-9.330839,0.39079564809799194,-2.9608874,-0.29117832,0.2208377867937088,-0.01088212
2722.2000000070507,0.20511043,-0.61304826,-0.12762475,-2.56763,-0.11712365,1.6418113,0.5387908,0.03999912,0.039999228,-9.319574,0.4044790267944336,-2.9969563,-0.29219463,0.22156037390232086,-0.01072085
2722.2166666737176,0.20769452,-0.6108876,-0.12923563,-2.5702946,-0.11860196,1.6427048,0.53567237,0.03999911,0.03999922,-9.30827,0.41840770840644836,-3.0330217,-0.29317477,0.2222518026828766,-0.010557069
2722.2333333403844,0.21028443,-0.60872203,-0.13085018,-2.5729656,-0.12008362,1.6436006,0.5325468,0.039999098,0.03999921,-9.296808,0.4324600398540497,-3.0690987,-0.29411787,0.22291620075702667,-0.010387371
2722.2500000070513,0.21287991,-0.6065518,-0.13246824,-2.5756428,-0.12156845,1.6444981,0.52941453,0.03999908,0.03999919,-9.2849455,0.44705823063850403,-3.1050637,-0.29502478,0.2235528826713562,-0.0102138
2722.266666673718,0.21548063,-0.6043772,-0.13408957,-2.5783248,-0.1230563,1.6453977,0.5262759,0.03999908,0.03999919,-9.273083,0.46177569031715393,-3.141041,-0.295895,0.22415907680988312,-0.010036773
2722.283333340385,0.21808626,-0.6021984,-0.13571405,-2.5810118,-0.124546975,1.6462989,0.5231312,0.039999083,0.0399992,-9.260914,0.4767649471759796,-3.1769862,-0.2967284,0.22473934292793274,-0.009855645
2722.300000007052,0.2206966,-0.6000157,-0.13734144,-2.5837038,-0.12604026,1.6472018,0.5199808,0.039999075,0.03999919,-9.248702,0.49189603328704834,-3.212909,-0.2975246,0.22529256343841553,-0.0096693365
2722.316666673719,0.22331111,-0.5978294,-0.13897154,-2.5864003,-0.12753601,1.6481063,0.5168253,0.03999907,0.039999187,-9.236184,0.50753253698349,-3.248711,-0.29828236,0.22581566870212555,-0.009479463
2722.3333333403857,0.2259296,-0.59564,-0.1406041,-2.5891008,-0.12903409,1.649012,0.51366496,0.039999068,0.039999187,-9.223567,0.5233123302459717,-3.2844708,-0.29900372,0.22631089389324188,-0.009286612
2722.3500000070526,0.2285518,-0.5934475,-0.142239,-2.5918052,-0.13053423,1.6499189,0.5105002,0.039999057,0.039999176,-9.210738,0.5393373370170593,-3.3201468,-0.29968673,0.22677776217460632,-0.009088836
2722.3666666737195,0.23117732,-0.59125215,-0.14387599,-2.594513,-0.13203627,1.6508272,0.5073314,0.039999053,0.039999172,-9.197838,0.5555101037025452,-3.3557978,-0.30033153,0.22721438109874725,-0.00888777
2722.3833333403863,0.23380587,-0.58905417,-0.14551486,-2.5972235,-0.13354,1.6517364,0.5041589,0.039999045,0.03999917,-9.184595,0.5721806883811951,-3.391313,-0.30093825,0.2276242971420288,-0.008683225
2722.400000007053,0.23643704,-0.58685404,-0.14715543,-2.599937,-0.1350453,1.6526467,0.5009832,0.039999038,0.03999916,-9.171248,0.5889935493469238,-3.4267564,-0.30150655,0.22800493240356445,-0.0084742615
2722.41666667372,0.2390706,-0.58465195,-0.14879753,-2.602653,-0.13655195,1.6535574,0.4978045,0.03999904,0.03999917,-9.157799,0.6059376001358032,-3.462104,-0.30203608,0.2283564656972885,-0.008261775
2722.433333340387,0.24170619,-0.5824482,-0.15044095,-2.605371,-0.13805977,1.6544693,0.49462324,0.039999045,0.039999172,-9.144123,0.6233575344085693,-3.4973102,-0.3025266,0.22867725789546967,-0.008047263
2722.450000007054,0.24434353,-0.580243,-0.15208544,-2.6080909,-0.13956861,1.6553816,0.49143982,0.03999903,0.03999916,-9.130266,0.6409313678741455,-3.5324416,-0.30297792,0.2289716750383377,-0.007828837
2722.4666666737207,0.24698222,-0.57803667,-0.15373087,-2.6108122,-0.14107819,1.6562942,0.48825473,0.03999904,0.03999917,-9.116293,0.6587534546852112,-3.5674355,-0.30338925,0.22923509776592255,-0.0076055657
2722.4833333403876,0.249622,-0.5758295,-0.15537691,-2.6135342,-0.1425884,1.6572076,0.48506835,0.039999038,0.03999917,-9.102102,0.6767060160636902,-3.6023066,-0.30376214,0.22946874797344208,-0.0073815673
2722.5000000070545,0.25226262,-0.57362163,-0.15702352,-2.6162574,-0.14409903,1.6581211,0.481881,0.03999904,0.039999172,-9.087755,0.6951245665550232,-3.6370525,-0.3040954,0.22967630624771118,-0.0071522463
2722.5166666737214,0.25490358,-0.5714135,-0.15867043,-2.6189814,-0.1456099,1.6590346,0.478693,0.03999904,0.039999172,-9.073328,0.7136624455451965,-3.6716514,-0.30438814,0.22985199093818665,-0.0069208946
2722.5333333403883,0.25754455,-0.5692053,-0.16031735,-2.6217055,-0.14712082,1.6599482,0.47550493,0.03999905,0.039999183,-9.058744,0.7324536442756653,-3.706092,-0.30464098,0.2299957275390625,-0.0066876984
2722.550000007055,0.26018527,-0.5669973,-0.16196415,-2.6244297,-0.1486316,1.6608618,0.4723171,0.039999053,0.039999187,-9.043856,0.7513929009437561,-3.7403984,-0.30485466,0.23011095821857452,-0.006452532
2722.566666673722,0.26282555,-0.5647898,-0.16361062,-2.627153,-0.1501421,1.6617752,0.46912986,0.039999057,0.039999194,-9.029067,0.7707340121269226,-3.774549,-0.30502763,0.2301940619945526,-0.0062156776
2722.583333340389,0.2654648,-0.56258297,-0.1652566,-2.6298747,-0.15165211,1.6626885,0.46594357,0.03999906,0.0399992,-9.013882,0.7902480959892273,-3.808526,-0.3051607,0.23024959862232208,-0.005974468
2722.6000000070558,0.2681029,-0.5603771,-0.16690187,-2.6325953,-0.15316142,1.6636012,0.46275875,0.039999064,0.039999202,-8.9985695,0.8100019097328186,-3.8423393,-0.305254,0.2302781641483307,-0.005730096
2722.6166666737226,0.27073947,-0.55817264,-0.16854626,-2.6353137,-0.15466984,1.6645135,0.4595758,0.03999906,0.0399992,-8.983076,0.8298667073249817,-3.875944,-0.30530712,0.23027543723583221,-0.005484221
2722.6333333403895,0.2733742,-0.55596966,-0.17018951,-2.6380312,-0.15617716,1.6654253,0.45639497,0.03999906,0.039999202,-8.9675865,0.8501303195953369,-3.9094043,-0.30532095,0.2302461862564087,-0.0052364888
2722.6500000070564,0.27600664,-0.5537685,-0.1718314,-2.6407473,-0.15768327,1.6663362,0.4532168,0.039999057,0.0399992,-8.95201,0.8705111742019653,-3.9426658,-0.30529332,0.23018431663513184,-0.0049870308
2722.6666666737233,0.2786366,-0.5515695,-0.17347175,-2.6434593,-0.15918797,1.6672462,0.4500416,0.03999905,0.03999919,-8.936149,0.8910372257232666,-3.9756825,-0.3052253,0.2300872504711151,-0.0047376812
2722.68333334039,0.28126383,-0.54937303,-0.17511038,-2.646169,-0.16069101,1.6681551,0.4468697,0.03999905,0.03999919,-8.920153,0.9119616746902466,-4.0085764,-0.30511802,0.22996759414672852,-0.0044840393
2722.700000007057,0.28388777,-0.54717904,-0.17674707,-2.6488757,-0.16219226,1.6690632,0.4437015,0.03999905,0.039999194,-8.904141,0.9329622387886047,-4.0412164,-0.30496934,0.2298145741224289,-0.0042312476
2722.716666673724,0.28650823,-0.5449879,-0.17838164,-2.6515784,-0.16369155,1.6699698,0.44053745,0.039999045,0.03999919,-8.887945,0.9542206525802612,-4.0736756,-0.3047802,0.22963203489780426,-0.003976453
2722.733333340391,0.28912497,-0.5428,-0.18001391,-2.6542778,-0.16518867,1.6708752,0.43737796,0.039999053,0.0399992,-8.871365,0.9756085276603699,-4.105837,-0.30455118,0.22941887378692627,-0.00372057
2722.7500000070577,0.29173768,-0.54061544,-0.18164364,-2.6569726,-0.16668344,1.6717795,0.43422332,0.03999906,0.039999206,-8.855143,0.9972888231277466,-4.1378903,-0.30428118,0.2291746288537979,-0.0034644145
2722.7666666737246,0.29434595,-0.53843474,-0.18327063,-2.659663,-0.16817571,1.6726822,0.43107402,0.03999906,0.039999206,-8.838508,1.0191199779510498,-4.1696873,-0.3039705,0.2289024144411087,-0.0032066347
2722.7833333403914,0.2969494,-0.536258,-0.1848947,-2.6623485,-0.16966523,1.6735834,0.42793033,0.03999907,0.03999922,-8.821804,1.0411254167556763,-4.201216,-0.30361977,0.2286001592874527,-0.0029489878
2722.8000000070583,0.29954785,-0.53408533,-0.18651563,-2.6650283,-0.17115186,1.6744826,0.42479274,0.039999075,0.039999224,-8.804719,1.0632851123809814,-4.2324595,-0.30322844,0.22826871275901794,-0.0026899714
2722.816666673725,0.30214095,-0.5319174,-0.18813324,-2.6677036,-0.1726354,1.6753799,0.42166156,0.03999908,0.039999228,-8.787978,1.0857126712799072,-4.26358,-0.30279696,0.22790761291980743,-0.0024302257
2722.833333340392,0.30472824,-0.529754,-0.18974733,-2.6703725,-0.17411572,1.6762754,0.41853723,0.039999075,0.039999224,-8.771032,1.1082391738891602,-4.294375,-0.3023246,0.2275131791830063,-0.002172108
2722.850000007059,0.30730948,-0.5275958,-0.1913577,-2.6730351,-0.17559256,1.6771686,0.41542017,0.039999075,0.039999224,-8.753826,1.1309858560562134,-4.324947,-0.30181313,0.22709031403064728,-0.0019136899
2722.866666673726,0.3098845,-0.52544284,-0.19296414,-2.6756911,-0.17706577,1.6780597,0.41231066,0.039999083,0.03999923,-8.736237,1.1538327932357788,-4.355171,-0.30126235,0.22663933038711548,-0.0016550801
2722.8833333403927,0.31245285,-0.52329546,-0.19456649,-2.6783402,-0.1785352,1.6789484,0.40920904,0.03999909,0.039999243,-8.71917,1.176903247833252,-4.3852863,-0.30067068,0.22615818679332733,-0.0013965688
2722.9000000070596,0.31501418,-0.5211537,-0.19616447,-2.680982,-0.18000063,1.6798348,0.40611577,0.039999098,0.03999925,-8.701684,1.2001011371612549,-4.415053,-0.30003935,0.22564786672592163,-0.0011388
2722.9166666737265,0.31756827,-0.51901823,-0.197758,-2.6836174,-0.18146193,1.680719,0.40303123,0.039999098,0.03999925,-8.683842,1.2234336137771606,-4.4445014,-0.29936853,0.2251075953245163,-0.00088177604
2722.9333333403933,0.3201148,-0.51688915,-0.19934683,-2.6862445,-0.18291888,1.6816006,0.39995575,0.039999098,0.03999925,-8.666605,1.2469135522842407,-4.4737997,-0.29865772,0.22453655302524567,-0.0006273855
2722.95000000706,0.3226534,-0.5147664,-0.20093079,-2.6888635,-0.18437137,1.6824793,0.3968898,0.0399991,0.039999254,-8.6488285,1.2705492973327637,-4.50275,-0.29790762,0.22393764555454254,-0.00037266876
2722.966666673727,0.32518384,-0.5126507,-0.20250967,-2.6914737,-0.18581912,1.6833555,0.39383367,0.03999911,0.03999926,-8.631059,1.2943235635757446,-4.5314355,-0.2971188,0.22330732643604279,-0.00011892662
2722.983333340394,0.32770583,-0.510542,-0.2040833,-2.694075,-0.18726204,1.6842285,0.39078766,0.03999911,0.03999926,-8.612731,1.318193793296814,-4.5597363,-0.2962914,0.22265277802944183,0.00013299813
2723.000000007061,0.33021894,-0.5084406,-0.20565145,-2.696668,-0.18869995,1.6850986,0.3877523,0.03999911,0.03999926,-8.595135,1.342217206954956,-4.5879345,-0.2954246,0.22196798026561737,0.00038408895
2723.0166666737277,0.332723,-0.5063468,-0.20721401,-2.6992514,-0.19013268,1.6859655,0.3847278,0.039999116,0.03999927,-8.57716,1.3663277626037598,-4.6157413,-0.29451948,0.2212529182434082,0.0006326466
2723.0333333403946,0.33521765,-0.50426096,-0.20877072,-2.7018256,-0.19156002,1.686829,0.3817145,0.039999124,0.039999276,-8.5591,1.3905537128448486,-4.6432643,-0.29357558,0.22050794959068298,0.0008785189
2723.0500000070615,0.33770263,-0.5021832,-0.21032138,-2.704389,-0.19298184,1.6876893,0.37871286,0.039999127,0.03999928,-8.540578,1.4148794412612915,-4.670379,-0.29259276,0.21973302960395813,0.0011218962
2723.0666666737284,0.34017754,-0.5001137,-0.21186587,-2.7069426,-0.19439791,1.6885462,0.3757233,0.039999135,0.039999288,-8.5226965,1.4393194913864136,-4.6974134,-0.29157212,0.2189318835735321,0.0013640577
2723.0833333403953,0.3426422,-0.49805287,-0.213404,-2.7094858,-0.19580813,1.6893996,0.37274596,0.039999146,0.0399993,-8.504404,1.463860034942627,-4.7240405,-0.29051477,0.2181038111448288,0.0016039513
2723.100000007062,0.34509635,-0.49600086,-0.21493559,-2.7120173,-0.19721231,1.6902493,0.36978126,0.039999153,0.039999306,-8.486199,1.488442063331604,-4.7503495,-0.2894185,0.2172439694404602,0.0018394885
2723.116666673729,0.34753957,-0.49395785,-0.21646044,-2.7145386,-0.19861028,1.6910952,0.36682978,0.03999916,0.039999317,-8.467256,1.5131747722625732,-4.776258,-0.28828508,0.2163613885641098,0.0020745567
2723.133333340396,0.34997162,-0.49192414,-0.21797834,-2.7170475,-0.20000187,1.6919372,0.3638916,0.039999172,0.03999933,-8.449432,1.5378941297531128,-4.8020687,-0.28711495,0.21544529497623444,0.0023039998
2723.1500000070628,0.35239232,-0.48990008,-0.21948919,-2.7195446,-0.20138691,1.6927754,0.36096725,0.03999918,0.039999336,-8.430865,1.562748908996582,-4.82746,-0.2859086,0.2145053893327713,0.002532012
2723.1666666737297,0.35480112,-0.48788568,-0.22099276,-2.7220306,-0.20276529,1.6936095,0.35805693,0.03999918,0.039999336,-8.411919,1.5876561403274536,-4.852416,-0.28466597,0.21353955566883087,0.0027571663
2723.1833333403965,0.35719806,-0.48588124,-0.22248888,-2.7245042,-0.20413676,1.6944393,0.355161,0.039999187,0.039999343,-8.394038,1.612555742263794,-4.877297,-0.28338662,0.21254093945026398,0.0029758145
2723.2000000070634,0.35958275,-0.4838872,-0.22397743,-2.726965,-0.20550127,1.695265,0.3522799,0.039999202,0.039999355,-8.375474,1.637539029121399,-4.9017577,-0.2820706,0.2115156203508377,0.0031910595
2723.2166666737303,0.36195487,-0.48190367,-0.22545815,-2.7294126,-0.20685859,1.6960865,0.3494139,0.039999217,0.039999373,-8.356918,1.6625803709030151,-4.925888,-0.28071937,0.21046480536460876,0.0034031135
2723.233333340397,0.36431417,-0.47993085,-0.22693093,-2.7318473,-0.20820858,1.6969035,0.3465633,0.039999224,0.039999377,-8.337807,1.6877007484436035,-4.9495754,-0.27933314,0.2093891203403473,0.0036130128
2723.250000007064,0.3666604,-0.47796896,-0.22839552,-2.7342684,-0.20955108,1.6977161,0.34372842,0.03999924,0.039999392,-8.319772,1.7127442359924316,-4.97319,-0.27791184,0.2082848697900772,0.0038164088
2723.266666673731,0.36899322,-0.4760182,-0.22985177,-2.7366753,-0.21088602,1.6985239,0.34090963,0.039999258,0.03999941,-8.301159,1.737863540649414,-4.9963694,-0.27645564,0.20715606212615967,0.004016766
2723.283333340398,0.37131238,-0.4740788,-0.23129962,-2.7390687,-0.21221316,1.699327,0.3381072,0.039999276,0.03999943,-8.282507,1.7630138397216797,-5.019221,-0.27496555,0.20600244402885437,0.0042133834
2723.3000000070647,0.37361768,-0.4721509,-0.2327388,-2.7414477,-0.21353231,1.7001255,0.33532152,0.03999929,0.039999444,-8.263499,1.7881898880004883,-5.0416017,-0.2734412,0.20481997728347778,0.0044036764
2723.3166666737316,0.3759089,-0.47023493,-0.23416919,-2.7438118,-0.21484342,1.700919,0.33255273,0.039999306,0.03999946,-8.245435,1.8132859468460083,-5.0639634,-0.2718834,0.20361262559890747,0.004589073
2723.3333333403984,0.37818572,-0.46833098,-0.23559065,-2.7461615,-0.21614626,1.7017075,0.32980135,0.039999314,0.039999466,-8.226789,1.8384413719177246,-5.085842,-0.2702918,0.20238251984119415,0.004771246
2723.3500000070653,0.38044775,-0.46643916,-0.23700298,-2.748496,-0.21744072,1.7024913,0.3270676,0.03999933,0.03999948,-8.208284,1.8635656833648682,-5.107398,-0.26866725,0.2011251449584961,0.00494683
2723.366666673732,0.38269487,-0.46455985,-0.23840603,-2.750815,-0.21872668,1.7032695,0.3243518,0.03999934,0.039999492,-8.189229,1.888745903968811,-5.1285,-0.26701072,0.19984333217144012,0.005116807
2723.383333340399,0.3849269,-0.46269318,-0.23979974,-2.7531185,-0.22000399,1.7040426,0.3216543,0.039999355,0.039999504,-8.171199,1.9137850999832153,-5.149539,-0.26532218,0.198537215590477,0.005281708
2723.400000007066,0.3871434,-0.46083948,-0.24118383,-2.7554066,-0.2212725,1.7048106,0.31897527,0.039999362,0.03999951,-8.152722,1.9388593435287476,-5.17014,-0.26360232,0.19720695912837982,0.00544197
2723.416666673733,0.3893444,-0.45899883,-0.24255824,-2.7576778,-0.22253205,1.705573,0.3163151,0.039999384,0.039999533,-8.133772,1.9639294147491455,-5.1902456,-0.26185042,0.19585183262825012,0.00559455
2723.4333333403997,0.39152944,-0.45717138,-0.2439227,-2.759933,-0.22378251,1.7063296,0.3136741,0.0399994,0.03999955,-8.1158,1.9888756275177002,-5.210341,-0.2600687,0.1944756805896759,0.005742989
2723.4500000070666,0.39369833,-0.45535746,-0.24527712,-2.7621715,-0.22502376,1.7070807,0.3110524,0.039999403,0.03999955,-8.097462,2.0137956142425537,-5.229957,-0.25825596,0.1930733323097229,0.005884974
2723.4666666737335,0.39585096,-0.45355716,-0.24662143,-2.7643936,-0.22625566,1.7078263,0.30845043,0.03999941,0.039999556,-8.079088,2.0386922359466553,-5.249267,-0.25641364,0.1916499137878418,0.006020831
2723.4833333404003,0.39798698,-0.45177066,-0.24795543,-2.7665987,-0.22747807,1.7085664,0.30586833,0.039999418,0.039999563,-8.060287,2.0635602474212646,-5.2680893,-0.25454053,0.19020076096057892,0.0061487
2723.5000000070672,0.40010613,-0.44999823,-0.24927899,-2.7687857,-0.22869089,1.7093006,0.30330655,0.039999425,0.03999957,-8.042612,2.0882527828216553,-5.286925,-0.25263855,0.18873165547847748,0.0062715667
2723.516666673734,0.40220827,-0.44824,-0.25059193,-2.7709558,-0.22989398,1.7100289,0.30076522,0.039999437,0.039999582,-8.024341,2.112955093383789,-5.305261,-0.25070933,0.18724246323108673,0.0063886223
2723.533333340401,0.40429318,-0.4464961,-0.25189415,-2.7731087,-0.23108725,1.7107513,0.29824463,0.03999945,0.039999593,-8.006277,2.137542724609375,-5.323279,-0.2487509,0.18572892248630524,0.0064989403
2723.550000007068,0.4063606,-0.44476688,-0.25318554,-2.7752428,-0.23227051,1.7114677,0.2957451,0.039999466,0.039999608,-7.987699,2.162123680114746,-5.340833,-0.24676387,0.1841915398836136,0.0066004624
2723.5666666737347,0.40841034,-0.44305238,-0.2544659,-2.777359,-0.2334437,1.712178,0.2932669,0.03999948,0.039999623,-7.9701824,2.186495542526245,-5.3583922,-0.24475129,0.18263797461986542,0.006697228
2723.5833333404016,0.41044226,-0.44135284,-0.2557352,-2.7794566,-0.23460667,1.7128823,0.29081017,0.039999496,0.039999638,-7.952309,2.210803270339966,-5.3754826,-0.24271138,0.1810615360736847,0.006786469
2723.6000000070685,0.41245607,-0.4396684,-0.25699314,-2.7815356,-0.23575932,1.7135801,0.28837523,0.03999952,0.03999966,-7.934422,2.2350337505340576,-5.3922544,-0.24064562,0.1794673353433609,0.0068699066
2723.6166666737354,0.41445163,-0.43799922,-0.25823972,-2.7835958,-0.23690155,1.7142717,0.28596225,0.039999537,0.03999968,-7.916063,2.259227752685547,-5.4085364,-0.2385538,0.1778511255979538,0.006945528
2723.6333333404023,0.41642863,-0.43634543,-0.25947487,-2.7856379,-0.2380332,1.714957,0.2835716,0.039999563,0.0399997,-7.898965,2.283135175704956,-5.4248714,-0.23643655,0.1762164831161499,0.007016238
2723.650000007069,0.418387,-0.43470722,-0.26069835,-2.78766,-0.23915415,1.7156358,0.28120342,0.039999586,0.039999723,-7.881505,2.3069815635681152,-5.4407234,-0.23429458,0.17455974221229553,0.007075998
2723.666666673736,0.42032653,-0.43308473,-0.2619101,-2.7896626,-0.2402644,1.7163079,0.27885792,0.039999608,0.039999742,-7.8632555,2.330854892730713,-5.4560905,-0.23212883,0.17288631200790405,0.007131157
2723.683333340403,0.42224708,-0.4314781,-0.26310998,-2.7916453,-0.24136367,1.7169734,0.2765354,0.039999623,0.039999757,-7.8465357,2.3543522357940674,-5.4715176,-0.22993918,0.17119312286376953,0.007177423
2723.70000000707,0.4241484,-0.42988747,-0.2642979,-2.7936082,-0.24245203,1.7176325,0.274236,0.03999962,0.039999753,-7.829141,2.3778369426727295,-5.4864726,-0.22772695,0.1694844514131546,0.007217984
2723.7166666737367,0.42603028,-0.4283132,-0.26547372,-2.7955518,-0.24352928,1.718285,0.2719599,0.039999623,0.039999757,-7.8119483,2.4011728763580322,-5.5011272,-0.22549222,0.16775871813297272,0.007251666
2723.7333333404035,0.42789257,-0.4267551,-0.2666376,-2.7974749,-0.24459533,1.7189307,0.26970735,0.03999963,0.03999976,-7.7942533,2.4244415760040283,-5.5152965,-0.22323476,0.16601413488388062,0.0072772373
2723.7500000070704,0.4297352,-0.42521358,-0.267789,-2.7993777,-0.24565019,1.7195696,0.26747867,0.03999964,0.039999772,-7.7778864,2.4473819732666016,-5.5295453,-0.22095686,0.16425476968288422,0.007294842
2723.7666666737373,0.431558,-0.4236886,-0.26892805,-2.8012598,-0.24669364,1.7202015,0.265274,0.039999653,0.03999978,-7.761038,2.470222234725952,-5.5433197,-0.21865763,0.1624775230884552,0.007306271
2723.783333340404,0.43336073,-0.4221804,-0.27005464,-2.8031213,-0.24772564,1.7208264,0.26309344,0.039999656,0.039999783,-7.7442465,2.492924928665161,-5.556806,-0.21633871,0.1606857031583786,0.007309972
2723.800000007071,0.43514323,-0.42068905,-0.27116856,-2.8049624,-0.24874613,1.7214445,0.2609372,0.03999968,0.039999805,-7.7269487,2.5155699253082275,-5.569814,-0.21400015,0.15887798368930817,0.007305811
2723.816666673738,0.4369054,-0.4192148,-0.27226985,-2.8067822,-0.24975495,1.7220556,0.2588055,0.039999686,0.03999981,-7.7111783,2.537785291671753,-5.5829406,-0.21164167,0.1570536196231842,0.0072944057
2723.833333340405,0.43864706,-0.41775763,-0.27335843,-2.808581,-0.250752,1.7226595,0.25669855,0.039999697,0.03999982,-7.694728,2.559967041015625,-5.595584,-0.20926549,0.15521793067455292,0.0072761243
2723.8500000070717,0.44036815,-0.41631758,-0.2744342,-2.8103585,-0.2517374,1.7232561,0.25461644,0.039999712,0.039999835,-7.6785054,2.581951141357422,-5.6079464,-0.2068718,0.1533670574426651,0.0072489628
2723.8666666737386,0.44206846,-0.41489488,-0.27549702,-2.8121147,-0.25271085,1.723846,0.25255936,0.039999723,0.039999843,-7.661689,2.6038782596588135,-5.619849,-0.2044606,0.15150214731693268,0.007215872
2723.8833333404054,0.44374788,-0.41348955,-0.27654678,-2.8138492,-0.25367236,1.7244287,0.25052744,0.03999973,0.03999985,-7.6464224,2.625342845916748,-5.6318874,-0.20203272,0.14962485432624817,0.007174467
2723.9000000070723,0.4454064,-0.4121018,-0.2775835,-2.8155622,-0.25462198,1.7250037,0.24852078,0.03999974,0.039999854,-7.630572,2.646754026412964,-5.643448,-0.199589,0.14773523807525635,0.007127069
2723.916666673739,0.4470438,-0.4107317,-0.2786071,-2.8172534,-0.25555936,1.7255715,0.24653964,0.039999753,0.03999987,-7.61419,2.66806697845459,-5.6545453,-0.19712888,0.1458318680524826,0.0070708953
2723.933333340406,0.4486599,-0.4093794,-0.27961743,-2.8189228,-0.25648457,1.726132,0.24458411,0.039999764,0.03999988,-7.5993376,2.6889288425445557,-5.66579,-0.19465461,0.14391778409481049,0.0070070866
2723.950000007073,0.4502545,-0.40804496,-0.28061444,-2.82057,-0.2573977,1.726685,0.24265438,0.039999772,0.039999884,-7.5839386,2.7097136974334717,-5.6765733,-0.19216654,0.14199316501617432,0.006937003
2723.96666667374,0.45182782,-0.4067284,-0.28159815,-2.8221948,-0.25829858,1.7272305,0.24075048,0.039999783,0.039999895,-7.5687075,2.7302701473236084,-5.6870914,-0.18966538,0.14005719125270844,0.006858515
2723.9833333404067,0.45337948,-0.40542978,-0.28256837,-2.8237975,-0.25918713,1.7277687,0.23887257,0.039999805,0.039999913,-7.5528593,2.750762701034546,-5.697172,-0.18715145,0.13811162114143372,0.0067743855
2724.0000000070736,0.4549095,-0.40414926,-0.2835252,-2.8253784,-0.26006335,1.7282995,0.23702078,0.03999982,0.039999925,-7.538643,2.7707462310791016,-5.7074075,-0.18462555,0.13615642488002777,0.006683613
2724.0166666737405,0.45641792,-0.40288693,-0.2844684,-2.8269365,-0.2609271,1.7288227,0.23519523,0.03999984,0.039999943,-7.5239677,2.7906131744384766,-5.7172036,-0.18208759,0.13419044017791748,0.006582867
2724.0333333404074,0.45790452,-0.4016428,-0.285398,-2.828472,-0.2617784,1.7293383,0.23339598,0.039999858,0.039999958,-7.5092707,2.8102846145629883,-5.72676,-0.17953913,0.1322176307439804,0.006478193
2724.0500000070742,0.45936912,-0.400417,-0.28631398,-2.8299863,-0.26261714,1.7298462,0.23162313,0.039999884,0.039999984,-7.4941063,2.829850673675537,-5.735868,-0.17698058,0.13023662567138672,0.006366614
2724.066666673741,0.46081182,-0.3992096,-0.28721625,-2.8314772,-0.26344338,1.7303469,0.22987677,0.039999902,0.04,-7.480762,2.84883713722229,-5.745154,-0.17441119,0.12824219465255737,0.0062434953
2724.083333340408,0.46223253,-0.39802045,-0.2881048,-2.8329453,-0.26425704,1.7308401,0.22815706,0.039999925,0.04,-7.466499,2.8678250312805176,-5.7540164,-0.17183405,0.12624622881412506,0.0061167725
2724.100000007075,0.46363106,-0.39684972,-0.2889796,-2.8343909,-0.26505804,1.7313254,0.22646393,0.039999932,0.04,-7.4525833,2.886535167694092,-5.7626586,-0.16924898,0.12424298375844955,0.0059853178
2724.1166666737417,0.46500745,-0.39569762,-0.28984058,-2.8358135,-0.26584628,1.731803,0.22479752,0.039999943,0.04,-7.4381065,2.905125856399536,-5.7708483,-0.16665664,0.12223316729068756,0.005844236
2724.1333333404086,0.46636176,-0.39456406,-0.29068774,-2.8372128,-0.26662213,1.732273,0.2231579,0.039999954,0.04,-7.425246,2.9231817722320557,-5.779241,-0.16405782,0.12021905183792114,0.005696912
2724.1500000070755,0.46769384,-0.39344907,-0.29152104,-2.8385897,-0.26738513,1.7327352,0.2215451,0.039999973,0.04,-7.411799,2.9411447048187256,-5.787204,-0.16145308,0.11819963902235031,0.005546038
2724.1666666737424,0.46900356,-0.39235264,-0.2923404,-2.8399436,-0.2681354,1.7331898,0.21995917,0.039999995,0.04,-7.3979073,2.95896315574646,-5.79476,-0.15884277,0.11617482453584671,0.005386472
2724.1833333404093,0.47029102,-0.39127484,-0.29314584,-2.8412745,-0.26887283,1.7336369,0.21840015,0.039999988,0.04,-7.385595,2.976261854171753,-5.802519,-0.15622799,0.11414648592472076,0.00522198
2724.200000007076,0.47155625,-0.39021572,-0.29393756,-2.8425822,-0.26959753,1.734076,0.2168681,0.03999999,0.04,-7.3727055,2.993443250656128,-5.8098717,-0.15360966,0.11211636662483215,0.005052168
2724.216666673743,0.47279915,-0.38917524,-0.29471514,-2.8438666,-0.27030945,1.7345076,0.21536295,0.039999988,0.04,-7.36004,3.0103561878204346,-5.8170013,-0.15098886,0.11008307337760925,0.0048755896
2724.23333334041,0.47401962,-0.38815337,-0.29547888,-2.8451283,-0.2710086,1.7349312,0.2138849,0.039999984,0.04,-7.34677,3.0271613597869873,-5.8237557,-0.14836526,0.10804948955774307,0.00469616
2724.250000007077,0.4752177,-0.38715035,-0.29622862,-2.8463666,-0.271695,1.7353469,0.21243383,0.039999988,0.04,-7.3352504,3.0433666706085205,-5.8307,-0.14574108,0.10601381957530975,0.004505011
2724.2666666737437,0.47639352,-0.38616592,-0.2969644,-2.8475816,-0.27236858,1.735755,0.21100974,0.03999999,0.04,-7.323126,3.059516668319702,-5.8372464,-0.14311597,0.10397505015134811,0.0043156026
2724.2833333404105,0.47754693,-0.3852002,-0.29768628,-2.8487737,-0.27302942,1.7361553,0.20961262,0.03999999,0.04,-7.3111567,3.0753328800201416,-5.843627,-0.14049126,0.10193991661071777,0.004115821
2724.3000000070774,0.47867805,-0.38425317,-0.29839426,-2.849943,-0.27367744,1.736548,0.20824252,0.039999995,0.04,-7.2987266,3.0910723209381104,-5.8495946,-0.13786738,0.09990305453538895,0.0039147
2724.3166666737443,0.47978684,-0.3833247,-0.29908827,-2.8510892,-0.2743127,1.7369329,0.20689937,0.03999999,0.04,-7.28793,3.1062092781066895,-5.855812,-0.13524497,0.09786786884069443,0.0037082038
2724.333333340411,0.48087335,-0.38241494,-0.29976833,-2.8522124,-0.27493522,1.7373102,0.2055832,0.039999988,0.04,-7.2766304,3.121218681335449,-5.861642,-0.1326245,0.09583240747451782,0.0034957516
2724.350000007078,0.4819376,-0.38152382,-0.30043453,-2.853313,-0.275545,1.7376795,0.20429388,0.03999999,0.04,-7.265437,3.1359782218933105,-5.867288,-0.13000806,0.09380054473876953,0.0032805572
2724.366666673745,0.48297963,-0.38065132,-0.30108693,-2.8543904,-0.276142,1.7380412,0.20303139,0.039999995,0.04,-7.253837,3.1505746841430664,-5.872559,-0.12739472,0.09176920354366302,0.0030596952
2724.383333340412,0.48399937,-0.3797972,-0.30172542,-2.8554451,-0.27672642,1.7383955,0.20179576,0.04,0.04,-7.243765,3.164628028869629,-5.878073,-0.1247865,0.08974311500787735,0.002834269
2724.4000000070787,0.48499706,-0.37896168,-0.30235016,-2.8564773,-0.27729812,1.7387419,0.20058681,0.039999995,0.04,-7.233258,3.178537368774414,-5.883232,-0.12218402,0.08771967887878418,0.002605052
2724.4166666737456,0.4859727,-0.3781446,-0.30296105,-2.8574855,-0.27785724,1.7390808,0.19940454,0.04,0.04,-7.2221837,3.192317247390747,-5.8880053,-0.11958764,0.08570066094398499,0.0023714134
2724.4333333404124,0.48692632,-0.37734598,-0.30355826,-2.8584714,-0.27840376,1.7394122,0.19824883,0.04,0.04,-7.212582,3.2055673599243164,-5.893038,-0.11699971,0.08369148522615433,0.0021381371
2724.4500000070793,0.48785803,-0.37656567,-0.30414164,-2.8594346,-0.27893782,1.739736,0.19711961,0.039999995,0.04,-7.2026687,3.2186198234558105,-5.897704,-0.11441962,0.08168783038854599,0.0018997391
2724.466666673746,0.48876786,-0.37580362,-0.3047115,-2.8603754,-0.27945936,1.7400522,0.19601685,0.04,0.04,-7.192873,3.2314133644104004,-5.9022226,-0.11184827,0.07969023287296295,0.0016599633
2724.483333340413,0.4896559,-0.37505972,-0.3052678,-2.861294,-0.2799684,1.7403609,0.1949404,0.039999988,0.04,-7.1826634,3.244061231613159,-5.9063926,-0.10928674,0.07769996672868729,0.001414787
2724.50000000708,0.49052233,-0.37433398,-0.30581057,-2.8621905,-0.28046513,1.7406621,0.1938901,0.04,0.04,-7.1740093,3.256138801574707,-5.91081,-0.106735826,0.07571627199649811,0.0011668385
2724.516666673747,0.49136725,-0.37362626,-0.30633983,-2.8630645,-0.28094938,1.7409555,0.19286592,0.03999999,0.04,-7.164859,3.26808762550354,-5.914897,-0.104195595,0.07374091446399689,0.00091628096
2724.5333333404137,0.49219063,-0.37293646,-0.3068557,-2.8639162,-0.28142136,1.7412416,0.19186765,0.04,0.04,-7.1558557,3.2797062397003174,-5.918841,-0.10166819,0.07177697867155075,0.0006541931
2724.5500000070806,0.49299258,-0.37226456,-0.3073583,-2.8647456,-0.28188118,1.74152,0.19089521,0.039999995,0.04,-7.146391,3.2912988662719727,-5.9224415,-0.099154085,0.06982142478227615,0.00039722532
2724.5666666737475,0.4937734,-0.37161034,-0.30784753,-2.865553,-0.2823288,1.7417915,0.18994844,0.04,0.04,-7.138436,3.30228853225708,-5.926285,-0.09665507,0.06787725538015366,0.00013885419
2724.5833333404144,0.49453318,-0.37097383,-0.3083236,-2.8663385,-0.28276438,1.7420558,0.1890272,0.04,0.04,-7.130046,3.313075065612793,-5.9298472,-0.09417082,0.06594837456941605,-0.0001291368
2724.6000000070812,0.495272,-0.37035486,-0.30878654,-2.8671029,-0.28318796,1.7423127,0.18813127,0.03999999,0.04,-7.1218014,3.3237144947052,-5.9332423,-0.09170241,0.06402818858623505,-0.00038316305
2724.616666673748,0.49598995,-0.3697533,-0.30923653,-2.8678458,-0.2835997,1.7425624,0.18726052,0.04,0.04,-7.1132264,3.334074020385742,-5.9363422,-0.08924987,0.0621207058429718,-0.00064725557
2724.633333340415,0.49668723,-0.369169,-0.30967373,-2.8685672,-0.28399953,1.7428049,0.18641478,0.039999995,0.04,-7.106076,3.3439621925354004,-5.93968,-0.08681528,0.06022552028298378,-0.00090922415
2724.650000007082,0.49736407,-0.36860183,-0.310098,-2.869268,-0.2843876,1.7430401,0.18559383,0.039999995,0.04,-7.0984488,3.3537025451660156,-5.9427147,-0.08439974,0.05834578722715378,-0.0011736226
2724.6666666737488,0.49802062,-0.36805165,-0.31050953,-2.8699472,-0.28476408,1.7432684,0.18479744,0.04,0.04,-7.0904074,3.3633029460906982,-5.9454446,-0.08200316,0.05647773668169975,-0.001436744
2724.6833333404156,0.49865696,-0.36751837,-0.31090844,-2.870605,-0.2851291,1.7434896,0.18402542,0.04,0.04,-7.0837727,3.372384786605835,-5.948438,-0.0796265,0.05462531000375748,-0.001695178
2724.7000000070825,0.49927318,-0.36700177,-0.31129488,-2.8712428,-0.28548247,1.7437038,0.18327764,0.03999999,0.04,-7.076639,3.381309986114502,-5.951127,-0.0772725,0.05279390513896942,-0.0019580454
2724.7166666737494,0.49986967,-0.3665018,-0.31166896,-2.8718605,-0.28582466,1.7439114,0.18255372,0.03999999,0.04,-7.0698714,3.389957904815674,-5.9536986,-0.07494063,0.05097592622041702,-0.0022200395
2724.7333333404163,0.50044656,-0.36601815,-0.31203088,-2.8724577,-0.28615558,1.7441119,0.1818535,0.039999995,0.04,-7.062585,3.39849591255188,-5.9559984,-0.072631344,0.04917523264884949,-0.0024800405
2724.750000007083,0.5010044,-0.36555085,-0.31238076,-2.873035,-0.28647542,1.7443058,0.18117672,0.03999999,0.04,-7.056719,3.406482219696045,-5.9585304,-0.070346355,0.0473930798470974,-0.0027421429
2724.76666667375,0.50154287,-0.36509952,-0.3127186,-2.8735929,-0.28678423,1.744493,0.18052317,0.03999999,0.04,-7.05037,3.414351463317871,-5.960811,-0.06808574,0.045631252229213715,-0.0030018778
2724.783333340417,0.5020623,-0.364664,-0.31304446,-2.8741307,-0.28708225,1.7446738,0.17989253,0.039999988,0.04,-7.0442977,3.4219579696655273,-5.9629683,-0.065851256,0.04388713836669922,-0.0032616607
2724.800000007084,0.50256294,-0.36424413,-0.3133587,-2.874649,-0.28736964,1.7448481,0.17928453,0.03999999,0.04,-7.0377035,3.429466724395752,-5.964872,-0.06364435,0.04216590151190758,-0.003520185
2724.8166666737507,0.5030453,-0.36383975,-0.3136615,-2.8751488,-0.28764644,1.7450159,0.1786989,0.039999977,0.04,-7.032469,3.4364726543426514,-5.9669952,-0.061466403,0.04046756029129028,-0.0037750225
2724.8333333404175,0.5035093,-0.3634505,-0.31395286,-2.8756292,-0.28791276,1.7451773,0.17813519,0.03999998,0.04,-7.0269375,3.4432945251464844,-5.968875,-0.059316225,0.0387888140976429,-0.004030903
2724.8500000070844,0.5039554,-0.3630764,-0.314233,-2.8760915,-0.28816873,1.7453327,0.17759334,0.039999973,0.04,-7.021435,3.4499502182006836,-5.9706483,-0.057196856,0.037134915590286255,-0.0042827283
2724.8666666737513,0.5043839,-0.36271712,-0.314502,-2.8765352,-0.2884146,1.7454818,0.1770729,0.03999997,0.04,-7.015663,3.4564125537872314,-5.972197,-0.05510787,0.03550437092781067,-0.004533249
2724.883333340418,0.50479496,-0.3623725,-0.3147601,-2.876961,-0.28865048,1.7456248,0.1765736,0.039999966,0.04,-7.011066,3.4624359607696533,-5.973962,-0.05305082,0.0338987298309803,-0.0047780587
2724.900000007085,0.5051888,-0.36204216,-0.31500745,-2.8773692,-0.28887662,1.7457621,0.17609507,0.039999966,0.04,-7.006135,3.4683265686035156,-5.975472,-0.051027223,0.03231801837682724,-0.005022274
2724.916666673752,0.5055658,-0.36172596,-0.3152444,-2.8777597,-0.2890931,1.7458931,0.17563693,0.03999997,0.04,-7.000867,3.474090099334717,-5.9767756,-0.049036946,0.030764266848564148,-0.005264251
2724.933333340419,0.50592613,-0.36142364,-0.31547087,-2.8781333,-0.28930008,1.7460188,0.17519884,0.039999966,0.04,-6.996729,3.479424238204956,-5.9782596,-0.047082715,0.029237300157546997,-0.005503263
2724.9500000070857,0.5062702,-0.3611349,-0.31568724,-2.87849,-0.28949773,1.7461386,0.17478044,0.03999996,0.04,-6.992295,3.4846131801605225,-5.9795465,-0.04516418,0.0277390293776989,-0.005740307
2724.9666666737526,0.5065984,-0.36085942,-0.31589353,-2.8788304,-0.2896862,1.7462531,0.17438135,0.039999954,0.04,-6.987952,3.48962140083313,-5.9807425,-0.043283425,0.026269519701600075,-0.0059721926
2724.9833333404194,0.5069111,-0.36059716,-0.3160901,-2.8791544,-0.28986582,1.7463623,0.17400122,0.03999996,0.04,-6.9833345,3.4944772720336914,-5.9817467,-0.04143974,0.024829071015119553,-0.006200862
2725.0000000070863,0.50720847,-0.36034766,-0.31627712,-2.8794625,-0.2900367,1.7464659,0.17363949,0.039999958,0.04,-6.9797287,3.498945713043213,-5.982929,-0.039636016,0.023420700803399086,-0.006422697
2725.016666673753,0.5074908,-0.36011058,-0.31645477,-2.8797553,-0.29019898,1.7465644,0.17329593,0.039999966,0.04,-6.975871,3.5032849311828613,-5.9839025,-0.037872236,0.022042425349354744,-0.0066423486
2725.03333334042,0.5077585,-0.35988575,-0.3166233,-2.880033,-0.29035285,1.7466575,0.17296998,0.03999996,0.04,-6.9721255,3.5074455738067627,-5.9848113,-0.036150448,0.020696187391877174,-0.006856441
2725.050000007087,0.50801235,-0.35967293,-0.31678286,-2.8802962,-0.29049852,1.7467463,0.17266126,0.039999958,0.04,-6.9680934,3.511474609375,-5.9855213,-0.034470737,0.01938188634812832,-0.0070686233
2725.066666673754,0.50825197,-0.35947162,-0.31693378,-2.880545,-0.2906364,1.74683,0.17236933,0.039999958,0.04,-6.965054,3.515103578567505,-5.986462,-0.032833245,0.01810384728014469,-0.0072741676
2725.0833333404207,0.5084781,-0.35928163,-0.31707627,-2.8807793,-0.29076654,1.7469087,0.17209376,0.039999958,0.04,-6.9616714,3.518702983856201,-5.987152,-0.031241825,0.01685982197523117,-0.0074745277
2725.1000000070876,0.5086913,-0.3591026,-0.31721056,-2.8810005,-0.29088908,1.7469829,0.17183405,0.03999995,0.04,-6.9584136,3.522092819213867,-5.987789,-0.029696688,0.015651075169444084,-0.007669154
2725.1166666737545,0.50889176,-0.35893416,-0.31733698,-2.8812087,-0.2910044,1.747053,0.17158975,0.03999995,0.04,-6.9549723,3.5253372192382812,-5.9882894,-0.028197018,0.014477754943072796,-0.007860674
2725.1333333404214,0.5090799,-0.35877603,-0.31745562,-2.881404,-0.2911127,1.747119,0.17136034,0.039999954,0.04,-6.9523363,3.5283145904541016,-5.988935,-0.026746374,0.013343192636966705,-0.008044528
2725.1500000070882,0.5092563,-0.3586279,-0.31756687,-2.8815875,-0.29121417,1.7471808,0.1711453,0.03999995,0.04,-6.9494576,3.5311625003814697,-5.989415,-0.025344424,0.012246313504874706,-0.008222354
2725.166666673755,0.50942105,-0.35848933,-0.3176709,-2.8817587,-0.29130906,1.7472386,0.17094412,0.03999995,0.04,-6.946362,3.53391432762146,-5.989753,-0.023991572,0.011188038624823093,-0.008395229
2725.183333340422,0.509575,-0.35836,-0.3177681,-2.8819187,-0.2913977,1.7472925,0.17075633,0.039999954,0.04,-6.943969,3.536412239074707,-5.9902153,-0.022691252,0.010171460919082165,-0.008561222
2725.200000007089,0.5097181,-0.35823947,-0.31785867,-2.882068,-0.29148024,1.7473426,0.17058133,0.03999995,0.04,-6.9413815,3.5387959480285645,-5.9905434,-0.02144299,0.009195121005177498,-0.00872036
2725.2166666737558,0.5098513,-0.35812742,-0.31794286,-2.8822057,-0.291557,1.7473892,0.17041856,0.039999954,0.04,-6.9389668,3.541032314300537,-5.9908085,-0.02024857,0.008258989080786705,-0.0088758655
2725.2333333404226,0.5099748,-0.35802343,-0.31802097,-2.8823342,-0.29162824,1.7474326,0.17026749,0.039999954,0.04,-6.9360776,3.5432629585266113,-5.99095,-0.019109746,0.007369617000222206,-0.009019204
2725.2500000070895,0.5100891,-0.35792714,-0.31809327,-2.8824549,-0.2916942,1.7474726,0.17012757,0.039999954,0.04,-6.934184,3.54512619972229,-5.991237,-0.018025625,0.006521256640553474,-0.0091599785
2725.2666666737564,0.5101948,-0.35783827,-0.31816015,-2.8825653,-0.2917551,1.7475102,0.16999823,0.03999995,0.04,-6.932074,3.54693603515625,-5.991384,-0.016996806,0.005712173413485289,-0.009295451
2725.2833333404233,0.51029223,-0.35775626,-0.31822205,-2.882666,-0.2918114,1.7475443,0.16987881,0.039999947,0.04,-6.9297485,3.548719882965088,-5.9914904,-0.01602785,0.004955064505338669,-0.009421227
2725.30000000709,0.5103819,-0.3576805,-0.31827906,-2.8827586,-0.29186326,1.7475756,0.16976875,0.03999995,0.04,-6.9272614,3.5504636764526367,-5.9914594,-0.015120272,0.004246648401021957,-0.009536403
2725.316666673757,0.51046455,-0.35761082,-0.31833142,-2.8828444,-0.291911,1.7476051,0.16966738,0.03999995,0.04,-6.925428,3.551945209503174,-5.991545,-0.01427395,0.0035853080917149782,-0.009645273
2725.333333340424,0.5105404,-0.35754666,-0.3183797,-2.8829257,-0.2919549,1.7476315,0.16957408,0.039999947,0.04,-6.923472,3.553339719772339,-5.9915695,-0.013487519,0.0029727390501648188,-0.009744523
2725.350000007091,0.51061,-0.35748783,-0.3184241,-2.883,-0.29199535,1.7476563,0.16948824,0.039999947,0.04,-6.9218636,3.5545787811279297,-5.991526,-0.012760623,0.0023976049851626158,-0.009845043
2725.3666666737577,0.5106741,-0.35743368,-0.31846488,-2.883067,-0.2920325,1.7476786,0.16940926,0.039999947,0.04,-6.919757,3.555907726287842,-5.9914384,-0.012093449,0.0018737063510343432,-0.009935321
2725.3833333404245,0.510733,-0.35738385,-0.31850246,-2.8831267,-0.2920667,1.7476999,0.1693366,0.039999947,0.04,-6.91812,3.557037353515625,-5.9914556,-0.011480676,0.001393939252011478,-0.010016688
2725.4000000070914,0.5107871,-0.35733798,-0.3185371,-2.883185,-0.29209813,1.7477186,0.16926971,0.03999995,0.04,-6.916372,3.5581700801849365,-5.991417,-0.010919805,0.0009615089511498809,-0.010084729
2725.4166666737583,0.5108369,-0.35729587,-0.3185689,-2.8832366,-0.2921271,1.7477368,0.1692082,0.039999947,0.04,-6.9152617,3.5590128898620605,-5.9913487,-0.010399753,0.0005499465623870492,-0.01015856
2725.433333340425,0.51088274,-0.3572571,-0.31859812,-2.8832867,-0.29215378,1.7477525,0.16915159,0.039999943,0.04,-6.913846,3.5599615573883057,-5.9913716,-0.009923759,0.00018147884111385792,-0.010218315
2725.450000007092,0.5109248,-0.35722142,-0.3186251,-2.88333,-0.29217827,1.7477671,0.16909952,0.039999947,0.04,-6.912992,3.560649871826172,-5.991349,-0.009482236,-0.000170311497640796,-0.010282704
2725.466666673759,0.5109635,-0.3571886,-0.31864998,-2.8833725,-0.29220083,1.7477814,0.16905159,0.03999995,0.04,-6.91154,3.5615358352661133,-5.991313,-0.00908013,-0.00048433031770400703,-0.010334379
2725.483333340426,0.51099896,-0.35715833,-0.31867278,-2.883409,-0.29222155,1.7477937,0.1690075,0.03999995,0.04,-6.910741,3.5621447563171387,-5.9912977,-0.008706925,-0.0007778045255690813,-0.010388156
2725.5000000070927,0.5110316,-0.35713074,-0.31869382,-2.883444,-0.29224056,1.7478048,0.1689669,0.039999954,0.04,-6.9096007,3.5628702640533447,-5.9912734,-0.008367274,-0.0010427756933495402,-0.010431697
2725.5166666737596,0.51106167,-0.35710517,-0.3187132,-2.8834734,-0.29225808,1.7478155,0.16892956,0.03999995,0.04,-6.9089355,3.563370943069458,-5.991261,-0.008052722,-0.0012912307865917683,-0.010476935
2725.5333333404265,0.51108927,-0.35708165,-0.3187309,-2.8835015,-0.29227418,1.747826,0.16889521,0.03999995,0.04,-6.9077897,3.5640430450439453,-5.9912405,-0.007767244,-0.0015084054321050644,-0.010509542
2725.5500000070933,0.51111466,-0.35706002,-0.3187473,-2.883529,-0.29228902,1.7478353,0.16886358,0.039999954,0.04,-6.907169,3.5644850730895996,-5.991221,-0.007503027,-0.0017099184915423393,-0.010540654
2725.56666667376,0.51113796,-0.35704014,-0.31876227,-2.883554,-0.29230264,1.7478431,0.16883454,0.039999958,0.04,-6.906794,3.564847707748413,-5.9912195,-0.007258014,-0.0019018454477190971,-0.010574996
2725.583333340427,0.5111594,-0.35702196,-0.31877607,-2.883575,-0.29231524,1.7478501,0.16880776,0.039999954,0.04,-6.906163,3.565262794494629,-5.991198,-0.007033026,-0.002080341102555394,-0.010607503
2725.600000007094,0.51117903,-0.35700506,-0.3187888,-2.8835952,-0.29232687,1.747857,0.16878311,0.039999958,0.04,-6.905341,3.56573224067688,-5.9911666,-0.0068284394,-0.0022383248433470726,-0.010632197
2725.616666673761,0.51119715,-0.35698974,-0.31880057,-2.883615,-0.29233754,1.7478637,0.16876043,0.03999995,0.04,-6.904923,3.5660650730133057,-5.991154,-0.0066393544,-0.0023857306223362684,-0.010656214
2725.6333333404277,0.51121384,-0.3569755,-0.31881136,-2.8836343,-0.29234734,1.7478703,0.16873959,0.039999958,0.04,-6.904624,3.5663158893585205,-5.991173,-0.0064637642,-0.002522654365748167,-0.010681543
2725.6500000070946,0.51122916,-0.35696238,-0.31882125,-2.8836498,-0.29235625,1.7478766,0.16872035,0.03999995,0.04,-6.9043126,3.5665907859802246,-5.9911895,-0.0063006827,-0.0026515955105423927,-0.010705236
2725.6666666737615,0.5112433,-0.35695037,-0.31883034,-2.8836632,-0.29236457,1.7478817,0.16870275,0.039999954,0.04,-6.9035783,3.566964864730835,-5.9911594,-0.0061535654,-0.002761001931503415,-0.010722142
2725.6833333404284,0.5112563,-0.35693932,-0.31883875,-2.8836758,-0.29237223,1.7478858,0.16868657,0.03999995,0.04,-6.903163,3.567234754562378,-5.991132,-0.006019612,-0.0028621128294616938,-0.010735252
2725.7000000070952,0.5112682,-0.35692918,-0.31884652,-2.8836882,-0.2923792,1.7478894,0.16867156,0.03999995,0.04,-6.9029064,3.5674257278442383,-5.9911118,-0.005896037,-0.0029578018002212048,-0.010750265
2725.716666673762,0.51127917,-0.35691983,-0.3188536,-2.8837004,-0.2923857,1.7478926,0.16865782,0.039999947,0.039999995,-6.902706,3.5676026344299316,-5.991104,-0.0057810587,-0.003049032762646675,-0.010767421
2725.733333340429,0.51128936,-0.35691124,-0.31886023,-2.8837123,-0.29239157,1.7478957,0.16864513,0.039999947,0.04,-6.9024835,3.567768096923828,-5.991099,-0.0056743217,-0.0031360697466880083,-0.010785581
2725.750000007096,0.5112986,-0.35690343,-0.31886622,-2.883724,-0.29239705,1.7478988,0.16863342,0.039999947,0.04,-6.7118196,3.488616466522217,-6.051413,0.0,-0.0,0.0
2725.7666666737628,0.5112986,-0.35690343,-0.31886622,-2.883724,-0.29239705,1.7478988,0.16863342,0.039999947,0.04,-6.9003725,3.5683844089508057,-5.990626,0.0,-0.0,0.0
2725.7833333404296,0.5112986,-0.35690343,-0.31886622,-2.883724,-0.29239705,1.7478988,0.16863342,0.039999947,0.04,-6.9003725,3.5683844089508057,-5.990626,0.0,-0.0,0.0
2725.8000000070965,0.5112986,-0.35690343,-0.31886622,-2.883724,-0.29239705,1.7478988,0.16863342,0.039999947,0.04,-6.9003725,3.5683844089508057,-5.990626,0.0,-0.0,0.0
2725.8166666737634,0.5112986,-0.35690343,-0.31886622,-2.883724,-0.29239705,1.7478988,0.16863342,0.039999947,0.04,-6.9003725,3.5683844089508057,-5.990626,0.0,-0.0,0.0
2725.8333333404303,0.5112986,-0.35690343,-0.31886622,-2.883724,-0.29239705,1.7478988,0.16863342,0.039999947,0.04,-6.9003725,3.5683844089508057,-5.990626,0.0,-0.0,0.0
2725.850000007097,0.5112986,-0.35690343,-0.31886622,-2.883724,-0.29239705,1.7478988,0.16863342,0.039999947,0.04,-6.9003725,3.5683844089508057,-5.990626,0.0,-0.0,0.0
2725.866666673764,0.5112986,-0.35690343,-0.31886622,-2.883724,-0.29239705,1.7478988,0.16863342,0.039999947,0.04,-6.9003725,3.5683844089508057,-5.990626,0.0,-0.0,0.0
2725.883333340431,0.5112986,-0.35690343,-0.31886622,-2.883724,-0.29239705,1.7478988,0.16863342,0.039999947,0.04,-6.9003725,3.5683844089508057,-5.990626,0.0,-0.0,0.0
2725.900000007098,0.5112986,-0.35690343,-0.31886622,-2.883724,-0.29239705,1.7478988,0.16863342,0.039999947,0.04,-6.9003725,3.5683844089508057,-5.990626,0.0,-0.0,0.0
2725.9166666737647,0.5112986,-0.35690343,-0.31886622,-2.883724,-0.29239705,1.7478988,0.16863342,0.039999947,0.04,-6.9003725,3.5683844089508057,-5.990626,0.0,-0.0,0.0
2725.9333333404315,0.5112986,-0.35690343,-0.31886622,-2.883724,-0.29239705,1.7478988,0.16863342,0.039999947,0.04,-6.9003725,3.5683844089508057,-5.990626,0.0,-0.0,0.0
2725.9500000070984,0.5112986,-0.35690343,-0.31886622,-2.883724,-0.29239705,1.7478988,0.16863342,0.039999947,0.04,-6.9003725,3.5683844089508057,-5.990626,0.0,-0.0,0.0
2725.9666666737653,0.5112986,-0.35690343,-0.31886622,-2.883724,-0.29239705,1.7478988,0.16863342,0.039999947,0.04,-6.9003725,3.5683844089508057,-5.990626,0.0,-0.0,0.0
2725.983333340432,0.5112986,-0.35690343,-0.31886622,-2.883724,-0.29239705,1.7478988,0.16863342,0.039999947,0.04,-6.9003725,3.5683844089508057,-5.990626,0.0,-0.0,0.0
2726.000000007099,0.5112986,-0.35690343,-0.31886622,-2.883724,-0.29239705,1.7478988,0.16863342,0.039999947,0.04,-6.9003725,3.5683844089508057,-5.990626,0.0,-0.0,0.0
2726.016666673766,0.5112986,-0.35690343,-0.31886622,-2.883724,-0.29239705,1.7478988,0.16863342,0.039999947,0.04,-6.9003725,3.5683844089508057,-5.990626,0.0,-0.0,0.0
2726.033333340433,0.5112986,-0.35690343,-0.31886622,-2.883724,-0.29239705,1.7478988,0.16863342,0.039999947,0.04,-6.9003725,3.5683844089508057,-5.990626,0.0,-0.0,0.0
2726.0500000070997,0.5112986,-0.35690343,-0.31886622,-2.883724,-0.29239705,1.7478988,0.16863342,0.039999947,0.04,-6.9003725,3.5683844089508057,-5.990626,0.0,-0.0,0.0
2726.0666666737666,0.5112986,-0.35690343,-0.31886622,-2.883724,-0.29239705,1.7478988,0.16863342,0.039999947,0.04,-6.9003725,3.5683844089508057,-5.990626,0.0,-0.0,0.0
2726.0833333404335,0.5112986,-0.35690343,-0.31886622,-2.883724,-0.29239705,1.7478988,0.16863342,0.039999947,0.04,-6.9003725,3.5683844089508057,-5.990626,0.0,-0.0,0.0
2726.1000000071003,0.5112986,-0.35690343,-0.31886622,-2.883724,-0.29239705,1.7478988,0.16863342,0.039999947,0.04,-6.9003725,3.5683844089508057,-5.990626,0.0,-0.0,0.0
2726.116666673767,0.5112986,-0.35690343,-0.31886622,-2.883724,-0.29239705,1.7478988,0.16863342,0.039999947,0.04,-6.9003725,3.5683844089508057,-5.990626,0.0,-0.0,0.0
2726.133333340434,0.5112986,-0.35690343,-0.31886622,-2.883724,-0.29239705,1.7478988,0.16863342,0.039999947,0.04,-6.9003725,3.5683844089508057,-5.990626,0.0,-0.0,0.0
2726.150000007101,0.5112986,-0.35690343,-0.31886622,-2.883724,-0.29239705,1.7478988,0.16863342,0.039999947,0.04,-6.9003725,3.5683844089508057,-5.990626,0.0,-0.0,0.0
2726.166666673768,0.5112986,-0.35690343,-0.31886622,-2.883724,-0.29239705,1.7478988,0.16863342,0.039999947,0.04,-6.9003725,3.5683844089508057,-5.990626,0.0,-0.0,0.0
2726.1833333404347,0.5112986,-0.35690343,-0.31886622,-2.883724,-0.29239705,1.7478988,0.16863342,0.039999947,0.04,-6.9003725,3.5683844089508057,-5.990626,0.0,-0.0,0.0
2726.2000000071016,0.5112986,-0.35690343,-0.31886622,-2.883724,-0.29239705,1.7478988,0.16863342,0.039999947,0.04,-6.9003725,3.5683844089508057,-5.990626,0.0,-0.0,0.0
2726.2166666737685,0.5112986,-0.35690343,-0.31886622,-2.883724,-0.29239705,1.7478988,0.16863342,0.039999947,0.04,-6.9003725,3.5683844089508057,-5.990626,0.0,-0.0,0.0
2726.2333333404354,0.5112986,-0.35690343,-0.31886622,-2.883724,-0.29239705,1.7478988,0.16863342,0.039999947,0.04,-6.9003725,3.5683844089508057,-5.990626,0.0,-0.0,0.0
2726.2500000071022,0.5112986,-0.35690343,-0.31886622,-2.883724,-0.29239705,1.7478988,0.16863342,0.039999947,0.04,-6.9003725,3.5683844089508057,-5.990626,0.0,-0.0,0.0
2726.266666673769,0.5112986,-0.35690343,-0.31886622,-2.883724,-0.29239705,1.7478988,0.16863342,0.039999947,0.04,-6.9003725,3.5683844089508057,-5.990626,0.0,-0.0,0.0
2726.283333340436,0.5112986,-0.35690343,-0.31886622,-2.883724,-0.29239705,1.7478988,0.16863342,0.039999947,0.04,-6.9003725,3.5683844089508057,-5.990626,0.0,-0.0,0.0
2726.300000007103,0.5112986,-0.35690343,-0.31886622,-2.883724,-0.29239705,1.7478988,0.16863342,0.039999947,0.04,-6.9003725,3.5683844089508057,-5.990626,0.0,-0.0,0.0
2726.3166666737698,0.5112986,-0.35690343,-0.31886622,-2.883724,-0.29239705,1.7478988,0.16863342,0.039999947,0.04,-6.9003725,3.5683844089508057,-5.990626,0.0,-0.0,0.0
2726.3333333404366,0.5112986,-0.35690343,-0.31886622,-2.883724,-0.29239705,1.7478988,0.16863342,0.039999947,0.04,-6.9003725,3.5683844089508057,-5.990626,0.0,-0.0,0.0
2726.3500000071035,0.5112986,-0.35690343,-0.31886622,-2.883724,-0.29239705,1.7478988,0.16863342,0.039999947,0.04,-6.9003725,3.5683844089508057,-5.990626,0.0,-0.0,0.0
2726.3666666737704,0.5112986,-0.35690343,-0.31886622,-2.883724,-0.29239705,1.7478988,0.16863342,0.039999947,0.04,-6.9003725,3.5683844089508057,-5.990626,0.0,-0.0,0.0
2726.3833333404373,0.5112986,-0.35690343,-0.31886622,-2.883724,-0.29239705,1.7478988,0.16863342,0.039999947,0.04,-6.9003725,3.5683844089508057,-5.990626,0.0,-0.0,0.0
2726.400000007104,0.5112986,-0.35690343,-0.31886622,-2.883724,-0.29239705,1.7478988,0.16863342,0.039999947,0.04,-6.9003725,3.5683844089508057,-5.990626,0.0,-0.0,0.0
2726.416666673771,0.5112986,-0.35690343,-0.31886622,-2.883724,-0.29239705,1.7478988,0.16863342,0.039999947,0.04,-6.9003725,3.5683844089508057,-5.990626,0.0,-0.0,0.0
2726.433333340438,0.5112986,-0.35690343,-0.31886622,-2.883724,-0.29239705,1.7478988,0.16863342,0.039999947,0.04,-6.9003725,3.5683844089508057,-5.990626,0.0,-0.0,0.0
2726.450000007105,0.5112986,-0.35690343,-0.31886622,-2.883724,-0.29239705,1.7478988,0.16863342,0.039999947,0.04,-6.9003725,3.5683844089508057,-5.990626,0.0,-0.0,0.0
2726.4666666737717,0.5112986,-0.35690343,-0.31886622,-2.883724,-0.29239705,1.7478988,0.16863342,0.039999947,0.04,-6.9003725,3.5683844089508057,-5.990626,0.0,-0.0,0.0
2726.4833333404385,0.5112986,-0.35690343,-0.31886622,-2.883724,-0.29239705,1.7478988,0.16863342,0.039999947,0.04,-6.9003725,3.5683844089508057,-5.990626,0.0,-0.0,0.0
2726.5000000071054,0.5112986,-0.35690343,-0.31886622,-2.883724,-0.29239705,1.7478988,0.16863342,0.039999947,0.04,-6.9003725,3.5683844089508057,-5.990626,0.0,-0.0,0.0
2726.5166666737723,0.5112986,-0.35690343,-0.31886622,-2.883724,-0.29239705,1.7478988,0.16863342,0.039999947,0.04,-6.9003725,3.5683844089508057,-5.990626,0.0,-0.0,0.0
2726.533333340439,0.5112986,-0.35690343,-0.31886622,-2.883724,-0.29239705,1.7478988,0.16863342,0.039999947,0.04,-6.9003725,3.5683844089508057,-5.990626,0.0,-0.0,0.0
2726.550000007106,0.5112986,-0.35690343,-0.31886622,-2.883724,-0.29239705,1.7478988,0.16863342,0.039999947,0.04,-6.9003725,3.5683844089508057,-5.990626,0.0,-0.0,0.0
2726.566666673773,0.5112986,-0.35690343,-0.31886622,-2.883724,-0.29239705,1.7478988,0.16863342,0.039999947,0.04,-6.9003725,3.5683844089508057,-5.990626,0.0,-0.0,0.0
2726.58333334044,0.5112986,-0.35690343,-0.31886622,-2.883724,-0.29239705,1.7478988,0.16863342,0.039999947,0.04,-6.9003725,3.5683844089508057,-5.990626,0.0,-0.0,0.0
2726.6000000071067,0.5112986,-0.35690343,-0.31886622,-2.883724,-0.29239705,1.7478988,0.16863342,0.039999947,0.04,-6.9003725,3.5683844089508057,-5.990626,0.0,-0.0,0.0
2726.6166666737736,0.5112986,-0.35690343,-0.31886622,-2.883724,-0.29239705,1.7478988,0.16863342,0.039999947,0.04,-6.9003725,3.5683844089508057,-5.990626,0.0,-0.0,0.0
2726.6333333404405,0.5112986,-0.35690343,-0.31886622,-2.883724,-0.29239705,1.7478988,0.16863342,0.039999947,0.04,-6.9003725,3.5683844089508057,-5.990626,0.0,-0.0,0.0
2726.6500000071073,0.5112986,-0.35690343,-0.31886622,-2.883724,-0.29239705,1.7478988,0.16863342,0.039999947,0.04,-6.9003725,3.5683844089508057,-5.990626,0.0,-0.0,0.0
2726.666666673774,0.5112986,-0.35690343,-0.31886622,-2.883724,-0.29239705,1.7478988,0.16863342,0.039999947,0.04,-6.9003725,3.5683844089508057,-5.990626,0.0,-0.0,0.0
2726.683333340441,0.5112986,-0.35690343,-0.31886622,-2.883724,-0.29239705,1.7478988,0.16863342,0.039999947,0.04,-6.9003725,3.5683844089508057,-5.990626,0.0,-0.0,0.0
2726.700000007108,0.5112986,-0.35690343,-0.31886622,-2.883724,-0.29239705,1.7478988,0.16863342,0.039999947,0.04,-6.9003725,3.5683844089508057,-5.990626,0.0,-0.0,0.0
2726.716666673775,0.5112986,-0.35690343,-0.31886622,-2.883724,-0.29239705,1.7478988,0.16863342,0.039999947,0.04,-6.9003725,3.5683844089508057,-5.990626,0.0,-0.0,0.0
2726.7333333404417,0.5112986,-0.35690343,-0.31886622,-2.883724,-0.29239705,1.7478988,0.16863342,0.039999947,0.04,-6.9003725,3.5683844089508057,-5.990626,0.0,-0.0,0.0
2726.7500000071086,0.5112986,-0.35690343,-0.31886622,-2.883724,-0.29239705,1.7478988,0.16863342,0.039999947,0.04,-6.9003725,3.5683844089508057,-5.990626,0.0,-0.0,0.0
2726.7666666737755,0.5112986,-0.35690343,-0.31886622,-2.883724,-0.29239705,1.7478988,0.16863342,0.039999947,0.04,-6.9003725,3.5683844089508057,-5.990626,0.0,-0.0,0.0
2726.7833333404424,0.5112986,-0.35690343,-0.31886622,-2.883724,-0.29239705,1.7478988,0.16863342,0.039999947,0.04,-6.9003725,3.5683844089508057,-5.990626,0.0,-0.0,0.0
2726.8000000071092,0.5112986,-0.35690343,-0.31886622,-2.883724,-0.29239705,1.7478988,0.16863342,0.039999947,0.04,-6.9003725,3.5683844089508057,-5.990626,0.0,-0.0,0.0
2726.816666673776,0.5112986,-0.35690343,-0.31886622,-2.883724,-0.29239705,1.7478988,0.16863342,0.039999947,0.04,-6.9003725,3.5683844089508057,-5.990626,0.0,-0.0,0.0
2726.833333340443,0.5112986,-0.35690343,-0.31886622,-2.883724,-0.29239705,1.7478988,0.16863342,0.039999947,0.04,-6.9003725,3.5683844089508057,-5.990626,0.0,-0.0,0.0
2726.85000000711,0.5112986,-0.35690343,-0.31886622,-2.883724,-0.29239705,1.7478988,0.16863342,0.039999947,0.04,-6.9003725,3.5683844089508057,-5.990626,0.0,-0.0,0.0
2726.8666666737768,0.5112986,-0.35690343,-0.31886622,-2.883724,-0.29239705,1.7478988,0.16863342,0.039999947,0.04,-6.9003725,3.5683844089508057,-5.990626,0.0,-0.0,0.0
2726.8833333404436,0.5112986,-0.35690343,-0.31886622,-2.883724,-0.29239705,1.7478988,0.16863342,0.039999947,0.04,-6.9003725,3.5683844089508057,-5.990626,0.0,-0.0,0.0
2726.9000000071105,0.5112986,-0.35690343,-0.31886622,-2.883724,-0.29239705,1.7478988,0.16863342,0.039999947,0.04,-6.9003725,3.5683844089508057,-5.990626,0.0,-0.0,0.0
2726.9166666737774,0.5112986,-0.35690343,-0.31886622,-2.883724,-0.29239705,1.7478988,0.16863342,0.039999947,0.04,-6.9003725,3.5683844089508057,-5.990626,0.0,-0.0,0.0
2726.9333333404443,0.5112986,-0.35690343,-0.31886622,-2.883724,-0.29239705,1.7478988,0.16863342,0.039999947,0.04,-6.9003725,3.5683844089508057,-5.990626,0.0,-0.0,0.0
2726.950000007111,0.5112986,-0.35690343,-0.31886622,-2.883724,-0.29239705,1.7478988,0.16863342,0.039999947,0.04,-6.9003725,3.5683844089508057,-5.990626,0.0,-0.0,0.0
2726.966666673778,0.5112986,-0.35690343,-0.31886622,-2.883724,-0.29239705,1.7478988,0.16863342,0.039999947,0.04,-6.9003725,3.5683844089508057,-5.990626,0.0,-0.0,0.0
2726.983333340445,0.5112986,-0.35690343,-0.31886622,-2.883724,-0.29239705,1.7478988,0.16863342,0.039999947,0.04,-6.9003725,3.5683844089508057,-5.990626,0.0,-0.0,0.0
2727.000000007112,0.5112986,-0.35690343,-0.31886622,-2.883724,-0.29239705,1.7478988,0.16863342,0.039999947,0.04,-6.9003725,3.5683844089508057,-5.990626,0.0,-0.0,0.0
2727.0166666737787,0.5112986,-0.35690343,-0.31886622,-2.883724,-0.29239705,1.7478988,0.16863342,0.039999947,0.04,-6.9003725,3.5683844089508057,-5.990626,0.0,-0.0,0.0
2727.0333333404456,0.5112986,-0.35690343,-0.31886622,-2.883724,-0.29239705,1.7478988,0.16863342,0.039999947,0.04,-6.9003725,3.5683844089508057,-5.990626,0.0,-0.0,0.0
2727.0500000071124,0.5112986,-0.35690343,-0.31886622,-2.883724,-0.29239705,1.7478988,0.16863342,0.039999947,0.04,-6.9003725,3.5683844089508057,-5.990626,0.0,-0.0,0.0
2727.0666666737793,0.5112986,-0.35690343,-0.31886622,-2.883724,-0.29239705,1.7478988,0.16863342,0.039999947,0.04,-6.9003725,3.5683844089508057,-5.990626,0.0,-0.0,0.0
2727.083333340446,0.5112986,-0.35690343,-0.31886622,-2.883724,-0.29239705,1.7478988,0.16863342,0.039999947,0.04,-6.9003725,3.5683844089508057,-5.990626,0.0,-0.0,0.0
2727.100000007113,0.5112986,-0.35690343,-0.31886622,-2.883724,-0.29239705,1.7478988,0.16863342,0.039999947,0.04,-6.9003725,3.5683844089508057,-5.990626,0.0,-0.0,0.0
2727.11666667378,0.5112986,-0.35690343,-0.31886622,-2.883724,-0.29239705,1.7478988,0.16863342,0.039999947,0.04,-6.9003725,3.5683844089508057,-5.990626,0.0,-0.0,0.0
2727.133333340447,0.5112986,-0.35690343,-0.31886622,-2.883724,-0.29239705,1.7478988,0.16863342,0.039999947,0.04,-6.9003725,3.5683844089508057,-5.990626,0.0,-0.0,0.0
2727.1500000071137,0.5112986,-0.35690343,-0.31886622,-2.883724,-0.29239705,1.7478988,0.16863342,0.039999947,0.04,-6.9003725,3.5683844089508057,-5.990626,0.0,-0.0,0.0
2727.1666666737806,0.5112986,-0.35690343,-0.31886622,-2.883724,-0.29239705,1.7478988,0.16863342,0.039999947,0.04,-6.9003725,3.5683844089508057,-5.990626,0.0,-0.0,0.0
2727.1833333404475,0.5112986,-0.35690343,-0.31886622,-2.883724,-0.29239705,1.7478988,0.16863342,0.039999947,0.04,-6.9003725,3.5683844089508057,-5.990626,0.0,-0.0,0.0
2727.2000000071143,0.5112986,-0.35690343,-0.31886622,-2.883724,-0.29239705,1.7478988,0.16863342,0.039999947,0.04,-6.9003725,3.5683844089508057,-5.990626,0.0,-0.0,0.0
2727.216666673781,0.5112986,-0.35690343,-0.31886622,-2.883724,-0.29239705,1.7478988,0.16863342,0.039999947,0.04,-6.9003725,3.5683844089508057,-5.990626,0.0,-0.0,0.0
2727.233333340448,0.5112986,-0.35690343,-0.31886622,-2.883724,-0.29239705,1.7478988,0.16863342,0.039999947,0.04,-6.9003725,3.5683844089508057,-5.990626,0.0,-0.0,0.0
2727.250000007115,0.5112986,-0.35690343,-0.31886622,-2.883724,-0.29239705,1.7478988,0.16863342,0.039999947,0.04,-6.9003725,3.5683844089508057,-5.990626,0.0,-0.0,0.0
2727.266666673782,0.5112986,-0.35690343,-0.31886622,-2.883724,-0.29239705,1.7478988,0.16863342,0.039999947,0.04,-6.9003725,3.5683844089508057,-5.990626,0.0,-0.0,0.0
2727.2833333404487,0.5112986,-0.35690343,-0.31886622,-2.883724,-0.29239705,1.7478988,0.16863342,0.039999947,0.04,-6.9003725,3.5683844089508057,-5.990626,0.0,-0.0,0.0
2727.3000000071156,0.5112986,-0.35690343,-0.31886622,-2.883724,-0.29239705,1.7478988,0.16863342,0.039999947,0.04,-6.9003725,3.5683844089508057,-5.990626,0.0,-0.0,0.0
2727.3166666737825,0.5112986,-0.35690343,-0.31886622,-2.883724,-0.29239705,1.7478988,0.16863342,0.039999947,0.04,-6.9003725,3.5683844089508057,-5.990626,0.0,-0.0,0.0
2727.3333333404494,0.5112986,-0.35690343,-0.31886622,-2.883724,-0.29239705,1.7478988,0.16863342,0.039999947,0.04,-6.9003725,3.5683844089508057,-5.990626,0.0,-0.0,0.0
2727.3500000071163,0.5112986,-0.35690343,-0.31886622,-2.883724,-0.29239705,1.7478988,0.16863342,0.039999947,0.04,-6.9003725,3.5683844089508057,-5.990626,0.0,-0.0,0.0
