rsonawane2002/My_IMU/logs_2/traj_413/clean_413.csv
time,j1,j2,j3,j4,j5,j6,j7,gripper1,gripper2,imu_ax,imu_ay,imu_az,imu_gx,imu_gy,imu_gz,quat_x,quat_y,quat_z,quat_w
1791.133333332033,0.00016700293,-0.785875,4.0107683e-05,-2.3551247,9.29385e-05,1.570997,0.786,0.04,0.04,0.0,-0.0,0.0,2.875329272945135e-08,-0.0011641195053377316,4.421952117202833e-08,0.9999995971961153,0.00020320632366974898,0.0008736418299892524,3.263050917662294e-05
1791.1499999986997,0.00016699752,-0.78576016,4.0115006e-05,-2.3552213,9.296545e-05,1.5709941,0.786,0.04,0.04,-0.29199846046981115,-2.024610199359675e-05,0.020128411985376182,5.37531530959908e-07,-0.002238456504675887,-4.2829635371765507e-07,0.9999996850581094,0.00020321118788149036,0.0007665025206791187,3.260031938233776e-05
1791.1666666653664,0.00016693471,-0.7856543,4.0124385e-05,-2.35531,9.293045e-05,1.5709913,0.786,0.04,0.04,0.023328722177629047,0.00010696075513780485,-0.001670409312071186,4.163096815321254e-06,-0.0032266872149699383,-3.921350036447771e-06,0.9999997558399025,0.00020324365103304288,0.0006677972708453697,3.254164438643069e-05
1791.183333332033,0.00016671933,-0.78555703,4.0139734e-05,-2.355391,9.274596e-05,1.5709884,0.786,0.04,0.039999995,0.022460738886187492,0.00027275573035343784,-0.0015248274782830862,1.3785975072336383e-05,-0.0041360574484435,-1.2442230357379048e-05,0.9999998122202793,0.00020334994352469316,0.000577198277231148,3.2409184274963846e-05
1791.1999999986997,0.00016621462,-0.7854677,4.0166873e-05,-2.3554654,9.224813e-05,1.5709856,0.786,0.04,0.04,0.02011369846877109,0.0005391734830763122,-0.0015654052456293144,3.203441788438948e-05,-0.004967077720393703,-3.143073035077636e-05,0.9999998567893773,0.00020359642606241604,0.0004939009148875209,3.211862799653563e-05
1791.2166666653663,0.00016524567,-0.7853859,4.0212515e-05,-2.3555331,9.127338e-05,1.5709827,0.786,0.04,0.04,0.01971728860403754,0.0008464318249244522,-0.0013514493464317212,6.101714547193193e-05,-0.005729405701222434,-5.967067037667528e-05,0.9999998914315773,0.00020406818139721809,0.00041772640733314165,3.158574990574859e-05
1791.233333332033,0.00016360392,-0.78531134,4.0284904e-05,-2.3555984,8.961272e-05,1.5709798,0.786,0.04,0.04,0.012027205970555066,0.0012234818637882816,-0.0030582096794962155,0.0001034529354724191,-0.00642050661669772,-9.952747517398627e-05,0.9999999185642692,0.0002048666732718739,0.0003463502199167241,3.070222093135587e-05
1791.2499999986996,0.00016105053,-0.7852433,4.0393294e-05,-2.3556576,8.7022476e-05,1.570977,0.786,0.04,0.04,0.017719524108006368,0.0016575366986882408,-0.0009395831231051588,0.00016048962516323042,-0.007063356034427185,-0.00015454290135183076,0.9999999387581706,0.00020610790969264608,0.0002813221251014009,2.9343591974547025e-05
1791.2666666653663,0.00015731959,-0.78518194,4.054793e-05,-2.3557153,8.323317e-05,1.5709741,0.786,0.04,0.04,0.009878522038375692,0.0021407936158764585,-0.003201923663609385,0.00023446115494397629,-0.007642640030159779,-0.00022554555801175595,0.9999999537267367,0.00020792128781379037,0.00022037720167246167,2.737063870151815e-05
1791.283333332033,0.0001521211,-0.78512675,4.0760122e-05,-2.3557673,7.793966e-05,1.5709713,0.786,0.039999995,0.04,0.016512655648837082,0.00267474437030863,-0.0009377158699530597,0.0003269874485122381,-0.008178040833550788,-0.0003147744485823194,0.999999963880136,0.00021044762717397147,0.00016536325178790397,2.4627583329611136e-05
1791.2999999986996,0.0001451437,-0.7850777,4.104166e-05,-2.3558178,7.083681e-05,1.5709684,0.786,0.03999999,0.03999999,0.009219076148081484,0.003232853768655704,-0.0028545510517341555,0.0004389839141967321,-0.008652345712748186,-0.000420974586732654,0.9999999704036119,0.00021383845475249916,0.00011413456094856058,2.095692095986867e-05
1791.3166666653663,0.00013605745,-0.78503454,4.140525e-05,-2.3558679,6.1588995e-05,1.5709655,0.7860014,0.039999988,0.039999988,0.007334845642459342,0.0038326988539909637,-0.0031435950982316996,0.000572043723197472,-0.009083812570096947,-0.000547847266475666,0.9999999737174404,0.0002189396233061242,6.609512148844728e-05,1.618625243381979e-05
1791.333333332033,0.00012451578,-0.7849973,4.186411e-05,-2.3559175,4.984615e-05,1.5709627,0.7860033,0.039999984,0.03999998,0.007334822578908273,0.004460920666872237,-0.0031410279547339215,0.0007210564735857449,-0.009479050889784683,-0.0006946611149553905,0.9999999742972933,0.0002255023881665899,2.1244990488611284e-05,1.0135873090353304e-05
1791.3499999986996,0.000110157685,-0.78496593,4.2432e-05,-2.3559668,3.5242174e-05,1.5709598,0.7860052,0.039999977,0.039999973,0.006929645854536481,0.005116368476536236,-0.0032456122509572083,0.0008906589903891466,-0.009834556409442226,-0.0008639940796378245,0.9999999725400072,0.00023343402694899133,-2.0535004629961998e-05,2.617920096407575e-06
1791.3666666653662,9.260997e-05,-0.7849403,4.312314e-05,-2.3560154,1.7400007e-05,1.5709568,0.7860071,0.03999997,0.03999996,0.007504452734830025,0.005792811704986356,-0.0030173051589255095,0.0010845590545345723,-0.010153648711631831,-0.0010548735984425724,0.9999999687247083,0.00024291597080652646,-5.9155444757886436e-05,-6.5610027093784144e-06
1791.3833333320329,7.1488816e-05,-0.7849206,4.3952172e-05,-2.356065,-4.069823e-06,1.5709538,0.786009,0.03999997,0.03999996,0.004903981163750792,0.006489871533789402,-0.003776735629235084,0.0013030727604125027,-0.010434353227999456,-0.001269654700252857,0.9999999630116323,0.0002541348249924069,-9.530179584602562e-05,-1.7600927681954717e-05
1791.3999999986995,4.6401463e-05,-0.78490686,4.4934073e-05,-2.356115,-2.9564762e-05,1.5709506,0.7860109,0.03999997,0.03999996,0.0057705200400048895,0.00720207596192688,-0.003806804364336891,0.001547248457861392,-0.010681429077674085,-0.001508018264064552,0.9999999555147585,0.00026728153049931653,-0.00012879528910177666,-3.0705668119351346e-05
1791.4166666653662,1.6947439e-05,-0.78489894,4.6083886e-05,-2.3561656,-5.9489215e-05,1.5709472,0.7860128,0.03999997,0.039999958,0.005507057043785402,0.007927811049749973,-0.0036709753758801256,0.0018177744145008773,-0.010892280602438008,-0.0017695555550107493,0.9999999462598318,0.00028255086839578357,-0.00015975521958577405,-4.608264590838352e-05
1791.4333333320328,-1.7279315e-05,-0.78489715,4.741733e-05,-2.356217,-9.4255505e-05,1.5709405,0.78601664,0.03999997,0.039999958,0.004553979377397432,0.008664887873039291,-0.0062010245770238726,0.0021147191601306138,-0.011068672617443482,-0.0020563546160720005,0.9999999346503984,0.0003010939660755543,-0.00018961217270764463,-6.394408999463301e-05
1791.4499999986995,-5.669011e-05,-0.7849013,4.894988e-05,-2.3562741,-0.00013427921,1.5709338,0.78602046,0.039999973,0.03999996,-0.0035364152642269886,0.009410147328219555,-0.006056664137621404,0.0024303814253329864,-0.011223130269804002,-0.0023678398763739427,0.9999999204536801,0.00032215705258858003,-0.00021946905102886155,-8.450326946075564e-05
1791.4666666653661,-0.000101699654,-0.78491175,5.0697232e-05,-2.3563325,-0.0001799802,1.570927,0.7860243,0.039999973,0.03999996,0.004857241455447081,0.010161517110957452,-0.0041735512779750294,0.002773476506533618,-0.011363877437157688,-0.002704240217350662,0.9999999038647506,0.00034594188189870196,-0.0002468525189096384,-0.00010797470957300202
1791.4833333320328,-0.0001527252,-0.7849288,5.2675412e-05,-2.3563962,-0.00023178036,1.5709201,0.7860281,0.039999977,0.03999996,-0.001633656708510678,0.010916992600843748,-0.006197454377088185,0.0031444162411860626,-0.011468691074721473,-0.00306485672246358,0.9999998840788809,0.00037265117453938636,-0.0002736106585728088,-0.0001345753857610784
1791.4999999986994,-0.0002101857,-0.78495234,5.4900258e-05,-2.3564625,-0.00029010515,1.5709125,0.7860338,0.039999977,0.03999996,0.0025021807743774716,0.011676717857748431,-0.00539777864785318,0.00354360236727423,-0.011554532110757213,-0.003451502059863725,0.9999998604453335,0.00040344248897614094,-0.00029879007097686827,-0.0001645234487551257
1791.516666665366,-0.00027450093,-0.78498286,5.738763e-05,-2.3565354,-0.00035537733,1.570902,0.78603953,0.039999977,0.039999958,-0.0045353288998351005,0.012434868646436347,-0.009090346413409556,0.003962513901847671,-0.011611288576807962,-0.003862514766809193,0.9999998317641241,0.0004375663414357471,-0.0003252524117133696,-0.0001980360802477468
1791.5333333320327,-0.0003460903,-0.7850203,6.015361e-05,-2.3566105,-0.00042802308,1.5708914,0.78604525,0.03999998,0.03999996,0.003962864189999138,0.013194858896675273,-0.004979868956400679,0.004409957396612629,-0.011664928095397627,-0.004299685218774512,0.9999997983519154,0.00047522678604962733,-0.0003493922502250413,-0.00023533101298138574
1791.5499999986994,-0.0004253727,-0.78506476,6.321411e-05,-2.3566923,-0.0005084662,1.5708805,0.7860529,0.03999998,0.039999966,-0.0036387155228911894,0.013951993006873784,-0.0071755674614149,0.004885864325067653,-0.01168074807317746,-0.004763666250779998,0.9999997580520941,0.0005175808798788719,-0.00037347508505483574,-0.0002766263674181015
1791.566666665366,-0.0005127654,-0.7851167,6.658486e-05,-2.3567812,-0.00059712783,1.5708687,0.7860605,0.039999984,0.03999997,-0.004213297126987037,0.014704836318285824,-0.008163321796939016,0.0053818978093569175,-0.011680185941483278,-0.005251942616787358,0.9999997099764413,0.0005638779337024046,-0.0003978894607149996,-0.0003221376818734735
1791.5833333320327,-0.00060868333,-0.7851762,7.028164e-05,-2.3568776,-0.00069442706,1.5708544,0.7860691,0.039999984,0.039999966,-0.004909920083306929,0.01545301370033116,-0.00953200156805778,0.005906468196613949,-0.011666790195765782,-0.005762443948433984,0.9999996521394547,0.0006147968892749754,-0.00042344095444942935,-0.00037207998133694594
1791.5999999986993,-0.0007135388,-0.78524345,7.432014e-05,-2.3569815,-0.00080078223,1.5708398,0.78607863,0.039999988,0.03999996,-0.004569636831730506,0.016197614947595588,-0.008079337657296293,0.006455828048704805,-0.011647323794465732,-0.006297825743035759,0.999999583300202,0.0006705378273197099,-0.0004491472871921041,-0.0004266675037986563
1791.616666665366,-0.00082774094,-0.785319,7.871618e-05,-2.3570929,-0.00091661053,1.570824,0.78608847,0.039999988,0.039999973,-0.0037313502373903518,0.016936723967166625,-0.008848737322875166,0.007029291927099371,-0.011610903780719889,-0.0068630686452605,0.9999995018974188,0.0007309721426784337,-0.000474950398380894,-0.0004861139370330621
1791.6333333320326,-0.0009516954,-0.7854027,8.34848e-05,-2.357212,-0.0010423172,1.5708058,0.7860999,0.03999999,0.039999966,-0.005058253934309143,0.01766300052317046,-0.010103753444301589,0.007630236409893457,-0.011557919579969538,-0.007445655691669683,0.9999994049182918,0.0007969532229698351,-0.0005018350556521439,-0.0005506270967559751
1791.6499999986993,-0.001085803,-0.7854949,8.864151e-05,-2.357339,-0.0011783134,1.5707872,0.7861115,0.03999999,0.03999998,-0.0037104088995265627,0.018388240007235056,-0.00854018387228539,0.008252006153725695,-0.011496545980339383,-0.008060283701116246,0.9999992912372144,0.000867930601815447,-0.0005284921661451422,-0.0006204172543881243
1791.666666665366,-0.0012304615,-0.7855959,9.4201205e-05,-2.3574739,-0.0013249968,1.5707662,0.7861248,0.039999988,0.039999966,-0.00483038886289755,0.019098337298974304,-0.010443646628899295,0.008902241660591647,-0.01141367927266997,-0.008691829979061396,0.9999991569768637,0.00094493292251559,-0.0005560259786793547,-0.0006956884683481916
1791.6833333320326,-0.0013860621,-0.78570586,0.00010017891,-2.3576171,-0.0014827644,1.570744,0.7861384,0.03999998,0.039999947,-0.0045938617440066665,0.01980089732479054,-0.00980778411125982,0.009572294931552924,-0.011320279813288613,-0.00934611067340697,0.9999990002251872,0.0010273754324526844,-0.0005838432610290033,-0.0007766436721108179
1791.6999999986992,-0.0015529917,-0.7858252,0.00010658928,-2.3577688,-0.0016520106,1.5707208,0.7861537,0.039999988,0.039999958,-0.004159745921716862,0.020496074015967213,-0.009932924717337421,0.010269813114890478,-0.011210102508442153,-0.01002889301729903,0.9999988171940382,0.001116161873338655,-0.0006117076534206037,-0.0008634853467598297
1791.716666665366,-0.0017316319,-0.78595376,0.00011344697,-2.3579304,-0.0018331184,1.5706949,0.78616947,0.04,0.039999988,-0.007613848520060529,0.021174382989961188,-0.0117861653317064,0.010987305615203712,-0.01107859054279155,-0.010737802964545391,0.9999986038592179,0.001210911841994884,-0.0006412914099683373,-0.0009564086225470107
1791.7333333320325,-0.001922359,-0.786092,0.00012076592,-2.3581042,-0.0020264518,1.5706682,0.78618664,0.04,0.039999995,-0.010231014250194903,0.021832998297621423,-0.011669816249537668,0.011730378598490214,-0.01094322608270762,-0.01146443384518087,0.9999983557134001,0.0013122241859204816,-0.0006725675359379051,-0.0010555998728418768
1791.7499999986992,-0.0021255412,-0.7862404,0.0001285605,-2.3582869,-0.0022323986,1.5706385,0.78620476,0.04,0.039999995,-0.004644695418076772,0.02249997008204191,-0.012086082016393718,0.012494526417526639,-0.010802012479089013,-0.01221331016429653,0.9999980691518306,0.0014200724606664866,-0.0007046754680504162,-0.0011612576380053829
1791.7666666653658,-0.0023415433,-0.7863987,0.0001368443,-2.3584807,-0.0024513248,1.570608,0.7862238,0.04,0.039999995,-0.008343015745859717,0.023146520709823627,-0.011410198527816995,0.013282123564223026,-0.01064698403158706,-0.012984085136853087,0.9999977392223129,0.0015346319605886488,-0.0007378872998015389,-0.0012735687422204863
1791.7833333320325,-0.0025707218,-0.7865675,0.00014563127,-2.358686,-0.002683611,1.5705751,0.78624433,0.039999995,0.039999995,-0.008576756277789421,0.02379061514618244,-0.013029307746514895,0.01409227057063651,-0.010481017729249911,-0.013777149530528738,0.9999973598488758,0.0016563157060234398,-0.0007728029944478917,-0.0013927272136552862
1791.7999999986991,-0.0028134275,-0.786747,0.00015493466,-2.3589025,-0.0029296207,1.5705408,0.78626597,0.03999999,0.04,-0.007670432415030071,0.024418703057633388,-0.012333478250492469,0.01492268928177335,-0.010306603985645972,-0.014592043306940814,0.999996926033925,0.0017851453385897837,-0.000808741874397503,-0.001518919155694926
1791.8166666653658,-0.0030700038,-0.7869373,0.00016476754,-2.3591316,-0.003189687,1.5705042,0.78628886,0.039999984,0.039999988,-0.01016286524615495,0.025010755709437005,-0.013724835147588266,0.015774665212248427,-0.010119937552834742,-0.015426709016530985,0.999996430640863,0.001921347554309824,-0.0008467519155160979,-0.0016523136211637414
1791.8333333320325,-0.0033407882,-0.7871388,0.00017514263,-2.3593726,-0.0034641412,1.5704659,0.786313,0.039999988,0.03999997,-0.008362077794799028,0.025597495994895414,-0.013185204954857532,0.01664733977486125,-0.009930279651692832,-0.016276836105020946,0.9999958676284973,0.002065087141931434,-0.0008860040471955326,-0.0017930805485294112
1791.849999998699,-0.0036261114,-0.78735155,0.00018607259,-2.359626,-0.0037533168,1.5704252,0.7863385,0.039999995,0.039999988,-0.009431261474190933,0.026174711352929536,-0.014050254836384113,0.01754033839750843,-0.00972693463533194,-0.01715313999305374,0.9999952290546501,0.0022165853794487707,-0.0009271596381716261,-0.0019413892445821913
1791.8666666653658,-0.0039262963,-0.7875758,0.00019756964,-2.3598928,-0.0040575312,1.5703828,0.78636533,0.039999995,0.04,-0.010417315119126691,0.02673081322334698,-0.013966641584661765,0.01845266589211061,-0.009516923720673134,-0.018047406249121368,0.9999945073018751,0.0023759683407680006,-0.0009700759955376131,-0.002097401508157089
1791.8833333320324,-0.00424166,-0.7878117,0.00020964585,-2.3601723,-0.00437712,1.5703378,0.78639334,0.03999999,0.04,-0.009376947719696993,0.02729246649652295,-0.014666065539215012,0.019384745530435222,-0.009299125612339218,-0.018959842432499815,0.9999936939770075,0.0025433331379259437,-0.0010149090253509568,-0.002261287783255243
1791.899999998699,-0.0045725075,-0.7880599,0.00022231298,-2.3604655,-0.004712386,1.570291,0.78642285,0.03999999,0.04,-0.010401766301693094,0.02781459970028974,-0.014772823952724501,0.020336398778966442,-0.009074925283839186,-0.01989088794285993,0.9999927800074109,0.002718976090323772,-0.0010614272062793985,-0.0024332024897146176
1791.9166666653657,-0.004919144,-0.7883197,0.00023558251,-2.3607726,-0.0050636446,1.5702416,0.7864539,0.03999999,0.04,-0.011456560064826427,0.02834549375138537,-0.01524170347233511,0.02130584995943024,-0.008840438591213414,-0.020839978944403266,0.9999917547529773,0.002903076043252221,-0.001110502434491323,-0.002613304400850093
1791.9333333320324,-0.0052818637,-0.78859216,0.0002494657,-2.3610935,-0.0054311864,1.5701903,0.78648627,0.039999988,0.039999995,-0.01003482571417802,0.028844588032110943,-0.015138793542557316,0.022292974693677994,-0.008603768531572686,-0.02180677256496009,0.99999060938055,0.003095657699001618,-0.001161159769321209,-0.002801742692892253
1791.949999998699,-0.0056609497,-0.7888772,0.00026397334,-2.3614283,-0.005815301,1.5701365,0.78651994,0.03999999,0.039999995,-0.010320094344695718,0.029328013664885536,-0.01568036295187536,0.023298472003985167,-0.00835618451804392,-0.022789932531274378,0.9999893326589985,0.003296860014354539,-0.0012137954383213713,-0.0029986635173672167
1791.9666666653657,-0.006056684,-0.78917485,0.00027911633,-2.3617778,-0.00621629,1.5700802,0.78655523,0.03999999,0.04,-0.011904871121304339,0.029816217829942496,-0.016277606827430624,0.024321633056683528,-0.008099324272436025,-0.0237914856357594,0.9999879119186771,0.0035069687964782627,-0.001268924986077468,-0.0032042184326981976
1791.9833333320323,-0.0064693396,-0.7894857,0.00029490486,-2.362142,-0.006634403,1.5700217,0.7865922,0.039999995,0.04,-0.011120623631954984,0.030256659521977515,-0.016180656179121122,0.02536095351748259,-0.007839368487164686,-0.024807681777136183,0.9999863355014086,0.0037261470937533575,-0.0013259918819606943,-0.003418535333872076
1791.999999998699,-0.0068991813,-0.78980964,0.00031134926,-2.3625216,-0.0070699262,1.5699606,0.7866306,0.04,0.04,-0.012213882139278098,0.03071059349532973,-0.016945801357537427,0.026415765276493523,-0.007570453412392845,-0.025840600132743412,0.9999845900343637,0.003954405426382078,-0.0013856328207803778,-0.003641756885795899
1792.0166666653656,-0.0073464625,-0.790147,0.00032845887,-2.3629162,-0.00752311,1.5698973,0.78667045,0.04,0.04,-0.011286564121104625,0.031128055844256708,-0.016612647100155975,0.027486943669223975,-0.007298473758331104,-0.02688969284319626,0.9999826625399078,0.004191897418557956,-0.0014472924983033979,-0.0038740108483957007
1792.0333333320323,-0.007811434,-0.79049784,0.0003462435,-2.3633268,-0.007994208,1.5698314,0.7867118,0.04,0.04,-0.012982341706058165,0.03153675426575773,-0.01748776945593722,0.028573585483199576,-0.007015275779764454,-0.027952840421926535,0.9999805376602184,0.004438744979776888,-0.0015116680178648414,-0.004115422650063339
1792.049999998699,-0.008294339,-0.7908622,0.0003647122,-2.3637528,-0.008483462,1.5697627,0.7867548,0.04,0.04,-0.01213645250497386,0.03193320757546702,-0.017452757523384044,0.0296758173104337,-0.006729776030671718,-0.02903048240859484,0.9999782002380738,0.004695127917055419,-0.0015785627802326542,-0.004366115208513076
1792.0666666653656,-0.008795411,-0.7912406,0.00038387402,-2.3641946,-0.008991121,1.5696917,0.78679955,0.04,0.04,-0.011896533102628837,0.0323174081595063,-0.017621186070893025,0.030792097443481235,-0.006440505363599931,-0.030122933623401012,0.9999756343330837,0.00496124961432207,-0.0016476912313780107,-0.004626214004707506
1792.0833333320322,-0.009314878,-0.791633,0.00040373774,-2.3646526,-0.009517416,1.569618,0.7868459,0.04,0.04,-0.012706557368091786,0.032679839469039115,-0.01811167815923831,0.03192207002232689,-0.006140939234771122,-0.03122796362179836,0.9999728231034932,0.005237131793180056,-0.001719395067133201,-0.004895833495311506
1792.0999999986989,-0.00985296,-0.79203975,0.00042431173,-2.3651268,-0.010062569,1.5695416,0.7868939,0.04,0.04,-0.0124731031341474,0.03302658911085443,-0.018400501869786368,0.03306526017003846,-0.005836700124974316,-0.03234687431619449,0.9999697491187257,0.005522883493484937,-0.0017936288416519732,-0.00517508463007224
1792.1166666653655,-0.010409862,-0.79246074,0.00044560374,-2.3656175,-0.010626784,1.5694625,0.78694355,0.04,0.04,-0.012895828395342868,0.033343347515241845,-0.018455645653525643,0.03422205838781353,-0.005525609013567236,-0.033477541516453074,0.9999663937803833,0.0058186340122353825,-0.0018704965743633816,-0.005464069056322383
1792.1333333320322,-0.010985798,-0.7928962,0.00046762195,-2.3661249,-0.011210272,1.5693809,0.78699493,0.04,0.04,-0.013028744228482658,0.033670010904342934,-0.018769542398722194,0.03539158288190641,-0.005208583376501664,-0.034620310735118134,0.9999627377056313,0.006124518138127633,-0.0019500135854524,-0.0057628920561823916
1792.1499999986988,-0.01158096,-0.79334617,0.0004903736,-2.366649,-0.011813221,1.5692964,0.78704804,0.04,0.04,-0.013092799920633169,0.03395221385040434,-0.01902319005260278,0.03657281551911218,-0.004886198496670642,-0.03577475975263704,0.9999587607003495,0.006440630264354137,-0.002032315139452861,-0.006071645213043684
1792.1666666653655,-0.012195537,-0.7938111,0.0005138661,-2.36719,-0.012435856,1.5692092,0.78710294,0.04,0.04,-0.012889030980711702,0.034259004748412106,-0.01929789767245449,0.03776590254570551,-0.00455934143365224,-0.0369420414630688,0.9999544420838469,0.006767093477230193,-0.0021171795091879477,-0.0063904423617458855
1792.1833333320321,-0.012829714,-0.79429084,0.00053810625,-2.3677483,-0.013078315,1.5691191,0.78715956,0.04,0.04,-0.013929649335198135,0.034490378201755545,-0.019796127780025152,0.038970152992930426,-0.004223688556154024,-0.03811669789023587,0.9999497595030958,0.00710396844111642,-0.0022051010546870475,-0.006719347544744917
1792.1999999986988,-0.013483662,-0.7947857,0.00056310085,-2.3683243,-0.013740809,1.5690262,0.7872179,0.04,0.04,-0.013986090171203003,0.03475932646231465,-0.019944209158584414,0.040185124500722966,-0.003885952237372708,-0.03930430862968029,0.9999446905293573,0.007451337536452844,-0.0022959788092176163,-0.007058465298732872
1792.2166666653654,-0.01415755,-0.79529566,0.00058885606,-2.3689177,-0.014423495,1.5689307,0.787278,0.04,0.04,-0.013466606389411773,0.03499089320803707,-0.019868519302002063,0.04141074138991174,-0.003542814996233443,-0.040501610210096795,0.9999392122385747,0.007809285126291509,-0.0023896230160316894,-0.007407873875537629
1792.233333332032,-0.0148515375,-0.79582095,0.0006153783,-2.3695283,-0.015126548,1.5688324,0.7873398,0.04,0.04,-0.012928448586690955,0.03521466944753186,-0.02012900019985331,0.042646304718774085,-0.0031930215736658725,-0.04170823156481759,0.9999333005546479,0.008177891386975552,-0.002485963875237782,-0.0077676584606985325
1792.2499999986987,-0.015565785,-0.7963615,0.0006426732,-2.3701568,-0.015850099,1.568731,0.78740346,0.04,0.04,-0.014268299840836107,0.03540534830932564,-0.020692897882002015,0.04389197268184261,-0.002835637027127579,-0.04292203651548364,0.999926928674213,0.008557293632370512,-0.0025855277613267883,-0.008137879578863225
1792.2666666653654,-0.016300423,-0.7969175,0.0006707466,-2.3708029,-0.01659431,1.5686265,0.7874689,0.04,0.04,-0.013617081320327351,0.035587370394879816,-0.02069233225165945,0.04514617085173057,-0.0024750083397096353,-0.04414691257536039,0.999920071410447,0.008947527770401009,-0.0026880676259169825,-0.00851861665781521
1792.283333332032,-0.017055597,-0.7974892,0.0006996031,-2.371468,-0.017359307,1.5685195,0.78753626,0.04,0.04,-0.015592427257549168,0.0357467777045789,-0.021340486996335173,0.04640937905279682,-0.0021091253564219474,-0.04537723716153351,0.9999127003180321,0.009348718685440674,-0.002793991986786551,-0.008909927632684661
1792.2999999986987,-0.017831448,-0.7980767,0.00072924845,-2.3721504,-0.018145239,1.5684094,0.7876054,0.04,0.04,-0.012454351548063514,0.035933171754898297,-0.020845739594888002,0.047680197916066355,-0.0017409134096404858,-0.04661602041743673,0.9999047899943001,0.009760885839262837,-0.0029025489830930428,-0.00931188828800393
1792.3166666653653,-0.018628083,-0.7986799,0.000759687,-2.3728518,-0.018952226,1.5682964,0.78767645,0.04,0.04,-0.015673965569451553,0.03603709927285231,-0.021818499563663885,0.04895911177080174,-0.0013631028937728558,-0.04786351909565634,0.9998963086670685,0.01018413307988203,-0.0030147146251530586,-0.00972454847850402
1792.333333332032,-0.01944563,-0.7992991,0.00079092325,-2.3735712,-0.01978041,1.5681802,0.78774935,0.04,0.04,-0.013386326270259374,0.03619383560326678,-0.02173015821422819,0.050245409832352615,-0.0009843762119175758,-0.049116794752447276,0.9998872285047193,0.010618502109735072,-0.0031298872689737764,-0.010147979689589802
1792.3499999986986,-0.020284194,-0.7999341,0.0008229615,-2.3743088,-0.020629864,1.5680611,0.78782415,0.04,0.04,-0.014391746843456232,0.036271249825349516,-0.0216277513222618,0.05153830744417358,-0.0005989073078125871,-0.05037378853048794,0.9998775183436804,0.011064069880604255,-0.0032482994769041313,-0.010582212390056621
1792.3666666653653,-0.021143883,-0.800585,0.00085580547,-2.375065,-0.021500714,1.5679393,0.78790087,0.04,0.04,-0.014547177090129537,0.03638154117728831,-0.02186241178911974,0.05283770426242622,-0.00020791349879402485,-0.05163991044576491,0.9998671467413632,0.01152088793998395,-0.003369946669690327,-0.011027305554974706
1792.383333332032,-0.022024794,-0.8012519,0.00088945887,-2.3758404,-0.022393044,1.5678142,0.7879795,0.04,0.04,-0.01535770279927906,0.03643986032619839,-0.022620503560277783,0.05414320861390149,0.00018831899577457546,-0.052909716494053786,0.999856080061289,0.011989004784429946,-0.0034952717856373957,-0.011483292380523494
1792.3999999986986,-0.022927012,-0.801935,0.0009239252,-2.3766341,-0.02330695,1.5676862,0.78805995,0.04,0.04,-0.013858962655088902,0.036510113698680347,-0.022337169411734692,0.05545407081734256,0.0005865092649958853,-0.054184380843298276,0.9998442872870584,0.012468437489131162,-0.0036237355098158413,-0.01195022121003928
1792.4166666653653,-0.02385062,-0.8026343,0.00095920806,-2.377447,-0.024242532,1.5675551,0.7881423,0.04,0.04,-0.015154953292095819,0.036556566329759566,-0.022844323205895023,0.056770318331116995,0.0009900178205259746,-0.055466070926083494,0.9998317324595538,0.012959251796996045,-0.0037558117293602566,-0.012428130915097056
1792.433333332032,-0.024795692,-0.80335003,0.0009953101,-2.3782785,-0.025199858,1.5674208,0.7882266,0.04,0.04,-0.014409527410874645,0.036583577855650584,-0.023026892133670707,0.0580912031007372,0.0013980152791752748,-0.05675259552209672,0.9998183815630536,0.013461488904153229,-0.003891260102982,-0.012917054615135483
1792.4499999986986,-0.025762301,-0.804082,0.0010322336,-2.3791287,-0.02617903,1.5672837,0.7883128,0.04,0.04,-0.014170118194023473,0.03663138038489805,-0.022740457869563357,0.059416774333126865,0.0018100170864229692,-0.0580460921337811,0.9998041991189455,0.01397518264896006,-0.004029990142919711,-0.013417036688483626
1792.4666666653652,-0.026750507,-0.80483055,0.0010699808,-2.3799977,-0.02718006,1.5671434,0.7884009,0.04,0.04,-0.014215980197618272,0.03658223567447813,-0.02347687398385201,0.06074663901855785,0.002229681287343051,-0.05933574528404312,0.9997891484903444,0.014500367455239731,-0.004172120170718145,-0.013928076604334198
1792.4833333320319,-0.027760366,-0.80559534,0.0011085544,-2.380886,-0.028203005,1.5670003,0.7884909,0.04,0.04,-0.015344275216233605,0.03657180107821609,-0.02333500864297733,0.06208004554412376,0.0026558028590340796,-0.060629126912189454,0.9997731912839568,0.015037062492945466,-0.004317948192520928,-0.014450192555206864
1792.4999999986985,-0.02879192,-0.8063766,0.0011479559,-2.381793,-0.029247943,1.5668539,0.7885829,0.04,0.04,-0.01396494399599213,0.036557573211856015,-0.023544943887565672,0.06341663183007049,0.0030837550445949906,-0.0619248289444017,0.9997562892061894,0.015585356971047525,-0.004467205941238983,-0.014983421232606382
1792.5166666653652,-0.029845215,-0.8071744,0.0011881867,-2.38272,-0.030314887,1.5667043,0.78867686,0.04,0.04,-0.01624007144402917,0.036477772959499916,-0.024404054280591225,0.06475556942071213,0.00351878364915313,-0.06322150808270989,0.9997384015086911,0.016145206360894962,-0.004620580728936448,-0.015527752385280731
1792.5333333320318,-0.030920295,-0.80798864,0.0012292486,-2.383666,-0.031403873,1.5665514,0.78877264,0.04,0.04,-0.01473185667775212,0.03643655077203642,-0.024047505869795316,0.06609708371542318,0.003953548407097731,-0.06451997542398574,0.9997194903427935,0.016716607031880444,-0.00477768762732763,-0.016083201765281194
1792.5499999986985,-0.032017186,-0.8088195,0.0012711423,-2.384631,-0.032514963,1.5663959,0.7888704,0.04,0.04,-0.014029939865278784,0.03639229771674746,-0.023793055333354296,0.06744114729515706,0.0043919168151229804,-0.06582043866986649,0.9996995157208486,0.017299631748122383,-0.0049381410843113436,-0.016649797942058793
1792.5666666653651,-0.03313591,-0.8096669,0.0013138687,-2.385615,-0.033648152,1.5662372,0.78897005,0.04,0.04,-0.014927676407983093,0.03626940757521582,-0.024425917153103605,0.0687865178625223,0.004839311502357904,-0.06712134397785847,0.9996784350299406,0.01789426016617049,-0.005102391408916173,-0.01722752423026902
1792.5833333320318,-0.034276478,-0.81053096,0.0013574286,-2.386618,-0.034803476,1.5660757,0.7890717,0.04,0.04,-0.013492356415323314,0.03618825933170977,-0.024135062520125317,0.07013365229633198,0.005289743145414986,-0.06842264987796746,0.9996562078907958,0.018500533541693915,-0.005269935371721052,-0.017816398773168297
1792.5999999986984,-0.035438888,-0.81141156,0.0014018228,-2.3876407,-0.035980925,1.5659109,0.7891753,0.04,0.04,-0.016195755923775756,0.03601865187762843,-0.02511191293368409,0.07148167074509748,0.0057492965871112104,-0.0697227701017889,0.9996327869136007,0.019118439472995272,-0.005441789895669693,-0.018416392757447147
1792.616666665365,-0.036623172,-0.8123086,0.0014470506,-2.3886824,-0.03718049,1.5657426,0.7892808,0.04,0.04,-0.01432890255348429,0.03592299544638994,-0.02495768606201043,0.07282996071375632,0.006207595079564876,-0.07102269751674722,0.9996081303245947,0.01974797825543468,-0.005617602901970409,-0.01902749803380981
1792.6333333320317,-0.03782932,-0.81322235,0.0014931129,-2.3897436,-0.03840222,1.5655713,0.78938824,0.04,0.04,-0.015075791478591505,0.035795141911205974,-0.025125110534096606,0.07417846802058731,0.006671312991339744,-0.0723233371243098,0.9995821931558523,0.020389164319575402,-0.0057973496211855295,-0.01964972878834602
1792.6499999986984,-0.039057326,-0.8141526,0.0015400085,-2.390824,-0.039646078,1.5653971,0.78949773,0.04,0.04,-0.014804360067843803,0.035630200926660416,-0.024988044823714972,0.07552647768105127,0.007137928313290527,-0.07362106518002551,0.9995549302647923,0.021042023061773208,-0.005980975481600479,-0.020283061433191845
1792.666666665365,-0.040307168,-0.81509936,0.0015877374,-2.3919232,-0.04091205,1.5652199,0.78960913,0.04,0.04,-0.013643839555754766,0.03545648081276637,-0.024997676584903594,0.07687379340034575,0.007609283142455259,-0.07491790075991203,0.9995262982911208,0.02170649472177215,-0.006168279317408003,-0.020927480536496203
1792.6833333320317,-0.04157883,-0.8160628,0.0016362992,-2.3930426,-0.04220012,1.5650396,0.78972256,0.04,0.04,-0.0162167116155576,0.035243612967228444,-0.02593232587126959,0.07822018936363447,0.00808693629779354,-0.07621256826706682,0.9994962457686277,0.022382613421521435,-0.0063599816619817435,-0.021582954943685208
1792.6999999986983,-0.04287228,-0.8170425,0.0016856922,-2.3941798,-0.043510254,1.5648562,0.7898379,0.04,0.04,-0.012676746428375019,0.035084976168893445,-0.02495477734014706,0.0795652195328357,0.00856588467464819,-0.07750501620087015,0.9994647314724436,0.02307032725141491,-0.006555256764714357,-0.022249475319148934
1792.716666665365,-0.0441875,-0.8180387,0.0017359153,-2.395337,-0.044842415,1.5646695,0.7899552,0.04,0.04,-0.01609224346736937,0.034836571662391624,-0.026202007282072337,0.08090841402636613,0.009053101084218518,-0.07879361433378239,0.9994317014182199,0.02376963629467782,-0.0067551245106287445,-0.022926990285399254
1792.7333333320316,-0.045524452,-0.81905156,0.0017869672,-2.3965127,-0.046196606,1.5644797,0.7900744,0.04,0.04,-0.012952251813680427,0.03466547577799378,-0.025639140707323094,0.08224938829258703,0.009539043904636498,-0.08008170703486048,0.999397113269285,0.024480509633104757,-0.0069586109785208,-0.023615511224044674
1792.7499999986983,-0.04688308,-0.8200806,0.0018388465,-2.397708,-0.04757274,1.564287,0.7901955,0.04,0.04,-0.015479626012804282,0.03437632345002495,-0.025976944237471322,0.08358823219642758,0.01003310766513488,-0.08136268000211919,0.9993609141378114,0.025202900042481678,-0.007166558178142579,-0.02431496590510095
1792.766666665365,-0.048263334,-0.8211262,0.0018915508,-2.3989222,-0.0489708,1.5640911,0.79031855,0.04,0.04,-0.014176433958734691,0.034141815036124734,-0.02626935958220944,0.08492433141723246,0.010529907132854786,-0.08264233638316283,0.9993230565604388,0.02593679380025442,-0.007378588005099449,-0.02502534301695458
1792.7833333320316,-0.049665183,-0.82218826,0.0019450784,-2.4001553,-0.050390694,1.5638924,0.7904435,0.04,0.04,-0.01393005946153103,0.03388980149822418,-0.026023156618992793,0.08625763720433398,0.011029155114977854,-0.08391604024584015,0.9992834916607198,0.02668217270077452,-0.007594620204691856,-0.025746586147927027
1792.7999999986982,-0.05108854,-0.8232667,0.0019994266,-2.4014077,-0.051832404,1.5636905,0.7905704,0.04,0.04,-0.014782500382382047,0.03360279849352471,-0.026590203909115928,0.08758756569776656,0.011535819027222944,-0.0851866330246189,0.9992421655365464,0.027439020498721392,-0.007815050826233199,-0.02647866591215466
1792.816666665365,-0.052533347,-0.82436115,0.0020545933,-2.4026785,-0.053295817,1.5634855,0.79069924,0.04,0.04,-0.013561169790521355,0.03330798558764947,-0.026219021248907737,0.08891363724384324,0.012043133856175883,-0.08645143412826702,0.9991990291787968,0.028207313962575174,-0.008039680599560244,-0.02722151838204172
1792.8333333320315,-0.053999536,-0.8254719,0.002110575,-2.4039688,-0.05478089,1.5632771,0.79083,0.04,0.04,-0.015333215292057112,0.03300086008621861,-0.02715707250218191,0.09023521107650788,0.012555925762633468,-0.08771095642549744,0.9991540277663564,0.028986980917352252,-0.008269086620650014,-0.02797509503155531
1792.8499999986982,-0.055487044,-0.82659876,0.0021673697,-2.4052773,-0.056287527,1.5630661,0.79096264,0.04,0.04,-0.012798059054919264,0.032737588574065224,-0.026068595096773173,0.09155226845642886,0.013067672517861754,-0.08896494040029382,0.9991071178271771,0.029777966508247634,-0.008502297208422643,-0.028739359072268333
1792.8666666653648,-0.05699576,-0.82774186,0.0022249743,-2.406605,-0.05781567,1.562852,0.79109716,0.04,0.04,-0.014868594942862856,0.03235875824876833,-0.027177031388125883,0.09286472831929651,0.013587978377570947,-0.09021265903846196,0.9990582405647757,0.030580235185612824,-0.00874015580724301,-0.029514248289131524
1792.8833333320315,-0.05852562,-0.82890075,0.0022833853,-2.4079504,-0.059365224,1.5626352,0.79123354,0.04,0.04,-0.012353670100284653,0.03209497730987665,-0.02609066841414709,0.09417242329943668,0.014108877420558838,-0.09145501820547954,0.9990073502695515,0.031393735023826794,-0.008981899895432542,-0.030299719188994326
1792.8999999986981,-0.060076505,-0.83007574,0.002342598,-2.4093149,-0.06093607,1.562415,0.7913718,0.04,0.04,-0.014613114466088817,0.03165414885061557,-0.027523707930399155,0.09547475763099134,0.01463808223248288,-0.09268693651798761,0.9989543870701475,0.03221843254721338,-0.009228432285264503,-0.031095678076912332
1792.9166666653648,-0.061648358,-0.83126664,0.0024026108,-2.410697,-0.06252816,1.5621917,0.79151195,0.04,0.04,-0.012283906150867274,0.03140979524446641,-0.026764951152191685,0.0967712369607778,0.015167086678562636,-0.09391792564816578,0.9988993031534973,0.03305427990112155,-0.009479051397091447,-0.031902105326876484
1792.9333333320315,-0.06324104,-0.8324733,0.0024634178,-2.412098,-0.06414135,1.5619658,0.79165393,0.04,0.04,-0.014316697962746261,0.030959608779197734,-0.02703088627771244,0.0980618392303526,0.015703359907734867,-0.09513611805955634,0.9988420436548308,0.03390118132740633,-0.009734243716947984,-0.032718897159083875
1792.949999998698,-0.064854465,-0.8336956,0.0025250162,-2.4135165,-0.06577553,1.561737,0.79179776,0.04,0.04,-0.01244779040323607,0.030623049475046737,-0.026887333397929147,0.09934642210807815,0.016240948302473933,-0.09634930248713848,0.9987825572474002,0.03475911177508853,-0.009993663544398113,-0.033546000892986205
1792.9666666653648,-0.06648852,-0.8349336,0.0025874015,-2.4149532,-0.06743064,1.5615051,0.7919433,0.04,0.04,-0.01322467384381465,0.030257653427602504,-0.027279979749361694,0.1006241044623932,0.016784240411091035,-0.09755443404115757,0.9987207895859659,0.035627949300010696,-0.010257592951494218,-0.034383360282296424
1792.9833333320314,-0.0681431,-0.8361873,0.002650569,-2.4164088,-0.0691065,1.5612704,0.7920907,0.04,0.04,-0.014311102033226497,0.0298042764258738,-0.02772024191808331,0.1018956346954416,0.017331892616019036,-0.09874998965079258,0.9986566834066586,0.03650768708077557,-0.010526338412752384,-0.03523086247660109
1792.999999998698,-0.06981803,-0.83745635,0.002714514,-2.417882,-0.07080303,1.5610327,0.79224,0.04,0.04,-0.012741738213328802,0.029410863726481162,-0.027203276154486034,0.10315943449518436,0.017879233230225045,-0.09993804922547245,0.9985901861837364,0.03739827826760282,-0.010799612110573906,-0.03608846378568811
1793.0166666653647,-0.071513236,-0.8387406,0.0027792314,-2.419373,-0.072520055,1.560792,0.7923911,0.04,0.04,-0.013244961742975292,0.029004204453200733,-0.027423407392723753,0.10441556713352092,0.018430171113589133,-0.1011177388704413,0.9985212443647214,0.03829962214687492,-0.01107763599436885,-0.03695604790168046
1793.0333333320314,-0.07322855,-0.84004,0.0028447171,-2.4208817,-0.07425747,1.5605485,0.792544,0.04,0.04,-0.012742652719599512,0.0285688564215264,-0.02729538630199535,0.10566388848300377,0.018983731726133535,-0.1022910239715927,0.9984498062063322,0.039211630604073934,-0.011360212768709022,-0.03783355756147046
1793.049999998698,-0.07496386,-0.8413547,0.0029109647,-2.4224079,-0.07601514,1.5603023,0.79269874,0.04,0.04,-0.012289318404912208,0.02814285308991582,-0.02746975092053905,0.10690418214477417,0.01954057986568186,-0.10345446406478606,0.9983758167215603,0.04013428007110891,-0.011647293181483092,-0.038720907921638084
1793.0666666653647,-0.07671902,-0.84268445,0.0029779691,-2.4239519,-0.07779291,1.5600531,0.79285526,0.04,0.04,-0.01331554680157332,0.02769086844880142,-0.02773216999021333,0.10813572060921223,0.020100590175536205,-0.10460292233864477,0.9982992195412488,0.04106745799575532,-0.011939276439223375,-0.03961799887940364
1793.0833333320313,-0.0784939,-0.8440292,0.0030457247,-2.4255135,-0.07959065,1.5598013,0.7930135,0.04,0.04,-0.0128167170085014,0.02724488126142066,-0.02760258889615841,0.10935867201874212,0.020661406405786256,-0.10574467224898011,0.9982199641718181,0.04201106101988289,-0.012235966319536301,-0.04052474563800702
1793.099999998698,-0.08028833,-0.84538877,0.0031142256,-2.4270914,-0.0814082,1.5595468,0.79317355,0.04,0.04,-0.010600270061122963,0.026815322937534525,-0.027090489199510515,0.11057278762100485,0.021224069885211257,-0.1068735446349784,0.9981380005468511,0.04296506133542578,-0.012536836564922554,-0.041441079832962024
1793.1166666653646,-0.08210215,-0.8467628,0.0031834661,-2.4286864,-0.0832454,1.5592895,0.79333526,0.04,0.04,-0.012650990946627694,0.026298499360799532,-0.027567171509734756,0.11177751557040787,0.021795032274949232,-0.10799038221051038,0.9980532708259012,0.043929293934602424,-0.012842673448576763,-0.042366867559697284
1793.1333333320313,-0.08393519,-0.848152,0.0032534404,-2.4302993,-0.08510205,1.5590292,0.79349864,0.039999984,0.04,-0.013034798320310514,0.02572487366877818,-0.028444467804544793,0.11297305906559223,0.022366407209280702,-0.10909882555786742,0.9979657221394458,0.04490367229396801,-0.013153486722752643,-0.043302002681684715
1793.149999998698,-0.08578735,-0.8495553,0.0033241422,-2.4319277,-0.08697807,1.5587665,0.79366374,0.04,0.04,-0.009986496412217605,0.025467415281793526,-0.02668172699182847,0.1141591345359295,0.022936881384457406,-0.11019440339855295,0.9978753059194884,0.04588818580400016,-0.013468484031716113,-0.044246448191831614
1793.1666666653646,-0.0876584,-0.8509729,0.003395564,-2.433573,-0.088873245,1.5585012,0.7938306,0.03999999,0.04,-0.012252854611527475,0.024830771120454287,-0.027550171527113143,0.11533479748905547,0.023516026241532425,-0.11127887140078573,0.9977819645451689,0.04688269646714423,-0.013788357681522926,-0.04520005744243248
1793.1833333320312,-0.089548185,-0.85240465,0.0034676997,-2.4352357,-0.0907874,1.558233,0.7939991,0.039999988,0.04,-0.013234718285692892,0.024299416143910846,-0.02825093882989904,0.11650024119479768,0.024095500695633123,-0.11235137793149912,0.9976856398163937,0.047887091016444956,-0.014113654138745555,-0.046162705563994086
1793.1999999986979,-0.09145654,-0.8538505,0.0035405443,-2.4369152,-0.092720345,1.5579623,0.79416925,0.039999984,0.04,-0.011987994300044491,0.023809177054262554,-0.02764070048644207,0.11765478987535097,0.024672737979677,-0.11341225158758327,0.9975862857479619,0.04890128133886707,-0.014443876247914057,-0.04713429335353964
1793.2166666653645,-0.09338324,-0.8553104,0.0036140892,-2.43861,-0.09467192,1.5576888,0.7943411,0.039999973,0.04,-0.01002666502505356,0.023295921553087573,-0.027397328316425273,0.11879873929747188,0.025249135456211852,-0.11446181448163065,0.9974838547373113,0.04992518540774578,-0.014778586000027578,-0.04811474614124479
1793.2333333320312,-0.09532818,-0.85678387,0.003688328,-2.4403207,-0.096641935,1.5574129,0.7945145,0.039999973,0.04,-0.010822691145473406,0.022862996253852907,-0.02724198767687369,0.11993167752280418,0.02583156573576374,-0.11549664662829569,0.9973782941072945,0.05095866927352452,-0.015118064108845293,-0.0491039367779781
1793.2499999986978,-0.09729112,-0.858271,0.0037632533,-2.4420469,-0.09863017,1.5571343,0.79468954,0.03999997,0.04,-0.010376314875726322,0.02222966280194527,-0.027370891961320254,0.12105334039065767,0.026415929686010094,-0.11651861129307052,0.9972695525743442,0.05200167226557283,-0.015462253699060641,-0.05010173949372317
1793.2666666653645,-0.09927184,-0.85977167,0.0038388574,-2.443789,-0.10063645,1.5568532,0.7948661,0.039999958,0.04,-0.011241524969896055,0.021675341065732767,-0.027575074501196006,0.1221633634775644,0.027003815220803046,-0.11752818214236882,0.9971575812889737,0.05305397972191337,-0.015811434290436827,-0.051108041043164645
1793.2833333320311,-0.101270206,-0.8612858,0.0039151334,-2.4455469,-0.102660626,1.5565697,0.79504424,0.03999996,0.04,-0.010842318855930344,0.021211879190879968,-0.027482269584444552,0.12326208575120155,0.027591885845108,-0.1185244637094573,0.9970423263276348,0.05411557664326122,-0.016165492789965225,-0.052122746652521375
1793.2999999986978,-0.10328599,-0.8628131,0.003992074,-2.4473202,-0.10470242,1.5562837,0.795224,0.039999954,0.04,-0.010763402324820426,0.020591548244894287,-0.02742734780751821,0.12434858179396638,0.028181229808416662,-0.11950783668583395,0.9969237387864264,0.05518634769839704,-0.01652455214071771,-0.053145698305256096
1793.3166666653644,-0.10531899,-0.8643535,0.004069671,-2.4491086,-0.10676166,1.5559951,0.7954052,0.039999943,0.04,-0.010095001845655815,0.02006306417891013,-0.027356352649965388,0.1254226722460352,0.02877178737530879,-0.12047819408579201,0.9968017744871626,0.05626611102614447,-0.016888534066202596,-0.05417678973815569
1793.333333332031,-0.107369,-0.8659067,0.0041479156,-2.450912,-0.108838126,1.5557042,0.7955879,0.039999947,0.04,-0.010151478101128042,0.019501780022881943,-0.027113008169998842,0.12648487247932322,0.029361241522825755,-0.12143075103922345,0.9966763855406247,0.05735476932484666,-0.017257382364505202,-0.05521590074692941
1793.3499999986977,-0.10943582,-0.8674729,0.004226801,-2.4527304,-0.11093161,1.5554111,0.7957721,0.03999994,0.04,-0.010073630789131371,0.018935307178499783,-0.027257111937917244,0.12753436377320063,0.02995311435214421,-0.1223722719290395,0.996547523757493,0.05845222558052235,-0.017631102027481003,-0.056262904820044604
1793.3666666653644,-0.11151922,-0.8690513,0.004306318,-2.454563,-0.113041915,1.5551153,0.79595786,0.039999932,0.04,-0.009275500618777244,0.018398823557871924,-0.02683329000736645,0.12857083546866266,0.030546333073852787,-0.1232990012722511,0.996415136810177,0.05955843073015202,-0.018009782026775126,-0.05731767803972712
1793.383333332031,-0.11361897,-0.8706423,0.0043864576,-2.4564097,-0.11516882,1.5548176,0.796145,0.03999993,0.04,-0.009065298520050113,0.017796548008139346,-0.02680084392534532,0.12959363320814912,0.03113915290603387,-0.12420952853344597,0.9962791917375732,0.06067313811725414,-0.01839307552542183,-0.058380109578936
1793.3999999986977,-0.11573489,-0.8722455,0.004467211,-2.4582705,-0.11731206,1.5545174,0.7963336,0.03999992,0.04,-0.009234760709131429,0.01722495674596758,-0.026828588905258854,0.13060376612639915,0.03173665611142215,-0.12510700182671766,0.9961396365105135,0.0617962821431461,-0.018781310042388054,-0.059450033465745344
1793.4166666653643,-0.11786673,-0.8738606,0.0045485734,-2.4601455,-0.11947142,1.5542151,0.7965237,0.03999991,0.04,-0.009386589981885685,0.016628771979187995,-0.026623676479031744,0.13159993372126277,0.03233394204397186,-0.12598887926373858,0.9959964255224573,0.06292774854894854,-0.019174514578385374,-0.060527322753709895
1793.433333332031,-0.12001427,-0.87548757,0.004630531,-2.4620345,-0.121646695,1.5539104,0.79671514,0.03999991,0.04,-0.009498775837690765,0.016029799758465746,-0.0268667810265244,0.1325824842113258,0.032930882147902775,-0.12685290196060595,0.9958495150615614,0.06406736671589,-0.019572872023245747,-0.061611837779005064
1793.4499999986976,-0.12217729,-0.87712634,0.0047130794,-2.4639368,-0.12383764,1.5536032,0.796908,0.039999906,0.04,-0.00837664730519716,0.01545330664094735,-0.026675659298680543,0.1335508870257474,0.03352696090062762,-0.12770401101481493,0.9956988624083588,0.06521507089054296,-0.0199761430182496,-0.06270345793938202
1793.4666666653643,-0.12435551,-0.8787766,0.0047962074,-2.4658532,-0.12604405,1.5532942,0.79710233,0.03999989,0.04,-0.00965175651841399,0.014836817792127088,-0.02640495078887195,0.13450458431669984,0.03412158666851364,-0.12854111245433972,0.9955444266449363,0.06637066780872133,-0.020384504200092163,-0.06380204557336804
1793.483333332031,-0.12654872,-0.8804384,0.004879908,-2.467782,-0.12826565,1.552983,0.7972979,0.03999989,0.04,-0.006944057601132592,0.0142797632279007,-0.025961595488999123,0.13544421758398015,0.034715647810597355,-0.12935973539047213,0.9953861795591762,0.06753401613107221,-0.020797335638680636,-0.06490748060222036
1793.4999999986976,-0.12875667,-0.8821114,0.004964168,-2.4697242,-0.13050215,1.5526698,0.7974947,0.039999887,0.04,-0.008834298303694865,0.013579748190714613,-0.026332039707499533,0.13636902518226357,0.03531295370143453,-0.13016126567165368,0.9952240751324802,0.06870494511183908,-0.021215286253132497,-0.06601956091247599
1793.5166666653643,-0.13097915,-0.88379544,0.0050489814,-2.4716787,-0.1327534,1.5523543,0.79769295,0.03999988,0.04,-0.007331535969123948,0.013110349246350794,-0.02590351007352165,0.13727996832679057,0.035909512145236855,-0.1309483716171303,0.9950580689452665,0.0698834582485257,-0.021637964251544066,-0.06713821708380911
1793.533333332031,-0.1332159,-0.88549024,0.0051343367,-2.473646,-0.13501906,1.552037,0.79789233,0.039999865,0.04,-0.008016175958824867,0.012426904373105674,-0.025715341938647995,0.13817493432971217,0.03650591181301514,-0.13171950552134717,0.9948881354141343,0.07106924699453872,-0.02206557990758885,-0.06826324287021665
1793.5499999986976,-0.13546664,-0.8871957,0.0052202255,-2.4756258,-0.137299,1.5517176,0.798093,0.039999865,0.04,-0.00808771803548769,0.011827611057282916,-0.02582957548027398,0.1390555923750234,0.03710156123864317,-0.13247163975283494,0.9947142271670221,0.07226224557248534,-0.02249824200153412,-0.06939454764732066
1793.5666666653642,-0.13773113,-0.88891155,0.00530664,-2.4776175,-0.13959286,1.5513965,0.7982949,0.03999985,0.04,-0.0071157949498745765,0.011226840835237839,-0.02521754282691635,0.13992051704548705,0.0376961772815228,-0.13321023305389026,0.9945363202225123,0.07346228808788839,-0.022935649694707093,-0.0705319499251116
1793.5833333320309,-0.1400092,-0.8906376,0.0053935684,-2.4796207,-0.14190036,1.5510732,0.79849803,0.039999846,0.04,-0.006588750688041323,0.010644269655990524,-0.02522956464225956,0.14077029492965765,0.038289311935818374,-0.13393028109453584,0.994354374258639,0.0746693162608533,-0.023377853849985912,-0.07167529247387826
1793.5999999986975,-0.1423005,-0.8923736,0.0054810005,-2.4816358,-0.14422128,1.5507481,0.7987023,0.03999984,0.04,-0.007452854122247388,0.009970662511327166,-0.025126548575982177,0.14160395835536596,0.03888298101422937,-0.134632317701114,0.994168361293652,0.07588307171543653,-0.02382502672548212,-0.07282442537538099
1793.6166666653642,-0.14460477,-0.8941195,0.0055689276,-2.4836626,-0.1465554,1.550421,0.79890776,0.03999983,0.04,-0.00728463983314942,0.009354584184823045,-0.025139878865254595,0.14242155273889961,0.03947512809466553,-0.1353198810467368,0.9939782431575817,0.07710344478272457,-0.02427727572520621,-0.07397921880749551
1793.6333333320308,-0.14692175,-0.8958751,0.005657337,-2.4857004,-0.1489024,1.5500923,0.7991144,0.039999824,0.04,-0.006068993134045186,0.008765480750388965,-0.024406232736806643,0.14322311105427332,0.04006228075252478,-0.13599033579837314,0.9937840003984507,0.07833030599486976,-0.02473408452845131,-0.07513952872717156
1793.6499999986975,-0.14925118,-0.8976401,0.00574622,-2.4877493,-0.15126203,1.5497618,0.7993221,0.03999982,0.04,-0.006857637361767921,0.008098707261916527,-0.02466832236101002,0.14400886652860928,0.04065069951261193,-0.13664142400710444,0.9935855999414835,0.07956344730793485,-0.025195919803580793,-0.07630517064165028
1793.6666666653641,-0.1515928,-0.8994144,0.005835569,-2.4898095,-0.15363406,1.5494295,0.7995309,0.039999813,0.04,-0.0068982849652510225,0.007531531557514182,-0.024456114470949863,0.14477782533542458,0.04123511650407344,-0.13727511719470348,0.9933830127089933,0.08080272643765082,-0.025662741322391068,-0.07747601673593081
1793.6833333320308,-0.15394635,-0.9011977,0.00592537,-2.49188,-0.15601806,1.5490955,0.79974085,0.0399998,0.04,-0.005698914269691713,0.006845136545086117,-0.02391735958364727,0.14553060394113468,0.04181757039310586,-0.13789331193560136,0.9931762183128775,0.08204805161370098,-0.026134319477783823,-0.07865185280436966
1793.6999999986974,-0.1563116,-0.90298975,0.006015613,-2.493961,-0.1584139,1.5487599,0.79995173,0.03999979,0.04,-0.006530720639075227,0.0063266373642956175,-0.023934234185962744,0.1462664016740379,0.04239587187075691,-0.13849206825411386,0.9929651904774683,0.08329918109354303,-0.026610859234246192,-0.07983256916826169
1793.716666665364,-0.15868817,-0.90479046,0.0061062896,-2.4960518,-0.16082135,1.5484228,0.80016357,0.03999979,0.04,-0.0047036925224785975,0.005713596946416155,-0.023259693747457177,0.14698569584382568,0.04297102981983933,-0.13907259704985991,0.9927499144810996,0.08455595948376735,-0.027091867703827724,-0.08101807031685677
1793.7333333320307,-0.16107586,-0.9065997,0.0061973874,-2.4981518,-0.16323999,1.5480841,0.8003765,0.03999978,0.04,-0.0044409510495002635,0.005053331831633701,-0.023080869568392615,0.14768847570299293,0.04354580604558272,-0.13963554920982182,0.9925303664794936,0.08581833964900264,-0.027577290651605437,-0.08220813363826954
1793.7499999986974,-0.1634743,-0.9084171,0.0062888963,-2.5002613,-0.16566962,1.5477436,0.80059034,0.039999764,0.04,-0.005277587356933289,0.004380411742932466,-0.023271745181308034,0.14837356836864202,0.0441218119234781,-0.14018305363748723,0.9923065206230703,0.0870860662314975,-0.0280676169350625,-0.0834026083335879
1793.766666665364,-0.16588332,-0.91024256,0.006380804,-2.5023806,-0.16810997,1.5474018,0.80080515,0.03999977,0.04,-0.0055961426598694075,0.003856125202600369,-0.02278790754635107,0.14904179876190649,0.04469128818353323,-0.14070606858253284,0.9920783611703731,0.08835899002458843,-0.02856268161750225,-0.08460134395007418
1793.7833333320307,-0.16830261,-0.9120756,0.0064731017,-2.504508,-0.17056063,1.5470586,0.8010209,0.039999753,0.04,-0.0033508160522277564,0.003254199960300852,-0.021914641896958464,0.14969224950194499,0.0452578739383,-0.1412147318946974,0.9918458806508321,0.08963701907760968,-0.02906201435704138,-0.08580415589216317
1793.7999999986973,-0.17073187,-0.9139164,0.0065657785,-2.5066447,-0.1730214,1.546714,0.80123746,0.039999746,0.04,-0.005112548589880639,0.0025492878825916776,-0.022551580497820467,0.15032548511896132,0.04582417849144922,-0.14170299026636674,0.9916090605315055,0.09091986129889762,-0.02956610547705453,-0.08701089184770928
1793.816666665364,-0.17317078,-0.9157645,0.0066588228,-2.5087898,-0.17549205,1.5463679,0.8014549,0.039999727,0.04,-0.004035201252139409,0.0019996962919544004,-0.02180618193714512,0.15094109590765042,0.04638636441683696,-0.14217546320954627,0.9913678841415234,0.09220742046176172,-0.03007474717750788,-0.08822142306013742
1793.8333333320306,-0.17561907,-0.91761965,0.006752225,-2.5109434,-0.1779722,1.5460205,0.8016732,0.039999735,0.04,-0.004646380305106668,0.0013470638299317717,-0.021673398761890006,0.15153925824326006,0.04694350739643675,-0.14262403189891276,0.9911223404881927,0.09349950538017032,-0.0305881225171503,-0.08943553790158701
1793.8499999986973,-0.17807648,-0.9194815,0.00684597,-2.5131052,-0.18046153,1.5456718,0.80189234,0.039999716,0.04,-0.004149447103918291,0.0007597648510826449,-0.02125989149985852,0.1521190460847281,0.047496993071392185,-0.1430575390971602,0.9908724171236427,0.09479601122874,-0.031106141913652133,-0.09065305937428778
1793.866666665364,-0.1805427,-0.9213502,0.006940049,-2.5152745,-0.18295982,1.545322,0.8021123,0.0399997,0.04,-0.0032654858473257775,0.0002131781731640192,-0.020911681496826873,0.15268059986097093,0.048043622335139556,-0.1434735932983374,0.9906181118926434,0.09609673956495479,-0.031628489390267335,-0.09187389016542978
1793.8833333320306,-0.18301745,-0.9232252,0.0070344517,-2.5174513,-0.1854668,1.5449708,0.802333,0.039999682,0.04,-0.003309773318016518,-0.0004041581330105348,-0.020627949047291594,0.15322440401143542,0.048588140190677614,-0.14387045894777475,0.9903594141861554,0.09740152236323582,-0.03215531159201641,-0.0930978523414995
1793.8999999986972,-0.18550038,-0.9251065,0.007129166,-2.519635,-0.18798201,1.5446185,0.80255437,0.039999682,0.04,-0.0025968271772924822,-0.0010888950850995727,-0.02006708826907122,0.1537495358167307,0.049127205159794275,-0.1442448367350697,0.9900963373067591,0.09871014255302153,-0.03268631063476634,-0.0943247353878615
1793.916666665364,-0.18799123,-0.9269939,0.00722418,-2.5218258,-0.19050533,1.544265,0.8027764,0.03999967,0.04,-0.0031903843463076953,-0.0016039665102607348,-0.02013324215274226,0.1542567890108982,0.049665343229638004,-0.14460361603041938,0.9898288627384509,0.10002243615850102,-0.033221756788928754,-0.09555443281544154
1793.9333333320305,-0.19048971,-0.928887,0.007319484,-2.5240233,-0.1930363,1.5439105,0.8029992,0.039999656,0.04,-0.0027384701766219877,-0.002254408875229652,-0.019554530586674,0.15474582943025947,0.05019618499766606,-0.14494252984912942,0.9895569907854851,0.1013383118557838,-0.0337615163822259,-0.09678671680229749
1793.9499999986972,-0.19299549,-0.93078566,0.0074150623,-2.526227,-0.19557472,1.5435549,0.8032226,0.039999638,0.04,-0.0021205671810520244,-0.002794510403930639,-0.019154628692774622,0.15521593699264716,0.0507227496391624,-0.1452633619769834,0.989280729098514,0.10265752455549253,-0.03430544598254457,-0.0980214673548096
1793.9666666653638,-0.1955083,-0.9326898,0.007510907,-2.5284374,-0.1981203,1.5431982,0.80344665,0.03999963,0.04,-0.0029883361243543405,-0.0034028978046884983,-0.019265240407462247,0.1556679417016861,0.05124590376138682,-0.14556216664098567,0.9890000672003627,0.1039799347720961,-0.03485380442219354,-0.09925851378984246
1793.9833333320305,-0.19802786,-0.93459886,0.007607005,-2.530654,-0.20067264,1.5428408,0.8036713,0.03999962,0.04,-0.002634989156269363,-0.00396493601536041,-0.01842010482224765,0.15610029932341718,0.051760660390600205,-0.14584413722530096,0.9887150205152305,0.1053053418881013,-0.03540643481142739,-0.10049764948167383
1793.9999999986971,-0.20055379,-0.9365127,0.0077033457,-2.5328758,-0.20323147,1.5424825,0.8038965,0.039999604,0.04,-0.0012979521221812007,-0.004568026786433421,-0.01792847075069437,0.1565142766967059,0.05226875118524923,-0.14610800534096213,0.9884256014270724,0.10663356476719414,-0.0359630606343459,-0.10173874177706849
1794.0166666653638,-0.20308581,-0.93843126,0.0077999164,-2.5351028,-0.20579644,1.5421231,0.80412227,0.039999586,0.04,-0.001418478958692404,-0.005180562737544525,-0.0178757738005908,0.15690960022235234,0.05277355786188122,-0.14635159569562434,0.9881318098004157,0.10796449538626794,-0.0365237559725358,-0.10298159760948582
1794.0333333320305,-0.20562361,-0.94035417,0.00789671,-2.5373356,-0.20836735,1.5417628,0.8043485,0.039999574,0.04,-0.002489190522503293,-0.005708634094836462,-0.017653181670862494,0.15728545880833275,0.05327108691072351,-0.14657559803649678,0.9878336518605726,0.10929785373852044,-0.03708881338992767,-0.10422607802889419
1794.049999998697,-0.2081669,-0.94228125,0.007993707,-2.539573,-0.21094383,1.5414021,0.80457515,0.039999567,0.04,-0.0006138224762475275,-0.006196846635830866,-0.016597119257244497,0.15764244568803107,0.05376067137236063,-0.14678136129196917,0.9875311619853772,0.11063345998708886,-0.037657543340209224,-0.10547203927428399
1794.0666666653638,-0.21071535,-0.9442124,0.008090898,-2.541814,-0.21352558,1.5410407,0.8048024,0.03999955,0.04,0.00036999903341161655,-0.006754336891989787,-0.01624017015107171,0.15798135547594758,0.0542463247589189,-0.1469681544983078,0.9872243358486102,0.1119713414416906,-0.03822973671910593,-0.10671933580381078
1794.0833333320304,-0.21326865,-0.9461473,0.008188273,-2.54406,-0.21611223,1.5406784,0.80503017,0.039999537,0.04,-0.0015102652944243289,-0.007477304420333564,-0.016521695915971968,0.15830008028707962,0.054728782869419505,-0.14713421317221478,0.9869131879621782,0.11331118271909467,-0.03880603112097633,-0.10796771390451976
1794.099999998697,-0.21582657,-0.9480854,0.008285818,-2.54631,-0.21870352,1.5403153,0.8052582,0.03999952,0.04,-0.0009452498545892141,-0.007832053759687652,-0.01579219368604834,0.15859947876538422,0.05520329287129082,-0.14728146549110996,0.9865977361527211,0.1146527775756398,-0.03938639435909682,-0.10921702958745205
1794.1166666653637,-0.21838875,-0.95002675,0.008383523,-2.5485635,-0.22129916,1.5399518,0.8054867,0.039999504,0.04,-5.91850248810033e-06,-0.008379120879342672,-0.015049262705213451,0.15887923926092398,0.05566880956609378,-0.14740997456291238,0.9862780073771901,0.11599600288291737,-0.03997029588051973,-0.11046716673514066
1794.1333333320304,-0.22095484,-0.9519712,0.008481376,-2.5508206,-0.22389875,1.5395876,0.80571544,0.039999492,0.04,-0.0002583006576628577,-0.009067505598220338,-0.015077499766602553,0.15913939710769376,0.056127941992999725,-0.1475196357609935,0.9859540249981249,0.11734062852617264,-0.04055795065430252,-0.11171790423116071
1794.149999998697,-0.2235245,-0.95391816,0.008579363,-2.553081,-0.22650203,1.5392231,0.80594456,0.039999474,0.04,-0.0002899222004471014,-0.009528876505698891,-0.0142979063439852,0.15938065864934736,0.05658077384968527,-0.14761022400173573,0.9856258110441574,0.11868647650893077,-0.04114930261651676,-0.1129690921961229
1794.1666666653637,-0.22609746,-0.95586777,0.008677474,-2.5553446,-0.22910863,1.5388582,0.8061739,0.039999463,0.04,0.00011205557441940073,-0.010078306749800037,-0.014036061222200136,0.15960229504007034,0.05702392543969237,-0.1476814235693492,0.9852933975937478,0.1200333642165818,-0.041744186594848444,-0.11422055427353076
1794.1833333320303,-0.22867343,-0.95781976,0.008775698,-2.5576108,-0.23171827,1.5384929,0.8064036,0.039999448,0.04,0.000650453895745251,-0.010555018502872437,-0.013529469489137469,0.1598050092442561,0.05745993708081907,-0.1477341525465819,0.9849568059491308,0.12138117150165739,-0.042342456358755415,-0.11547215252552608
1794.199999998697,-0.23125206,-0.95977354,0.00887402,-2.559879,-0.23433061,1.538127,0.80663353,0.039999425,0.04,0.0007608573994843937,-0.0110793665104858,-0.013132642949109652,0.159987744794647,0.05788895896857954,-0.1477643866887215,0.9846160562908219,0.12272974239184874,-0.0429443167707364,-0.11672368090423721
1794.2166666653636,-0.23383306,-0.9617291,0.008972427,-2.5621493,-0.23694536,1.5377609,0.8068636,0.039999403,0.04,0.0012733757338567742,-0.011511658770474442,-0.012379667929574012,0.1601501557778054,0.0583086687998972,-0.1477798639232548,0.9842712002607364,0.12407881458131138,-0.04354933939734678,-0.1179750276433133
1794.2333333320303,-0.23641609,-0.9636864,0.00907091,-2.5644214,-0.23956215,1.5373943,0.80709386,0.039999392,0.04,0.0010678699382760115,-0.012156316714900806,-0.012402633638308735,0.1602936539416701,0.05872180019812598,-0.14777448550875025,0.9839222609508789,0.12542825918309897,-0.04415769146009627,-0.11922598076142242
1794.249999998697,-0.23900081,-0.96564484,0.009169454,-2.566695,-0.2421807,1.5370275,0.8073243,0.039999373,0.04,0.0013433789139094543,-0.012554409187437443,-0.01154851269603574,0.16041723718988143,0.0591272172075134,-0.147749892069779,0.9835692742028401,0.12677788556657255,-0.04476928221732436,-0.12047639580064176
1794.2666666653636,-0.24158694,-0.96760446,0.009268052,-2.56897,-0.2448007,1.5366606,0.8075549,0.03999936,0.04,0.0013782262721084848,-0.013068923577980174,-0.011271831747383665,0.16052090690052492,0.05952155480933362,-0.14770548504655492,0.98321227581719,0.12812753604335014,-0.04538399089054519,-0.12172612111083171
1794.2833333320302,-0.24417423,-0.9695648,0.009366687,-2.571246,-0.24742179,1.5362935,0.8077856,0.039999343,0.04,0.0016826818270754273,-0.013465145022184544,-0.010660443023235988,0.16060489445952147,0.05990924361899987,-0.14764514112987798,0.9828513073189801,0.1294770282675598,-0.04600179169705598,-0.1229749649848865
1794.2999999986969,-0.24676222,-0.97152585,0.009465348,-2.5735223,-0.25004363,1.5359265,0.80801636,0.03999933,0.04,0.002447824184947933,-0.014052247408341545,-0.010058156966308296,0.16066895240824866,0.060286367735962125,-0.14756287197833579,0.9824864196637961,0.13082618085695386,-0.04662234086406088,-0.12422279545620447
1794.3166666653635,-0.24935067,-0.97348714,0.0095640225,-2.5757992,-0.2526659,1.5355592,0.8082472,0.039999302,0.04,0.0019044865610551298,-0.01449109854102515,-0.009849407393081044,0.16071293240287104,0.06065803966943768,-0.1474645759538648,0.9821176426056857,0.13217482537384687,-0.047245960320107125,-0.12546940206072038
1794.3333333320302,-0.25193933,-0.9754484,0.0096627,-2.578076,-0.25528842,1.5351919,0.80847806,0.039999284,0.04,0.002907881178648708,-0.014736064244397218,-0.009044926186130287,0.16073692368098538,0.061018987518660306,-0.14734650632051993,0.9817450193885086,0.13352281606168637,-0.0478722720214142,-0.12671471922520167
1794.3499999986968,-0.25452772,-0.9774097,0.00976137,-2.5803525,-0.25791067,1.5348246,0.80870885,0.03999927,0.04,0.00241648924650395,-0.015527852789726238,-0.008819908818291644,0.160741153762316,0.06137037705434248,-0.14720919661411228,0.9813686183540477,0.13486987099524167,-0.048501336253543546,-0.12795848228708923
1794.3666666653635,-0.25711566,-0.9793706,0.009860015,-2.5826287,-0.2605325,1.5344576,0.8089396,0.039999247,0.04,0.0028708456336179466,-0.015666975608341627,-0.008089818691536799,0.16072565856472507,0.061712546434143284,-0.14705396944109325,0.9809884717710512,0.13621588511418484,-0.04913298129927646,-0.12920062323186304
1794.3833333320301,-0.2597027,-0.9813309,0.009958624,-2.5849047,-0.2631535,1.5340906,0.80917025,0.039999224,0.04,0.002206289262485228,-0.016352675117714544,-0.007903137943776617,0.16069025816268248,0.06204615297870983,-0.14688116497806292,0.9806046358815188,0.1375606147460319,-0.04976741361690075,-0.13044090577825695
1794.3999999986968,-0.26228872,-0.9832902,0.010057187,-2.5871794,-0.26577333,1.5337238,0.8094008,0.039999217,0.04,0.003406549247286783,-0.016566667019862757,-0.007122726732122775,0.16063546731844522,0.062368016008770705,-0.14668787445277093,0.9802171582585875,0.13890399066200645,-0.05040430828315837,-0.13167919251014912
1794.4166666653634,-0.26487306,-0.9852485,0.010155694,-2.5894527,-0.26839182,1.533357,0.80963135,0.039999194,0.04,0.0036824394837431385,-0.01717082077263843,-0.006712994547941609,0.16056033744787704,0.06267978689724742,-0.14647993050270783,0.9798260916406041,0.14024577899733823,-0.051043568700800124,-0.1329154080910677
1794.43333333203,-0.26745564,-0.9872054,0.010254125,-2.5917244,-0.27100843,1.5329902,0.8098616,0.03999918,0.04,0.003599519587993427,-0.01753467703810574,-0.0062323240903050525,0.16046583646799792,0.06298151557067898,-0.1462490610190417,0.979431507623793,0.14158577793772556,-0.051685256826780705,-0.13414925861257218
1794.4499999986967,-0.27003616,-0.9891608,0.010352476,-2.5939946,-0.273623,1.532624,0.81009173,0.039999157,0.04,0.0032639392610667173,-0.017833858547122716,-0.005630626242059122,0.16035153712741967,0.06327242808249489,-0.14600216544841307,0.9790334511894552,0.14292386362850645,-0.05232917416815928,-0.13538067878557558
1794.4666666653634,-0.27261442,-0.9911142,0.010450732,-2.5962625,-0.27623498,1.5322582,0.81032175,0.039999135,0.04,0.0042570045600598405,-0.018203940128502794,-0.004917550702543405,0.16021698058915684,0.06355273859016287,-0.1457379255288568,0.9786319819225899,0.14425997927387452,-0.05297514873590865,-0.13660942849808427
1794.48333333203,-0.27518994,-0.99306566,0.01054888,-2.598528,-0.27884433,1.5318928,0.8105513,0.039999112,0.04,0.004262413916023,-0.018595671446336448,-0.004523292933511502,0.16006168996072376,0.06382301167340627,-0.145457019033499,0.978227182749487,0.1455937051930484,-0.05362309660016766,-0.13783546513568606
1794.4999999986967,-0.2777624,-0.99501485,0.0106469095,-2.6007905,-0.28145054,1.5315279,0.81078064,0.039999098,0.04,0.004684980711777698,-0.019042613829589605,-0.003880934866473673,0.15988808328289628,0.06408301201883948,-0.14515566671536728,0.9778191039815841,0.14692505256024901,-0.05427284810770865,-0.13905857318805537
1794.5166666653633,-0.28033143,-0.9969614,0.010744807,-2.6030505,-0.28405342,1.5311631,0.81100965,0.03999908,0.04,0.0038414540040943024,-0.01950809261825337,-0.0038233956926481127,0.15969395247370466,0.06433363124145354,-0.14483873528689895,0.9774078053429271,0.14825370954627687,-0.054924827992541565,-0.14027859042092064
1794.53333333203,-0.28289676,-0.99890524,0.010842562,-2.6053073,-0.28665254,1.530799,0.81123835,0.03999906,0.04,0.004576951136292529,-0.01979396189455418,-0.0028231655866073346,0.15948060867524946,0.06457086400236758,-0.1445054172600092,0.9769933679512668,0.14957957235555364,-0.05557850722814509,-0.14149537111673136
1794.5499999986966,-0.28545815,-1.000846,0.010940162,-2.6075602,-0.28924757,1.5304357,0.81146675,0.039999045,0.04,0.005815598305725089,-0.020009779513130432,-0.001998144909731714,0.15924784269872871,0.06479551441855728,-0.14415216569739336,0.9765758579256848,0.15090256936649332,-0.056233511174787656,-0.14270879614185786
1794.5666666653633,-0.28801537,-1.0027839,0.0110375965,-2.6098092,-0.29183838,1.5300727,0.8116948,0.039999027,0.04,0.005391334649518242,-0.02032576881645376,-0.002194008967504324,0.15899514726656586,0.06501220160261356,-0.14378245295712494,0.9761553166086789,0.15222257206708073,-0.05689003521004182,-0.1439187628618746
1794.58333333203,-0.290568,-1.004718,0.01113485,-2.6120543,-0.2944246,1.5297107,0.8119224,0.039999004,0.04,0.0046828164653955895,-0.020655287259785382,-0.001064279008822222,0.1587216356946365,0.06521956982165415,-0.1433954159057493,0.975731844246,0.15353920923564798,-0.05754816426920608,-0.14512507757391843
1794.5999999986966,-0.2931156,-1.0066483,0.011231912,-2.6142955,-0.29700577,1.5293493,0.81214947,0.039998982,0.04,0.005008270544881732,-0.021251757758977696,-0.0007849743992816016,0.15842921606434496,0.06541370050271017,-0.142991262701014,0.9753055269999691,0.15485230764996824,-0.058207761235869925,-0.14632753790965058
1794.6166666653633,-0.29565793,-1.0085744,0.011328771,-2.6165323,-0.2995816,1.5289884,0.81237614,0.039998967,0.04,0.004720870130414667,-0.021516059380666253,-0.0004668265466190036,0.1581183325205149,0.06559448776602374,-0.1425687130328615,0.974876412145246,0.1561617931473171,-0.058869115772967176,-0.14752593877666392
1794.63333333203,-0.29819468,-1.0104966,0.01142542,-2.6187637,-0.30215177,1.5286283,0.8126024,0.039998945,0.04,0.007164336807408134,-0.02171626571607632,0.000705816901425127,0.15778700086528924,0.06576063190121623,-0.14213459201905368,0.9744446042900319,0.1574675747388671,-0.059531054687818705,-0.14872030662844443
1794.6499999986966,-0.30072564,-1.0124142,0.011521837,-2.62099,-0.30471608,1.5282693,0.81282806,0.03999892,0.04,0.005597633839649063,-0.02188885915941352,0.0010114242432579523,0.1574362888358422,0.06591826556692976,-0.14168041810802917,0.9740101675417266,0.15876938117680767,-0.060194183104361726,-0.14991043141312585
1794.6666666653632,-0.30325037,-1.0143274,0.011618016,-2.623211,-0.30727428,1.5279112,0.81305313,0.039998908,0.04,0.006515767487758062,-0.022263622754170598,0.0015187927703497195,0.15706705519651842,0.06606349504153836,-0.14120835925535755,0.9735731888823218,0.16006705042666228,-0.060858080307498064,-0.15109625845301797
1794.6833333320299,-0.3057687,-1.0162352,0.011713946,-2.6254265,-0.30982584,1.5275539,0.8132777,0.039998885,0.04,0.005147735016253208,-0.022611447529152784,0.0019538142757680177,0.1566785601436343,0.06619799767429174,-0.1407210734792516,0.9731337321364586,0.16136047299175166,-0.061523307270043535,-0.15227744349246614
1794.6999999986965,-0.30828026,-1.018138,0.011809612,-2.6276357,-0.31237054,1.5271975,0.81350166,0.039998863,0.04,0.007347620619535533,-0.022799392629935245,0.002713148195210291,0.15627050489842442,0.06631712673281517,-0.14022025700028107,0.9726918988355223,0.1626495121062207,-0.06218905428862353,-0.15345399205638438
1794.7166666653632,-0.31078476,-1.0200356,0.011905005,-2.6298387,-0.3149081,1.5268421,0.81372494,0.03999884,0.04,0.006721738264392485,-0.023086736487043513,0.00318330696982283,0.15584285098970163,0.06642547092983239,-0.13970195280656825,0.9722477727981769,0.16393397111458768,-0.06285537121254613,-0.15462575371948678
1794.7333333320298,-0.31328192,-1.0219276,0.0120001165,-2.6320353,-0.31743816,1.5264878,0.8139477,0.03999882,0.04,0.006716773613901772,-0.023323513813489072,0.0037315423154438143,0.15539640408865144,0.06652161673616726,-0.13916681391789817,0.9718014246819066,0.165213771614683,-0.0635222389510965,-0.15579257303770222
1794.7499999986965,-0.31577137,-1.0238142,0.012094929,-2.634225,-0.3199605,1.5261345,0.81416965,0.0399988,0.04,0.0075926383134694575,-0.02362589521270886,0.004134903917063504,0.15493072465864718,0.06660585113475076,-0.13861676766739,0.9713529603037379,0.16648868284691232,-0.06418931237209774,-0.15695437926436703
1794.7666666653631,-0.31825286,-1.0256945,0.012189437,-2.6364074,-0.3224748,1.5257825,0.814391,0.03999878,0.04,0.00717526273177338,-0.023710672750199002,0.005150152982480449,0.1544464594348338,0.06667995119991954,-0.1380502047808366,0.9709024542725724,0.16775859233235346,-0.06485668405568516,-0.15811100378994503
1794.7833333320298,-0.32072607,-1.0275685,0.01228363,-2.638583,-0.32498062,1.5254316,0.81461143,0.039998762,0.04,0.006622509972209478,-0.024171082354640383,0.005319908026002462,0.15394311511615016,0.06674022170225258,-0.13746752970758355,0.9704500311083999,0.16902316522305394,-0.06552447314954751,-0.1592622056803181
1794.7999999986964,-0.3231907,-1.029436,0.012377487,-2.640751,-0.3274778,1.525082,0.81483114,0.039998747,0.04,0.007646794703042303,-0.024213338574463616,0.005985165434063688,0.15342228315327322,0.06678711439997977,-0.13686993359168714,0.9699957483198155,0.17028242723242973,-0.06619230858833078,-0.16040798453026142
1794.816666665363,-0.32564646,-1.0312968,0.012471,-2.6429112,-0.32996598,1.5247335,0.8150501,0.039998718,0.04,0.007321682035654753,-0.024523727612935087,0.006409735307422171,0.1528823653145453,0.06682216570648147,-0.13625900867864751,0.9695397000958165,0.17153623619831632,-0.06686022731189276,-0.16154813404317528
1794.8333333320297,-0.32809305,-1.0331504,0.012564165,-2.6450634,-0.332445,1.5243865,0.8152682,0.03999869,0.04,0.007618255114749672,-0.024526038662586735,0.007326250316408434,0.15232341695018986,0.06684337989393511,-0.1356329511379218,0.9690819876933432,0.1727843185973593,-0.06752812014387953,-0.16268261543569754
1794.8499999986964,-0.33053026,-1.0349971,0.012656966,-2.647207,-0.3349143,1.5240408,0.8154856,0.039998677,0.04,0.008498796803713127,-0.024897427575709674,0.007688155078267034,0.15174691043977726,0.06685041397918447,-0.134990355831103,0.9686227032951846,0.1740267536711898,-0.06819553743866794,-0.16381122165848963
1794.866666665363,-0.33295768,-1.0368363,0.012749388,-2.649342,-0.33737376,1.5236964,0.81570196,0.039998654,0.04,0.007950313118443297,-0.025021490684296044,0.008227292947915466,0.15115133940058503,0.06684705605448847,-0.1343347290092311,0.9681619549773866,0.17526316567394268,-0.06886272174833584,-0.16493385718440057
1794.8833333320297,-0.33537516,-1.038668,0.012841431,-2.6514688,-0.33982316,1.5233533,0.8159175,0.03999863,0.04,0.007570129247258528,-0.025202904545629234,0.00834817063247728,0.15053785510355364,0.0668303352222176,-0.13366673822300748,0.9676998042525448,0.17649355114439938,-0.06952965339514137,-0.16605042171815587
1794.8999999986963,-0.33778226,-1.040492,0.012933072,-2.6535861,-0.3422621,1.5230118,0.8161321,0.039998606,0.04,0.008769232329686183,-0.02536842346509971,0.009509342191582615,0.14990637286828307,0.06679664739212537,-0.13298012086836616,0.9672363839400635,0.17771772333827862,-0.07019583554451071,-0.1671608000286467
1794.916666665363,-0.34017876,-1.042308,0.013024307,-2.6556947,-0.34469035,1.5226717,0.81634575,0.03999857,0.04,0.0075846306945015485,-0.02555403266261136,0.009609318397496569,0.14925646289324296,0.0667538857518732,-0.13228196008439463,0.9667717784634154,0.17893545381704076,-0.07086167417943942,-0.1682648355018405
1794.9333333320296,-0.34256434,-1.0441155,0.013115125,-2.6577926,-0.3471076,1.5223333,0.8165584,0.039998554,0.04,0.010456822657767262,-0.025486480270531242,0.011116445657188834,0.14858976290980483,0.06669333138291417,-0.13156779966875912,0.966306106890917,0.18014676197698046,-0.07152615103135683,-0.16936251549019998
1794.9499999986963,-0.3449388,-1.0459146,0.013205514,-2.6598809,-0.3495136,1.5219964,0.81677014,0.039998535,0.04,0.00828749517132188,-0.02576392141159234,0.010786843781795952,0.14790508454560833,0.06662590895714066,-0.13084309420504928,0.9658394392047666,0.18135145512490236,-0.07218989527104518,-0.17045364889452522
1794.966666665363,-0.34730184,-1.047705,0.013295463,-2.6619601,-0.3519079,1.5216612,0.8169807,0.03999851,0.04,0.007188050345741104,-0.026126292741734947,0.011127189446447083,0.1472027303259837,0.06654354446287647,-0.13010272203452955,0.9653719083331002,0.18254922948912217,-0.07285311658991078,-0.17153798651427982
1794.9833333320296,-0.34965318,-1.0494869,0.013384961,-2.6640282,-0.3542905,1.5213276,0.8171904,0.03999849,0.04,0.010760295706058187,-0.02584168277444121,0.012354384628421311,0.14648381877148609,0.06644328848084308,-0.1293507280733353,0.9649035828875218,0.18374029301567227,-0.07351463233286946,-0.1726156982614888
1794.9999999986962,-0.3519926,-1.0512593,0.013473999,-2.666086,-0.35666084,1.5209959,0.81739897,0.039998464,0.04,0.008387204002513471,-0.02615359167814635,0.012626245811386827,0.145746369451113,0.06633467520409661,-0.12858401635905925,0.9644345919657712,0.1849242601440753,-0.07417518255035478,-0.1736864362107887
1795.016666665363,-0.35431975,-1.0530224,0.013562569,-2.6681328,-0.3590189,1.5206655,0.8176064,0.039998453,0.04,0.009520277336472205,-0.026225817922231887,0.012983328745308498,0.14499250288041127,0.06621089016982144,-0.1278038891241514,0.9639650174485738,0.18610107368711723,-0.07483446083276642,-0.1747502188260208
1795.0333333320295,-0.35663438,-1.0547762,0.01365066,-2.6701689,-0.36136422,1.5203373,0.81781274,0.039998434,0.04,0.00914175668365047,-0.026377761980767023,0.013762897448699185,0.14422140159090746,0.06607323789508379,-0.12701180664788603,0.9634949913563919,0.1872705820732871,-0.07549214254498159,-0.17580690297894055
1795.0499999986962,-0.35893616,-1.0565203,0.013738257,-2.6721935,-0.3636965,1.5200106,0.8180179,0.039998405,0.04,0.009740603849506257,-0.026578890757900098,0.014039043209357338,0.14343360499642505,0.06592359685389476,-0.1262091183011611,0.9630246109371832,0.18843267884932755,-0.07614831970195189,-0.17685631930333315
1795.0666666653628,-0.36122495,-1.0582545,0.013825351,-2.6742072,-0.36601564,1.519686,0.81822205,0.039998375,0.04,0.008782759103387328,-0.02641849659275053,0.014692835645846447,0.14262880025843253,0.06576109330533457,-0.12539516713270638,0.9625539551406431,0.18958725010203833,-0.07680297874408372,-0.17789845558038933
1795.0833333320295,-0.3635004,-1.0599787,0.013911936,-2.6762085,-0.3683214,1.5193629,0.8184249,0.039998356,0.04,0.010972367160055896,-0.026542252700911817,0.015253164759454485,0.14180803828612926,0.06558273819750883,-0.12456738560350786,0.9620831508195133,0.19073418953364865,-0.07745559046481239,-0.17893325950724498
1795.0999999986961,-0.36576235,-1.0616924,0.013998001,-2.6781983,-0.3706134,1.5190421,0.8186265,0.03999834,0.04,0.008870797096083294,-0.02655913532421117,0.015840744295581022,0.14097034513515633,0.06539343117266389,-0.1237255686932438,0.9616123022561082,0.19187329566168998,-0.07810653271562816,-0.1799605181943291
1795.1166666653628,-0.36801058,-1.0633959,0.014083536,-2.680176,-0.3728913,1.5187231,0.81882703,0.039998315,0.04,0.01017776503755563,-0.02678430371404472,0.01601657364616038,0.14011664964241005,0.065188489400642,-0.12287679072307478,0.9611415031306892,0.19300464012200355,-0.0787553631212584,-0.18098014429957218
1795.1333333320295,-0.37024447,-1.0650885,0.014168533,-2.682141,-0.37515497,1.5184063,0.8190262,0.039998285,0.04,0.010391648795859965,-0.026823711188928012,0.01720806944918163,0.13924596490830396,0.0649727248331735,-0.1220158091831203,0.9606709173896316,0.19412777978326023,-0.07940193985070025,-0.1819921029773856
1795.149999998696,-0.37246412,-1.0667704,0.014252982,-2.6840937,-0.37740406,1.5180913,0.819224,0.039998274,0.04,0.009910835147564079,-0.026851987679876732,0.017036808386949875,0.13836132760431,0.064743072181825,-0.12114252321363236,0.9602006057727516,0.19524281581364702,-0.0800463739695101,-0.18299622280564312
1795.1666666653628,-0.3746692,-1.0684412,0.014336871,-2.686034,-0.3796385,1.5177784,0.81942064,0.039998252,0.04,0.00949645512287045,-0.02681353072245818,0.01759263142514511,0.1374609121756521,0.06450084919162281,-0.12025926506015867,0.9597306558851001,0.1963496057129632,-0.08068874982398995,-0.18399246218951756
1795.1833333320294,-0.37685966,-1.0701008,0.014420193,-2.6879606,-0.3818579,1.5174676,0.819616,0.039998233,0.04,0.011427813799258502,-0.026648505648052545,0.018423181298521385,0.1365442765810196,0.06424179014887106,-0.119364672482599,0.9592611787688082,0.19744823963168942,-0.08132830992333451,-0.18498078164619627
1795.199999998696,-0.379035,-1.071749,0.014502937,-2.689874,-0.38406205,1.5171587,0.81981,0.039998215,0.04,0.01059448183622358,-0.02694797828304285,0.018710257326470803,0.13561148400216314,0.06397227167778477,-0.1184585955688254,0.9587923108926751,0.19853835734258488,-0.08196536535589966,-0.18596102849485927
1795.2166666653627,-0.3811949,-1.0733855,0.014585097,-2.6917741,-0.38625073,1.5168524,0.8200025,0.039998192,0.04,0.010047720534789306,-0.02693808821737642,0.019459834173762847,0.13466364247160076,0.06368986971837462,-0.11754487513533787,0.9583241831351346,0.19961973263042726,-0.08259977390318944,-0.18693314236399036
1795.2333333320294,-0.38333932,-1.0750102,0.014666661,-2.6936607,-0.3884237,1.5165482,0.8201937,0.039998163,0.04,0.010546035827818656,-0.026848469093454508,0.01963768914111652,0.133702791730901,0.06339470393550747,-0.11661921946755736,0.9578568538928381,0.20069249466971106,-0.08323146094836606,-0.18789703015791084
1795.249999998696,-0.385468,-1.076623,0.0147476215,-2.6955338,-0.39058068,1.5162462,0.82038355,0.03999814,0.04,0.010351014669995884,-0.026936849974967814,0.020104371432427826,0.1327262600759725,0.06308486459522498,-0.11568510649293912,0.9573904474368822,0.20175648343886854,-0.08386034209903773,-0.18885257628642635
1795.2666666653627,-0.3875807,-1.0782237,0.014827971,-2.6973922,-0.39272153,1.5159465,0.82057196,0.039998114,0.04,0.011742285155214027,-0.026771568290429038,0.020874164012507634,0.13173535392864527,0.06276191403674702,-0.1147418618777856,0.956925071186941,0.20281164042789915,-0.08448594326752494,-0.18979982094567102
1795.2833333320293,-0.38967717,-1.0798122,0.014907701,-2.6992364,-0.394846,1.5156491,0.82075894,0.0399981,0.04,0.011044900497791943,-0.0268396286736583,0.02113324623588264,0.13073039892561586,0.062427981058445645,-0.11378722541133066,0.9564608288527782,0.20385784013125494,-0.08510841191940684,-0.19073862248593687
1795.299999998696,-0.39175722,-1.0813882,0.0149868,-2.701066,-0.39695367,1.515354,0.82094437,0.039998084,0.04,0.011209040817727889,-0.026897825222538252,0.02169547803969607,0.12971133411263883,0.06208101219635659,-0.11282292046987241,0.955997857294877,0.20489495036208463,-0.08572755172087097,-0.19166883690279055
1795.3166666653626,-0.3938206,-1.0829518,0.015065264,-2.7028809,-0.39904454,1.5150615,0.82112837,0.039998062,0.04,0.011481543699387586,-0.026739956502941364,0.02218694694766654,0.12867884887017184,0.0617228522248547,-0.11185117126848097,0.9555362368753366,0.20592293097279515,-0.08634316924261203,-0.1925905076654494
1795.3333333320293,-0.39586726,-1.0845025,0.015143083,-2.7046812,-0.40111843,1.5147711,0.8213108,0.039998043,0.04,0.010642467057420113,-0.026724983079839948,0.022118183069175235,0.12763266216791208,0.06135403570885414,-0.11086981281193735,0.9550760469539212,0.20694167595885787,-0.08695567015579907,-0.1935034850176247
1795.349999998696,-0.3978967,-1.0860401,0.015220248,-2.7064662,-0.4031751,1.5144832,0.8214918,0.039998025,0.04,0.01168151867076972,-0.026697794005947628,0.02317298931442391,0.1265724148810923,0.06096995527849523,-0.10987988604455765,0.954617430657873,0.20795104768560851,-0.08756448436711735,-0.19440777743737425
1795.3666666653626,-0.39990896,-1.0875651,0.01529675,-2.7082362,-0.40521416,1.5141977,0.8216711,0.039998,0.04,0.011296540166694236,-0.026768324233605867,0.023106494662339383,0.12549979772063152,0.06057406526668209,-0.10888113275738819,0.9541604898227369,0.20895102782244032,-0.08816961024228867,-0.19530321928453548
1795.3833333320292,-0.40190366,-1.0890764,0.015372585,-2.7099907,-0.40723556,1.5139145,0.821849,0.03999798,0.04,0.011340639445722722,-0.026631966234413884,0.023809366900151563,0.12441402284043761,0.06016548690007444,-0.10787333332379385,0.9537053120525588,0.2099414921406394,-0.0887711800895038,-0.19618976840296767
1795.3999999986959,-0.40388077,-1.0905746,0.015447745,-2.7117295,-0.40923896,1.5136341,0.82202524,0.039997965,0.04,0.012077098719487367,-0.026509612174729913,0.024441478411185713,0.12331517001594178,0.05974302680570894,-0.10685754158356639,0.9532520368335873,0.21092241291432934,-0.08936850370095624,-0.1970674010313889
1795.4166666653625,-0.40584004,-1.0920591,0.015522219,-2.7134528,-0.41122428,1.5133561,0.8222,0.039997943,0.04,0.011058238363803596,-0.02652857736284986,0.024421541654140455,0.1222043158526282,0.05931225667235869,-0.10583451066444198,0.9528007234181223,0.21189369834744554,-0.08996212335623745,-0.19793599575565288
1795.4333333320292,-0.40778112,-1.0935298,0.015596003,-2.7151606,-0.41319126,1.5130805,0.82237315,0.039997917,0.04,0.010851562906255552,-0.02660693422484872,0.024810159706678547,0.12108020581535775,0.05886812538416996,-0.10480584260642929,0.9523515028244254,0.21285514538019162,-0.09055201361936421,-0.1987954601662585
1795.4499999986958,-0.40970397,-1.0949868,0.015669085,-2.7168524,-0.4151397,1.5128078,0.8225445,0.03999789,0.04,0.011735991762806819,-0.02633348012668346,0.02563498414642762,0.11994424545095174,0.0584095990127026,-0.10377284373800608,0.9519045137251095,0.21380666866054296,-0.09113755413610614,-0.1996458149126394
1795.4666666653625,-0.41160834,-1.0964305,0.015741467,-2.7185278,-0.41706955,1.5125376,0.8227142,0.03999787,0.04,0.012690937649573186,-0.02635376001115519,0.025527248303580663,0.11879781202087152,0.05794080688724192,-0.1027309668705361,0.9514598080669816,0.21474839047307373,-0.09171849120733079,-0.20048710879509823
1795.4833333320291,-0.4134941,-1.0978596,0.015813138,-2.7201862,-0.41898054,1.51227,0.8228822,0.03999785,0.04,0.012302983474588025,-0.0260327356961243,0.026559891840460814,0.11763986441240612,0.05746209836922627,-0.10168064250347525,0.9510175035831279,0.21568012186919572,-0.09229509642205173,-0.20131916969193048
1795.4999999986958,-0.41536105,-1.0992736,0.015884088,-2.7218282,-0.42087248,1.512005,0.8230486,0.039997835,0.04,0.011065126407139303,-0.02604813367821368,0.02675531043676571,0.11647105052092083,0.056973353512600966,-0.10062335177316942,0.9505776822992028,0.21660175608932108,-0.09286772845159183,-0.20214186648475185
1795.5166666653624,-0.41720915,-1.1006732,0.015954312,-2.7234545,-0.4227452,1.5117428,0.8232135,0.039997812,0.04,0.01048011576481045,-0.026082453551656837,0.02652353985493905,0.11529055873711809,0.056467465014172574,-0.09956168274612799,0.9501404264625852,0.21751333829628494,-0.09343615435100239,-0.20295517417596967
1795.533333332029,-0.41903815,-1.1020597,0.016023804,-2.7250633,-0.42459857,1.5114836,0.8233766,0.03999779,0.04,0.01401879660456462,-0.025914415115990685,0.027237497202881045,0.1140985637234242,0.05594980886057381,-0.09849615734204696,0.9497058841934074,0.2184149020883824,-0.0939989599459182,-0.20375931783166712
1795.5499999986957,-0.42084768,-1.1034312,0.016092557,-2.7266545,-0.42643228,1.5112267,0.82353795,0.03999777,0.04,0.012720407895217,-0.02589209969308115,0.02789831977964008,0.11289699099971587,0.055428007803644805,-0.09742103362912528,0.9492741489233736,0.2193062229306422,-0.09455705441744633,-0.20455398854482468
1795.5666666653624,-0.42263794,-1.1047876,0.016160576,-2.72823,-0.42824632,1.5109726,0.8236975,0.03999776,0.04,0.009578685665845299,-0.02575659785613027,0.02741836512002438,0.11168498658747278,0.054896235483766424,-0.09633961814827237,0.9488452831191162,0.22018711292191748,-0.09511116570661521,-0.2053390614657708
1795.583333332029,-0.42440853,-1.106129,0.016227841,-2.729787,-0.43004057,1.5107213,0.82385534,0.03999773,0.04,0.013926594977031748,-0.025388102695445003,0.02879378414150091,0.11046266963389598,0.05434790453826828,-0.09525919554902598,0.948419398662609,0.2210577587594855,-0.09565988086368947,-0.2061147707609349
1795.5999999986957,-0.42615926,-1.1074556,0.016294349,-2.731328,-0.43181476,1.5104731,0.82401145,0.03999771,0.04,0.010370147159188825,-0.025701364097263646,0.02836041635424502,0.10923091881178663,0.05379162741712783,-0.09416959076713732,0.9479966132529086,0.22191783794334632,-0.09620397666061088,-0.20688085783428722
1795.6166666653623,-0.4278901,-1.108767,0.016360093,-2.7328506,-0.43356878,1.5102273,0.8241657,0.03999769,0.04,0.013462099059902144,-0.025301129246202425,0.02900756701260665,0.1079906271237031,0.05322250498460054,-0.09307834098350243,0.9475769878800442,0.22276756416747,-0.09674283509162207,-0.20763739608632661
1795.633333332029,-0.4296009,-1.1100634,0.016425073,-2.7343552,-0.43530256,1.5099843,0.8243183,0.03999768,0.04,0.012785817491556273,-0.025176967127116257,0.029204495637613626,0.10674119819862521,0.052644444204475824,-0.09197981863613079,0.9471605964721644,0.22360691411797545,-0.09727638143913567,-0.2083843997597655
1795.6499999986956,-0.43129152,-1.1113445,0.016489284,-2.7358425,-0.43701577,1.5097444,0.8244691,0.03999766,0.04,0.011687339570931599,-0.025153508468100938,0.029705222778264595,0.1054819370479801,0.05205749644397707,-0.09087801749187163,0.9467475851415526,0.2244356484470527,-0.09780471601723185,-0.20912170442012523
1795.6666666653623,-0.4329618,-1.1126102,0.016552726,-2.7373116,-0.43870836,1.5095074,0.82461804,0.03999765,0.04,0.012807982867890644,-0.025003272331070026,0.02993236080295336,0.10421493681236019,0.05146097819087222,-0.08977072930563726,0.9463380276581737,0.22525380342762305,-0.09832755322530576,-0.20984935960386472
1795.683333332029,-0.43461156,-1.1138604,0.01661538,-2.738763,-0.44038025,1.5092735,0.82476515,0.039997634,0.04,0.011737510808096374,-0.024873574461226067,0.030181641159510164,0.10293985709297741,0.05085644919235726,-0.08866119456116552,0.9459320190448968,0.2260612170556691,-0.0988451152508044,-0.21056729252191556
1795.6999999986956,-0.43624076,-1.1150947,0.016677257,-2.7401965,-0.4420313,1.5090421,0.8249104,0.039997607,0.04,0.012141136006960096,-0.02475366929732825,0.030161434968789536,0.10165788642925445,0.050242360521027096,-0.08754918686485945,0.945529604046097,0.226857967406824,-0.09935751681858192,-0.21127544662861517
1795.7166666653623,-0.4378494,-1.1163135,0.016738338,-2.741612,-0.44366148,1.5088139,0.82505375,0.0399976,0.04,0.01208272277790634,-0.024478580063136413,0.030489927328802846,0.10036782236083386,0.04961546105298667,-0.08643275048603029,0.945130880523472,0.22764400499956397,-0.09986438214272282,-0.211973891901661
1795.733333332029,-0.4394372,-1.1175165,0.016798625,-2.743009,-0.44527057,1.5085886,0.8251954,0.039997574,0.04,0.012538401716888359,-0.024440854673823953,0.03097923012328474,0.09907010337383823,0.048980509252428764,-0.08531544931689823,0.9447359348917912,0.22841935046522707,-0.10036554743173765,-0.21266257438934724
1795.7499999986956,-0.4410041,-1.1187038,0.016858116,-2.7443874,-0.44685853,1.5083662,0.825335,0.039997563,0.04,0.013264678999203028,-0.024179654347755708,0.031330373917226595,0.0977654433186889,0.04833627839231119,-0.0841940313037548,0.9443448636839817,0.22918392294058776,-0.10086076048503563,-0.2133415451655512
1795.7666666653622,-0.44254997,-1.1198751,0.01691681,-2.7457469,-0.4484252,1.5081469,0.8254728,0.039997548,0.04,0.012910395990672896,-0.024035576843528528,0.031590387794855346,0.09645481069505592,0.04768559231160369,-0.08306899509737187,0.9439577409919312,0.22993769114315563,-0.10135012562293265,-0.21401073208925914
1795.7833333320289,-0.44407487,-1.1210304,0.016974697,-2.7470882,-0.44997057,1.5079305,0.8256086,0.039997537,0.04,0.011870038536487826,-0.023955225099769883,0.031267023444858655,0.09513830434014782,0.04702821865744975,-0.0819401703894371,0.9435746188396897,0.23068064082705836,-0.10183383500143998,-0.21467009730759246
1795.7999999986955,-0.4455784,-1.1221699,0.017031776,-2.7484105,-0.45149434,1.5077173,0.8257426,0.039997514,0.04,0.01321663539610718,-0.02389581736883528,0.03219989801694911,0.09381520733837372,0.0463608231677031,-0.08081180382881595,0.943195630519208,0.2314127252167597,-0.10231132200800684,-0.2153196381341004
1795.8166666653622,-0.4470606,-1.1232933,0.017088043,-2.7497149,-0.45299646,1.5075067,0.82587475,0.039997496,0.04,0.011155824515762802,-0.02394232183041689,0.031438407145190084,0.09248710763784636,0.045688957805700495,-0.07968061176926433,0.9428208025128841,0.23213389874951224,-0.10278329398094646,-0.21595921346110405
1795.8333333320288,-0.44852152,-1.1244001,0.0171435,-2.751,-0.45447698,1.5072995,0.826005,0.03999748,0.04,0.013137318656530894,-0.02322880155005702,0.03273820277351902,0.09115316646163515,0.045006358939097206,-0.07854905728829346,0.9424502268468538,0.23284417830069676,-0.10324904108368568,-0.21658899801949008
1795.8499999986955,-0.44996095,-1.125491,0.017198136,-2.7522664,-0.4559358,1.5070953,0.82613325,0.03999747,0.04,0.012268451204944242,-0.023426744563737056,0.03219229540460944,0.08981485860659685,0.04431637802836654,-0.07741512422393025,0.9420839713241389,0.233543504638782,-0.1037087356927006,-0.2172089329567181
1795.8666666653621,-0.4513789,-1.1265655,0.017251953,-2.7535138,-0.45737275,1.5068944,0.8262597,0.03999746,0.04,0.01264301288861347,-0.023097608222355515,0.03280045561649958,0.08847220161885533,0.043619579098800244,-0.07628014922715559,0.9417221041514449,0.23423194382130622,-0.10416220310783096,-0.217818985604999
1795.8833333320288,-0.45277527,-1.1276233,0.01730495,-2.7547421,-0.4587879,1.5066962,0.8263842,0.039997436,0.04,0.012469691680427886,-0.02297758640527059,0.03269678216687444,0.08712493474063189,0.04291755207017483,-0.0751460234385208,0.9413646728685998,0.23490944001084013,-0.10460963152740625,-0.21841916733768504
1795.8999999986954,-0.45415002,-1.1286651,0.017357113,-2.7559514,-0.46018115,1.5065011,0.82650673,0.039997414,0.04,0.012780372596421508,-0.022820847878013417,0.03273831310206532,0.08577385181263876,0.042207802824369735,-0.07400886984605326,0.9410117474426014,0.23557603394470772,-0.10505070514855253,-0.2190095266277144
1795.916666665362,-0.4555031,-1.1296904,0.017408453,-2.757142,-0.46155247,1.5063092,0.8266274,0.039997395,0.04,0.01173706443255984,-0.02266491363189793,0.03291181496194451,0.0844186559446678,0.04149154008935543,-0.07287339898256791,0.9406633956039431,0.2362316216833822,-0.10548565692879898,-0.21959001177193604
1795.9333333320287,-0.45683444,-1.1306994,0.017458968,-2.7583132,-0.46290165,1.5061203,0.8267461,0.03999738,0.04,0.013241666514884898,-0.022488660783481773,0.033384617339693445,0.08306081492679528,0.04076886188600533,-0.07173695220795193,0.9403196947495429,0.2368763228840439,-0.10591397087080574,-0.22016064611423847
1795.9499999986954,-0.45814398,-1.1316917,0.017508654,-2.7594652,-0.4642287,1.5059346,0.82686275,0.039997358,0.04,0.012170457477012064,-0.022333297568388755,0.033335031466186216,0.08169974906679887,0.04004334636481097,-0.07060105502477125,0.9399807165661457,0.23750996157165813,-0.10633602823578467,-0.22072136221277605
1795.966666665362,-0.45943165,-1.1326675,0.017557507,-2.7605977,-0.4655338,1.5057518,0.82697755,0.039997347,0.04,0.013133404106646651,-0.02200587243348373,0.03344659439618036,0.08033674121517788,0.03930961080070463,-0.06946628050003922,0.939646459614401,0.23813271906302308,-0.10675149681450258,-0.2212723592625985
1795.9833333320287,-0.46069744,-1.1336266,0.017605526,-2.761711,-0.46681657,1.5055721,0.82709044,0.03999733,0.04,0.012315941777019113,-0.022038269583946057,0.033588999227707195,0.07897159529299283,0.038572963276990904,-0.06833061890633875,0.9393170215028468,0.23874452617791558,-0.10716059965043585,-0.2218134130697737
1795.9999999986953,-0.46194148,-1.1345693,0.017652716,-2.762805,-0.46807727,1.5053957,0.8272013,0.039997313,0.04,0.01239483525556917,-0.02165208928550655,0.033546517163940415,0.0776040590292576,0.03783045904006405,-0.06719742492815783,0.9389924390229418,0.23934538638442146,-0.10756307308970453,-0.22234471161180683
1796.016666665362,-0.46316355,-1.1354955,0.01769907,-2.7638803,-0.46931574,1.5052222,0.82731026,0.039997306,0.04,0.0117640785886719,-0.021757040659897697,0.03341963730811859,0.07623572086422825,0.0370838278837704,-0.06606479832194553,0.9386727638045386,0.2399352783608189,-0.10795917647128153,-0.22286615020031175
1796.0333333320286,-0.46436372,-1.136405,0.017744586,-2.7649362,-0.470532,1.505052,0.82741725,0.03999729,0.04,0.012304363289850073,-0.021323513390714144,0.03389966422733259,0.0748659957794843,0.03633159603331919,-0.06493498451792729,0.9383580510811912,0.24051420508375732,-0.10834872574345442,-0.22337779377952247
1796.0499999986953,-0.46554196,-1.1372981,0.01778927,-2.7659721,-0.4717261,1.5048847,0.82752234,0.03999728,0.04,0.013745039994983443,-0.021108917365464386,0.0339776552935378,0.07349605424700908,0.035575826058590054,-0.06380663079785381,0.938048321999516,0.2410823652249914,-0.10873123238825279,-0.2238797844262588
1796.066666665362,-0.4666982,-1.1381742,0.017833117,-2.7669897,-0.4728979,1.5047207,0.82762545,0.039997265,0.04,0.010489051210993416,-0.021188919085513014,0.033708618124794754,0.07212592937977044,0.034819059147794866,-0.062677376747068,0.9377436603313641,0.2416394157687668,-0.1091076763892624,-0.22437186813012028
1796.0833333320286,-0.46783257,-1.1390338,0.01787613,-2.7679873,-0.4740475,1.5045598,0.8277266,0.03999725,0.04,0.01361882938841763,-0.020658994428757183,0.03414546980502475,0.07075586621778136,0.03405423142368052,-0.061555737546730056,0.9374440724411295,0.24218570862890812,-0.10947703538399424,-0.22485433574746927
1796.0999999986952,-0.4689452,-1.1398768,0.017918305,-2.7689652,-0.47517493,1.504402,0.82782584,0.039997227,0.04,0.012739707654407795,-0.0204684537592148,0.03400965228039787,0.06938636627967598,0.03329145234383144,-0.06043576549461797,0.9371495834084484,0.24272127678668362,-0.10983951662385709,-0.22532714150818867
1796.116666665362,-0.47003588,-1.1407031,0.01795965,-2.7699249,-0.47628018,1.5042472,0.8279232,0.039997216,0.04,0.010548301447710351,-0.020669906597925447,0.03345758148092237,0.0680172390335578,0.03252618254207582,-0.059315302464081336,0.9368602354871527,0.24324589283013207,-0.11019591860290714,-0.22579015547071613
1796.1333333320285,-0.47110462,-1.141513,0.018000167,-2.7708647,-0.4773633,1.5040954,0.8280185,0.03999721,0.04,0.013240556584337426,-0.020194267196060878,0.03416347145399623,0.06664918238039255,0.03175250795943878,-0.058200905734606546,0.9365760890609612,0.24375973262996303,-0.11054521689754183,-0.2262436234869811
1796.1499999986952,-0.47215143,-1.1423063,0.018039862,-2.7717857,-0.47842428,1.503947,0.8281119,0.03999719,0.04,0.011551242707152909,-0.020102321625303787,0.03401335617638779,0.06528372972511327,0.030981280191460566,-0.05708866935738644,0.9362971772646829,0.24426269751401275,-0.11088782916685196,-0.22668749368244415
1796.1666666653618,-0.4731765,-1.143083,0.018078722,-2.7726874,-0.47946322,1.5038018,0.8282033,0.039997183,0.04,0.012207480694104156,-0.01971434230173541,0.03404529199317885,0.06392105964425143,0.030204623039944898,-0.05598016869508239,0.9360235060555836,0.24475492877046234,-0.11122365234894938,-0.22712181778098456
1796.1833333320285,-0.47417983,-1.143843,0.018116752,-2.77357,-0.48048007,1.5036595,0.8282928,0.039997175,0.04,0.011801663524035888,-0.019728960744291868,0.03370668467639337,0.06256113982914745,0.029428953197063765,-0.05487535019031374,0.9357550962642159,0.24523645504066333,-0.11155288246161901,-0.22754655644316174
1796.1999999986951,-0.4751614,-1.1445873,0.018153962,-2.7744339,-0.4814749,1.5035201,0.82838035,0.039997164,0.04,0.011945983882100109,-0.019642368722738723,0.03354171196280342,0.06120399906924553,0.02864948406276253,-0.053775429258493504,0.935491973150789,0.24570736516590713,-0.11187521448882655,-0.22796182850808597
1796.2166666653618,-0.4761213,-1.1453149,0.018190341,-2.7752786,-0.4824478,1.503384,0.82846594,0.03999714,0.04,0.011870658365276121,-0.019193637213088532,0.033943719305118414,0.05984973738932545,0.02787256732708818,-0.05268298445190764,0.935234173615523,0.24616759930716633,-0.11219076238919483,-0.22836765617654195
1796.2333333320285,-0.47705957,-1.146026,0.018225905,-2.7761045,-0.48339888,1.5032508,0.82854956,0.039997138,0.04,0.01146242838885314,-0.01906258319644971,0.033644181675718254,0.058499689820459166,0.027093610791668683,-0.05159339838083824,0.9349816975339412,0.24661717805771427,-0.11249974515804607,-0.22876407083013303
1796.249999998695,-0.47797644,-1.1467208,0.018260652,-2.776911,-0.48432818,1.5031209,0.8286312,0.039997127,0.04,0.012437118849994988,-0.018663619973990908,0.033845481917893494,0.05715483482574011,0.02631267580467511,-0.05051010092037753,0.9347345585879937,0.24705628746423122,-0.11280171987861143,-0.22915118982481167
1796.2666666653618,-0.47887185,-1.1473993,0.018294582,-2.7776985,-0.4852357,1.502994,0.828711,0.039997123,0.04,0.012065681855433219,-0.01866333755100591,0.03359965427914835,0.05581426668262694,0.025533562419788228,-0.049431340459671555,0.934492773419347,0.24748495582654692,-0.1130968214131756,-0.22952900046134805
