rsonawane2002/My_IMU/logs_2/traj_297/imu_297.csv
time,j1,j2,j3,j4,j5,j6,j7,gripper1,gripper2,imu_ax,imu_ay,imu_az,imu_gx,imu_gy,imu_gz
509.33333333319877,0.00016700293,-0.785875,4.0107683e-05,-2.3551247,9.29385e-05,1.570997,0.786,0.04,0.04,-9.513792,0.029718175530433655,0.099742316,2.3827965e-07,-0.0011641276068985462,1.5496279e-07
509.3499999998654,0.00016701144,-0.78576016,4.0106628e-05,-2.3552213,9.296397e-05,1.5709941,0.786,0.04,0.04,-9.83443,0.000631659000646323,0.009084966,-7.464023e-08,-0.002239005407318473,7.3884127e-07
509.36666666653207,0.0001670594,-0.78565425,4.0050025e-05,-2.35531,9.291742e-05,1.5709913,0.786,0.04,0.04,-9.8325,0.0005711456178687513,0.0075756693,-4.069989e-09,-0.003227744484320283,-5.746311e-07
509.3833333331987,0.00016720987,-0.78555685,3.9847204e-05,-2.355391,9.2694914e-05,1.5709884,0.786,0.04,0.039999995,-9.83083,0.0004735123657155782,0.006228218,-2.4869484e-08,-0.004140477627515793,-4.0320715e-06
509.3999999998654,0.00016755296,-0.7854671,3.936873e-05,-2.3554645,9.210969e-05,1.5709856,0.786,0.04,0.04,-9.829275,0.0003087838995270431,0.0049999724,4.8952694e-07,-0.004979580175131559,-1.4044809e-05
509.416666666532,0.00016820189,-0.7853844,3.8449118e-05,-2.3555312,9.098161e-05,1.5709827,0.786,0.04,0.039999995,-9.827837,0.00013687321916222572,0.0038729873,1.0576468e-06,-0.005750192794948816,-2.6037078e-05
509.4333333331987,0.00016929192,-0.7853082,3.689155e-05,-2.3555915,8.9037916e-05,1.5709798,0.786,0.04,0.04,-9.826612,-0.00010426598601043224,0.002849165,1.7374659e-06,-0.006458383984863758,-4.6710702e-05
509.4499999998653,0.00017097683,-0.78523785,3.4470508e-05,-2.3556488,8.601926e-05,1.5709769,0.786,0.04,0.039999995,-9.825531,-0.00035690772347152233,0.0019040941,2.8594861e-06,-0.00710985716432333,-7.29639e-05
509.466666666532,0.00017342788,-0.7851729,3.0935462e-05,-2.355699,8.1587765e-05,1.5709739,0.786,0.04,0.04,-9.824968,-0.0006644734530709684,0.0010247873,4.196894e-06,-0.007721747271716595,-0.000108733584
509.48333333319863,0.0001768313,-0.7851129,2.6012782e-05,-2.3557425,7.541362e-05,1.5709707,0.786,0.04,0.04,-9.824033,-0.0009860622230917215,0.00020435685,5.7928587e-06,-0.008280094712972641,-0.00015235557
509.4999999998653,0.00018138687,-0.78505737,1.9409172e-05,-2.3557816,6.712861e-05,1.570964,0.786,0.04,0.04,-9.82315,-0.0013481334317475557,-0.0005109098,7.688734e-06,-0.008787307888269424,-0.00020527956
509.51666666653193,0.00018730616,-0.78500587,1.0813531e-05,-2.355816,5.634226e-05,1.5709573,0.786,0.04,0.04,-9.822778,-0.0017315729055553675,-0.0011102913,1.0187215e-05,-0.009273012168705463,-0.00026804119
509.5333333331986,0.00019481125,-0.7849578,-1.00527885e-07,-2.3558435,4.2633725e-05,1.5709503,0.786,0.039999995,0.04,-9.822381,-0.00215320335701108,-0.0017519986,1.2778631e-05,-0.009722468443214893,-0.00034194405
509.54999999986524,0.000204133,-0.784913,-1.36731105e-05,-2.3558657,2.5584182e-05,1.5709406,0.786,0.039999988,0.039999988,-9.821772,-0.002588216681033373,-0.002342123,1.5763777e-05,-0.010130212642252445,-0.00042486688
509.5666666665319,0.0002155104,-0.7848709,-3.0255955e-05,-2.3558836,4.756214e-06,1.57093,0.786,0.039999984,0.03999998,-9.82148,-0.0030535468831658363,-0.0028094475,1.9162744e-05,-0.010514356195926666,-0.00051891094
509.58333333319854,0.00022918909,-0.7848314,-5.021074e-05,-2.355895,-2.0305317e-05,1.5709176,0.786,0.03999998,0.039999977,-9.821378,-0.003564094426110387,-0.0033044184,2.3005976e-05,-0.010874591767787933,-0.00062524626
509.5999999998652,0.00024542023,-0.7847941,-7.390777e-05,-2.3559,-5.0063474e-05,1.570903,0.786,0.039999977,0.03999997,-9.82108,-0.0040800198912620544,-0.003725065,2.7034448e-05,-0.011206087656319141,-0.00074242207
509.61666666653184,0.0002644599,-0.7847586,-0.000101724,-2.3558996,-8.499191e-05,1.5708848,0.786,0.03999997,0.03999996,-9.820853,-0.004641805775463581,-0.0040898263,3.128206e-05,-0.011513358913362026,-0.0008723776
509.6333333331985,0.0002865677,-0.7847248,-0.00013404233,-2.3558934,-0.00012557018,1.5708655,0.786,0.03999997,0.03999996,-9.820814,-0.005222123581916094,-0.004398673,3.6033212e-05,-0.011806500144302845,-0.0010144295
509.64999999986514,0.00031200648,-0.7846922,-0.00017125002,-2.3558817,-0.00017228423,1.570843,0.786,0.039999973,0.039999966,-9.820836,-0.005838124081492424,-0.0047372635,4.1318526e-05,-0.01207862887531519,-0.001168726
509.6666666665318,0.0003410412,-0.78466076,-0.00021373843,-2.3558626,-0.00022562337,1.5708169,0.786,0.039999973,0.03999996,-9.820936,-0.006475212052464485,-0.004999865,4.6599194e-05,-0.012338859029114246,-0.0013345057
509.68333333319845,0.00037393896,-0.7846302,-0.00026190025,-2.3558364,-0.00028608166,1.5707872,0.786,0.039999977,0.039999966,-9.820845,-0.007157385349273682,-0.005239599,5.245604e-05,-0.012582109309732914,-0.0015135793
509.6999999998651,0.00041096733,-0.78460014,-0.00031613064,-2.3558033,-0.00035415322,1.5707537,0.786,0.039999977,0.039999966,-9.820854,-0.007847500033676624,-0.005417127,5.862434e-05,-0.012811391614377499,-0.0017051267
509.71666666653175,0.00045239445,-0.7845706,-0.00037682528,-2.3557632,-0.0004303335,1.5707165,0.78599924,0.039999973,0.039999958,-9.820991,-0.008595697581768036,-0.005611182,6.514378e-05,-0.01303016021847725,-0.0019083185
509.7333333331984,0.0004984885,-0.78454125,-0.00044437932,-2.3557155,-0.0005151189,1.5706753,0.78599733,0.039999977,0.03999996,-9.821129,-0.00938071683049202,-0.0057513807,7.560149e-05,-0.013237999752163887,-0.00212488
509.74999999986505,0.00054951734,-0.784512,-0.0005191875,-2.3556602,-0.0006090041,1.5706297,0.78599554,0.039999977,0.03999996,-9.821285,-0.010196806862950325,-0.0058822874,9.166317e-05,-0.013435852713882923,-0.0023539374
509.7666666665317,0.0006057471,-0.78448254,-0.0006016432,-2.3555973,-0.00071248104,1.57058,0.78599364,0.039999977,0.039999958,-9.821417,-0.011041146703064442,-0.005981935,0.000107341824,-0.013623936101794243,-0.0025945683
509.78333333319836,0.00066744327,-0.7844527,-0.000692138,-2.3555262,-0.0008260408,1.5705258,0.7859917,0.03999998,0.03999996,-9.821684,-0.011935831978917122,-0.006056854,0.00012427082,-0.013805319555103779,-0.0028484487
509.799999999865,0.00073486933,-0.7844222,-0.0007910606,-2.3554468,-0.0009501715,1.5704663,0.7859898,0.03999998,0.03999996,-9.821865,-0.012872124090790749,-0.006121817,0.00014148111,-0.013978056609630585,-0.0031147143
509.81666666653166,0.00080828706,-0.7843912,-0.0008987963,-2.3553588,-0.0010853544,1.5704013,0.7859879,0.039999984,0.03999996,-9.822119,-0.013827153481543064,-0.006147866,0.0001588909,-0.014147964306175709,-0.0033931166
509.8333333331983,0.0008879554,-0.7843594,-0.001015728,-2.3552608,-0.0012320692,1.5703312,0.785986,0.039999984,0.03999996,-9.822404,-0.014869380742311478,-0.006146324,0.00017713392,-0.014313788153231144,-0.0036836166
509.84999999986496,0.00097413076,-0.7843266,-0.0011422343,-2.355153,-0.0013907907,1.5702553,0.7859841,0.039999988,0.039999973,-9.822507,-0.01594674214720726,-0.006146161,0.00019569858,-0.014468084089457989,-0.0039887866
509.8666666665316,0.0010670666,-0.7842928,-0.0012786888,-2.3550365,-0.0015619864,1.5701731,0.7859822,0.039999988,0.039999973,-9.822701,-0.017046188935637474,-0.0061001303,0.0002146473,-0.014617125503718853,-0.0043031666
509.88333333319827,0.0011670141,-0.7842578,-0.0014254613,-2.3549109,-0.001746118,1.5700849,0.7859803,0.039999988,0.03999996,-9.823083,-0.018186695873737335,-0.0060203476,0.00023429669,-0.014767702668905258,-0.004625751
509.8999999998649,0.0012742197,-0.7842214,-0.0015829168,-2.3547733,-0.0019436473,1.5699904,0.7859784,0.03999999,0.03999997,-9.823434,-0.019436988979578018,-0.0059450166,0.0002544377,-0.014917637221515179,-0.0049652504
509.91666666653157,0.0013889277,-0.7841835,-0.0017514154,-2.354626,-0.0021550215,1.5698891,0.78597647,0.03999999,0.03999997,-9.823483,-0.020687341690063477,-0.005860364,0.0002751016,-0.015056717209517956,-0.0053135334
509.9333333331982,0.0015113782,-0.784144,-0.0019313107,-2.3544676,-0.0023806854,1.5697808,0.78597456,0.039999995,0.03999998,-9.823861,-0.022033805027604103,-0.0057330853,0.00029658433,-0.01519826240837574,-0.00567651
509.9499999998649,0.0016418073,-0.78410286,-0.002122952,-2.3542979,-0.0026210716,1.5696658,0.78597265,0.04,0.04,-9.824084,-0.023381339386105537,-0.0055929553,0.00031843173,-0.015337050892412663,-0.006049599
509.9666666665315,0.0017804473,-0.78406006,-0.0023266824,-2.3541174,-0.0028766114,1.5695435,0.78597075,0.04,0.04,-9.82432,-0.024835685268044472,-0.0054374645,0.00034132603,-0.015470572747290134,-0.006432087
509.9833333331982,0.0019275269,-0.78401536,-0.0025428373,-2.353925,-0.003147732,1.5694138,0.78596884,0.04,0.04,-9.82466,-0.02633007802069187,-0.005242113,0.00036501928,-0.015605393797159195,-0.006824447
509.9999999998648,0.0020832703,-0.7839688,-0.0027717506,-2.3537207,-0.003434849,1.5692762,0.78596693,0.04,0.039999995,-9.824885,-0.027896955609321594,-0.0050473977,0.00038987424,-0.015737192705273628,-0.007228212
510.0166666665315,0.002247897,-0.78392035,-0.0030137433,-2.353505,-0.0037383658,1.5691309,0.785965,0.039999995,0.039999984,-9.825149,-0.029522135853767395,-0.004817208,0.00041534426,-0.015867851674556732,-0.0076432894
510.03333333319813,0.0024216229,-0.7838696,-0.0032691357,-2.3532758,-0.0040586763,1.5689776,0.7859631,0.03999999,0.039999958,-9.825487,-0.031182657927274704,-0.004563216,0.00044197755,-0.016000235453248024,-0.00806246
510.0499999998648,0.0026046587,-0.7838166,-0.0035382381,-2.353034,-0.004396173,1.5688163,0.78596115,0.039999988,0.03999995,-9.825643,-0.032952502369880676,-0.0043150056,0.00046958556,-0.01612817868590355,-0.0084953075
510.06666666653143,0.002797211,-0.78376126,-0.003821357,-2.3527806,-0.0047512366,1.5686464,0.78595775,0.03999999,0.039999954,-9.82586,-0.03476351499557495,-0.0040494935,0.0004986409,-0.016254086047410965,-0.008940345
510.0833333331981,0.0029994822,-0.78370345,-0.004118791,-2.352513,-0.0051242444,1.5684679,0.78595394,0.04,0.03999997,-9.826314,-0.03669368475675583,-0.003735175,0.0005352787,-0.01638636365532875,-0.00939588
510.09999999986474,0.0032116694,-0.7836433,-0.0044308286,-2.3522315,-0.005515556,1.5682808,0.7859501,0.04,0.039999995,-9.826447,-0.03866972029209137,-0.003429717,0.0005754475,-0.01651514135301113,-0.009862395
510.1166666665314,0.003433966,-0.7835807,-0.004757756,-2.3519368,-0.005925525,1.5680846,0.7859463,0.04,0.039999995,-9.826619,-0.04069474712014198,-0.0030901367,0.00061689503,-0.0166400745511055,-0.010334863
510.13333333319804,0.003666559,-0.7835154,-0.005099853,-2.351628,-0.0063545043,1.5678794,0.7859425,0.04,0.039999995,-9.826895,-0.042811907827854156,-0.0027153566,0.0006598961,-0.016766851767897606,-0.010817126
510.1499999998647,0.0039096335,-0.78344727,-0.0054573882,-2.351306,-0.006802829,1.567665,0.7859387,0.04,0.03999999,-9.827115,-0.04500075429677963,-0.0023467161,0.00070460915,-0.016893045976758003,-0.011307179
510.16666666653134,0.0041633667,-0.78337675,-0.0058306255,-2.3509698,-0.007270847,1.5674411,0.78593487,0.039999995,0.039999995,-9.827484,-0.04727331921458244,-0.0019755636,0.0007508418,-0.017024574801325798,-0.011806364
510.183333333198,0.0044279345,-0.7833032,-0.0062198206,-2.3506186,-0.007758872,1.5672076,0.78593105,0.039999995,0.03999999,-9.827669,-0.049623750150203705,-0.001527669,0.00079898885,-0.017154961824417114,-0.012313562
510.19999999986464,0.0047035026,-0.7832271,-0.006625225,-2.3502526,-0.008267207,1.5669643,0.78592724,0.039999995,0.03999999,-9.827826,-0.0520193949341774,-0.0011290032,0.00084916916,-0.017285283654928207,-0.012828951
510.2166666665313,0.0049902396,-0.7831478,-0.0070470814,-2.3498719,-0.008796165,1.5667113,0.7859234,0.039999988,0.039999977,-9.828022,-0.05457450821995735,-0.00065238966,0.00090120005,-0.017414122819900513,-0.013353151
510.23333333319795,0.005288302,-0.78306586,-0.0074856235,-2.3494754,-0.009346032,1.5664481,0.78591955,0.039999988,0.039999958,-9.828237,-0.057150326669216156,-0.00019790587,0.0009555863,-0.017544161528348923,-0.01388035
510.2499999998646,0.005597846,-0.7829807,-0.00794108,-2.3490632,-0.009917093,1.5661747,0.7859147,0.039999995,0.039999966,-9.828375,-0.059856660664081573,0.00030868413,0.0010122193,-0.01767265424132347,-0.014419825
510.26666666653125,0.0059190216,-0.7828925,-0.008413675,-2.3486352,-0.010509629,1.5658913,0.78590906,0.039999995,0.03999999,-9.828504,-0.06263178586959839,0.0008071237,0.0010757335,-0.017800508067011833,-0.014967946
510.2833333331979,0.006251971,-0.7828013,-0.00890362,-2.348191,-0.011123891,1.5655972,0.78590333,0.039999995,0.039999988,-9.828612,-0.0654747262597084,0.0013443925,0.0011454774,-0.01792571134865284,-0.015520785
510.29999999986455,0.0065968367,-0.7827069,-0.0094111245,-2.3477309,-0.011760156,1.565293,0.7858976,0.039999995,0.039999988,-9.828753,-0.06842541694641113,0.0019057307,0.0012182654,-0.018051600083708763,-0.016081106
510.3166666665312,0.006953756,-0.7826094,-0.0099363895,-2.3472545,-0.012418664,1.5649778,0.7858919,0.04,0.039999988,-9.828805,-0.07142135500907898,0.0024759865,0.0012936682,-0.018173903226852417,-0.016647324
510.33333333319786,0.007322858,-0.78250855,-0.010479606,-2.3467627,-0.013099673,1.5646518,0.78588617,0.039999995,0.039999988,-9.829007,-0.07460186630487442,0.0030921753,0.0013720999,-0.018298352137207985,-0.017221794
510.3499999998645,0.0077042677,-0.7824045,-0.011040959,-2.346254,-0.013803408,1.5643152,0.78588045,0.04,0.039999988,-9.829204,-0.07781092822551727,0.0036897864,0.0014534364,-0.018425436690449715,-0.017800894
510.36666666653116,0.008098109,-0.7822972,-0.011620628,-2.3457286,-0.01453009,1.5639676,0.7858747,0.039999995,0.039999984,-9.829293,-0.08113398402929306,0.0043367525,0.0015378023,-0.01855127513408661,-0.018386967
510.3833333331978,0.008504492,-0.7821863,-0.012218787,-2.3451858,-0.015279965,1.5636088,0.785869,0.03999999,0.039999984,-9.829347,-0.08455763012170792,0.0049935314,0.0016256127,-0.0186751876026392,-0.018981105
510.39999999986446,0.008923536,-0.7820722,-0.012835599,-2.3446267,-0.016053217,1.5632386,0.7858631,0.03999999,0.039999984,-9.829373,-0.08804935216903687,0.005657771,0.0017166978,-0.018797555938363075,-0.019578423
510.4166666665311,0.009355346,-0.781955,-0.0134712225,-2.3440506,-0.016850028,1.5628575,0.7858563,0.039999995,0.039999984,-9.829554,-0.09164085239171982,0.006366537,0.0018120684,-0.01892385445535183,-0.020179646
510.43333333319777,0.009800025,-0.78183407,-0.014125813,-2.343457,-0.017670594,1.5624648,0.78584886,0.04,0.039999984,-9.829575,-0.09535283595323563,0.0071041756,0.0019154344,-0.019046269357204437,-0.020787422
510.4499999998644,0.010257671,-0.78170943,-0.014799509,-2.3428462,-0.018515095,1.5620607,0.7858412,0.04,0.039999984,-9.82959,-0.09911489486694336,0.0078251865,0.0020255023,-0.01916929893195629,-0.021401146
510.46666666653107,0.010728376,-0.7815813,-0.01549245,-2.3422177,-0.019383699,1.5616452,0.7858336,0.04,0.039999984,-9.829674,-0.10305693000555038,0.008560959,0.0021402936,-0.019292671233415604,-0.02201981
510.4833333331977,0.011212224,-0.78145,-0.01620477,-2.3415716,-0.020276587,1.5612179,0.78582597,0.04,0.039999984,-9.829694,-0.10706090927124023,0.009322793,0.0022593848,-0.019414348527789116,-0.022643182
510.4999999998644,0.011709306,-0.78131515,-0.016936589,-2.3409078,-0.021193916,1.5607789,0.78581834,0.04,0.039999984,-9.829687,-0.11116963624954224,0.010158172,0.0023826056,-0.019534897059202194,-0.023271922
510.516666666531,0.012219697,-0.7811764,-0.017688025,-2.3402262,-0.022135817,1.5603282,0.7858107,0.04,0.039999984,-9.829662,-0.1153678148984909,0.010977363,0.0025101134,-0.019652992486953735,-0.023904137
510.5333333331977,0.012743476,-0.7810338,-0.018459193,-2.3395271,-0.023102468,1.5598657,0.7858031,0.039999995,0.04,-9.829681,-0.11969006061553955,0.011784764,0.0026420574,-0.019771970808506012,-0.024542829
510.5499999998643,0.013280708,-0.7808882,-0.01925019,-2.3388095,-0.024093976,1.5593914,0.7857952,0.04,0.04,-9.829733,-0.12409106642007828,0.012621449,0.002778909,-0.019892824813723564,-0.025183776
510.566666666531,0.013831464,-0.7807389,-0.020061115,-2.338074,-0.025110427,1.5589052,0.7857866,0.04,0.04,-9.829564,-0.12855036556720734,0.013532584,0.002921518,-0.020008288323879242,-0.02582688
510.58333333319763,0.014395803,-0.7805859,-0.02089206,-2.3373203,-0.026151951,1.5584067,0.7857775,0.04,0.04,-9.829544,-0.13323523104190826,0.014420281,0.0030722925,-0.020121805369853973,-0.026476061
510.5999999998643,0.014973785,-0.780429,-0.021743115,-2.336548,-0.02721867,1.5578964,0.785768,0.04,0.04,-9.829529,-0.13795462250709534,0.015334033,0.0032308197,-0.02023720182478428,-0.027127625
510.61666666653093,0.015565456,-0.7802683,-0.022614354,-2.335758,-0.02831069,1.557374,0.78575844,0.04,0.04,-9.8293705,-0.14277489483356476,0.01624705,0.003396097,-0.020347801968455315,-0.027780266
510.6333333331976,0.016170872,-0.7801039,-0.02350585,-2.334949,-0.029428069,1.5568393,0.7857489,0.04,0.04,-9.82938,-0.14772416651248932,0.017184127,0.0035669436,-0.02046027220785618,-0.028437268
510.64999999986424,0.016790077,-0.7799361,-0.024417663,-2.3341222,-0.030570919,1.5562925,0.78573936,0.04,0.04,-9.829208,-0.15277419984340668,0.018159438,0.0037431626,-0.02056923694908619,-0.029097963
510.6666666665309,0.017423099,-0.7797645,-0.025349857,-2.333276,-0.03173929,1.5557336,0.7857298,0.04,0.04,-9.82914,-0.15792065858840942,0.019161105,0.0039252946,-0.020677650347352028,-0.029759621
510.68333333319754,0.018069994,-0.7795892,-0.026302481,-2.3324122,-0.032933284,1.5551624,0.7857203,0.04,0.04,-9.828901,-0.16319811344146729,0.020152174,0.004112832,-0.020780431106686592,-0.030426797
510.6999999998642,0.018730769,-0.7794099,-0.027275588,-2.3315296,-0.034152918,1.5545789,0.7857102,0.04,0.04,-9.828829,-0.16851110756397247,0.021186877,0.0043061287,-0.020884841680526733,-0.031093853
510.71666666653084,0.019405473,-0.7792269,-0.028269216,-2.3306289,-0.03539822,1.553983,0.78569967,0.04,0.04,-9.828713,-0.17403098940849304,0.022200674,0.0045082774,-0.020988399162888527,-0.031761434
510.7333333331975,0.020094115,-0.77904004,-0.029283393,-2.3297083,-0.036669295,1.5533748,0.78568864,0.04,0.04,-9.8285675,-0.17964297533035278,0.023263836,0.0047184145,-0.02109108492732048,-0.032434978
510.74999999986414,0.020796718,-0.77884954,-0.030318148,-2.32877,-0.037966147,1.5527543,0.7856772,0.04,0.04,-9.828264,-0.18532349169254303,0.024318408,0.00493705,-0.021187646314501762,-0.033107642
510.7666666665308,0.021513302,-0.7786553,-0.031373512,-2.3278122,-0.039288796,1.5521215,0.78566575,0.04,0.04,-9.828133,-0.1911384016275406,0.025417253,0.005164,-0.02128397300839424,-0.03378186
510.78333333319745,0.022243867,-0.7784571,-0.03244949,-2.326836,-0.04063725,1.5514762,0.7856543,0.04,0.04,-9.827857,-0.19704261422157288,0.02651942,0.0053975135,-0.02137540653347969,-0.034455914
510.7999999998641,0.022988426,-0.7782552,-0.03354611,-2.3258412,-0.042011566,1.5508188,0.78564286,0.04,0.04,-9.827663,-0.203083798289299,0.027641186,0.0056372695,-0.021466480568051338,-0.03513357
510.81666666653075,0.023746982,-0.7780495,-0.034663357,-2.3248277,-0.04341171,1.5501488,0.7856314,0.04,0.04,-9.827358,-0.20916464924812317,0.028777547,0.005883857,-0.02155354432761669,-0.035811372
510.8333333331974,0.024519533,-0.7778401,-0.035801243,-2.3237953,-0.0448377,1.5494664,0.7856198,0.04,0.04,-9.82715,-0.21546120941638947,0.029928887,0.006137425,-0.02163926139473915,-0.036489945
510.84999999986405,0.025306068,-0.7776268,-0.03695976,-2.3227446,-0.046289504,1.5487721,0.78560764,0.04,0.04,-9.826842,-0.22183676064014435,0.031105045,0.006398215,-0.02172156050801277,-0.037172046
510.8666666665307,0.02610659,-0.77740985,-0.038138885,-2.3216746,-0.047767133,1.548065,0.78559506,0.04,0.04,-9.826594,-0.2282714992761612,0.032273218,0.0066687292,-0.021800652146339417,-0.03784889
510.88333333319736,0.026921082,-0.77718914,-0.03933861,-2.3205862,-0.04927053,1.5473458,0.78558207,0.04,0.04,-9.826226,-0.2348783165216446,0.033482607,0.0069482964,-0.021876372396945953,-0.03853094
510.899999999864,0.02774952,-0.7769645,-0.040558893,-2.3194792,-0.050799698,1.5466142,0.7855687,0.04,0.04,-9.825931,-0.2415335476398468,0.034683965,0.007236878,-0.02194841019809246,-0.03920827
510.91666666653066,0.0285919,-0.77673614,-0.041799728,-2.3183537,-0.05235459,1.5458705,0.78555536,0.04,0.04,-9.825589,-0.2483701854944229,0.03590483,0.007534248,-0.022018320858478546,-0.039891656
510.9333333331973,0.029448183,-0.776504,-0.043061063,-2.3172095,-0.053935155,1.5451138,0.785542,0.04,0.04,-9.825238,-0.2552436590194702,0.037137486,0.007839101,-0.022083494812250137,-0.04056901
510.94999999986396,0.03031835,-0.77626806,-0.04434286,-2.3160467,-0.055541355,1.5443455,0.78552866,0.04,0.04,-9.824891,-0.2622241973876953,0.038399614,0.008151307,-0.022150903940200806,-0.041248344
510.9666666665306,0.031202367,-0.7760284,-0.04564509,-2.3148656,-0.05717315,1.5435647,0.7855153,0.04,0.04,-9.824463,-0.26943689584732056,0.03963956,0.008470721,-0.022209540009498596,-0.041932616
510.98333333319727,0.032100186,-0.77578527,-0.046967693,-2.3136659,-0.058830433,1.5427717,0.78550154,0.04,0.04,-9.824112,-0.27661052346229553,0.040920593,0.008798165,-0.022267760708928108,-0.042605784
510.9999999998639,0.03301178,-0.7755383,-0.048310604,-2.3124475,-0.060513135,1.5419666,0.78548735,0.04,0.04,-9.823659,-0.28398004174232483,0.04221994,0.00913461,-0.022319907322525978,-0.04328287
511.01666666653057,0.033937126,-0.7752876,-0.049673766,-2.311211,-0.062221214,1.5411491,0.7854728,0.04,0.04,-9.823162,-0.29143500328063965,0.043517828,0.0094805965,-0.022366885095834732,-0.043959618
511.0333333331972,0.034876145,-0.7750332,-0.05105712,-2.3099563,-0.0639546,1.5403197,0.7854579,0.04,0.04,-9.822791,-0.2990165054798126,0.04481341,0.009836256,-0.022413404658436775,-0.0446366
511.04999999986387,0.035828818,-0.774775,-0.052460585,-2.3086836,-0.06571313,1.5394783,0.7854427,0.04,0.04,-9.822295,-0.30666905641555786,0.046125058,0.010201003,-0.022454800084233284,-0.04530944
511.0666666665305,0.036795083,-0.7745132,-0.053884093,-2.3073926,-0.06749675,1.5386249,0.78542745,0.04,0.04,-9.8218355,-0.3143894076347351,0.04744029,0.010575191,-0.02249334193766117,-0.045979895
511.0833333331972,0.03777488,-0.7742476,-0.05532755,-2.3060832,-0.06930536,1.5377595,0.7854122,0.04,0.04,-9.821331,-0.32233813405036926,0.048776116,0.010957432,-0.022527508437633514,-0.046650577
511.0999999998638,0.038768142,-0.77397835,-0.056790885,-2.3047562,-0.07113883,1.5368822,0.78539693,0.04,0.04,-9.820789,-0.33032628893852234,0.050098743,0.011347343,-0.022556312382221222,-0.047318492
511.1166666665305,0.039774828,-0.7737055,-0.05827399,-2.3034108,-0.072997086,1.535993,0.78538156,0.04,0.04,-9.820297,-0.33843109011650085,0.051451717,0.011744907,-0.02258291281759739,-0.047984373
511.13333333319713,0.04079485,-0.7734291,-0.059776783,-2.3020482,-0.07487997,1.535092,0.78536576,0.04,0.04,-9.819667,-0.34663671255111694,0.05280901,0.012151181,-0.022602489218115807,-0.048648696
511.1499999998638,0.04182815,-0.7731491,-0.06129915,-2.3006666,-0.07678735,1.5341793,0.78534967,0.04,0.04,-9.819209,-0.3549439311027527,0.054170217,0.012567162,-0.022621847689151764,-0.049309853
511.16666666653043,0.042874664,-0.7728656,-0.06284098,-2.2992692,-0.078719124,1.5332552,0.7853333,0.04,0.04,-9.818435,-0.36334994435310364,0.055531252,0.012992124,-0.02262973226606846,-0.049968347
511.1833333331971,0.0439343,-0.77257836,-0.06440219,-2.2978525,-0.08067512,1.5323194,0.7853166,0.04,0.04,-9.818033,-0.3718883693218231,0.056904394,0.013426793,-0.022638823837041855,-0.050624978
511.19999999986373,0.045006983,-0.77228755,-0.06598264,-2.2964191,-0.08265523,1.531372,0.78529966,0.04,0.04,-9.817203,-0.38043466210365295,0.05827401,0.013870052,-0.022638076916337013,-0.05127802
511.2166666665304,0.046092644,-0.77199334,-0.067582205,-2.2949686,-0.08465927,1.530413,0.78528255,0.04,0.04,-9.816681,-0.38923153281211853,0.05965055,0.014322743,-0.02263668179512024,-0.051927764
511.23333333319704,0.047191177,-0.7716956,-0.069200814,-2.2935004,-0.08668711,1.5294428,0.78526545,0.039999995,0.04,-9.816032,-0.3980645537376404,0.06104808,0.0147839505,-0.0226301196962595,-0.05257514
511.2499999998637,0.048302528,-0.7713945,-0.07083828,-2.2920153,-0.08873857,1.5284613,0.78524834,0.03999999,0.04,-9.815298,-0.4069778621196747,0.06243183,0.015252548,-0.02261698991060257,-0.053218417
511.26666666653034,0.049426574,-0.77109,-0.07249452,-2.2905138,-0.09081352,1.5274686,0.78523105,0.039999988,0.04,-9.814644,-0.4160296320915222,0.06381765,0.01572918,-0.022599967196583748,-0.053859662
511.283333333197,0.050563242,-0.770782,-0.07416935,-2.2889946,-0.09291174,1.5264643,0.78521335,0.03999999,0.04,-9.813964,-0.42514723539352417,0.065222315,0.016214618,-0.02257942408323288,-0.05449487
511.29999999986364,0.05171243,-0.7704706,-0.075862624,-2.2874587,-0.09503307,1.5254494,0.7851954,0.039999995,0.04,-9.813143,-0.43437984585762024,0.066612735,0.01670907,-0.02255142852663994,-0.05512796
511.3166666665303,0.052874044,-0.7701559,-0.07757426,-2.2859063,-0.09717733,1.5244236,0.78517723,0.03999999,0.04,-9.81236,-0.4436683654785156,0.068003275,0.017212294,-0.022517157718539238,-0.055757653
511.33333333319695,0.054047972,-0.76983774,-0.07930403,-2.2843375,-0.09934432,1.5233866,0.7851588,0.039999995,0.04,-9.811639,-0.453139066696167,0.06940009,0.017724011,-0.02247779443860054,-0.05638184
511.3499999998636,0.055234116,-0.76951647,-0.08105184,-2.2827528,-0.10153388,1.5223387,0.78514016,0.04,0.04,-9.810883,-0.4626731872558594,0.070787676,0.018244725,-0.022436149418354034,-0.057002243
511.36666666653025,0.056432366,-0.7691919,-0.08281752,-2.2811513,-0.10374577,1.5212802,0.7851213,0.04,0.04,-9.810075,-0.47229400277137756,0.07219522,0.018773502,-0.022388717159628868,-0.057618424
511.3833333331969,0.057642613,-0.76886404,-0.08460087,-2.2795339,-0.10597983,1.5202113,0.7851023,0.03999999,0.04,-9.809211,-0.4820099472999573,0.07358691,0.019310461,-0.022334976121783257,-0.058230788
511.39999999986355,0.058864735,-0.7685329,-0.086401746,-2.2779005,-0.10823583,1.5191321,0.78508323,0.03999999,0.04,-9.808356,-0.4918224811553955,0.074963436,0.019855395,-0.022273976355791092,-0.058838222
511.4166666665302,0.060098644,-0.7681985,-0.08821998,-2.2762516,-0.110513575,1.5180424,0.7850641,0.039999988,0.04,-9.807497,-0.5017279982566833,0.07634784,0.020407686,-0.022207040339708328,-0.059440866
511.43333333319686,0.061344203,-0.76786107,-0.09005541,-2.274587,-0.1128128,1.5169423,0.78504485,0.03999999,0.04,-9.806636,-0.5117188096046448,0.07773017,0.020967234,-0.02213647961616516,-0.060036562
511.4499999998635,0.0626013,-0.7675204,-0.091907874,-2.2729068,-0.1151333,1.5158316,0.7850253,0.03999999,0.04,-9.805688,-0.5217522382736206,0.07911513,0.021534223,-0.02205934375524521,-0.060628258
511.46666666653016,0.0638698,-0.76717675,-0.09377716,-2.2712116,-0.117474854,1.5147114,0.7850055,0.03999999,0.04,-9.804788,-0.5319873690605164,0.08049707,0.022109473,-0.021978113800287247,-0.06121536
511.4833333331968,0.06514958,-0.76682997,-0.09566309,-2.2695017,-0.119837254,1.5135812,0.7849855,0.039999988,0.04,-9.803861,-0.5422594547271729,0.081852205,0.022692075,-0.021890010684728622,-0.061797928
511.49999999986346,0.06644051,-0.76648015,-0.09756548,-2.2677765,-0.12222023,1.5124408,0.7849653,0.03999998,0.04,-9.80296,-0.5526167154312134,0.083202645,0.023282735,-0.02179805375635624,-0.062373895
511.5166666665301,0.067742474,-0.7661275,-0.099484146,-2.2660365,-0.12462359,1.5112909,0.7849449,0.039999977,0.04,-9.801934,-0.5630549788475037,0.084570356,0.023880333,-0.021699773147702217,-0.062945075
511.53333333319677,0.06905532,-0.7657718,-0.10141889,-2.264282,-0.127047,1.5101312,0.7849243,0.039999973,0.04,-9.800896,-0.5735679864883423,0.08591893,0.024484765,-0.021593619138002396,-0.06350794
511.5499999998634,0.07037894,-0.7654134,-0.10336948,-2.2625132,-0.12949029,1.5089623,0.78490365,0.039999966,0.04,-9.799913,-0.5841872096061707,0.08725161,0.025096128,-0.021483413875102997,-0.06406638
511.56666666653007,0.07171316,-0.76505184,-0.10533574,-2.2607305,-0.13195321,1.5077839,0.78488266,0.039999958,0.04,-9.798854,-0.5948300361633301,0.08859627,0.025713978,-0.02136574499309063,-0.06461791
511.5833333331967,0.07305788,-0.76468766,-0.10731749,-2.2589338,-0.13443547,1.5065963,0.7848617,0.039999947,0.04,-9.797866,-0.605675995349884,0.08989257,0.026339227,-0.02124546654522419,-0.06516364
511.59999999986337,0.074412934,-0.7643206,-0.10931451,-2.2571228,-0.13693677,1.5053995,0.78484064,0.03999994,0.04,-9.7967615,-0.6164864301681519,0.09122414,0.026970021,-0.021117335185408592,-0.065695345
511.61666666653,0.07577819,-0.7639509,-0.11132653,-2.255298,-0.13945693,1.5041937,0.7848195,0.03999993,0.04,-9.795651,-0.627496063709259,0.09252311,0.027606292,-0.020983753725886345,-0.06623287
511.6333333331967,0.0771535,-0.76357836,-0.11335342,-2.2534597,-0.14199567,1.5029787,0.7847981,0.039999925,0.04,-9.79448,-0.6384842991828918,0.09380647,0.02824807,-0.020841915160417557,-0.06675833
511.6499999998633,0.07853873,-0.76320314,-0.11539491,-2.2516084,-0.14455266,1.5017554,0.7847765,0.039999913,0.04,-9.793365,-0.6495846509933472,0.09510329,0.02889593,-0.020695937797427177,-0.06727707
511.66666666653,0.07993369,-0.76282525,-0.11745082,-2.249744,-0.14712766,1.5005236,0.7847547,0.03999992,0.04,-9.792224,-0.6607585549354553,0.09635175,0.029549576,-0.02054283581674099,-0.067788586
511.68333333319663,0.08133828,-0.76244473,-0.11952091,-2.2478664,-0.14972034,1.4992827,0.78473276,0.03999992,0.04,-9.791041,-0.6720063090324402,0.09760422,0.030208759,-0.020383207127451897,-0.06829281
511.6999999998633,0.082752325,-0.7620618,-0.121604905,-2.245977,-0.15233044,1.4980338,0.78471065,0.039999917,0.04,-9.7898245,-0.6832837462425232,0.098859675,0.030872896,-0.020219607278704643,-0.06879235
511.71666666652993,0.08417561,-0.76167613,-0.12370262,-2.2440755,-0.15495773,1.4967767,0.7846884,0.03999991,0.04,-9.788696,-0.6947430372238159,0.100072294,0.031542603,-0.020051630213856697,-0.069282725
511.7333333331966,0.08560806,-0.76128805,-0.12581381,-2.242161,-0.15760186,1.4955114,0.784666,0.039999902,0.04,-9.787539,-0.7062146663665771,0.1012588,0.03221706,-0.01988048665225506,-0.06976577
511.74999999986323,0.08704948,-0.76089764,-0.12793827,-2.2402344,-0.16026257,1.4942381,0.7846434,0.0399999,0.04,-9.786178,-0.7177425622940063,0.102452256,0.03289554,-0.019699517637491226,-0.07024153
511.7666666665299,0.08849972,-0.7605047,-0.13007571,-2.2382967,-0.16293953,1.4929571,0.78462076,0.039999895,0.04,-9.784882,-0.7293339967727661,0.10364628,0.033578053,-0.019512737169861794,-0.07070881
511.78333333319654,0.08995861,-0.76010966,-0.13222593,-2.2363465,-0.16563247,1.4916683,0.78459793,0.039999895,0.04,-9.783712,-0.7410286068916321,0.10478583,0.03426509,-0.019324157387018204,-0.07116809
511.7999999998632,0.09142599,-0.7597124,-0.13438864,-2.234386,-0.16834103,1.4903721,0.7845751,0.039999895,0.04,-9.782218,-0.7527357339859009,0.10595289,0.034954824,-0.019123071804642677,-0.071619704
511.81666666652984,0.0929017,-0.7593127,-0.13656369,-2.232413,-0.17106493,1.4890686,0.7845522,0.03999988,0.04,-9.78107,-0.7645385265350342,0.107070535,0.035648532,-0.018922895193099976,-0.07206519
511.8333333331965,0.09438554,-0.75891083,-0.13875075,-2.2304304,-0.17380387,1.4877579,0.78452915,0.03999988,0.04,-9.779545,-0.7764101624488831,0.10816404,0.036344066,-0.01871039904654026,-0.07250131
511.84999999986314,0.09587734,-0.7585068,-0.14094962,-2.2284365,-0.17655759,1.4864404,0.7845059,0.039999876,0.04,-9.77836,-0.7883654236793518,0.109255865,0.03704372,-0.018499178811907768,-0.07292885
511.8666666665298,0.09737699,-0.75810075,-0.14316002,-2.2264323,-0.17932567,1.485116,0.78448254,0.039999865,0.04,-9.776887,-0.8003297448158264,0.11030419,0.037745386,-0.018277915194630623,-0.07334932
511.88333333319645,0.09888427,-0.7576925,-0.14538166,-2.2244182,-0.18210788,1.4837847,0.78445905,0.03999987,0.04,-9.775473,-0.8123896718025208,0.11136689,0.03844971,-0.0180505383759737,-0.073761106
511.8999999998631,0.10039903,-0.75728226,-0.14761436,-2.2223938,-0.18490387,1.4824468,0.7844354,0.039999865,0.04,-9.774109,-0.8245069980621338,0.11237803,0.03915633,-0.017820755019783974,-0.074164286
511.91666666652975,0.10192107,-0.7568701,-0.14985774,-2.2203598,-0.1877133,1.4811026,0.7844116,0.039999876,0.04,-9.772658,-0.8366541862487793,0.11337464,0.03986524,-0.01758521981537342,-0.07455793
511.9333333331964,0.103450224,-0.7564559,-0.15211168,-2.2183163,-0.19053574,1.4797522,0.78438765,0.039999872,0.04,-9.7712,-0.8488780856132507,0.11435658,0.04057545,-0.01734416000545025,-0.07494333
511.94999999986305,0.10498629,-0.7560399,-0.15437578,-2.2162635,-0.19337107,1.4783953,0.78436357,0.03999986,0.04,-9.769722,-0.8611132502555847,0.11530763,0.041287623,-0.017096934840083122,-0.07532185
511.9666666665297,0.106529124,-0.75562215,-0.15664995,-2.2142012,-0.19621888,1.4770329,0.7843395,0.039999865,0.04,-9.768221,-0.8734618425369263,0.11625092,0.042000666,-0.016845988109707832,-0.075689696
511.98333333319636,0.10807854,-0.75520265,-0.15893379,-2.2121303,-0.19907874,1.4756645,0.7843153,0.03999987,0.04,-9.7666445,-0.8858611583709717,0.11716573,0.04271335,-0.01658669114112854,-0.07604805
511.999999999863,0.10963435,-0.7547814,-0.16122708,-2.210051,-0.20195039,1.4742904,0.78429097,0.039999858,0.04,-9.765141,-0.8981624245643616,0.11807071,0.043426476,-0.016322927549481392,-0.076399796
512.0166666665297,0.11119634,-0.75435865,-0.16352949,-2.2079635,-0.20483348,1.4729109,0.78426653,0.039999854,0.04,-9.763602,-0.9107112884521484,0.11893443,0.044140022,-0.016055723652243614,-0.076740704
512.0333333331963,0.11276435,-0.75393426,-0.16584079,-2.205868,-0.20772761,1.4715261,0.78424203,0.03999985,0.04,-9.762024,-0.9232232570648193,0.11977553,0.04485338,-0.01578277163207531,-0.07707261
512.049999999863,0.11433819,-0.7535082,-0.16816069,-2.203765,-0.21063259,1.4701357,0.7842175,0.039999843,0.04,-9.76047,-0.9357869625091553,0.120591,0.04556632,-0.015505892224609852,-0.0773962
512.0666666665296,0.115917705,-0.7530805,-0.17048894,-2.2016542,-0.21354793,1.4687408,0.7841928,0.039999843,0.04,-9.758889,-0.948383092880249,0.12138666,0.046278346,-0.015227514319121838,-0.07770848
512.0833333331963,0.11750264,-0.7526514,-0.17282522,-2.1995363,-0.21647328,1.4673413,0.7841681,0.039999843,0.04,-9.757287,-0.9610333442687988,0.1221093,0.046989936,-0.01494313683360815,-0.07801241
512.0999999998629,0.11909285,-0.7522211,-0.17516932,-2.1974113,-0.21940836,1.4659362,0.78414345,0.03999984,0.04,-9.755607,-0.9737086296081543,0.12285367,0.04769897,-0.014652445912361145,-0.078307584
512.1166666665296,0.12068815,-0.7517894,-0.17752095,-2.1952786,-0.22235282,1.464527,0.7841186,0.039999835,0.04,-9.753977,-0.9864147901535034,0.12359595,0.04840612,-0.01436183974146843,-0.07859262
512.1333333331962,0.12228835,-0.75135636,-0.17987972,-2.19314,-0.2253063,1.4631137,0.78409356,0.039999828,0.04,-9.7521925,-0.9991512894630432,0.12427055,0.049110714,-0.014061165042221546,-0.078869365
512.1499999998629,0.12389323,-0.750922,-0.18224545,-2.1909952,-0.22826841,1.4616964,0.78406847,0.039999824,0.04,-9.750544,-1.011939287185669,0.12491819,0.049814094,-0.013757274486124516,-0.07913396
512.1666666665295,0.12550262,-0.7504864,-0.18461774,-2.1888444,-0.23123881,1.4602752,0.78404325,0.039999824,0.04,-9.74889,-1.0247772932052612,0.12552874,0.05051478,-0.013451027683913708,-0.07938914
512.1833333331962,0.12711628,-0.7500496,-0.18699653,-2.186688,-0.23421706,1.4588501,0.784018,0.03999982,0.04,-9.747165,-1.03764009475708,0.12611455,0.05121324,-0.013141186907887459,-0.079634935
512.1999999998628,0.12873408,-0.7496119,-0.18938133,-2.1845262,-0.23720294,1.4574214,0.7839927,0.039999813,0.04,-9.74542,-1.050506353378296,0.12668046,0.051907588,-0.012827086262404919,-0.079872
512.2166666665295,0.13035578,-0.74917305,-0.19177192,-2.182359,-0.24019605,1.4559894,0.7839674,0.03999981,0.04,-9.7436695,-1.0634233951568604,0.12723394,0.052598305,-0.012509554624557495,-0.080098316
512.2333333331961,0.13198121,-0.74873316,-0.19416797,-2.1801867,-0.24319597,1.4545538,0.783942,0.0399998,0.04,-9.7418995,-1.0763750076293945,0.12773073,0.05328514,-0.012188649736344814,-0.08031588
512.2499999998628,0.13361011,-0.74829257,-0.19656922,-2.1780097,-0.24620238,1.4531146,0.78391653,0.0399998,0.04,-9.740128,-1.0892623662948608,0.1282167,0.053967696,-0.011864591389894485,-0.08052114
512.2666666665294,0.13524236,-0.7478509,-0.19897541,-2.1758287,-0.24921489,1.4516732,0.7838911,0.039999798,0.04,-9.738311,-1.1023086309432983,0.12869518,0.05464537,-0.011539974249899387,-0.08071721
512.2833333331961,0.13687773,-0.7474085,-0.20138621,-2.173643,-0.25223312,1.4502292,0.7838656,0.039999787,0.04,-9.736492,-1.115335464477539,0.12907764,0.055318043,-0.01121019758284092,-0.08090434
512.2999999998627,0.13851604,-0.7469651,-0.20380133,-2.1714537,-0.25525683,1.4487823,0.78384006,0.039999783,0.04,-9.734641,-1.1283583641052246,0.12947537,0.05598558,-0.010876208543777466,-0.081079975
512.3166666665294,0.14015704,-0.7465212,-0.20622051,-2.1692607,-0.2582855,1.4473326,0.78381443,0.03999978,0.04,-9.732792,-1.1414092779159546,0.12980703,0.05664737,-0.010540628805756569,-0.081246085
512.333333333196,0.1418006,-0.7460764,-0.20864342,-2.1670642,-0.26131877,1.4458816,0.7837888,0.039999772,0.04,-9.730961,-1.1544723510742188,0.13016832,0.057303675,-0.010205372236669064,-0.08140127
512.3499999998627,0.14344648,-0.7456313,-0.21106973,-2.1648645,-0.26435637,1.4444271,0.7837631,0.03999977,0.04,-9.729048,-1.167561650276184,0.13042212,0.057953577,-0.009863401763141155,-0.081546366
512.3666666665293,0.14509448,-0.7451855,-0.21349922,-2.162662,-0.26739782,1.4429722,0.78373736,0.03999976,0.04,-9.727169,-1.180659532546997,0.13074802,0.05859717,-0.009524430148303509,-0.08168173
512.383333333196,0.14674439,-0.74473906,-0.21593153,-2.1604571,-0.27044278,1.4415139,0.7837116,0.03999976,0.04,-9.725222,-1.193755865097046,0.13093258,0.059233803,-0.00917745940387249,-0.081806004
512.3999999998626,0.14839604,-0.74429226,-0.21836635,-2.1582503,-0.2734909,1.4400555,0.78368586,0.039999753,0.04,-9.723386,-1.2069052457809448,0.13115045,0.05986374,-0.008837652392685413,-0.08192036
512.4166666665293,0.15004915,-0.74384516,-0.22080347,-2.1560411,-0.27654177,1.4385961,0.7836601,0.039999742,0.04,-9.721442,-1.2200449705123901,0.13127916,0.060486354,-0.008490669541060925,-0.08202439
512.433333333196,0.15170363,-0.7433977,-0.2232425,-2.1538303,-0.27959502,1.437134,0.7836343,0.03999974,0.04,-9.719458,-1.2331658601760864,0.13143213,0.061100774,-0.008139017038047314,-0.08211766
512.4499999998626,0.15335919,-0.74294996,-0.22568318,-2.1516178,-0.28265032,1.4356719,0.78360856,0.039999735,0.04,-9.717521,-1.246327519416809,0.13155611,0.061707664,-0.007793324533849955,-0.08220093
512.4666666665292,0.1550157,-0.742502,-0.22812518,-2.149404,-0.28570724,1.4342096,0.7835828,0.039999727,0.04,-9.715523,-1.2594709396362305,0.13160713,0.06230553,-0.007442038506269455,-0.0822732
512.4833333331959,0.1566729,-0.7420538,-0.23056825,-2.1471894,-0.28876558,1.4327468,0.783557,0.039999727,0.04,-9.713513,-1.2726331949234009,0.13162999,0.06289508,-0.007087153848260641,-0.082335465
512.4999999998626,0.15833062,-0.7416057,-0.23301205,-2.1449742,-0.29182476,1.4312834,0.7835311,0.039999712,0.04,-9.711563,-1.2857556343078613,0.13163929,0.06347583,-0.006730448920279741,-0.08238732
512.5166666665292,0.15998861,-0.7411575,-0.23545627,-2.142759,-0.29488447,1.4298192,0.7835053,0.03999971,0.04,-9.709498,-1.298951268196106,0.13163649,0.064047776,-0.0063736834563314915,-0.08242734
512.5333333331959,0.16164668,-0.74070925,-0.23790066,-2.1405437,-0.29794437,1.428355,0.7834795,0.039999705,0.04,-9.707562,-1.312132477760315,0.13158016,0.06461072,-0.006021833047270775,-0.08245825
512.5499999998625,0.16330467,-0.7402612,-0.2403449,-2.1383286,-0.301004,1.426891,0.78345364,0.0399997,0.04,-9.705509,-1.3252854347229004,0.13148266,0.06516374,-0.005669154692441225,-0.08247703
512.5666666665292,0.16496232,-0.7398132,-0.24278867,-2.136114,-0.30406305,1.4254276,0.7834278,0.039999694,0.04,-9.703422,-1.3384220600128174,0.13136955,0.06570675,-0.0053139785304665565,-0.08248621
512.5833333331958,0.16661945,-0.73936534,-0.24523166,-2.1338992,-0.30712107,1.4239646,0.7834019,0.039999686,0.04,-9.701406,-1.3515995740890503,0.13119413,0.06623982,-0.004959752783179283,-0.08248618
512.5999999998625,0.16827583,-0.7389176,-0.24767366,-2.131686,-0.31017777,1.4225023,0.78337604,0.039999675,0.04,-9.699257,-1.3647162914276123,0.1310196,0.0667617,-0.0046030632220208645,-0.08247506
512.6166666665291,0.1699313,-0.7384701,-0.25011432,-2.1294734,-0.3132328,1.4210402,0.7833502,0.039999682,0.04,-9.6972275,-1.3778424263000488,0.13078457,0.067273185,-0.004249111749231815,-0.0824514
512.6333333331958,0.17158563,-0.73802286,-0.25255322,-2.1272624,-0.3162857,1.4195781,0.7833244,0.03999967,0.04,-9.695075,-1.3909496068954468,0.1305619,0.06777237,-0.003895951434969902,-0.08241905
512.6499999998624,0.17323868,-0.73757595,-0.25499022,-2.125053,-0.3193361,1.4181187,0.7832987,0.039999668,0.04,-9.692999,-1.404064416885376,0.13029063,0.06826076,-0.003548120381310582,-0.082374
512.6666666665291,0.17489022,-0.7371295,-0.257425,-2.1228461,-0.32238355,1.4166603,0.7832729,0.03999966,0.04,-9.690875,-1.41718327999115,0.12992379,0.06873759,-0.0031957144383341074,-0.08232131
512.6833333331957,0.17654,-0.7366838,-0.2598572,-2.1206417,-0.32542786,1.4152029,0.7832472,0.039999653,0.04,-9.688797,-1.4302679300308228,0.12958913,0.06920287,-0.002847434254363179,-0.08225791
512.6999999998624,0.17818786,-0.73623854,-0.2622866,-2.1184394,-0.3284685,1.4137483,0.7832214,0.039999653,0.04,-9.686667,-1.4433280229568481,0.12923208,0.069656394,-0.002502495190128684,-0.082182676
512.716666666529,0.17983356,-0.73579377,-0.26471284,-2.1162403,-0.3315052,1.4122939,0.78319573,0.039999645,0.04,-9.6844845,-1.4563651084899902,0.12880543,0.070097536,-0.0021530943922698498,-0.0820974
512.7333333331957,0.1814769,-0.7353498,-0.26713565,-2.1140447,-0.33453757,1.4108431,0.78317004,0.03999964,0.04,-9.682397,-1.4693974256515503,0.12838535,0.07052588,-0.0018147643422707915,-0.08200078
512.7499999998623,0.18311769,-0.73490644,-0.26955464,-2.111852,-0.3375652,1.4093944,0.78314435,0.039999638,0.04,-9.680311,-1.4824271202087402,0.1278654,0.07094222,-0.0014728254172950983,-0.08189521
512.766666666529,0.18475573,-0.7344638,-0.2719696,-2.1096632,-0.3405878,1.4079475,0.7831188,0.039999634,0.04,-9.678012,-1.4953888654708862,0.12738998,0.071345046,-0.001131478464230895,-0.081777774
512.7833333331956,0.18639085,-0.73402214,-0.27438024,-2.1074786,-0.3436049,1.406504,0.7830933,0.039999615,0.04,-9.675915,-1.508401870727539,0.12684347,0.071734995,-0.000797728484030813,-0.08165163
512.7999999998623,0.18802282,-0.7335813,-0.27678627,-2.1052978,-0.34661615,1.4050632,0.78306776,0.039999604,0.04,-9.673744,-1.5213277339935303,0.12626807,0.07211156,-0.0004638659593183547,-0.081514426
512.8166666665289,0.18965147,-0.7331414,-0.27918747,-2.1031215,-0.34962127,1.403624,0.7830424,0.039999593,0.04,-9.671504,-1.5342248678207397,0.1256806,0.07247451,-0.00013158239016775042,-0.08136636
512.8333333331956,0.19127657,-0.73270255,-0.28158334,-2.1009498,-0.35261983,1.4021888,0.783017,0.039999593,0.04,-9.66934,-1.5470960140228271,0.125085,0.072822705,0.00019263598369434476,-0.08120819
512.8499999998622,0.1928979,-0.73226464,-0.28397375,-2.0987835,-0.35561147,1.400757,0.78299165,0.039999593,0.04,-9.667113,-1.5599639415740967,0.12441479,0.07315763,0.0005169142386876047,-0.081038676
512.8666666665289,0.19451533,-0.7318278,-0.28635836,-2.0966227,-0.35859582,1.3993287,0.7829664,0.039999586,0.04,-9.664935,-1.5727938413619995,0.12371674,0.07347831,0.0008369690040126443,-0.08085944
512.8833333331955,0.1961286,-0.7313923,-0.28873688,-2.0944664,-0.36157244,1.3979042,0.7829412,0.03999958,0.04,-9.66278,-1.58562171459198,0.1229856,0.07378554,0.001151400851085782,-0.08067138
512.8999999998622,0.19773753,-0.73095787,-0.29110903,-2.0923162,-0.36454114,1.3964834,0.78291607,0.039999567,0.04,-9.660411,-1.5983294248580933,0.12228828,0.074076146,0.0014685116475448012,-0.0804738
512.9166666665288,0.19934197,-0.73052466,-0.29347453,-2.0901728,-0.36750153,1.3950666,0.782891,0.039999556,0.04,-9.658227,-1.611063838005066,0.12150402,0.07435255,0.0017798220505937934,-0.08026526
512.9333333331955,0.20094174,-0.73009276,-0.2958331,-2.088035,-0.37045318,1.3936538,0.78286594,0.039999545,0.04,-9.656105,-1.6237889528274536,0.12068615,0.07461556,0.002082644961774349,-0.080045715
512.9499999998621,0.2025366,-0.7296621,-0.29818437,-2.085904,-0.3733958,1.3922454,0.78284097,0.03999954,0.04,-9.653812,-1.6364034414291382,0.11987934,0.07486312,0.0023824244271963835,-0.07981521
512.9666666665288,0.20412636,-0.7292329,-0.30052817,-2.0837803,-0.3763289,1.3908422,0.78281605,0.039999533,0.04,-9.651553,-1.6490343809127808,0.11901153,0.07509547,0.0026790874544531107,-0.079575144
512.9833333331954,0.20571084,-0.72880524,-0.30286416,-2.0816634,-0.3792522,1.3894435,0.78279126,0.039999533,0.04,-9.6494,-1.6616289615631104,0.11810365,0.07531374,0.0029702933970838785,-0.07932462
512.9999999998621,0.20728983,-0.728379,-0.3051922,-2.0795536,-0.3821654,1.3880492,0.78276646,0.03999953,0.04,-9.64716,-1.6741832494735718,0.11722712,0.07551588,0.0032577805686742067,-0.07906522
513.0166666665287,0.20886312,-0.72795445,-0.30751175,-2.0774517,-0.38506827,1.3866601,0.7827417,0.03999951,0.04,-9.6448555,-1.6866332292556763,0.11629266,0.07570227,0.0035388367250561714,-0.07879815
513.0333333331954,0.21043058,-0.7275314,-0.30982274,-2.075358,-0.3879603,1.3852763,0.78271717,0.0399995,0.04,-9.642623,-1.6990923881530762,0.11534756,0.07587348,0.00381437037140131,-0.078520074
513.049999999862,0.211992,-0.7271101,-0.31212482,-2.073272,-0.390841,1.3838974,0.7826927,0.03999949,0.04,-9.640406,-1.71149742603302,0.11434814,0.07602901,0.004083365201950073,-0.07823092
513.0666666665287,0.2135472,-0.7266905,-0.3144178,-2.0711944,-0.3937102,1.3825245,0.7826685,0.03999949,0.04,-9.638127,-1.7238292694091797,0.113363,0.0761687,0.0043463627807796,-0.07793185
513.0833333331954,0.21509603,-0.72627264,-0.31670123,-2.069125,-0.39656755,1.3811569,0.78264445,0.039999485,0.04,-9.635866,-1.7361208200454712,0.112317376,0.07629118,0.004605520516633987,-0.07762406
513.099999999862,0.21663819,-0.72585654,-0.3189749,-2.067064,-0.3994127,1.3797953,0.78262043,0.03999948,0.04,-9.633574,-1.7483845949172974,0.11128601,0.076397225,0.004859099164605141,-0.07730703
513.1166666665287,0.21817355,-0.72544223,-0.32123867,-2.0650127,-0.40224537,1.3784399,0.7825965,0.039999474,0.04,-9.631284,-1.7605661153793335,0.11020728,0.07648692,0.005107481498271227,-0.07697943
513.1333333331953,0.21970199,-0.7250298,-0.3234922,-2.0629702,-0.40506518,1.3770903,0.7825728,0.039999466,0.04,-9.629068,-1.7727285623550415,0.10909979,0.07656073,0.005349093582481146,-0.076642685
513.149999999862,0.22122332,-0.7246196,-0.32573512,-2.060938,-0.40787178,1.3757474,0.78254914,0.039999455,0.04,-9.626749,-1.784803867340088,0.10800414,0.07661704,0.005584937520325184,-0.07629745
513.1666666665286,0.2227373,-0.7242113,-0.32796732,-2.058915,-0.41066486,1.3744107,0.78252554,0.03999944,0.04,-9.624559,-1.796887993812561,0.106852844,0.0766589,0.005813701078295708,-0.07594368
513.1833333331953,0.22424383,-0.72380495,-0.33018845,-2.0569022,-0.41344416,1.3730805,0.7825021,0.039999425,0.04,-9.622239,-1.808838129043579,0.10570933,0.0766832,0.006036815699189901,-0.07558028
513.1999999998619,0.22574267,-0.72340065,-0.33239833,-2.0548992,-0.41620925,1.3717571,0.78247875,0.03999942,0.04,-9.620045,-1.820786952972412,0.10452452,0.0766918,0.006250116508454084,-0.07520677
513.2166666665286,0.22723368,-0.7229987,-0.33459663,-2.0529072,-0.41895977,1.3704408,0.78245544,0.039999414,0.04,-9.61772,-1.8326231241226196,0.103325576,0.07668325,0.006458709482103586,-0.074824125
513.2333333331952,0.2287167,-0.7225989,-0.33678314,-2.050926,-0.42169553,1.3691317,0.78243226,0.039999403,0.04,-9.615494,-1.844459056854248,0.10211887,0.07665893,0.006660254206508398,-0.07443461
513.2499999998619,0.23019154,-0.72220135,-0.33895752,-2.0489552,-0.42441624,1.3678297,0.7824092,0.039999396,0.04,-9.613295,-1.8562567234039307,0.10087445,0.07661851,0.006855020299553871,-0.07403463
513.2666666665285,0.23165803,-0.721806,-0.34111962,-2.0469959,-0.42712152,1.3665351,0.78238624,0.03999939,0.04,-9.610951,-1.8678735494613647,0.099641226,0.07656115,0.007043092045933008,-0.07362547
513.2833333331952,0.233116,-0.7214131,-0.34326923,-2.0450478,-0.42981112,1.3652481,0.7823634,0.03999938,0.04,-9.608727,-1.8795026540756226,0.09835743,0.07648748,0.007222634740173817,-0.073208
513.2999999998618,0.23456533,-0.7210223,-0.345406,-2.043112,-0.4324847,1.3639687,0.7823407,0.039999373,0.04,-9.606435,-1.8910212516784668,0.09708912,0.0763964,0.007396765053272247,-0.07278145
513.3166666665285,0.2360058,-0.7206343,-0.34752974,-2.041188,-0.43514177,1.3626971,0.7823182,0.039999366,0.04,-9.604318,-1.9025862216949463,0.09574603,0.07629123,0.007558136712759733,-0.072345585
513.3333333331951,0.23743722,-0.7202485,-0.34964025,-2.0392761,-0.4377823,1.3614334,0.7822958,0.03999936,0.04,-9.602012,-1.9139798879623413,0.09446607,0.07616851,0.007714876439422369,-0.07190354
513.3499999998618,0.23885953,-0.71986526,-0.35173723,-2.0373757,-0.44040585,1.3601775,0.7822739,0.039999347,0.04,-9.599828,-1.9253507852554321,0.09310998,0.07602921,0.00786010641604662,-0.071452126
513.3666666665284,0.2402725,-0.7194846,-0.35382047,-2.0354877,-0.4430122,1.3589302,0.782252,0.039999336,0.04,-9.59751,-1.9366035461425781,0.09178042,0.0758714,0.00800055917352438,-0.07099261
513.3833333331951,0.24167599,-0.7191066,-0.35588968,-2.0336125,-0.44560108,1.3576913,0.7822303,0.03999933,0.04,-9.595253,-1.9477967023849487,0.09043405,0.075696744,0.00813513807952404,-0.0705258
513.3999999998617,0.24306983,-0.7187311,-0.35794476,-2.0317504,-0.44817215,1.3564608,0.7822087,0.039999317,0.04,-9.593038,-1.9589606523513794,0.08906186,0.07550612,0.008261086419224739,-0.0700508
513.4166666665284,0.24445389,-0.71835834,-0.35998532,-2.029902,-0.45072523,1.3552389,0.78218716,0.039999306,0.04,-9.590851,-1.970023274421692,0.08767037,0.07529989,0.00837775506079197,-0.06956703
513.433333333195,0.24582803,-0.71798825,-0.3620113,-2.0280662,-0.45325983,1.3540258,0.7821658,0.039999288,0.04,-9.588694,-1.9810694456100464,0.08626694,0.07507871,0.008483701385557652,-0.06907563
513.4499999998617,0.24719213,-0.7176209,-0.3640225,-2.026244,-0.45577577,1.3528218,0.78214455,0.03999928,0.04,-9.58643,-1.991941213607788,0.084870785,0.07483989,0.008583278395235538,-0.06857643
513.4666666665283,0.24854594,-0.71725637,-0.3660185,-2.0244353,-0.45827302,1.3516268,0.7821233,0.039999273,0.04,-9.584255,-2.0028042793273926,0.08344357,0.07458612,0.008674903772771358,-0.068070844
513.483333333195,0.24988943,-0.7168945,-0.3679993,-2.0226407,-0.460751,1.3504409,0.78210235,0.03999926,0.04,-9.582009,-2.013546943664551,0.082035854,0.074315585,0.00875930767506361,-0.0675564
513.4999999998616,0.25122237,-0.71653575,-0.36996442,-2.02086,-0.4632095,1.3492644,0.7820815,0.039999258,0.04,-9.579943,-2.0243496894836426,0.080574684,0.07403012,0.008832256309688091,-0.06703348
513.5166666665283,0.25254473,-0.7161799,-0.3719141,-2.019094,-0.46564835,1.3480972,0.7820608,0.039999247,0.04,-9.577645,-2.0348551273345947,0.07917099,0.073728345,0.0089001739397645,-0.06650414
513.533333333195,0.25385615,-0.71582687,-0.37384775,-2.0173426,-0.46806735,1.3469394,0.78204024,0.039999235,0.04,-9.575555,-2.045393466949463,0.077701695,0.073411465,0.008956917561590672,-0.06596818
513.5499999998616,0.25515667,-0.7154768,-0.37576523,-2.0156057,-0.47046608,1.3457915,0.7820198,0.03999923,0.04,-9.573414,-2.055842161178589,0.07623839,0.07307901,0.00900302454829216,-0.065423585
513.5666666665282,0.2564462,-0.7151297,-0.37766638,-2.013884,-0.47284436,1.3446534,0.7819998,0.039999228,0.04,-9.571244,-2.066221237182617,0.07478241,0.07273155,0.00904154684394598,-0.0648723
513.5833333331949,0.25772452,-0.71478564,-0.3795512,-2.0121765,-0.47520202,1.343525,0.78198,0.03999922,0.04,-9.569149,-2.076550006866455,0.073273875,0.07236869,0.009070092812180519,-0.064315036
513.5999999998616,0.25899154,-0.71444464,-0.3814192,-2.0104842,-0.47753873,1.3424067,0.78196025,0.03999921,0.04,-9.566923,-2.086667776107788,0.071836606,0.07198838,0.009093355387449265,-0.063752
513.6166666665282,0.26024717,-0.71410686,-0.38327026,-2.0088072,-0.47985438,1.3412983,0.7819407,0.039999202,0.04,-9.564821,-2.0968058109283447,0.070358194,0.07159409,0.009106907993555069,-0.063181534
513.6333333331949,0.26149112,-0.7137723,-0.38510433,-2.0071452,-0.4821486,1.3402003,0.7819213,0.03999919,0.04,-9.562689,-2.106844425201416,0.06887811,0.07118518,0.009111914783716202,-0.06260487
513.6499999998615,0.26272336,-0.71344084,-0.38692114,-2.0054996,-0.48442125,1.3391128,0.78190213,0.03999918,0.04,-9.5605345,-2.1167211532592773,0.06742936,0.07075965,0.009110940620303154,-0.062022556
513.6666666665282,0.26394388,-0.71311253,-0.3887205,-2.0038695,-0.4866721,1.3380352,0.78188306,0.039999165,0.04,-9.558529,-2.1266322135925293,0.065912925,0.0703212,0.009098798967897892,-0.061432447
513.6833333331948,0.2651525,-0.71278745,-0.39050233,-2.0022554,-0.48890102,1.3369683,0.7818641,0.03999915,0.04,-9.556431,-2.1363935470581055,0.064440176,0.06986842,0.009076866321265697,-0.06083796
513.6999999998615,0.26634905,-0.7124655,-0.39226648,-2.0006566,-0.4911077,1.3359123,0.78184533,0.039999142,0.04,-9.554374,-2.1460680961608887,0.0629468,0.06940194,0.009046008810400963,-0.06023534
513.7166666665281,0.26753342,-0.71214724,-0.39401272,-1.999074,-0.493292,1.3348671,0.78182673,0.039999135,0.04,-9.552222,-2.1555867195129395,0.0614611,0.06891908,0.009011399932205677,-0.059628546
513.7333333331948,0.26870555,-0.7118321,-0.39574087,-1.997508,-0.4954537,1.3338327,0.7818083,0.039999124,0.04,-9.550162,-2.1650617122650146,0.06001005,0.06842192,0.008970137685537338,-0.059016045
513.7499999998614,0.26986524,-0.71152025,-0.3974508,-1.9959594,-0.49759266,1.332809,0.78179044,0.039999116,0.04,-9.548218,-2.174600124359131,0.058514718,0.06791208,0.00891740620136261,-0.05839746
513.7666666665281,0.2710125,-0.7112119,-0.39914244,-1.994427,-0.4997085,1.3317965,0.7817727,0.039999105,0.04,-9.546247,-2.1838295459747314,0.05701564,0.0673881,0.008852311410009861,-0.057772025
513.7833333331947,0.27214724,-0.7109069,-0.40081552,-1.9929113,-0.50180113,1.330795,0.78175503,0.039999094,0.04,-9.544196,-2.1930172443389893,0.05555713,0.066850215,0.00878195371478796,-0.05714349
513.7999999998614,0.27326933,-0.7106052,-0.40246984,-1.9914125,-0.50387025,1.329805,0.7817376,0.039999083,0.04,-9.54221,-2.2021355628967285,0.054075237,0.066299595,0.00870247557759285,-0.05650921
513.816666666528,0.2743787,-0.710307,-0.40410548,-1.9899309,-0.5059162,1.3288261,0.78172034,0.03999907,0.04,-9.540233,-2.2111947536468506,0.052579165,0.06573722,0.0086151622235775,-0.055870734
513.8333333331947,0.27547508,-0.7100124,-0.40572214,-1.9884663,-0.50793827,1.3278584,0.7817032,0.039999064,0.04,-9.538271,-2.2200748920440674,0.051122043,0.06516106,0.008519652299582958,-0.055225056
513.8499999998613,0.27655858,-0.7097212,-0.40731987,-1.987019,-0.50993645,1.3269023,0.7816862,0.039999057,0.04,-9.536323,-2.2289087772369385,0.04967477,0.06457297,0.008416356518864632,-0.05457624
513.866666666528,0.2776291,-0.7094335,-0.40889826,-1.9855893,-0.51191056,1.3259574,0.7816693,0.03999904,0.04,-9.5344,-2.23762845993042,0.048214205,0.06397202,0.00830475427210331,-0.05392361
513.8833333331946,0.27868658,-0.7091494,-0.41045746,-1.9841759,-0.5138606,1.3250241,0.7816526,0.03999904,0.04,-9.532524,-2.246309757232666,0.046745326,0.063361,0.008182224817574024,-0.053265356
513.8999999998613,0.2797309,-0.70886904,-0.4119971,-1.9827812,-0.51578623,1.3241023,0.7816363,0.039999034,0.04,-9.530489,-2.2547504901885986,0.045345046,0.06273546,0.008058102801442146,-0.052604508
513.9166666665279,0.28076193,-0.7085921,-0.41351733,-1.9814044,-0.51768744,1.3231922,0.7816205,0.039999027,0.04,-9.528722,-2.2632648944854736,0.043899108,0.062100403,0.007921004667878151,-0.05193828
513.9333333331946,0.28177965,-0.7083187,-0.4150179,-1.9800452,-0.519564,1.3222942,0.78160477,0.039999016,0.04,-9.526898,-2.2716128826141357,0.042453207,0.06145307,0.007774916477501392,-0.051268928
513.9499999998612,0.282784,-0.7080489,-0.41649866,-1.9787041,-0.5214158,1.321408,0.78158915,0.039999012,0.04,-9.52501,-2.2798290252685547,0.041019037,0.06079454,0.007623580284416676,-0.050595306
513.9666666665279,0.28377485,-0.70778286,-0.4179596,-1.9773808,-0.5232429,1.3205335,0.7815738,0.039998997,0.04,-9.523214,-2.2880125045776367,0.039596453,0.060127024,0.007463391870260239,-0.049918365
513.9833333331945,0.28475222,-0.70752054,-0.4194006,-1.9760756,-0.52504504,1.3196709,0.7815585,0.03999899,0.04,-9.521381,-2.2960000038146973,0.038214076,0.05944788,0.007296151481568813,-0.049237516
513.9999999998612,0.285716,-0.70726186,-0.42082164,-1.9747883,-0.52682215,1.3188204,0.7815434,0.039998982,0.04,-9.519622,-2.3040874004364014,0.036822133,0.058759622,0.00712164118885994,-0.048554156
514.0166666665278,0.28666615,-0.70700693,-0.4222225,-1.9735196,-0.52857405,1.3179818,0.7815284,0.039998975,0.04,-9.517795,-2.311758518218994,0.035445757,0.058060948,0.006941094528883696,-0.0478678
514.0333333331945,0.2876027,-0.70675564,-0.4236032,-1.9722689,-0.53030074,1.3171554,0.7815137,0.039998963,0.04,-9.516075,-2.319520950317383,0.034064885,0.05735384,0.006752298679202795,-0.047178537
514.0499999998611,0.28852543,-0.706508,-0.4249637,-1.9710367,-0.5320021,1.3163409,0.7814991,0.039998956,0.04,-9.514326,-2.327141761779785,0.032707345,0.056637336,0.0065568010322749615,-0.046486635
514.0666666665278,0.28943443,-0.706264,-0.42630392,-1.969823,-0.53367805,1.315539,0.781485,0.03999895,0.04,-9.51262,-2.3346588611602783,0.03134823,0.055911645,0.006353564094752073,-0.045792013
514.0833333331944,0.2903295,-0.70602375,-0.4276237,-1.9686279,-0.5353285,1.314749,0.78147125,0.03999894,0.04,-9.510935,-2.3420939445495605,0.03000223,0.055176605,0.0061446367762982845,-0.0450947
514.0999999998611,0.29121077,-0.70578724,-0.42892307,-1.9674513,-0.5369534,1.3139712,0.7814576,0.03999893,0.04,-9.50929,-2.34942364692688,0.028680898,0.05443291,0.0059266965836286545,-0.04439465
514.1166666665277,0.29207814,-0.7055545,-0.43020198,-1.9662932,-0.5385526,1.313206,0.7814441,0.03999892,0.04,-9.507619,-2.3566317558288574,0.027361225,0.053681623,0.00570335891097784,-0.043693572
514.1333333331944,0.29293162,-0.7053257,-0.43146026,-1.9651536,-0.540126,1.312453,0.7814308,0.039998904,0.04,-9.50599,-2.3637475967407227,0.02606085,0.05292313,0.00547428522258997,-0.042991083
514.149999999861,0.29377106,-0.70510066,-0.43269792,-1.9640328,-0.54167366,1.3117118,0.7814177,0.039998896,0.04,-9.504326,-2.3707194328308105,0.024806919,0.052156594,0.0052419439889490604,-0.04228646
514.1666666665277,0.29459643,-0.7048792,-0.4339151,-1.9629306,-0.5431957,1.3109837,0.7814048,0.039998885,0.04,-9.502781,-2.377656936645508,0.023546573,0.051383745,0.004999107215553522,-0.04158097
514.1833333331944,0.29540795,-0.70466155,-0.43511164,-1.961847,-0.544692,1.3102674,0.781392,0.039998878,0.04,-9.501199,-2.384408473968506,0.022264812,0.050603308,0.004753534682095051,-0.040873077
514.199999999861,0.29620546,-0.70444775,-0.43628755,-1.960782,-0.5461622,1.3095639,0.78137934,0.03999887,0.04,-9.499649,-2.3911139965057373,0.021020006,0.049817555,0.00450121657922864,-0.040163577
514.2166666665277,0.29698887,-0.7042377,-0.43744275,-1.9597361,-0.54760665,1.3088727,0.78136724,0.039998863,0.04,-9.498112,-2.3976988792419434,0.019814307,0.04902576,0.004244500305503607,-0.039455034
514.2333333331943,0.29775828,-0.7040316,-0.43857723,-1.9587089,-0.54902536,1.3081938,0.7813554,0.03999885,0.04,-9.496631,-2.4041926860809326,0.018600997,0.04822726,0.003982145339250565,-0.038745236
514.249999999861,0.29851356,-0.7038291,-0.43969104,-1.9577003,-0.55041736,1.3075273,0.78134364,0.039998844,0.04,-9.495161,-2.4106833934783936,0.017429756,0.047423247,0.003714542603120208,-0.038034525
514.2666666665276,0.2992549,-0.7036304,-0.44078407,-1.9567103,-0.55178386,1.3068732,0.7813321,0.039998837,0.04,-9.493678,-2.4168176651000977,0.016251318,0.046614423,0.0034422720782458782,-0.037325967
514.2833333331943,0.29998222,-0.7034354,-0.4418564,-1.9557394,-0.5531245,1.3062315,0.7813208,0.039998826,0.04,-9.492222,-2.422990560531616,0.015087173,0.045801446,0.003166231792420149,-0.03661699
514.2999999998609,0.30069542,-0.70324427,-0.4429081,-1.9547871,-0.5544392,1.3056023,0.7813097,0.03999881,0.04,-9.490843,-2.4290809631347656,0.013939,0.044984795,0.0028839879669249058,-0.03590775
514.3166666665276,0.30139467,-0.7030568,-0.4439391,-1.9538536,-0.55572814,1.3049852,0.78129876,0.039998803,0.04,-9.489441,-2.435001850128174,0.012829354,0.044163432,0.0025985355023294687,-0.03519886
514.3333333331942,0.30207992,-0.7028732,-0.44494936,-1.9529388,-0.5569911,1.3043808,0.7812879,0.039998796,0.039999988,-9.488083,-2.440849781036377,0.011723993,0.04333939,0.0023069449234753847,-0.034487944
514.3499999998609,0.30275112,-0.7026934,-0.44593906,-1.9520427,-0.5582284,1.3037887,0.7812773,0.03999879,0.039999988,-9.486726,-2.4466140270233154,0.01063323,0.042513363,0.0020141254644840956,-0.033780012
514.3666666665275,0.30340838,-0.70251733,-0.4469083,-1.9511652,-0.5594399,1.3032088,0.7812673,0.039998777,0.039999984,-9.48541,-2.4522247314453125,0.009579696,0.041683342,0.0017171412473544478,-0.033072904
514.3833333331942,0.3040516,-0.702345,-0.4478569,-1.9503063,-0.5606257,1.3026414,0.78125733,0.039998766,0.039999984,-9.484126,-2.4577603340148926,0.008532961,0.040849037,0.001415945589542389,-0.032367587
514.3999999998608,0.30468097,-0.7021764,-0.4487849,-1.949466,-0.56178594,1.3020861,0.78124744,0.03999876,0.039999984,-9.482843,-2.4631824493408203,0.0075062183,0.040013503,0.0011124112643301487,-0.0316633
514.4166666665275,0.30529648,-0.7020117,-0.4496925,-1.948644,-0.5629205,1.3015431,0.78123784,0.039998755,0.039999984,-9.481588,-2.4685237407684326,0.006500859,0.039177503,0.0008057982777245343,-0.030959386
514.4333333331941,0.3058981,-0.7018508,-0.45057967,-1.9478408,-0.5640295,1.3010124,0.7812285,0.039998747,0.039999984,-9.480341,-2.4737281799316406,0.005532387,0.03833899,0.000497243891004473,-0.030258846
514.4499999998608,0.30648604,-0.70169353,-0.45144647,-1.9470558,-0.56511307,1.3004937,0.7812193,0.03999874,0.039999984,-9.479171,-2.47886061668396,0.0045643123,0.037500236,0.00018553614791017026,-0.029560762
514.4666666665274,0.30706015,-0.7015398,-0.452293,-1.9462893,-0.5661713,1.2999874,0.7812103,0.039998736,0.039999984,-9.477973,-2.4838781356811523,0.0036199847,0.036661375,-0.0001283554156543687,-0.028864415
514.4833333331941,0.3076206,-0.70138955,-0.45311955,-1.9455411,-0.5672043,1.2994928,0.7812014,0.039998725,0.03999998,-9.47684,-2.488811731338501,0.0026710662,0.035822637,-0.00044411461567506194,-0.02817082
514.4999999998607,0.30816743,-0.7012431,-0.45392603,-1.9448115,-0.56821203,1.2990105,0.7811928,0.03999872,0.03999998,-9.475759,-2.493744373321533,0.001754903,0.034984864,-0.0007655363297089934,-0.027478943
514.5166666665274,0.30870068,-0.7011004,-0.45471236,-1.9440995,-0.569195,1.29854,0.78118473,0.039998714,0.03999998,-9.474671,-2.4983484745025635,0.00085480406,0.034148153,-0.001087789423763752,-0.026791511
514.533333333194,0.30922043,-0.7009614,-0.4554788,-1.9434057,-0.5701528,1.2980815,0.78117675,0.039998706,0.039999977,-9.473548,-2.5029399394989014,9.258278e-06,0.03331023,-0.0014104550937190652,-0.026106438
514.5499999998607,0.30972674,-0.7008261,-0.4562254,-1.9427298,-0.5710861,1.2976347,0.7811688,0.039998703,0.039999977,-9.472484,-2.5074524879455566,-0.0008353533,0.032474488,-0.0017333321738988161,-0.025425361
514.5666666665273,0.31021973,-0.7006942,-0.45695236,-1.9420718,-0.5719946,1.2971998,0.78116107,0.039998695,0.039999977,-9.471461,-2.5118587017059326,-0.0016496667,0.03164122,-0.0020576370880007744,-0.024747977
514.583333333194,0.3106994,-0.70056593,-0.4576598,-1.9414315,-0.5728788,1.2967767,0.78115356,0.03999869,0.039999977,-9.47047,-2.5161943435668945,-0.0024774736,0.030811248,-0.002383345505222678,-0.02407443
514.5999999998606,0.3111659,-0.7004413,-0.45834783,-1.9408087,-0.5737385,1.2963653,0.7811463,0.039998684,0.039999977,-9.4695015,-2.5203940868377686,-0.0032637315,0.029982895,-0.0027096858248114586,-0.023405282
514.6166666665273,0.3116193,-0.7003201,-0.45901656,-1.9402031,-0.5745741,1.2959653,0.7811392,0.03999868,0.039999977,-9.468515,-2.524491786956787,-0.004008068,0.029157443,-0.0030347746796905994,-0.022740712
514.633333333194,0.3120597,-0.70020217,-0.45966604,-1.9396152,-0.5753857,1.2955767,0.7811322,0.039998673,0.039999977,-9.467583,-2.528512477874756,-0.004750818,0.028335365,-0.0033600761089473963,-0.022081902
514.6499999998606,0.31248727,-0.7000879,-0.46029663,-1.9390447,-0.5761736,1.2951996,0.7811254,0.039998665,0.039999973,-9.466711,-2.532487630844116,-0.0055113123,0.027518893,-0.003687456250190735,-0.021426536
514.6666666665272,0.3129021,-0.69997734,-0.46090823,-1.9384911,-0.57693774,1.2948338,0.7811188,0.03999866,0.039999977,-9.465846,-2.536303997039795,-0.006196926,0.02670709,-0.004014099482446909,-0.020776572
514.6833333331939,0.31330413,-0.69986975,-0.46150115,-1.9379544,-0.5776787,1.2944793,0.7811128,0.039998654,0.039999973,-9.46495,-2.5400359630584717,-0.006851803,0.025900152,-0.004338190890848637,-0.02013368
514.6999999998606,0.31369364,-0.69976574,-0.46207556,-1.9374349,-0.5783962,1.2941358,0.7811068,0.039998647,0.039999973,-9.464136,-2.543694257736206,-0.007554316,0.025096307,-0.0046624112874269485,-0.01949427
514.7166666665272,0.31407058,-0.69966525,-0.46263158,-1.9369316,-0.57909095,1.2938033,0.78110087,0.039998643,0.039999973,-9.463363,-2.5472662448883057,-0.008175786,0.024300048,-0.004986670333892107,-0.018862357
514.7333333331939,0.3144352,-0.6995676,-0.4631694,-1.9364449,-0.5797629,1.2934818,0.78109515,0.039998636,0.039999973,-9.462517,-2.5506813526153564,-0.008775999,0.02350887,-0.005306909792125225,-0.018236807
514.7499999998605,0.31478786,-0.6994735,-0.46368924,-1.9359746,-0.58041245,1.2931708,0.7810896,0.039998632,0.039999973,-9.461801,-2.554216146469116,-0.009408303,0.022725297,-0.005627870559692383,-0.017616294
514.7666666665272,0.3151282,-0.6993827,-0.46419123,-1.9355202,-0.5810393,1.2928705,0.78108424,0.03999863,0.039999973,-9.461067,-2.5573971271514893,-0.009990383,0.021949513,-0.005947429686784744,-0.01700243
514.7833333331938,0.31545672,-0.69929487,-0.46467566,-1.9350817,-0.5816444,1.292581,0.78107905,0.03999862,0.039999973,-9.460331,-2.560579538345337,-0.01051918,0.02118024,-0.006263613235205412,-0.0163985
514.7999999998605,0.3157735,-0.69921046,-0.46514273,-1.934659,-0.58222777,1.2923018,0.78107405,0.039998617,0.039999973,-9.459646,-2.5637028217315674,-0.011089579,0.020419188,-0.006577074062079191,-0.0158003
514.8166666665271,0.31607854,-0.6991289,-0.4655927,-1.9342519,-0.58278966,1.2920328,0.7810692,0.039998613,0.03999997,-9.45897,-2.5667147636413574,-0.011581087,0.019666294,-0.006887447088956833,-0.015209222
514.8333333331938,0.31637207,-0.6990507,-0.46602565,-1.9338602,-0.58333033,1.291774,0.78106457,0.039998606,0.03999997,-9.458367,-2.569680690765381,-0.012106941,0.018922381,-0.007197163067758083,-0.014626624
514.8499999998604,0.3166543,-0.6989752,-0.46644196,-1.9334834,-0.5838502,1.2915249,0.78106046,0.039998602,0.03999997,-9.457719,-2.5725317001342773,-0.012557178,0.018187214,-0.007502185646444559,-0.014052543
514.8666666665271,0.31692547,-0.69890285,-0.46684188,-1.9331214,-0.5843496,1.2912859,0.7810564,0.0399986,0.03999997,-9.45714,-2.575324773788452,-0.013043319,0.017460056,-0.007806302979588509,-0.0134856105
514.8833333331937,0.3171857,-0.69883335,-0.4672256,-1.9327742,-0.5848287,1.2910566,0.78105235,0.039998595,0.03999997,-9.456562,-2.5780179500579834,-0.013472762,0.016743539,-0.008105400949716568,-0.012927763
514.8999999998604,0.31743494,-0.69876695,-0.46759337,-1.9324416,-0.58528787,1.2908368,0.7810483,0.039998587,0.03999997,-9.455997,-2.5806491374969482,-0.013904902,0.016038317,-0.00840000994503498,-0.012379167
514.916666666527,0.3176737,-0.6987033,-0.46794543,-1.9321231,-0.5857274,1.2906265,0.78104454,0.039998583,0.03999997,-9.4555,-2.583199977874756,-0.014284604,0.015344543,-0.00869191624224186,-0.011839748
514.9333333331937,0.31790197,-0.6986425,-0.46828216,-1.931819,-0.58614784,1.2904253,0.78104097,0.03999858,0.03999997,-9.454966,-2.5856831073760986,-0.014685451,0.014662089,-0.00897860899567604,-0.011309828
514.9499999998603,0.31812006,-0.6985844,-0.46860382,-1.931528,-0.58654934,1.2902333,0.7810375,0.03999858,0.03999997,-9.454548,-2.588106393814087,-0.01506208,0.013991852,-0.009263809770345688,-0.010788537
514.966666666527,0.31832808,-0.69852877,-0.46891063,-1.9312506,-0.5869324,1.29005,0.78103423,0.039998576,0.03999997,-9.4540205,-2.5904078483581543,-0.015401269,0.013332926,-0.009541063569486141,-0.010278194
514.9833333331936,0.31852627,-0.698476,-0.46920282,-1.9309863,-0.58729726,1.2898754,0.7810311,0.039998572,0.03999997,-9.4536,-2.592703342437744,-0.015755637,0.012687185,-0.009815122932195663,-0.009777113
514.9999999998603,0.31871486,-0.6984259,-0.46948096,-1.9307351,-0.5876442,1.2897094,0.78102803,0.03999857,0.03999997,-9.453164,-2.5949816703796387,-0.016031506,0.012054653,-0.010083898901939392,-0.009287432
515.0166666665269,0.31889397,-0.6983781,-0.46974516,-1.9304962,-0.58797383,1.2895516,0.7810252,0.039998565,0.03999997,-9.452795,-2.5970356464385986,-0.016356295,0.011436373,-0.010347239673137665,-0.008809467
515.0333333331936,0.3190638,-0.6983329,-0.46999577,-1.9302695,-0.5882865,1.2894019,0.7810226,0.03999856,0.03999997,-9.452367,-2.5990889072418213,-0.01662734,0.010831195,-0.010604982264339924,-0.008342542
515.0499999998602,0.31922475,-0.6982901,-0.47023323,-1.930055,-0.5885827,1.28926,0.7810204,0.039998557,0.03999997,-9.452008,-2.6010756492614746,-0.016873248,0.010239018,-0.010856779292225838,-0.007887147
515.0666666665269,0.31937698,-0.6982497,-0.4704577,-1.9298522,-0.5888628,1.289126,0.78101826,0.039998557,0.03999997,-9.451694,-2.6030309200286865,-0.017129367,0.009661099,-0.011103522032499313,-0.0074428907
515.0833333331935,0.31952074,-0.6982115,-0.4706697,-1.9296609,-0.589127,1.2889994,0.7810162,0.039998554,0.03999997,-9.451348,-2.6049346923828125,-0.017355401,0.009099427,-0.011343196034431458,-0.0070114518
515.0999999998602,0.31965625,-0.69817543,-0.47086948,-1.9294804,-0.5893763,1.2888802,0.7810141,0.03999855,0.03999997,-9.451069,-2.6067872047424316,-0.01758709,0.008554705,-0.011577749624848366,-0.0065927515
515.1166666665268,0.31978378,-0.69814146,-0.4710575,-1.9293104,-0.58961064,1.2887678,0.781012,0.039998546,0.03999997,-9.45074,-2.6085422039031982,-0.017786564,0.008025637,-0.011804361827671528,-0.00618554
515.1333333331935,0.31990352,-0.69810945,-0.471234,-1.9291507,-0.58983076,1.2886624,0.78101,0.039998546,0.03999997,-9.450477,-2.610267162322998,-0.017968519,0.0075136875,-0.012025188654661179,-0.005791652
515.1499999998601,0.32001576,-0.6980795,-0.4713995,-1.9290015,-0.5900371,1.2885638,0.7810081,0.039998546,0.03999997,-9.450196,-2.6119508743286133,-0.018154575,0.0070188534,-0.012238074094057083,-0.0054106098
515.1666666665268,0.32012078,-0.6980515,-0.4715543,-1.9288616,-0.5902301,1.2884712,0.7810064,0.039998543,0.03999997,-9.449986,-2.6136083602905273,-0.018326921,0.006541817,-0.012443464249372482,-0.00504357
515.1833333331934,0.3202189,-0.6980254,-0.47169888,-1.9287313,-0.5904103,1.2883852,0.7810048,0.039998543,0.03999997,-9.449754,-2.6151747703552246,-0.018458841,0.0060825357,-0.01264306902885437,-0.004689768
515.1999999998601,0.32031026,-0.6980012,-0.4718336,-1.9286096,-0.5905781,1.2883047,0.78100324,0.03999854,0.03999997,-9.449565,-2.616748809814453,-0.018604344,0.0056423405,-0.012834048829972744,-0.0043509468
515.2166666665267,0.3203953,-0.69797873,-0.47195882,-1.9284965,-0.59073424,1.2882301,0.7810018,0.039998535,0.03999997,-9.449328,-2.6182219982147217,-0.018700503,0.00522002,-0.013016286306083202,-0.00402762
515.2333333331934,0.32047424,-0.69795793,-0.47207507,-1.9283915,-0.59087914,1.2881606,0.7810005,0.039998535,0.03999997,-9.449135,-2.619689464569092,-0.01880699,0.0048170337,-0.013189290650188923,-0.0037180574
515.24999999986,0.32054743,-0.6979387,-0.47218278,-1.9282942,-0.5910133,1.2880964,0.7809993,0.03999853,0.03999997,-9.448974,-2.621187448501587,-0.018896122,0.0044335746,-0.013355094008147717,-0.0034241194
515.2666666665267,0.32061514,-0.6979207,-0.47228247,-1.9282042,-0.5911374,1.2880372,0.7809982,0.039998528,0.03999997,-9.448809,-2.6225411891937256,-0.018986877,0.004070482,-0.01351096760481596,-0.0031463085
515.2833333331934,0.32067755,-0.6979041,-0.4723745,-1.9281213,-0.59125197,1.2879823,0.78099716,0.039998528,0.03999997,-9.448673,-2.6239025592803955,-0.019086594,0.0037279227,-0.01365856733173132,-0.0028828522
515.29999999986,0.32073513,-0.69788915,-0.47245932,-1.928045,-0.59135747,1.2879319,0.7809962,0.03999852,0.039999966,-9.448577,-2.625260829925537,-0.019141525,0.0034059547,-0.013799411244690418,-0.0026365602
515.3166666665267,0.3207882,-0.697875,-0.47253746,-1.9279743,-0.5914546,1.2878855,0.7809954,0.03999852,0.039999966,-9.448427,-2.626563310623169,-0.019175414,0.0031056523,-0.013928567059338093,-0.0024067678
515.3333333331933,0.3208371,-0.69786215,-0.4726095,-1.9279099,-0.5915441,1.2878429,0.78099495,0.039998516,0.039999966,-9.448295,-2.6278696060180664,-0.019247675,0.0028261887,-0.01404858473688364,-0.0021939448
515.34999999986,0.3208822,-0.69785035,-0.47267568,-1.9278499,-0.5916264,1.2878035,0.78099465,0.039998516,0.039999966,-9.448246,-2.6291513442993164,-0.019291077,0.0025686657,-0.0141608202829957,-0.001997099
515.3666666665266,0.32092363,-0.6978393,-0.4727366,-1.9277949,-0.59170204,1.2877668,0.78099436,0.039998516,0.039999966,-9.448072,-2.630298376083374,-0.019302117,0.002329933,-0.014261270873248577,-0.0018165641
515.3833333331933,0.32096186,-0.6978293,-0.47279274,-1.9277449,-0.5917716,1.2877332,0.78099406,0.039998513,0.039999966,-9.448034,-2.631420135498047,-0.019341778,0.002111052,-0.014358037151396275,-0.0016509552
515.3999999998599,0.3209971,-0.6978201,-0.47284442,-1.9276987,-0.5918356,1.287703,0.7809938,0.03999851,0.039999966,-9.447993,-2.632431983947754,-0.019390196,0.0019110307,-0.014447638764977455,-0.0014985111
515.4166666665266,0.32102954,-0.6978115,-0.4728919,-1.9276563,-0.5918948,1.2876744,0.7809936,0.03999851,0.039999966,-9.447888,-2.633340358734131,-0.019432714,0.0017267506,-0.01452617160975933,-0.0013581165
515.4333333331932,0.32105935,-0.6978039,-0.47293562,-1.9276174,-0.59194916,1.2876484,0.78099334,0.039998505,0.039999966,-9.44784,-2.6342079639434814,-0.019457527,0.0015575349,-0.014603137969970703,-0.0012275643
515.4499999998599,0.32108685,-0.69779676,-0.4729759,-1.9275808,-0.5919993,1.287625,0.7809931,0.039998505,0.039999966,-9.44777,-2.634960412979126,-0.019460337,0.0014016897,-0.01467166282236576,-0.0011082663
515.4666666665265,0.3211121,-0.69779015,-0.47301292,-1.9275471,-0.5920453,1.2876028,0.78099287,0.039998505,0.039999966,-9.447625,-2.635626792907715,-0.019484496,0.001256552,-0.014730398543179035,-0.0009983899
515.4833333331932,0.32113537,-0.6977841,-0.47304702,-1.9275166,-0.5920877,1.2875828,0.7809927,0.039998505,0.039999966,-9.447586,-2.636291742324829,-0.019481724,0.0011230003,-0.014786919578909874,-0.00089755474
515.4999999998598,0.32115686,-0.6977787,-0.47307834,-1.9274883,-0.59212667,1.2875643,0.7809925,0.0399985,0.039999966,-9.447573,-2.636948347091675,-0.019518781,0.0010011597,-0.01483884733170271,-0.00080502324
515.5166666665265,0.32117653,-0.69777346,-0.47310722,-1.9274621,-0.5921623,1.2875462,0.7809923,0.0399985,0.039999966,-9.447501,-2.637478828430176,-0.019517574,0.000889035,-0.01488571334630251,-0.00071954186
515.5333333331931,0.32119468,-0.6977687,-0.4731338,-1.9274386,-0.5921954,1.2875313,0.78099215,0.0399985,0.039999966,-9.447484,-2.637988567352295,-0.019523278,0.00078534754,-0.014934247359633446,-0.0006418351
515.5499999998598,0.32121146,-0.6977642,-0.47315827,-1.9274164,-0.5922255,1.2875167,0.780992,0.0399985,0.039999966,-9.447462,-2.638493299484253,-0.019595586,0.00069133006,-0.014973116107285023,-0.00056873664
515.5666666665264,0.32122692,-0.69776034,-0.47318083,-1.9273968,-0.59225345,1.2875024,0.7809918,0.0399985,0.039999966,-9.447391,-2.6389074325561523,-0.019580912,0.0006043307,-0.015010596252977848,-0.0005031317
515.5833333331931,0.32124114,-0.69775677,-0.4732016,-1.927378,-0.5922792,1.2874912,0.7809916,0.0399985,0.039999966,-9.447446,-2.6393325328826904,-0.019577974,0.00052561465,-0.015051484107971191,-0.0004418524
515.5999999998597,0.32125428,-0.69775337,-0.4732207,-1.9273609,-0.59230286,1.2874804,0.78099144,0.0399985,0.039999966,-9.447302,-2.639653205871582,-0.019618837,0.0004514838,-0.015077781863510609,-0.00038582284
515.6166666665264,0.3212663,-0.69775015,-0.4732383,-1.9273453,-0.5923246,1.2874696,0.78099126,0.0399985,0.039999966,-9.447299,-2.640009641647339,-0.019618323,0.00038398802,-0.015104959718883038,-0.00033402187
515.633333333193,0.32127735,-0.6977473,-0.4732545,-1.9273306,-0.59234464,1.2874591,0.7809911,0.039998498,0.039999966,-9.447317,-2.640334129333496,-0.019618584,0.00032214838,-0.01513461209833622,-0.00028655413
515.6499999998597,0.32128757,-0.69774455,-0.47326934,-1.9273174,-0.59236306,1.2874501,0.7809909,0.039998498,0.039999966,-9.447271,-2.6405792236328125,-0.019601328,0.00026425332,-0.015163151547312737,-0.00024285552
515.6666666665263,0.321297,-0.697742,-0.47328302,-1.9273053,-0.5923799,1.2874428,0.7809907,0.039998498,0.039999966,-9.44726,-2.6408886909484863,-0.019652702,0.00021244027,-0.015187983401119709,-0.00020220231
515.683333333193,0.32130566,-0.6977398,-0.47329563,-1.9272939,-0.59239537,1.2874358,0.78099054,0.039998498,0.039999966,-9.447228,-2.641141414642334,-0.019690739,0.0001651428,-0.015206621959805489,-0.00016499904
515.6999999998596,0.32131368,-0.6977378,-0.47330725,-1.9272833,-0.59240973,1.2874289,0.78099036,0.039998498,0.039999966,-9.447174,-2.641327142715454,-0.019655587,0.000120778655,-0.015223399735987186,-0.00013176519
515.7166666665263,0.321321,-0.6977361,-0.47331795,-1.9272738,-0.59242296,1.2874221,0.7809902,0.039998494,0.039999966,-9.4471655,-2.6415202617645264,-0.019646293,7.9662525e-05,-0.015240415930747986,-0.00010100809
515.733333333193,0.32132775,-0.6977344,-0.4733278,-1.9272654,-0.5924351,1.2874155,0.78099,0.039998494,0.039999966,-9.447175,-2.6417129039764404,-0.019634392,4.2058902e-05,-0.015258561819791794,-7.2462484e-05
515.7499999998596,0.32133403,-0.69773287,-0.47333682,-1.9272573,-0.59244627,1.2874091,0.7809898,0.039998494,0.039999966,-9.117183,-2.6034326553344727,0.14963254,0.0,-0.0,0.0
515.7666666665262,0.32133403,-0.69773287,-0.47333682,-1.9272573,-0.59244627,1.2874091,0.7809898,0.039998494,0.039999966,-9.447161,-2.6432688236236572,-0.019605,0.0,-0.0,0.0
515.7833333331929,0.32133403,-0.69773287,-0.47333682,-1.9272573,-0.59244627,1.2874091,0.7809898,0.039998494,0.039999966,-9.447161,-2.6432688236236572,-0.019605,0.0,-0.0,0.0
515.7999999998596,0.32133403,-0.69773287,-0.47333682,-1.9272573,-0.59244627,1.2874091,0.7809898,0.039998494,0.039999966,-9.447161,-2.6432688236236572,-0.019605,0.0,-0.0,0.0
515.8166666665262,0.32133403,-0.69773287,-0.47333682,-1.9272573,-0.59244627,1.2874091,0.7809898,0.039998494,0.039999966,-9.447161,-2.6432688236236572,-0.019605,0.0,-0.0,0.0
515.8333333331929,0.32133403,-0.69773287,-0.47333682,-1.9272573,-0.59244627,1.2874091,0.7809898,0.039998494,0.039999966,-9.447161,-2.6432688236236572,-0.019605,0.0,-0.0,0.0
515.8499999998595,0.32133403,-0.69773287,-0.47333682,-1.9272573,-0.59244627,1.2874091,0.7809898,0.039998494,0.039999966,-9.447161,-2.6432688236236572,-0.019605,0.0,-0.0,0.0
515.8666666665262,0.32133403,-0.69773287,-0.47333682,-1.9272573,-0.59244627,1.2874091,0.7809898,0.039998494,0.039999966,-9.447161,-2.6432688236236572,-0.019605,0.0,-0.0,0.0
515.8833333331928,0.32133403,-0.69773287,-0.47333682,-1.9272573,-0.59244627,1.2874091,0.7809898,0.039998494,0.039999966,-9.447161,-2.6432688236236572,-0.019605,0.0,-0.0,0.0
515.8999999998595,0.32133403,-0.69773287,-0.47333682,-1.9272573,-0.59244627,1.2874091,0.7809898,0.039998494,0.039999966,-9.447161,-2.6432688236236572,-0.019605,0.0,-0.0,0.0
515.9166666665261,0.32133403,-0.69773287,-0.47333682,-1.9272573,-0.59244627,1.2874091,0.7809898,0.039998494,0.039999966,-9.447161,-2.6432688236236572,-0.019605,0.0,-0.0,0.0
515.9333333331928,0.32133403,-0.69773287,-0.47333682,-1.9272573,-0.59244627,1.2874091,0.7809898,0.039998494,0.039999966,-9.447161,-2.6432688236236572,-0.019605,0.0,-0.0,0.0
515.9499999998594,0.32133403,-0.69773287,-0.47333682,-1.9272573,-0.59244627,1.2874091,0.7809898,0.039998494,0.039999966,-9.447161,-2.6432688236236572,-0.019605,0.0,-0.0,0.0
515.9666666665261,0.32133403,-0.69773287,-0.47333682,-1.9272573,-0.59244627,1.2874091,0.7809898,0.039998494,0.039999966,-9.447161,-2.6432688236236572,-0.019605,0.0,-0.0,0.0
515.9833333331927,0.32133403,-0.69773287,-0.47333682,-1.9272573,-0.59244627,1.2874091,0.7809898,0.039998494,0.039999966,-9.447161,-2.6432688236236572,-0.019605,0.0,-0.0,0.0
515.9999999998594,0.32133403,-0.69773287,-0.47333682,-1.9272573,-0.59244627,1.2874091,0.7809898,0.039998494,0.039999966,-9.447161,-2.6432688236236572,-0.019605,0.0,-0.0,0.0
516.016666666526,0.32133403,-0.69773287,-0.47333682,-1.9272573,-0.59244627,1.2874091,0.7809898,0.039998494,0.039999966,-9.447161,-2.6432688236236572,-0.019605,0.0,-0.0,0.0
516.0333333331927,0.32133403,-0.69773287,-0.47333682,-1.9272573,-0.59244627,1.2874091,0.7809898,0.039998494,0.039999966,-9.447161,-2.6432688236236572,-0.019605,0.0,-0.0,0.0
516.0499999998593,0.32133403,-0.69773287,-0.47333682,-1.9272573,-0.59244627,1.2874091,0.7809898,0.039998494,0.039999966,-9.447161,-2.6432688236236572,-0.019605,0.0,-0.0,0.0
516.066666666526,0.32133403,-0.69773287,-0.47333682,-1.9272573,-0.59244627,1.2874091,0.7809898,0.039998494,0.039999966,-9.447161,-2.6432688236236572,-0.019605,0.0,-0.0,0.0
516.0833333331926,0.32133403,-0.69773287,-0.47333682,-1.9272573,-0.59244627,1.2874091,0.7809898,0.039998494,0.039999966,-9.447161,-2.6432688236236572,-0.019605,0.0,-0.0,0.0
516.0999999998593,0.32133403,-0.69773287,-0.47333682,-1.9272573,-0.59244627,1.2874091,0.7809898,0.039998494,0.039999966,-9.447161,-2.6432688236236572,-0.019605,0.0,-0.0,0.0
516.1166666665259,0.32133403,-0.69773287,-0.47333682,-1.9272573,-0.59244627,1.2874091,0.7809898,0.039998494,0.039999966,-9.447161,-2.6432688236236572,-0.019605,0.0,-0.0,0.0
516.1333333331926,0.32133403,-0.69773287,-0.47333682,-1.9272573,-0.59244627,1.2874091,0.7809898,0.039998494,0.039999966,-9.447161,-2.6432688236236572,-0.019605,0.0,-0.0,0.0
516.1499999998592,0.32133403,-0.69773287,-0.47333682,-1.9272573,-0.59244627,1.2874091,0.7809898,0.039998494,0.039999966,-9.447161,-2.6432688236236572,-0.019605,0.0,-0.0,0.0
516.1666666665259,0.32133403,-0.69773287,-0.47333682,-1.9272573,-0.59244627,1.2874091,0.7809898,0.039998494,0.039999966,-9.447161,-2.6432688236236572,-0.019605,0.0,-0.0,0.0
516.1833333331925,0.32133403,-0.69773287,-0.47333682,-1.9272573,-0.59244627,1.2874091,0.7809898,0.039998494,0.039999966,-9.447161,-2.6432688236236572,-0.019605,0.0,-0.0,0.0
516.1999999998592,0.32133403,-0.69773287,-0.47333682,-1.9272573,-0.59244627,1.2874091,0.7809898,0.039998494,0.039999966,-9.447161,-2.6432688236236572,-0.019605,0.0,-0.0,0.0
516.2166666665258,0.32133403,-0.69773287,-0.47333682,-1.9272573,-0.59244627,1.2874091,0.7809898,0.039998494,0.039999966,-9.447161,-2.6432688236236572,-0.019605,0.0,-0.0,0.0
516.2333333331925,0.32133403,-0.69773287,-0.47333682,-1.9272573,-0.59244627,1.2874091,0.7809898,0.039998494,0.039999966,-9.447161,-2.6432688236236572,-0.019605,0.0,-0.0,0.0
516.2499999998591,0.32133403,-0.69773287,-0.47333682,-1.9272573,-0.59244627,1.2874091,0.7809898,0.039998494,0.039999966,-9.447161,-2.6432688236236572,-0.019605,0.0,-0.0,0.0
516.2666666665258,0.32133403,-0.69773287,-0.47333682,-1.9272573,-0.59244627,1.2874091,0.7809898,0.039998494,0.039999966,-9.447161,-2.6432688236236572,-0.019605,0.0,-0.0,0.0
516.2833333331924,0.32133403,-0.69773287,-0.47333682,-1.9272573,-0.59244627,1.2874091,0.7809898,0.039998494,0.039999966,-9.447161,-2.6432688236236572,-0.019605,0.0,-0.0,0.0
516.2999999998591,0.32133403,-0.69773287,-0.47333682,-1.9272573,-0.59244627,1.2874091,0.7809898,0.039998494,0.039999966,-9.447161,-2.6432688236236572,-0.019605,0.0,-0.0,0.0
516.3166666665257,0.32133403,-0.69773287,-0.47333682,-1.9272573,-0.59244627,1.2874091,0.7809898,0.039998494,0.039999966,-9.447161,-2.6432688236236572,-0.019605,0.0,-0.0,0.0
516.3333333331924,0.32133403,-0.69773287,-0.47333682,-1.9272573,-0.59244627,1.2874091,0.7809898,0.039998494,0.039999966,-9.447161,-2.6432688236236572,-0.019605,0.0,-0.0,0.0
516.349999999859,0.32133403,-0.69773287,-0.47333682,-1.9272573,-0.59244627,1.2874091,0.7809898,0.039998494,0.039999966,-9.447161,-2.6432688236236572,-0.019605,0.0,-0.0,0.0
516.3666666665257,0.32133403,-0.69773287,-0.47333682,-1.9272573,-0.59244627,1.2874091,0.7809898,0.039998494,0.039999966,-9.447161,-2.6432688236236572,-0.019605,0.0,-0.0,0.0
516.3833333331924,0.32133403,-0.69773287,-0.47333682,-1.9272573,-0.59244627,1.2874091,0.7809898,0.039998494,0.039999966,-9.447161,-2.6432688236236572,-0.019605,0.0,-0.0,0.0
516.399999999859,0.32133403,-0.69773287,-0.47333682,-1.9272573,-0.59244627,1.2874091,0.7809898,0.039998494,0.039999966,-9.447161,-2.6432688236236572,-0.019605,0.0,-0.0,0.0
516.4166666665257,0.32133403,-0.69773287,-0.47333682,-1.9272573,-0.59244627,1.2874091,0.7809898,0.039998494,0.039999966,-9.447161,-2.6432688236236572,-0.019605,0.0,-0.0,0.0
516.4333333331923,0.32133403,-0.69773287,-0.47333682,-1.9272573,-0.59244627,1.2874091,0.7809898,0.039998494,0.039999966,-9.447161,-2.6432688236236572,-0.019605,0.0,-0.0,0.0
516.449999999859,0.32133403,-0.69773287,-0.47333682,-1.9272573,-0.59244627,1.2874091,0.7809898,0.039998494,0.039999966,-9.447161,-2.6432688236236572,-0.019605,0.0,-0.0,0.0
516.4666666665256,0.32133403,-0.69773287,-0.47333682,-1.9272573,-0.59244627,1.2874091,0.7809898,0.039998494,0.039999966,-9.447161,-2.6432688236236572,-0.019605,0.0,-0.0,0.0
516.4833333331923,0.32133403,-0.69773287,-0.47333682,-1.9272573,-0.59244627,1.2874091,0.7809898,0.039998494,0.039999966,-9.447161,-2.6432688236236572,-0.019605,0.0,-0.0,0.0
516.4999999998589,0.32133403,-0.69773287,-0.47333682,-1.9272573,-0.59244627,1.2874091,0.7809898,0.039998494,0.039999966,-9.447161,-2.6432688236236572,-0.019605,0.0,-0.0,0.0
516.5166666665256,0.32133403,-0.69773287,-0.47333682,-1.9272573,-0.59244627,1.2874091,0.7809898,0.039998494,0.039999966,-9.447161,-2.6432688236236572,-0.019605,0.0,-0.0,0.0
516.5333333331922,0.32133403,-0.69773287,-0.47333682,-1.9272573,-0.59244627,1.2874091,0.7809898,0.039998494,0.039999966,-9.447161,-2.6432688236236572,-0.019605,0.0,-0.0,0.0
516.5499999998589,0.32133403,-0.69773287,-0.47333682,-1.9272573,-0.59244627,1.2874091,0.7809898,0.039998494,0.039999966,-9.447161,-2.6432688236236572,-0.019605,0.0,-0.0,0.0
516.5666666665255,0.32133403,-0.69773287,-0.47333682,-1.9272573,-0.59244627,1.2874091,0.7809898,0.039998494,0.039999966,-9.447161,-2.6432688236236572,-0.019605,0.0,-0.0,0.0
516.5833333331922,0.32133403,-0.69773287,-0.47333682,-1.9272573,-0.59244627,1.2874091,0.7809898,0.039998494,0.039999966,-9.447161,-2.6432688236236572,-0.019605,0.0,-0.0,0.0
516.5999999998588,0.32133403,-0.69773287,-0.47333682,-1.9272573,-0.59244627,1.2874091,0.7809898,0.039998494,0.039999966,-9.447161,-2.6432688236236572,-0.019605,0.0,-0.0,0.0
516.6166666665255,0.32133403,-0.69773287,-0.47333682,-1.9272573,-0.59244627,1.2874091,0.7809898,0.039998494,0.039999966,-9.447161,-2.6432688236236572,-0.019605,0.0,-0.0,0.0
516.6333333331921,0.32133403,-0.69773287,-0.47333682,-1.9272573,-0.59244627,1.2874091,0.7809898,0.039998494,0.039999966,-9.447161,-2.6432688236236572,-0.019605,0.0,-0.0,0.0
516.6499999998588,0.32133403,-0.69773287,-0.47333682,-1.9272573,-0.59244627,1.2874091,0.7809898,0.039998494,0.039999966,-9.447161,-2.6432688236236572,-0.019605,0.0,-0.0,0.0
516.6666666665254,0.32133403,-0.69773287,-0.47333682,-1.9272573,-0.59244627,1.2874091,0.7809898,0.039998494,0.039999966,-9.447161,-2.6432688236236572,-0.019605,0.0,-0.0,0.0
516.6833333331921,0.32133403,-0.69773287,-0.47333682,-1.9272573,-0.59244627,1.2874091,0.7809898,0.039998494,0.039999966,-9.447161,-2.6432688236236572,-0.019605,0.0,-0.0,0.0
516.6999999998587,0.32133403,-0.69773287,-0.47333682,-1.9272573,-0.59244627,1.2874091,0.7809898,0.039998494,0.039999966,-9.447161,-2.6432688236236572,-0.019605,0.0,-0.0,0.0
516.7166666665254,0.32133403,-0.69773287,-0.47333682,-1.9272573,-0.59244627,1.2874091,0.7809898,0.039998494,0.039999966,-9.447161,-2.6432688236236572,-0.019605,0.0,-0.0,0.0
516.733333333192,0.32133403,-0.69773287,-0.47333682,-1.9272573,-0.59244627,1.2874091,0.7809898,0.039998494,0.039999966,-9.447161,-2.6432688236236572,-0.019605,0.0,-0.0,0.0
516.7499999998587,0.32133403,-0.69773287,-0.47333682,-1.9272573,-0.59244627,1.2874091,0.7809898,0.039998494,0.039999966,-9.447161,-2.6432688236236572,-0.019605,0.0,-0.0,0.0
516.7666666665253,0.32133403,-0.69773287,-0.47333682,-1.9272573,-0.59244627,1.2874091,0.7809898,0.039998494,0.039999966,-9.447161,-2.6432688236236572,-0.019605,0.0,-0.0,0.0
516.783333333192,0.32133403,-0.69773287,-0.47333682,-1.9272573,-0.59244627,1.2874091,0.7809898,0.039998494,0.039999966,-9.447161,-2.6432688236236572,-0.019605,0.0,-0.0,0.0
516.7999999998586,0.32133403,-0.69773287,-0.47333682,-1.9272573,-0.59244627,1.2874091,0.7809898,0.039998494,0.039999966,-9.447161,-2.6432688236236572,-0.019605,0.0,-0.0,0.0
516.8166666665253,0.32133403,-0.69773287,-0.47333682,-1.9272573,-0.59244627,1.2874091,0.7809898,0.039998494,0.039999966,-9.447161,-2.6432688236236572,-0.019605,0.0,-0.0,0.0
516.833333333192,0.32133403,-0.69773287,-0.47333682,-1.9272573,-0.59244627,1.2874091,0.7809898,0.039998494,0.039999966,-9.447161,-2.6432688236236572,-0.019605,0.0,-0.0,0.0
516.8499999998586,0.32133403,-0.69773287,-0.47333682,-1.9272573,-0.59244627,1.2874091,0.7809898,0.039998494,0.039999966,-9.447161,-2.6432688236236572,-0.019605,0.0,-0.0,0.0
516.8666666665252,0.32133403,-0.69773287,-0.47333682,-1.9272573,-0.59244627,1.2874091,0.7809898,0.039998494,0.039999966,-9.447161,-2.6432688236236572,-0.019605,0.0,-0.0,0.0
516.8833333331919,0.32133403,-0.69773287,-0.47333682,-1.9272573,-0.59244627,1.2874091,0.7809898,0.039998494,0.039999966,-9.447161,-2.6432688236236572,-0.019605,0.0,-0.0,0.0
516.8999999998586,0.32133403,-0.69773287,-0.47333682,-1.9272573,-0.59244627,1.2874091,0.7809898,0.039998494,0.039999966,-9.447161,-2.6432688236236572,-0.019605,0.0,-0.0,0.0
516.9166666665252,0.32133403,-0.69773287,-0.47333682,-1.9272573,-0.59244627,1.2874091,0.7809898,0.039998494,0.039999966,-9.447161,-2.6432688236236572,-0.019605,0.0,-0.0,0.0
516.9333333331919,0.32133403,-0.69773287,-0.47333682,-1.9272573,-0.59244627,1.2874091,0.7809898,0.039998494,0.039999966,-9.447161,-2.6432688236236572,-0.019605,0.0,-0.0,0.0
516.9499999998585,0.32133403,-0.69773287,-0.47333682,-1.9272573,-0.59244627,1.2874091,0.7809898,0.039998494,0.039999966,-9.447161,-2.6432688236236572,-0.019605,0.0,-0.0,0.0
516.9666666665252,0.32133403,-0.69773287,-0.47333682,-1.9272573,-0.59244627,1.2874091,0.7809898,0.039998494,0.039999966,-9.447161,-2.6432688236236572,-0.019605,0.0,-0.0,0.0
516.9833333331918,0.32133403,-0.69773287,-0.47333682,-1.9272573,-0.59244627,1.2874091,0.7809898,0.039998494,0.039999966,-9.447161,-2.6432688236236572,-0.019605,0.0,-0.0,0.0
516.9999999998585,0.32133403,-0.69773287,-0.47333682,-1.9272573,-0.59244627,1.2874091,0.7809898,0.039998494,0.039999966,-9.447161,-2.6432688236236572,-0.019605,0.0,-0.0,0.0
517.0166666665251,0.32133403,-0.69773287,-0.47333682,-1.9272573,-0.59244627,1.2874091,0.7809898,0.039998494,0.039999966,-9.447161,-2.6432688236236572,-0.019605,0.0,-0.0,0.0
517.0333333331918,0.32133403,-0.69773287,-0.47333682,-1.9272573,-0.59244627,1.2874091,0.7809898,0.039998494,0.039999966,-9.447161,-2.6432688236236572,-0.019605,0.0,-0.0,0.0
517.0499999998584,0.32133403,-0.69773287,-0.47333682,-1.9272573,-0.59244627,1.2874091,0.7809898,0.039998494,0.039999966,-9.447161,-2.6432688236236572,-0.019605,0.0,-0.0,0.0
517.0666666665251,0.32133403,-0.69773287,-0.47333682,-1.9272573,-0.59244627,1.2874091,0.7809898,0.039998494,0.039999966,-9.447161,-2.6432688236236572,-0.019605,0.0,-0.0,0.0
517.0833333331917,0.32133403,-0.69773287,-0.47333682,-1.9272573,-0.59244627,1.2874091,0.7809898,0.039998494,0.039999966,-9.447161,-2.6432688236236572,-0.019605,0.0,-0.0,0.0
517.0999999998584,0.32133403,-0.69773287,-0.47333682,-1.9272573,-0.59244627,1.2874091,0.7809898,0.039998494,0.039999966,-9.447161,-2.6432688236236572,-0.019605,0.0,-0.0,0.0
517.116666666525,0.32133403,-0.69773287,-0.47333682,-1.9272573,-0.59244627,1.2874091,0.7809898,0.039998494,0.039999966,-9.447161,-2.6432688236236572,-0.019605,0.0,-0.0,0.0
517.1333333331917,0.32133403,-0.69773287,-0.47333682,-1.9272573,-0.59244627,1.2874091,0.7809898,0.039998494,0.039999966,-9.447161,-2.6432688236236572,-0.019605,0.0,-0.0,0.0
517.1499999998583,0.32133403,-0.69773287,-0.47333682,-1.9272573,-0.59244627,1.2874091,0.7809898,0.039998494,0.039999966,-9.447161,-2.6432688236236572,-0.019605,0.0,-0.0,0.0
517.166666666525,0.32133403,-0.69773287,-0.47333682,-1.9272573,-0.59244627,1.2874091,0.7809898,0.039998494,0.039999966,-9.447161,-2.6432688236236572,-0.019605,0.0,-0.0,0.0
517.1833333331916,0.32133403,-0.69773287,-0.47333682,-1.9272573,-0.59244627,1.2874091,0.7809898,0.039998494,0.039999966,-9.447161,-2.6432688236236572,-0.019605,0.0,-0.0,0.0
517.1999999998583,0.32133403,-0.69773287,-0.47333682,-1.9272573,-0.59244627,1.2874091,0.7809898,0.039998494,0.039999966,-9.447161,-2.6432688236236572,-0.019605,0.0,-0.0,0.0
517.2166666665249,0.32133403,-0.69773287,-0.47333682,-1.9272573,-0.59244627,1.2874091,0.7809898,0.039998494,0.039999966,-9.447161,-2.6432688236236572,-0.019605,0.0,-0.0,0.0
517.2333333331916,0.32133403,-0.69773287,-0.47333682,-1.9272573,-0.59244627,1.2874091,0.7809898,0.039998494,0.039999966,-9.447161,-2.6432688236236572,-0.019605,0.0,-0.0,0.0
517.2499999998582,0.32133403,-0.69773287,-0.47333682,-1.9272573,-0.59244627,1.2874091,0.7809898,0.039998494,0.039999966,-9.447161,-2.6432688236236572,-0.019605,0.0,-0.0,0.0
517.2666666665249,0.32133403,-0.69773287,-0.47333682,-1.9272573,-0.59244627,1.2874091,0.7809898,0.039998494,0.039999966,-9.447161,-2.6432688236236572,-0.019605,0.0,-0.0,0.0
517.2833333331915,0.32133403,-0.69773287,-0.47333682,-1.9272573,-0.59244627,1.2874091,0.7809898,0.039998494,0.039999966,-9.447161,-2.6432688236236572,-0.019605,0.0,-0.0,0.0
517.2999999998582,0.32133403,-0.69773287,-0.47333682,-1.9272573,-0.59244627,1.2874091,0.7809898,0.039998494,0.039999966,-9.447161,-2.6432688236236572,-0.019605,0.0,-0.0,0.0
517.3166666665248,0.32133403,-0.69773287,-0.47333682,-1.9272573,-0.59244627,1.2874091,0.7809898,0.039998494,0.039999966,-9.447161,-2.6432688236236572,-0.019605,0.0,-0.0,0.0
517.3333333331915,0.32133403,-0.69773287,-0.47333682,-1.9272573,-0.59244627,1.2874091,0.7809898,0.039998494,0.039999966,-9.447161,-2.6432688236236572,-0.019605,0.0,-0.0,0.0
517.3499999998581,0.32133403,-0.69773287,-0.47333682,-1.9272573,-0.59244627,1.2874091,0.7809898,0.039998494,0.039999966,-9.447161,-2.6432688236236572,-0.019605,0.0,-0.0,0.0
