rsonawane2002/My_IMU/logs_2/traj_503/imu_400hz_503.csv
time,j1,j2,j3,j4,j5,j6,j7,gripper1,gripper2,imu_ax,imu_ay,imu_az,imu_gx,imu_gy,imu_gz
0.0,0.00016700293,-0.785875,4.0107683e-05,-2.3551247,9.29385e-05,1.570997,0.786,0.04,0.04,-9.423337,0.0286861173808574,0.103649765,-5.0149882e-08,-0.0011641274904832,4.704045e-07
0.0025,0.00016700476150000002,-0.7858577739999998,4.010823860000001e-05,-2.3551391900000005,9.29452119000001e-05,1.570996565,0.786,0.04,0.04,-9.485011600000897,0.024480078709832594,0.0894650757497936,-3.7061401899809534e-08,-0.0013251986296404891,6.484763250025913e-07
0.005,0.00016700659300000005,-0.7858405479999995,4.010879420000002e-05,-2.355153680000001,9.29519238000002e-05,1.57099613,0.786,0.04,0.04,-9.546686200001794,0.02027404003880779,0.07528038649958718,-2.397292179961907e-08,-0.001486269768797778,8.265481500051826e-07
0.0075,0.00016700842450000008,-0.7858233219999993,4.0109349800000026e-05,-2.3551681700000007,9.295863570000029e-05,1.570995695,0.786,0.04,0.04,-9.608360800002693,0.016068001367782983,0.06109569724938076,-1.0884441699428607e-08,-0.0016473409079550668,1.0046199750077739e-06
0.01,0.0001670102560000001,-0.7858060959999991,4.0109905400000034e-05,-2.355182660000001,9.29653476000004e-05,1.57099526,0.786,0.04,0.04,-9.67003540000359,0.011861962696758176,0.046911007999174345,2.2040384007618566e-09,-0.0018084120471123558,1.1826918000103652e-06
0.0125,0.00016701208750000013,-0.7857888699999988,4.011046100000004e-05,-2.3551971500000013,9.297205950000048e-05,1.570994825,0.786,0.04,0.04,-9.731710000004487,0.007655924025733368,0.032726318748967934,1.5292518500952327e-08,-0.001969483186269645,1.3607636250129565e-06
0.015,0.00016701391900000016,-0.7857716439999985,4.011101660000005e-05,-2.3552116400000016,9.297877140000057e-05,1.57099439,0.786,0.04,0.04,-9.793384600005384,0.0034498853547085644,0.018541629498761522,2.8380998601142784e-08,-0.0021305543254269334,1.5388354500155475e-06
0.0175,0.00016701897500000118,-0.7857548619999984,4.011044144999971e-05,-2.3552257350000017,9.298851920000161e-05,1.57099396,0.786,0.04,0.04,-9.834380799999963,0.000648392288713539,0.009015091469978585,6.854909440960856e-08,-0.0022870776360072427,1.908270475076618e-06
0.02,0.00016703048000000134,-0.7857389679999982,4.010760479999967e-05,-2.3552390400000016,9.300433880000184e-05,1.57099354,0.786,0.04,0.04,-9.834020199999957,0.0006559904315517445,0.008804855879975525,1.6287642161098114e-07,-0.002434505289437563,2.660431900087563e-06
0.0225,0.0001670419850000015,-0.785723073999998,4.010476814999963e-05,-2.3552523450000016,9.302015840000207e-05,1.57099312,0.786,0.04,0.04,-9.833659599999953,0.0006635885743899501,0.008594620289972467,2.572037488123537e-07,-0.002581932942867883,3.412593325098508e-06
0.025,0.00016705349000000166,-0.7857071799999977,4.0101931499999586e-05,-2.355265650000002,9.303597800000229e-05,1.5709927,0.786,0.04,0.04,-9.833298999999947,0.0006711867172281557,0.008384384699969407,3.515310760137265e-07,-0.0027293605962982036,4.164754750109454e-06
0.0275,0.00016706499500000182,-0.7856912859999975,4.009909484999954e-05,-2.355278955000002,9.305179760000252e-05,1.57099228,0.786,0.04,0.04,-9.832938399999941,0.0006787848600663612,0.008174149109966347,4.4585840321509907e-07,-0.0028767882497285242,4.916916175120399e-06
0.03,0.000167076500000002,-0.7856753919999973,4.0096258199999505e-05,-2.3552922600000024,9.306761720000276e-05,1.57099186,0.786,0.04,0.04,-9.832577799999937,0.0006863830029045668,0.007963913519963289,5.401857304164716e-07,-0.0030242159031588444,5.669077600131344e-06
0.0325,0.00016708800500000217,-0.785659497999997,4.009342154999946e-05,-2.3553055650000023,9.308343680000299e-05,1.5709914399999998,0.786,0.04,0.04,-9.832217199999931,0.0006939811457427724,0.007753677929960229,6.345130576178444e-07,-0.0031716435565891645,6.42123902514229e-06
0.035,0.00016711662100000622,-0.7856444399999976,4.008471659999805e-05,-2.3553181000000016,9.311579560000679e-05,1.57099101,0.786,0.04,0.04,-9.83193609999996,0.0007069320010512352,0.007540650089964117,8.849562000549742e-07,-0.0033104957314432893,7.920204650313338e-06
0.0375,0.00016715379250000474,-0.7856297999999982,4.007307749999852e-05,-2.3553302500000015,9.315642400000516e-05,1.570990575,0.786,0.04,0.04,-9.831694749999969,0.0007225592125924898,0.007326226124972698,1.2134572500418278e-06,-0.003445060167013059,9.792572375238406e-06
0.04,0.00016719096400000325,-0.7856151599999988,4.006143839999898e-05,-2.355342400000001,9.319705240000355e-05,1.57099014,0.786,0.04,0.04,-9.83145339999998,0.0007381864241337445,0.007111802159981279,1.5419583000286822e-06,-0.003579624602582829,1.1664940100163481e-05
0.0425,0.00016722813550000174,-0.7856005199999994,4.004979929999945e-05,-2.3553545500000004,9.323768080000192e-05,1.570989705,0.786,0.04,0.04,-9.831212049999989,0.0007538136356749991,0.006897378194989859,1.8704593500155365e-06,-0.003714189038152599,1.3537307825088555e-05
0.045,0.00016726530700000026,-0.78558588,4.003816019999991e-05,-2.3553667,9.327830920000029e-05,1.57098927,0.786,0.04,0.04,-9.830970699999998,0.0007694408472162537,0.00668295422999844,2.1989604000023903e-06,-0.0038487534737223685,1.5409675550013625e-05
0.0475,0.00016730247849999877,-0.7855712400000006,4.002652110000038e-05,-2.3553788499999997,9.331893759999867e-05,1.570988835,0.786,0.04,0.04,-9.83072935000001,0.0007850680587575084,0.006468530265007021,2.527461449989245e-06,-0.003983317909292139,1.7282043274938698e-05
0.05,0.00016733964999999729,-0.7855566000000012,4.0014882000000846e-05,-2.355390999999999,9.335956599999705e-05,1.5709884,0.786,0.04,0.04,-9.830488000000019,0.000800695270298763,0.0062541063000156015,2.855962499976099e-06,-0.004117882344861909,1.915441099986377e-05
0.0525,0.00016742546649999265,-0.7855431000000012,3.998667165000241e-05,-2.355402129999999,9.345087849999219e-05,1.5709879800000002,0.786,0.04,0.0399999985,-9.830186500000027,0.0008252305764450924,0.006077910585015064,3.6040538249360435e-06,-0.004238933860313916,2.2857822349683383e-05
0.055,0.00016751128299999157,-0.7855296000000014,3.995846130000277e-05,-2.355413259999999,9.354219099999103e-05,1.57098756,0.786,0.04,0.039999997,-9.829885000000031,0.00084976588259207,0.005901714870017307,4.352145149926519e-06,-0.004359985375764939,2.6561233699636234e-05
0.0575,0.00016759709949999048,-0.7855161000000015,3.993025095000313e-05,-2.3554243899999987,9.363350349998987e-05,1.5709871400000002,0.786,0.04,0.0399999955,-9.829583500000034,0.0008743011887390477,0.00572551915501955,5.100236474916994e-06,-0.004481036891215963,3.026464504958908e-05
0.06,0.00016768291599998937,-0.7855026000000017,3.990204060000349e-05,-2.3554355199999986,9.37248159999887e-05,1.57098672,0.786,0.04,0.039999994,-9.829282000000038,0.0008988364948860251,0.005549323440021794,5.848327799907468e-06,-0.004602088406666986,3.396805639954192e-05
0.0625,0.0001677687324999883,-0.7854891000000018,3.987383025000385e-05,-2.3554466499999984,9.381612849998754e-05,1.5709863000000002,0.786,0.04,0.0399999925,-9.828980500000041,0.0009233718010330028,0.0053731277250240374,6.5964191248979426e-06,-0.004723139922118011,3.767146774949477e-05
0.065,0.0001678545489999872,-0.785475600000002,3.984561990000421e-05,-2.3554577799999983,9.390744099998639e-05,1.57098588,0.786,0.04,0.039999991,-9.828679000000045,0.0009479071071799804,0.005196932010026281,7.344510449888418e-06,-0.004844191437569034,4.1374879099447616e-05
0.0675,0.00016796636449997347,-0.7854624370000021,3.9808634550008827e-05,-2.355468569999998,9.40235019499732e-05,1.570985455,0.786000095,0.04,0.03999999025,-9.828382850000047,0.0009734099585284931,0.005026122640025908,8.263681949795806e-06,-0.0049609574256289195,4.56405294991274e-05
0.07,0.0001681301779999714,-0.7854499480000022,3.975409920000952e-05,-2.3554786799999983,9.418905979997109e-05,1.5709850200000002,0.7860003799999999,0.04,0.039999991,-9.82809740000005,0.0010008479002814488,0.004866085960027946,9.525013799779746e-06,-0.005069152358900447,5.1030657999058775e-05
0.0725,0.0001682939914999693,-0.7854374590000024,3.9699563850010214e-05,-2.355488789999998,9.435461764996898e-05,1.5709845850000002,0.786000665,0.04,0.03999999175,-9.827811950000054,0.0010282858420344043,0.004706049280029984,1.078634564976368e-05,-0.005177347292171974,5.642078649899012e-05
0.075,0.00016845780499996722,-0.7854249700000026,3.964502850001091e-05,-2.355498899999998,9.452017549996688e-05,1.5709841500000001,0.7860009499999999,0.04,0.0399999925,-9.827526500000058,0.0010557237837873598,0.004546012600032022,1.204767749974762e-05,-0.005285542225443501,6.181091499892149e-05
0.0775,0.00016862161849996515,-0.7854124810000026,3.95904931500116e-05,-2.355509009999998,9.468573334996476e-05,1.5709837150000001,0.786001235,0.04,0.039999993250000004,-9.827241050000062,0.0010831617255403156,0.00438597592003406,1.3309009349731561e-05,-0.005393737158715029,6.720104349885286e-05
0.08,0.00016878543199996306,-0.7853999920000028,3.9535957800012296e-05,-2.3555191199999976,9.485129119996265e-05,1.57098328,0.78600152,0.04,0.039999994000000004,-9.826955600000064,0.0011105996672932713,0.004225939240036097,1.4570341199715502e-05,-0.005501932091986556,7.259117199878423e-05
0.0825,0.00016894924549996096,-0.7853875030000029,3.9481422450013e-05,-2.3555292299999975,9.501684904996055e-05,1.570982845,0.7860018049999999,0.04,0.039999994750000004,-9.826670150000067,0.0011380376090462268,0.0040659025600381345,1.583167304969944e-05,-0.005610127025258083,7.79813004987156e-05
0.085,0.00016918830499993055,-0.7853756560000029,3.940152140002324e-05,-2.355539109999998,9.52558154999308e-05,1.57098241,0.78600209,0.04,0.039999995,-9.826367900000077,0.0011701163952151752,0.003922314520033979,1.6721101599823415e-05,-0.00570977334862043,8.5076409998005e-05
0.08750000000000001,0.00016946498749992702,-0.785364130000003,3.930893750002442e-05,-2.3555488749999975,9.553148624992729e-05,1.5709819750000003,0.7860023749999999,0.04,0.039999995,-9.826057250000082,0.001204515603594652,0.003786950800035702,1.7424578499814456e-05,-0.00580514536702352,9.302400999790381e-05
0.09,0.0001697416699999235,-0.7853526040000032,3.92163536000256e-05,-2.3555586399999973,9.580715699992378e-05,1.5709815400000002,0.78600266,0.04,0.039999995,-9.825746600000086,0.001238914811974129,0.0036515870800374263,1.8128055399805498e-05,-0.005900517385426611,0.00010097160999780257
0.0925,0.00017001835249991998,-0.7853410780000033,3.9123769700026776e-05,-2.3555684049999974,9.608282774992026e-05,1.5709811050000002,0.7860029449999999,0.04,0.039999995,-9.82543595000009,0.0012733140203536062,0.0035162233600391497,1.883153229979654e-05,-0.005995889403829701,0.00010891920999770139
0.095,0.00017029503499991645,-0.7853295520000035,3.903118580002796e-05,-2.355578169999997,9.635849849991676e-05,1.5709806700000002,0.7860032299999999,0.04,0.039999995,-9.825125300000094,0.001307713228733083,0.003380859640040873,1.9535009199787584e-05,-0.006091261422232792,0.00011686680999760019
0.0975,0.00017057171749991292,-0.7853180260000037,3.893860190002914e-05,-2.355587934999997,9.663416924991325e-05,1.5709802350000002,0.786003515,0.04,0.039999995,-9.824814650000096,0.0013421124371125602,0.003245495920042597,2.0238486099778626e-05,-0.006186633440635882,0.000124814409997499
0.1,0.00017084839999990942,-0.7853065000000038,3.884601800003031e-05,-2.355597699999997,9.690983999990973e-05,1.5709798000000001,0.7860037999999999,0.04,0.039999995,-9.8245040000001,0.0013765116454920372,0.0031101322000443203,2.094196299976967e-05,-0.006282005459038974,0.00013276200999739782
0.10250000000000001,0.0001712779384998539,-0.7852957825000036,3.870203360004898e-05,-2.355606459999997,9.733266449985618e-05,1.57097938,0.7860041149999999,0.04,0.03999999575,-9.824326850000059,0.001419422397142534,0.0029693868400478742,2.2591398249438948e-05,-0.006366903241694882,0.00014328574149642036
0.105,0.00017170747699984842,-0.7852850650000038,3.855804920005081e-05,-2.355615219999997,9.775548899985079e-05,1.5709789600000001,0.7860044299999999,0.04,0.0399999965,-9.824149700000062,0.0014623331487958174,0.002828641480049667,2.4240833499417938e-05,-0.00645180102434736,0.00015380947299628632
0.1075,0.00017213701549984297,-0.7852743475000039,3.841406480005265e-05,-2.3556239799999967,9.817831349984541e-05,1.57097854,0.786004745,0.04,0.03999999725,-9.823972550000065,0.001505243900449101,0.0026878961200514587,2.5890268749396938e-05,-0.00653669880699984,0.00016433320449615234
0.11,0.0001725665539998375,-0.7852636300000041,3.827008040005448e-05,-2.355632739999997,9.860113799984002e-05,1.5709781200000001,0.7860050599999999,0.04,0.039999998,-9.823795400000067,0.0015481546521023846,0.002547150760053251,2.7539703999375938e-05,-0.006621596589652319,0.00017485693599601836
0.1125,0.000172996092499832,-0.7852529125000043,3.8126096000056314e-05,-2.355641499999997,9.902396249983464e-05,1.5709777000000003,0.7860053749999999,0.04,0.03999999875,-9.82361825000007,0.0015910654037556682,0.002406405400055043,2.9189139249354934e-05,-0.006706494372304798,0.00018538066749588438
0.115,0.00017342563099982655,-0.7852421950000044,3.7982111600058144e-05,-2.3556502599999964,9.944678699982926e-05,1.5709772800000001,0.7860056899999999,0.04,0.0399999995,-9.823441100000071,0.0016339761554089519,0.0022656600400568347,3.0838574499333934e-05,-0.0067913921549572764,0.0001959043989957504
0.11750000000000001,0.0001739209374997389,-0.7852317090000043,3.7816021250087605e-05,-2.3556589149999967,9.993447799974281e-05,1.5709768500000003,0.7860060899999998,0.04,0.03999999975,-9.82322775000012,0.0016795493662144585,0.002129807945052512,3.2846881798864474e-05,-0.006871890742301804,0.00020760350899414758
0.12,0.00017454777999973092,-0.7852216860000043,3.7605719000090284e-05,-2.3556673599999964,0.00010055190199973495,1.5709764000000002,0.7860066599999997,0.04,0.039999999,-9.822942000000122,0.0017304474953342903,0.0020037423800541177,3.557293319882975e-05,-0.0069435909390141,0.00022165337599396864
0.1225,0.00017517462249972294,-0.7852116630000044,3.7395416750092955e-05,-2.355675804999996,0.00010116932599972708,1.5709759500000002,0.7860072299999998,0.04,0.03999999825,-9.822656250000126,0.0017813456244541222,0.001877676815055723,3.8298984598795044e-05,-0.007015291135726397,0.00023570324299378975
0.125,0.00017580146499971495,-0.7852016400000046,3.7185114500095634e-05,-2.355684249999996,0.00010178674999971922,1.5709755000000003,0.7860077999999998,0.04,0.0399999975,-9.82237050000013,0.0018322437535739542,0.001751611250057328,4.1025035998760336e-05,-0.007086991332438695,0.00024975310999361086
0.1275,0.00017642830749970697,-0.7851916170000047,3.697481225009831e-05,-2.355692694999996,0.00010240417399971136,1.5709750500000004,0.7860083699999998,0.04,0.03999999675,-9.822084750000133,0.0018831418826937862,0.0016255456850589331,4.375108739872563e-05,-0.007158691529150992,0.00026380297699343195
0.13,0.000177055149999699,-0.7851815940000049,3.676451000010099e-05,-2.355701139999996,0.0001030215979997035,1.5709746000000002,0.7860089399999998,0.04,0.039999996,-9.821799000000137,0.0019340400118136182,0.0014994801200605382,4.647713879869092e-05,-0.007230391725863289,0.0002778528439932531
0.1325,0.000177681992499691,-0.785171571000005,3.655420775010366e-05,-2.3557095849999956,0.00010363902199969565,1.5709741500000003,0.7860095099999997,0.04,0.03999999525,-9.821513250000141,0.00198493814093345,0.0013734145550621433,4.920319019865621e-05,-0.007302091922575586,0.00029190271099307423
0.135,0.0001784727289995587,-0.7851619670000047,3.628890650014806e-05,-2.355717479999996,0.0001044154149995672,1.5709736900000004,0.7860102749999995,0.04,0.0399999955,-9.821279900000103,0.0020364685682317625,0.0012546753500581912,5.2062724598520255e-05,-0.007366877235441128,0.00030798297199135523
0.1375,0.0001793454124995476,-0.7851525725000049,3.599610575015179e-05,-2.355725099999996,0.0001052712924995563,1.5709732250000004,0.7860111374999995,0.04,0.03999999625,-9.821072750000107,0.0020883151446200224,0.0011395993250596563,5.4989000498482994e-05,-0.007428205106375557,0.0003250784299911376
0.14,0.00018021809599953647,-0.785143178000005,3.5703305000155516e-05,-2.355732719999996,0.0001061271699995454,1.5709727600000003,0.7860119999999995,0.04,0.039999997,-9.82086560000011,0.0021401617210082824,0.0010245233000611214,5.791527639844574e-05,-0.0074895329773099865,0.0003421738879909199
0.14250000000000002,0.00018109077949952538,-0.7851337835000051,3.541050425015925e-05,-2.3557403399999957,0.00010698304749953451,1.5709722950000002,0.7860128624999995,0.04,0.03999999775,-9.820658450000112,0.002192008297396542,0.0009094472750625866,6.084155229840848e-05,-0.007550860848244415,0.0003592693459907023
0.145,0.00018196346299951426,-0.7851243890000053,3.511770350016297e-05,-2.355747959999996,0.0001078389249995236,1.5709718300000004,0.7860137249999994,0.04,0.0399999985,-9.820451300000114,0.0022438548737848014,0.000794371250064053,6.376782819837119e-05,-0.007612188719178844,0.00037636480399048445
0.1475,0.00018283614649950314,-0.7851149945000053,3.4824902750166705e-05,-2.355755579999996,0.00010869480249951271,1.5709713650000003,0.7860145874999994,0.04,0.03999999925,-9.820244150000118,0.0022957014501730614,0.0006792952250655182,6.669410409833394e-05,-0.007673516590113273,0.00039346026199026677
0.15,0.00018370882999949202,-0.7851056000000054,3.4532102000170436e-05,-2.3557631999999957,0.00010955067999950181,1.5709709000000003,0.7860154499999994,0.04,0.04,-9.82003700000012,0.0023475480265613214,0.0005642192000669833,6.962037999829668e-05,-0.007734844461047702,0.0004105557199900491
0.1525,0.00018487936099930376,-0.7850967500000052,3.4139398400233586e-05,-2.355770639999996,0.00011069714499931807,1.5709703750000004,0.7860165974999993,0.04,0.04,-9.81975035000017,0.002404781128245782,0.00046346585965992916,7.295995374801358e-05,-0.007783449022070454,0.0004313973469876032
0.155,0.00018604989199928887,-0.7850879000000054,3.374669480023858e-05,-2.3557780799999954,0.00011184360999930348,1.5709698500000004,0.7860177449999992,0.04,0.04,-9.819463700000174,0.0024620142299333785,0.000362712519261212,7.629952749797107e-05,-0.0078320535830858,0.0004522389739873378
0.1575,0.00018722042299927394,-0.7850790500000054,3.3353991200243584e-05,-2.3557855199999955,0.00011299007499928887,1.5709693250000003,0.7860188924999992,0.04,0.04,-9.819177050000176,0.0025192473316209747,0.0002619591788624947,7.963910124792854e-05,-0.007880658144101146,0.00047308060098707246
0.16,0.00018839095399925904,-0.7850702000000056,3.296128760024859e-05,-2.355792959999995,0.00011413653999927428,1.5709688000000004,0.7860200399999993,0.04,0.04,-9.81889040000018,0.0025764804333085712,0.00016120583846377756,8.297867499788603e-05,-0.007929262705116494,0.0004939222279868071
0.1625,0.00018956148499924415,-0.7850613500000058,3.256858400025358e-05,-2.3558003999999952,0.00011528300499925969,1.5709682750000005,0.7860211874999993,0.04,0.04,-9.818603750000184,0.0026337135349961674,6.045249806506034e-05,8.63182487478435e-05,-0.00797786726613184,0.0005147638549865417
0.165,0.00019073201599922925,-0.7850525000000058,3.2175880400258585e-05,-2.355807839999995,0.00011642946999924508,1.5709677500000003,0.7860223349999992,0.04,0.04,-9.818317100000188,0.0026909466366837635,-4.0300842333656876e-05,8.965782249780099e-05,-0.008026471827147186,0.0005356054819862764
0.1675,0.00019202021149896355,-0.7850438000000057,3.174372090034768e-05,-2.3558150899999952,0.00011769124199898473,1.5709670700000007,0.786023574999999,0.04,0.03999999975,-9.81806715000012,0.002753177797372634,-0.0001426218311282583,9.319848704731769e-05,-0.00807173470963893,0.0005577657679831303
0.17,0.0001935437359989026,-0.785035400000006,3.1232649600368134e-05,-2.3558219599999948,0.00011918362799892501,1.5709660800000007,0.786024999999999,0.04,0.039999999,-9.817890600000126,0.002825405076094054,-0.0002480781167240383,9.714133319715991e-05,-0.008110314235063412,0.0005825633719821379
0.17250000000000001,0.00019506726049884162,-0.7850270000000064,3.072157830038859e-05,-2.3558288299999948,0.0001206760139988653,1.5709650900000007,0.7860264249999989,0.04,0.03999999825,-9.817714050000134,0.0028976323548154733,-0.0003535344023198182,0.00010108417934700213,-0.008148893760487892,0.0006073609759811457
0.17500000000000002,0.00019659078499878065,-0.7850186000000068,3.0210507000409036e-05,-2.3558356999999943,0.00012216839999880556,1.5709641000000008,0.7860278499999989,0.04,0.0399999975,-9.81753750000014,0.002969859633536893,-0.00045899068791559823,0.00010502702549684435,-0.008187473285912374,0.0006321585799801533
0.1775,0.00019811430949871967,-0.7850102000000071,2.9699435700429492e-05,-2.3558425699999943,0.00012366078599874584,1.5709631100000008,0.7860292749999988,0.04,0.03999999675,-9.817360950000147,0.0030420869122583117,-0.000564446973511377,0.00010896987164668652,-0.008226052811336855,0.0006569561839791607
0.18,0.00019963783399865872,-0.7850018000000074,2.9188364400449945e-05,-2.355849439999994,0.00012515317199868613,1.5709621200000008,0.7860306999999987,0.04,0.039999996,-9.817184400000155,0.0031143141909797316,-0.000669903259107157,0.00011291271779652874,-0.008264632336761335,0.0006817537879781684
0.1825,0.00020116135849859775,-0.7849934000000077,2.8677293100470398e-05,-2.3558563099999934,0.00012664555799862638,1.5709611300000008,0.7860321249999986,0.04,0.03999999525,-9.817007850000161,0.003186541469701151,-0.0007753595447029369,0.00011685556394637096,-0.008303211862185817,0.000706551391977176
0.185,0.00020295884499821248,-0.7849852400000075,2.807443310059948e-05,-2.355862909999994,0.0001284042799982518,1.570960120000001,0.7860338649999983,0.0399999995,0.039999995,-9.816792900000216,0.0032593948300251208,-0.0008691963859186588,0.00012139362139553161,-0.008335119951489948,0.0007338806999735767
0.1875,0.00020489331249824063,-0.7849772000000073,2.742567875059004e-05,-2.355869374999994,0.00013029616999827933,1.570959100000001,0.7860357624999983,0.03999999875,0.039999995,-9.816558750000212,0.0033325612311516806,-0.0009572235049199398,0.000126229284495602,-0.00836369232271989,0.0007624758599739928
0.19,0.00020682777999826878,-0.7849691600000072,2.6776924400580597e-05,-2.355875839999994,0.00013218805999830688,1.570958080000001,0.7860376599999983,0.039999998,0.039999995,-9.81632460000021,0.00340572763227824,-0.0010452506239212208,0.00013106494759567236,-0.00839226469394983,0.000791071019974409
0.1925,0.00020876224749829693,-0.7849611200000071,2.6128170050571156e-05,-2.3558823049999944,0.0001340799499983344,1.570957060000001,0.7860395574999983,0.03999999725,0.039999995,-9.816090450000207,0.0034788940334048,-0.001133277742922502,0.00013590061069574275,-0.00842083706517977,0.0008196661799748251
0.195,0.00021069671499832508,-0.784953080000007,2.5479415700561716e-05,-2.355888769999994,0.00013597183999836194,1.5709560400000009,0.7860414549999983,0.0399999965,0.039999995,-9.815856300000203,0.00355206043453136,-0.0012213048619237829,0.00014073627379581312,-0.008449409436409712,0.0008482613399752412
0.1975,0.00021263118249835323,-0.7849450400000069,2.4830661350552272e-05,-2.3558952349999944,0.00013786372999838946,1.5709550200000009,0.7860433524999985,0.03999999575,0.039999995,-9.8156221500002,0.0036252268356579197,-0.0013093319809250638,0.00014557193689588349,-0.008477981807639652,0.0008768564999756574
0.2,0.00021456564999838138,-0.7849370000000068,2.4181907000542832e-05,-2.3559016999999947,0.000139755619998417,1.5709540000000008,0.7860452499999985,0.039999995,0.039999995,-9.815388000000196,0.0036983932367844795,-0.001397359099926345,0.00015040759999595388,-0.008506554178869592,0.0009054516599760735
0.2025,0.00021697132299795647,-0.7849292450000066,2.3375307350685175e-05,-2.3559081349999946,0.0001421055559980038,1.5709529350000009,0.7860475374999981,0.03999999395000001,0.039999995,-9.815154150000199,0.0037796939256841433,-0.0014947809349172437,0.00015566054449553783,-0.008523460477576138,0.0009381220859722477
0.20500000000000002,0.00021937699599792584,-0.7849214900000067,2.2568707700695445e-05,-2.3559145699999946,0.0001444554919979739,1.570951870000001,0.7860498249999981,0.0399999929,0.039999995,-9.814920300000201,0.0038609946145906127,-0.0015922027699160034,0.00016091348899547096,-0.008540366776272923,0.0009707925119718317
0.20750000000000002,0.00022178266899789523,-0.7849137350000068,2.1762108050705715e-05,-2.355921004999994,0.00014680542799794399,1.570950805000001,0.7860521124999981,0.03999999185,0.039999995,-9.814686450000204,0.003942295303497083,-0.001689624604914763,0.00016616643349540408,-0.008557273074969708,0.0010034629379714157
0.21,0.00022418834199786457,-0.7849059800000069,2.0955508400715995e-05,-2.355927439999994,0.00014915536399791402,1.570949740000001,0.786054399999998,0.0399999908,0.039999995,-9.814452600000207,0.004023595992403551,-0.0017870464399135214,0.00017141937799533712,-0.008574179373666493,0.0010361333639709995
0.2125,0.00022659401499783394,-0.7848982250000069,2.0148908750726265e-05,-2.355933874999994,0.0001515052999978841,1.570948675000001,0.786056687499998,0.03999998975,0.039999995,-9.814218750000212,0.004104896681310022,-0.0018844682749122811,0.00017667232249527024,-0.008591085672363278,0.0010688037899705834
0.215,0.0002289996879978033,-0.7848904700000071,1.9342309100736535e-05,-2.355940309999994,0.00015385523599785418,1.570947610000001,0.786058974999998,0.0399999887,0.039999995,-9.813984900000214,0.004186197370216491,-0.001981890109911041,0.00018192526699520336,-0.008607991971060063,0.0011014742159701674
0.2175,0.00023158321849727867,-0.784882760000007,1.8476138350912267e-05,-2.355946719999994,0.00015637865149734242,1.5709463750000014,0.7860614549999974,0.0399999876,0.03999999465,-9.81376730000017,0.004268076713120024,-0.0020774170899150635,0.00018749233649426397,-0.008621635287993486,0.0011356762549654972
0.22,0.00023452246399724124,-0.7848751400000071,1.7490825400924814e-05,-2.355953079999994,0.00015924902599730588,1.5709448000000015,0.7860643199999974,0.0399999864,0.039999993600000006,-9.813582200000173,0.004351113364022482,-0.0021691543599138955,0.00019368765599418508,-0.00862875264137312,0.001172941519965023
0.2225,0.0002374617094972038,-0.7848675200000073,1.650551245093736e-05,-2.3559594399999937,0.0001621194004972693,1.5709432250000015,0.7860671849999973,0.0399999852,0.03999999255,-9.813397100000175,0.004434150014924939,-0.0022608916299127276,0.0001998829754941062,-0.008635869994752755,0.0012102067849645484
0.225,0.0002404009549971664,-0.7848599000000074,1.5520199500949903e-05,-2.3559657999999937,0.00016498977499723277,1.5709416500000015,0.7860700499999973,0.039999984,0.039999991500000005,-9.813212000000178,0.004517186665827397,-0.0023526288999115596,0.00020607829499402734,-0.008642987348132389,0.001247472049964074
0.2275,0.00024334020049712897,-0.7848522800000074,1.4534886550962447e-05,-2.3559721599999937,0.00016786014949719623,1.5709400750000015,0.7860729149999972,0.0399999828,0.03999999045,-9.81302690000018,0.004600223316729855,-0.0024443661699103916,0.00021227361449394845,-0.008650104701512023,0.0012847373149635995
0.23,0.00024627944599709154,-0.7848446600000075,1.3549573600974993e-05,-2.3559785199999936,0.0001707305239971597,1.5709385000000016,0.7860757799999971,0.0399999816,0.039999989400000005,-9.812841800000184,0.004683259967632313,-0.0025361034399092233,0.0002184689339938696,-0.008657222054891658,0.001322002579963125
0.2325,0.0002492186914970541,-0.7848370400000076,1.2564260650987539e-05,-2.3559848799999936,0.00017360089849712313,1.5709369250000016,0.7860786449999971,0.039999980399999996,0.03999998835,-9.812656700000186,0.004766296618534771,-0.0026278407099080553,0.0002246642534937907,-0.008664339408271292,0.0013592678449626506
0.23500000000000001,0.00025255640899641,-0.7848295300000075,1.1445528841203212e-05,-2.3559911999999934,0.00017685980899649506,1.5709353400000015,0.7860818899999965,0.0399999797,0.0399999876,-9.812482000000172,0.00486378897902164,-0.0027222260199028557,0.0002311882459932114,-0.0086661482229837,0.0013995103699576432
0.23750000000000002,0.000256093362496365,-0.7848220750000077,1.0260087601218305e-05,-2.3559974999999933,0.00018031298749645108,1.5709337500000016,0.7860853249999965,0.03999997925,0.039999987,-9.812312500000175,0.0049685091943334515,-0.0028179353499016373,0.00023787657499312626,-0.00866530276835047,0.0014412415249571119
0.24,0.00025963031599631994,-0.7848146200000077,9.074646361233411e-06,-2.356003799999993,0.00018376616599640708,1.5709321600000015,0.7860887599999964,0.039999978799999995,0.0399999864,-9.812143000000177,0.0050732294096452624,-0.0029136446799004176,0.000244564903993041,-0.00866445731371724,0.0014829726799565801
0.2425,0.0002631672694962749,-0.7848071650000078,7.889205121248503e-06,-2.356010099999993,0.0001872193444963631,1.5709305700000016,0.7860921949999964,0.03999997835,0.0399999858,-9.811973500000178,0.005177949624957074,-0.003009354009899199,0.0002512532329929559,-0.00866361185908401,0.0015247038349560488
0.245,0.00026670422299622987,-0.7847997100000079,6.703763881263597e-06,-2.356016399999993,0.00019067252299631915,1.5709289800000017,0.7860956299999964,0.0399999779,0.039999985200000004,-9.811804000000182,0.005282669840268886,-0.0031050633398979803,0.00025794156199287067,-0.008662766404450782,0.0015664349899555175
0.2475,0.0002702411764961848,-0.784792255000008,5.51832264127869e-06,-2.356022699999993,0.00019412570149627517,1.5709273900000016,0.7860990649999964,0.03999997745,0.0399999846,-9.811634500000183,0.005387390055580698,-0.003200772669896762,0.0002646298909927855,-0.008661920949817553,0.0016081661449549862
0.25,0.0002737781299961398,-0.784784800000008,4.3328814012937835e-06,-2.3560289999999933,0.00019757887999623122,1.5709258000000017,0.7861024999999963,0.039999977,0.039999984,-9.811465000000185,0.0054921102708925095,-0.0032964819998955435,0.0002713182199927004,-0.008661075495184323,0.001649897299954455
0.2525,0.00027797841949536234,-0.7847773600000082,2.9253621915540783e-06,-2.356035299999993,0.00020167880449547317,1.570924015000002,0.7861065724999955,0.0399999764,0.0399999834,-9.811260475000227,0.005597146414104332,-0.003395888844890242,0.0002787220639918252,-0.008649239828823103,0.001696194604948882
0.255,0.00028217870899530887,-0.7847699200000082,1.5178429815719993e-06,-2.356041599999993,0.00020577872899542096,1.5709222300000019,0.7861106449999955,0.0399999758,0.0399999828,-9.81105595000023,0.0057021825573164995,-0.0034952956898889765,0.00028612590799173093,-0.008637404162449888,0.0017424919099482926
0.2575,0.0002863789984952554,-0.7847624800000084,1.1032377158991987e-07,-2.356047899999993,0.00020987865349536878,1.570920445000002,0.7861147174999954,0.0399999752,0.0399999822,-9.810851425000232,0.0058072187005286675,-0.003594702534887711,0.00029352975199163666,-0.008625568496076675,0.001788789214947703
0.26,0.0002905792879952019,-0.7847550400000085,-1.2971954383921591e-06,-2.356054199999993,0.00021397857799531657,1.570918660000002,0.7861187899999954,0.0399999746,0.0399999816,-9.810646900000235,0.0059122548437408355,-0.0036941093798864453,0.00030093359599154244,-0.00861373282970346,0.0018350865199471135
0.2625,0.00029477957749514844,-0.7847476000000085,-2.704714648374238e-06,-2.356060499999993,0.0002180785024952644,1.5709168750000022,0.7861228624999953,0.039999974,0.039999981,-9.810442375000235,0.006017290986953003,-0.0037935162248851793,0.00030833743999144817,-0.008601897163330246,0.001881383824946524
0.265,0.00029897986699509496,-0.7847401600000087,-4.112233858356317e-06,-2.3560667999999927,0.00022217842699521218,1.5709150900000022,0.7861269349999953,0.0399999734,0.039999980399999996,-9.810237850000238,0.006122327130165171,-0.0038929230698839137,0.0003157412839913539,-0.00859006149695703,0.0019276811299459345
0.2675,0.0003034235489941795,-0.7847327115000088,-5.601218948049882e-06,-2.3560730999999926,0.00022651565049431956,1.5709131800000027,0.7861312354999944,0.03999997285,0.03999997985,-9.810041225000214,0.006227026670117,-0.003994105984876358,0.0003234060989903354,-0.008575006155322515,0.001975528619939855
0.27,0.0003083540159941167,-0.7847252460000089,-7.25313579802885e-06,-2.3560793999999925,0.0002313274719942583,1.5709110200000027,0.7861359919999943,0.0399999724,0.039999979399999996,-9.809860400000217,0.0063310530035445905,-0.004098841039875025,0.00033159285599023114,-0.008553511463131309,0.002026476479939206
0.2725,0.000313284482994054,-0.784717780500009,-8.905052648007817e-06,-2.3560856999999924,0.00023613929349419703,1.5709088600000025,0.7861407484999943,0.039999971950000004,0.03999997895,-9.809679575000219,0.006435079336972181,-0.004203576094873691,0.00033977961299012693,-0.008532016770940102,0.002077424339938558
0.275,0.0003182149499939912,-0.7847103150000091,-1.0556969497986786e-05,-2.3560919999999923,0.00024095111499413579,1.5709067000000025,0.7861455049999942,0.0399999715,0.0399999785,-9.809498750000222,0.006539105670399772,-0.004308311149872358,0.0003479663699900227,-0.008510522078748896,0.002128372199937909
0.2775,0.0003231454169939284,-0.7847028495000092,-1.2208886347965752e-05,-2.356098299999992,0.0002457629364940745,1.5709045400000026,0.7861502614999941,0.03999997105,0.039999978049999996,-9.809317925000224,0.006643132003827362,-0.004413046204871024,0.0003561531269899184,-0.00848902738655769,0.0021793200599372607
0.28,0.0003280758839938656,-0.7846953840000093,-1.3860803197944721e-05,-2.356104599999992,0.00025057475799401325,1.5709023800000026,0.7861550179999941,0.039999970600000004,0.0399999776,-9.809137100000225,0.006747158337254953,-0.004517781259869691,0.0003643398839898142,-0.008467532694366483,0.002230267919936612
0.28250000000000003,0.0003330063509938029,-0.7846879185000094,-1.5512720047923687e-05,-2.356110899999992,0.000255386579493952,1.5709002200000026,0.7861597744999941,0.03999997015,0.03999997715,-9.808956275000227,0.006851184670682543,-0.004622516314868357,0.00037252664098970996,-0.008446038002175277,0.002281215779935963
0.28500000000000003,0.00033846885099272683,-0.7846803470000097,-1.7342699497563545e-05,-2.356117199999992,0.000260717034992903,1.5708977500000032,0.786165063999993,0.039999969,0.0399999766,-9.808771550000237,0.006975428107955261,-0.004727824699865932,0.00038128714398851307,-0.008418515976557149,0.002335224059929486
0.28750000000000003,0.0003441973674926539,-0.7846727225000097,-1.926171024753911e-05,-2.3561234999999923,0.00026630680749283183,1.5708951250000032,0.7861706199999929,0.039999967500000004,0.039999976,-9.808584875000241,0.0071097800972079106,-0.004833419749864587,0.0003903345199883979,-0.008387980284208459,0.002390762549928779
0.29,0.00034992588399258086,-0.7846650980000098,-2.1180720997514635e-05,-2.356129799999992,0.0002718965799927605,1.5708925000000034,0.7861761759999928,0.039999966000000005,0.0399999754,-9.808398200000243,0.007244132086460557,-0.004939014799863241,0.0003993818959882825,-0.008357444591859768,0.0024463010399280705
0.2925,0.0003556544004925079,-0.7846574735000099,-2.30997317474902e-05,-2.356136099999992,0.00027748635249268935,1.5708898750000033,0.7861817319999928,0.039999964500000006,0.039999974800000004,-9.808211525000244,0.007378484075713206,-0.005044609849861896,0.0004084292719881673,-0.008326908899511076,0.0025018395299273638
0.295,0.000361382916992435,-0.78464984900001,-2.501874249746577e-05,-2.356142399999992,0.0002830761249926182,1.5708872500000033,0.7861872879999926,0.039999963000000006,0.0399999742,-9.808024850000248,0.007512836064965856,-0.005150204899860552,0.0004174766479880521,-0.008296373207162385,0.0025573780199266566
0.2975,0.00036711143349236206,-0.7846422245000101,-2.6937753247441336e-05,-2.356148699999992,0.000288665897492547,1.5708846250000035,0.7861928439999926,0.0399999615,0.0399999736,-9.80783817500025,0.007647188054218506,-0.005255799949859207,0.0004265240239879369,-0.008265837514813695,0.0026129165099259494
0.3,0.0003728399499922891,-0.7846346000000102,-2.88567639974169e-05,-2.356154999999992,0.0002942556699924758,1.5708820000000034,0.7861983999999925,0.03999996,0.039999973,-9.80765150000025,0.0077815400434711555,-0.0053613949998578625,0.0004355713999878217,-0.008235301822465003,0.0026684549999252422
0.3025,0.0003794351874910385,-0.7846268300000105,-3.106583649699834e-05,-2.3561613599999918,0.0003006904344912565,1.5708792100000037,0.7862047809999912,0.0399999585,0.039999971050000006,-9.807466625000252,0.007916930410826958,-0.005477067559842825,0.0004452796249868086,-0.008196051325702324,0.0027288950549178748
0.305,0.0003860304249909545,-0.7846190600000106,-3.327490899697021e-05,-2.3561677199999913,0.00030712519899117456,1.5708764200000038,0.7862111619999912,0.039999957,0.039999969100000005,-9.807281750000254,0.00805232077818416,-0.005592740119841353,0.000454987849986685,-0.008156800828927913,0.0027893351099171054
0.3075,0.00039262566249087055,-0.7846112900000107,-3.548398149694208e-05,-2.3561740799999913,0.00031355996349109267,1.5708736300000037,0.7862175429999911,0.0399999555,0.03999996715,-9.807096875000257,0.00818771114554136,-0.00570841267983988,0.0004646960749865614,-0.008117550332153502,0.0028497751649163355
0.31,0.0003992208999907866,-0.7846035200000109,-3.769305399691396e-05,-2.3561804399999913,0.0003199947279910107,1.5708708400000038,0.7862239239999911,0.039999954000000004,0.0399999652,-9.806912000000258,0.008323101512898562,-0.005824085239838407,0.0004744042999864378,-0.008078299835379093,0.002910215219915566
0.3125,0.0004058161374907026,-0.7845957500000109,-3.9902126496885834e-05,-2.3561867999999913,0.00032642949249092883,1.5708680500000038,0.786230304999991,0.039999952500000005,0.039999963250000006,-9.806727125000261,0.008458491880255763,-0.005939757799836934,0.00048411252498631416,-0.008039049338604682,0.0029706552749147967
0.315,0.00041241137499061864,-0.7845879800000111,-4.2111198996857706e-05,-2.3561931599999912,0.0003328642569908469,1.570865260000004,0.786236685999991,0.039999951,0.039999961300000005,-9.806542250000263,0.008593882247612965,-0.0060554303598354614,0.0004938207499861906,-0.007999798841830271,0.003031095329914027
0.3175,0.0004193186139891913,-0.7845801250000115,-4.4424677096380056e-05,-2.356199544999991,0.00033960316748945547,1.5708622950000046,0.7862433629999895,0.03999994985,0.0399999599,-9.806355750000272,0.008732486655727453,-0.006173969604821646,0.00050379537248492,-0.007957094581868896,0.0030931386649063544
0.32,0.00042684985598909545,-0.7845721000000117,-4.694696639634794e-05,-2.3562059799999906,0.0003469503699893619,1.5708589800000048,0.7862506319999895,0.0399999494,0.0399999596,-9.806166000000275,0.008877519145397906,-0.006298242219820064,0.0005143027899847861,-0.007907482795489114,0.0031583885599055237
0.3225,0.0004343810979889995,-0.7845640750000117,-4.946925569631583e-05,-2.3562124149999906,0.0003542975724892684,1.5708556650000047,0.7862579009999894,0.03999994895,0.0399999593,-9.805976250000278,0.00902255163506836,-0.0064225148348184815,0.0005248102074846524,-0.00785787100910933,0.003223638454904693
0.325,0.00044191233998890366,-0.7845560500000118,-5.1991544996283716e-05,-2.3562188499999905,0.0003616447749891748,1.570852350000005,0.7862651699999893,0.0399999485,0.039999959,-9.805786500000279,0.009167584124738812,-0.0065467874498169,0.0005353176249845186,-0.007808259222729546,0.003288888349903862
0.3275,0.00044944358198880773,-0.784548025000012,-5.45138342962516e-05,-2.3562252849999905,0.00036899197748908126,1.570849035000005,0.7862724389999892,0.03999994805,0.039999958700000005,-9.805596750000282,0.009312616614409266,-0.0066710600648153175,0.0005458250424843848,-0.007758647436349763,0.0033541382449030314
0.33,0.00045697482398871186,-0.784540000000012,-5.703612359621949e-05,-2.3562317199999905,0.00037633917998898775,1.570845720000005,0.7862797079999891,0.0399999476,0.0399999584,-9.805407000000285,0.009457649104079719,-0.006795332679813735,0.000556332459984251,-0.00770903564996998,0.0034193881399022007
0.3325,0.00046450606598861594,-0.7845319750000121,-5.9558412896187375e-05,-2.3562381549999905,0.0003836863824888942,1.5708424050000052,0.7862869769999891,0.03999994715,0.0399999581,-9.805217250000286,0.009602681593750172,-0.006919605294812153,0.0005668398774841172,-0.007659423863590196,0.00348463803490137
0.335,0.00047270778198698704,-0.7845237400000127,-6.230505139564229e-05,-2.35624466999999,0.0003916871219873063,1.5708388000000058,0.7862948999999875,0.0399999466,0.039999957600000004,-9.805039500000262,0.00974672790594862,-0.007047083749803241,0.0005779214009826708,-0.0076039888896936875,0.003553112129893167
0.3375,0.00048124473498687835,-0.7845154000000129,-6.516386449560589e-05,-2.35625122499999,0.0004000146299872003,1.570835050000006,0.7863031499999874,0.039999946,0.039999957,-9.804867750000264,0.009890281129407702,-0.007176165124801598,0.000589289977482526,-0.007545642322018956,0.0036231983248922748
0.34,0.0004897816879867697,-0.7845070600000129,-6.80226775955695e-05,-2.3562577799999898,0.00040834213798709426,1.5708313000000058,0.7863113999999872,0.0399999454,0.0399999564,-9.804696000000266,0.010033834352866785,-0.0073052464997999545,0.0006006585539823814,-0.007487295754344224,0.0036932845198913824
0.3425,0.000498318640986661,-0.7844987200000131,-7.08814906955331e-05,-2.35626433499999,0.00041666964598698823,1.570827550000006,0.7863196499999872,0.039999944800000006,0.0399999558,-9.804524250000268,0.010177387576325869,-0.00743432787479831,0.0006120271304822366,-0.007428949186669491,0.0037633707148904904
0.34500000000000003,0.0005068555939865523,-0.7844903800000131,-7.37403037954967e-05,-2.3562708899999896,0.0004249971539868822,1.5708238000000059,0.7863278999999871,0.039999944200000005,0.0399999552,-9.80435250000027,0.01032094079978495,-0.007563409249796667,0.0006233957069820919,-0.0073706026189947595,0.003833456909889598
0.34750000000000003,0.0005153925469864436,-0.7844820400000133,-7.659911689546031e-05,-2.3562774449999897,0.0004333246619867762,1.570820050000006,0.7863361499999869,0.039999943600000004,0.0399999546,-9.804180750000274,0.010464494023244033,-0.007692490624795024,0.0006347642834819471,-0.007312256051320028,0.0039035431048887056
0.35000000000000003,0.0005239294999863349,-0.7844737000000134,-7.945792999542391e-05,-2.3562839999999894,0.00044165216998667015,1.570816300000006,0.7863443999999868,0.039999943,0.039999954,-9.804009000000276,0.010608047246703115,-0.007821571999793381,0.0006461328599818023,-0.007253909483645295,0.003973629299887813
0.3525,0.0005335420909844906,-0.7844649550000141,-8.267664949480675e-05,-2.3562912749999883,0.0004510281449848723,1.5708122050000066,0.786353684999985,0.039999943,0.0399999546,-9.803814900000313,0.010790478530976791,-0.007961679199773945,0.0006582288449804838,-0.007186483289223844,0.004048436399879302
0.355,0.0005431546819843682,-0.7844562100000142,-8.589536899476578e-05,-2.3562985499999884,0.00046040411998475296,1.5708081100000066,0.7863629699999849,0.039999943,0.0399999552,-9.803620800000315,0.010972909815312704,-0.008101786399772161,0.0006703248299803297,-0.007119057094787857,0.00412324349987835
0.3575,0.0005527672729842458,-0.7844474650000144,-8.911408849472479e-05,-2.356305824999988,0.0004697800949846336,1.5708040150000067,0.7863722549999849,0.039999943,0.0399999558,-9.803426700000317,0.011155341099648617,-0.008241893599770376,0.0006824208149801757,-0.007051630900351871,0.004198050599877397
0.36,0.0005623798639841234,-0.7844387200000145,-9.233280799468381e-05,-2.356313099999988,0.0004791560699845142,1.5707999200000067,0.7863815399999847,0.039999943,0.0399999564,-9.803232600000321,0.011337772383984528,-0.008382000799768592,0.0006945167999800217,-0.006984204705915884,0.004272857699876445
0.3625,0.000571992454984001,-0.7844299750000145,-9.555152749464284e-05,-2.356320374999988,0.0004885320449843949,1.5707958250000067,0.7863908249999846,0.039999943,0.039999957,-9.803038500000323,0.01152020366832044,-0.008522107999766809,0.0007066127849798677,-0.006916778511479898,0.0043476647998754924
0.365,0.0005816050459838786,-0.7844212300000146,-9.877024699460185e-05,-2.356327649999988,0.0004979080199842754,1.570791730000007,0.7864001099999844,0.039999943,0.039999957600000004,-9.802844400000325,0.011702634952656353,-0.008662215199765025,0.0007187087699797136,-0.0068493523170439115,0.00442247189987454
0.3675,0.0005915995579818201,-0.7844123435000154,-0.00010211674749391308,-2.3563350149999875,0.0005076562964822687,1.5707874650000078,0.7864097619999825,0.0399999432,0.0399999581,-9.802679450000179,0.011885180324007082,-0.008808438699732234,0.0007310723069782033,-0.0067796537653865745,0.0044989395198651696
0.37,0.0006023579119816831,-0.7844031740000156,-0.00010571880999386722,-2.3563425599999874,0.0005181491759821351,1.5707828600000078,0.7864201479999823,0.0399999438,0.0399999584,-9.802572800000181,0.012067953869389175,-0.008966894799730217,0.0007439709479780391,-0.006705410499252064,0.004578728179864154
0.3725,0.0006131162659815462,-0.7843940045000157,-0.00010932087249382135,-2.3563501049999873,0.0005286420554820015,1.570778255000008,0.7864305339999822,0.0399999444,0.039999958700000005,-9.802466150000182,0.012250727414771267,-0.009125350899728199,0.0007568695889778749,-0.006631167233117555,0.004658516839863138
0.375,0.0006238746199814092,-0.7843848350000159,-0.00011292293499377549,-2.356357649999987,0.0005391349349818679,1.570773650000008,0.786440919999982,0.039999945,0.039999959,-9.802359500000184,0.01243350096015336,-0.00928380699972618,0.0007697682299777106,-0.006556923966983045,0.004738305499862122
0.3775,0.0006346329739812721,-0.7843756655000159,-0.00011652499749372964,-2.356365194999987,0.0005496278144817344,1.570769045000008,0.7864513059999819,0.0399999456,0.0399999593,-9.802252850000185,0.012616274505535452,-0.009442263099724164,0.0007826668709775464,-0.006482680700848536,0.004818094159861106
0.38,0.0006453913279811352,-0.7843664960000161,-0.00012012705999368378,-2.356372739999987,0.0005601206939816007,1.570764440000008,0.7864616919999817,0.0399999462,0.0399999596,-9.802146200000188,0.012799048050917545,-0.009600719199722146,0.0007955655119773822,-0.006408437434714026,0.0048978828198600905
0.3825,0.0006561496819809982,-0.7843573265000162,-0.00012372912249363792,-2.356380284999987,0.0005706135734814672,1.5707598350000083,0.7864720779999816,0.0399999468,0.0399999599,-9.802039550000188,0.012981821596299637,-0.009759175299720129,0.000808464152977218,-0.006334194168579516,0.004977671479859075
0.385,0.0006677185859786983,-0.7843478030000173,-0.00012760236399286844,-2.3563879099999863,0.0005818964999792254,1.5707548800000093,0.7864832529999793,0.039999947699999996,0.039999961,-9.801891200000302,0.013173119071523135,-0.00992472229969919,0.0008218987999756234,-0.0062542308123392405,0.00506069005984944
0.3875,0.0006796927649785459,-0.7843381025000175,-0.0001316111949928174,-2.3563955749999863,0.0005935744499790766,1.5707497500000092,0.7864948224999793,0.03999994875,0.0399999625,-9.801722000000304,0.013368678511701291,-0.010093814749697037,0.000835601449975449,-0.006171407411023295,0.005145323599848362
0.39,0.0006916669439783935,-0.7843284020000175,-0.00013562002599276635,-2.356403239999986,0.0006052523999789279,1.5707446200000093,0.7865063919999791,0.0399999498,0.039999964,-9.801552800000305,0.013564237951879445,-0.010262907199694884,0.0008493040999752745,-0.00608858400970735,0.005229957139847284
0.3925,0.000703641122978241,-0.7843187015000177,-0.0001396288569927153,-2.356410904999986,0.0006169303499787793,1.5707394900000093,0.786517961499979,0.03999995085,0.0399999655,-9.801383600000309,0.0137597973920576,-0.010431999649692731,0.0008630067499751001,-0.006005760608391404,0.005314590679846207
0.395,0.0007156153019780885,-0.7843090010000178,-0.00014363768799266426,-2.356418569999986,0.0006286082999786306,1.5707343600000094,0.7865295309999788,0.0399999519,0.039999967,-9.80121440000031,0.013955356832235756,-0.010601092099690578,0.0008767093999749256,-0.005922937207075458,0.005399224219845129
0.3975,0.000727589480977936,-0.784299300500018,-0.00014764651899261324,-2.3564262349999856,0.0006402862499784818,1.5707292300000095,0.7865411004999786,0.039999952949999994,0.0399999685,-9.801045200000312,0.01415091627241391,-0.010770184549688425,0.0008904120499747512,-0.005840113805759513,0.005483857759844051
0.4,0.0007395636599777836,-0.784289600000018,-0.0001516553499925622,-2.3564338999999856,0.0006519641999783331,1.5707241000000096,0.7865526699999785,0.039999954,0.03999997,-9.800876000000315,0.014346475712592066,-0.010939276999686273,0.0009041146999745767,-0.005757290404443567,0.005568491299842974
0.4025,0.0007528235909748675,-0.7842793400000194,-0.0001560943599915864,-2.356442449999984,0.0006648953489754905,1.570718400000011,0.7865654634999757,0.039999954,0.03999997045,-9.800709350000316,0.014537111064057733,-0.011129695924639084,0.0009185476699726441,-0.005665207305166257,0.005657822344830684
0.405,0.0007660835219743368,-0.7842690800000198,-0.00016053336999140877,-2.3564509999999834,0.0006778264979749731,1.5707127000000112,0.7865782569999752,0.039999954,0.0399999709,-9.800542700000323,0.014727746415514265,-0.011320114849631465,0.0009329806399720666,-0.005573124205871767,0.005747153389827109
0.40750000000000003,0.0007793434529738062,-0.7842588200000202,-0.00016497237999123113,-2.356459549999983,0.0006907576469744556,1.5707070000000114,0.7865910504999747,0.039999954,0.03999997135,-9.80037605000033,0.014918381766970797,-0.011510533774623844,0.000947413609971489,-0.005481041106577277,0.005836484434823534
0.41000000000000003,0.0007926033839732756,-0.7842485600000206,-0.00016941138999105348,-2.3564680999999825,0.0007036887959739382,1.5707013000000116,0.7866038439999742,0.039999954,0.0399999718,-9.800209400000336,0.015109017118427328,-0.011700952699616225,0.0009618465799709114,-0.005388958007282787,0.005925815479819959
0.41250000000000003,0.0008058633149727449,-0.784238300000021,-0.00017385039999087587,-2.356476649999982,0.0007166199449734206,1.5706956000000118,0.7866166374999737,0.039999954,0.03999997225,-9.800042750000344,0.01529965246988386,-0.011891371624608604,0.0009762795499703338,-0.0052968749079882966,0.006015146524816385
0.41500000000000004,0.0008191232459722143,-0.7842280400000214,-0.00017828940999069822,-2.356485199999982,0.0007295510939729032,1.570689900000012,0.7866294309999732,0.039999954,0.0399999727,-9.79987610000035,0.015490287821340392,-0.012081790549600985,0.0009907125199697562,-0.005204791808693807,0.00610447756981281
0.4175,0.0008328349964690547,-0.784217571500023,-0.0001828795769896411,-2.356493819999981,0.0007429226439698233,1.5706840100000135,0.7866426599999701,0.039999954,0.039999973,-9.799726250000246,0.01569874528743792,-0.01227428204958366,0.0010054459199675327,-0.005110812327100189,0.006195451744800421
0.42,0.0008474503859692673,-0.7842066860000229,-0.0001877720579897123,-2.3565025799999817,0.0007571749959700307,1.5706777400000134,0.7866567599999703,0.039999954,0.039999973,-9.799610000000245,0.015942846983157854,-0.01247091869958652,0.0010207801799677558,-0.005013040080872092,0.006289712179801793
0.4225,0.00086206577546948,-0.7841958005000227,-0.0001926645389897835,-2.3565113399999817,0.0007714273479702381,1.5706714700000133,0.7866708599999706,0.039999954,0.039999973,-9.799493750000243,0.016186948678877783,-0.012667555349589382,0.001036114439967979,-0.004915267834643994,0.006383972614803165
0.425,0.0008766811649696928,-0.7841849150000225,-0.0001975570199898547,-2.356520099999982,0.0007856796999704456,1.5706652000000132,0.7866849599999708,0.039999954,0.039999973,-9.799377500000242,0.016431050374597717,-0.012864191999592245,0.001051448699968202,-0.004817495588415896,0.006478233049804536
0.4275,0.0008912965544699054,-0.7841740295000224,-0.0002024495009899259,-2.356528859999982,0.000799932051970653,1.570658930000013,0.7866990599999709,0.039999954,0.039999973,-9.799261250000239,0.01667515207031765,-0.013060828649595105,0.0010667829599684251,-0.004719723342187798,0.006572493484805908
0.43,0.0009059119439701181,-0.7841631440000223,-0.0002073419819899971,-2.3565376199999823,0.0008141844039708604,1.570652660000013,0.7867131599999712,0.039999954,0.039999973,-9.799145000000237,0.016919253766037583,-0.013257465299597967,0.0010821172199686484,-0.0046219510959597,0.00666675391980728
0.4325,0.0009205273334703308,-0.7841522585000221,-0.0002122344629900683,-2.3565463799999824,0.0008284367559710679,1.570646390000013,0.7867272599999714,0.039999954,0.039999973,-9.799028750000236,0.017163355461757512,-0.01345410194960083,0.0010974514799688714,-0.004524178849731602,0.006761014354808651
0.435,0.0009360925369676721,-0.7841409230000234,-0.00021744473098917876,-2.356555639999981,0.0008436148959684764,1.570639720000014,0.7867422739999689,0.039999954399999996,0.0399999734,-9.798867200000371,0.017404929920546607,-0.013667418549553265,0.0011132920199675642,-0.004420319898269386,0.006858452509800416
0.4375,0.0009521326474679055,-0.7841293625000232,-0.0002228138924892569,-2.356565149999981,0.000859255929968704,1.5706328500000137,0.7867577449999691,0.039999955,0.039999974,-9.798683000000368,0.017645240760858764,-0.01388907512455649,0.0011293856999677982,-0.004313417594162375,0.006957479524801858
0.44,0.0009681727579681389,-0.784117802000023,-0.00022818305398933505,-2.356574659999981,0.0008748969639689317,1.5706259800000137,0.7867732159999693,0.0399999556,0.0399999746,-9.798498800000367,0.01788555160117092,-0.014110731699559717,0.0011454793799680325,-0.004206515290055364,0.007056506539803299
0.4425,0.0009842128684683722,-0.7841062415000228,-0.0002335522154894132,-2.3565841699999814,0.0008905379979691593,1.5706191100000135,0.7867886869999695,0.0399999562,0.039999975199999996,-9.798314600000364,0.01812586244148308,-0.014332388274562942,0.0011615730599682668,-0.004099612985948353,0.00715553355480474
0.445,0.0010002529789686057,-0.7840946810000227,-0.00023892137698949134,-2.3565936799999814,0.0009061790319693869,1.5706122400000135,0.7868041579999697,0.0399999568,0.0399999758,-9.79813040000036,0.018366173281795236,-0.014554044849566168,0.001177666739968501,-0.003992710681841342,0.007254560569806182
0.4475,0.0010162930894688392,-0.7840831205000225,-0.0002442905384895695,-2.3566031899999813,0.0009218200659696146,1.5706053700000133,0.7868196289999699,0.0399999574,0.0399999764,-9.797946200000359,0.018606484122107393,-0.014775701424569394,0.0011937604199687352,-0.003885808377734332,0.0073535875848076224
0.45,0.0010323331999690726,-0.7840715600000223,-0.00024965969998964763,-2.3566126999999817,0.0009374610999698422,1.5705985000000133,0.7868350999999701,0.039999958,0.039999977,-9.797762000000356,0.01884679496241955,-0.014997357999572618,0.0012098540999689695,-0.0037789060736273207,0.007452614599809063
0.4525,0.0010498668949654912,-0.7840592660000242,-0.0002555285519884493,-2.3566225999999806,0.0009545579199663511,1.5705910000000147,0.7868520199999667,0.039999958,0.039999977449999995,-9.797645900000228,0.01910296715745566,-0.015236103549530115,0.0012267249299667958,-0.003665324859544624,0.007556236909796057
0.455,0.0010674005899647895,-0.7840469720000247,-0.00026139740398821443,-2.35663249999998,0.0009716547399656669,1.570583500000015,0.786868939999966,0.039999958,0.0399999779,-9.797529800000234,0.019359139352522356,-0.01547484909952056,0.0012435957599661207,-0.003551743645449049,0.00765985921979191
0.4575,0.001084934284964088,-0.7840346780000251,-0.00026726625598797956,-2.3566423999999797,0.0009887515599649828,1.5705760000000153,0.7868858599999654,0.039999958,0.03999997835,-9.797413700000238,0.019615311547589047,-0.01571359464951101,0.0012604665899654457,-0.003438162431353474,0.007763481529787763
0.46,0.0011024679799633862,-0.7840223840000257,-0.0002731351079877447,-2.356652299999979,0.0010058483799642987,1.5705685000000156,0.7869027799999647,0.039999958,0.039999978799999995,-9.797297600000244,0.01987148374265574,-0.015952340199501452,0.0012773374199647706,-0.0033245812172578992,0.007867103839783616
0.4625,0.0011200016749626847,-0.7840100900000261,-0.00027900395998750984,-2.356662199999979,0.0010229451999636144,1.5705610000000159,0.786919699999964,0.039999958,0.03999997925,-9.797181500000248,0.020127655937722436,-0.0161910857494919,0.0012942082499640955,-0.0032110000031623244,0.007970726149779471
0.465,0.001137535369961983,-0.7839977960000266,-0.00028487281198727503,-2.356672099999978,0.0010400420199629303,1.5705535000000161,0.7869366199999633,0.039999958,0.039999979699999993,-9.797065400000253,0.02038382813278913,-0.016429831299482344,0.0013110790799634204,-0.0030974187890667497,0.008074348459775324
0.4675,0.0011555897399580057,-0.7839852375000287,-0.00029091584698594437,-2.356682314999976,0.0010576463149590536,1.5705457850000177,0.7869540399999595,0.039999958,0.03999998,-9.796944450000288,0.020638975314239295,-0.016677646749415125,0.0013281902699613128,-0.0029811115938122267,0.008179571799761557
0.47000000000000003,0.0011746854599577626,-0.783972150000029,-0.000297307247985863,-2.356693159999976,0.0010762655599588166,1.570537640000018,0.7869724599999592,0.039999958,0.03999998,-9.79681380000029,0.02089207246843616,-0.01694360199941174,0.0013457821799610888,-0.0028593524361859566,0.008287997199760175
0.47250000000000003,0.0011937811799575195,-0.7839590625000291,-0.0003036986489857816,-2.3567040049999757,0.0010948848049585794,1.5705294950000181,0.7869908799999591,0.039999958,0.03999998,-9.796683150000291,0.021145169622633023,-0.017209557249408352,0.0013633740899608648,-0.002737593278559687,0.008396422599758795
0.47500000000000003,0.0012128768999572763,-0.7839459750000293,-0.0003100900499857002,-2.3567148499999755,0.0011135040499583423,1.5705213500000181,0.7870092999999588,0.039999958,0.03999998,-9.796552500000294,0.021398266776829884,-0.017475512499404967,0.0013809659999606408,-0.002615834120933417,0.008504847999757415
0.47750000000000004,0.0012319726199570332,-0.7839328875000294,-0.0003164814509856189,-2.3567256949999758,0.0011321232949581053,1.5705132050000183,0.7870277199999586,0.039999958,0.03999998,-9.796421850000295,0.02165136393102675,-0.01774146774940158,0.0013985579099604168,-0.0024940749633071474,0.008613273399756035
0.48,0.0012510683399567896,-0.7839198000000296,-0.00032287285198553733,-2.3567365399999756,0.0011507425399578679,1.5705050600000183,0.7870461399999583,0.039999958,0.03999998,-9.796291200000296,0.021904461085223606,-0.018007422999398188,0.0014161498199601926,-0.0023723158056808804,0.008721698799754651
0.4825,0.0012701640599565465,-0.7839067125000297,-0.00032926425298545595,-2.3567473849999754,0.0011693617849576306,1.5704969150000185,0.7870645599999581,0.039999958,0.03999998,-9.796160550000298,0.022157558239420467,-0.018273378249394803,0.0014337417299599687,-0.0022505566480546108,0.008830124199753271
0.485,0.0012903461999525744,-0.7838930690000319,-0.000336019120984127,-2.3567583899999747,0.0011890399699537588,1.5704883000000203,0.7870840299999543,0.039999958,0.039999980399999996,-9.796028300000305,0.02245021015334159,-0.018546215499367795,0.0014518868399578458,-0.0021247709638569316,0.008941542499741618
0.4875,0.0013110715499523105,-0.7838791475000321,-0.00034295572248403867,-2.3567694749999744,0.0012092476249535016,1.5704794500000203,0.787104024999954,0.039999958,0.039999981,-9.795895250000306,0.022762639447327742,-0.018822493749364278,0.0014703085499576112,-0.001996972016352894,0.00905445724974018
0.49,0.0013317968999520466,-0.7838652260000322,-0.0003498923239839504,-2.3567805599999745,0.0012294552799532444,1.5704706000000204,0.7871240199999537,0.039999958,0.0399999816,-9.795762200000308,0.023075068741313896,-0.01909877199936076,0.0014887302599573768,-0.0018691730688488559,0.009167371999738742
0.4925,0.0013525222499517827,-0.7838513045000324,-0.000356828925483862,-2.356791644999974,0.0012496629349529871,1.5704617500000204,0.7871440149999535,0.039999958,0.0399999822,-9.79562915000031,0.023387498035300047,-0.01937505024935724,0.0015071519699571421,-0.0017413741213448178,0.009280286749737304
0.495,0.0013732475999515188,-0.7838373830000326,-0.00036376552698377373,-2.356802729999974,0.0012698705899527299,1.5704529000000207,0.7871640099999533,0.039999958,0.0399999828,-9.795496100000312,0.023699927329286198,-0.019651328499353724,0.0015255736799569075,-0.0016135751738407802,0.009393201499735868
0.4975,0.0013939729499512549,-0.7838234615000328,-0.00037070212848368543,-2.356813814999974,0.0012900782449524726,1.5704440500000207,0.787184004999953,0.039999958,0.0399999834,-9.795363050000313,0.024012356623272352,-0.019927606749350207,0.001543995389956673,-0.0014857762263367422,0.00950611624973443
0.5,0.001414698299950991,-0.783809540000033,-0.0003776387299835971,-2.3568248999999737,0.0013102858999522154,1.5704352000000208,0.7872039999999527,0.039999958,0.039999984,-9.795230000000315,0.024324785917258503,-0.02020388499934669,0.0015624170999564385,-0.0013579772788327041,0.009619030999732991
0.5025000000000001,0.001437120329946694,-0.7837947350000353,-0.0003851429914821594,-2.356837019999971,0.0013321472899480268,1.570425570000023,0.7872256494999486,0.039999958,0.0399999846,-9.795045650000437,0.024635211377597898,-0.020507791299277496,0.0015815820749544372,-0.0012211795943198771,0.009736503049720723
0.505,0.0014595423599464078,-0.7837799300000354,-0.00039264725298206367,-2.356849139999971,0.0013540086799477481,1.570415940000023,0.7872472989999483,0.039999958,0.0399999852,-9.794861300000441,0.024945636837932536,-0.02081169759927362,0.001600747049954193,-0.0010843819097857768,0.009853975099719223
0.5075000000000001,0.001481964389946123,-0.7837651250000356,-0.00040015151448196827,-2.3568612599999708,0.00137587006994747,1.5704063100000232,0.787268948499948,0.039999958,0.0399999858,-9.794676950000444,0.02525606229826719,-0.021115603899269756,0.0016199120249539493,-0.0009475842252516706,0.009971447149717731
0.51,0.001504386419945837,-0.7837503200000357,-0.0004076557759818726,-2.356873379999971,0.0013977314599471914,1.5703966800000233,0.7872905979999477,0.039999958,0.0399999864,-9.794492600000446,0.025566487758601833,-0.02141951019926588,0.0016390769999537049,-0.0008107865407175703,0.010088919199716233
0.5125,0.001526808449945551,-0.783735515000036,-0.0004151600374817769,-2.3568854999999704,0.0014195928499469124,1.5703870500000234,0.7873122474999474,0.039999958,0.039999987,-9.794308250000448,0.025876913218936475,-0.021723416499262002,0.0016582419749534604,-0.0006739888561834701,0.010206391249714734
0.515,0.001549230479945266,-0.7837207100000362,-0.0004226642989816815,-2.3568976199999705,0.0014414542399466346,1.5703774200000236,0.7873338969999472,0.039999958,0.0399999876,-9.79412390000045,0.026187338679271126,-0.02202732279925814,0.0016774069499532168,-0.0005371911716493638,0.010323863299713241
0.5175,0.0015722401699406541,-0.7837055930000386,-0.0004303651629801385,-2.356909944999969,0.0014638884349421392,1.5703675500000254,0.7873561084999428,0.039999957800000006,0.039999987800000004,-9.793983100000132,0.026496090552951497,-0.022341125199181414,0.0016968019199512794,-0.0003986383980947937,0.010442874599700412
0.52,0.0015964251799403465,-0.7836898520000388,-0.00043845923198003564,-2.3569226799999687,0.0014874682399418394,1.5703572000000254,0.7873794439999425,0.039999957200000005,0.0399999872,-9.793929400000133,0.026801495253286445,-0.022674719799177175,0.001716656879951027,-0.0002565754464605843,0.01056496439969886
0.5225,0.001620610189940038,-0.783674111000039,-0.0004465533009799324,-2.3569354149999686,0.0015110480449415386,1.5703468500000257,0.7874027794999422,0.039999956600000004,0.0399999866,-9.793875700000132,0.02710689995362138,-0.02300831439917292,0.0017365118399507737,-0.00011451249482638125,0.010687054199697303
0.525,0.0016447951999397307,-0.7836583700000392,-0.0004546473699798295,-2.3569481499999685,0.001534627849941239,1.5703365000000258,0.7874261149999419,0.039999956,0.039999986,-9.793822000000134,0.02741230465395633,-0.02334190899916868,0.0017563667999505213,2.7550456807828156e-05,0.010809143999695752
0.5275,0.0016689802099394222,-0.7836426290000394,-0.0004627414389797263,-2.356960884999968,0.0015582076549409381,1.570326150000026,0.7874494504999416,0.0399999554,0.0399999854,-9.793768300000133,0.027717709354291263,-0.023675503599164423,0.0017762217599502682,0.00016961340844203122,0.010931233799694195
0.53,0.0016931652199391148,-0.7836268880000397,-0.0004708355079796234,-2.356973619999968,0.0015817874599406384,1.5703158000000261,0.7874727859999413,0.0399999548,0.039999984800000006,-9.793714600000134,0.02802311405462621,-0.024009098199160184,0.0017960767199500158,0.0003116763600762407,0.011053323599692643
0.5325,0.0017173502299388064,-0.7836111470000398,-0.00047892957697952016,-2.3569863549999677,0.0016053672649403378,1.5703054500000262,0.787496121499941,0.0399999542,0.039999984200000005,-9.793660900000136,0.028328518754961146,-0.024342692799155928,0.0018159316799497625,0.00045373931171044374,0.011175413399691084
0.535,0.0017427542199338493,-0.7835947040000427,-0.0004874314599778617,-2.356999509999966,0.0016301351199355064,1.5702946100000283,0.7875206249999362,0.0399999536,0.039999983600000004,-9.793521300000464,0.02868011556470472,-0.024685643899116,0.0018363017299475454,0.0006008768392179567,0.011300447099678304
0.5375,0.0017687676999335175,-0.783577910000043,-0.0004961372499777507,-2.357012874999966,0.0016554969999351828,1.5702835250000284,0.7875457124999359,0.039999953,0.039999983,-9.793338750000466,0.029054808429416,-0.025033273249111566,0.0018569293249472822,0.0007505516546910527,0.011426952749676691
0.54,0.001794781179933187,-0.7835611160000432,-0.0005048430399776401,-2.3570262399999655,0.0016808588799348606,1.5702724400000285,0.7875707999999356,0.0399999524,0.0399999824,-9.79315620000047,0.0294295012941273,-0.02538090259910715,0.00187755691994702,0.0009002264701641553,0.011553458399675084
0.5425,0.0018207946599328553,-0.7835443220000433,-0.000513548829977529,-2.3570396049999656,0.001706220759934537,1.5702613550000286,0.7875958874999353,0.0399999518,0.0399999818,-9.792973650000471,0.02980419415883858,-0.025728531949102715,0.001898184514946757,0.0010499012856372515,0.01167996404967347
0.545,0.0018468081399325247,-0.7835275280000435,-0.0005222546199774184,-2.357052969999965,0.0017315826399342147,1.5702502700000287,0.7876209749999349,0.0399999512,0.0399999812,-9.792791100000473,0.03017888702354988,-0.026076161299098295,0.0019188121099464948,0.001199576101110354,0.011806469699671862
0.5475,0.0018728216199321928,-0.7835107340000438,-0.0005309604099773073,-2.357066334999965,0.0017569445199338912,1.570239185000029,0.7876460624999346,0.0399999506,0.0399999806,-9.792608550000477,0.030553579888261156,-0.026423790649093865,0.0019394397049462316,0.00134925091658345,0.011932975349670248
0.55,0.0018988350999318622,-0.783493940000044,-0.0005396661999771968,-2.357079699999965,0.001782306399933569,1.570228100000029,0.7876711499999343,0.03999995,0.03999998,-9.792426000000479,0.030928272752972455,-0.026771419999089444,0.0019600672999459693,0.0014989257320565527,0.01205948099966864
0.5525,0.0019267416099265477,-0.7834761890000468,-0.0005490053454754187,-2.357094144999962,0.001809513339928389,1.5702161900000313,0.7876980674999291,0.03999995,0.0399999806,-9.792282900000377,0.03129712063722082,-0.027156134298987403,0.0019815106249435593,0.001656024145945824,0.01219019489965595
0.555,0.001954648119926193,-0.783458438000047,-0.0005583444909752999,-2.3571085899999615,0.0018367202799280432,1.5702042800000315,0.7877249849999288,0.03999995,0.0399999812,-9.79213980000038,0.0316659685214539,-0.027540848598982513,0.002002953949943287,0.0018131225598545476,0.01232090879965429
0.5575,0.0019825546299258373,-0.7834406870000472,-0.0005676836364751809,-2.3571230349999617,0.0018639272199276963,1.5701923700000318,0.7877519024999284,0.03999995,0.0399999818,-9.79199670000038,0.03203481640568695,-0.027925562898977605,0.002024397274943013,0.001970220973763264,0.012451622699652623
0.56,0.0020104611399254825,-0.7834229360000474,-0.0005770227819750621,-2.3571374799999614,0.0018911341599273505,1.5701804600000318,0.787778819999928,0.03999995,0.0399999824,-9.791853600000383,0.032403664289920024,-0.028310277198972715,0.0020458405999427406,0.0021273193876719873,0.01258233659965096
0.5625,0.0020383676499251264,-0.7834051850000476,-0.000586361927474943,-2.357151924999961,0.0019183410999270036,1.570168550000032,0.7878057374999278,0.03999995,0.039999983,-9.791710500000384,0.03277251217415308,-0.028694991498967808,0.0020672839249424673,0.0022844178015807032,0.012713050499649294
0.5650000000000001,0.0020662741599247717,-0.7833874340000478,-0.0005957010729748243,-2.357166369999961,0.0019455480399266578,1.5701566400000322,0.7878326549999274,0.03999995,0.0399999836,-9.791567400000387,0.03314136005838615,-0.029079705798962917,0.002088727249942195,0.002441516215489427,0.012843764399647632
0.5675,0.0020948328849191163,-0.783369320000051,-0.0006052584314729322,-2.3571811899999577,0.001973390714921145,1.5701444500000346,0.7878602049999219,0.03999995,0.0399999842,-9.791440700000255,0.033517807721030836,-0.029469363098917848,0.0021104002949400547,0.0026004967042492955,0.012975896949634438
0.5700000000000001,0.002124696039918737,-0.7833504800000513,-0.0006152522159728051,-2.3571967599999577,0.002002504859920775,1.5701317000000348,0.7878890199999216,0.03999995,0.0399999848,-9.791346800000255,0.03390945494068376,-0.029868906398912768,0.0021325327799397733,0.0027632413427572822,0.013110866799632722
0.5725,0.002154559194918356,-0.7833316400000515,-0.0006252460004726777,-2.3572123299999572,0.0020316190049204036,1.570118950000035,0.7879178349999212,0.03999995,0.0399999854,-9.791252900000257,0.03430110216033666,-0.030268449698907674,0.002154665264939491,0.002925985981265261,0.013245836649631
0.5750000000000001,0.0021844223499179766,-0.7833128000000518,-0.0006352397849725506,-2.357227899999957,0.0020607331499200338,1.570106200000035,0.7879466499999208,0.03999995,0.039999986,-9.791159000000258,0.03469274937998958,-0.030667992998902594,0.00217679774993921,0.003088730619773248,0.013380806499629286
0.5775,0.0022142855049175954,-0.783293960000052,-0.0006452335694724231,-2.357243469999957,0.002089847294919662,1.5700934500000352,0.7879754649999204,0.03999995,0.0399999866,-9.79106510000026,0.035084396599642485,-0.0310675362988975,0.0021989302349389277,0.0032514752582812273,0.013515776349627563
0.58,0.0022441486599172147,-0.7832751200000522,-0.0006552273539722957,-2.357259039999957,0.002118961439919291,1.5700807000000354,0.7880042799999201,0.03999995,0.039999987199999996,-9.79097120000026,0.035476043819295394,-0.0314670795988924,0.0022210627199386454,0.0034142198967892063,0.013650746199625842
0.5825,0.0022740118149168352,-0.7832562800000524,-0.0006652211384721686,-2.3572746099999566,0.0021480755849189207,1.5700679500000354,0.7880330949999197,0.03999995,0.0399999878,-9.790877300000261,0.03586769103894832,-0.03186662289888732,0.002243195204938364,0.003576964535297193,0.013785716049624128
0.585,0.002305221209910225,-0.7832366700000563,-0.0006756653799699569,-2.357290409999955,0.0021785019699124774,1.5700546400000381,0.7880632059999134,0.0399999497,0.0399999876,-9.79081750000012,0.036255628987059585,-0.03229799059874054,0.0022657887599357314,0.003743102680419129,0.01392355069960785
0.5875,0.00233710372490895,-0.7832166750000571,-0.0006863348499695301,-2.357306324999955,0.0022095844749112346,1.5700410500000388,0.7880939649999121,0.03999994925,0.039999987,-9.790774750000121,0.03664171229937677,-0.03274527049872265,0.002288612849934819,0.003910937578869346,0.014062817749602281
0.59,0.002368986239907673,-0.7831966800000579,-0.000697004319969103,-2.357322239999954,0.00224066697990999,1.5700274600000392,0.7881247239999108,0.039999948800000004,0.0399999864,-9.790732000000125,0.03702779561169394,-0.033192550398704744,0.002311436939933905,0.004078772477319556,0.014202084799596705
0.5925,0.0024008687549063983,-0.7831766850000587,-0.0007076737899686762,-2.3573381549999533,0.002271749484908747,1.57001387000004,0.7881554829999097,0.03999994835,0.039999985800000006,-9.790689250000126,0.03741387892401113,-0.033639830298686856,0.002334261029932992,0.004246607375769774,0.014341351849591134
0.595,0.0024327512699051216,-0.7831566900000595,-0.0007183432599682489,-2.357354069999953,0.0023028319899075023,1.5700002800000403,0.7881862419999084,0.0399999479,0.039999985200000004,-9.790646500000127,0.037799962236328304,-0.034087110198668946,0.0023570851199320782,0.004414442274219984,0.01448061889958556
0.5975,0.0024646337849038463,-0.7831366950000603,-0.0007290127299678223,-2.357369984999952,0.0023339144949062595,1.569986690000041,0.7882170009999072,0.039999947450000004,0.0399999846,-9.790603750000129,0.03818604554864549,-0.03453439009865106,0.0023799092099311653,0.004582277172670201,0.014619885949579988
0.6,0.0024965162999025696,-0.7831167000000611,-0.000739682199967395,-2.3573858999999513,0.002364996999905015,1.5699731000000414,0.7882477599999059,0.039999947,0.039999984,-9.790561000000132,0.038572128860962666,-0.034981669998633155,0.0024027332999302514,0.0047501120711204116,0.014759152999574412
0.6025,0.0025304800948967045,-0.7830955200000644,-0.000751047924965433,-2.3574028799999485,0.002398108074899298,1.569958565000044,0.7882805259999003,0.039999947,0.0399999846,-9.7903304500007,0.03903484511979752,-0.0354401854986055,0.00242630515492831,0.004926852182878914,0.014902370449564429
0.605,0.002564443889897198,-0.7830743400000642,-0.0007624136499655981,-2.3574198599999487,0.0024312191498997793,1.569944030000044,0.7883132919999007,0.039999947,0.0399999852,-9.790099900000698,0.039497561378866536,-0.035898700998612164,0.0024498770099286526,0.005103592294664622,0.015045587899566509
0.6075,0.0025984076848976933,-0.7830531600000639,-0.0007737793749657638,-2.357436839999949,0.002464330224900262,1.5699294950000438,0.7883460579999013,0.039999947,0.0399999858,-9.789869350000695,0.03996027763793558,-0.036357216498618845,0.002473448864928996,0.005280332406450337,0.015188805349568598
0.61,0.002632371479898187,-0.7830319800000635,-0.000785145099965929,-2.3574538199999493,0.002497441299900743,1.5699149600000435,0.7883788239999018,0.039999947,0.0399999864,-9.789638800000692,0.0404229938970046,-0.036815731998625506,0.0024970207199293388,0.0054570725182360455,0.015332022799570678
0.6125,0.002666335274898682,-0.7830108000000632,-0.0007965108249660946,-2.3574707999999496,0.0025305523749012257,1.5699004250000432,0.7884115899999022,0.039999947,0.039999987,-9.789408250000687,0.04088571015607364,-0.03727424749863219,0.0025205925749296823,0.0056338126300217615,0.015475240249572766
0.615,0.0027002990698991756,-0.7829896200000629,-0.0008078765499662597,-2.35748777999995,0.0025636634499017065,1.5698858900000432,0.7884443559999027,0.039999947,0.0399999876,-9.789177700000684,0.04134842641514266,-0.037732762998638855,0.002544164429930025,0.00581055274180747,0.015618457699574846
0.6175,0.0027349768598930145,-0.7829680400000664,-0.0008194811699641984,-2.3575051099999467,0.002597470419895702,1.5698710700000456,0.7884778099998968,0.039999947,0.0399999881,-9.788991500000288,0.04181012455237797,-0.03820337849853381,0.002567958229928181,0.005989067954403019,0.015763000749563848
0.62,0.002771082639892554,-0.7829456600000666,-0.0008315635799640444,-2.3575231399999463,0.002632669179895253,1.5698556800000458,0.7885126399998964,0.039999947,0.0399999884,-9.78889400000029,0.04226978644591869,-0.038698193998527496,0.002592195919927872,0.006171133368665497,0.01591019499956197
0.6225,0.0028071884198920954,-0.782923280000067,-0.0008436459899638908,-2.357541169999946,0.0026678679398948056,1.5698402900000459,0.7885474699998959,0.039999947,0.039999988699999996,-9.788796500000291,0.04272944833945943,-0.039193009498521204,0.002616433609927564,0.006353198782927983,0.0160573892495601
0.625,0.0028432941998916346,-0.7829009000000672,-0.0008557283999637367,-2.357559199999946,0.002703066699894357,1.5698249000000462,0.7885822999998955,0.039999947,0.039999989,-9.788699000000292,0.04318911023300015,-0.03968782499851489,0.0026406712999272547,0.006535264197190461,0.016204583499558223
0.6275000000000001,0.002879399979891176,-0.7828785200000674,-0.0008678108099635831,-2.357577229999946,0.0027382654598939096,1.5698095100000464,0.7886171299998951,0.039999947,0.0399999893,-9.788601500000293,0.0436487721265409,-0.0401826404985086,0.0026649089899269465,0.0067173296114529475,0.016351777749556352
0.63,0.002915505759890715,-0.7828561400000678,-0.000879893219963429,-2.3575952599999455,0.002773464219893461,1.5697941200000465,0.7886519599998946,0.039999947,0.0399999896,-9.788504000000295,0.04410843402008162,-0.040677455998502296,0.0026891466799266375,0.0068993950257154255,0.016498971999554475
0.6325000000000001,0.0029516115398902565,-0.782833760000068,-0.0008919756299632754,-2.357613289999945,0.0028086629798930135,1.5697787300000468,0.7886867899998942,0.039999947,0.0399999899,-9.788406500000296,0.04456809591362236,-0.041172271498496005,0.0027133843699263297,0.007081460439977911,0.016646166249552605
0.635,0.0029891849698830764,-0.7828105350000721,-0.0009045491299608729,-2.357632009999942,0.0028452923098860146,1.5697627000000498,0.7887230299998873,0.039999946300000006,0.0399999898,-9.788307900000301,0.04504324383886288,-0.04168876899839043,0.002738130839923691,0.007267338316314384,0.016795954899538848
0.6375000000000001,0.0030274922248825897,-0.7827868875000724,-0.00091736817496071,-2.3576510749999415,0.00288263692488554,1.5697463500000501,0.7887599749998868,0.03999994525,0.0399999895,-9.788208750000303,0.04552613478005938,-0.04221610749838372,0.002763131699923373,0.0074551224237139726,0.01694704074953693
0.64,0.0030657994798821008,-0.7827632400000728,-0.0009301872199605465,-2.357670139999941,0.0029199815398850636,1.5697300000000503,0.7887969199998863,0.039999944200000005,0.0399999892,-9.788109600000304,0.046009025721255856,-0.042743445998377,0.002788132559923054,0.007642906531113553,0.017098126599535
0.6425,0.0031041067348816123,-0.7827395925000731,-0.000943006264960383,-2.357689204999941,0.0029573261548845875,1.5697136500000506,0.7888338649998858,0.03999994315,0.0399999889,-9.788010450000305,0.04649191666245233,-0.04327078449837027,0.0028131334199227353,0.007830690638513133,0.017249212449533074
0.645,0.003142413989881125,-0.7827159450000734,-0.0009558253099602201,-2.3577082699999408,0.0029946707698841127,1.5696973000000507,0.7888708099998853,0.039999942100000005,0.0399999886,-9.787911300000308,0.046974807603648826,-0.04379812299836357,0.0028381342799224177,0.008018474745912722,0.017400298299531155
0.6475,0.0031807212448806367,-0.7826922975000736,-0.0009686443549600566,-2.3577273349999404,0.0030320153848836366,1.569680950000051,0.788907754999885,0.03999994105,0.039999988300000004,-9.78781215000031,0.04745769854484531,-0.04432546149835684,0.002863135139922099,0.0082062588533123,0.017551384149529226
0.65,0.00321902849988015,-0.7826686500000739,-0.0009814633999598937,-2.3577463999999404,0.0030693599998831617,1.5696646000000511,0.7889446999998845,0.03999994,0.039999988,-9.787713000000311,0.0479405894860418,-0.04485279999835014,0.002888135999921781,0.00839404296071189,0.017702469999527307
0.6525,0.003259595714872562,-0.7826436870000784,-0.0009950385949573548,-2.3577665899999363,0.0031089077398757646,1.5696472750000545,0.7889838274998772,0.03999994,0.039999988,-9.787650600000196,0.04841764550506213,-0.04542264549820988,0.0029138217599193107,0.008587782829391285,0.0178574643995131
0.655,0.0033001629298720463,-0.7826187240000787,-0.0010086137899571824,-2.357786779999936,0.003148455479875262,1.5696299500000546,0.7890229549998766,0.03999994,0.039999988,-9.787588200000197,0.04889470152406423,-0.045992490998202636,0.002939507519918984,0.008781522698089322,0.01801245879951113
0.6575,0.0033407301448715285,-0.782593761000079,-0.001022188984957009,-2.357806969999936,0.0031880032198747573,1.5696126250000548,0.7890620824998761,0.03999994,0.039999988,-9.787525800000198,0.0493717575430663,-0.04656233649819537,0.0029651932799186565,0.008975262566787351,0.018167453199509152
0.66,0.003381297359871013,-0.7825687980000794,-0.0010357641799568365,-2.357827159999936,0.0032275509598742548,1.569595300000055,0.7891012099998757,0.03999994,0.039999988,-9.787463400000199,0.049848813562068404,-0.047132181998188125,0.00299087903991833,0.009169002435485388,0.018322447599507186
0.6625,0.0034218645748704955,-0.7825438350000796,-0.0010493393749566634,-2.3578473499999353,0.0032670986998737505,1.5695779750000554,0.7891403374998751,0.03999994,0.039999988,-9.7874010000002,0.05032586958107048,-0.04770202749818086,0.0030165647999180023,0.009362742304183417,0.01847744199950521
0.665,0.00346243178986998,-0.78251887200008,-0.0010629145699564907,-2.357867539999935,0.003306646439873248,1.5695606500000554,0.7891794649998747,0.03999994,0.039999988,-9.7873386000002,0.050802925600072574,-0.048271872998173614,0.003042250559917676,0.009556482172881454,0.01863243639950324
0.6675,0.003503771569862005,-0.7824934735000845,-0.001076748274953822,-2.3578881199999313,0.003346947099865475,1.5695430100000587,0.7892193394998669,0.0399999398,0.039999988,-9.787252250000433,0.051308958789381506,-0.048846690398118356,0.0030681692849150993,0.009751831553237396,0.018788615599489824
0.67,0.0035466564798614596,-0.7824672040000848,-0.0010910989999536398,-2.3579094799999307,0.0033887535998649437,1.569524740000059,0.7892607079998664,0.0399999392,0.039999988,-9.787118000000435,0.05187294632014225,-0.04943145159811092,0.003094553939914764,0.009950399956955722,0.018947164399487806
0.6725,0.003589541389860913,-0.7824409345000852,-0.0011054497249534567,-2.3579308399999306,0.0034305600998644106,1.5695064700000592,0.7893020764998658,0.0399999386,0.039999988,-9.786983750000436,0.05243693385090298,-0.05001621279810346,0.0031209385949144274,0.01014896836067404,0.019105713199485785
0.675,0.0036324262998603677,-0.7824146650000855,-0.0011198004499532743,-2.3579521999999304,0.0034723665998638792,1.5694882000000594,0.7893434449998653,0.039999938,0.039999988,-9.786849500000438,0.05300092138166372,-0.05060097399809603,0.003147323249914092,0.010347536764392366,0.01926426199948377
0.6775,0.003675311209859821,-0.7823883955000859,-0.0011341511749530914,-2.3579735599999303,0.0035141730998633457,1.5694699300000599,0.7893848134998648,0.0399999374,0.039999988,-9.786715250000439,0.05356490891242444,-0.051185735198088576,0.0031737079049137555,0.010546105168110683,0.019422810799481747
0.68,0.0037181961198592757,-0.7823621260000863,-0.001148501899952909,-2.3579949199999297,0.0035559795998628143,1.56945166000006,0.7894261819998643,0.039999936800000004,0.039999988,-9.78658100000044,0.05412889644318519,-0.051770496398081144,0.00320009255991342,0.01074467357182901,0.019581359599479733
0.6825,0.0037610810298587287,-0.7823358565000866,-0.0011628526249527259,-2.3580162799999296,0.003597786099862281,1.5694333900000603,0.7894675504998637,0.0399999362,0.039999988,-9.786446750000444,0.054692883973945915,-0.05235525759807369,0.003226477214913084,0.010943241975547326,0.019739908399477712
0.685,0.0038055483998503344,-0.7823086660000915,-0.001177732859949917,-2.3580383999999257,0.003641135019854099,1.569414420000064,0.7895104509998556,0.0399999356,0.039999988199999996,-9.786331500000351,0.05525202601963949,-0.05296980139791852,0.003253285389910648,0.011145769152113946,0.01990065579946479
0.6875,0.0038508069998497573,-0.7822810150000918,-0.0011928778499497238,-2.3580608999999253,0.0036852551498535364,1.569395100000064,0.789554117499855,0.039999935,0.0399999885,-9.786225750000352,0.05580874532276348,-0.05359923649791049,0.003280305324910303,0.011350275715134084,0.020062502499462724
0.6900000000000001,0.003896065599849182,-0.7822533640000922,-0.0012080228399495314,-2.358083399999925,0.0037293752798529755,1.5693757800000645,0.7895977839998545,0.0399999344,0.0399999888,-9.786120000000354,0.056365464625887506,-0.0542286715979025,0.0033073252599099597,0.011554782278154228,0.020224349199460666
0.6925,0.003941324199848605,-0.7822257130000926,-0.0012231678299493383,-2.358105899999925,0.003773495409852413,1.5693564600000647,0.7896414504998539,0.039999933800000005,0.0399999891,-9.786014250000354,0.05692218392901151,-0.05485810669789447,0.003334345194909615,0.011759288841174366,0.020386195899458604
0.6950000000000001,0.00398658279984803,-0.7821980620000929,-0.0012383128199491458,-2.3581283999999245,0.003817615539851852,1.5693371400000649,0.7896851169998533,0.039999933200000004,0.0399999894,-9.785908500000355,0.05747890323213553,-0.05548754179788647,0.0033613651299092715,0.01196379540419451,0.020548042599456546
0.6975,0.0040318413998474524,-0.7821704110000932,-0.0012534578099489524,-2.358150899999924,0.0038617356698512893,1.569317820000065,0.7897287834998528,0.0399999326,0.039999989699999995,-9.785802750000357,0.05803562253525953,-0.05611697689787844,0.003388385064908927,0.012168301967214648,0.02070988929945448
0.7000000000000001,0.004077099999846877,-0.7821427600000936,-0.00126860279994876,-2.358173399999924,0.003905855799850729,1.5692985000000652,0.7897724499998522,0.039999932,0.03999999,-9.785697000000358,0.058592341838383556,-0.05674641199787044,0.0034154049999085834,0.012372808530234793,0.020871735999452422
0.7025,0.004124787609838051,-0.7821136810000988,-0.0012845605499458067,-2.35819703999992,0.003952343979842124,1.569278190000069,0.7898184414998438,0.039999931700000005,0.0399999891,-9.785601900000323,0.05918193831839596,-0.057411054197742846,0.003443024604906202,0.012582348845187486,0.021037716399436322
0.705,0.004172475219837443,-0.7820846020000991,-0.0013005182999456032,-2.3582206799999197,0.003998832159841531,1.5692578800000692,0.7898644329998432,0.0399999314,0.0399999882,-9.785506800000324,0.0597715347985196,-0.05807569639773437,0.0034706442099058502,0.012791889160157208,0.021203696799434204
0.7075,0.004220162829836837,-0.7820555230000995,-0.0013164760499454005,-2.3582443199999195,0.00404532033984094,1.5692375700000694,0.7899104244998426,0.039999931100000004,0.039999987300000005,-9.785411700000326,0.06036113127864327,-0.05874033859772592,0.003498263814905499,0.01300142947512694,0.021369677199432096
0.71,0.004267850439836228,-0.7820264440000999,-0.001332433799945197,-2.358267959999919,0.004091808519840348,1.5692172600000698,0.7899564159998421,0.03999993080000001,0.03999998640000001,-9.785316600000327,0.06095072775876691,-0.059404980797717444,0.0035258834199051467,0.013210969790096663,0.021535657599429978
0.7125,0.0043155380498356224,-0.7819973650001002,-0.001348391549944994,-2.3582915999999186,0.004138296699839757,1.56919695000007,0.7900024074998415,0.0399999305,0.0399999855,-9.785221500000327,0.061540324238890574,-0.060069622997708995,0.0035535030249047956,0.013420510105066395,0.02170163799942787
0.715,0.004363225659835014,-0.7819682860001006,-0.0013643492999447905,-2.3583152399999183,0.004184784879839164,1.5691766400000702,0.7900483989998409,0.039999930200000006,0.0399999846,-9.785126400000328,0.062129920719014214,-0.06073426519770052,0.0035811226299044437,0.013630050420036118,0.02186761839942575
0.7175,0.004411740994825785,-0.7819387265001059,-0.0013805839999417027,-2.358339259999914,0.00423207964983017,1.569155975000074,0.790095191999832,0.03999993,0.0399999843,-9.785047000000166,0.06271374635199664,-0.061416503797508765,0.0036089927799014825,0.013841443089021337,0.022034492149414338
0.72,0.004461911779825145,-0.7819082060001064,-0.0013973725999414887,-2.358364039999914,0.004280987599829546,1.5691346000000745,0.7901435879998314,0.03999993,0.0399999852,-9.784999000000166,0.06328603029051644,-0.062133935197499615,0.0036373640199011204,0.014056540466095344,0.022203152599412187
0.7225,0.004512082564824507,-0.7818776855001067,-0.0014141611999412753,-2.3583888199999135,0.004329895549828925,1.5691132250000748,0.7901919839998307,0.03999993,0.039999986099999996,-9.784951000000168,0.06385831422903626,-0.0628513665974905,0.00366573525990076,0.014271637843169361,0.022371813049410043
0.725,0.004562253349823867,-0.7818471650001071,-0.001430949799941061,-2.358413599999913,0.004378803499828301,1.569091850000075,0.7902403799998301,0.03999993,0.039999987,-9.784903000000169,0.06443059816755606,-0.06356879799748134,0.0036941064999003984,0.014486735220243368,0.022540473499407892
0.7275,0.004612424134823229,-0.7818166445001075,-0.0014477383999408476,-2.3584383799999125,0.004427711449827679,1.5690704750000752,0.7902887759998295,0.03999993,0.0399999879,-9.784855000000169,0.06500288210607587,-0.06428622939747222,0.0037224777399000376,0.014701832597317383,0.022709133949405748
0.73,0.0046625949198225896,-0.7817861240001078,-0.0014645269999406336,-2.3584631599999124,0.004476619399827055,1.5690491000000755,0.7903371719998289,0.03999993,0.0399999888,-9.78480700000017,0.06557516604459566,-0.06500366079746307,0.003750848979899676,0.01491692997439139,0.022877794399403597
0.7325,0.0047127657048219515,-0.7817556035001083,-0.0014813155999404202,-2.358487939999912,0.004525527349826434,1.569027725000076,0.7903855679998283,0.03999993,0.039999989699999995,-9.784759000000172,0.06614744998311549,-0.06572109219745396,0.003779220219899315,0.015132027351465406,0.023046454849401453
0.735,0.004764626769812282,-0.7817240970001139,-0.0014986698499371842,-2.3585134799999077,0.004576083269817006,1.56900562000008,0.7904355969998189,0.03999992900000001,0.03999998900000001,-9.784641750000542,0.06679056063052739,-0.06644495289741047,0.0038080134698966987,0.015350600983162842,0.023217719799385386
0.7375,0.004817332974811612,-0.7816920975001144,-0.00151630692493696,-2.3585393999999074,0.004627463174816353,1.5689831500000804,0.7904864424998183,0.03999992750000001,0.03999998750000001,-9.784489875000544,0.0674690846329516,-0.06717202824740122,0.00383701772489633,0.01557091274219979,0.023390286999383194
0.74,0.00487003917981094,-0.7816600980001147,-0.001533943999936735,-2.358565319999907,0.004678843079815698,1.5689606800000806,0.7905372879998176,0.039999926000000005,0.039999986,-9.784338000000545,0.06814760863537578,-0.06789910359739194,0.0038660219798959602,0.015791224501236732,0.023562854199380992
0.7425,0.0049227453848102705,-0.7816280985001152,-0.0015515810749365108,-2.3585912399999067,0.004730222984815045,1.5689382100000808,0.7905881334998169,0.039999924500000006,0.0399999845,-9.784186125000547,0.06882613263779999,-0.06862617894738271,0.0038950262348955915,0.01601153626027368,0.0237354213993788
0.745,0.0049754515898095975,-0.7815960990001155,-0.0015692181499362859,-2.3586171599999064,0.00478160288981439,1.5689157400000813,0.7906389789998164,0.03999992300000001,0.039999983,-9.78403425000055,0.06950465664022416,-0.06935325429737343,0.003924030489895222,0.016231848019310623,0.0239079885993766
0.7475,0.005028157794808928,-0.781564099500116,-0.0015868552249360616,-2.358643079999906,0.004832982794813737,1.5688932700000815,0.7906898244998157,0.03999992150000001,0.039999981500000004,-9.783882375000552,0.07018318064264838,-0.07008032964736419,0.003953034744894853,0.01645215977834757,0.024080555799374407
0.75,0.005080863999808256,-0.7815321000001164,-0.0016044922999358367,-2.3586689999999058,0.004884362699813081,1.5688708000000817,0.7907406699998151,0.03999992000000001,0.039999980000000004,-9.783730500000553,0.07086170464507255,-0.07080740499735493,0.0039820389998944826,0.01667247153738451,0.024253122999372205
0.7525000000000001,0.0051361573597981415,-0.7814985900001223,-0.0016229951899324516,-2.3586961499999006,0.004938264554803221,1.568847235000086,0.7907940294998053,0.039999918950000005,0.03999997955,-9.783621525000399,0.07152659967298959,-0.07158526674716027,0.0040116244898919925,0.016898206527452043,0.024428410299360083
0.755,0.005191450719797436,-0.7814650800001227,-0.0016414980799322157,-2.3587232999999004,0.004992166409802534,1.5688236700000864,0.7908473889998046,0.0399999179,0.0399999791,-9.783512550000399,0.072191494700857,-0.07236312849715035,0.004041209979891615,0.017123941517539293,0.024603697599357845
0.7575000000000001,0.005246744079796733,-0.7814315700001232,-0.0016600009699319805,-2.3587504499999,0.005046068264801849,1.5688001050000866,0.7909007484998039,0.039999916850000004,0.03999997865,-9.783403575000401,0.07285638972872446,-0.07314099024714046,0.004070795469891239,0.017349676507626553,0.024778984899355618
0.76,0.005302037439796028,-0.7813980600001236,-0.0016785038599317445,-2.3587775999999,0.005099970119801161,1.5687765400000868,0.7909541079998031,0.0399999158,0.0399999782,-9.783294600000403,0.07352128475659189,-0.07391885199713054,0.004100380959890862,0.017575411497713803,0.02495427219935338
0.7625000000000001,0.005357330799795325,-0.7813645500001241,-0.0016970067499315093,-2.358804749999899,0.0051538719748004756,1.5687529750000873,0.7910074674998026,0.039999914750000004,0.03999997775,-9.783185625000403,0.07418617978445934,-0.07469671374712065,0.004129966449890486,0.017801146487801064,0.025129559499351153
0.765,0.00541262415979462,-0.7813310400001244,-0.0017155096399312734,-2.358831899999899,0.0052077738297997885,1.5687294100000875,0.7910608269998018,0.0399999137,0.0399999773,-9.783076650000405,0.07485107481232676,-0.07547457549711073,0.0041595519398901085,0.018026881477888314,0.025304846799348916
0.7675000000000001,0.005468796729784086,-0.7812970180001306,-0.0017343067249277488,-2.358859449999894,0.005262532614789522,1.568705460000092,0.7911150229997918,0.039999912650000004,0.0399999768,-9.782989650000161,0.07551341093831682,-0.07626935099691172,0.0041893354898875175,0.018254395014676433,0.025481085249336056
0.77,0.005526727719783348,-0.781261972000131,-0.0017536921999275015,-2.358887799999894,0.0053190052597888015,1.5686807400000924,0.7911708919997911,0.0399999116,0.0399999762,-9.78294660000016,0.07617062926046629,-0.07709795399690116,0.004219515159887133,0.018485465644925852,0.025659225999333783
0.7725,0.005584658709782609,-0.7812269260001315,-0.0017730776749272541,-2.3589161499998936,0.005375477904788081,1.5686560200000927,0.7912267609997904,0.039999910550000004,0.0399999756,-9.782903550000162,0.07682784758261577,-0.07792655699689059,0.004249694829886748,0.01871653627517527,0.02583736674933151
0.775,0.005642589699781873,-0.781191880000132,-0.0017924631499270079,-2.358944499999893,0.005431950549787364,1.568631300000093,0.7912826299997897,0.03999990950000001,0.039999975,-9.782860500000162,0.07748506590476528,-0.07875515999688006,0.004279874499886364,0.0189476069054247,0.02601550749932925
0.7775,0.005700520689781134,-0.7811568340001325,-0.0018118486249267605,-2.3589728499998928,0.0054884231947866435,1.5686065800000932,0.7913384989997889,0.03999990845,0.039999974400000006,-9.782817450000163,0.07814228422691476,-0.07958376299686949,0.00431005416988598,0.019178677535674118,0.026193648249326976
0.78,0.005758451679780397,-0.7811217880001329,-0.0018312340999265143,-2.3590011999998928,0.005544895839785926,1.5685818600000936,0.7913943679997882,0.03999990740000001,0.039999973800000005,-9.782774400000163,0.07879950254906426,-0.08041236599685896,0.004340233839885597,0.019409748165923547,0.02637178899932471
0.7825,0.005816382669779659,-0.7810867420001333,-0.001850619574926267,-2.3590295499998923,0.005601368484785206,1.568557140000094,0.7914502369997876,0.03999990635,0.039999973200000004,-9.782731350000164,0.07945672087121373,-0.08124096899684839,0.004370413509885211,0.019640818796172965,0.026549929749322437
0.785,0.0058761048997686685,-0.7810506400001398,-0.001870604509922589,-2.3590587199998874,0.005659587429774491,1.5685316800000986,0.791507828999777,0.0399999064,0.0399999737,-9.782611200000606,0.08018468692607442,-0.08207971199677982,0.004401105359881896,0.019875194690220782,0.026730182699308085
0.7875,0.0059367227497678955,-0.7810140100001403,-0.0018908891749223303,-2.3590882999998866,0.0057186795247737374,1.5685058500000988,0.7915662824997762,0.039999907,0.03999997474999999,-9.782452500000607,0.08094802684789676,-0.08292352499676905,0.004432053299881501,0.020111223216196104,0.026911491749305773
0.79,0.005997340599767125,-0.7809773800001407,-0.0019111738399220726,-2.359117879999886,0.0057777716197729865,1.5684800200000992,0.7916247359997755,0.039999907599999995,0.0399999758,-9.782293800000609,0.08171136676971914,-0.08376733799675834,0.0044630012398811075,0.020347251742171432,0.027092800799303467
0.7925,0.006057958449766352,-0.7809407500001412,-0.0019314585049218138,-2.359147459999886,0.005836863714772233,1.5684541900000994,0.7916831894997748,0.039999908199999996,0.039999976849999994,-9.78213510000061,0.08247470669154149,-0.08461115099674757,0.0044939491798807124,0.02058328026814675,0.027274109849301155
0.795,0.006118576299765581,-0.7809041200001416,-0.0019517431699215561,-2.3591770399998855,0.005895955809771482,1.5684283600000999,0.791741642999774,0.0399999088,0.0399999779,-9.781976400000612,0.08323804661336387,-0.08545496399673685,0.004524897119880319,0.020819308794122082,0.02745541889929885
0.7975,0.006179194149764808,-0.7808674900001421,-0.0019720278349212974,-2.359206619999885,0.005955047904770729,1.5684025300001,0.7918000964997732,0.0399999094,0.039999978949999994,-9.781817700000616,0.08400138653518623,-0.08629877699672608,0.004555845059879924,0.0210553373200974,0.027636727949296537
0.8,0.006239811999764038,-0.7808308600001426,-0.00199231249992104,-2.3592361999998848,0.006014139999769977,1.5683767000001005,0.7918585499997726,0.03999991,0.03999997999999999,-9.781659000000618,0.08476472645700861,-0.08714258999671537,0.004586792999879531,0.021291365846072732,0.02781803699929423
0.8025,0.006303164499752585,-0.7807926310001493,-0.002013512224917207,-2.3592670699998792,0.006075897399758815,1.5683497000001054,0.7919196524997614,0.039999909400000005,0.0399999806,-9.781556250000401,0.0855155874014379,-0.08803983989649591,0.004618385789876618,0.021532661280583697,0.028001688149282774
0.805,0.00636651699975178,-0.7807544020001498,-0.002034711949916938,-2.359297939999879,0.006137654799758029,1.5683227000001059,0.7919807549997606,0.039999908800000004,0.0399999812,-9.781453500000403,0.08626644834581865,-0.0889370897964845,0.004649978579876216,0.021773956715115176,0.02818533929928044
0.8075,0.006429869499750972,-0.7807161730001503,-0.0020559116749166674,-2.3593288099998784,0.006199412199757242,1.568295700000106,0.7920418574997599,0.0399999082,0.0399999818,-9.781350750000405,0.08701730929019935,-0.08983433969647306,0.004681571369875814,0.02201525214964664,0.028368990449278098
0.81,0.006493221999750167,-0.7806779440001508,-0.002077111399916398,-2.359359679999878,0.006261169599756457,1.5682687000001065,0.792102959999759,0.0399999076,0.039999982399999995,-9.781248000000405,0.0877681702345801,-0.09073158959646166,0.004713164159875412,0.02225654758417812,0.028552641599275765
0.8125,0.006556574499749358,-0.7806397150001513,-0.0020983111249161276,-2.359390549999878,0.006322926999755669,1.568241700000107,0.7921640624997582,0.039999907,0.039999982999999996,-9.781145250000407,0.08851903117896082,-0.09162883949645022,0.0047447569498750095,0.02249784301870959,0.02873629274927342
0.8150000000000001,0.006619926999748553,-0.7806014860001518,-0.002119510849915858,-2.3594214199998773,0.0063846843997548836,1.5682147000001072,0.7922251649997575,0.03999990640000001,0.0399999836,-9.781042500000408,0.08926989212334156,-0.0925260893964388,0.004776349739874608,0.022739138453241065,0.028919943899271088
0.8175,0.00668420656973607,-0.7805627015001593,-0.00214102087491168,-2.359452714999872,0.0064473456247427135,1.5681872900001128,0.7922871599997454,0.039999906,0.03999998455,-9.780942000000383,0.09003209545895138,-0.0934366278962601,0.004808131369871657,0.022982024214179716,0.02910447759925651
0.8200000000000001,0.006750340279733424,-0.7805228060001609,-0.0021631514999107945,-2.3594848599998706,0.006511814499740135,1.5681590600001138,0.7923509399997429,0.039999906,0.0399999862,-9.780846000000388,0.09081698357742547,-0.09437374359622262,0.004840290679870371,0.023228090627989664,0.02929077639924906
0.8225,0.0068164739897307765,-0.7804829105001624,-0.0021852821249099086,-2.3595170049998693,0.006576283374737554,1.5681308300001149,0.7924147199997403,0.039999906,0.039999987849999995,-9.780750000000392,0.09160187169589952,-0.0953108592961851,0.004872449989869083,0.0234741570417996,0.029477075199241597
0.8250000000000001,0.006882607699728132,-0.780443015000164,-0.0022074127499090235,-2.359549149999868,0.0066407522497349755,1.5681026000001161,0.7924784999997377,0.039999906,0.0399999895,-9.780654000000395,0.09238675981437361,-0.09624797499614762,0.004904609299867796,0.02372022345560955,0.029663373999234147
