rsonawane2002/My_IMU/logs_incomplete/traj_394/clean_394.csv
time,j1,j2,j3,j4,j5,j6,j7,gripper1,gripper2,imu_ax,imu_ay,imu_az,imu_gx,imu_gy,imu_gz,quat_x,quat_y,quat_z,quat_w
1581.183333332224,0.00016700293,-0.785875,4.0107683e-05,-2.3551247,9.29385e-05,1.570997,0.786,0.04,0.04,0.0,-0.0,0.0,2.875329272945135e-08,-0.0011641195053377316,4.421952117202833e-08,0.9999995971961153,0.00020320632366974898,0.0008736418299892524,3.263050917662294e-05
1581.1999999988907,0.00016700214,-0.78576016,4.0118917e-05,-2.3552213,9.298466e-05,1.5709941,0.786,0.04,0.04,-0.29199845986849216,-4.430069283623797e-05,0.02012840669800564,-4.733391236391045e-07,-0.002238454511184731,5.198046914083352e-07,0.9999996850585964,0.00020320748542026172,0.0007665025172419831,3.260854329085066e-05
1581.2166666655573,0.00016697623,-0.7856543,4.0159353e-05,-2.35531,9.310111e-05,1.5709913,0.786,0.04,0.04,0.02332872630352867,-5.93480082580419e-05,-0.0016704458940086653,-3.3214664821959052e-06,-0.0032307680101076194,3.5594078262948615e-06,0.9999997558442856,0.00020321048414965448,0.0006677972403296813,3.261462897240882e-05
1581.233333332224,0.00016688505,-0.78555703,4.0277926e-05,-2.355391,9.3408e-05,1.5709884,0.786,0.04,0.04,0.022460749291464133,-0.00016240330282264585,-0.001524923422735469,-1.1143503133537857e-05,-0.004149367113761263,1.1522393856960462e-05,0.9999998122379669,0.00020321807867306813,0.0005771981590934388,3.26914138448794e-05
1581.2499999988906,0.00016667171,-0.7854676,4.0544855e-05,-2.3554652,9.40779e-05,1.5709856,0.786,0.04,0.04,0.020453082271232326,-0.0003111225293609321,-0.0014252393975011657,-2.6301220326643182e-05,-0.005000315771578442,2.652841004146358e-05,0.9999998567937148,0.00020323390223850367,0.0004939899949642516,3.290008322628415e-05
1581.2666666655573,0.00016626397,-0.7853856,4.1049334e-05,-2.355532,9.535201e-05,1.5709827,0.7859994,0.04,0.03999999,0.020735323713449993,-0.0005165404634525168,-0.0009304478549632123,-5.144066422989094e-05,-0.005791876057131937,5.202124337630443e-05,0.9999998914130522,0.00020296451725506856,0.00041817272315616377,3.332960006274238e-05
1581.283333332224,0.00016557635,-0.7853105,4.1897998e-05,-2.3555934,9.74578e-05,1.5709798,0.7859975,0.04,0.039999995,0.016560228145179323,-0.0007173841458794482,-0.001609579804640049,-8.592242780601215e-05,-0.006525375319868376,8.582635719612552e-05,0.9999999183030269,0.00020205741766223323,0.00034843502439373505,3.405544342744895e-05
1581.2999999988906,0.00016451102,-0.7852418,4.321275e-05,-2.3556511,0.0001007049,1.570977,0.7859956,0.04,0.039999995,0.013535432080558074,-0.0009838878254565776,-0.0019380051791362263,-0.00012884469633077993,-0.007216336371861311,0.00013267495084499654,0.999999938876,0.0002011741566862483,0.00028379335673331716,3.5189279528716076e-05
1581.3166666655572,0.00016295938,-0.78517914,4.5129174e-05,-2.3557017,0.00010541301,1.5709741,0.7859918,0.04,0.04,0.018878122931687003,-0.0012628023581678644,-0.0002690031337682086,-0.00018836166635885875,-0.007876678584866226,0.0001917274978392225,0.999999953962095,0.00019936736622189826,0.00022576762951244237,3.6843437098680194e-05
1581.333333332224,0.0001608028,-0.7851223,4.7795005e-05,-2.3557472,0.00011196127,1.5709713,0.78598726,0.04,0.04,0.014901263477340443,-0.0015885007439135558,-0.0010541532530883302,-0.0002583762399459275,-0.008492110486367282,0.0002677130324553973,0.999999964793555,0.00019724030651441653,0.0001731358766965486,3.9155055604065806e-05
1581.3499999988906,0.0001579145,-0.7850711,5.1368843e-05,-2.3557894,0.0001207332,1.5709684,0.78598154,0.04,0.04,0.011932845460349562,-0.0019213333918929583,-0.0017292896063114682,-0.00034623385434855787,-0.009076703580105226,0.0003589554464852877,0.9999999723668801,0.0001945620069372409,0.00012500399053061496,4.225951685391745e-05
1581.3666666655572,0.00015415969,-0.78502524,5.6018718e-05,-2.355825,0.00013216099,1.5709655,0.78597385,0.04,0.03999999,0.017275260558458072,-0.0022934460254084963,-6.085379180564843e-05,-0.0004521608458158355,-0.009641846680248539,0.00046858534563649326,0.999999977260448,0.00019095298279606687,8.289185591564827e-05,4.631416519872172e-05
1581.3833333322239,0.00014939766,-0.78498465,6.1921375e-05,-2.355858,0.00014664518,1.5709625,0.78596336,0.04,0.039999995,0.009812539881637328,-0.0026446159010207193,-0.002001415639418802,-0.0005744640632156282,-0.010174295916582308,0.0005935519825728538,0.9999999803857157,0.00018600410247564825,4.4534483975511906e-05,5.145601939859501e-05
1581.3999999988905,0.0001434814,-0.7849489,6.926064e-05,-2.3558857,0.00016463012,1.5709596,0.78595,0.04,0.04,0.01465577975279242,-0.003030995269585115,-0.0002841003294618005,-0.0007114630141288076,-0.010696738525621629,0.0007363218237813651,0.9999999821179127,0.00017969401865926211,1.1332559426443716e-05,5.7842948938802787e-05
1581.4166666655572,0.00013625884,-0.784918,7.822641e-05,-2.3559084,0.00018660554,1.5709563,0.7859344,0.04,0.04,0.013835507622972365,-0.0034521641755089205,-0.0007063688849839878,-0.0008653191816980577,-0.01119950178690101,0.0009003611457720156,0.9999999828508911,0.0001723297020209522,-1.7041783410652e-05,6.565263740338237e-05
1581.4333333322238,0.00012757399,-0.7848918,8.901442e-05,-2.3559275,0.0002130329,1.5709525,0.7859153,0.039999995,0.04,0.01102773098018428,-0.0038547601004373217,-0.0014771526396062384,-0.0010406674107270061,-0.011686007489174494,0.0010825012846890903,0.9999999829813107,0.00016332397344070163,-4.1601786998403604e-05,7.504631507762581e-05
1581.4499999988905,0.00011726693,-0.7848704,0.00010182443,-2.3559408,0.00024441996,1.5709459,0.7858928,0.03999999,0.03999999,0.01415405853442131,-0.0042927481149900035,-0.002302043984636626,-0.0012336525847419823,-0.012167576548126858,0.0012863021969026977,0.9999999826859153,0.00015268589566786784,-6.231763172629812e-05,8.620730322991845e-05
1581.466666665557,0.00010517518,-0.78485346,0.00011686065,-2.3559523,0.00028124225,1.5709392,0.78586644,0.039999988,0.039999995,0.008183004761797008,-0.004708552053495541,-0.0016773186187979405,-0.0014467158686456876,-0.012645871155879654,0.0015080976332908142,0.9999999820475829,0.00014024601255262724,-7.984490558853719e-05,9.930096077652068e-05
1581.4833333322238,9.1133355e-05,-0.7848413,0.00013432985,-2.355957,0.0003240188,1.5709324,0.7858357,0.039999984,0.03999999,0.016576908148957514,-0.005158151101322477,0.00020556073063726643,-0.0016801354855693527,-0.013128495554852682,0.001752307808980294,0.9999999813356911,0.00012571533008686188,-9.170991136380063e-05,0.00011451447621917551
1581.4999999988904,7.497437e-05,-0.7848337,0.00015444138,-2.3559582,0.0003732606,1.5709252,0.7858004,0.03999998,0.039999988,0.011037263640845119,-0.00560134694080588,-0.001260692829530008,-0.0019328022204644097,-0.013595240653127337,0.0020174883362875998,0.9999999803718027,0.0001090438186404681,-9.967086101202374e-05,0.00013202863061489693
1581.516666665557,5.6529647e-05,-0.7848307,0.00017740659,-2.3559544,0.0004294837,1.5709147,0.78576005,0.039999977,0.039999988,0.012458445297403031,-0.006050033860314239,-0.0028057217025700965,-0.0022060913289844294,-0.014062522684312679,0.002302970308617626,0.9999999789330125,8.997213753636466e-05,-0.00010453222016185181,0.00015202632644176214
1581.5333333322237,3.5629506e-05,-0.7848324,0.00020343796,-2.3559458,0.0004932083,1.5709041,0.7857144,0.039999966,0.039999977,0.013336181408596381,-0.006502050012658788,-0.0006488254883363354,-0.0024994539253541414,-0.014541282203474247,0.002610582215596244,0.9999999769231787,6.839054862725516e-05,-0.00010468442833183143,0.00017469271700017532
1581.5499999988904,1.2103602e-05,-0.78483874,0.00023274888,-2.3559341,0.0005649558,1.5708933,0.785663,0.039999958,0.03999997,0.010265228009620486,-0.006954742088078757,-0.0013855355099234856,-0.0028137183523826927,-0.015015078136792082,0.002939540704195811,0.9999999738734,4.409991971223422e-05,-0.00010111064887292334,0.0002002124699854151
1581.566666665557,-1.4218489e-05,-0.7848499,0.00026555324,-2.3559158,0.00064524834,1.5708805,0.7856056,0.03999995,0.03999996,0.016077139582426625,-0.007410430130016963,-0.0011602754537154425,-0.003148369353045009,-0.01549747508957612,0.0032898662187907865,0.9999999693880334,1.6959312559423488e-05,-9.27376212262972e-05,0.00022877073190328087
1581.5833333322237,-4.3507316e-05,-0.7848657,0.0003020649,-2.3558931,0.00073460786,1.5708661,0.7855416,0.039999947,0.039999958,0.011904232828285899,-0.007864083280196351,-0.001952099830382359,-0.0035042282621300797,-0.015979439877422865,0.003661548085784869,0.9999999627091587,-1.3320068106367755e-05,-8.072713956276202e-05,0.00026055207875615307
1581.5999999988903,-7.593301e-05,-0.7848865,0.00034249705,-2.355866,0.00083355553,1.5708511,0.7854707,0.03999994,0.039999954,0.013044770612302692,-0.008317837017573293,-0.0012493328651608238,-0.0038799504972152265,-0.01647260940967104,0.004053659078494983,0.9999999531075504,-4.684872270385475e-05,-6.424418504265835e-05,0.00029574106703617395
1581.616666665557,-0.00011166522,-0.78491217,0.00038706232,-2.3558326,0.0009426114,1.570833,0.7853926,0.03999994,0.039999954,0.014956414452527156,-0.008771911231540632,-0.002300774575658693,-0.004276397952587564,-0.016971288043323002,0.004467830467344808,0.9999999395764203,-8.382769653335241e-05,-4.376491364966194e-05,0.0003345216065603707
1581.6333333322236,-0.00015087264,-0.78494287,0.00043597206,-2.3557937,0.0010622918,1.5708145,0.7853069,0.039999932,0.039999947,0.014741784195559937,-0.009221564106774846,-0.0006481527210944193,-0.0046927725416958735,-0.017480686756931867,0.00490305543288201,0.9999999210035582,-0.00012439734622668742,-1.8215661252441045e-05,0.00037707607633046707
1581.6499999988903,-0.0001937228,-0.7849788,0.0004894366,-2.3557498,0.0011931096,1.570794,0.7852132,0.039999932,0.03999995,0.013667110265513926,-0.009669500936799417,-0.002243417848690754,-0.00512965229788514,-0.01799260593784403,0.0053583372593897375,0.9999998959824635,-0.00016875880074250472,1.1450826997670347e-05,0.0004235851837697199
1581.666666665557,-0.00024038211,-0.7850202,0.0005476643,-2.3557003,0.0013355744,1.5707717,0.7851111,0.03999994,0.039999958,0.015156338928701274,-0.01011480888866353,-0.00184966688485666,-0.005586813234629037,-0.01851694244554134,0.005835186760023642,0.9999998629420462,-0.0002170835988526831,4.5801856455321753e-05,0.00047422862620745816
1581.6833333322236,-0.00029101514,-0.7850667,0.00061086175,-2.3556447,0.0014901905,1.5707477,0.7850005,0.039999943,0.03999996,0.015336597994375367,-0.010556123644917684,-0.0015227869909040237,-0.006063745985495651,-0.01904981832955556,0.0063316895597090245,0.9999998200675991,-0.00026948410961100285,8.489821481731887e-05,0.0005291836892951258
1581.6999999988902,-0.00034578532,-0.78511876,0.0006792338,-2.3555837,0.0016574586,1.5707216,0.7848807,0.039999954,0.039999977,0.014705555955751848,-0.010994131102330653,-0.0022648491182497565,-0.006561319603904646,-0.01959274105183535,0.006849320538845386,0.9999997652943734,-0.00032625166855130454,0.00012841351729406443,0.0005886263802314456
1581.7166666655569,-0.00040485393,-0.7851763,0.00075298274,-2.3555164,0.0018378715,1.5706935,0.7847516,0.03999996,0.039999984,0.015959801611487023,-0.011426778535086847,-0.0018606076885196998,-0.007077943796460767,-0.020148662264223755,0.007386943209453742,0.9999996962940689,-0.000387440074464466,0.00017676648959892607,0.00065272932112786
1581.7333333322235,-0.00046838014,-0.7852396,0.0008323079,-2.3554435,0.0020319175,1.5706631,0.7846127,0.03999996,0.039999984,0.015404450070333198,-0.011854548277341927,-0.002426097845620312,-0.007614482659003815,-0.020716330618282004,0.007944308697786229,0.9999996104758881,-0.00045328189764100996,0.00022975030038659348,0.0007216636285067042
1581.7499999988902,-0.00053652126,-0.78530866,0.00091740687,-2.355364,0.0022400774,1.5706303,0.78446376,0.039999966,0.03999999,0.016583371269596192,-0.012278384758685531,-0.0022010409423067756,-0.008170196591633318,-0.021298310947237397,0.008520231243569437,0.9999995048900799,-0.0005239215858984456,0.0002876649088216364,0.0007955970506370703
1581.7666666655568,-0.00060943223,-0.7853838,0.0010084738,-2.355278,0.0024628267,1.5705959,0.7843043,0.039999966,0.03999999,0.017546283438396593,-0.01269666820524029,-0.0017377207295110608,-0.008745127899680787,-0.021892441500836572,0.009116033098593915,0.9999993760669632,-0.0005995631420417138,0.00035113836395511764,0.0008746951310706028
1581.7833333322235,-0.00068726577,-0.78546506,0.0011057006,-2.355185,0.0027006331,1.5705583,0.78413403,0.039999966,0.039999995,0.017499201647130924,-0.01311057019189937,-0.0027048134142448887,-0.009338572728910383,-0.022494887361627396,0.009729920999089144,0.999999220560969,-0.0006803823641661512,0.00041957703618462715,0.0009591206408759564
1581.7999999988901,-0.00077017205,-0.7855524,0.0012092752,-2.3550854,0.0029539566,1.570519,0.7839528,0.03999996,0.03999999,0.01751194830785785,-0.013515292544677296,-0.0018429269156738926,-0.0099505471010564,-0.023111214249681877,0.010363008004561063,0.9999990342725306,-0.0007664345346184961,0.0004935199100413676,0.001049032987605016
1581.8166666655568,-0.0008582991,-0.78564614,0.0013193839,-2.3549786,0.0032232492,1.570477,0.78375995,0.03999996,0.039999995,0.018454619079499857,-0.013917643264246262,-0.00246426794310306,-0.010581416763999235,-0.02373959512089783,0.011013327001229353,0.9999988127153733,-0.0008580161485703273,0.0005729700198336539,0.0011445879122013627
1581.8333333322234,-0.0009517923,-0.7857464,0.0014362077,-2.3548646,0.0035089555,1.5704321,0.7835554,0.039999958,0.03999999,0.01840891100757247,-0.01431091884889788,-0.00277487108271135,-0.011229888496961767,-0.024378711837890768,0.011682161694058953,0.9999985512613431,-0.000955214414109094,0.0006577814558798411,0.0012459390813482848
1581.84999999889,-0.0010507938,-0.78585315,0.0015599257,-2.3547435,0.0038115128,1.5703851,0.7833388,0.039999958,0.039999995,0.01871420724786077,-0.014699788463212824,-0.0020756598094306966,-0.01189631657002167,-0.025032016848534035,0.012367468866832565,0.9999982444279435,-0.0010581766798220854,0.00074843449429405,0.0013532364734391985
1581.8666666655567,-0.0011554437,-0.7859667,0.0016907139,-2.354615,0.004131349,1.5703353,0.78310984,0.039999954,0.03999999,0.019186027652606796,-0.015082403091628612,-0.002772573200626738,-0.012580247642527445,-0.025697162131673168,0.013070549881684334,0.9999978866662709,-0.0011670523395756127,0.0008447838571267013,0.0014666260817022582
1581.8833333322234,-0.0012658788,-0.786087,0.001828744,-2.3544788,0.0044688834,1.5702822,0.78286815,0.03999995,0.03999999,0.019414220095148593,-0.015458708449275337,-0.0029119581220315993,-0.013281766448864958,-0.02637521326195951,0.013789305346694654,0.9999974719106112,-0.0012820508136922103,0.0009467442757669492,0.001586251358950497
1581.89999999889,-0.0013822338,-0.78621423,0.0019741834,-2.3543353,0.0048245275,1.5702269,0.7826134,0.039999954,0.039999995,0.01957857544427899,-0.015824121655486165,-0.002457525497501223,-0.014000120385714493,-0.027067705393382633,0.014524931622044244,0.9999969931405204,-0.0014033205153327051,0.0010547969770296885,0.0017122513794299516
1581.9166666655567,-0.0015046396,-0.78634864,0.0021271983,-2.3541837,0.00519869,1.5701687,0.78234553,0.03999995,0.039999995,0.020805456125327915,-0.016195215054272665,-0.0027009164596858426,-0.01473466732000772,-0.027771488102242677,0.015275518787279143,0.9999964432030287,-0.0015308953813660735,0.0011690954807455525,0.0018447645866194154
1581.9333333322234,-0.0016332251,-0.78649026,0.0022879494,-2.3540237,0.0055917525,1.5701075,0.7820641,0.03999995,0.04,0.021203929005020328,-0.01654140000368733,-0.00282347142985806,-0.015486520489456498,-0.02848700408524637,0.016041273538744835,0.9999958142566989,-0.0016650168518401406,0.0012896747880521997,0.0019839170612081726
1581.94999999889,-0.0017681156,-0.78663933,0.0024565933,-2.353856,0.006004101,1.570043,0.7817688,0.039999947,0.039999995,0.020216628353786348,-0.016888655414407528,-0.0033826880035059403,-0.0162544139119679,-0.02921251112951496,0.016822794752029295,0.9999950985412714,-0.0018058064982753787,0.0014162422480853672,0.0021298390122827535
1581.9666666655567,-0.0019094342,-0.78679585,0.0026332843,-2.3536801,0.006436137,1.5699755,0.78145957,0.039999954,0.04,0.02151231951335042,-0.017250523777147253,-0.0029071479006104184,-0.017038198775441615,-0.0299536671318594,0.01761956516747177,0.9999942868171041,-0.001953329204387578,0.0015492803110236711,0.0022826670121889074
1581.9833333322233,-0.0020573006,-0.78696,0.0028181737,-2.3534956,0.0068882117,1.5699052,0.781136,0.03999996,0.04,0.022157169840086866,-0.017576311386318516,-0.002835560910474655,-0.017838555581962193,-0.030706507894384373,0.018429203905371075,0.9999933691646102,-0.0021077998969944375,0.0016890634716270143,0.0024425132537262335
1581.99999999889,-0.00221183,-0.7871317,0.0030114064,-2.3533027,0.0073606865,1.5698315,0.7807978,0.039999958,0.04,0.02153786265794988,-0.017906579622018956,-0.0032828918319793843,-0.018653921964037284,-0.03146993281469372,0.019253069670638008,0.999992336269301,-0.0022693441364629906,0.0018352108092128437,0.0026094982547074227
1582.0166666655566,-0.0023731377,-0.7873112,0.0032131253,-2.353102,0.007853899,1.5697545,0.7804447,0.039999954,0.039999995,0.020928513451656805,-0.018216554369708277,-0.0036171256316164246,-0.019484647677614014,-0.032246457345153516,0.02008920585530171,0.9999911779408608,-0.0024381164129428827,0.001987580284408564,0.002783730126955616
1582.0333333322233,-0.0025413341,-0.78749853,0.0034234694,-2.352892,0.008368193,1.5696745,0.78007656,0.03999995,0.03999999,0.023611726560157642,-0.018538920431178905,-0.0028132084591847573,-0.0203300904556452,-0.03303917566419089,0.020937934442882354,0.9999898813149208,-0.00261418767075194,0.0021471327045640637,0.002965318151864686
1582.04999999889,-0.0027165262,-0.78769374,0.0036425733,-2.3526723,0.008903889,1.5695912,0.779693,0.039999958,0.04,0.023907820536295254,-0.01884124400751471,-0.003000888216120323,-0.02119063301097825,-0.03384012505288472,0.021798750015599187,0.999988434278204,-0.002797777254578261,0.0023138164357132153,0.003154362972410499
1582.0666666655566,-0.0028988183,-0.78789735,0.003870568,-2.352444,0.009461305,1.5695044,0.7792941,0.039999958,0.04,0.023250434830024425,-0.019138108141763047,-0.003739004111524835,-0.02206500769686769,-0.03465047659689212,0.02267044244861596,0.9999868249701621,-0.0029888646935131067,0.002487490147632849,0.003350965040655025
1582.0833333322232,-0.0030883125,-0.7881091,0.0041075824,-2.3522067,0.010040785,1.5694141,0.7788793,0.03999996,0.039999995,0.022992349946560076,-0.01945649096714349,-0.0036300770327679643,-0.022954175283222973,-0.03547184102563967,0.02355642244371249,0.9999850400868621,-0.0031876996148308104,0.0026680436396470555,0.0035552379357287577
1582.0999999988899,-0.0032851086,-0.78832924,0.004353738,-2.3519607,0.010642576,1.5693203,0.7784486,0.039999958,0.04,0.023156453024286705,-0.019697970917607367,-0.0038506430558138405,-0.02385683329695704,-0.036305590820676435,0.024448431208073405,0.9999830660793741,-0.0033943228126064057,0.002855515352233492,0.0037672482279502172
1582.1166666655565,-0.0034892992,-0.7885577,0.0046091555,-2.351704,0.011266988,1.5692228,0.77800155,0.039999954,0.04,0.026368700697743108,-0.020005635815618754,-0.0031386326561744227,-0.024773765503584053,-0.037153601773672267,0.025352305800829634,0.9999808853406064,-0.0036089650958267445,0.0030508091486747655,0.003987090153564285
1582.1333333322232,-0.0037009781,-0.78879493,0.004873949,-2.3514378,0.011914319,1.5691217,0.7775382,0.03999995,0.039999995,0.024439806471199255,-0.020279943067386466,-0.0039490859652380195,-0.025703345355188888,-0.038005675987090294,0.02626759793140438,0.9999784839460204,-0.003831635584795662,0.003253487523143794,0.004214858562368108
1582.1499999988898,-0.003920234,-0.7890407,0.0051482334,-2.3511631,0.012584837,1.5690169,0.77705806,0.03999995,0.039999995,0.022926956445945557,-0.02053956478148232,-0.004244969220934536,-0.026646289214987483,-0.03886886665542395,0.02719137098216797,0.9999758471908041,-0.004062556563620605,0.0034630248044166855,0.004450632360126461
1582.1666666655565,-0.0041471524,-0.78929514,0.0054321135,-2.3508782,0.013278785,1.5689087,0.7765614,0.039999954,0.04,0.026046931373957527,-0.020789400988877917,-0.003482083384431789,-0.02760136643283584,-0.03974833395139912,0.02812245207474874,0.999972955498224,-0.004301660600169869,0.0036804739372773387,0.004694475457920263
1582.1833333322231,-0.0043818187,-0.7895584,0.0057256958,-2.3505828,0.013996441,1.5687966,0.77604765,0.03999995,0.04,0.026475853444818398,-0.02106244549106729,-0.0037534294328622764,-0.02857040030951664,-0.04063460153009185,0.029063461486671785,0.9999697902999855,-0.004549206422701707,0.003905846799290958,0.0049464703685896255
1582.1999999988898,-0.0046243123,-0.78983045,0.0060290806,-2.3502781,0.014738046,1.568681,0.7755168,0.03999995,0.04,0.024464701775217534,-0.02129658430961006,-0.00409771170095663,-0.02955094933642204,-0.04152714872076815,0.03001241858346066,0.99996633528532,-0.004805237206905556,0.004138648145676562,0.005206686370312794
1582.2166666655564,-0.0048747086,-0.7901114,0.0063423645,-2.3499637,0.0155038275,1.5685617,0.77496874,0.039999947,0.04,0.025441757835675816,-0.021534508620355344,-0.004124817083295262,-0.030544047134622342,-0.04243182071910377,0.030967995822114076,0.9999625703549188,-0.005069836073421268,0.004379158103463176,0.005475182707235361
1582.233333332223,-0.0051330836,-0.79040146,0.00666564,-2.349638,0.016294016,1.5684385,0.77440304,0.039999943,0.04,0.027977019629976674,-0.021777683530160852,-0.0037115327673253873,-0.031549599192598136,-0.04334598357891138,0.03193046734064885,0.9999584715076779,-0.005343239958206177,0.004628105122975956,0.005752016146388267
1582.2499999988897,-0.005399509,-0.79070085,0.0069989976,-2.3493032,0.017108826,1.5683117,0.77381974,0.039999936,0.04,0.024698404652467865,-0.021986714015900105,-0.0047645268696383525,-0.03256566788184995,-0.04426438064693816,0.03289950609501287,0.9999540221920327,-0.0056254312838374485,0.00488463740956915,0.00603724624507881
1582.2666666655564,-0.0056740493,-0.7910093,0.007342521,-2.348958,0.017948465,1.5681808,0.7732187,0.039999936,0.04,0.0266964231850908,-0.022217887047533066,-0.004289433599713455,-0.03359366474883707,-0.04519574338336311,0.03387459749498013,0.9999491988363425,-0.005916531897736016,0.005149155865857199,0.006330923370949889
1582.283333332223,-0.005956773,-0.79132706,0.0076962947,-2.3486018,0.018813161,1.5680461,0.7725997,0.039999943,0.04,0.027856359192734992,-0.02245503937324464,-0.004098425929632832,-0.03463282629006619,-0.046135578804330696,0.03485755493320603,0.999943976106659,-0.0062166585697225295,0.005422151366633388,0.0066331047624854965
1582.2999999988897,-0.0062477407,-0.79165417,0.008060397,-2.348236,0.019703085,1.5679076,0.77196264,0.039999947,0.04,0.025493351082750415,-0.02263703715259177,-0.004794628707460724,-0.035682674721853824,-0.04707954498789564,0.035843931274967,0.9999383342635279,-0.006525889734139046,0.005702952746717716,0.0069438291617575035
1582.3166666655563,-0.006547013,-0.7919907,0.008434897,-2.3478591,0.020618426,1.5677649,0.77130735,0.039999947,0.04,0.028292887901315567,-0.02285407270944638,-0.004437913297450358,-0.03674347374781916,-0.04803526483336269,0.0368355845391714,0.9999322449572067,-0.006844351655601058,0.005992260385217774,0.007263137113615428
1582.333333332223,-0.0068546454,-0.7923365,0.008819868,-2.3474722,0.021559333,1.5676184,0.77063376,0.039999943,0.04,0.026254816869175635,-0.02301776974561326,-0.004664113421481986,-0.03781411764568225,-0.04899580257671668,0.037829872259641906,0.9999256860932941,-0.00717209364638503,0.006289612415217173,0.007591056530467068
1582.3499999988896,-0.0071706916,-0.79269195,0.009215377,-2.3470747,0.022525981,1.5674678,0.7699417,0.039999943,0.04,0.027325639164210713,-0.0232218340426079,-0.004870265654965955,-0.03889543400573173,-0.049966828056792686,0.03882861109995439,0.9999186298156671,-0.007509240650298438,0.006595292905184415,0.007927620318205021
1582.3666666655563,-0.0074952026,-0.793057,0.009621487,-2.346666,0.023518557,1.5673131,0.769231,0.039999947,0.04,0.028579253345872857,-0.023433922769092175,-0.004752298746724115,-0.039986433460056744,-0.050945710009459674,0.039832029916983744,0.9999110467556579,-0.007855888433750706,0.00690964588943533,0.0082728705177553
1582.383333332223,-0.007828225,-0.7934316,0.010038258,-2.3462472,0.024537165,1.5671542,0.76850146,0.03999995,0.04,0.026764456399752667,-0.023568376225666793,-0.00510941739817472,-0.04108686784437017,-0.05192985351059899,0.040835763162223815,0.9999029123234351,-0.008212210822753158,0.007232122380167402,0.008626814382711337
1582.3999999988896,-0.008169803,-0.7938158,0.010465748,-2.3458169,0.025581948,1.5669913,0.76775384,0.039999947,0.04,0.029078940454163593,-0.02376061890382447,-0.004602300317047003,-0.04219564515786015,-0.05292423841833474,0.041842550170875764,0.9998941959292686,-0.008577834865939236,0.007563539709467167,0.008989469563735754
1582.4166666655562,-0.008519979,-0.79420966,0.0109040085,-2.3453765,0.026653035,1.5668243,0.76698726,0.039999943,0.04,0.02657064865769776,-0.023902090306451504,-0.005441780666481932,-0.043316822442898376,-0.05392047232802403,0.042850433697671955,0.9998848710267403,-0.008953229866784219,0.007903084223990286,0.009360856079446417
1582.433333332223,-0.008878797,-0.79461306,0.01135309,-2.3449242,0.027750548,1.5666533,0.76620144,0.03999995,0.04,0.029737700074816686,-0.024083093170276793,-0.004555954278440133,-0.0444466691285159,-0.05492834744082247,0.04386039069766009,0.999874898669208,-0.009338594103835845,0.008251728172056128,0.009740978060729554
1582.4499999988896,-0.00924629,-0.7950266,0.011813036,-2.3444617,0.028874636,1.566478,0.76539683,0.039999954,0.04,0.027518240062041066,-0.024244130036315745,-0.005761704074247476,-0.04558381502557982,-0.055937697658117846,0.04487433232213352,0.9998642545567669,-0.009733716288317122,0.008608891223784944,0.010129867657399866
1582.4666666655562,-0.009622488,-0.79545003,0.01228389,-2.3439875,0.030025363,1.5662986,0.7645731,0.03999996,0.04,0.02970182319455006,-0.024384032703198347,-0.005100826562531857,-0.04673087533934459,-0.056954910768809826,0.04588544250089603,0.9998529001164589,-0.010138826603015063,0.00897518880860549,0.010527502537168007
1582.4833333322229,-0.010007425,-0.7958831,0.012765684,-2.3435028,0.031202832,1.5661151,0.7637303,0.03999996,0.04,0.027454031993578987,-0.024502417892840328,-0.005436104514133788,-0.04788570486148703,-0.0579746397717042,0.04689730105752356,0.9998408085801832,-0.010553918722863327,0.00934998364764108,0.010933896977090669
1582.4999999988895,-0.010401127,-0.7963261,0.013258462,-2.343007,0.032407127,1.5659275,0.7628682,0.03999996,0.04,0.02849760827137171,-0.02465352486585269,-0.005545404612505855,-0.04904934274732138,-0.05900215641789334,0.04790787667154986,0.999827942770495,-0.01097913197315955,0.00973359328072874,0.011349038650078863
1582.5166666655562,-0.01080362,-0.7967792,0.013762258,-2.3425004,0.033638317,1.5657352,0.7619869,0.039999958,0.04,0.02860891380755959,-0.024782792606648646,-0.006118639169128137,-0.05022048626917813,-0.060034995879037274,0.04891760435184088,0.9998142693464316,-0.011414512396103705,0.010125917512514978,0.011772914360940414
1582.5333333322228,-0.011214929,-0.7972422,0.01427709,-2.3419821,0.034896452,1.5655391,0.7610863,0.03999996,0.04,0.02985051228798774,-0.024881175199714667,-0.005149184330721646,-0.05139958456630146,-0.0610751113198637,0.0499252243052735,0.9997997459884748,-0.011860129811431195,0.010527631583262925,0.01220549939512585
1582.5499999988895,-0.011635071,-0.79771507,0.014802991,-2.3414528,0.036181614,1.5653387,0.7601663,0.03999995,0.039999995,0.028414070557025717,-0.02501582053801854,-0.005839444715571851,-0.052586201088199946,-0.06211467727396966,0.05093183331394027,0.9997843420909783,-0.012316056006168488,0.010938129939244447,0.012646793569707092
1582.566666665556,-0.012064067,-0.79819787,0.015339978,-2.3409126,0.03749383,1.565134,0.7592269,0.03999995,0.04,0.02855143384397074,-0.025097924803536148,-0.005994546346510532,-0.0537800644240504,-0.06316096565666361,0.051934827765535284,0.9997680201423319,-0.012782332777899195,0.011357492099042544,0.013096764587371142
1582.5833333322228,-0.012501928,-0.7986909,0.015888073,-2.3403609,0.038833182,1.5649252,0.7582681,0.03999995,0.04,0.029739757934699185,-0.02525232300808894,-0.005982234507162509,-0.05498129695203954,-0.06421211335721813,0.05293747988324016,0.9997507362588304,-0.013259046222884313,0.011786185784629874,0.013555399951173863
1582.5999999988894,-0.012948666,-0.79919386,0.01644729,-2.3397982,0.04019971,1.5647124,0.75728995,0.03999995,0.039999995,0.028618860449469707,-0.025337960401977666,-0.0058706590732704456,-0.056189209181884095,-0.06526598482269524,0.053937003422189475,0.9997324551362771,-0.013746204237988828,0.012223933252278892,0.014022677065496517
1582.616666665556,-0.013404292,-0.79970676,0.017017642,-2.3392243,0.04159342,1.5644953,0.75629216,0.039999954,0.04,0.028977922496364883,-0.025424144196172643,-0.006165520620449172,-0.057403948446635975,-0.0663218557351468,0.05493155449363264,0.9997131356609071,-0.014243977298088292,0.012670727128104544,0.014498557576993483
1582.6333333322227,-0.013868812,-0.8002298,0.01759913,-2.3386393,0.043014336,1.5642737,0.7552751,0.039999958,0.04,0.029099935189114134,-0.025509238550785324,-0.006543190053975856,-0.05862488329113886,-0.06738367551492588,0.05592294685857964,0.9996927396013785,-0.014752267906159177,0.013126556534206186,0.014983006823389338
1582.6499999988894,-0.014342235,-0.80076283,0.018191768,-2.338043,0.044462495,1.564048,0.7542384,0.03999995,0.04,0.029134507399009024,-0.025609600848782582,-0.006214451357311468,-0.05985258019202546,-0.06844855566438153,0.05690989760719776,0.999671221251396,-0.015271240298452523,0.013591623391966448,0.01547599415418608
1582.666666665556,-0.014824559,-0.80130583,0.018795552,-2.3374352,0.045937866,1.563818,0.75318235,0.03999996,0.04,0.029360582575188587,-0.025670085784305213,-0.006445561211765316,-0.061086127775184976,-0.06951565750416275,0.057892236801348154,0.9996485402620303,-0.015800892379284864,0.014065858628244636,0.01597746453792337
1582.6833333322227,-0.01531578,-0.801859,0.01941049,-2.336816,0.04744048,1.5635837,0.7521068,0.03999995,0.04,0.029707538495182817,-0.025778565099641992,-0.006517327363186887,-0.062325907086829474,-0.07058599339999572,0.05886924218084429,0.9996246492068249,-0.016341310012368944,0.014549522731040014,0.016487379218987273
1582.6999999988893,-0.015815897,-0.8024223,0.020036574,-2.3361866,0.04897029,1.5633453,0.75101167,0.03999995,0.04,0.02754289329329751,-0.02578621007756146,-0.007008769430227879,-0.06357093644256058,-0.0716559344988635,0.05984087364062733,0.9995995133609606,-0.01689255524348463,0.015041982543713738,0.017005682198345085
1582.716666665556,-0.01632491,-0.8029953,0.020673793,-2.3355455,0.0505273,1.5631026,0.749897,0.03999995,0.04,0.029624450351617426,-0.025882196047002926,-0.006459324811824985,-0.06482137543195704,-0.07273342461715453,0.060806589118262214,0.9995730800431254,-0.01745469611971426,0.015543766730379605,0.017532328775713393
1582.7333333322226,-0.016842801,-0.8035786,0.021322142,-2.3348932,0.052111495,1.5628557,0.7487629,0.039999954,0.04,0.029375857767099944,-0.02595604209529173,-0.006957825747755386,-0.0660766071828487,-0.07381125752351632,0.06176591590432545,0.9995453033631528,-0.01802773074793138,0.01605495574600081,0.018067258915972387
1582.7499999988893,-0.017369572,-0.8041718,0.021981608,-2.3342292,0.053722832,1.5626044,0.7476093,0.039999954,0.04,0.029720162767610248,-0.026000103082157028,-0.006837669007797587,-0.06733705494393578,-0.07488945851782224,0.0627185613113024,0.999516136878769,-0.018611745596495533,0.016575512718867903,0.01861041168002468
1582.766666665556,-0.0179052,-0.8047748,0.022652173,-2.3335543,0.055361263,1.5623491,0.74643636,0.03999996,0.04,0.028555522347506468,-0.02602683448444873,-0.006921329624631767,-0.06860152083940288,-0.07596790691080736,0.06366410575203674,0.9994855378554965,-0.01920672566833404,0.017105250291265955,0.01916172537334513
1582.7833333322226,-0.018449675,-0.80538785,0.023333818,-2.3328683,0.05702677,1.5620893,0.74524397,0.039999958,0.04,0.02863144010318841,-0.02608788496122269,-0.007405134617899378,-0.06987101519001865,-0.07704908197967784,0.06460210332967209,0.9994534589244923,-0.01981275941477009,0.017644102309305878,0.019721147581699842
1582.7999999988892,-0.019002978,-0.8060107,0.024026519,-2.3321712,0.058719277,1.5618255,0.7440322,0.039999958,0.04,0.02896538243977176,-0.026111930409655065,-0.007054200948775069,-0.07114424790891825,-0.07813175543035208,0.06553234194818577,0.9994198483978567,-0.020429874602042764,0.018192298836490026,0.02028859569299077
1582.8166666655559,-0.019565077,-0.80664355,0.024730254,-2.331463,0.06043872,1.5615575,0.74280125,0.039999958,0.04,0.02864696458808602,-0.02614947292739339,-0.007421546300911963,-0.07242128814012226,-0.07921548623903127,0.06645352712324087,0.9993846605266776,-0.02105804382697966,0.01874974105629144,0.020863995410285465
1582.8333333322225,-0.020135975,-0.80728656,0.025444994,-2.3307436,0.06218503,1.5612855,0.7415511,0.039999954,0.04,0.029763926190495837,-0.026168809525634745,-0.00742395921078387,-0.07370282095341132,-0.0803003080013148,0.06736760248772222,0.9993478371913026,-0.021697324934997524,0.01931686827885347,0.021447260702207756
1582.8499999988892,-0.020715624,-0.8079394,0.026170706,-2.330013,0.06395812,1.561009,0.74028176,0.039999958,0.04,0.028431419736518748,-0.026188046094841044,-0.007759572961574257,-0.07498820909772795,-0.08138210636898809,0.06827133312315842,0.9993093382449042,-0.02234777820361399,0.019893106961603933,0.02203832119985506
1582.8666666655558,-0.021304019,-0.80860215,0.026907362,-2.3292713,0.06575799,1.5607283,0.7389932,0.039999954,0.04,0.02894504501402828,-0.02625092891571021,-0.007742498828466893,-0.07627684035610874,-0.0824642131866573,0.06916734481887055,0.9992691072210655,-0.023009461002625128,0.020478688712308353,0.02263712363812711
1582.8833333322225,-0.021901118,-0.8092747,0.027654923,-2.3285186,0.067584455,1.5604435,0.7376856,0.03999996,0.04,0.028482744900637513,-0.0261979823960104,-0.007703893555688346,-0.07756822366654373,-0.08354736576710912,0.07005273451452902,0.9992270950926326,-0.023682370072068783,0.02107357379676722,0.02324354249981123
1582.8999999988891,-0.02250689,-0.8099569,0.028413357,-2.327755,0.06943745,1.5601546,0.736359,0.039999954,0.04,0.028372717302804773,-0.02623274187892738,-0.007877879319484471,-0.07886237013968135,-0.08462961370071392,0.07092829864362074,0.999183250887203,-0.024366539270528124,0.021677694434304243,0.023857503525547743
1582.9166666655558,-0.023121303,-0.8106489,0.029182605,-2.3269806,0.071316876,1.5598617,0.73501354,0.039999966,0.04,0.028108167482754354,-0.026204998683448943,-0.007953133131066714,-0.08015915233601019,-0.08571081199460709,0.07179367172235551,0.9991375226065833,-0.025061928757213754,0.02229110055228402,0.024478919149251533
1582.9333333322224,-0.023744322,-0.8113507,0.029962646,-2.326195,0.073222645,1.5595644,0.73364913,0.039999958,0.04,0.02875199330500955,-0.026270213116202923,-0.008260186006991965,-0.08145920148047546,-0.08679164859799443,0.07264892351638307,0.9990898536117878,-0.02576868366592039,0.02291381492874122,0.02510769677834813
1582.949999998889,-0.024375914,-0.81206214,0.030753415,-2.3253994,0.0751546,1.5592632,0.732266,0.039999966,0.04,0.02678003026934661,-0.026155011368161896,-0.008300418615636573,-0.08276023970577681,-0.08786992483175712,0.07349185912987054,0.9990402014049473,-0.02648670287817267,0.02354549934247292,0.02574373726014754
1582.9666666655557,-0.025016036,-0.8127831,0.031554863,-2.324593,0.07711265,1.5589582,0.7308642,0.039999966,0.04,0.02782644136352097,-0.026187152818200887,-0.00818598764673606,-0.08406381567711985,-0.08895072626122069,0.07432524184029307,0.9989885053683811,-0.0272160364724689,0.024186412631785878,0.0263869464808286
1582.9833333322224,-0.025664642,-0.8135136,0.03236694,-2.323776,0.079096645,1.558649,0.7294439,0.03999997,0.04,0.027667672681319644,-0.026165565407154645,-0.008454123646339795,-0.08536918101155445,-0.09002817388677939,0.07514615307712924,0.9989347147390515,-0.027956693324916456,0.024836425062132548,0.02703721468049905
1582.999999998889,-0.026321692,-0.8142536,0.03318961,-2.3229477,0.0811065,1.5583355,0.7280052,0.03999996,0.04,0.02860473746948422,-0.026227611347665047,-0.00850218546586401,-0.0866760370802653,-0.09110617452717774,0.07595509975512996,0.9988787663580024,-0.02870869874466365,0.025495853335594846,0.02769444345338993
1583.0166666655557,-0.026987132,-0.8150033,0.03402279,-2.3221087,0.083142005,1.5580182,0.72654784,0.039999966,0.04,0.02785909123592667,-0.026102733285399138,-0.008631977379280897,-0.08798445738643663,-0.09217874591549788,0.0767519653840418,0.998820604275415,-0.02947218395722459,0.02616460131648974,0.028358499354432336
1583.0333333322224,-0.02766093,-0.81576234,0.03486643,-2.32126,0.08520306,1.5576968,0.72507226,0.03999997,0.04,0.02597537990940424,-0.02605731881497736,-0.009063728528113657,-0.08929292309860377,-0.09324857198439387,0.07753650541087155,0.9987601922243216,-0.03024700379564268,0.026842060354495198,0.029029312519387996
1583.049999998889,-0.028343033,-0.8165307,0.035720475,-2.3204,0.08728953,1.5573716,0.7235784,0.03999997,0.04,0.02836890825332894,-0.02610296078225799,-0.00846423581903899,-0.09060248832439807,-0.09431872847726801,0.07830884777930078,0.9986974500367841,-0.031033290960232635,0.027529024409290594,0.029706749355577895
1583.0666666655557,-0.029033385,-0.8173084,0.03658484,-2.31953,0.08940121,1.5570425,0.72206664,0.039999973,0.04,0.026332285376584608,-0.025960703784388972,-0.009133208916356494,-0.09191145445818512,-0.09538330577995277,0.07906756938700926,0.9986323433876173,-0.03183086452522239,0.028224882422317556,0.030390702788505003
1583.0833333322223,-0.029731935,-0.81809545,0.03745948,-2.3186495,0.09153797,1.5567094,0.72053695,0.039999977,0.04,0.027067733707619723,-0.025988584940035697,-0.009075683368631182,-0.09322172553675145,-0.0964459573190491,0.07981299619018947,0.9985648062321651,-0.032639840088427026,0.02892986207612083,0.031081050075202305
1583.099999998889,-0.030438628,-0.8188914,0.038344316,-2.3177586,0.09369963,1.5563724,0.7189894,0.03999997,0.04,0.02666237322004328,-0.025904881286901993,-0.008981769585081345,-0.09453196087393821,-0.09750383062063975,0.08054486166761096,0.9984947852960557,-0.03346024038242845,0.029643803298611757,0.03177768047115545
1583.1166666655556,-0.031153396,-0.8196967,0.03923927,-2.3168583,0.09588598,1.5560315,0.71742404,0.03999998,0.04,0.02504961570610753,-0.02578802986397677,-0.009791913009027375,-0.09584163092479851,-0.09855912149155424,0.08126287163935417,0.9984222357340279,-0.03429204526477783,0.030366335690138718,0.03248046305362005
1583.1333333322223,-0.031876188,-0.820511,0.040144283,-2.3159468,0.09809691,1.5556867,0.7158411,0.03999998,0.04,0.027893048130822606,-0.025873823924832395,-0.008951373740839763,-0.09715035755036716,-0.09961503174640444,0.0819677892563482,0.998347074458342,-0.035135282360159614,0.031098277255333,0.033189275461988806
1583.149999998889,-0.03260694,-0.8213342,0.04105926,-2.3150256,0.10033218,1.5553383,0.71424073,0.039999977,0.04,0.025459518311166107,-0.025674409936909948,-0.009475087457033737,-0.09845768203638774,-0.10066193415004425,0.08265745264545948,0.9982692646337399,-0.035989902277091465,0.03183898980197364,0.03390399607844925
1583.1666666655556,-0.033345595,-0.8221663,0.041984137,-2.3140955,0.102591574,1.554986,0.7126231,0.039999977,0.04,0.023753041167173805,-0.025562077065467703,-0.01000749952366764,-0.0997641037426445,-0.10170405976525315,0.08333271786030129,0.9981887686018304,-0.03685582501215795,0.03258795048954875,0.034624498302869074
1583.1833333322222,-0.034092076,-0.8230074,0.04291884,-2.313155,0.10487497,1.55463,0.7109884,0.039999977,0.04,0.02663912518974243,-0.025638297132588028,-0.009537996494013434,-0.10106925245114216,-0.10274914655542128,0.0839933802168551,0.9981054972962367,-0.037733113792250916,0.03334606566762923,0.03535064773187656
1583.1999999988889,-0.03484634,-0.82385707,0.043863267,-2.3122041,0.1071821,1.5542704,0.70933664,0.039999984,0.04,0.025815029717879412,-0.02545931017869235,-0.009521419488045524,-0.10237324224134586,-0.10378472232559921,0.08463898117252369,0.9980194015918894,-0.03862177226507096,0.034113052866805674,0.03608230005665396
1583.2166666655555,-0.035608307,-0.8247155,0.044817343,-2.3112445,0.10951277,1.553907,0.70766807,0.03999998,0.04,0.023524314754164166,-0.025330567907473622,-0.01023526740682179,-0.10367471693066198,-0.10481499054926842,0.08527029649873276,0.997930447037727,-0.0395217068740179,0.034888299295161525,0.036819344550625355
1583.2333333322222,-0.0363779,-0.8255823,0.045780975,-2.3102744,0.11186678,1.5535401,0.7059827,0.03999998,0.04,0.026019422233591882,-0.025340768292672622,-0.009541293164949671,-0.10497428608360364,-0.10584375903685288,0.08588630563741773,0.9978385463496015,-0.040433031763912844,0.035672532633401,0.03756162638666967
1583.2499999988888,-0.037155055,-0.8264579,0.046754073,-2.309295,0.114243925,1.5531696,0.7042807,0.039999977,0.04,0.02432883738348046,-0.025193039083694357,-0.010301155681258223,-0.10627102321040274,-0.10686284763083495,0.08648582552924103,0.9977436568609056,-0.041355682062078465,0.03646534841936585,0.03830902138742442
1583.2666666655555,-0.0379397,-0.827342,0.047736548,-2.3083065,0.11664394,1.5527954,0.70256233,0.03999998,0.04,0.02351835063776342,-0.025051896044213373,-0.010403257590785309,-0.10756432727495238,-0.1078770468945616,0.08706982211304584,0.9976457360349239,-0.042289557481376326,0.03726642714256276,0.039061388958825216
1583.2833333322221,-0.038731754,-0.8282344,0.0487283,-2.3073087,0.119066626,1.5524179,0.7008278,0.039999984,0.04,0.02389867420040659,-0.024971411623797568,-0.010142059851148133,-0.10885497757770317,-0.10888758480435973,0.08763866208334539,0.9975447162386655,-0.04323466223828391,0.038076017488897856,0.039818588343226005
1583.2999999988888,-0.039531145,-0.82913506,0.04972924,-2.3063014,0.121511735,1.5520368,0.6990771,0.039999984,0.04,0.024119531992061738,-0.024885615044881182,-0.010354409938861941,-0.11014210589357243,-0.10989186659940833,0.08819049087609175,0.9974405392840389,-0.04419100981476146,0.038894098848324385,0.0405804672113842
1583.3166666655554,-0.04033779,-0.8300439,0.050739273,-2.3052843,0.12397902,1.551652,0.6973106,0.039999988,0.04,0.024318272654788586,-0.02479203174707012,-0.010444786795060779,-0.11142572729345876,-0.11088908019840545,0.08872614046896751,0.9973331483457378,-0.04515855618500286,0.03972067700821187,0.04134687209540385
1583.333333332222,-0.041151613,-0.83096087,0.051758286,-2.3042586,0.12646827,1.5512638,0.69552845,0.039999988,0.04,0.022303660404965342,-0.024600527405610473,-0.010641521923049346,-0.1127050576311652,-0.1118771777807468,0.08924636050590964,0.9972225043585807,-0.04613720990681123,0.04055531635457734,0.04211770385711401
1583.3499999988887,-0.041972518,-0.83188576,0.052786198,-2.303224,0.12897924,1.5508723,0.6937309,0.03999999,0.04,0.022477263472087117,-0.0245283515060285,-0.01060076233594387,-0.11398031421115436,-0.11285926298332541,0.08974972218457253,0.9971085518807355,-0.04712690236707415,0.041398048564207264,0.042892801431734615
1583.3666666655554,-0.042800445,-0.8328185,0.05382288,-2.3021812,0.1315116,1.5504775,0.69191754,0.039999988,0.04,0.021550759929800378,-0.024268956103271067,-0.010837485017600734,-0.11525170586701584,-0.113836713404877,0.0902357570925367,0.9969912336827329,-0.04812785617154097,0.042248625618872236,0.043671993925513686
1583.383333332222,-0.043635298,-0.83375937,0.054868247,-2.3011293,0.13406515,1.5500793,0.69008917,0.039999995,0.04,0.022992851795322622,-0.02427606449969255,-0.010960944868343425,-0.11651627865517379,-0.11480921789979867,0.09070504603236197,0.9968704854524014,-0.04913979391585131,0.04310751310785002,0.044455125705116214
1583.3999999988887,-0.044477005,-0.8347078,0.055922195,-2.3000689,0.13663964,1.5496778,0.688246,0.03999999,0.04,0.02155216675765459,-0.024086747236976014,-0.010865844648644263,-0.1177763932828782,-0.11577085481382,0.09115834048793428,0.9967462740371954,-0.05016261472191499,0.043974210130020584,0.04524208351380065
1583.4166666655553,-0.04532545,-0.8356638,0.056984592,-2.2989993,0.13923477,1.5492731,0.6863879,0.04,0.04,0.022370632390522616,-0.023961494881988288,-0.010806524027828779,-0.11903180596886757,-0.1167262141264159,0.09159352943317406,0.9966185213956729,-0.05119648802861094,0.044849023507178246,0.04603267877379985
1583.433333332222,-0.046180576,-0.8366272,0.058055338,-2.2979214,0.14185025,1.5488656,0.68451524,0.039999995,0.04,0.02103387813523483,-0.023727482812690992,-0.010765735899753714,-0.12028067391175987,-0.11767204808789186,0.09201171913616239,0.9964871917676803,-0.05224120604466824,0.045731683698016654,0.046826767346309944
1583.4499999988886,-0.047042284,-0.837598,0.05913433,-2.296836,0.14448595,1.5484546,0.6826283,0.04,0.04,0.019646085740632202,-0.023674752191171766,-0.011488178556451345,-0.12152383118605233,-0.11860822124403993,0.09241431038743864,0.996352253477046,-0.053296697412154655,0.04662162990644115,0.047624286462224295
1583.4666666655553,-0.047910478,-0.83857626,0.06022144,-2.2957418,0.1471414,1.5480406,0.680727,0.04,0.04,0.021247929325207693,-0.0234233910271886,-0.01117434293496089,-0.12276098035293147,-0.1195397317449587,0.09279755607429001,0.9962136258105625,-0.05436304244877416,0.04751942510409433,0.048424948145161927
1583.483333332222,-0.04878506,-0.8395618,0.061316557,-2.2946398,0.14981641,1.5476236,0.6788118,0.04,0.04,0.019952775817166923,-0.02329941808712488,-0.01138433317156018,-0.1239907213890611,-0.12046201741296599,0.09316444280312224,0.996071272463126,-0.05544008534316885,0.04842474126803089,0.04922866587625286
1583.4999999988886,-0.049665954,-0.84055424,0.062419567,-2.2935302,0.15251066,1.5472035,0.67688274,0.04,0.04,0.0189287553315598,-0.023069492220353927,-0.011330065966630443,-0.12521375688066827,-0.1213739564754096,0.09351223817642132,0.9959251594336177,-0.0565277905298212,0.04933716304750713,0.050035288021192316
1583.5166666655552,-0.050553042,-0.8415537,0.06353035,-2.292413,0.1552239,1.5467803,0.6749401,0.04,0.04,0.019067170534059485,-0.022968910089229966,-0.011607765143284432,-0.12642907605109863,-0.12228046866335962,0.09384344235329184,0.9957752295854339,-0.05762610463936667,0.05025677635787903,0.05084467168035709
1583.533333332222,-0.05144624,-0.84256035,0.064648755,-2.2912874,0.15795578,1.5463545,0.672984,0.04,0.04,0.020609905318380584,-0.022749805854699323,-0.011370739486382675,-0.12763704926551864,-0.1231782173163044,0.09415673732426588,0.9956213970542349,-0.058735028460360106,0.051184259547681715,0.05165657493572053
1583.5499999988886,-0.052345444,-0.8435736,0.065774724,-2.290154,0.16070603,1.5459259,0.6710149,0.04,0.04,0.01893464026849756,-0.022641494252212402,-0.011336117248506028,-0.1288366205409874,-0.12406133162476336,0.09445476804572334,0.9954636499043613,-0.05985436510421789,0.052118917634333906,0.052470897854752785
1583.5666666655552,-0.053250555,-0.8445935,0.066908054,-2.2890134,0.16347437,1.5454942,0.6690328,0.04,0.04,0.017799781573080153,-0.02233298778456516,-0.011863285539126522,-0.1300284474403316,-0.12493442204486586,0.0947328554005552,0.9953019488355714,-0.060984106897363353,0.0530604296995149,0.053287523400392826
1583.5833333322219,-0.05416148,-0.8456201,0.06804867,-2.2878654,0.16626045,1.5450598,0.6670381,0.04,0.04,0.01810101958601429,-0.02218880330870643,-0.011697035288760205,-0.13121157310310766,-0.1257984159029461,0.09499294597092602,0.9951362410302796,-0.06212413688373393,0.0540089585811459,0.05410624545795481
1583.5999999988885,-0.055078123,-0.84665304,0.06919645,-2.2867103,0.16906396,1.5446228,0.66503084,0.04,0.04,0.01741742517413769,-0.021956296373676354,-0.011635943445775787,-0.13238570979221537,-0.1266523348593394,0.09523550507487352,0.9949664852456704,-0.06327441695235371,0.0549643210550781,0.054926904228904755
1583.6166666655552,-0.05600037,-0.84769243,0.07035125,-2.285548,0.17188454,1.544183,0.6630114,0.04,0.04,0.017365828636695113,-0.021750827552768914,-0.011908749201960944,-0.13355103783544092,-0.12749638249900605,0.09546027376806253,0.994792638140452,-0.06443484751847833,0.05592647492814502,0.05574932222854144
1583.6333333322218,-0.05692812,-0.848738,0.071512945,-2.2843788,0.17472203,1.5437405,0.6609798,0.04,0.04,0.016648571744015683,-0.02163654975044782,-0.01192862037167064,-0.13470670671496762,-0.12832838690010076,0.09566815146478122,0.9946146577346094,-0.06560539675062084,0.056895181233231396,0.056573429179227884
1583.6499999988885,-0.05786126,-0.8497896,0.07268138,-2.2832026,0.17757596,1.5432955,0.65893644,0.04,0.04,0.016472301848935444,-0.021290018211408968,-0.011765389240459001,-0.13585236254748484,-0.12915007980345264,0.09585720412599791,0.9944325040519105,-0.06678593619871052,0.057870452849933376,0.057398992134466066
1583.666666665555,-0.058799703,-0.8508473,0.07385644,-2.2820196,0.18044609,1.542848,0.65688133,0.04,0.04,0.01646985197383266,-0.021154051997895884,-0.011951128860743232,-0.13698774113655032,-0.1299597575313513,0.09602938944590021,0.9942461222299548,-0.06797647787074373,0.05885231351896731,0.058225871229645544
1583.6833333322218,-0.059743322,-0.8519108,0.07503801,-2.2808304,0.18333209,1.5423981,0.65481496,0.04,0.04,0.014959162154593031,-0.02090072026497969,-0.011980528937716173,-0.1381118833660422,-0.13075618456321655,0.09618290406072832,0.9940555014514885,-0.06917678441438382,0.05984032871298289,0.05905393798585949
1583.6999999988884,-0.06069204,-0.85297996,0.07622593,-2.2796345,0.18623357,1.5419456,0.65273744,0.04,0.04,0.015357148996075765,-0.020644461242877443,-0.011998397850665476,-0.13922586839775244,-0.13154335721092497,0.09631932971826655,0.993860595877952,-0.07038684120520997,0.060834486172187875,0.05988300124777433
1583.716666665555,-0.061645705,-0.85405475,0.07742007,-2.2784326,0.18915024,1.5414908,0.65064913,0.04,0.04,0.01425977570423953,-0.02042790923874882,-0.012078520223002265,-0.14032838585348806,-0.13231760910853999,0.09643894255144428,0.9936613769427405,-0.07160647509415384,0.061834620576097496,0.060712934330812485
1583.7333333322217,-0.06260424,-0.855135,0.0786203,-2.2772245,0.19208176,1.5410336,0.64855015,0.04,0.04,0.014355105981112004,-0.020185635528080503,-0.012105533277795288,-0.14141947428981463,-0.13308186887952203,0.09653842769551671,0.9934578022802366,-0.07283565947666137,0.06284068865267972,0.06154355893819556
1583.7499999988884,-0.063567504,-0.8562208,0.07982646,-2.2760103,0.1950278,1.5405742,0.6464408,0.04,0.04,0.014328627698745322,-0.019975921729153967,-0.012159269102185455,-0.1424986909800587,-0.1338328547529547,0.09662182512042672,0.9932498294956119,-0.07407428480607274,0.06385273043961537,0.062374717256373384
1583.766666665555,-0.06453544,-0.8573117,0.08103845,-2.27479,0.19798805,1.5401127,0.6443213,0.04,0.04,0.013618084835398392,-0.01972830407906967,-0.011934111312172924,-0.14356609906832823,-0.1345705574965709,0.09668746727093988,0.9930374306088007,-0.07532222045729674,0.06487058071016902,0.06320626767638889
1583.7833333322217,-0.065507874,-0.8584078,0.082256116,-2.2735648,0.20096202,1.5396491,0.6421919,0.04,0.04,0.011776082850456504,-0.01932104320654382,-0.012281434162453309,-0.14462078516046672,-0.13529428081317313,0.0967346959987079,0.9928206072927195,-0.0765793642753587,0.06589365735068303,0.06403802482157228
1583.7999999988883,-0.06648471,-0.8595089,0.0834793,-2.2723339,0.2039495,1.5391834,0.640053,0.04,0.04,0.012813894551033655,-0.019217059845472173,-0.012178012325558818,-0.14566288984981599,-0.13600851378457693,0.09676554885673022,0.9925993080606493,-0.07784554223172137,0.06692223100051689,0.06486987120445768
1583.816666665555,-0.06746584,-0.8606146,0.08470784,-2.2710972,0.20695014,1.5387154,0.6379047,0.04,0.04,0.012315422937847487,-0.018950335956771647,-0.012106341389173103,-0.14669228655684446,-0.13670776770027426,0.09677829188695969,0.9923735071959437,-0.07912070684644935,0.0679560504741081,0.06570168314206987
1583.8333333322216,-0.06845115,-0.8617252,0.08594158,-2.2698548,0.2099635,1.5382456,0.63574725,0.04,0.04,0.012664503040671349,-0.01859731065365633,-0.012080762172828052,-0.14770839037642472,-0.13739581026634856,0.09677377659950206,0.9921431514045579,-0.08040477484564017,0.0689954462235433,0.06653320752427776
1583.8499999988883,-0.06944052,-0.8628404,0.08718043,-2.2686083,0.21298923,1.5377737,0.6335807,0.04,0.04,0.009292326088594649,-0.018232205978513383,-0.012419785522821414,-0.148710701914324,-0.13806572448761603,0.09675091761326884,0.9919082780189227,-0.08169764691166283,0.07003931029244954,0.06736436372735143
1583.866666665555,-0.07043386,-0.8639599,0.08842419,-2.2673569,0.21602705,1.5373,0.6314051,0.04,0.04,0.01060315096803599,-0.01804560345705364,-0.012043747674161942,-0.1496978990246864,-0.13872674686221384,0.09671359565188387,0.9916688203348244,-0.08299930843456821,0.07108801195507246,0.06819501544392162
1583.8833333322216,-0.07143104,-0.86508393,0.08967276,-2.2660997,0.21907654,1.5368245,0.6292217,0.04,0.04,0.012027688802929148,-0.017887029694682588,-0.012157537787493844,-0.15066977158781908,-0.13937473240135959,0.0966573373229831,0.9914247489992865,-0.08430928823567427,0.07214201723030264,0.06902492548955498
1583.8999999988882,-0.072431885,-0.86621225,0.09092599,-2.2648382,0.22213732,1.5363472,0.6270304,0.04,0.04,0.009226771890924468,-0.017493995810968777,-0.012321896880829186,-0.1516288751467479,-0.14000425637953046,0.0965851261531293,0.9911760872871227,-0.08562752636933108,0.07320048296200439,0.06985399066759913
1583.9166666655549,-0.07343633,-0.86734456,0.09218371,-2.2635725,0.22520904,1.5358684,0.6248309,0.04,0.04,0.008986757956197522,-0.01712573866364253,-0.01192768811399958,-0.1525734059201253,-0.14061970845628233,0.09649451811842778,0.9909227859059153,-0.08695412602360934,0.07426343708414604,0.07068206457354453
1583.9333333322215,-0.07444426,-0.8684807,0.09344576,-2.262302,0.2282914,1.5353879,0.62262386,0.04,0.04,0.009391556444127147,-0.016949066135760193,-0.012067520803626941,-0.153502108351931,-0.14122200721628625,0.0963888862068468,0.9906648311562338,-0.0882888465465054,0.07533081016754364,0.0715090268789885
1583.9499999988882,-0.07545553,-0.8696206,0.09471202,-2.2610276,0.23138404,1.5349057,0.62040955,0.04,0.04,0.007706992809142221,-0.016594321032567527,-0.012231896152758992,-0.1544150632333344,-0.1418084823176077,0.09626643110539278,0.9904022357144362,-0.08963149685852573,0.07640215957672612,0.07233475150132727
1583.9666666655548,-0.07647003,-0.8707643,0.09598231,-2.2597487,0.23448648,1.5344222,0.618188,0.04,0.04,0.008924495153683765,-0.01629531817651797,-0.011932633133393544,-0.15531255776538677,-0.1423824782693132,0.0961266607533569,0.9901349349473904,-0.09098208319908153,0.07747795839964693,0.07315898506475442
1583.9833333322215,-0.07748763,-0.8719114,0.0972565,-2.258466,0.23759842,1.5339369,0.61595994,0.04,0.04,0.007044875483375179,-0.015989275094840938,-0.012174301553269373,-0.15619301891263937,-0.14293704319697204,0.09597086105854118,0.9898629807448511,-0.09234025228517277,0.07855740026091886,0.07398170059599163
1583.9999999988881,-0.07850824,-0.8730619,0.0985344,-2.2571795,0.24071947,1.5334501,0.61372495,0.04,0.04,0.007102820683213551,-0.01560497256826443,-0.012010169785292568,-0.157058019976354,-0.14347917885935624,0.09579969607817514,0.9895863180212823,-0.093706149669938,0.07964065467611078,0.07480269261114467
1584.0166666655548,-0.07953171,-0.8742157,0.09981588,-2.2558897,0.24384929,1.5329618,0.6114839,0.04,0.04,0.006081105647837148,-0.01535049899377694,-0.012206013896420842,-0.15790444262367098,-0.14400610416660625,0.09561112078696996,0.9893049795530149,-0.09507936138392034,0.08072734431520392,0.0756218774578446
1584.0333333322214,-0.08055788,-0.87537265,0.10110079,-2.2545962,0.24698743,1.5324723,0.609237,0.04,0.04,0.00624494098313555,-0.015001714427048674,-0.011905629770647685,-0.15873449463523812,-0.14451822726468336,0.09540713088884058,0.9890189464995083,-0.09645974356571617,0.08181754852356826,0.0764390612830422
1584.049999998888,-0.0815867,-0.8765325,0.10238897,-2.2532995,0.25013354,1.5319817,0.6069844,0.04,0.04,0.005711414899423062,-0.01462674041505796,-0.011615534151721008,-0.1595481053003295,-0.1450149596080044,0.09518908828085786,0.988728199336115,-0.09784723556928436,0.08291121761917844,0.07725410229830952
1584.0666666655547,-0.082618,-0.87769514,0.103680275,-2.252,0.2532873,1.5314901,0.6047261,0.04,0.04,0.004223999544539225,-0.014300349773094245,-0.01177256180080466,-0.16034393682911047,-0.14549334630086483,0.09495415492843699,0.9884327558180945,-0.09924174799733772,0.08400785453108331,0.078066913973619
1584.0833333322214,-0.08365166,-0.8788606,0.10497454,-2.2506971,0.25644815,1.5309974,0.60246295,0.04,0.04,0.0057544745520665685,-0.013996450754194534,-0.011738541916295198,-0.16112111222308223,-0.14595793106855684,0.09470374300114472,0.988132598548011,-0.10064292272727013,0.08510786307179201,0.07887725549878948
1584.099999998888,-0.08468756,-0.8800285,0.106271595,-2.2493918,0.25961587,1.5305037,0.60019463,0.04,0.04,0.0033174381050216084,-0.013577470101772127,-0.011566559887477013,-0.16188144485917164,-0.14640398844236766,0.09443933046554778,0.987827746524481,-0.10205082643847027,0.08621053759381533,0.07968510041015302
1584.1166666655547,-0.08572556,-0.8811987,0.1075713,-2.2480834,0.26279002,1.5300087,0.59792197,0.04,0.04,0.004121707257498386,-0.01337128080498573,-0.011795270767911425,-0.16262227386461858,-0.14683411148519915,0.09415986532074391,0.987518212296019,-0.10346512238025507,0.08731587049302568,0.08049029503336959
1584.1333333322214,-0.08676557,-0.8823713,0.108873464,-2.2467728,0.26597026,1.5295126,0.59564483,0.04,0.04,0.002664324383516714,-0.012854133742512541,-0.011668969915534788,-0.16334476373033383,-0.14724913128077033,0.09386489310516903,0.9872039980786868,-0.10488574234748803,0.08842364318494866,0.0812927214181777
1584.149999998888,-0.0878074,-0.883546,0.11017797,-2.2454596,0.26915616,1.5290161,0.5933636,0.04,0.04,0.0032794749036391124,-0.012640817184844666,-0.01113211904057998,-0.16404809514124588,-0.1476473103785712,0.09355533664806726,0.9868850763169258,-0.10631254688645549,0.08953412901975924,0.08209219364911642
1584.1666666655547,-0.08885098,-0.88472265,0.111484624,-2.244144,0.2723474,1.5285187,0.5910787,0.04,0.04,0.00247085949460768,-0.012233078176088208,-0.01142731980241507,-0.16473169049861258,-0.14802658231235064,0.09323143933407398,0.9865614905714246,-0.10774525113192941,0.09064687799288591,0.08288865839274513
1584.1833333322213,-0.089896165,-0.88590115,0.11279332,-2.2428265,0.27554336,1.5280201,0.5887902,0.04,0.04,0.001345492088944411,-0.011770973793029382,-0.011511544751430236,-0.16539655667959308,-0.14838871460466688,0.09289385100100658,0.986233270164549,-0.10918382218730499,0.09176149617314529,0.08368188342273637
1584.199999998888,-0.09094283,-0.8870812,0.11410384,-2.2415075,0.27874392,1.5275211,0.58649826,0.04,0.04,0.0004413933474722853,-0.011407007082958609,-0.010937319148562885,-0.1660405202722173,-0.1487350058607386,0.09254265834839491,0.9859004191723943,-0.11062803478795305,0.09287787894403156,0.08447189471954786
1584.2166666655546,-0.09199084,-0.8882628,0.115416035,-2.2401867,0.2819485,1.5270212,0.5842036,0.04,0.04,0.0009347642104362563,-0.011054578346914035,-0.0112737015415032,-0.16666422967112068,-0.1490656319914092,0.092177969522648,0.9855629671377172,-0.11207761193813728,0.09399595601519489,0.0852584714954044
1584.2333333322213,-0.0930401,-0.889446,0.116729766,-2.2388644,0.28515682,1.5265211,0.581906,0.04,0.04,0.0004560239717843473,-0.01067128790218086,-0.010836868834096514,-0.1672678284524151,-0.14937912650235227,0.09179866248201082,0.9852208827655217,-0.11353254418679554,0.09511591724862177,0.08604147755096284
1584.249999998888,-0.09409045,-0.89063025,0.11804487,-2.2375405,0.28836846,1.5260203,0.57960624,0.04,0.04,-8.012754020292334e-05,-0.010375431801362689,-0.01076668712125528,-0.16785058087386306,-0.14967332418421928,0.09140763191224907,0.9848742339552206,-0.11499249724177996,0.09623723270100117,0.08682087255533699
1584.2666666655546,-0.09514175,-0.89181566,0.11936119,-2.236215,0.2915831,1.525519,0.57730436,0.04,0.04,-0.0002931980278564339,-0.01003247224086179,-0.010818121226829902,-0.16841297459938592,-0.14994867419485286,0.09100270284722821,0.9845230166930019,-0.11645737326211018,0.0973599552009586,0.08759651213300686
1584.2833333322212,-0.096193865,-0.89300215,0.12067853,-2.2348895,0.29480022,1.5250175,0.57500064,0.04,0.04,-0.002434767878112254,-0.00937205434064503,-0.010653193600873578,-0.16895396777865293,-0.15020733884948526,0.09058440846769492,0.9841673042439455,-0.11792689922268564,0.09848352516582229,0.08836831427520131
1584.2999999988879,-0.0972467,-0.8941893,0.12199674,-2.2335625,0.29801944,1.5245156,0.57269526,0.04,0.04,-0.0009586849674114717,-0.009137264864333972,-0.010327698214429581,-0.16947401801462966,-0.15044982027675155,0.09015465515868143,0.9838070700210396,-0.11940103935004583,0.09960821915206065,0.08913609513603941
1584.3166666655545,-0.098300114,-0.8953771,0.12331567,-2.2322345,0.3012404,1.5240129,0.5703889,0.04,0.04,-0.002065169993814564,-0.00880876998448632,-0.01071308204367849,-0.16997174795301784,-0.15067194345989146,0.08971180855592945,0.983442397132577,-0.12087941452229879,0.10073350840355404,0.08989982731678806
1584.3333333322212,-0.09935396,-0.8965653,0.12463516,-2.2309058,0.30446285,1.5235101,0.56808144,0.04,0.04,-0.002465117106842385,-0.008437735075539354,-0.010065256543034806,-0.17044874339887764,-0.1508785168781319,0.08925811978684894,0.9830732663887435,-0.12236202908168971,0.10185949517437871,0.09065941756706249
1584.3499999988878,-0.10040814,-0.89775413,0.1259551,-2.2295768,0.30768618,1.5230073,0.5657735,0.04,0.04,-0.003177436028689584,-0.00792589518192055,-0.010175218571717437,-0.1709028787143025,-0.15106533961701019,0.08879206281808426,0.9826997467759311,-0.12384848658371776,0.1029860186335595,0.0914146597841487
1584.3666666655545,-0.101462506,-0.8989431,0.12727529,-2.2282476,0.3109101,1.5225044,0.56346494,0.04,0.04,-0.003641410672994283,-0.007525148407305782,-0.00982253480312778,-0.17133590994159686,-0.15123428708559267,0.08831417713253303,0.9823218504998991,-0.1253387840705343,0.10411286114048225,0.09216552166247852
1584.3833333322211,-0.102516904,-0.90013206,0.1285954,-2.2269185,0.3141341,1.5220016,0.56115633,0.04,0.04,-0.004337710319335386,-0.006820135639840075,-0.00961739470122236,-0.1717455969475404,-0.15138429265077613,0.08782508312668154,0.9819396497548327,-0.12683254724561888,0.1052397451175026,0.09291192198069957
1584.3999999988878,-0.103571236,-0.9013212,0.12991558,-2.2255893,0.3173578,1.5214988,0.5588479,0.04,0.04,-0.004271273060840741,-0.006898226914986427,-0.009868459407647023,-0.1721336676824333,-0.15151555994157154,0.08732457337772757,0.9815531565396758,-0.1283297328951031,0.10636671041256263,0.0936536355838917
1584.4166666655544,-0.1046254,-0.9025101,0.13123547,-2.2242603,0.3205809,1.520996,0.55653995,0.04,0.04,-0.005036286742843288,-0.0061690105690292985,-0.009530228078702407,-0.17249831915248912,-0.15162848307030774,0.08681440841340848,0.9811624314228576,-0.12983003668902257,0.10749345113547842,0.09439069181173372
1584.433333332221,-0.1056792,-0.9036985,0.1325548,-2.2229319,0.32380307,1.5204933,0.5542326,0.04,0.04,-0.005770417324368893,-0.005713556322212154,-0.009144244273784352,-0.17284040654234153,-0.1517223584304118,0.08629406186410306,0.9807675121511565,-0.13133331789824493,0.10861971486656757,0.09512310056434772
1584.4499999988877,-0.10673256,-0.90488666,0.1338736,-2.2216043,0.3270237,1.5199909,0.55192643,0.04,0.04,-0.0063484297906590825,-0.005297388478775478,-0.009250178575714862,-0.1731588787104118,-0.15179936843180367,0.08576207383864048,0.980368472728151,-0.13283922423345887,0.1097454434208847,0.09585059120359725
1584.4666666655544,-0.10778533,-0.906074,0.13519163,-2.2202775,0.33024254,1.5194892,0.54962146,0.04,0.04,-0.0064529034056182155,-0.004898316212292864,-0.008548343044623152,-0.1734542948267719,-0.15185720772413824,0.08521927863024922,0.979965327556876,-0.13434769222522094,0.11087056136873037,0.09657314845175326
1584.483333332221,-0.108837366,-0.90726066,0.13650882,-2.2189515,0.33345923,1.5189877,0.547318,0.04,0.04,-0.006524142230457386,-0.004699227620230673,-0.008954619815249032,-0.17372758630945753,-0.15189573169408224,0.08466906562907836,0.9795581166479597,-0.1358585976622113,0.11199492636327962,0.09729066768834069
1584.4999999988877,-0.109888546,-0.9084462,0.13782491,-2.2176266,0.33667326,1.5184865,0.5450164,0.04,0.04,-0.0078020714924686985,-0.003957444495655826,-0.008409315205781809,-0.1739756335009417,-0.15191434699777853,0.08410851708712114,0.9791469441109427,-0.13737157244681233,0.11311809296644232,0.09800311201858702
1584.5166666655543,-0.11093876,-0.90963066,0.1391398,-2.2163036,0.33988422,1.5179864,0.5427169,0.04,0.04,-0.008730827636060923,-0.003453316084989222,-0.00795841098162331,-0.17419955689378774,-0.15191583487433108,0.08353785927109493,0.978731858718101,-0.13888638453946414,0.1142400489719741,0.09871034459796177
1584.533333332221,-0.11198785,-0.9108139,0.14045335,-2.2149816,0.3430918,1.5174863,0.54042006,0.04,0.04,-0.0077691821895875535,-0.0033711211951448217,-0.008565405771654433,-0.174400974363102,-0.15189920334741988,0.08295925180641504,0.9783129093433262,-0.14040290264262925,0.11536060959491953,0.09941230354241729
1584.5499999988876,-0.113035746,-0.9119958,0.14176533,-2.2136607,0.34629554,1.5169865,0.5381259,0.04,0.04,-0.008280857833442568,-0.002727863086565696,-0.008190861828594187,-0.174578254589734,-0.15186456245346924,0.08237240451651447,0.9778901447096691,-0.14192095267424662,0.11647966850500094,0.10010891517093584
1584.5666666655543,-0.11408226,-0.91317636,0.14307556,-2.212342,0.34949514,1.5164875,0.53583467,0.04,0.04,-0.009678690640146925,-0.0022026702867661285,-0.007763464365773132,-0.1747306126236409,-0.15180949853113831,0.08177725456331139,0.9774636408025951,-0.14344023178472987,0.11759701783832553,0.10080015977175318
1584.583333332221,-0.115127265,-0.91435516,0.14438392,-2.211025,0.35269016,1.5159894,0.53354675,0.04,0.04,-0.00923836792665611,-0.0018652645352779107,-0.007336813296898725,-0.17485937611595262,-0.15173666241263375,0.08117368908565234,0.977033434291436,-0.14496058077538893,0.11871271895100184,0.10148590373645336
1584.5999999988876,-0.116170645,-0.915532,0.14569022,-2.2097101,0.3558803,1.5154922,0.53126234,0.04,0.04,-0.010352187106743571,-0.001334684321713242,-0.007136377867444921,-0.17496352165942353,-0.1516425920140831,0.08056238094088766,0.9765996175869993,-0.1464817578675671,0.11982634154434842,0.10216618527209072
1584.6166666655542,-0.11721227,-0.916707,0.14699437,-2.208397,0.359065,1.5149959,0.5289819,0.04,0.04,-0.009483005451693671,-0.0010325345907780115,-0.0071500280770075975,-0.1750434192705464,-0.15153105382950038,0.07994343405837416,0.9761622250853238,-0.14800354797076656,0.12093815452915321,0.10284076469774736
1584.633333332221,-0.11825207,-0.9178799,0.14829619,-2.2070868,0.36224398,1.5145,0.5267055,0.04,0.04,-0.012441403756024982,-0.0003440388720910015,-0.007205607750071508,-0.17509815124034522,-0.1513965948451404,0.07931627462661744,0.9757214247512975,-0.14952574539951094,0.12204704976135386,0.10350975987107752
1584.6499999988876,-0.119289875,-0.91905063,0.1495955,-2.2057793,0.36541682,1.5140051,0.52443326,0.04,0.04,-0.011453873556011018,5.662813173379355e-05,-0.0067263510075799005,-0.1751285083533817,-0.15124947466869,0.07868391274641517,0.9752772108605773,-0.15104821892095083,0.12315348234254905,0.1041730162936882
1584.6666666655542,-0.12032553,-0.92021894,0.15089212,-2.2044735,0.36858314,1.5135117,0.522166,0.04,0.04,-0.009887457078283646,0.0003153024139779248,-0.006066517929004256,-0.17513249892137314,-0.15108298128511985,0.07804358281307305,0.9748296044936536,-0.1525705726215595,0.12425798271650088,0.10483041688318329
1584.6833333322209,-0.121358916,-0.9213848,0.15218592,-2.2031713,0.37174258,1.5130192,0.51990354,0.04,0.04,-0.013435888668444917,0.0010652464362603808,-0.006302479430542185,-0.17511325835306976,-0.15089117271571537,0.07739742086799796,0.9743787854675018,-0.15409269169131226,0.1253593362611343,0.10548204401873332
1584.6999999988875,-0.12238997,-0.9225479,0.15347676,-2.2018716,0.37489468,1.5125278,0.5176465,0.04,0.04,-0.012168455695471536,0.0013874925887724654,-0.005858599396413311,-0.1750686865715445,-0.15068246595666018,0.07674626893400052,0.9739248033419139,-0.15561425696109843,0.126457816838256,0.1061277580388922
1584.7166666655542,-0.12341849,-0.9237082,0.15476446,-2.200575,0.3780391,1.5120375,0.5153947,0.04,0.04,-0.012937900335874275,0.0018455566376140986,-0.0058519761550579474,-0.1749993548759195,-0.15045599830720482,0.07608693928640727,0.9734677092825873,-0.15713527767480145,0.12755321030920905,0.106767513944972
1584.7333333322208,-0.12444437,-0.92486554,0.15604882,-2.1992826,0.38117555,1.5115486,0.51314855,0.04,0.04,-0.014604690259156783,0.0025210653557261598,-0.005243739551574755,-0.17490340664031354,-0.1502093436993828,0.07542288473853491,0.9730076399818914,-0.15865532161319362,0.12864509203640392,0.10740140481217686
1584.7499999988875,-0.12546746,-0.92601997,0.15732977,-2.1979926,0.38430348,1.5110608,0.5109088,0.04,0.04,-0.011993197818060963,0.002544200932730334,-0.005602776892632555,-0.17478296692953618,-0.14994679372490205,0.07475425389310361,0.9725446029191803,-0.16017423444009948,0.1297340161055675,0.10802913967732178
1584.766666665554,-0.12648772,-0.9271711,0.1586071,-2.1967065,0.38742262,1.5105747,0.5086753,0.04,0.04,-0.014854317951273899,0.0034726743029678264,-0.004643314844421376,-0.17463705590741946,-0.14966213303917658,0.07407916150059027,0.9720787475478286,-0.16169170921251838,0.13081931380386405,0.10865084847190633
1584.7833333322208,-0.12750497,-0.928319,0.15988068,-2.195424,0.39053255,1.5100899,0.5064481,0.04,0.04,-0.014263455963536842,0.003719464846868581,-0.0048528991992924375,-0.17446713806126574,-0.1493577854080862,0.07340073442229605,0.9716101110896123,-0.16320776038509757,0.13190099804364058,0.10926639782478154
1584.7999999988874,-0.12851915,-0.9294632,0.16115035,-2.194146,0.39363283,1.5096064,0.5042279,0.04,0.04,-0.015827692776415603,0.00446421601210667,-0.004344895597108156,-0.17426979652667934,-0.14903330813966148,0.072718008214542,0.971138880257714,-0.16472187002414426,0.13297850350185425,0.1098758317099337
1584.816666665554,-0.12953004,-0.93060386,0.16241598,-2.1928716,0.39672333,1.5091245,0.5020146,0.04,0.04,-0.014783699590514843,0.004495630450407351,-0.004175331597067178,-0.1740482339488591,-0.14869545691567732,0.07203046513586867,0.9706650217662174,-0.16623410457604565,0.13405224384910636,0.11047911076040041
1584.8333333322207,-0.13053752,-0.9317406,0.16367733,-2.1916013,0.39980343,1.508644,0.49980855,0.04,0.04,-0.015713325819710633,0.005288062983849207,-0.003933515941967336,-0.17380006946612533,-0.14833437544597924,0.07133946319090906,0.9701886936859938,-0.16774415849902144,0.13512171751829133,0.11107617831122582
1584.8499999988874,-0.13154158,-0.93287337,0.16493438,-2.1903358,0.40287283,1.5081655,0.49761042,0.04,0.04,-0.0166261744835694,0.005806713678740971,-0.0032835594357516484,-0.17352523530098898,-0.14795651440620772,0.07064439929157446,0.9697100274845841,-0.16925152064020565,0.13618687233369633,0.11166701017216564
1584.866666665554,-0.132542,-0.93400216,0.16618685,-2.1890743,0.4059312,1.5076886,0.49542028,0.04,0.04,-0.015599050707137962,0.0061003385147362366,-0.0034622980506604506,-0.17322734533943063,-0.14756046731691147,0.06994669908270318,0.9692290441705389,-0.17075619731108288,0.13724783005205585,0.11225156641278573
1584.8833333322207,-0.13353872,-0.9351269,0.16743466,-2.1878185,0.40897828,1.5072136,0.4932383,0.04,0.04,-0.018415491344647705,0.0068296046339788585,-0.003039515291658468,-0.17290341777010257,-0.14714446189147504,0.06924443237957949,0.9687459422832222,-0.17225781842501237,0.13830380585412502,0.11282996316365594
1584.8999999988873,-0.13453157,-0.93624717,0.16867769,-2.1865666,0.4120135,1.5067402,0.4910647,0.04,0.04,-0.015702482178125976,0.006914393842832878,-0.0028362418969418712,-0.1725555105011567,-0.14671380735669853,0.06853996991781147,0.9682606938262452,-0.17375645479354385,0.1393553892325371,0.11340193428925946
1584.916666665554,-0.13552046,-0.93736315,0.16991572,-2.18532,0.41503665,1.506269,0.48889983,0.04,0.04,-0.017657740571319636,0.00767784936588356,-0.002430558400745575,-0.172180465162395,-0.14626123777168623,0.06783312694727991,0.9677734583398852,-0.17525164441252625,0.14040220577676749,0.11396760538232953
1584.9333333322206,-0.13650528,-0.9384745,0.17114867,-2.184079,0.4180473,1.5057995,0.48674384,0.04,0.04,-0.018985825523332167,0.008220186813684416,-0.0021413444169837703,-0.17178069531128096,-0.14578942870663353,0.06712295072449488,0.9672843962794675,-0.17674319860808185,0.1414436515684345,0.11452699197585504
1584.9499999988873,-0.1374859,-0.9395811,0.17237638,-2.1828427,0.42104504,1.5053321,0.4845971,0.04,0.04,-0.017327445569970124,0.008534290542211442,-0.0019305338597730426,-0.1713562518605477,-0.14530318106322784,0.06641182629062373,0.9667935262781475,-0.17823096134079774,0.14248022032738195,0.11507992345174949
1584.966666665554,-0.13846217,-0.94068295,0.17359868,-2.1816118,0.4240296,1.5048666,0.4824598,0.04,0.04,-0.018197485885362852,0.008952424406344361,-0.0018140216179185487,-0.17090551632336842,-0.14479686818035659,0.06569671723549969,0.9663009676788407,-0.17971472822052542,0.14351157807745302,0.11562648174738295
1584.9833333322206,-0.13943402,-0.9417797,0.17481539,-2.180387,0.42700052,1.5044034,0.48033214,0.04,0.04,-0.019932073664374883,0.009868209144686668,-0.0009428842097092272,-0.17042982627421827,-0.14427160421493115,0.06498327351132806,0.9658068941608005,-0.18119414620349789,0.1445372680067059,0.11616670232993367
1584.9999999988872,-0.14040138,-0.94287145,0.17602643,-2.1791677,0.42995754,1.5039421,0.4782145,0.04,0.04,-0.018691124771130774,0.009973666649915058,-0.001257922188613314,-0.1699289287171648,-0.14373201483830123,0.06426564909824004,0.9653113551916958,-0.1826690662242328,0.14555754339875185,0.11670047704469418
1585.0166666655539,-0.14136407,-0.943958,0.17723165,-2.1779542,0.43290055,1.5034829,0.476107,0.04,0.04,-0.019275888375469563,0.010290206548757563,-0.0008492534565585075,-0.16940347725960944,-0.14317337017565573,0.06354795496534886,0.9648144403741259,-0.18413936398546654,0.14657215098629622,0.11722796096426982
1585.0333333322205,-0.142322,-0.9450391,0.17843089,-2.1767464,0.43582895,1.5030266,0.47401,0.04,0.04,-0.019044530467438037,0.011033695786333286,1.6990681461770407e-05,-0.1688518986649643,-0.14259671091060194,0.062829207597378,0.9643162436747593,-0.1856046798334354,0.1475813689088269,0.11774898963441933
1585.0499999988872,-0.14327507,-0.9461147,0.17962404,-2.1755447,0.43874222,1.5025724,0.47192356,0.04,0.04,-0.020276888538628413,0.011602716876130126,-0.00018543752573485506,-0.16827645304545683,-0.1419992893520283,0.062109148638226225,0.9638169417081108,-0.18706489406969126,0.1485845595367529,0.11826350641845625
1585.0666666655538,-0.14422314,-0.94718486,0.18081091,-2.1743495,0.44164032,1.5021206,0.46984807,0.04,0.04,-0.02043889304523816,0.011942687727600765,0.00011038552232278676,-0.16767580120052047,-0.14138556148386974,0.06139003361410253,0.9633166212082513,-0.1885197254482614,0.149581723350481,0.11877166522504816
1585.0833333322205,-0.14516614,-0.9482491,0.18199141,-2.1731613,0.44452283,1.5016711,0.46778375,0.04,0.04,-0.021658269588176182,0.01258732689929376,0.0006798260646423415,-0.16705037314870977,-0.1407556608749298,0.060669717295822656,0.9628154633919374,-0.1899688927431217,0.15057235432304225,0.1192735065173221
1585.0999999988871,-0.14610389,-0.9493075,0.18316542,-2.1719794,0.44738942,1.5012239,0.4657309,0.04,0.04,-0.02071996220398553,0.012779149243952181,0.0007096105155479648,-0.16640070859217662,-0.14011100777502267,0.05994982848468018,0.9623135122008103,-0.19141228587822653,0.15155672399858025,0.11976894614811985
1585.1166666655538,-0.14703633,-0.95036,0.18433271,-2.1708043,0.45023972,1.5007795,0.46368963,0.04,0.04,-0.020929279512671428,0.013496159364179139,0.0012120786646363513,-0.1657259296428111,-0.13945100234173435,0.05922882376586544,0.9618108680944504,-0.19284966627710862,0.15253486607621303,0.12025795135174855
1585.1333333322204,-0.14796335,-0.9514064,0.18549328,-2.1696358,0.4530735,1.5003377,0.46166018,0.04,0.04,-0.02112552120676625,0.013690150891820796,0.0014190400114966195,-0.16502725498951223,-0.13877104952154112,0.05850945090009185,0.9613076398588666,-0.19428088175997502,0.1535066044442301,0.12074056039104994
1585.149999998887,-0.14888485,-0.9524466,0.18664686,-2.1684742,0.45589036,1.4998986,0.45964292,0.04,0.04,-0.021598806064471177,0.014425741303103479,0.0018073208569724386,-0.1643043206492631,-0.13807400581809626,0.05779129398215736,0.9608039819660961,-0.19570559333823115,0.15447173013342222,0.12121680396633053
1585.1666666655537,-0.14980078,-0.95348054,0.18779346,-2.1673195,0.45869005,1.4994618,0.457638,0.04,0.04,-0.021653045170477725,0.014636161067016484,0.001727003595330956,-0.16355711228380498,-0.13736125462440493,0.057071752024788674,0.9602999933528046,-0.1971237068503283,0.155430126864977,0.12168665755507574
1585.1833333322204,-0.15071096,-0.9545078,0.1889329,-2.166172,0.46147212,1.4990281,0.4556456,0.04,0.04,-0.02205949366773652,0.015323868365524351,0.002836157057206634,-0.16278563253414502,-0.1366313870204544,0.05635447154837678,0.9597957895648792,-0.1985349482929245,0.15638179161291652,0.12215012031017532
1585.199999998887,-0.15161532,-0.95552856,0.19006501,-2.1650321,0.4642364,1.498597,0.45366597,0.04,0.04,-0.022884973151704457,0.01578172014661261,0.002652297625327371,-0.1619912247154829,-0.13588556529290535,0.05563886370417863,0.9592915298144111,-0.19993908469502478,0.1573263217302164,0.12260730699466078
1585.2166666655537,-0.15251377,-0.9565427,0.19118972,-2.1638997,0.46698254,1.498169,0.45169935,0.04,0.04,-0.022330859407615478,0.01614019390948629,0.0030354068848437166,-0.1611725683303275,-0.13512464635730803,0.05492405142047589,0.9587872827886007,-0.2013359532281404,0.1582639469260182,0.12305813018230956
1585.2333333322204,-0.1534061,-0.95755017,0.19230686,-2.1627748,0.46971026,1.4977435,0.4497459,0.04,0.04,-0.022812908622560357,0.01650824101487869,0.0029467851363040864,-0.16033094348487853,-0.13434699342481954,0.054211390692906244,0.9582831741123197,-0.20272543726324488,0.1591943721482227,0.12350266060282761
1585.249999998887,-0.15429237,-0.9585508,0.19341631,-2.161658,0.4724192,1.497321,0.44780594,0.04,0.04,-0.02357609319290077,0.017300561977318107,0.003748222800337153,-0.15946542017321208,-0.13355483807005597,0.05350096380235671,0.9577793821684992,-0.20410710874207957,0.1601174269477257,0.12394092480499169
1585.2666666655537,-0.15517238,-0.95954436,0.19451796,-2.160549,0.47510907,1.4969016,0.4458796,0.04,0.04,-0.0228626255427411,0.01749483973110255,0.004059910615494822,-0.15857771862633563,-0.13274817426375884,0.05279126810988986,0.9572759549283938,-0.2054809401863189,0.16103326202276133,0.12437289840792135
1585.2833333322203,-0.15604608,-0.96053076,0.19561173,-2.159448,0.47777966,1.4964852,0.44396707,0.04,0.04,-0.02369998238100912,0.017939057073912412,0.004306484964033963,-0.1576666464388215,-0.1319250455125283,0.052084756868727135,0.9567730473626073,-0.20684671094988719,0.1619415611683547,0.12479865694806168
1585.299999998887,-0.15691335,-0.96151,0.19669744,-2.1583548,0.4804305,1.4960719,0.44206858,0.04,0.04,-0.023165854655360363,0.018470976445761345,0.0044923635145854846,-0.15673240051787443,-0.1310884491345412,0.0513783560942109,0.9562707504174219,-0.20820423319513492,0.1628424783719946,0.1252181153563379
1585.3166666655536,-0.15777412,-0.96248186,0.19777502,-2.15727,0.48306152,1.4956614,0.4401844,0.04,0.04,-0.024242030164067785,0.018831118304096783,0.0047460488371342535,-0.15577685071682987,-0.13023441395974203,0.05067832047623731,0.9557692452501362,-0.20955326821563328,0.16373549974519158,0.12563145998246011
1585.3333333322203,-0.15862831,-0.9634463,0.1988443,-2.156193,0.48567235,1.495254,0.4383147,0.04,0.04,-0.023119294641116284,0.01924889373774441,0.005118402078374551,-0.1547979795283784,-0.1293690513340169,0.04997812582272892,0.9552685643262668,-0.21089368124859462,0.16462107687079502,0.1260385903973419
1585.349999998887,-0.15947579,-0.9644031,0.19990522,-2.1551247,0.48826262,1.4948502,0.4364596,0.04,0.04,-0.024397124212471866,0.0198484774393326,0.00586266482500708,-0.15379743465997725,-0.12848753946033736,0.04928173545244254,0.9547688878686301,-0.21222522278677586,0.16549883590714262,0.1264395542723207
1585.3666666655536,-0.16031648,-0.9653525,0.20095767,-2.1540644,0.4908322,1.4944494,0.43461925,0.04,0.04,-0.023424125249471572,0.019923824178280647,0.005363935858682112,-0.15277549511584057,-0.1275907916727838,0.04858880123350874,0.9542702575141893,-0.21354787827242497,0.16636896142363627,0.12683433282817785
1585.3833333322202,-0.16115029,-0.96629417,0.20200153,-2.153013,0.49338078,1.494052,0.432794,0.04,0.04,-0.02458256053516905,0.020637785899924044,0.006216952274584742,-0.15173068458383476,-0.12667871049593205,0.0478984455527064,0.9537728700091536,-0.21486124695897624,0.16723114685223178,0.12722303451900308
1585.3999999988869,-0.1619772,-0.96722776,0.20303671,-2.1519709,0.4959082,1.4936581,0.43098393,0.04,0.04,-0.025673857616270723,0.021147060706350196,0.00686958769648971,-0.1506649802945442,-0.12575142709483028,0.04721206703305572,0.9532768973286252,-0.2161651297886118,0.16808493685690587,0.1276058293527076
1585.4166666655535,-0.16279703,-0.9681534,0.20406306,-2.150937,0.4984141,1.4932673,0.42918923,0.04,0.04,-0.023912819315086153,0.021267782532785606,0.006503788807510347,-0.14957900976697736,-0.12481551498193116,0.04652793260259195,0.9527823473604367,-0.21745954012225022,0.16893077944901197,0.12798257194987475
1585.4333333322202,-0.16360973,-0.96907127,0.20508046,-2.149912,0.50089824,1.4928801,0.42741022,0.04,0.04,-0.024314847479045554,0.02178088723501226,0.006875075143986109,-0.1484706621254333,-0.12386371499620612,0.045846753284761656,0.9522893559630631,-0.2187441683633644,0.16976867564456571,0.12835329406121632
1585.4499999988868,-0.16441527,-0.96998084,0.20608886,-2.1488965,0.5033603,1.4924961,0.42564693,0.04,0.04,-0.0256143130705766,0.022438701970295405,0.007468395923293514,-0.14734347473190687,-0.1228965392783351,0.04517147240596506,0.9517981355304441,-0.22001881321700575,0.17059801621581144,0.12871809466652454
1585.4666666655535,-0.16521353,-0.9708824,0.20708816,-2.1478899,0.50580007,1.4921157,0.42389962,0.04,0.04,-0.024678225951157984,0.02251804881638897,0.007425615944534059,-0.14619538547329194,-0.12191936113626128,0.04449851559934274,0.9513087136858924,-0.22128336825005068,0.17141921073890237,0.12907693981055163
1585.4833333322201,-0.16600439,-0.9717756,0.20807822,-2.1468933,0.5082174,1.4917386,0.4221684,0.04,0.04,-0.026633630331174274,0.023244559770385642,0.008036056088167598,-0.14502745572359516,-0.12092854785784778,0.04382955898402779,0.9508213329143322,-0.22253756671542055,0.1722314767480042,0.12943006873441
1585.4999999988868,-0.1667879,-0.9726605,0.209059,-2.1459055,0.51061195,1.4913651,0.42045343,0.04,0.04,-0.024277624853663582,0.023321539514664646,0.008112755040357023,-0.1438401213212428,-0.11993079000771742,0.0431650053519505,0.9503359575658792,-0.22378137738198603,0.1730356309105596,0.12977724503837024
1585.5166666655534,-0.16756384,-0.9735369,0.21003033,-2.144927,0.51298356,1.4909953,0.41875494,0.04,0.04,-0.0250467451698988,0.02378456255097694,0.008518845409088982,-0.1426330919401802,-0.11891608796417769,0.04250440759126787,0.9498527418345616,-0.22501457770713906,0.17383138168945014,0.13011863582354388
1585.53333333222,-0.1683322,-0.97440463,0.21099213,-2.1439583,0.51533186,1.4906291,0.41707304,0.04,0.04,-0.02600242403794084,0.02442988619549835,0.009015349997931743,-0.14140761459304665,-0.11788889232555977,0.041848621191953345,0.9493718756653964,-0.22623693699042563,0.174618346291186,0.1304542953500905
1585.5499999988867,-0.16909286,-0.97526383,0.21194442,-2.1429996,0.5176568,1.4902663,0.41540793,0.04,0.04,-0.026224006067465666,0.024463889477288614,0.00890799864012859,-0.14016294640225707,-0.11685297068851871,0.04119546601167795,0.9488934612129074,-0.22744837489944378,0.17539642598990116,0.13078428717915508
1585.5666666655534,-0.16984586,-0.9761143,0.21288702,-2.1420503,0.5199582,1.4899074,0.41375977,0.04,0.04,-0.024895653658596473,0.02484803354934062,0.00941809403085525,-0.13890082443093899,-0.1158068375578008,0.04055003337967614,0.9484175362881859,-0.22864872113533607,0.17616603751859028,0.13110860539728691
1585.58333333222,-0.17059107,-0.976956,0.21381989,-2.14111,0.52223563,1.4895521,0.41212863,0.04,0.04,-0.02447801349414469,0.02510569665119533,0.009343120873173127,-0.13761982226455896,-0.11474749341814583,0.03990583295250672,0.9479441826323892,-0.229837965054399,0.17692723894658455,0.13142712258815714
1585.5999999988867,-0.17132841,-0.977789,0.21474288,-2.1401808,0.5244891,1.4892007,0.41051483,0.03999999,0.04,-0.02775700241093304,0.026028991910942434,0.01020746071027645,-0.13632084551361157,-0.11367422576003124,0.03926835189239537,0.9474737204294913,-0.23101555166214532,0.1776791173806126,0.131740256689363
1585.6166666655533,-0.17205782,-0.97861284,0.215656,-2.1392615,0.5267184,1.4888531,0.40891826,0.039999984,0.04,-0.025653437031847304,0.025888258970041544,0.010348226648182468,-0.13500643582761399,-0.11259512637778879,0.03863520695503713,0.9470061032377532,-0.2321816882787348,0.17842215951107057,0.13204785895230692
1585.63333333222,-0.17277925,-0.9794278,0.2165591,-2.138352,0.52892345,1.4885093,0.4073392,0.039999988,0.04,-0.025265906542548677,0.026085398628139522,0.010226003512570081,-0.1336739539073667,-0.11150618558554402,0.038006369016485096,0.9465414066824048,-0.2333362091196253,0.17915649426588007,0.13235002648936828
1585.6499999988866,-0.1734926,-0.9802336,0.21745211,-2.1374533,0.5311037,1.4881693,0.40577772,0.039999988,0.04,-0.027430143980211596,0.02711656143508101,0.011078157040511627,-0.13232417740132224,-0.11040633951431016,0.037381607464299985,0.9460799212029773,-0.23447876221325137,0.17988142764886186,0.1326467668453212
1585.6666666655533,-0.17419784,-0.98103046,0.21833496,-2.1365643,0.5332591,1.4878333,0.4042341,0.03999999,0.04,-0.024677515480675538,0.026778237796076798,0.010619826827329426,-0.13095939664161224,-0.1093009004227037,0.036762630954798994,0.94562155861495,-0.23560941711631445,0.18059778321393663,0.13293799737830791
1585.68333333222,-0.1748949,-0.9818179,0.21920761,-2.1356857,0.5353894,1.4875011,0.40270835,0.039999984,0.04,-0.02653636976317486,0.027461948337159647,0.011560312940517292,-0.12957916837555522,-0.10818053181720877,0.03614974513879229,0.9451665491642276,-0.2367279432842536,0.18130492067454776,0.13322387529489266
1585.6999999988866,-0.17558375,-0.98259616,0.22006997,-2.1348176,0.5374947,1.4871731,0.40120062,0.03999998,0.04,-0.026085584906931913,0.027608269383838646,0.011515555389851606,-0.12818283602789696,-0.1070544889224597,0.035540903626346404,0.9447149483756655,-0.23783420917537,0.18200303471661616,0.13350449661128386
1585.7166666655532,-0.17626435,-0.98336494,0.22092196,-2.1339595,0.5395747,1.4868488,0.399711,0.039999977,0.04,-0.025576835152607558,0.02788473096916322,0.011719276025012881,-0.1267724321915314,-0.10591886943163586,0.03493816370323493,0.944266848109791,-0.23892817318151646,0.18269209471186978,0.1337798420941414
1585.73333333222,-0.17693661,-0.9841244,0.22176349,-2.133112,0.5416292,1.4865286,0.3982395,0.039999973,0.04,-0.025934239346447896,0.028265625061030253,0.011943539986014606,-0.12534632203408802,-0.10477379786404718,0.0343392056752175,0.9438223402475917,-0.2400097217529348,0.18337210921771815,0.13404996484402099
1585.7499999988866,-0.17760055,-0.9848743,0.22259459,-2.132275,0.5436581,1.4862124,0.39678648,0.039999966,0.04,-0.0265518824139388,0.028582654967457266,0.012431105651455887,-0.12390602870298677,-0.10362086490036576,0.03374599756180114,0.9433816188273828,-0.24107856082788112,0.18404275598566908,0.13431497584775753
1585.7666666655532,-0.17825602,-0.9856148,0.22341509,-2.1314487,0.5456612,1.4858999,0.39535183,0.039999966,0.04,-0.025893204813876025,0.02876348947112861,0.012195698400763177,-0.12245278783890716,-0.10246019874989959,0.03315919377026354,0.9429446976426532,-0.2421347843481647,0.18470420953055888,0.13457488018930072
1585.7833333322199,-0.17890301,-0.9863457,0.22422501,-2.130633,0.54763836,1.4855915,0.39393574,0.03999996,0.04,-0.02618785521675271,0.029119116424913827,0.012706717257993105,-0.12098558134846911,-0.1012938277614169,0.032577738154231956,0.9425117144212486,-0.24317817408762474,0.1853564116313151,0.13482968698803008
1585.7999999988865,-0.1795415,-0.98706704,0.22502433,-2.129828,0.54958963,1.4852871,0.3925383,0.03999996,0.04,-0.025740702776477775,0.02907661947935125,0.012737491645531396,-0.11950511681375649,-0.10011902143119628,0.032001539112535345,0.9420827162771575,-0.24420871179993822,0.1859994121157402,0.1350795301497109
1585.8166666655532,-0.18017143,-0.9877788,0.22581284,-2.1290338,0.5515145,1.4849869,0.39115962,0.039999954,0.04,-0.026207529334687507,0.029975383421521062,0.013315398546065449,-0.11801177093259399,-0.09893777360252333,0.0314307187324422,0.9416578638699773,-0.2452261126864288,0.1866331853495786,0.1353243333432834
1585.8333333322198,-0.1807928,-0.9884808,0.22659062,-2.1282501,0.5534133,1.4846908,0.3897997,0.03999995,0.04,-0.025504929104291918,0.029594279443345695,0.013230035890920977,-0.11650694666953305,-0.09774998435510171,0.030865163406728006,0.9412371639845141,-0.24623047752844504,0.18725779988127278,0.13556426318955941
1585.8499999988865,-0.18140547,-0.98917294,0.2273576,-2.1274776,0.5552856,1.4843988,0.38845873,0.039999947,0.04,-0.026646594598034312,0.03022574062948591,0.013852556599203147,-0.11498999365387892,-0.09655369866804185,0.030305400946674152,0.9408208109983272,-0.24722155617969957,0.18787291096384415,0.1357993854128556
1585.866666665553,-0.18200947,-0.9898555,0.22811373,-2.1267161,0.55713147,1.4841108,0.38713676,0.039999943,0.04,-0.02594311273447225,0.030191014488123447,0.013377884065124412,-0.11346235759413104,-0.09535415156879369,0.029751373786750253,0.9404088354957956,-0.2481993479876556,0.18847869761054006,0.13602972589467027
1585.8833333322198,-0.18260475,-0.9905283,0.22885893,-2.125966,0.5589505,1.4838271,0.38583377,0.039999936,0.04,-0.02669542206330533,0.03092441544279012,0.014253484914050762,-0.11192285555686309,-0.09414992152503791,0.02920146231903621,0.9400013986994312,-0.2491636515546611,0.18907499119218632,0.13625524904654118
1585.8999999988864,-0.18319128,-0.99119127,0.22959322,-2.125227,0.560743,1.4835478,0.3845499,0.03999993,0.04,-0.02560827105488883,0.03060200368829591,0.014191506520633279,-0.11037537320029804,-0.09294028735907332,0.028661121052941912,0.9395984743291375,-0.25011448314628554,0.18966212641289876,0.13647611572491805
1585.916666665553,-0.18376908,-0.99184424,0.23031653,-2.1244986,0.56250864,1.4832726,0.38328522,0.03999993,0.04,-0.02551699923878381,0.030905860194252455,0.014323318844189359,-0.10881711308435722,-0.09172541603518339,0.028123521003312217,0.9392001847869157,-0.25105177067138074,0.19023993197642158,0.13669231734298096
1585.9333333322197,-0.18433808,-0.9924871,0.23102883,-2.1237812,0.56424737,1.4830015,0.38203984,0.039999932,0.04,-0.02579532133815121,0.03124014707442946,0.014733311951353745,-0.10724892404763163,-0.0905060741488701,0.027591375634986363,0.9388066365460357,-0.25197538337606273,0.19080832704803588,0.13690393595048844
1585.9499999988864,-0.18489826,-0.9931203,0.23173009,-2.1230748,0.56595916,1.4827344,0.38081375,0.03999993,0.04,-0.025324638478663175,0.031185185575977048,0.014171128066109429,-0.10567344126584796,-0.08928241976195753,0.027066646016734135,0.9384178508767212,-0.25288536155259345,0.1913675097679661,0.13711093053997286
1585.966666665553,-0.18544962,-0.9937435,0.23242031,-2.1223795,0.56764406,1.482472,0.37960696,0.039999925,0.04,-0.025672470661719515,0.0314640352983897,0.015191717593299181,-0.1040878139942241,-0.08805368515508245,0.026546476593970858,0.9380339222087049,-0.25378153465172265,0.19191742367815326,0.1373134951281561
1585.9833333322197,-0.18599209,-0.99435663,0.23309942,-2.1216955,0.56930166,1.4822133,0.37841964,0.03999992,0.04,-0.02593715386827178,0.03184490131681317,0.014842860141572878,-0.10249539226480109,-0.08682070072200287,0.026032044307963118,0.9376550070761759,-0.25466384100992867,0.1924577440796615,0.1375115723523438
1585.9999999988863,-0.1865257,-0.9949598,0.23376745,-2.121023,0.57093227,1.481959,0.37725174,0.039999917,0.04,-0.02583670765332613,0.03178875985663243,0.01537241748924556,-0.10089573897596699,-0.08558702876498048,0.025524548577873785,0.9372811206048005,-0.25553220387444103,0.1929886913091119,0.1377053331126898
1586.016666665553,-0.18705043,-0.9955528,0.23442432,-2.1203613,0.5725357,1.4817088,0.3761033,0.039999913,0.04,-0.025220508530399144,0.03195757570153557,0.015270700766101264,-0.09928844775110672,-0.08435196221499178,0.025019727823259466,0.9369123194432528,-0.25638664432359626,0.19351027577972404,0.13789476950053367
1586.0333333322196,-0.1875663,-0.99613583,0.23507008,-2.1197107,0.5741119,1.4814632,0.37497416,0.03999991,0.04,-0.02469340575417256,0.03203630737181884,0.015558599502152326,-0.09767617393797172,-0.08311285207368618,0.024524340086391566,0.9365485951170925,-0.25722717425983477,0.19402288351211505,0.13807979750906735
1586.0499999988863,-0.18807319,-0.9967088,0.23570469,-2.1190712,0.57566077,1.4812218,0.37386468,0.03999991,0.04,-0.025294571950995604,0.032185790365102385,0.015548349341532042,-0.09605684995535287,-0.08186901135047242,0.024033115038225014,0.9361901135727883,-0.25805361693752277,0.1945261189540296,0.1382605911990647
1586.066666665553,-0.1885712,-0.9972718,0.23632811,-2.1184433,0.57718223,1.4809847,0.3727748,0.03999991,0.04,-0.025450279583782986,0.03257180221238887,0.015827864694695215,-0.09443274512551482,-0.08062338754801843,0.023548258676948965,0.9358369633826542,-0.2588658583854345,0.1950199943493647,0.13843715950957172
1586.0833333322196,-0.18906024,-0.99782455,0.23694035,-2.1178267,0.5786767,1.4807518,0.37170443,0.039999902,0.04,-0.02543766147362625,0.03228380568636169,0.015954905347093096,-0.09280482342409255,-0.07937737035567852,0.02306914333198832,0.9354891471358232,-0.2596640145343048,0.19550442692528494,0.13860979113913452
1586.0999999988862,-0.18954039,-0.9983673,0.23754135,-2.1172214,0.580144,1.4805229,0.3706536,0.0399999,0.04,-0.024868294791424717,0.032534728904864973,0.015786386050575807,-0.09117189983812107,-0.07813336822448715,0.022593592106047174,0.9351467205507032,-0.260448021747242,0.19597956735982142,0.1387784139867239
1586.1166666655529,-0.19001158,-0.99889994,0.23813125,-2.116627,0.5815836,1.480298,0.36962235,0.0399999,0.04,-0.024688706448827702,0.03261198416235622,0.015945375477699475,-0.08953518354875094,-0.07688905864717102,0.022123415350833522,0.9348097691325855,-0.2612179021258982,0.1964454114674588,0.1389428064226705
1586.1333333322195,-0.19047387,-0.99942255,0.23870997,-2.116044,0.582996,1.4800777,0.36861062,0.039999887,0.04,-0.024822890696940547,0.03275900050655478,0.0163705054731067,-0.08789579269280674,-0.07564338846944846,0.021662580937525613,0.9344783134638465,-0.26197352275732444,0.19690211605090344,0.13910324127984663
1586.1499999988862,-0.19092721,-0.99993503,0.23927748,-2.1154723,0.5843811,1.4798619,0.36761838,0.039999887,0.04,-0.024490253637043935,0.03278075012486115,0.016422438327523547,-0.0862538498973484,-0.07439737861306438,0.021205930352928087,0.934152388482207,-0.26271493218317843,0.1973496940816286,0.13925974919862263
1586.1666666655528,-0.19137163,-1.0004375,0.23983385,-2.1149118,0.58573896,1.4796503,0.36664575,0.039999884,0.04,-0.024380458613570966,0.0327309110239149,0.016325485297219444,-0.08461008207443928,-0.0731515733116327,0.020754692644410336,0.9338320560372609,-0.263442078900606,0.1977881472168248,0.13941237750746707
1586.1833333322195,-0.19180714,-1.0009301,0.24037902,-2.1143625,0.5870696,1.479443,0.3656926,0.039999884,0.04,-0.024156586068269092,0.03282614062152245,0.016285391438786156,-0.08296577749432418,-0.07190585307514122,0.020310236952495418,0.9335173330943789,-0.2641550130347746,0.19821756704987972,0.139561147938038
1586.1999999988861,-0.19223377,-1.0014124,0.2409131,-2.1138248,0.5883731,1.4792397,0.36475897,0.039999887,0.04,-0.025213263615730952,0.03292091538785735,0.016815749152632176,-0.08132050909707045,-0.07066124734589754,0.01987101943057866,0.9332083683120626,-0.26485360425373927,0.19863748931786926,0.1397063257824603
1586.2166666655528,-0.19265154,-1.0018846,0.24143605,-2.1132982,0.58964944,1.4790406,0.36384472,0.03999989,0.04,-0.023857338487154323,0.03287139801025907,0.016610653108783957,-0.07967519211155448,-0.06942140297807453,0.019436439585823875,0.9329051027094672,-0.26553800924279564,0.19904835642827715,0.13984772715068675
1586.2333333322194,-0.19306041,-1.0023471,0.2419479,-2.1127832,0.59089875,1.4788456,0.3629499,0.039999895,0.04,-0.0245531470483229,0.0328562219278683,0.01630108765081628,-0.07803005126500447,-0.0681849120411844,0.019008159358814402,0.932607611103143,-0.2662081572122324,0.1994500353696744,0.13998551402624418
1586.249999998886,-0.19346043,-1.0027994,0.24244869,-2.112279,0.59212106,1.4786551,0.36207443,0.039999884,0.04,-0.023144457788282224,0.03274778600562689,0.017020692872027343,-0.07638587434469814,-0.0669502699702851,0.0185852783640865,0.9323158382035901,-0.2668641169523165,0.19984293356178096,0.14011967322049795
1586.2666666655527,-0.19385165,-1.0032415,0.24293847,-2.111786,0.5933164,1.4784689,0.3612183,0.039999887,0.04,-0.02389081627809375,0.03286818386251111,0.01702301895964986,-0.07474338112722652,-0.0657184638074694,0.018168243826980086,0.9320298956622521,-0.2675058271785091,0.20022678713011388,0.1402502753398547
1586.2833333322194,-0.19423407,-1.0036739,0.24341722,-2.1113033,0.59448457,1.4782867,0.3603814,0.039999895,0.04,-0.022529767821755087,0.03274386997083045,0.016320337070674373,-0.0731030296121347,-0.06448995563336268,0.017756248213566625,0.9317497239504272,-0.2681334682972304,0.20060197511799016,0.140377144421598
1586.299999998886,-0.19460773,-1.0040969,0.24388498,-2.1108322,0.59562606,1.4781089,0.35956374,0.03999989,0.04,-0.023492286758308722,0.03271728704077326,0.016449076352209602,-0.07146546665440758,-0.0632623649158027,0.01735075383992521,0.9314753935670181,-0.26874690262448026,0.20096838986853507,0.14050053303302917
1586.3166666655527,-0.1949726,-1.0045096,0.24434182,-2.1103718,0.59674096,1.477935,0.35876513,0.039999902,0.04,-0.023079738779330228,0.03248999277386533,0.016945075660534936,-0.06983219799357004,-0.06203842561277906,0.01695132070637516,0.9312069053458397,-0.26934634054530915,0.20132583623121997,0.14062060992925077
1586.3333333322194,-0.19532883,-1.0049123,0.24478781,-2.1099226,0.5978293,1.4777653,0.3579856,0.039999902,0.04,-0.023427018202948346,0.0327089457059504,0.01723205218817636,-0.06820099872261479,-0.0608204112722533,0.016556414219008046,0.9309443379529379,-0.26993160799476135,0.20167439193378583,0.1407373663135216
1586.349999998886,-0.1956764,-1.0053058,0.24522293,-2.1094842,0.598891,1.4775995,0.3572249,0.039999895,0.04,-0.022216839984912085,0.03240438146892011,0.015882579876380643,-0.06657517131977798,-0.059608583749550255,0.01616668277544251,0.9306875998995681,-0.27050298836340153,0.2020144314504542,0.14085060938952465
1586.3666666655527,-0.19601534,-1.0056889,0.24564731,-2.109057,0.59992653,1.477438,0.3564832,0.0399999,0.04,-0.023502859552948507,0.032485679655702704,0.01772843734115792,-0.06495379123963246,-0.058399707816382,0.015784519458310057,0.930436832454005,-0.27106025848784004,0.20234547113076568,0.14096080091405336
