rsonawane2002/My_IMU/logs_2/traj_434/imu_434.csv
time,j1,j2,j3,j4,j5,j6,j7,gripper1,gripper2,imu_ax,imu_ay,imu_az,imu_gx,imu_gy,imu_gz
2023.183333331822,0.00016700293,-0.785875,4.0107683e-05,-2.3551247,9.29385e-05,1.570997,0.786,0.04,0.04,-9.434495,-0.07664397358894348,0.11283393,-4.434326e-10,-0.0011641267919912934,1.3556515e-06
2023.1999999984887,0.00016701574,-0.78576016,4.0111183e-05,-2.3552213,9.2981056e-05,1.5709941,0.786,0.04,0.04,-9.834316,0.0006533132982440293,0.009128705,-2.666653e-07,-0.002237326931208372,1.5381142e-06
2023.2166666651553,0.00016709765,-0.7856542,4.0090556e-05,-2.35531,9.306907e-05,1.5709913,0.786,0.04,0.04,-9.832446,0.0006945120985619724,0.0075589865,-3.9043678e-07,-0.0032194124069064856,5.7320044e-06
2023.233333331822,0.00016736277,-0.7855566,4.000734e-05,-2.355391,9.328214e-05,1.5709884,0.786,0.04,0.04,-9.830369,0.0007920099887996912,0.0062650624,-6.5817073e-07,-0.004112178459763527,1.6047023e-05
2023.2499999984886,0.00016797513,-0.7854666,3.980641e-05,-2.3554652,9.373633e-05,1.5709856,0.786,0.04,0.04,-9.828541,0.0009407693287357688,0.0050003836,-5.2567754e-07,-0.0049112820997834206,3.5128196e-05
2023.2666666651553,0.00016914356,-0.78538334,3.9417886e-05,-2.3555322,9.458543e-05,1.5709826,0.786,0.04,0.039999995,-9.826537,0.0011306735686957836,0.0039180205,2.2637464e-07,-0.0056183007545769215,6.612789e-05
2023.283333331822,0.00017111732,-0.7853066,3.875862e-05,-2.355597,9.5992276e-05,1.5709795,0.7860019,0.04,0.039999995,-9.824792,0.0013509048148989677,0.002842761,2.2945403e-06,-0.006232464220374823,0.00010962563
2023.2999999984886,0.00017418149,-0.7852351,3.773341e-05,-2.3556552,9.814178e-05,1.5709757,0.7860038,0.04,0.04,-9.823432,0.0016000360483303666,0.001938758,-2.2238319e-06,-0.006771989166736603,0.00016677384
2023.3166666651553,0.00017865328,-0.78516847,3.6236175e-05,-2.355709,0.00010126798,1.570969,0.78600764,0.04,0.04,-9.821548,0.0019127130508422852,0.0010247147,-4.0511436e-06,-0.007215658202767372,0.00024252509
2023.333333331822,0.00018487839,-0.7851059,3.4151548e-05,-2.3557596,0.00010561541,1.570962,0.78601164,0.04,0.04,-9.820173,0.0022660098038613796,0.00018701982,-1.0483203e-05,-0.007584340870380402,0.00033756022
2023.3499999984886,0.00019322813,-0.78504694,3.1355747e-05,-2.3558073,0.00011143566,1.5709515,0.78601736,0.04,0.04,-9.818654,0.0026254442054778337,-0.00063193287,-1.2768675e-05,-0.007866928353905678,0.00045155798
2023.3666666651552,0.00020409588,-0.7849911,2.771737e-05,-2.3558505,0.00011900185,1.5709403,0.786025,0.04,0.04,-9.817372,0.0030538327991962433,-0.0014158523,-1.6832106e-05,-0.008076793514192104,0.00058657234
2023.3833333318219,0.00021789473,-0.78493774,2.3098752e-05,-2.3558927,0.00012860232,1.5709256,0.78603494,0.04,0.04,-9.81569,0.003490133211016655,-0.0022082154,-2.217004e-05,-0.008191252127289772,0.00074361206
2023.3999999984885,0.00023505471,-0.7848863,1.7356291e-05,-2.3559322,0.00014052467,1.5709074,0.7860479,0.04,0.04,-9.814616,0.004004733636975288,-0.0029729768,-2.9545301e-05,-0.008237335830926895,0.0009228286
2023.4166666651552,0.00025602066,-0.78483605,1.0341661e-05,-2.3559685,0.0001550843,1.5708853,0.78606313,0.03999999,0.04,-9.813256,0.004522333387285471,-0.0037320075,-4.015636e-05,-0.008205539546906948,0.0011260676
2023.4333333318218,0.00028124984,-0.78478664,1.9022808e-06,-2.3560038,0.00017259973,1.5708592,0.7860818,0.039999988,0.039999995,-9.811813,0.00513530382886529,-0.004564259,-4.9905128e-05,-0.008090580813586712,0.0013539256
2023.4499999984885,0.00031121031,-0.7847375,-8.118078e-06,-2.356039,0.0001933951,1.5708288,0.7861038,0.039999984,0.03999999,-9.810687,0.005738487467169762,-0.0053924853,-6.2008025e-05,-0.00790343526750803,0.001607049
2023.4666666651551,0.0003463791,-0.78468823,-1.987843e-05,-2.3560736,0.00021780042,1.5707933,0.78612953,0.03999998,0.039999988,-9.809632,0.006455378606915474,-0.0063090674,-7.4954616e-05,-0.0076448325999081135,0.0018855731
2023.4833333318218,0.00038724014,-0.7846383,-3.3540477e-05,-2.356108,0.00024615065,1.5707517,0.78615934,0.039999977,0.039999988,-9.808522,0.007153940387070179,-0.00724043,-8.851402e-05,-0.007315179333090782,0.0021890071
2023.4999999984884,0.0004342832,-0.7845872,-4.9267484e-05,-2.3561423,0.0002787861,1.5707043,0.7861937,0.03999997,0.03999998,-9.807437,0.007991313934326172,-0.008270927,-0.000103227656,-0.006916834507137537,0.0025193503
2023.516666665155,0.00048800226,-0.7845344,-6.722444e-05,-2.3561766,0.0003160487,1.5706505,0.7862329,0.039999958,0.03999997,-9.806416,0.008803478442132473,-0.009382596,-0.000119290984,-0.006447525694966316,0.0028759418
2023.5333333318217,0.0005488946,-0.7844796,-8.757721e-05,-2.356211,0.0003582828,1.5705892,0.7862774,0.039999947,0.039999958,-9.805387,0.009764062240719795,-0.010608199,-0.00013630607,-0.005911421962082386,0.0032589072
2023.5499999984884,0.0006174591,-0.7844226,-0.000110492365,-2.3562453,0.00040583356,1.5705203,0.7863274,0.03999994,0.039999954,-9.804341,0.010697813704609871,-0.011902348,-0.000154921,-0.005305745638906956,0.0036674545
2023.566666665155,0.0006941959,-0.7843627,-0.00013613697,-2.3562799,0.00045904866,1.5704433,0.78638333,0.039999936,0.03999995,-9.803284,0.011757844127714634,-0.013305181,-0.0001746328,-0.004630973096936941,0.004103295
2023.5833333318217,0.0007796047,-0.7842997,-0.00016467762,-2.3563151,0.0005182733,1.5703578,0.7864457,0.03999994,0.039999958,-9.802182,0.012933161109685898,-0.014848246,-0.00019516652,-0.0038874861784279346,0.0045646485
2023.5999999984883,0.0008741843,-0.784233,-0.00019628086,-2.356351,0.00058385433,1.5702634,0.78651464,0.039999943,0.039999958,-9.80128,0.014096001163125038,-0.016505145,-0.00021760128,-0.003077863249927759,0.005053978
2023.616666665155,0.0009784318,-0.7841623,-0.00023111264,-2.356388,0.0006561342,1.5701591,0.7865906,0.039999954,0.039999973,-9.800191,0.015433046966791153,-0.018322868,-0.00024103757,-0.0022009110543876886,0.0055676834
2023.6333333318216,0.001092841,-0.78408706,-0.00026933802,-2.3564298,0.0007354574,1.570045,0.78667396,0.03999996,0.03999998,-9.799413,0.016748134046792984,-0.02027198,-0.0002656632,-0.0012639298802241683,0.0061081285
2023.6499999984883,0.0012179039,-0.7840072,-0.0003111212,-2.3564718,0.0008221632,1.5699203,0.78676504,0.039999966,0.039999984,-9.7987995,0.018281053751707077,-0.022423932,-0.00029164547,-0.00027704372769221663,0.0066741924
2023.666666665155,0.0013541075,-0.78392214,-0.00035662472,-2.356515,0.0009165893,1.5697845,0.78686434,0.039999966,0.039999988,-9.797857,0.019761916249990463,-0.024741989,-0.0003185206,0.0007759068976156414,0.0072647235
2023.6833333318216,0.0015019345,-0.78383166,-0.00040600996,-2.35656,0.0010190707,1.5696371,0.7869721,0.039999966,0.03999999,-9.796849,0.021487759426236153,-0.027239732,-0.00034749316,0.001890976564027369,0.007880248
2023.6999999984882,0.0016618639,-0.78373545,-0.0004594366,-2.3566093,0.0011299391,1.5694776,0.78708863,0.039999966,0.03999999,-9.796071,0.023167705163359642,-0.029915446,-0.00037755,0.0030653115827590227,0.008520382
2023.716666665155,0.0018343673,-0.78363305,-0.0005170623,-2.35666,0.0012495224,1.5693054,0.7872143,0.039999958,0.039999988,-9.7954645,0.02510910853743553,-0.032800283,-0.00040877066,0.004286454524844885,0.00918558
2023.7333333318215,0.0020199125,-0.78352463,-0.00057904335,-2.356713,0.0013781436,1.5691204,0.78734946,0.039999954,0.039999984,-9.794606,0.02699347399175167,-0.035931163,-0.00044142542,0.005569074302911758,0.00987454
2023.7499999984882,0.0022189594,-0.7834092,-0.00064553367,-2.3567703,0.001516122,1.5689222,0.78749454,0.03999995,0.03999998,-9.793721,0.02915310673415661,-0.03922385,-0.00047528386,0.006907811388373375,0.010586815
2023.7666666651548,0.0024319629,-0.78328717,-0.00071668485,-2.3568287,0.0016637719,1.56871,0.7876497,0.039999943,0.039999977,-9.793269,0.031256578862667084,-0.042816423,-0.00051090796,0.008294307626783848,0.011321022
2023.7833333318215,0.00265937,-0.7831575,-0.00079264643,-2.3568933,0.0018214053,1.5684834,0.7878153,0.039999943,0.039999977,-9.79214,0.03366175293922424,-0.046570733,-0.0005474622,0.009743424132466316,0.012078376
2023.7999999984881,0.0029016219,-0.78302026,-0.0008735657,-2.356959,0.0019893257,1.5682418,0.78799176,0.03999994,0.039999977,-9.792006,0.03600289300084114,-0.050649505,-0.0005852265,0.011227425187826157,0.012856593
2023.8166666651548,0.0031591507,-0.7828753,-0.0009595871,-2.3570297,0.0021678328,1.5679854,0.7881793,0.039999943,0.039999984,-9.79103,0.0385623574256897,-0.05496191,-0.00062497554,0.012770670466125011,0.01365598
2023.8333333318214,0.0034323817,-0.7827223,-0.001050853,-2.357103,0.0023572233,1.5677134,0.78837824,0.039999943,0.039999984,-9.790365,0.041355978697538376,-0.059524033,-0.00066557503,0.01435951329767704,0.0144768115
2023.849999998488,0.0037217326,-0.782561,-0.0011475026,-2.3571804,0.0025577855,1.5674251,0.78858894,0.039999947,0.03999999,-9.789748,0.04407447203993797,-0.06437302,-0.0007075311,0.015999622642993927,0.015316712
2023.8666666651548,0.0040276134,-0.78239083,-0.0012496733,-2.3572614,0.002769803,1.5671206,0.78881174,0.03999994,0.039999988,-9.78894,0.04713897407054901,-0.06947718,-0.00075075834,0.01768670417368412,0.016175894
2023.8833333318214,0.004350425,-0.782212,-0.0013574992,-2.3573484,0.002993558,1.566799,0.7890468,0.039999936,0.039999995,-9.788435,0.050120383501052856,-0.074927844,-0.000795891,0.019420430064201355,0.01705215
2023.899999998488,0.0046905614,-0.7820241,-0.0014711119,-2.3574374,0.0032293173,1.5664605,0.7892945,0.039999932,0.039999984,-9.787924,0.05349786579608917,-0.080617085,-0.0008424113,0.02118971385061741,0.017950663
2023.9166666651547,0.005048409,-0.7818268,-0.00159064,-2.3575323,0.0034773515,1.5661044,0.7895551,0.039999932,0.039999988,-9.787159,0.056758735328912735,-0.08665584,-0.00088980776,0.023014068603515625,0.01886393
2023.9333333318214,0.005424341,-0.7816199,-0.0017162092,-2.3576288,0.0037379207,1.5657302,0.78982884,0.03999993,0.039999984,-9.78656,0.06041398644447327,-0.09297745,-0.00093908823,0.024875838309526443,0.019794649
2023.949999998488,0.005818728,-0.78140324,-0.0018479425,-2.357732,0.00401128,1.5653374,0.79011613,0.039999925,0.039999984,-9.785817,0.06397330015897751,-0.09963024,-0.0009898002,0.02678988315165043,0.02074044
2023.9666666651547,0.006231927,-0.7811766,-0.0019859604,-2.3578372,0.004297677,1.564926,0.79041696,0.039999925,0.03999999,-9.785318,0.0679234191775322,-0.10658702,-0.0010423061,0.028734246268868446,0.02169962
2023.9833333318213,0.006664289,-0.7809397,-0.00213038,-2.3579488,0.004597357,1.5644956,0.79073185,0.039999917,0.039999984,-9.784532,0.07181713730096817,-0.11388951,-0.0010955369,0.030732303857803345,0.022676867
2023.999999998488,0.0071161585,-0.7806925,-0.0022813142,-2.358067,0.0049105543,1.5640457,0.7910609,0.03999991,0.03999998,-9.783985,0.07608392089605331,-0.12151821,-0.0011506468,0.032761555165052414,0.023665968
2024.0166666651546,0.0075878636,-0.78043455,-0.0024388754,-2.3581874,0.005237504,1.5635761,0.79140437,0.03999991,0.03999998,-9.783826,0.0802837610244751,-0.12951358,-0.0012075081,0.03482041135430336,0.024668915
2024.0333333318213,0.008079731,-0.78016585,-0.002603172,-2.3583143,0.0055784276,1.5630866,0.7917624,0.039999906,0.03999998,-9.782682,0.08487985283136368,-0.13786612,-0.0012651306,0.03692951798439026,0.025683144
2024.049999998488,0.008592077,-0.77988625,-0.0027743098,-2.3584478,0.0059335404,1.5625765,0.7921354,0.039999906,0.039999995,-9.782445,0.08937084674835205,-0.14656997,-0.0013240372,0.03907034546136856,0.02670529
2024.0666666651546,0.009125203,-0.7795955,-0.002952391,-2.3585832,0.0063030645,1.5620456,0.7925236,0.039999906,0.04,-9.782097,0.09420052170753479,-0.1556367,-0.0013850362,0.04123728349804878,0.027741594
2024.0833333318212,0.009679409,-0.77929336,-0.0031375138,-2.3587253,0.006687193,1.5614938,0.7929272,0.0399999,0.039999984,-9.780844,0.09932203590869904,-0.16506,-0.0014471927,0.04345427453517914,0.028790101
2024.0999999984879,0.010254983,-0.7789796,-0.0033297758,-2.3588743,0.0070861336,1.560921,0.7933464,0.0399999,0.039999984,-9.780646,0.10432830452919006,-0.17488392,-0.0015115645,0.045698098838329315,0.029846864
2024.1166666651545,0.0108522,-0.7786543,-0.00352927,-2.359026,0.0075000855,1.5603265,0.7937812,0.039999895,0.04,-9.780021,0.10975749045610428,-0.18508986,-0.001577486,0.04796944558620453,0.030905873
2024.1333333318212,0.011471339,-0.7783173,-0.0037360874,-2.359184,0.007929238,1.55971,0.7942321,0.039999895,0.04,-9.779231,0.1151319146156311,-0.1956841,-0.0016443087,0.0502857081592083,0.03197723
2024.1499999984878,0.012112655,-0.7779682,-0.0039503155,-2.3593485,0.008373781,1.5590718,0.79469913,0.0399999,0.04,-9.778539,0.12094862759113312,-0.20662804,-0.0017129617,0.05262800678610802,0.033055943
2024.1666666651545,0.012776403,-0.77760696,-0.004172037,-2.3595183,0.008833855,1.5584111,0.7951824,0.03999989,0.04,-9.77818,0.12662824988365173,-0.21802089,-0.0017836208,0.054999008774757385,0.03413702
2024.1833333318211,0.013462827,-0.7772335,-0.004401335,-2.3596928,0.00930962,1.5577279,0.7956823,0.039999884,0.04,-9.777283,0.1327851116657257,-0.22979915,-0.001855025,0.057399921119213104,0.03522232
2024.1999999984878,0.01417216,-0.77684754,-0.004638289,-2.3598735,0.009801268,1.5570219,0.7961987,0.039999876,0.04,-9.776708,0.13885411620140076,-0.24199305,-0.0019284684,0.059833720326423645,0.036315005
2024.2166666651544,0.014904625,-0.77644926,-0.004882971,-2.360061,0.010308956,1.5562922,0.79673207,0.039999876,0.04,-9.775841,0.14537052810192108,-0.25457954,-0.0020028225,0.062293972820043564,0.037410043
2024.233333331821,0.015660442,-0.77603835,-0.0051354566,-2.360254,0.010832828,1.5555395,0.7972824,0.03999988,0.04,-9.775449,0.15177452564239502,-0.26758698,-0.0020790477,0.06477543711662292,0.03850756
2024.2499999984877,0.016439822,-0.77561474,-0.005395813,-2.3604524,0.011373033,1.5547636,0.7978499,0.03999988,0.04,-9.774481,0.15865372121334076,-0.2810261,-0.0021570604,0.06728467345237732,0.039606556
2024.2666666651544,0.017242964,-0.77517825,-0.0056641106,-2.3606567,0.011929713,1.5539639,0.7984347,0.039999876,0.04,-9.773836,0.16541877388954163,-0.29490903,-0.0022360622,0.06982433050870895,0.040707067
2024.283333331821,0.01807005,-0.774729,-0.005940412,-2.3608677,0.012502997,1.5531406,0.799037,0.039999865,0.04,-9.772783,0.1726539582014084,-0.30919313,-0.0023169534,0.07238934189081192,0.041806556
2024.2999999984877,0.018921267,-0.77426666,-0.0062247766,-2.3610847,0.013093004,1.5522932,0.79965675,0.03999987,0.04,-9.772279,0.17977039515972137,-0.32391804,-0.002399618,0.07497674226760864,0.042905148
2024.3166666651543,0.019796787,-0.773791,-0.006517262,-2.3613079,0.013699865,1.5514218,0.8002942,0.039999865,0.04,-9.771415,0.18721719086170197,-0.33909026,-0.00248341,0.07758696377277374,0.044001844
2024.333333331821,0.020696772,-0.77330226,-0.0068179253,-2.3615372,0.014323699,1.5505258,0.8009496,0.039999858,0.04,-9.770278,0.1950058788061142,-0.35470092,-0.0025684428,0.08022084087133408,0.045096632
2024.3499999984876,0.021621386,-0.77280015,-0.0071268175,-2.361773,0.014964598,1.5496054,0.8016228,0.03999986,0.04,-9.76958,0.20264768600463867,-0.37075958,-0.0026555485,0.08287613093852997,0.046187155
2024.3666666651543,0.022570778,-0.7722843,-0.007443989,-2.362015,0.015622671,1.5486604,0.802314,0.039999865,0.04,-9.768413,0.21078765392303467,-0.38725176,-0.002743692,0.08555073291063309,0.04727329
2024.383333331821,0.023545077,-0.7717549,-0.0077694883,-2.3622632,0.016298024,1.5476906,0.8030233,0.03999986,0.04,-9.76764,0.21878933906555176,-0.4042553,-0.0028331177,0.08824606239795685,0.0483542
2024.3999999984876,0.024544422,-0.77121216,-0.008103353,-2.3625176,0.01699074,1.5466957,0.80375093,0.039999854,0.04,-9.766322,0.22729061543941498,-0.42166182,-0.0029237412,0.09096089750528336,0.049429916
2024.4166666651543,0.02556894,-0.7706557,-0.008445631,-2.3627782,0.017700888,1.5456759,0.8044969,0.039999858,0.04,-9.76539,0.23563995957374573,-0.43953198,-0.003016227,0.09369558095932007,0.05049797
2024.433333331821,0.026618736,-0.7700855,-0.008796362,-2.3630457,0.018428575,1.5446309,0.8052613,0.03999985,0.04,-9.763976,0.24448223412036896,-0.45786625,-0.0031098647,0.09644981473684311,0.051558375
2024.4499999984876,0.027693914,-0.76950145,-0.009155578,-2.3633199,0.019173855,1.5435605,0.80604416,0.03999985,0.04,-9.763063,0.2531840205192566,-0.47667545,-0.0032053182,0.09921795129776001,0.05261026
2024.4666666651542,0.028794583,-0.76890373,-0.009523311,-2.3636007,0.019936798,1.5424647,0.80684566,0.039999846,0.04,-9.761561,0.26238569617271423,-0.4959396,-0.0033018307,0.10200124233961105,0.053653672
2024.4833333318209,0.029920826,-0.768292,-0.009899588,-2.363888,0.020717476,1.5413438,0.80766565,0.03999984,0.04,-9.760482,0.2714152932167053,-0.5156916,-0.003400227,0.10479983687400818,0.054686192
2024.4999999984875,0.031072726,-0.7676664,-0.010284442,-2.364181,0.021515936,1.5401973,0.80850434,0.039999843,0.04,-9.758801,0.28094589710235596,-0.53591555,-0.0034991165,0.1076149269938469,0.05570782
2024.5166666651542,0.032250356,-0.76702696,-0.010677898,-2.3644805,0.022332236,1.5390251,0.8093619,0.039999846,0.04,-9.757458,0.2903205454349518,-0.55661345,-0.003599516,0.1104477047920227,0.05671763
2024.5333333318208,0.033453785,-0.7663733,-0.011079979,-2.3647864,0.023166416,1.537827,0.8102381,0.039999843,0.04,-9.7556095,0.30018186569213867,-0.5777448,-0.003701012,0.1132955551147461,0.057715748
2024.5499999984875,0.03468307,-0.7657059,-0.0114907,-2.3650994,0.024018528,1.5366033,0.8111332,0.039999835,0.04,-9.754232,0.30987855792045593,-0.5994074,-0.003803781,0.1161542683839798,0.058699843
2024.5666666651541,0.035938255,-0.7650243,-0.011910079,-2.3654194,0.02488859,1.5353539,0.8120471,0.039999835,0.04,-9.752559,0.3199005126953125,-0.6215087,-0.0039075185,0.11902467161417007,0.059669778
2024.5833333318208,0.037219394,-0.76432866,-0.012338133,-2.3657458,0.025776638,1.5340787,0.8129801,0.039999835,0.04,-9.750537,0.3302419185638428,-0.64410985,-0.004012213,0.12190496176481247,0.06062503
2024.5999999984874,0.03852651,-0.76361877,-0.012774872,-2.3660789,0.026682694,1.5327777,0.81393176,0.039999835,0.04,-9.748857,0.34041568636894226,-0.66721934,-0.0041187466,0.12479735910892487,0.061565433
2024.616666665154,0.03985964,-0.762895,-0.013220306,-2.366418,0.027606783,1.5314507,0.8149024,0.03999983,0.04,-9.746645,0.35106444358825684,-0.69078416,-0.0042250277,0.12769803404808044,0.06248886
2024.6333333318207,0.041218802,-0.7621569,-0.01367444,-2.3667636,0.028548907,1.5300978,0.8158921,0.039999824,0.04,-9.74469,0.36152854561805725,-0.7148435,-0.004332305,0.1306125819683075,0.06339505
2024.6499999984874,0.042604003,-0.7614049,-0.014137281,-2.3671157,0.02950909,1.5287188,0.8169006,0.03999983,0.04,-9.742262,0.3724792003631592,-0.7393807,-0.0044409093,0.1335347592830658,0.06428348
2024.666666665154,0.04401526,-0.7606384,-0.01460883,-2.3674748,0.030487329,1.5273136,0.8179282,0.039999828,0.04,-9.740171,0.3832440674304962,-0.76440275,-0.0045493306,0.1364649534225464,0.0651542
2024.6833333318207,0.045452558,-0.7598581,-0.015089087,-2.3678408,0.03148363,1.5258824,0.8189748,0.03999982,0.04,-9.737568,0.3944726586341858,-0.78992444,-0.004658965,0.13939905166625977,0.06600516
2024.6999999984873,0.046915907,-0.75906336,-0.015578046,-2.3682132,0.032497957,1.5244251,0.8200403,0.039999824,0.04,-9.735285,0.4055103063583374,-0.8159391,-0.004769717,0.1423397660255432,0.06683603
2024.716666665154,0.04840526,-0.7582547,-0.016075706,-2.3685923,0.033530325,1.5229434,0.8211248,0.039999828,0.04,-9.732406,0.41700005531311035,-0.84244186,-0.0048803906,0.1452844738960266,0.06764485
2024.7333333318206,0.049920626,-0.7574319,-0.016582059,-2.3689775,0.034580704,1.521435,0.8222283,0.039999835,0.04,-9.729812,0.4283113479614258,-0.8694652,-0.0049919356,0.14824195206165314,0.068434015
2024.7499999984873,0.051461942,-0.756595,-0.017097091,-2.36937,0.035649095,1.5199003,0.8233505,0.03999984,0.04,-9.726598,0.44006437063217163,-0.89689463,-0.005103665,0.15120330452919006,0.069201276
2024.766666665154,0.053029187,-0.75574386,-0.01762079,-2.3697689,0.036735468,1.5183403,0.8244916,0.03999983,0.04,-9.723928,0.4516218900680542,-0.9248776,-0.005215215,0.15416154265403748,0.06994599
2024.7833333318206,0.054622322,-0.7548789,-0.018153146,-2.370175,0.037839767,1.5167544,0.82565176,0.039999835,0.04,-9.720453,0.4636166989803314,-0.9533557,-0.005326933,0.157126322388649,0.07066765
2024.7999999984872,0.056241285,-0.754,-0.018694136,-2.3705866,0.038961984,1.5151429,0.8268307,0.039999835,0.04,-9.717425,0.47540533542633057,-0.9822944,-0.0054395935,0.160090371966362,0.07136552
2024.816666665154,0.057886027,-0.7531071,-0.019243747,-2.3710048,0.040102057,1.5135057,0.82802826,0.039999835,0.04,-9.713842,0.487469345331192,-1.011722,-0.0055520697,0.16306103765964508,0.07203982
2024.8333333318205,0.059556477,-0.75220007,-0.019801952,-2.3714297,0.04125996,1.5118428,0.82924455,0.03999984,0.04,-9.709936,0.499787837266922,-1.0416396,-0.005663624,0.16603338718414307,0.072688304
2024.8499999984872,0.061252568,-0.75127894,-0.020368723,-2.3718607,0.04243564,1.5101546,0.8304795,0.039999835,0.04,-9.70645,0.5118979811668396,-1.0720633,-0.0057749543,0.16900330781936646,0.07331132
2024.8666666651538,0.06297422,-0.75034404,-0.020944038,-2.372299,0.043629013,1.5084409,0.831733,0.039999828,0.04,-9.702187,0.5244191288948059,-1.1029676,-0.005885835,0.17197537422180176,0.0739082
2024.8833333318205,0.06472133,-0.74939555,-0.021527875,-2.3727436,0.044840045,1.506702,0.83300513,0.03999983,0.04,-9.698419,0.536723256111145,-1.134355,-0.0059962026,0.17494124174118042,0.07447898
2024.8999999984871,0.06649387,-0.7484331,-0.022120202,-2.373195,0.04606866,1.5049375,0.83429575,0.039999824,0.04,-9.693823,0.5494276285171509,-1.1661878,-0.006106189,0.17790937423706055,0.07502236
2024.9166666651538,0.06829166,-0.74745685,-0.022720981,-2.3736527,0.047314797,1.503148,0.8356047,0.03999983,0.04,-9.68966,0.5619013905525208,-1.1985663,-0.0062155365,0.18087086081504822,0.07553836
2024.9333333318204,0.07011463,-0.74646693,-0.023330184,-2.3741162,0.048578415,1.5013334,0.83693206,0.03999982,0.04,-9.68477,0.5747707486152649,-1.2313933,-0.0063239704,0.18382856249809265,0.07602628
2024.949999998487,0.07196267,-0.74546355,-0.023947772,-2.3745859,0.049859375,1.4994936,0.83827764,0.03999982,0.04,-9.680049,0.5873966813087463,-1.2647047,-0.0064314087,0.18678563833236694,0.07648639
2024.9666666651538,0.07383566,-0.7444464,-0.0245737,-2.3750618,0.051157635,1.4976292,0.8396416,0.039999817,0.04,-9.674787,0.600397527217865,-1.2984662,-0.0065375846,0.18973776698112488,0.07691683
2024.9833333318204,0.0757335,-0.74341583,-0.025207937,-2.3755448,0.052473105,1.4957398,0.84102356,0.03999982,0.04,-9.669747,0.613158643245697,-1.332744,-0.006643623,0.1926850527524948,0.077317856
2024.999999998487,0.07765606,-0.7423719,-0.025850436,-2.3760343,0.053805698,1.4938259,0.8424234,0.039999817,0.04,-9.664177,0.6262912750244141,-1.3674681,-0.0067480863,0.19562214612960815,0.07768917
2025.0166666651537,0.07960315,-0.7413145,-0.02650115,-2.3765297,0.055155322,1.4918877,0.84384125,0.03999981,0.04,-9.658784,0.6391696333885193,-1.4026833,-0.006850497,0.1985509842634201,0.07803036
2025.0333333318204,0.081574686,-0.74024373,-0.027160034,-2.3770313,0.056521863,1.489925,0.8452767,0.039999805,0.04,-9.652656,0.6524016261100769,-1.4383658,-0.0069520706,0.20147396624088287,0.07834185
2025.049999998487,0.083570525,-0.73915994,-0.027827041,-2.3775387,0.057905234,1.4879382,0.8467302,0.039999805,0.04,-9.646797,0.6653708815574646,-1.4745052,-0.0070509855,0.2043871432542801,0.07862188
2025.0666666651537,0.0855905,-0.7380629,-0.028502122,-2.3780522,0.059305325,1.4859275,0.84820086,0.0399998,0.04,-9.640417,0.6785168647766113,-1.5110971,-0.007149475,0.2072943150997162,0.07886961
2025.0833333318203,0.08763442,-0.7369531,-0.029185217,-2.378572,0.060722012,1.4838928,0.84968907,0.039999805,0.04,-9.633658,0.6918544769287109,-1.5481503,-0.0072440216,0.21019165217876434,0.07908592
2025.099999998487,0.08970215,-0.7358303,-0.029876282,-2.3790984,0.062155236,1.4818345,0.8511947,0.039999794,0.04,-9.627122,0.704939067363739,-1.5856559,-0.007336844,0.213077574968338,0.07927208
2025.1166666651536,0.09179357,-0.73469466,-0.030575255,-2.3796306,0.06360483,1.4797528,0.8527178,0.03999979,0.04,-9.61998,0.7183219790458679,-1.6236123,-0.0074282857,0.21594937145709991,0.07942547
2025.1333333318203,0.09390846,-0.73354626,-0.031282075,-2.380169,0.065070674,1.4776473,0.85425776,0.039999783,0.04,-9.612864,0.7314105033874512,-1.6620349,-0.007517732,0.2188117802143097,0.07954405
2025.149999998487,0.09604665,-0.7323852,-0.031996686,-2.3807125,0.066552624,1.4755187,0.85581475,0.03999978,0.04,-9.605213,0.7448235750198364,-1.7008786,-0.0076040165,0.22165711224079132,0.079631284
2025.1666666651536,0.098207936,-0.7312116,-0.032719027,-2.381262,0.068050615,1.4733673,0.8573885,0.039999776,0.04,-9.597575,0.7579658627510071,-1.7401857,-0.0076871747,0.22449210286140442,0.07968879
2025.1833333318202,0.100392126,-0.73002553,-0.03344903,-2.3818178,0.06956449,1.471193,0.85897905,0.03999977,0.04,-9.589334,0.7713537216186523,-1.7799025,-0.00776745,0.22731439769268036,0.07971101
2025.1999999984869,0.10259904,-0.72882724,-0.034186643,-2.3823793,0.071094066,1.4689962,0.860586,0.03999977,0.04,-9.581306,0.7844812273979187,-1.8200815,-0.007845413,0.23011797666549683,0.07970096
2025.2166666651535,0.10482849,-0.7276167,-0.03493179,-2.3829465,0.072639294,1.4667768,0.8622094,0.03999977,0.04,-9.572532,0.7978702783584595,-1.8606516,-0.007919254,0.23290805518627167,0.07965859
2025.2333333318202,0.107080266,-0.7263939,-0.035684407,-2.3835187,0.07419997,1.4645351,0.8638491,0.039999764,0.04,-9.563896,0.8109481334686279,-1.9016792,-0.0079901265,0.2356807291507721,0.079581134
2025.2499999984868,0.10935417,-0.7251592,-0.036444407,-2.384097,0.07577597,1.4622712,0.865505,0.039999757,0.04,-9.55455,0.8242912888526917,-1.9431012,-0.008057664,0.23843665421009064,0.07947273
2025.2666666651535,0.11164996,-0.7239126,-0.03721175,-2.384681,0.07736713,1.4599856,0.8671768,0.039999753,0.04,-9.545373,0.8373059630393982,-1.9849352,-0.008121673,0.24117319285869598,0.07932628
2025.2833333318201,0.1139674,-0.72265416,-0.03798633,-2.38527,0.078973286,1.4576786,0.8688643,0.03999975,0.04,-9.535508,0.8505904674530029,-2.0271907,-0.00818198,0.2438911646604538,0.079150036
2025.2999999984868,0.116306305,-0.72138405,-0.038768087,-2.385865,0.080594294,1.4553502,0.87056744,0.039999742,0.04,-9.525696,0.8635404109954834,-2.0698462,-0.008237887,0.2465902715921402,0.07893824
2025.3166666651534,0.11866644,-0.72010237,-0.039556947,-2.3864653,0.08223002,1.4530005,0.8722861,0.039999735,0.04,-9.515443,0.8765959739685059,-2.1129034,-0.0082896855,0.24926847219467163,0.078694366
2025.33333333182,0.121047564,-0.7188094,-0.040352825,-2.3870707,0.083880275,1.4506298,0.87402,0.039999735,0.04,-9.504694,0.8897179365158081,-2.156336,-0.008337725,0.2519252598285675,0.07841834
2025.3499999984867,0.12344947,-0.7175053,-0.041155644,-2.3876817,0.08554494,1.448239,0.8757689,0.03999973,0.04,-9.493954,0.9025174379348755,-2.2001512,-0.008380829,0.2545609474182129,0.07810835
2025.3666666651534,0.12587184,-0.71618986,-0.04196533,-2.388298,0.08722378,1.4458274,0.87753296,0.039999723,0.04,-9.4826145,0.915493905544281,-2.2443514,-0.008419037,0.25717470049858093,0.07776381
2025.38333333182,0.12831447,-0.71486354,-0.0427818,-2.3889196,0.08891666,1.4433959,0.87931174,0.039999716,0.04,-9.471293,0.928155243396759,-2.2889466,-0.008453827,0.2597632110118866,0.0773838
2025.3999999984867,0.13077714,-0.71352625,-0.04360497,-2.3895464,0.090623386,1.4409442,0.88110507,0.039999716,0.04,-9.4592905,0.9410101175308228,-2.3338776,-0.008483595,0.26232948899269104,0.076973595
2025.4166666651533,0.13325956,-0.71217823,-0.04443475,-2.3901777,0.092343815,1.4384729,0.8829127,0.039999716,0.04,-9.447379,0.9535185694694519,-2.3791976,-0.008508399,0.2648671269416809,0.0765297
2025.43333333182,0.13576145,-0.7108197,-0.045271046,-2.3908138,0.094077766,1.4359821,0.88473463,0.039999705,0.04,-9.434615,0.9661651849746704,-2.4248352,-0.008527167,0.2673834264278412,0.07605253
2025.4499999984866,0.13828263,-0.7094507,-0.046113778,-2.3914554,0.09582499,1.4334726,0.8865705,0.039999694,0.04,-9.421957,0.978489339351654,-2.4708397,-0.008541254,0.2698743939399719,0.075540446
2025.4666666651533,0.14082275,-0.70807135,-0.046962846,-2.3921013,0.097585335,1.4309438,0.88842016,0.039999682,0.04,-9.408711,0.9909544587135315,-2.5171833,-0.008549932,0.2723373770713806,0.074997425
2025.48333333182,0.14338161,-0.7066819,-0.04781818,-2.3927522,0.09935869,1.4283965,0.89028335,0.03999968,0.04,-9.395321,1.0030889511108398,-2.563863,-0.008552704,0.2747739553451538,0.07442269
2025.4999999984866,0.14595884,-0.70528233,-0.04867968,-2.3934076,0.10114477,1.4258308,0.8921601,0.039999682,0.04,-9.381373,1.0153229236602783,-2.6108513,-0.008549014,0.2771807610988617,0.07381647
2025.5166666651533,0.1485542,-0.703873,-0.049547255,-2.3940673,0.10294339,1.4232472,0.8940501,0.039999675,0.04,-9.3673315,1.0272272825241089,-2.6581826,-0.008540884,0.2795596420764923,0.07317759
2025.53333333182,0.15116744,-0.7024539,-0.050420806,-2.394732,0.10475439,1.4206457,0.89595324,0.039999675,0.04,-9.352637,1.0392144918441772,-2.7057798,-0.008526875,0.281909704208374,0.072507344
2025.5499999984866,0.1537983,-0.70102537,-0.05130023,-2.395401,0.10657757,1.4180264,0.89786893,0.039999668,0.04,-9.337941,1.0508835315704346,-2.7537282,-0.008507343,0.28422871232032776,0.07180623
2025.5666666651532,0.15644638,-0.69958735,-0.05218545,-2.396074,0.10841271,1.4153905,0.8997972,0.039999668,0.04,-9.32269,1.0624967813491821,-2.8019328,-0.008480465,0.2865157723426819,0.07107363
2025.5833333318199,0.1591115,-0.69814014,-0.053076353,-2.3967519,0.11025964,1.4127374,0.901738,0.039999668,0.04,-9.306919,1.0740842819213867,-2.8504567,-0.0084473975,0.28877466917037964,0.07031059
2025.5999999984865,0.16179326,-0.69668376,-0.053972833,-2.3974335,0.112118125,1.4100678,0.9036909,0.039999656,0.04,-9.291144,1.0853310823440552,-2.8992443,-0.008408564,0.29099878668785095,0.06951685
2025.6166666651532,0.16449144,-0.6952186,-0.0548748,-2.3981197,0.11398797,1.4073817,0.9056556,0.03999966,0.04,-9.274663,1.096614122390747,-2.9482963,-0.008362868,0.2931915819644928,0.06869393
2025.6333333318198,0.16720569,-0.6937446,-0.05578216,-2.39881,0.11586892,1.4046794,0.9076321,0.03999966,0.04,-9.258139,1.1075634956359863,-2.997602,-0.008310583,0.2953493595123291,0.06784088
2025.6499999984865,0.16993569,-0.6922623,-0.056694806,-2.3995047,0.11776082,1.4019617,0.9096203,0.03999965,0.04,-9.240972,1.1185288429260254,-3.0471797,-0.008251647,0.29747122526168823,0.06695865
2025.6666666651531,0.1726812,-0.6907714,-0.05761261,-2.4002025,0.11966342,1.3992283,0.91161954,0.039999653,0.04,-9.223705,1.1291688680648804,-3.096996,-0.008187304,0.29955893754959106,0.06604862
2025.6833333318198,0.17544186,-0.6892722,-0.058535505,-2.4009047,0.121576525,1.3964797,0.9136299,0.039999645,0.04,-9.205709,1.1397757530212402,-3.147035,-0.00811471,0.3016127645969391,0.06510951
2025.6999999984864,0.17821737,-0.68776506,-0.059463367,-2.4016104,0.1234999,1.3937163,0.9156509,0.039999645,0.04,-9.187718,1.1500738859176636,-3.19733,-0.008035745,0.303627610206604,0.06414357
2025.716666665153,0.1810074,-0.6862501,-0.060396083,-2.40232,0.12543333,1.3909388,0.91768277,0.039999645,0.04,-9.169039,1.1603375673294067,-3.2478204,-0.00794936,0.3056059777736664,0.06314983
2025.7333333318197,0.18381162,-0.6847274,-0.061333556,-2.403033,0.12737659,1.3881471,0.91972476,0.039999634,0.04,-9.150209,1.1702685356140137,-3.2985184,-0.007856619,0.307548850774765,0.062129956
2025.7499999984864,0.18662973,-0.6831971,-0.062275678,-2.4037495,0.12932943,1.3853415,0.921777,0.039999634,0.04,-9.130783,1.1801598072052002,-3.3494205,-0.0077562295,0.3094542622566223,0.061083987
2025.766666665153,0.18946142,-0.6816594,-0.063222334,-2.4044695,0.13129169,1.3825223,0.92383903,0.03999963,0.04,-9.111198,1.1897135972976685,-3.4005263,-0.007649195,0.31132110953330994,0.06001146
2025.7833333318197,0.19230631,-0.68011475,-0.06417341,-2.4051926,0.13326307,1.3796903,0.9259107,0.039999627,0.04,-9.091015,1.1992069482803345,-3.4517894,-0.0075343666,0.31314828991889954,0.058914684
2025.7999999984863,0.19516407,-0.6785631,-0.065128796,-2.4059193,0.13524334,1.3768451,0.9279918,0.039999623,0.04,-9.07063,1.2083678245544434,-3.503235,-0.0074125812,0.3149382770061493,0.057793148
2025.816666665153,0.19803433,-0.6770043,-0.06608841,-2.4066494,0.13723232,1.3739877,0.93008196,0.039999634,0.04,-9.049839,1.2174007892608643,-3.554841,-0.0072835623,0.31668567657470703,0.056647576
2025.8333333318196,0.20091678,-0.6754391,-0.06705209,-2.4073822,0.13922976,1.3711183,0.9321812,0.039999627,0.04,-9.028558,1.226287603378296,-3.6066334,-0.007147644,0.3183906078338623,0.05548
2025.8499999984863,0.2038112,-0.6738677,-0.068019785,-2.4081187,0.14123541,1.3682361,0.9342889,0.03999962,0.04,-9.006963,1.2348250150680542,-3.6585178,-0.0070048803,0.32005828619003296,0.054288667
2025.866666665153,0.20671709,-0.6722898,-0.068991296,-2.4088576,0.14324905,1.3653424,0.9364051,0.03999962,0.04,-8.984973,1.2432652711868286,-3.7105222,-0.00685409,0.321677565574646,0.05307466
2025.8833333318196,0.20963416,-0.6707057,-0.06996658,-2.4095993,0.1452704,1.3624375,0.9385294,0.039999615,0.04,-8.962635,1.2513948678970337,-3.7627003,-0.006696615,0.3232555389404297,0.05184202
2025.8999999984862,0.21256202,-0.6691156,-0.07094547,-2.410344,0.14729929,1.3595232,0.9406615,0.039999604,0.04,-8.939775,1.2593873739242554,-3.814994,-0.0065312847,0.3247908055782318,0.050588697
2025.916666665153,0.21550044,-0.6675199,-0.07192789,-2.411091,0.14933538,1.3565984,0.9428013,0.039999608,0.04,-8.916678,1.2670471668243408,-3.8674126,-0.0063585937,0.3262878358364105,0.04931364
2025.9333333318195,0.21844895,-0.6659188,-0.072913684,-2.411841,0.15137856,1.353663,0.9449485,0.039999608,0.04,-8.893087,1.2745904922485352,-3.919869,-0.0061788624,0.3277404308319092,0.048020557
2025.9499999984862,0.22140728,-0.6643127,-0.07390278,-2.4125931,0.15342848,1.3507177,0.9471029,0.0399996,0.04,-8.869208,1.2818021774291992,-3.9724028,-0.0059913034,0.3291488289833069,0.046709366
2025.9666666651528,0.22437496,-0.662701,-0.074895024,-2.4133472,0.15548486,1.3477631,0.9492642,0.039999604,0.04,-8.844838,1.2888610363006592,-4.0249896,-0.0057970807,0.3305119574069977,0.045378357
2025.9833333318195,0.22735181,-0.6610849,-0.0758903,-2.414104,0.15754752,1.3447998,0.9514321,0.039999604,0.04,-8.820186,1.295606017112732,-4.0777125,-0.0055964314,0.3318306803703308,0.04403038
2025.9999999984861,0.23033737,-0.6594638,-0.0768885,-2.4148633,0.15961629,1.3418274,0.9536064,0.039999604,0.04,-8.795032,1.30217444896698,-4.1304054,-0.005387226,0.3331068754196167,0.042665824
2026.0166666651528,0.23333122,-0.6578381,-0.0778895,-2.4156246,0.16169077,1.3388462,0.9557866,0.0399996,0.04,-8.769722,1.3084529638290405,-4.1832175,-0.005172093,0.33433234691619873,0.04128561
2026.0333333318194,0.23633306,-0.6562081,-0.078893185,-2.416388,0.16377081,1.3358573,0.9579727,0.039999604,0.04,-8.74384,1.3145381212234497,-4.236025,-0.0049490733,0.33550938963890076,0.03989104
2026.049999998486,0.23934251,-0.65457386,-0.07989944,-2.417153,0.16585617,1.3328606,0.96016437,0.039999597,0.04,-8.717702,1.3203370571136475,-4.288877,-0.004719797,0.33663997054100037,0.03848344
2026.0666666651528,0.24235925,-0.6529357,-0.08090813,-2.41792,0.16794649,1.3298577,0.96236134,0.039999597,0.04,-8.691041,1.3258740901947021,-4.341719,-0.004483298,0.33772513270378113,0.037060056
2026.0833333318194,0.24538292,-0.6512938,-0.08191912,-2.418689,0.17004155,1.326848,0.9645635,0.039999597,0.04,-8.664083,1.3312089443206787,-4.3946214,-0.004240354,0.33876559138298035,0.035624437
2026.099999998486,0.2484131,-0.6496482,-0.08293229,-2.4194596,0.17214112,1.3238311,0.9667702,0.0399996,0.04,-8.636789,1.3362329006195068,-4.4474573,-0.003991251,0.3397590219974518,0.03417642
2026.1166666651527,0.2514494,-0.6479998,-0.08394755,-2.420231,0.17424493,1.3208082,0.9689813,0.0399996,0.04,-8.609072,1.341059684753418,-4.5002737,-0.0037346014,0.3407009243965149,0.032719392
2026.1333333318194,0.25449145,-0.6463478,-0.08496474,-2.4210045,0.17635274,1.3177797,0.97119707,0.0399996,0.04,-8.580956,1.3455979824066162,-4.5530143,-0.0034706858,0.3415994942188263,0.031252153
2026.149999998486,0.25753897,-0.64469326,-0.08598375,-2.4217796,0.17846431,1.3147458,0.97341675,0.0399996,0.04,-8.552589,1.3498879671096802,-4.6058373,-0.0032029345,0.3424459397792816,0.029773708
2026.1666666651527,0.2605916,-0.64303595,-0.08700445,-2.4225562,0.18057936,1.311706,0.97564024,0.039999597,0.04,-8.523836,1.3539177179336548,-4.658525,-0.002928725,0.34324467182159424,0.02828762
2026.1833333318193,0.2636488,-0.64137566,-0.08802673,-2.4233336,0.18269767,1.3086622,0.9778665,0.039999597,0.04,-8.494713,1.357690691947937,-4.711153,-0.002648762,0.3439895808696747,0.026793955
2026.199999998486,0.26671037,-0.63971317,-0.089050464,-2.424112,0.18481891,1.3056141,0.9800959,0.039999597,0.04,-8.465226,1.3611938953399658,-4.7637978,-0.0023602836,0.3446868062019348,0.025292324
2026.2166666651526,0.26977578,-0.63804865,-0.09007549,-2.4248915,0.18694288,1.3025622,0.9823288,0.039999593,0.04,-8.435346,1.3644623756408691,-4.8162847,-0.002065763,0.3453364074230194,0.023786683
2026.2333333318193,0.27284473,-0.6363821,-0.09110173,-2.4256716,0.18906924,1.2995065,0.98456395,0.039999597,0.04,-8.405161,1.367432951927185,-4.8687015,-0.0017680968,0.3459364175796509,0.02227334
2026.249999998486,0.27591693,-0.6347138,-0.09212903,-2.4264524,0.19119787,1.2964476,0.98680115,0.0399996,0.04,-8.374611,1.3701775074005127,-4.9210114,-0.0014640221,0.3464864194393158,0.020757163
2026.2666666651526,0.278992,-0.63304436,-0.09315726,-2.4272344,0.19332841,1.2933862,0.98904026,0.0399996,0.04,-8.343719,1.3726273775100708,-4.9732084,-0.001152663,0.3469865322113037,0.019235997
2026.2833333318192,0.28206939,-0.6313734,-0.09418633,-2.4280174,0.19546056,1.2903222,0.9912813,0.0399996,0.04,-8.312591,1.3748434782028198,-5.025303,-0.0008352001,0.34743595123291016,0.017712707
2026.2999999984859,0.28514877,-0.62970144,-0.0952161,-2.4288006,0.19759412,1.2872564,0.99352413,0.039999608,0.04,-8.281086,1.376820683479309,-5.077297,-0.0005146218,0.34783291816711426,0.016188134
2026.3166666651525,0.28822982,-0.6280284,-0.0962464,-2.4295843,0.19972888,1.2841886,0.9957682,0.039999604,0.04,-8.249191,1.3785029649734497,-5.129112,-0.00019009666,0.3481816053390503,0.014661023
2026.3333333318192,0.2913122,-0.62635475,-0.09727715,-2.430368,0.20186448,1.2811198,0.998013,0.039999604,0.04,-8.21708,1.3799017667770386,-5.1808076,0.00013817487,0.3484760522842407,0.013132553
2026.3499999984858,0.29439554,-0.6246808,-0.09830821,-2.4311516,0.20400074,1.2780502,1.0002584,0.039999608,0.04,-8.184503,1.3810852766036987,-5.2323174,0.00047296615,0.3487241864204407,0.011605321
2026.3666666651525,0.29747933,-0.62300646,-0.09933946,-2.4319358,0.20613733,1.2749796,1.0025043,0.03999962,0.04,-8.151692,1.3819727897644043,-5.2836494,0.00081280543,0.3489238917827606,0.010080112
2026.3833333318191,0.3005633,-0.62133193,-0.10037078,-2.4327202,0.20827402,1.271909,1.0047503,0.039999623,0.04,-8.118608,1.3826568126678467,-5.334841,0.0011555572,0.3490689694881439,0.0085564805
2026.3999999984858,0.303647,-0.6196578,-0.10140202,-2.4335046,0.21041058,1.2688386,1.006996,0.039999627,0.039999995,-8.085291,1.383034348487854,-5.385868,0.0015021679,0.3491617441177368,0.007035896
2026.4166666651524,0.30673018,-0.6179838,-0.102433056,-2.434289,0.21254665,1.2657691,1.0092417,0.039999623,0.03999999,-8.051548,1.3831970691680908,-5.4366655,0.0018524764,0.34920454025268555,0.005517513
2026.433333331819,0.30981234,-0.61631006,-0.10346378,-2.435073,0.21468201,1.2627004,1.0114863,0.039999627,0.03999999,-8.017609,1.3830386400222778,-5.487285,0.0022053744,0.3491967022418976,0.004003582
2026.4499999984857,0.31289297,-0.6146375,-0.10449403,-2.4358563,0.21681644,1.2596331,1.0137303,0.039999638,0.04,-7.9833236,1.3827080726623535,-5.537708,0.0025618013,0.3491358160972595,0.0024953485
2026.4666666651524,0.31597188,-0.61296564,-0.105523705,-2.4366393,0.21894963,1.2565675,1.0159726,0.03999963,0.03999999,-7.9487753,1.3820586204528809,-5.5878344,0.0029198034,0.3490273058414459,0.0009919709
2026.483333331819,0.31904882,-0.61129516,-0.10655269,-2.4374218,0.2210814,1.253504,1.0182136,0.03999963,0.039999988,-7.9139347,1.3812330961227417,-5.637814,0.0032822997,0.3488675355911255,-0.0005038751
2026.4999999984857,0.3221232,-0.60962605,-0.10758085,-2.4382036,0.22321138,1.250443,1.020453,0.039999638,0.03999999,-7.878933,1.3800536394119263,-5.6875033,0.0036464045,0.34865641593933105,-0.0019940408
2026.5166666651523,0.32519466,-0.60795844,-0.10860805,-2.4389849,0.22533932,1.2473843,1.0226899,0.039999638,0.03999999,-7.8435354,1.3787440061569214,-5.7369604,0.0040124017,0.3483956754207611,-0.003474795
2026.533333331819,0.3282629,-0.6062926,-0.109634176,-2.4397652,0.22746502,1.2443293,1.0249244,0.039999645,0.039999995,-7.808052,1.3771123886108398,-5.786181,0.0043809195,0.34808072447776794,-0.00494564
2026.5499999984856,0.3313274,-0.60462874,-0.11065908,-2.4405448,0.2295882,1.241278,1.0271566,0.03999964,0.039999988,-7.7721615,1.3753010034561157,-5.8351445,0.004752259,0.3477180302143097,-0.00640861
2026.5666666651523,0.334388,-0.602967,-0.11168265,-2.441323,0.23170857,1.2382307,1.0293856,0.039999645,0.03999999,-7.7361317,1.373232126235962,-5.8838463,0.005122935,0.3473033607006073,-0.00786057
2026.583333331819,0.33744416,-0.60130763,-0.112704754,-2.4420998,0.2338259,1.2351873,1.031612,0.03999964,0.039999984,-7.699867,1.3708441257476807,-5.93224,0.005496588,0.3468409478664398,-0.009302242
2026.5999999984856,0.3404956,-0.59965056,-0.11372532,-2.4428763,0.23593995,1.2321484,1.0338347,0.039999645,0.039999984,-7.6632476,1.3683521747589111,-5.9803376,0.0058680275,0.3463282883167267,-0.010731101
2026.6166666651523,0.3435419,-0.5979967,-0.114744164,-2.4436507,0.23805048,1.2291158,1.0360535,0.03999964,0.039999977,-7.626751,1.365524172782898,-6.0282397,0.006240792,0.34575825929641724,-0.012146835
2026.633333331819,0.3465827,-0.59634525,-0.11576115,-2.4444242,0.2401571,1.2260878,1.0382684,0.03999965,0.03999998,-7.5895987,1.3625471591949463,-6.075737,0.0066155763,0.34515029191970825,-0.013552015
2026.6499999984856,0.34961757,-0.59469736,-0.11677618,-2.4451964,0.24225964,1.2230667,1.0404791,0.03999964,0.03999997,-7.552657,1.3592650890350342,-6.12301,0.006989104,0.344483882188797,-0.01494173
2026.6666666651522,0.35264614,-0.59305304,-0.117789134,-2.4459665,0.2443579,1.2200505,1.0426848,0.03999964,0.039999966,-7.5152717,1.3558851480484009,-6.1699433,0.007362121,0.343772292137146,-0.016317451
2026.6833333318189,0.35566828,-0.59141237,-0.118799895,-2.446735,0.24645154,1.2170414,1.0448861,0.039999645,0.03999997,-7.4777975,1.3521475791931152,-6.2164607,0.0077372002,0.34300974011421204,-0.017677836
2026.6999999984855,0.35868332,-0.58977556,-0.119808346,-2.4475014,0.24854031,1.2140396,1.0470822,0.039999656,0.039999977,-7.4400215,1.3482996225357056,-6.2627573,0.008110008,0.3422010540962219,-0.019023329
2026.7166666651522,0.36169097,-0.5881425,-0.12081434,-2.4482663,0.250624,1.2110444,1.0492728,0.039999653,0.03999997,-7.402229,1.3441550731658936,-6.308683,0.008482904,0.3413469195365906,-0.020352066
2026.7333333318188,0.3646912,-0.5865137,-0.12181774,-2.4490297,0.25270233,1.2080566,1.0514578,0.03999966,0.03999997,-7.364193,1.3399224281311035,-6.3542943,0.008854193,0.3404390513896942,-0.021662747
2026.7499999984855,0.36768326,-0.5848887,-0.12281846,-2.4497907,0.25477505,1.2050774,1.0536369,0.039999664,0.039999973,-7.326194,1.3353238105773926,-6.399571,0.00922425,0.33947959542274475,-0.022955716
2026.7666666651521,0.37066656,-0.583269,-0.123816386,-2.4505494,0.25684193,1.202107,1.0558102,0.03999967,0.039999973,-7.287766,1.3306928873062134,-6.444533,0.009592144,0.3384737968444824,-0.024229795
2026.7833333318188,0.3736413,-0.5816536,-0.12481137,-2.451306,0.25890276,1.1991454,1.0579768,0.03999967,0.03999997,-7.249339,1.3257274627685547,-6.489017,0.009956059,0.3374272584915161,-0.02548839
2026.7999999984854,0.3766069,-0.5800436,-0.12580329,-2.4520605,0.26095724,1.1961918,1.0601369,0.03999968,0.039999966,-7.2107496,1.3206921815872192,-6.533272,0.010318893,0.33633020520210266,-0.026725767
2026.816666665152,0.37956288,-0.57843876,-0.12679204,-2.4528122,0.26300517,1.1932489,1.0622901,0.039999682,0.03999996,-7.172051,1.315406322479248,-6.5770226,0.010679304,0.3351835608482361,-0.027942788
2026.8333333318187,0.38250905,-0.57683927,-0.12777747,-2.4535613,0.26504624,1.1903145,1.0644361,0.039999682,0.03999996,-7.133313,1.3098350763320923,-6.6204977,0.011037032,0.33399686217308044,-0.029142646
2026.8499999984854,0.38544494,-0.5752453,-0.12875953,-2.4543083,0.26708025,1.187391,1.0665745,0.03999969,0.03999996,-7.094341,1.3042817115783691,-6.663538,0.011391308,0.3327582776546478,-0.030319039
2026.866666665152,0.38837028,-0.573657,-0.12973805,-2.4550524,0.26910692,1.1844784,1.0687052,0.039999694,0.039999954,-7.05548,1.2983793020248413,-6.706275,0.011742033,0.3314758539199829,-0.0314746
2026.8833333318187,0.39128473,-0.57207453,-0.130713,-2.4557939,0.27112597,1.1815766,1.0708282,0.039999705,0.03999996,-7.016268,1.2924474477767944,-6.748582,0.012089529,0.33014973998069763,-0.03260943
2026.8999999984853,0.3941878,-0.5704982,-0.13168418,-2.456532,0.27313724,1.178686,1.0729427,0.03999971,0.039999954,-6.9772396,1.2862001657485962,-6.7905126,0.0124315135,0.3287787437438965,-0.033721533
2026.916666665152,0.39707935,-0.56892806,-0.1326514,-2.4572673,0.27514046,1.175807,1.075049,0.039999723,0.039999958,-6.9378524,1.2799556255340576,-6.8320055,0.012770163,0.3273650109767914,-0.034811884
2026.9333333318186,0.39995897,-0.5673647,-0.13361472,-2.458,0.27713546,1.1729394,1.0771468,0.039999727,0.039999958,-6.8987265,1.2733515501022339,-6.873137,0.013103753,0.32590577006340027,-0.03587901
2026.9499999984853,0.40282625,-0.5658077,-0.13457389,-2.4587293,0.27912188,1.1700844,1.0792353,0.039999735,0.039999954,-6.8592973,1.266815423965454,-6.913843,0.013432032,0.3244011104106903,-0.03692198
2026.966666665152,0.4056809,-0.5642577,-0.13552883,-2.4594555,0.2810996,1.1672417,1.0813148,0.039999746,0.039999954,-6.8200393,1.2599233388900757,-6.9541883,0.013755839,0.32285434007644653,-0.037941318
2026.9833333318186,0.40852258,-0.56271476,-0.13647945,-2.4601781,0.28306827,1.1644119,1.0833849,0.03999975,0.039999954,-6.780544,1.2530674934387207,-6.9940867,0.0140733,0.32126232981681824,-0.03893676
2026.9999999984852,0.41135094,-0.56117916,-0.13742562,-2.4608977,0.28502774,1.1615951,1.0854453,0.039999753,0.039999954,-6.741182,1.245879054069519,-7.033556,0.014386261,0.31963130831718445,-0.03990846
2027.016666665152,0.4141658,-0.55965084,-0.13836722,-2.461614,0.28697777,1.1587923,1.0874958,0.03999976,0.039999954,-6.70164,1.23876953125,-7.0726247,0.014692507,0.3179560601711273,-0.040854167
2027.0333333318185,0.41696668,-0.5581302,-0.13930419,-2.4623265,0.2889181,1.156003,1.0895361,0.03999977,0.03999995,-6.662345,1.2313032150268555,-7.111317,0.014993012,0.3162405788898468,-0.04177395
2027.0499999984852,0.41975322,-0.55661726,-0.1402364,-2.4630353,0.29084852,1.153228,1.0915658,0.039999776,0.039999947,-6.622741,1.2239341735839844,-7.1495247,0.015287214,0.3144838809967041,-0.042667698
2027.0666666651518,0.4225251,-0.5551122,-0.14116369,-2.4637403,0.29276884,1.1504676,1.093585,0.039999783,0.03999995,-6.583294,1.216328740119934,-7.1873426,0.015575189,0.31268733739852905,-0.043537524
2027.0833333318185,0.42528215,-0.5536152,-0.14208601,-2.4644415,0.29467878,1.1477221,1.0955933,0.03999978,0.039999947,-6.5440106,1.2084897756576538,-7.2247386,0.01585632,0.31085121631622314,-0.044382766
2027.0999999984851,0.4280239,-0.55212665,-0.14300321,-2.465139,0.29657826,1.1449918,1.0975904,0.03999979,0.03999995,-6.50447,1.200769305229187,-7.261687,0.016130632,0.3089764714241028,-0.045199603
2027.1166666651518,0.43075013,-0.5506464,-0.14391528,-2.4658322,0.29846692,1.1422768,1.0995761,0.039999794,0.039999954,-6.465268,1.1927167177200317,-7.2982044,0.016398594,0.30706363916397095,-0.045991607
2027.1333333318184,0.4334605,-0.54917496,-0.14482205,-2.4665222,0.30034462,1.1395779,1.1015505,0.039999798,0.039999954,-6.4258046,1.1847869157791138,-7.3342953,0.01666,0.30511248111724854,-0.046756353
2027.149999998485,0.43615466,-0.547712,-0.14572339,-2.4672077,0.3022109,1.1368948,1.1035134,0.039999798,0.03999995,-6.3868003,1.176559567451477,-7.3700004,0.016911443,0.3031211495399475,-0.047493856
2027.1666666651518,0.43883228,-0.5462581,-0.14661923,-2.4678893,0.30406594,1.1342282,1.1054639,0.039999805,0.039999954,-6.347389,1.1684198379516602,-7.405213,0.017153518,0.30109480023384094,-0.04820397
2027.1833333318184,0.44149312,-0.5448134,-0.1475095,-2.4685667,0.30590928,1.1315784,1.1074024,0.039999813,0.039999958,-6.3085046,1.159995675086975,-7.4400396,0.01738858,0.29902878403663635,-0.048887264
2027.199999998485,0.444137,-0.54337806,-0.14839403,-2.469239,0.30774093,1.1289456,1.1093286,0.039999813,0.039999954,-6.2692804,1.1516886949539185,-7.474372,0.017614326,0.2969297766685486,-0.049543686
2027.2166666651517,0.44676355,-0.5419519,-0.14927278,-2.469907,0.30956048,1.1263299,1.1112419,0.039999824,0.03999996,-6.2304635,1.1430655717849731,-7.508261,0.017833415,0.29479679465293884,-0.05017255
2027.2333333318184,0.44937235,-0.54053545,-0.15014562,-2.470571,0.31136778,1.123732,1.1131425,0.039999817,0.039999954,-6.1914377,1.1346129179000854,-7.541736,0.01804423,0.2926289439201355,-0.0507743
2027.249999998485,0.45196325,-0.5391288,-0.1510125,-2.4712303,0.31316262,1.1211519,1.1150298,0.039999824,0.039999958,-6.1529365,1.1258854866027832,-7.5748286,0.018245237,0.2904253602027893,-0.05134757
2027.2666666651517,0.45453596,-0.5377319,-0.15187325,-2.4718852,0.31494486,1.1185896,1.1169039,0.039999824,0.039999954,-6.1141334,1.117303490638733,-7.6073947,0.01843807,0.28818920254707336,-0.05189331
2027.2833333318183,0.45709008,-0.5363452,-0.15272784,-2.472535,0.3167143,1.1160458,1.1187646,0.03999983,0.039999958,-6.075854,1.1084274053573608,-7.639583,0.018621536,0.28591713309288025,-0.052410062
2027.299999998485,0.4596254,-0.5349687,-0.15357614,-2.4731803,0.31847075,1.1135206,1.1206115,0.03999984,0.03999996,-6.0372396,1.099721908569336,-7.671261,0.018796045,0.28361642360687256,-0.05290055
2027.3166666651516,0.4621416,-0.5336025,-0.15441811,-2.4738207,0.32021397,1.1110147,1.1224446,0.03999983,0.039999954,-5.9990745,1.0908650159835815,-7.702565,0.018960906,0.281281441450119,-0.053363193
2027.3333333318183,0.46463853,-0.53224665,-0.15525365,-2.4744558,0.32194373,1.108528,1.1242639,0.039999835,0.039999954,-5.961162,1.0818357467651367,-7.7334256,0.019116309,0.27891695499420166,-0.05379813
2027.349999998485,0.46711588,-0.53090155,-0.15608265,-2.4750865,0.32366008,1.1060605,1.1260688,0.03999985,0.039999966,-5.923036,1.0729938745498657,-7.7638044,0.019260759,0.27652406692504883,-0.054205213
2027.3666666651516,0.46957344,-0.52956706,-0.15690495,-2.475712,0.32536256,1.1036127,1.1278594,0.039999843,0.039999954,-5.8855305,1.0638928413391113,-7.7938004,0.019395644,0.2740972638130188,-0.054584097
2027.3833333318182,0.4720109,-0.5282434,-0.15772057,-2.4763322,0.32705113,1.1011852,1.1296352,0.03999985,0.03999996,-5.847779,1.0549739599227905,-7.8233247,0.019520627,0.2716410458087921,-0.054934777
2027.3999999984849,0.474428,-0.52693087,-0.15852942,-2.4769473,0.32872564,1.0987778,1.1313962,0.03999985,0.039999958,-5.810524,1.0457929372787476,-7.852433,0.019635553,0.2691594660282135,-0.055258084
2027.4166666651515,0.47682452,-0.5256295,-0.15933138,-2.477557,0.33038592,1.096391,1.1331421,0.039999858,0.03999996,-5.773153,1.0368527173995972,-7.881068,0.01974072,0.26664844155311584,-0.055553846
2027.4333333318182,0.47920012,-0.5243397,-0.16012633,-2.4781616,0.33203176,1.0940248,1.1348728,0.039999858,0.039999958,-5.736331,1.027624487876892,-7.9093046,0.01983622,0.26411083340644836,-0.055822082
2027.4499999984848,0.48155478,-0.5230612,-0.16091432,-2.4787612,0.333663,1.0916796,1.1365882,0.03999986,0.03999996,-5.6993566,1.0186481475830078,-7.9370723,0.01992212,0.26154690980911255,-0.056063455
2027.4666666651515,0.48388803,-0.5217944,-0.16169518,-2.479355,0.3352794,1.0893557,1.1382881,0.03999986,0.039999958,-5.662997,1.0094094276428223,-7.964481,0.019996716,0.2589549422264099,-0.05627645
2027.4833333318181,0.48619983,-0.5205391,-0.16246885,-2.4799435,0.33688095,1.087053,1.1399724,0.039999872,0.03999997,-5.6263876,1.0003983974456787,-7.9913697,0.020060886,0.25634101033210754,-0.056463987
2027.4999999984848,0.48848984,-0.5192957,-0.16323523,-2.480526,0.33846745,1.084772,1.1416408,0.039999872,0.039999966,-5.5904694,0.9911599159240723,-8.01789,0.02011449,0.2536991834640503,-0.0566223
2027.5166666651514,0.4907579,-0.51806426,-0.16399425,-2.4811034,0.34003875,1.0825126,1.1432934,0.03999988,0.03999997,-5.5542955,0.9821397066116333,-8.043919,0.020159043,0.25103792548179626,-0.056755546
2027.533333331818,0.49300367,-0.5168448,-0.16474587,-2.4816751,0.34159464,1.0802759,1.1449296,0.039999884,0.039999966,-5.5189047,0.9729097485542297,-8.069615,0.020190999,0.24834926426410675,-0.0568604
2027.5499999984847,0.49522716,-0.5156375,-0.16548994,-2.4822414,0.34313494,1.0780611,1.1465497,0.039999887,0.039999973,-5.4832754,0.9639214277267456,-8.094851,0.020213032,0.24564029276371002,-0.05694132
2027.5666666651514,0.49742788,-0.5144426,-0.16622648,-2.482801,0.34465966,1.0758691,1.1481534,0.03999989,0.03999997,-5.448163,0.9548348188400269,-8.119665,0.020223593,0.24290671944618225,-0.056992497
2027.583333331818,0.49960583,-0.5132601,-0.16695543,-2.4833558,0.34616858,1.0736997,1.1497402,0.039999895,0.039999973,-5.4133296,0.9456106424331665,-8.144011,0.020224512,0.24015899002552032,-0.05702136
2027.5999999984847,0.50176096,-0.51208997,-0.16767669,-2.4839044,0.34766167,1.0715531,1.1513106,0.0399999,0.039999977,-5.3786235,0.9367102384567261,-8.168011,0.020215455,0.23738569021224976,-0.057023294
2027.6166666651513,0.5038927,-0.5109324,-0.16839017,-2.484447,0.3491386,1.0694299,1.1528636,0.039999895,0.03999997,-5.344454,0.9275426268577576,-8.191598,0.020194627,0.23459239304065704,-0.05699906
2027.633333331818,0.50600106,-0.5097875,-0.1690959,-2.4849837,0.35059932,1.0673298,1.1544001,0.039999906,0.039999977,-5.310147,0.9186767935752869,-8.214724,0.020164862,0.23178315162658691,-0.056950103
2027.6499999984846,0.5080859,-0.50865537,-0.1697937,-2.4855146,0.3520438,1.0652531,1.155919,0.03999992,0.039999977,-5.2765703,0.9096084237098694,-8.237492,0.020122537,0.22895458340644836,-0.05687542
2027.6666666651513,0.5101469,-0.50753623,-0.1704836,-2.4860396,0.3534717,1.0632,1.1574205,0.03999993,0.039999973,-5.2429333,0.9008095264434814,-8.259831,0.020071223,0.22610679268836975,-0.05677519
2027.683333331818,0.5121843,-0.5064301,-0.1711655,-2.4865584,0.3548831,1.0611708,1.1589061,0.039999936,0.03999998,-5.209922,0.8918005228042603,-8.281776,0.020009391,0.22324293851852417,-0.056652762
2027.6999999984846,0.5141975,-0.5053368,-0.17183937,-2.4870708,0.35627785,1.0591655,1.1603731,0.039999947,0.03999998,-5.1768546,0.8830705881118774,-8.303291,0.019931423,0.22036364674568176,-0.056504138
2027.7166666651513,0.5161867,-0.5042568,-0.17250511,-2.4875765,0.35765585,1.0571842,1.161822,0.039999954,0.039999988,-5.1444583,0.8741342425346375,-8.324449,0.019847665,0.21746930480003357,-0.056333467
2027.733333331818,0.51815134,-0.50319004,-0.17316274,-2.4880764,0.35901698,1.0552272,1.1632537,0.039999954,0.039999984,-5.111977,0.8655245304107666,-8.345128,0.019757478,0.21456217765808105,-0.05613825
2027.7499999984846,0.5200913,-0.5021365,-0.1738122,-2.4885702,0.36036116,1.0532947,1.1646675,0.039999958,0.039999988,-5.080294,0.8567232489585876,-8.365528,0.019653501,0.2116396129131317,-0.055921175
2027.7666666651512,0.52200663,-0.50109655,-0.17445341,-2.489058,0.36168823,1.0513867,1.1660631,0.039999966,0.03999998,-5.048494,0.8482593297958374,-8.385498,0.019539045,0.20870435237884521,-0.05568082
2027.7833333318179,0.52389747,-0.50007004,-0.17508636,-2.4895391,0.36299813,1.0495031,1.1674408,0.039999958,0.039999988,-5.017458,0.8395354151725769,-8.405094,0.019415215,0.20575550198554993,-0.055421177
2027.7999999984845,0.5257632,-0.49905694,-0.17571099,-2.490014,0.36429077,1.0476446,1.1688005,0.03999994,0.039999984,-4.9863114,0.8311434984207153,-8.424246,0.019282814,0.2027960568666458,-0.05513843
2027.8166666651512,0.527604,-0.4980574,-0.17632718,-2.4904826,0.36556607,1.0458109,1.1701418,0.03999993,0.039999984,-4.9557586,0.8227361440658569,-8.44311,0.019138275,0.19982460141181946,-0.054834403
2027.8333333318178,0.5294196,-0.4970715,-0.17693496,-2.4909444,0.366824,1.0440025,1.1714648,0.039999925,0.03999998,-4.925725,0.8142377138137817,-8.461575,0.018984774,0.1968432068824768,-0.05450782
2027.8499999984845,0.5312098,-0.49609938,-0.17753431,-2.4914,0.3680644,1.0422189,1.1727693,0.03999993,0.03999998,-4.895613,0.8060720562934875,-8.479628,0.018822553,0.19385531544685364,-0.05416055
2027.8666666651511,0.5329747,-0.49514106,-0.17812517,-2.4918494,0.36928728,1.0404607,1.1740553,0.03999992,0.039999984,-4.8663373,0.7977376580238342,-8.49737,0.018650403,0.19085566699504852,-0.053794414
2027.8833333318178,0.53471404,-0.4941965,-0.17870757,-2.492293,0.37049252,1.0387279,1.1753229,0.039999902,0.039999984,-4.8369946,0.7897259593009949,-8.51471,0.018468803,0.1878480166196823,-0.053409435
2027.8999999984844,0.53642803,-0.49326587,-0.17928143,-2.4927294,0.37168002,1.0370204,1.1765717,0.03999989,0.039999984,-4.808459,0.7815730571746826,-8.531774,0.018276567,0.18483085930347443,-0.053004146
2027.916666665151,0.5381164,-0.49234918,-0.17984667,-2.4931593,0.3728498,1.0353385,1.1778021,0.03999988,0.03999998,-4.7798057,0.7737204432487488,-8.548357,0.018077198,0.18180859088897705,-0.05257848
2027.9333333318177,0.53977895,-0.49144638,-0.18040338,-2.4935822,0.37400183,1.0336823,1.1790138,0.03999987,0.039999984,-4.7519565,0.7656830549240112,-8.56466,0.01786817,0.1787818968296051,-0.052135307
2027.9499999984844,0.5414156,-0.49055743,-0.18095146,-2.4939988,0.37513602,1.0320514,1.1802068,0.03999987,0.039999984,-4.724046,0.7580407857894897,-8.580562,0.017649926,0.17575211822986603,-0.05167387
2027.966666665151,0.5430264,-0.48968267,-0.18149087,-2.4944086,0.3762522,1.0304465,1.1813807,0.03999986,0.03999998,-4.6969695,0.7502045035362244,-8.596177,0.017423015,0.17271606624126434,-0.051195774
2027.9833333318177,0.5446115,-0.48882195,-0.1820216,-2.4948123,0.37735045,1.0288671,1.1825358,0.039999846,0.039999977,-4.669879,0.7427284717559814,-8.611403,0.017188655,0.16967807710170746,-0.050700422
2027.9999999984843,0.54617065,-0.4879752,-0.1825437,-2.4952092,0.37843078,1.0273142,1.183672,0.03999984,0.039999977,-4.6436305,0.735085129737854,-8.626361,0.016945593,0.16663403809070587,-0.05018613
2028.016666665151,0.54770374,-0.48714265,-0.18305704,-2.4956,0.37949303,1.0257863,1.1847894,0.039999828,0.039999977,-4.6172833,0.7277930974960327,-8.64094,0.016694251,0.1635911762714386,-0.049657937
2028.0333333318176,0.5492107,-0.48632422,-0.18356171,-2.495984,0.3805372,1.0242851,1.1858877,0.039999817,0.039999977,-4.5918007,0.7203495502471924,-8.655217,0.016433826,0.16054199635982513,-0.04911166
2028.0499999984843,0.55069155,-0.48551998,-0.18405765,-2.4963615,0.38156345,1.0228103,1.186967,0.039999813,0.039999977,-4.566242,0.7132728695869446,-8.669129,0.016166618,0.15749689936637878,-0.04855113
2028.066666665151,0.55214643,-0.48472992,-0.18454489,-2.496732,0.3825715,1.0213598,1.1880275,0.039999805,0.039999977,-4.541315,0.7061563730239868,-8.682758,0.015891593,0.1544540524482727,-0.047977936
2028.0833333318176,0.55357516,-0.483954,-0.18502337,-2.4970958,0.38356152,1.019936,1.1890688,0.0399998,0.039999977,-4.5169735,0.6990221738815308,-8.69599,0.015609729,0.15140749514102936,-0.047386788
2028.0999999984842,0.5549777,-0.4831922,-0.1854931,-2.4974527,0.3845335,1.0185381,1.190091,0.039999798,0.039999973,-4.4926467,0.6922491192817688,-8.708973,0.015321158,0.14836496114730835,-0.04678302
2028.116666665151,0.55635417,-0.48244467,-0.18595414,-2.497803,0.3854874,1.0171666,1.1910939,0.039999787,0.039999977,-4.4690995,0.6853045225143433,-8.721652,0.015026411,0.14532627165317535,-0.046168134
2028.1333333318175,0.5577044,-0.48171133,-0.18640645,-2.4981465,0.38642317,1.0158211,1.1920782,0.039999776,0.039999977,-4.4455833,0.6787599325180054,-8.733981,0.014726504,0.1422930210828781,-0.045541
2028.1499999984842,0.55902857,-0.48099217,-0.18685004,-2.4984846,0.38734087,1.0145015,1.1930436,0.03999977,0.039999973,-4.422855,0.672073483467102,-8.746049,0.014418429,0.13926559686660767,-0.044901468
2028.1666666651508,0.5603268,-0.4802871,-0.1872849,-2.4988158,0.38824046,1.0132079,1.1939898,0.03999976,0.039999977,-4.4002824,0.6657575964927673,-8.757845,0.014102523,0.13623757660388947,-0.04424979
2028.1833333318175,0.56159896,-0.4795962,-0.18771105,-2.4991403,0.38912207,1.0119404,1.1949168,0.03999975,0.039999973,-4.37838,0.6592696309089661,-8.769331,0.013782041,0.1332169622182846,-0.043586418
2028.1999999984841,0.5628452,-0.47891936,-0.18812844,-2.4994576,0.38998565,1.0106987,1.1958251,0.039999746,0.039999973,-4.3564916,0.653168261051178,-8.78047,0.013456492,0.13020437955856323,-0.04291279
2028.2166666651508,0.5640653,-0.4782567,-0.18853714,-2.4997683,0.3908312,1.009483,1.1967145,0.03999974,0.039999977,-4.3353815,0.6468977928161621,-8.791347,0.013126158,0.12720179557800293,-0.042230137
2028.2333333318174,0.5652594,-0.4776081,-0.18893722,-2.500072,0.39165875,1.008293,1.1975852,0.039999735,0.039999977,-4.314352,0.6410459876060486,-8.801923,0.012790011,0.12420821934938431,-0.041538205
2028.249999998484,0.5664277,-0.4769734,-0.18932861,-2.5003698,0.39246848,1.0071287,1.198437,0.03999973,0.039999977,-4.294071,0.6350353360176086,-8.812238,0.012448745,0.12122657895088196,-0.040837497
2028.2666666651508,0.5675703,-0.4763528,-0.1897114,-2.5006607,0.3932604,1.0059901,1.19927,0.039999723,0.039999977,-4.2739363,0.6294078230857849,-8.822302,0.012102536,0.11825111508369446,-0.040128343
2028.2833333318174,0.56868714,-0.47574615,-0.19008562,-2.500945,0.39403442,1.0048771,1.2000842,0.039999716,0.03999998,-4.2545066,0.6236175894737244,-8.832075,0.011752353,0.11528858542442322,-0.039412297
2028.299999998484,0.5697784,-0.4751534,-0.19045126,-2.501223,0.39479077,1.0037895,1.2008798,0.039999712,0.039999977,-4.235135,0.6182502508163452,-8.841557,0.01139885,0.11233813315629959,-0.038688112
2028.3166666651507,0.5708442,-0.4745745,-0.19080833,-2.5014946,0.3955294,1.0027275,1.201657,0.0399997,0.039999977,-4.216374,0.6128283143043518,-8.850802,0.011041323,0.10939975082874298,-0.037958264
2028.3333333318174,0.57188445,-0.47400945,-0.19115694,-2.5017595,0.39625037,1.0016907,1.2024153,0.0399997,0.039999977,-4.198233,0.6074254512786865,-8.859821,0.01067857,0.10647471249103546,-0.037220888
2028.349999998484,0.57289934,-0.47345814,-0.19149706,-2.5020182,0.39695382,1.0006793,1.2031554,0.0399997,0.03999998,-4.180072,0.6023944616317749,-8.8685,0.010315737,0.10356592386960983,-0.036479305
2028.3666666651507,0.573889,-0.4729206,-0.19182873,-2.5022705,0.3976398,0.99969304,1.203877,0.039999694,0.03999998,-4.1627526,0.597233235836029,-8.877024,0.009947896,0.10067139565944672,-0.03573341
2028.3833333318173,0.5748535,-0.47239673,-0.19215196,-2.5025158,0.3983084,0.9987317,1.2045803,0.039999682,0.03999998,-4.1454525,0.5924391746520996,-8.885209,0.009578681,0.0977945402264595,-0.034983665
2028.399999998484,0.575793,-0.4718864,-0.19246688,-2.5027544,0.3989597,0.99779505,1.2052654,0.039999686,0.039999984,-4.1288753,0.587538480758667,-8.89317,0.009207027,0.0949375256896019,-0.03423044
2028.4166666651506,0.57670766,-0.47138947,-0.19277352,-2.5029876,0.3995938,0.9968832,1.2059324,0.039999686,0.039999984,-4.1123953,0.5829914212226868,-8.90086,0.008834655,0.09209929406642914,-0.03347402
2028.4333333318173,0.5775976,-0.47090593,-0.19307189,-2.5032148,0.40021083,0.99599594,1.2065814,0.039999675,0.03999998,-4.0967383,0.5783340334892273,-8.908435,0.008459619,0.08927759528160095,-0.032715775
2028.449999998484,0.5784632,-0.47043565,-0.19336206,-2.5034356,0.40081084,0.995133,1.2072126,0.039999664,0.039999977,-4.0811224,0.5740516185760498,-8.915706,0.008082182,0.08647384494543076,-0.031954836
2028.4666666651506,0.5793045,-0.4699786,-0.19364405,-2.50365,0.4013939,0.9942943,1.207826,0.039999653,0.03999998,-4.0662055,0.5696109533309937,-8.922758,0.0077036135,0.08369141072034836,-0.03119318
2028.4833333318172,0.58012146,-0.46953458,-0.19391797,-2.5038579,0.4019603,0.9934797,1.2084218,0.039999653,0.03999998,-4.051352,0.5655614733695984,-8.929526,0.0073247543,0.08093183487653732,-0.030428428
2028.4999999984839,0.5809145,-0.46910363,-0.19418389,-2.5040596,0.40251014,0.992689,1.2090001,0.039999653,0.03999998,-4.0371814,0.5613856911659241,-8.936114,0.0069459155,0.0781979188323021,-0.029665783
2028.5166666651505,0.5816838,-0.46868563,-0.19444181,-2.5042558,0.40304342,0.99192184,1.2095611,0.03999965,0.03999998,-4.023154,0.557578980922699,-8.942455,0.0065675383,0.07548737525939941,-0.02890368
2028.5333333318172,0.58242965,-0.46828043,-0.19469185,-2.5044458,0.4035605,0.99117815,1.2101051,0.03999964,0.039999984,-4.0099,0.553648829460144,-8.948663,0.0061880806,0.0727984756231308,-0.028142044
2028.5499999984838,0.5831519,-0.46788788,-0.19493407,-2.5046299,0.40406135,0.99045753,1.2106322,0.03999964,0.039999988,-3.9966226,0.5500664710998535,-8.954558,0.005809333,0.07013674080371857,-0.027381351
2028.5666666651505,0.58385116,-0.46750796,-0.19516858,-2.504808,0.4045461,0.9897604,1.2111423,0.03999964,0.039999988,-3.9839103,0.5465230941772461,-8.960288,0.0054296246,0.06750062108039856,-0.026623288
2028.5833333318171,0.5845273,-0.46714044,-0.19539535,-2.50498,0.40501508,0.9890862,1.2116356,0.039999638,0.039999984,-3.9717584,0.5429468154907227,-8.965846,0.0050525763,0.06489454954862595,-0.025868157
2028.5999999984838,0.58518076,-0.46678525,-0.19561464,-2.5051463,0.40546826,0.9884346,1.2121123,0.039999634,0.039999984,-3.9596393,0.5397334098815918,-8.971139,0.0046771625,0.062318410724401474,-0.025117967
2028.6166666651504,0.58581185,-0.46644214,-0.19582635,-2.5053072,0.40590602,0.98780537,1.2125727,0.03999963,0.039999988,-3.948225,0.5364124178886414,-8.97628,0.0043034893,0.059772901237010956,-0.02437299
2028.633333331817,0.58642095,-0.46611115,-0.1960307,-2.5054631,0.40632832,0.9871981,1.213017,0.039999627,0.039999988,-3.9369423,0.5334420800209045,-8.9812355,0.003931208,0.057255420833826065,-0.023631038
2028.6499999984837,0.5870082,-0.46579203,-0.19622774,-2.5056124,0.4067355,0.98661244,1.2134452,0.039999627,0.039999988,-3.9263248,0.5303745269775391,-8.986017,0.0035609815,0.054768119007349014,-0.022892937
2028.6666666651504,0.5875735,-0.46548462,-0.1964175,-2.5057557,0.40712777,0.98604846,1.2138577,0.03999962,0.039999988,-3.915667,0.527604341506958,-8.990487,0.0031951917,0.0523156076669693,-0.02216133
2028.683333331817,0.5881176,-0.46518883,-0.19660015,-2.5058951,0.4075052,0.98550564,1.2142547,0.039999615,0.039999988,-3.9056594,0.5247610807418823,-8.994855,0.002832839,0.0499010905623436,-0.021437796
2028.6999999984837,0.58864063,-0.46490443,-0.19677573,-2.506029,0.40786803,0.9849838,1.2146364,0.039999615,0.03999999,-3.8959532,0.5222839713096619,-8.999133,0.00246987,0.04751288890838623,-0.020719195
2028.7166666651503,0.589143,-0.46463126,-0.19694434,-2.506156,0.40821648,0.9844827,1.2150033,0.039999615,0.03999999,-3.886677,0.519648551940918,-9.003159,0.0021111255,0.04516300559043884,-0.020008128
2028.733333331817,0.58962494,-0.4643692,-0.19710614,-2.5062788,0.4085508,0.98400193,1.2153552,0.03999961,0.03999999,-3.87737,0.5173150300979614,-9.006881,0.0017579194,0.0428570881485939,-0.01930626
2028.7499999984836,0.5900868,-0.46411806,-0.19726124,-2.5063972,0.4088712,0.983541,1.2156925,0.03999961,0.03999999,-3.868951,0.5149518251419067,-9.010657,0.0014069738,0.040584344416856766,-0.01861173
2028.7666666651503,0.5905289,-0.46387768,-0.19740972,-2.5065088,0.40917802,0.9830997,1.2160155,0.03999961,0.03999999,-3.8605127,0.5128850340843201,-9.014183,0.0010594821,0.03834698349237442,-0.017925765
2028.783333331817,0.5909516,-0.46364775,-0.19755167,-2.506618,0.40947127,0.9826777,1.2163241,0.039999608,0.03999999,-3.8524587,0.5106691718101501,-9.017427,0.00071956665,0.03615866228938103,-0.01725213
2028.7999999984836,0.59135544,-0.46342823,-0.19768733,-2.5067213,0.40975142,0.98227483,1.2166185,0.0399996,0.03999999,-3.8448813,0.5088510513305664,-9.0207815,0.00038131012,0.03399936854839325,-0.016585771
2028.8166666651503,0.59174055,-0.4632188,-0.1978167,-2.506818,0.4100187,0.98189044,1.2168999,0.0399996,0.039999988,-3.8374002,0.5069656372070312,-9.023744,5.1833074e-05,0.03188834339380264,-0.015930472
2028.833333331817,0.5921074,-0.4630193,-0.19793993,-2.5069122,0.41027328,0.9815244,1.2171675,0.0399996,0.03999999,-3.8303328,0.5050749182701111,-9.026548,-0.0002717145,0.029827497899532318,-0.015288847
2028.8499999984836,0.5924563,-0.4628295,-0.19805722,-2.5070004,0.41051543,0.9811759,1.2174222,0.039999597,0.03999999,-3.8236508,0.5035544037818909,-9.029411,-0.0005912728,0.027802160009741783,-0.014657277
2028.8666666651502,0.59278756,-0.46264923,-0.1981686,-2.507087,0.41074547,0.98084503,1.2176641,0.039999597,0.03999999,-3.8171837,0.5018861889839172,-9.031928,-0.0009026397,0.025828318670392036,-0.014038732
2028.8833333318169,0.5931019,-0.46247822,-0.19827428,-2.507167,0.41096362,0.9805312,1.217894,0.039999593,0.03999999,-3.8111289,0.5005614161491394,-9.034548,-0.0012121281,0.02389073558151722,-0.013432239
2028.8999999984835,0.59339947,-0.46231627,-0.1983744,-2.5072415,0.4111703,0.98023397,1.2181113,0.039999593,0.03999999,-3.8051932,0.49906566739082336,-9.03677,-0.0015129138,0.02200981415808201,-0.0128400475
2028.9166666651502,0.59368074,-0.46216315,-0.19846906,-2.5073133,0.41136572,0.9799529,1.2183167,0.039999597,0.03999999,-3.7993636,0.4978640675544739,-9.038853,-0.0018030306,0.02018430083990097,-0.012263788
2028.9333333318168,0.59394634,-0.4620187,-0.19855846,-2.507379,0.41155013,0.9796876,1.2185106,0.039999597,0.03999999,-3.794302,0.4966405928134918,-9.041032,-0.0020883207,0.01840217225253582,-0.011700845
2028.9499999984835,0.59419656,-0.46188232,-0.19864272,-2.5074427,0.41172397,0.9794375,1.2186933,0.039999593,0.039999988,-3.78896,0.4955836236476898,-9.042813,-0.002362311,0.016681326553225517,-0.011154697
2028.9666666651501,0.59443194,-0.4617542,-0.19872199,-2.5075011,0.41188753,0.9792021,1.218865,0.03999959,0.039999988,-3.7844412,0.4945432245731354,-9.044786,-0.0026317686,0.015003209002315998,-0.010622557
2028.9833333318168,0.5946529,-0.4616339,-0.19879639,-2.5075574,0.412041,0.97898114,1.2190267,0.03999959,0.039999988,-3.7796555,0.49367496371269226,-9.046361,-0.0028898388,0.013386376202106476,-0.010107616
2028.9999999984834,0.59485996,-0.46152118,-0.19886617,-2.507613,0.41218495,0.97877413,1.2191783,0.039999586,0.039999988,-3.775579,0.49279889464378357,-9.048064,-0.003144062,0.01181857381016016,-0.009608674
2029.01666666515,0.59505373,-0.46141568,-0.19893149,-2.5076618,0.4123196,0.97858036,1.21932,0.039999586,0.039999988,-3.7716308,0.49215593934059143,-9.049708,-0.0033940468,0.01029544323682785,-0.009124266
2029.0333333318167,0.59523445,-0.4613172,-0.19899246,-2.50771,0.41244534,0.9783994,1.2194525,0.039999586,0.039999988,-3.7675831,0.4913437068462372,-9.050909,-0.00362961,0.008842425420880318,-0.008659806
2029.0499999984834,0.5954027,-0.46122542,-0.19904928,-2.5077517,0.41256252,0.97823095,1.2195755,0.039999586,0.039999988,-3.7640643,0.49085718393325806,-9.052343,-0.0038606902,0.0074373106472194195,-0.008212122
2029.06666666515,0.5955592,-0.4611401,-0.19910212,-2.5077925,0.41267145,0.97807413,1.2196903,0.039999586,0.039999988,-3.7603104,0.4902561902999878,-9.053312,-0.0040757037,0.006107639987021685,-0.00778661
2029.0833333318167,0.59570444,-0.46106088,-0.19915117,-2.5078294,0.4127725,0.9779286,1.2197969,0.039999586,0.039999988,-3.7573566,0.4897836446762085,-9.05457,-0.004286216,0.0048284330405294895,-0.00737749
2029.0999999984833,0.5958385,-0.46098754,-0.19919665,-2.5078628,0.41286612,0.9777938,1.2198956,0.039999586,0.039999988,-3.7541049,0.4894137680530548,-9.05548,-0.0044850037,0.0036174452397972345,-0.0069888844
2029.11666666515,0.5959627,-0.4609197,-0.19923863,-2.5078957,0.41295263,0.9776693,1.2199869,0.039999586,0.039999988,-3.7512276,0.48905134201049805,-9.056385,-0.004672933,0.00247308611869812,-0.0066229734
2029.1333333318166,0.5960772,-0.46085712,-0.19927743,-2.5079248,0.41303244,0.9775542,1.2200711,0.039999586,0.039999988,-3.7486308,0.48883792757987976,-9.057342,-0.0048537515,0.0013856105506420135,-0.0062745293
2029.1499999984833,0.5961829,-0.46079946,-0.19931324,-2.5079505,0.41310614,0.9774482,1.2201487,0.039999586,0.039999988,-3.746019,0.488570898771286,-9.058046,-0.005021327,0.000368934910511598,-0.005948772
2029.16666666515,0.5962798,-0.4607464,-0.1993462,-2.507976,0.41317394,0.97735053,1.2202194,0.039999586,0.039999988,-3.743446,0.4884200394153595,-9.058654,-0.0051757945,-0.0005744306254200637,-0.005645449
2029.1833333318166,0.59636885,-0.4606975,-0.1993766,-2.5080006,0.41323635,0.9772608,1.2202854,0.039999586,0.039999988,-3.7413826,0.4883434772491455,-9.059423,-0.0053189364,-0.001457083155401051,-0.0053638397
2029.1999999984832,0.5964509,-0.4606525,-0.19940457,-2.5080206,0.41329378,0.97717834,1.2203459,0.039999582,0.039999984,-3.7392528,0.48833900690078735,-9.060065,-0.0054575773,-0.002274514641612768,-0.00510452
2029.21666666515,0.59652615,-0.46061116,-0.19943023,-2.5080388,0.4133466,0.9771023,1.2204009,0.039999582,0.039999984,-3.7370863,0.4881829023361206,-9.060432,-0.005579459,-0.003015469294041395,-0.0048675044
2029.2333333318165,0.59659547,-0.46057314,-0.19945388,-2.5080566,0.4133952,0.97703224,1.2204522,0.03999958,0.039999984,-3.735205,0.4881844222545624,-9.060885,-0.005689198,-0.0036960516590625048,-0.0046505355
2029.2499999984832,0.5966594,-0.4605381,-0.19947563,-2.508074,0.4134399,0.97696775,1.2204995,0.03999958,0.039999984,-3.73369,0.48813194036483765,-9.061416,-0.0057945093,-0.004327698145061731,-0.0044490267
2029.2666666651498,0.59671795,-0.4605058,-0.19949567,-2.508091,0.41348112,0.9769085,1.2205429,0.03999958,0.039999984,-3.7321937,0.48811888694763184,-9.061883,-0.005893528,-0.004913425073027611,-0.004261891
2029.2833333318165,0.59677196,-0.4604762,-0.1995141,-2.5081046,0.41351894,0.976854,1.2205826,0.03999958,0.039999984,-3.7308493,0.4880806803703308,-9.06233,-0.005985771,-0.005456015467643738,-0.0040908
2029.2999999984831,0.5968211,-0.46044904,-0.19953106,-2.5081158,0.4135536,0.97680384,1.2206186,0.03999958,0.039999984,-3.7293282,0.48801594972610474,-9.062534,-0.0060663973,-0.005946140270680189,-0.0039340667
2029.3166666651498,0.59686637,-0.460424,-0.19954668,-2.5081263,0.41358563,0.97675765,1.2206527,0.03999958,0.039999984,-3.7280083,0.4880099594593048,-9.062771,-0.0061372654,-0.006391109898686409,-0.0037927043
2029.3333333318164,0.59690815,-0.46040094,-0.1995611,-2.5081365,0.4136152,0.97671515,1.2206845,0.03999958,0.039999984,-3.726967,0.48795899748802185,-9.063085,-0.0062069767,-0.006801788695156574,-0.0036628712
2029.349999998483,0.5969467,-0.46037963,-0.1995743,-2.5081468,0.41364223,0.9766761,1.2207127,0.03999958,0.039999984,-3.7259982,0.4879451096057892,-9.06339,-0.0062737064,-0.007182528730481863,-0.0035426863
2029.3666666651498,0.5969822,-0.46036014,-0.19958647,-2.5081565,0.41366717,0.97664016,1.22074,0.03999958,0.039999984,-3.7251654,0.4879101812839508,-9.063707,-0.006331568,-0.0075361221097409725,-0.0034300908
2029.3833333318164,0.5970148,-0.4603422,-0.19959766,-2.508166,0.4136901,0.97660714,1.2207643,0.039999582,0.039999984,-3.724303,0.4879005253314972,-9.063942,-0.006391358,-0.007862646132707596,-0.0033262165
2029.399999998483,0.5970448,-0.4603257,-0.19960794,-2.5081754,0.41371113,0.9765768,1.2207865,0.039999582,0.039999984,-3.7235677,0.4878692328929901,-9.064189,-0.006443682,-0.008165104314684868,-0.0032306747
2029.4166666651497,0.5970723,-0.46031046,-0.19961749,-2.5081832,0.41373074,0.97654873,1.220807,0.039999582,0.039999984,-3.7228515,0.4878596067428589,-9.064413,-0.0064917887,-0.00844552181661129,-0.003141957
2029.4333333318164,0.5970975,-0.4602965,-0.19962622,-2.5081897,0.41374862,0.9765228,1.2208265,0.039999582,0.039999984,-3.7221096,0.48782193660736084,-9.064544,-0.0065352125,-0.008701791986823082,-0.0030625206
2029.449999998483,0.5971207,-0.46028364,-0.1996343,-2.508195,0.41376516,0.976499,1.2208432,0.039999582,0.039999984,-3.7214053,0.4877950847148895,-9.064648,-0.006577423,-0.008933915756642818,-0.0029895054
2029.4666666651497,0.597142,-0.4602718,-0.19964166,-2.5081995,0.41378024,0.9764772,1.2208596,0.039999582,0.039999984,-3.7207894,0.48776137828826904,-9.064762,-0.0066091707,-0.009144635871052742,-0.0029235268
2029.4833333318163,0.5971615,-0.4602609,-0.19964848,-2.508203,0.41379425,0.97645706,1.2208748,0.039999582,0.039999984,-3.7202454,0.487750381231308,-9.064884,-0.006643397,-0.009336668066680431,-0.002862594
2029.499999998483,0.5971795,-0.46025085,-0.19965476,-2.5082064,0.41380718,0.9764386,1.2208877,0.039999582,0.039999984,-3.7197363,0.4877234697341919,-9.064979,-0.0066739344,-0.00951149221509695,-0.0028078775
2029.5166666651496,0.5971961,-0.4602417,-0.19966052,-2.5082092,0.41381896,0.97642165,1.2209004,0.039999582,0.039999984,-3.7193148,0.4877273738384247,-9.065096,-0.006696964,-0.009672291576862335,-0.0027575395
2029.5333333318163,0.5972115,-0.46023327,-0.19966583,-2.508212,0.4138298,0.976406,1.2209123,0.039999582,0.039999984,-3.718925,0.48770570755004883,-9.06519,-0.006722013,-0.00981859676539898,-0.0027108167
2029.549999998483,0.5972254,-0.46022543,-0.19967072,-2.5082147,0.4138398,0.9763917,1.2209215,0.039999582,0.039999984,-3.7185879,0.4877042770385742,-9.065303,-0.006746137,-0.009954721666872501,-0.0026671556
2029.5666666651496,0.5972383,-0.46021828,-0.1996752,-2.5082173,0.41384897,0.9763785,1.2209306,0.039999582,0.039999984,-3.7182503,0.48771941661834717,-9.065409,-0.0067606056,-0.010079690255224705,-0.002628088
2029.5833333318162,0.59725016,-0.46021172,-0.19967934,-2.50822,0.4138575,0.9763663,1.2209395,0.039999582,0.039999984,-3.7179766,0.4877162575721741,-9.065499,-0.0067769163,-0.010195287875831127,-0.0025916665
2029.5999999984829,0.59726113,-0.46020567,-0.19968319,-2.5082226,0.41386527,0.97635514,1.2209483,0.039999582,0.039999984,-3.6754112,0.4152756631374359,-8.84651,0.0,-0.0,0.0
2029.6166666651495,0.59726113,-0.46020567,-0.19968319,-2.5082226,0.41386527,0.97635514,1.2209483,0.039999582,0.039999984,-3.716847,0.4883590042591095,-9.065465,0.0,-0.0,0.0
2029.6333333318162,0.59726113,-0.46020567,-0.19968319,-2.5082226,0.41386527,0.97635514,1.2209483,0.039999582,0.039999984,-3.716847,0.4883590042591095,-9.065465,0.0,-0.0,0.0
2029.6499999984828,0.59726113,-0.46020567,-0.19968319,-2.5082226,0.41386527,0.97635514,1.2209483,0.039999582,0.039999984,-3.716847,0.4883590042591095,-9.065465,0.0,-0.0,0.0
2029.6666666651495,0.59726113,-0.46020567,-0.19968319,-2.5082226,0.41386527,0.97635514,1.2209483,0.039999582,0.039999984,-3.716847,0.4883590042591095,-9.065465,0.0,-0.0,0.0
2029.6833333318161,0.59726113,-0.46020567,-0.19968319,-2.5082226,0.41386527,0.97635514,1.2209483,0.039999582,0.039999984,-3.716847,0.4883590042591095,-9.065465,0.0,-0.0,0.0
2029.6999999984828,0.59726113,-0.46020567,-0.19968319,-2.5082226,0.41386527,0.97635514,1.2209483,0.039999582,0.039999984,-3.716847,0.4883590042591095,-9.065465,0.0,-0.0,0.0
2029.7166666651494,0.59726113,-0.46020567,-0.19968319,-2.5082226,0.41386527,0.97635514,1.2209483,0.039999582,0.039999984,-3.716847,0.4883590042591095,-9.065465,0.0,-0.0,0.0
2029.733333331816,0.59726113,-0.46020567,-0.19968319,-2.5082226,0.41386527,0.97635514,1.2209483,0.039999582,0.039999984,-3.716847,0.4883590042591095,-9.065465,0.0,-0.0,0.0
2029.7499999984827,0.59726113,-0.46020567,-0.19968319,-2.5082226,0.41386527,0.97635514,1.2209483,0.039999582,0.039999984,-3.716847,0.4883590042591095,-9.065465,0.0,-0.0,0.0
2029.7666666651494,0.59726113,-0.46020567,-0.19968319,-2.5082226,0.41386527,0.97635514,1.2209483,0.039999582,0.039999984,-3.716847,0.4883590042591095,-9.065465,0.0,-0.0,0.0
2029.783333331816,0.59726113,-0.46020567,-0.19968319,-2.5082226,0.41386527,0.97635514,1.2209483,0.039999582,0.039999984,-3.716847,0.4883590042591095,-9.065465,0.0,-0.0,0.0
2029.7999999984827,0.59726113,-0.46020567,-0.19968319,-2.5082226,0.41386527,0.97635514,1.2209483,0.039999582,0.039999984,-3.716847,0.4883590042591095,-9.065465,0.0,-0.0,0.0
2029.8166666651493,0.59726113,-0.46020567,-0.19968319,-2.5082226,0.41386527,0.97635514,1.2209483,0.039999582,0.039999984,-3.716847,0.4883590042591095,-9.065465,0.0,-0.0,0.0
2029.833333331816,0.59726113,-0.46020567,-0.19968319,-2.5082226,0.41386527,0.97635514,1.2209483,0.039999582,0.039999984,-3.716847,0.4883590042591095,-9.065465,0.0,-0.0,0.0
2029.8499999984826,0.59726113,-0.46020567,-0.19968319,-2.5082226,0.41386527,0.97635514,1.2209483,0.039999582,0.039999984,-3.716847,0.4883590042591095,-9.065465,0.0,-0.0,0.0
2029.8666666651493,0.59726113,-0.46020567,-0.19968319,-2.5082226,0.41386527,0.97635514,1.2209483,0.039999582,0.039999984,-3.716847,0.4883590042591095,-9.065465,0.0,-0.0,0.0
2029.883333331816,0.59726113,-0.46020567,-0.19968319,-2.5082226,0.41386527,0.97635514,1.2209483,0.039999582,0.039999984,-3.716847,0.4883590042591095,-9.065465,0.0,-0.0,0.0
2029.8999999984826,0.59726113,-0.46020567,-0.19968319,-2.5082226,0.41386527,0.97635514,1.2209483,0.039999582,0.039999984,-3.716847,0.4883590042591095,-9.065465,0.0,-0.0,0.0
2029.9166666651493,0.59726113,-0.46020567,-0.19968319,-2.5082226,0.41386527,0.97635514,1.2209483,0.039999582,0.039999984,-3.716847,0.4883590042591095,-9.065465,0.0,-0.0,0.0
2029.933333331816,0.59726113,-0.46020567,-0.19968319,-2.5082226,0.41386527,0.97635514,1.2209483,0.039999582,0.039999984,-3.716847,0.4883590042591095,-9.065465,0.0,-0.0,0.0
2029.9499999984826,0.59726113,-0.46020567,-0.19968319,-2.5082226,0.41386527,0.97635514,1.2209483,0.039999582,0.039999984,-3.716847,0.4883590042591095,-9.065465,0.0,-0.0,0.0
2029.9666666651492,0.59726113,-0.46020567,-0.19968319,-2.5082226,0.41386527,0.97635514,1.2209483,0.039999582,0.039999984,-3.716847,0.4883590042591095,-9.065465,0.0,-0.0,0.0
2029.9833333318159,0.59726113,-0.46020567,-0.19968319,-2.5082226,0.41386527,0.97635514,1.2209483,0.039999582,0.039999984,-3.716847,0.4883590042591095,-9.065465,0.0,-0.0,0.0
2029.9999999984825,0.59726113,-0.46020567,-0.19968319,-2.5082226,0.41386527,0.97635514,1.2209483,0.039999582,0.039999984,-3.716847,0.4883590042591095,-9.065465,0.0,-0.0,0.0
2030.0166666651492,0.59726113,-0.46020567,-0.19968319,-2.5082226,0.41386527,0.97635514,1.2209483,0.039999582,0.039999984,-3.716847,0.4883590042591095,-9.065465,0.0,-0.0,0.0
2030.0333333318158,0.59726113,-0.46020567,-0.19968319,-2.5082226,0.41386527,0.97635514,1.2209483,0.039999582,0.039999984,-3.716847,0.4883590042591095,-9.065465,0.0,-0.0,0.0
2030.0499999984825,0.59726113,-0.46020567,-0.19968319,-2.5082226,0.41386527,0.97635514,1.2209483,0.039999582,0.039999984,-3.716847,0.4883590042591095,-9.065465,0.0,-0.0,0.0
2030.0666666651491,0.59726113,-0.46020567,-0.19968319,-2.5082226,0.41386527,0.97635514,1.2209483,0.039999582,0.039999984,-3.716847,0.4883590042591095,-9.065465,0.0,-0.0,0.0
2030.0833333318158,0.59726113,-0.46020567,-0.19968319,-2.5082226,0.41386527,0.97635514,1.2209483,0.039999582,0.039999984,-3.716847,0.4883590042591095,-9.065465,0.0,-0.0,0.0
2030.0999999984824,0.59726113,-0.46020567,-0.19968319,-2.5082226,0.41386527,0.97635514,1.2209483,0.039999582,0.039999984,-3.716847,0.4883590042591095,-9.065465,0.0,-0.0,0.0
2030.116666665149,0.59726113,-0.46020567,-0.19968319,-2.5082226,0.41386527,0.97635514,1.2209483,0.039999582,0.039999984,-3.716847,0.4883590042591095,-9.065465,0.0,-0.0,0.0
2030.1333333318157,0.59726113,-0.46020567,-0.19968319,-2.5082226,0.41386527,0.97635514,1.2209483,0.039999582,0.039999984,-3.716847,0.4883590042591095,-9.065465,0.0,-0.0,0.0
2030.1499999984824,0.59726113,-0.46020567,-0.19968319,-2.5082226,0.41386527,0.97635514,1.2209483,0.039999582,0.039999984,-3.716847,0.4883590042591095,-9.065465,0.0,-0.0,0.0
2030.166666665149,0.59726113,-0.46020567,-0.19968319,-2.5082226,0.41386527,0.97635514,1.2209483,0.039999582,0.039999984,-3.716847,0.4883590042591095,-9.065465,0.0,-0.0,0.0
2030.1833333318157,0.59726113,-0.46020567,-0.19968319,-2.5082226,0.41386527,0.97635514,1.2209483,0.039999582,0.039999984,-3.716847,0.4883590042591095,-9.065465,0.0,-0.0,0.0
2030.1999999984823,0.59726113,-0.46020567,-0.19968319,-2.5082226,0.41386527,0.97635514,1.2209483,0.039999582,0.039999984,-3.716847,0.4883590042591095,-9.065465,0.0,-0.0,0.0
2030.216666665149,0.59726113,-0.46020567,-0.19968319,-2.5082226,0.41386527,0.97635514,1.2209483,0.039999582,0.039999984,-3.716847,0.4883590042591095,-9.065465,0.0,-0.0,0.0
2030.2333333318156,0.59726113,-0.46020567,-0.19968319,-2.5082226,0.41386527,0.97635514,1.2209483,0.039999582,0.039999984,-3.716847,0.4883590042591095,-9.065465,0.0,-0.0,0.0
2030.2499999984823,0.59726113,-0.46020567,-0.19968319,-2.5082226,0.41386527,0.97635514,1.2209483,0.039999582,0.039999984,-3.716847,0.4883590042591095,-9.065465,0.0,-0.0,0.0
2030.266666665149,0.59726113,-0.46020567,-0.19968319,-2.5082226,0.41386527,0.97635514,1.2209483,0.039999582,0.039999984,-3.716847,0.4883590042591095,-9.065465,0.0,-0.0,0.0
2030.2833333318156,0.59726113,-0.46020567,-0.19968319,-2.5082226,0.41386527,0.97635514,1.2209483,0.039999582,0.039999984,-3.716847,0.4883590042591095,-9.065465,0.0,-0.0,0.0
2030.2999999984822,0.59726113,-0.46020567,-0.19968319,-2.5082226,0.41386527,0.97635514,1.2209483,0.039999582,0.039999984,-3.716847,0.4883590042591095,-9.065465,0.0,-0.0,0.0
2030.316666665149,0.59726113,-0.46020567,-0.19968319,-2.5082226,0.41386527,0.97635514,1.2209483,0.039999582,0.039999984,-3.716847,0.4883590042591095,-9.065465,0.0,-0.0,0.0
2030.3333333318155,0.59726113,-0.46020567,-0.19968319,-2.5082226,0.41386527,0.97635514,1.2209483,0.039999582,0.039999984,-3.716847,0.4883590042591095,-9.065465,0.0,-0.0,0.0
2030.3499999984822,0.59726113,-0.46020567,-0.19968319,-2.5082226,0.41386527,0.97635514,1.2209483,0.039999582,0.039999984,-3.716847,0.4883590042591095,-9.065465,0.0,-0.0,0.0
2030.3666666651488,0.59726113,-0.46020567,-0.19968319,-2.5082226,0.41386527,0.97635514,1.2209483,0.039999582,0.039999984,-3.716847,0.4883590042591095,-9.065465,0.0,-0.0,0.0
2030.3833333318155,0.59726113,-0.46020567,-0.19968319,-2.5082226,0.41386527,0.97635514,1.2209483,0.039999582,0.039999984,-3.716847,0.4883590042591095,-9.065465,0.0,-0.0,0.0
2030.3999999984821,0.59726113,-0.46020567,-0.19968319,-2.5082226,0.41386527,0.97635514,1.2209483,0.039999582,0.039999984,-3.716847,0.4883590042591095,-9.065465,0.0,-0.0,0.0
2030.4166666651488,0.59726113,-0.46020567,-0.19968319,-2.5082226,0.41386527,0.97635514,1.2209483,0.039999582,0.039999984,-3.716847,0.4883590042591095,-9.065465,0.0,-0.0,0.0
2030.4333333318154,0.59726113,-0.46020567,-0.19968319,-2.5082226,0.41386527,0.97635514,1.2209483,0.039999582,0.039999984,-3.716847,0.4883590042591095,-9.065465,0.0,-0.0,0.0
2030.449999998482,0.59726113,-0.46020567,-0.19968319,-2.5082226,0.41386527,0.97635514,1.2209483,0.039999582,0.039999984,-3.716847,0.4883590042591095,-9.065465,0.0,-0.0,0.0
2030.4666666651488,0.59726113,-0.46020567,-0.19968319,-2.5082226,0.41386527,0.97635514,1.2209483,0.039999582,0.039999984,-3.716847,0.4883590042591095,-9.065465,0.0,-0.0,0.0
2030.4833333318154,0.59726113,-0.46020567,-0.19968319,-2.5082226,0.41386527,0.97635514,1.2209483,0.039999582,0.039999984,-3.716847,0.4883590042591095,-9.065465,0.0,-0.0,0.0
2030.499999998482,0.59726113,-0.46020567,-0.19968319,-2.5082226,0.41386527,0.97635514,1.2209483,0.039999582,0.039999984,-3.716847,0.4883590042591095,-9.065465,0.0,-0.0,0.0
2030.5166666651487,0.59726113,-0.46020567,-0.19968319,-2.5082226,0.41386527,0.97635514,1.2209483,0.039999582,0.039999984,-3.716847,0.4883590042591095,-9.065465,0.0,-0.0,0.0
2030.5333333318154,0.59726113,-0.46020567,-0.19968319,-2.5082226,0.41386527,0.97635514,1.2209483,0.039999582,0.039999984,-3.716847,0.4883590042591095,-9.065465,0.0,-0.0,0.0
2030.549999998482,0.59726113,-0.46020567,-0.19968319,-2.5082226,0.41386527,0.97635514,1.2209483,0.039999582,0.039999984,-3.716847,0.4883590042591095,-9.065465,0.0,-0.0,0.0
2030.5666666651487,0.59726113,-0.46020567,-0.19968319,-2.5082226,0.41386527,0.97635514,1.2209483,0.039999582,0.039999984,-3.716847,0.4883590042591095,-9.065465,0.0,-0.0,0.0
2030.5833333318153,0.59726113,-0.46020567,-0.19968319,-2.5082226,0.41386527,0.97635514,1.2209483,0.039999582,0.039999984,-3.716847,0.4883590042591095,-9.065465,0.0,-0.0,0.0
2030.599999998482,0.59726113,-0.46020567,-0.19968319,-2.5082226,0.41386527,0.97635514,1.2209483,0.039999582,0.039999984,-3.716847,0.4883590042591095,-9.065465,0.0,-0.0,0.0
2030.6166666651486,0.59726113,-0.46020567,-0.19968319,-2.5082226,0.41386527,0.97635514,1.2209483,0.039999582,0.039999984,-3.716847,0.4883590042591095,-9.065465,0.0,-0.0,0.0
2030.6333333318153,0.59726113,-0.46020567,-0.19968319,-2.5082226,0.41386527,0.97635514,1.2209483,0.039999582,0.039999984,-3.716847,0.4883590042591095,-9.065465,0.0,-0.0,0.0
2030.649999998482,0.59726113,-0.46020567,-0.19968319,-2.5082226,0.41386527,0.97635514,1.2209483,0.039999582,0.039999984,-3.716847,0.4883590042591095,-9.065465,0.0,-0.0,0.0
2030.6666666651486,0.59726113,-0.46020567,-0.19968319,-2.5082226,0.41386527,0.97635514,1.2209483,0.039999582,0.039999984,-3.716847,0.4883590042591095,-9.065465,0.0,-0.0,0.0
2030.6833333318152,0.59726113,-0.46020567,-0.19968319,-2.5082226,0.41386527,0.97635514,1.2209483,0.039999582,0.039999984,-3.716847,0.4883590042591095,-9.065465,0.0,-0.0,0.0
2030.6999999984819,0.59726113,-0.46020567,-0.19968319,-2.5082226,0.41386527,0.97635514,1.2209483,0.039999582,0.039999984,-3.716847,0.4883590042591095,-9.065465,0.0,-0.0,0.0
2030.7166666651485,0.59726113,-0.46020567,-0.19968319,-2.5082226,0.41386527,0.97635514,1.2209483,0.039999582,0.039999984,-3.716847,0.4883590042591095,-9.065465,0.0,-0.0,0.0
2030.7333333318152,0.59726113,-0.46020567,-0.19968319,-2.5082226,0.41386527,0.97635514,1.2209483,0.039999582,0.039999984,-3.716847,0.4883590042591095,-9.065465,0.0,-0.0,0.0
2030.7499999984818,0.59726113,-0.46020567,-0.19968319,-2.5082226,0.41386527,0.97635514,1.2209483,0.039999582,0.039999984,-3.716847,0.4883590042591095,-9.065465,0.0,-0.0,0.0
2030.7666666651485,0.59726113,-0.46020567,-0.19968319,-2.5082226,0.41386527,0.97635514,1.2209483,0.039999582,0.039999984,-3.716847,0.4883590042591095,-9.065465,0.0,-0.0,0.0
2030.7833333318151,0.59726113,-0.46020567,-0.19968319,-2.5082226,0.41386527,0.97635514,1.2209483,0.039999582,0.039999984,-3.716847,0.4883590042591095,-9.065465,0.0,-0.0,0.0
2030.7999999984818,0.59726113,-0.46020567,-0.19968319,-2.5082226,0.41386527,0.97635514,1.2209483,0.039999582,0.039999984,-3.716847,0.4883590042591095,-9.065465,0.0,-0.0,0.0
2030.8166666651484,0.59726113,-0.46020567,-0.19968319,-2.5082226,0.41386527,0.97635514,1.2209483,0.039999582,0.039999984,-3.716847,0.4883590042591095,-9.065465,0.0,-0.0,0.0
2030.833333331815,0.59726113,-0.46020567,-0.19968319,-2.5082226,0.41386527,0.97635514,1.2209483,0.039999582,0.039999984,-3.716847,0.4883590042591095,-9.065465,0.0,-0.0,0.0
2030.8499999984817,0.59726113,-0.46020567,-0.19968319,-2.5082226,0.41386527,0.97635514,1.2209483,0.039999582,0.039999984,-3.716847,0.4883590042591095,-9.065465,0.0,-0.0,0.0
2030.8666666651484,0.59726113,-0.46020567,-0.19968319,-2.5082226,0.41386527,0.97635514,1.2209483,0.039999582,0.039999984,-3.716847,0.4883590042591095,-9.065465,0.0,-0.0,0.0
2030.883333331815,0.59726113,-0.46020567,-0.19968319,-2.5082226,0.41386527,0.97635514,1.2209483,0.039999582,0.039999984,-3.716847,0.4883590042591095,-9.065465,0.0,-0.0,0.0
2030.8999999984817,0.59726113,-0.46020567,-0.19968319,-2.5082226,0.41386527,0.97635514,1.2209483,0.039999582,0.039999984,-3.716847,0.4883590042591095,-9.065465,0.0,-0.0,0.0
2030.9166666651483,0.59726113,-0.46020567,-0.19968319,-2.5082226,0.41386527,0.97635514,1.2209483,0.039999582,0.039999984,-3.716847,0.4883590042591095,-9.065465,0.0,-0.0,0.0
2030.933333331815,0.59726113,-0.46020567,-0.19968319,-2.5082226,0.41386527,0.97635514,1.2209483,0.039999582,0.039999984,-3.716847,0.4883590042591095,-9.065465,0.0,-0.0,0.0
2030.9499999984816,0.59726113,-0.46020567,-0.19968319,-2.5082226,0.41386527,0.97635514,1.2209483,0.039999582,0.039999984,-3.716847,0.4883590042591095,-9.065465,0.0,-0.0,0.0
2030.9666666651483,0.59726113,-0.46020567,-0.19968319,-2.5082226,0.41386527,0.97635514,1.2209483,0.039999582,0.039999984,-3.716847,0.4883590042591095,-9.065465,0.0,-0.0,0.0
2030.983333331815,0.59726113,-0.46020567,-0.19968319,-2.5082226,0.41386527,0.97635514,1.2209483,0.039999582,0.039999984,-3.716847,0.4883590042591095,-9.065465,0.0,-0.0,0.0
2030.9999999984816,0.59726113,-0.46020567,-0.19968319,-2.5082226,0.41386527,0.97635514,1.2209483,0.039999582,0.039999984,-3.716847,0.4883590042591095,-9.065465,0.0,-0.0,0.0
2031.0166666651483,0.59726113,-0.46020567,-0.19968319,-2.5082226,0.41386527,0.97635514,1.2209483,0.039999582,0.039999984,-3.716847,0.4883590042591095,-9.065465,0.0,-0.0,0.0
2031.033333331815,0.59726113,-0.46020567,-0.19968319,-2.5082226,0.41386527,0.97635514,1.2209483,0.039999582,0.039999984,-3.716847,0.4883590042591095,-9.065465,0.0,-0.0,0.0
2031.0499999984816,0.59726113,-0.46020567,-0.19968319,-2.5082226,0.41386527,0.97635514,1.2209483,0.039999582,0.039999984,-3.716847,0.4883590042591095,-9.065465,0.0,-0.0,0.0
2031.0666666651482,0.59726113,-0.46020567,-0.19968319,-2.5082226,0.41386527,0.97635514,1.2209483,0.039999582,0.039999984,-3.716847,0.4883590042591095,-9.065465,0.0,-0.0,0.0
2031.0833333318149,0.59726113,-0.46020567,-0.19968319,-2.5082226,0.41386527,0.97635514,1.2209483,0.039999582,0.039999984,-3.716847,0.4883590042591095,-9.065465,0.0,-0.0,0.0
2031.0999999984815,0.59726113,-0.46020567,-0.19968319,-2.5082226,0.41386527,0.97635514,1.2209483,0.039999582,0.039999984,-3.716847,0.4883590042591095,-9.065465,0.0,-0.0,0.0
2031.1166666651482,0.59726113,-0.46020567,-0.19968319,-2.5082226,0.41386527,0.97635514,1.2209483,0.039999582,0.039999984,-3.716847,0.4883590042591095,-9.065465,0.0,-0.0,0.0
2031.1333333318148,0.59726113,-0.46020567,-0.19968319,-2.5082226,0.41386527,0.97635514,1.2209483,0.039999582,0.039999984,-3.716847,0.4883590042591095,-9.065465,0.0,-0.0,0.0
2031.1499999984815,0.59726113,-0.46020567,-0.19968319,-2.5082226,0.41386527,0.97635514,1.2209483,0.039999582,0.039999984,-3.716847,0.4883590042591095,-9.065465,0.0,-0.0,0.0
2031.166666665148,0.59726113,-0.46020567,-0.19968319,-2.5082226,0.41386527,0.97635514,1.2209483,0.039999582,0.039999984,-3.716847,0.4883590042591095,-9.065465,0.0,-0.0,0.0
2031.1833333318148,0.59726113,-0.46020567,-0.19968319,-2.5082226,0.41386527,0.97635514,1.2209483,0.039999582,0.039999984,-3.716847,0.4883590042591095,-9.065465,0.0,-0.0,0.0
2031.1999999984814,0.59726113,-0.46020567,-0.19968319,-2.5082226,0.41386527,0.97635514,1.2209483,0.039999582,0.039999984,-3.716847,0.4883590042591095,-9.065465,0.0,-0.0,0.0
