rsonawane2002/My_IMU/logs_2/traj_434/imu_400hz_434.csv
time,j1,j2,j3,j4,j5,j6,j7,gripper1,gripper2,imu_ax,imu_ay,imu_az,imu_gx,imu_gy,imu_gz
0.0,0.00016700293,-0.785875,4.0107683e-05,-2.3551247,9.29385e-05,1.570997,0.786,0.04,0.04,-9.434495,-0.0766439735889434,0.11283393,-4.434326e-10,-0.0011641267919912,1.3556515e-06
0.0025,0.0001670048515,-0.785857774,4.0108208000000005e-05,-2.35513919,9.294488340000001e-05,1.570996565,0.786,0.04,0.04,-9.494468150000055,-0.06504938055585474,0.09727814624998585,-4.037671271003632e-08,-0.0013251068128739114,1.3830209050000248e-06
0.005,0.000167006773,-0.785840548,4.0108733e-05,-2.3551536800000004,9.295126680000002e-05,1.57099613,0.786,0.04,0.04,-9.554441300000109,-0.053454787522766084,0.0817223624999717,-8.030999282007264e-08,-0.001486086833756623,1.4103903100000498e-06
0.0075,0.0001670086945,-0.7858233219999999,4.0109258000000004e-05,-2.3551681700000002,9.295765020000003e-05,1.570995695,0.786,0.04,0.04,-9.614414450000163,-0.041860194489677434,0.06616657874995756,-1.2024327293010894e-07,-0.0016470668546393343,1.4377597150000746e-06
0.01,0.00016701061600000002,-0.785806096,4.010978300000001e-05,-2.35518266,9.296403360000003e-05,1.5709952600000001,0.786,0.04,0.04,-9.674387600000218,-0.030265601456588777,0.050610794999943406,-1.6017655304014527e-07,-0.0018080468755220457,1.4651291200000997e-06
0.0125,0.0001670125375,-0.78578887,4.0110308e-05,-2.3551971500000004,9.297041700000003e-05,1.570994825,0.786,0.04,0.04,-9.734360750000272,-0.018671008423500113,0.035055011249929255,-2.001098331501816e-07,-0.0019690268964047573,1.4924985250001245e-06
0.015,0.000167014459,-0.785771644,4.0110833000000006e-05,-2.3552116400000003,9.297680040000003e-05,1.57099439,0.786,0.04,0.04,-9.794333900000327,-0.00707641539041147,0.019499227499915117,-2.400431132602179e-07,-0.0021300069172874685,1.5198679300001493e-06
0.0175,0.00016701983550000004,-0.785754862,4.011015165e-05,-2.3552257350000003,9.298545670000002e-05,1.57099396,0.786,0.04,0.04,-9.8342225,0.0006553732382599063,0.009050219074999572,-2.7285387400003376e-07,-0.0022864312049934734,1.7478087100011446e-06
0.02,0.00016703212199999987,-0.7857389680000002,4.0107057600000033e-05,-2.35523904,9.299865879999986e-05,1.5709935400000001,0.786,0.04,0.04,-9.833942000000002,0.0006615530583075125,0.00881476130000257,-2.9141959599979736e-07,-0.0024337440263463126,2.3768922399931342e-06
0.0225,0.00016704440849999973,-0.7857230740000004,4.0103963550000075e-05,-2.355252345,9.301186089999969e-05,1.57099312,0.786,0.04,0.04,-9.833661500000005,0.0006677328783551189,0.008579303525005568,-3.0998531799956097e-07,-0.0025810568476991517,3.005975769985124e-06
0.025,0.00016705669499999956,-0.7857071800000006,4.0100869500000116e-05,-2.3552656499999993,9.302506299999953e-05,1.5709927000000001,0.786,0.04,0.04,-9.83338100000001,0.0006739126984027251,0.008343845750008566,-3.2855103999932457e-07,-0.002728369669051991,3.6350592999771143e-06
0.0275,0.0001670689814999994,-0.7856912860000008,4.009777545000015e-05,-2.3552789549999993,9.303826509999935e-05,1.57099228,0.786,0.04,0.04,-9.833100500000013,0.0006800925184503315,0.008108387975011564,-3.471167619990882e-07,-0.00287568249040483,4.264142829969105e-06
0.03,0.00016708126799999925,-0.7856753920000009,4.009468140000019e-05,-2.3552922599999992,9.305146719999919e-05,1.5709918600000001,0.786,0.04,0.04,-9.832820000000016,0.0006862723384979377,0.007872930200014562,-3.656824839988518e-07,-0.0030229953117576697,4.893226359961093e-06
0.0325,0.00016709355449999908,-0.7856594980000011,4.0091587350000226e-05,-2.3553055649999988,9.306466929999902e-05,1.57099144,0.786,0.04,0.04,-9.83253950000002,0.0006924521585455441,0.00763747242501756,-3.8424820599861544e-07,-0.003170308133110509,5.522309889953083e-06
0.035,0.00016712416199999726,-0.785644440000001,4.008223440000086e-05,-2.355318099999999,9.30903769999978e-05,1.57099101,0.786,0.04,0.04,-9.832238300000022,0.0007042618875846591,0.007429594090013415,-4.1721017499722413e-07,-0.0033086890121828538,6.763506259893054e-06
0.0375,0.00016716392999999784,-0.7856298000000008,4.006975200000068e-05,-2.3553302499999993,9.312233749999827e-05,1.570990575,0.786,0.04,0.04,-9.831926750000017,0.0007188865711205269,0.007235505475010591,-4.5737026749780845e-07,-0.0034426039201133673,8.310759049915567e-06
0.04,0.0001672036979999984,-0.7856151600000005,4.00572696000005e-05,-2.3553423999999996,9.315429799999872e-05,1.57099014,0.786,0.04,0.04,-9.831615200000012,0.0007335112546563948,0.007041416860007767,-4.975303599983929e-07,-0.003576518828043881,9.858011839938084e-06
0.0425,0.00016724346599999898,-0.7856005200000004,4.004478720000032e-05,-2.3553545499999995,9.318625849999918e-05,1.5709897050000001,0.786,0.04,0.04,-9.831303650000008,0.0007481359381922626,0.006847328245004942,-5.376904524989774e-07,-0.003710433735974395,1.14052646299606e-05
0.045,0.00016728323399999956,-0.7855858800000002,4.003230480000014e-05,-2.3553667,9.321821899999965e-05,1.57098927,0.786,0.04,0.04,-9.830992100000003,0.0007627606217281304,0.006653239630002118,-5.778505449995617e-07,-0.0038443486439049086,1.2952517419983115e-05
0.0475,0.00016732300200000014,-0.78557124,4.001982239999996e-05,-2.35537885,9.325017950000011e-05,1.570988835,0.786,0.04,0.04,-9.830680549999999,0.0007773853052639982,0.006459151014999294,-6.180106375001462e-07,-0.003978263551835422,1.4499770210005632e-05
0.05,0.00016736277000000167,-0.7855565999999998,4.000733999999945e-05,-2.355391,9.328214000000124e-05,1.5709884,0.786,0.04,0.04,-9.830368999999994,0.0007920099888000059,0.006265062399996549,-6.581707299996384e-07,-0.004112178459765681,1.6047023000052066e-05
0.0525,0.0001674546240000005,-0.7855430999999999,3.9977200499999836e-05,-2.35540213,9.335026850000037e-05,1.57098798,0.786,0.04,0.04,-9.830094799999998,0.0008143238897901368,0.006075360579998965,-6.382967514998916e-07,-0.004232044005767139,1.8909198950015616e-05
0.055,0.00016754647799999933,-0.7855296000000002,3.994706100000022e-05,-2.3554132599999997,9.34183969999995e-05,1.57098756,0.786,0.04,0.04,-9.829820600000001,0.0008366377907802676,0.005885658760001381,-6.184227730001446e-07,-0.004351909551768598,2.1771374899979176e-05
0.0575,0.00016763833199999814,-0.7855161000000003,3.99169215000006e-05,-2.3554243899999996,9.348652549999864e-05,1.57098714,0.786,0.04,0.04,-9.829546400000005,0.0008589516917703985,0.005695956940003796,-5.985487945003977e-07,-0.004471775097770057,2.4633550849942733e-05
0.06,0.00016773018599999697,-0.7855026000000005,3.9886782000000986e-05,-2.3554355199999994,9.355465399999777e-05,1.57098672,0.786,0.04,0.04,-9.829272200000009,0.0008812655927605294,0.005506255120006211,-5.786748160006507e-07,-0.004591640643771515,2.7495726799906287e-05
0.0625,0.0001678220399999958,-0.7854891000000006,3.985664250000137e-05,-2.3554466499999993,9.362278249999689e-05,1.5709863,0.786,0.04,0.04,-9.828998000000013,0.0009035794937506602,0.005316553300008626,-5.588008375009038e-07,-0.004711506189772974,3.0357902749869847e-05
0.065,0.00016791389399999464,-0.7854756000000008,3.982650300000175e-05,-2.355457779999999,9.369091099999603e-05,1.57098588,0.786,0.04,0.04,-9.828723800000015,0.0009258933947407912,0.005126851480011041,-5.389268590011568e-07,-0.004831371735774433,3.3220078699833404e-05
0.0675,0.00016803355149998836,-0.7854624370000008,3.9786983800003866e-05,-2.355468549999999,9.377878499999153e-05,1.57098545,0.786,0.04,0.03999999975,-9.828440800000019,0.0009502645407318088,0.004946265445010779,-4.880749310074894e-07,-0.004946633032516034,3.6678180699691284e-05
0.07,0.0001682088159999885,-0.7854499480000008,3.9728705200003817e-05,-2.355478599999999,9.390614999999165e-05,1.570985,0.786,0.04,0.039999999,-9.82814020000002,0.0009787501767258347,0.004783910980010631,-3.7526710400738674e-07,-0.0050526858307351555,4.1328134799695516e-05
0.0725,0.0001683840804999887,-0.7854374590000008,3.967042660000377e-05,-2.355488649999999,9.403351499999177e-05,1.57098455,0.786,0.04,0.03999999825,-9.827839600000019,0.0010072358127198604,0.0046215565150104845,-2.6245927700728465e-07,-0.005158738628954276,4.597808889969972e-05
0.075,0.00016855934499998885,-0.7854249700000008,3.961214800000371e-05,-2.355498699999999,9.41608799999919e-05,1.5709841,0.786,0.04,0.0399999975,-9.82753900000002,0.0010357214487138864,0.004459202050010337,-1.4965145000718198e-07,-0.005264791427173398,5.062804299970395e-05
0.0775,0.000168734609499989,-0.7854124810000008,3.955386940000366e-05,-2.3555087499999994,9.4288244999992e-05,1.57098365,0.786,0.04,0.03999999675,-9.827238400000018,0.0010642070847079123,0.004296847585010189,-3.6843623007079254e-08,-0.005370844225392519,5.5277997099708185e-05
0.08,0.00016890987399998915,-0.7853999920000008,3.9495590800003606e-05,-2.355518799999999,9.441560999999212e-05,1.5709832000000001,0.786,0.04,0.039999996,-9.82693780000002,0.0010926927207019382,0.004134493120010041,7.596420399302336e-08,-0.005476897023611641,5.992795119971242e-05
0.0825,0.00016908513849998933,-0.7853875030000007,3.9437312200003556e-05,-2.3555288499999993,9.454297499999225e-05,1.57098275,0.786,0.04,0.03999999525,-9.826637200000018,0.0011211783566959642,0.003972138655009894,1.887720309931261e-07,-0.0055829498218307625,6.457790529971665e-05
0.085,0.00016934093599998493,-0.7853756660000005,3.935195940000504e-05,-2.3555386799999996,9.472611459998926e-05,1.5709822900000001,0.78600019,0.04,0.039999995,-9.826362500000014,0.0011526966933143375,0.0038104945500082145,4.3319120598420046e-07,-0.005679717101151998,7.047766399966769e-05
0.08750000000000001,0.00016963699999998923,-0.7853641550000005,3.92530695000036e-05,-2.3555483999999995,9.493714149999232e-05,1.570981825,0.786000475,0.04,0.039999995,-9.826100750000009,0.0011857313802452983,0.0036492056250058674,7.43416054988715e-07,-0.005771841621023024,7.700232499976265e-05
0.09,0.00016993306399999355,-0.7853526440000003,3.915417960000216e-05,-2.3555581199999995,9.51481683999954e-05,1.57098136,0.7860007600000001,0.04,0.039999995,-9.825839000000006,0.001218766067176259,0.003487916700003521,1.0536409039932279e-06,-0.005863966140894049,8.352698599985757e-05
0.0925,0.00017022912799999785,-0.7853411330000001,3.905528970000072e-05,-2.35556784,9.535919529999847e-05,1.570980895,0.786001045,0.04,0.039999995,-9.825577250000002,0.0012518007541072196,0.003326627775001174,1.3638657529977424e-06,-0.005956090660765074,9.005164699995252e-05
0.095,0.00017052519200000214,-0.7853296219999999,3.8956399799999284e-05,-2.35557756,9.557022220000153e-05,1.5709804299999999,0.78600133,0.04,0.039999995,-9.825315499999999,0.0012848354410381804,0.0031653388499988267,1.6740906020022571e-06,-0.006048215180636101,9.657630800004747e-05
0.0975,0.00017082125600000647,-0.7853181109999997,3.885750989999784e-05,-2.35558728,9.57812491000046e-05,1.570979965,0.786001615,0.04,0.039999995,-9.825053749999995,0.0013178701279691412,0.003004049924996479,1.9843154510067716e-06,-0.006140339700507126,0.00010310096900014243
0.1,0.00017111732000001673,-0.7853065999999995,3.87586199999944e-05,-2.3555970000000004,9.599227600001173e-05,1.5709795,0.7860019,0.04,0.039999995,-9.824791999999993,0.0013509048149002597,0.0028427609999950665,2.294540299975342e-06,-0.006232464220377745,0.00010962563000031187
0.10250000000000001,0.00017157694550001088,-0.7852958749999998,3.860483849999636e-05,-2.35560573,9.631470160000762e-05,1.5709789299999999,0.7860021850000001,0.04,0.03999999575,-9.824587999999995,0.0013882744999144938,0.002707160549996793,1.616784469983971e-06,-0.006313392962330984,0.00011819786150020273
0.105,0.00017203657100000501,-0.7852851499999999,3.8451056999998324e-05,-2.35561446,9.663712720000352e-05,1.57097836,0.78600247,0.04,0.0399999965,-9.824383999999998,0.001425644184928728,0.0025715600999985204,9.390286399926041e-07,-0.0063943217042842235,0.00012677009300009356
0.1075,0.00017249619649999917,-0.785274425,3.829727550000028e-05,-2.35562319,9.695955279999941e-05,1.57097779,0.786002755,0.04,0.03999999725,-9.82418,0.001463013869942962,0.002435959650000247,2.612728100012335e-07,-0.006475250446237463,0.0001353423244999844
0.11,0.0001729558219999933,-0.7852637000000001,3.814349400000224e-05,-2.35563192,9.72819783999953e-05,1.57097722,0.78600304,0.04,0.039999998,-9.823976000000004,0.0015003835549571962,0.0023003592000019734,-4.164830199901371e-07,-0.006556179188190702,0.00014391455599987527
0.1125,0.00017341544749998746,-0.7852529750000002,3.79897125000042e-05,-2.35564065,9.76044039999912e-05,1.57097665,0.786003325,0.04,0.03999999875,-9.823772000000005,0.0015377532399714305,0.0021647587500037,-1.0942388499815082e-06,-0.0066371079301439425,0.00015248678749976612
0.115,0.00017387507299998161,-0.7852422500000004,3.783593100000615e-05,-2.35564938,9.792682959998709e-05,1.57097608,0.78600361,0.04,0.0399999995,-9.823568000000009,0.0015751229249856646,0.0020291583000054264,-1.7719946799728792e-06,-0.006718036672097182,0.00016105901899965698
0.11750000000000001,0.00017440507949996462,-0.7852317685000005,3.765854825001185e-05,-2.35565789,9.829808999997526e-05,1.570975365,0.786003992,0.04,0.04,-9.823337800000015,0.0016156698984534212,0.001893055835007232,-2.315197484985542e-06,-0.006794172618534625,0.00017056140249940065
0.12,0.00017507584799995608,-0.7852217740000006,3.743396300001471e-05,-2.3556659599999996,9.876701999996929e-05,1.5709743600000001,0.786004568,0.04,0.04,-9.823055200000018,0.0016625714488296087,0.0017559493400089786,-2.5892942399820507e-06,-0.006860722973938382,0.0001819240899992559
0.1225,0.00017574661649994754,-0.7852117795000008,3.720937775001757e-05,-2.3556740299999994,9.923594999996332e-05,1.570973355,0.786005144,0.04,0.04,-9.822772600000022,0.0017094729992057965,0.001618842845010724,-2.8633909949785608e-06,-0.00692727332934214,0.00019328677749911124
0.125,0.000176417384999939,-0.7852017850000009,3.6984792500020425e-05,-2.3556820999999992,9.970487999995735e-05,1.5709723500000001,0.78600572,0.04,0.04,-9.822490000000025,0.0017563745495819843,0.0014817363500124697,-3.137487749975071e-06,-0.006993823684745898,0.00020464946499896658
0.1275,0.00017708815349993045,-0.785191790500001,3.676020725002329e-05,-2.3556901699999995,0.00010017380999995138,1.5709713450000002,0.7860062959999999,0.04,0.04,-9.82220740000003,0.001803276099958172,0.0013446298550142152,-3.411584504971581e-06,-0.007060374040149655,0.00021601215249882188
0.13,0.00017775892199992191,-0.7851817960000012,3.6535622000026146e-05,-2.3556982399999993,0.00010064273999994541,1.5709703400000001,0.786006872,0.04,0.04,-9.821924800000033,0.0018501776503343599,0.001207523360015961,-3.6856812599680913e-06,-0.007126924395553413,0.00022737483999867722
0.1325,0.00017842969049991337,-0.7851718015000013,3.6311036750029e-05,-2.355706309999999,0.00010111166999993944,1.5709693350000002,0.7860074479999999,0.04,0.04,-9.821642200000037,0.0018970792007105479,0.0010704168650177066,-3.959778014964601e-06,-0.007193474750957171,0.00023873752749853253
0.135,0.00017927579099989298,-0.7851622130000011,3.6027712300035835e-05,-2.355714059999999,0.00010170272299992528,1.5709683,0.7860080399999999,0.04,0.04,-9.821410500000024,0.0019480427261380372,0.000940945212014399,-4.69434953988944e-06,-0.007252526469522273,0.0002520286029983664
0.1375,0.00018020955749991933,-0.7851528275000008,3.571501825002702e-05,-2.3557216499999996,0.00010235483749994367,1.57096725,0.7860086399999999,0.04,0.04,-9.821204250000019,0.0020010372390923963,0.0008152909800108562,-5.6591584499166424e-06,-0.007307828869665797,0.00026628387249876835
0.14,0.00018114332399994564,-0.7851434420000005,3.54023242000182e-05,-2.3557292399999996,0.00010300695199996205,1.5709662,0.7860092399999999,0.04,0.04,-9.820998000000012,0.0020540317520467556,0.0006896367480073134,-6.623967359943846e-06,-0.007363131269809321,0.0002805391419991703
0.14250000000000002,0.00018207709049997196,-0.7851340565000003,3.5089630150009385e-05,-2.3557368299999997,0.00010365906649998044,1.5709651500000001,0.78600984,0.04,0.04,-9.820791750000007,0.0021070262650011145,0.0005639825160037705,-7.588776269971049e-06,-0.007418433669952845,0.00029479441149957223
0.145,0.00018301085699999828,-0.785124671,3.477693610000057e-05,-2.3557444199999997,0.00010431118099999881,1.5709641,0.78601044,0.04,0.04,-9.8205855,0.0021600207779554734,0.000438328284000229,-8.55358517999824e-06,-0.007473736070096369,0.000309049680999974
0.1475,0.00018394462350002463,-0.7851152854999998,3.446424204999175e-05,-2.3557520100000002,0.0001049632955000172,1.57096305,0.78601104,0.04,0.04,-9.820379249999995,0.0022130152909098323,0.00031267405199668623,-9.518394090025444e-06,-0.007529038470239893,0.00032330495050037595
0.15,0.00018487839000006832,-0.7851058999999996,3.4151547999977114e-05,-2.3557596000000003,0.00010561541000004764,1.570962,0.78601164,0.04,0.04,-9.820172999999988,0.002266009803864242,0.00018701981999329678,-1.0483203000018707e-05,-0.007584340870382713,0.00033756022000093304
0.1525,0.0001861308510000524,-0.7850970559999997,3.373217784998245e-05,-2.3557667550000003,0.00010648844750003653,1.570960425,0.7860124980000001,0.04,0.04,-9.819945149999992,0.0023199249641060304,6.417691649486079e-05,-1.0826023800014342e-05,-0.007626728992910953,0.00035465988400071536
0.155,0.00018738331200003643,-0.7850882119999998,3.3312807699987794e-05,-2.35577391,0.0001073614850000254,1.57095885,0.786013356,0.04,0.04,-9.819717299999994,0.002373840124347819,-5.866598700357518e-05,-1.1168844600009977e-05,-0.007669117115439193,0.0003717595480004976
0.1575,0.0001886357730000205,-0.7850793679999999,3.289343754999313e-05,-2.355781065,0.00010823452250001429,1.570957275,0.786014214,0.04,0.04,-9.819489449999997,0.0024277552845896077,-0.00018150889050201114,-1.1511665400005612e-05,-0.0077115052379674335,0.00038885921200027993
0.16,0.00018988823400000455,-0.785070524,3.247406739999847e-05,-2.35578822,0.00010910756000000318,1.5709557,0.786015072,0.04,0.04,-9.819261599999999,0.002481670444831396,-0.00030435179400044716,-1.1854486200001248e-05,-0.007753893360495674,0.0004059588760000622
0.1625,0.00019114069499998862,-0.7850616800000001,3.205469725000381e-05,-2.355795375,0.00010998059749999206,1.570954125,0.78601593,0.04,0.04,-9.819033750000003,0.0025355856050731846,-0.00042719469749888313,-1.2197306999996883e-05,-0.007796281483023915,0.0004230585399998445
0.165,0.00019239315599997266,-0.7850528360000002,3.163532710000915e-05,-2.3558025299999996,0.00011085363499998095,1.5709525500000001,0.786016788,0.04,0.04,-9.818805900000005,0.002589500765314973,-0.0005500376009973192,-1.2540127799992518e-05,-0.007838669605552155,0.00044015820399962677
0.1675,0.0001937715174999585,-0.7850441480000002,3.117382815001389e-05,-2.3558094599999997,0.0001118139694999711,1.5709509400000001,0.786017742,0.04,0.04,-9.818589900000005,0.0026468636351620837,-0.000671128841497006,-1.297184654998448e-05,-0.007877421611919124,0.0004583086979994843
0.17,0.00019540167999998223,-0.7850357720000001,3.062807160000595e-05,-2.35581594,0.00011294889799998762,1.5709492600000001,0.786018888,0.04,0.04,-9.818397600000003,0.002711121924220779,-0.0007887167559987173,-1.358136119999335e-05,-0.007908901385962556,0.00047856085199977905
0.17250000000000001,0.00019703184250000595,-0.7850273959999999,3.008231504999801e-05,-2.35582242,0.00011408382650000414,1.5709475800000001,0.786020034,0.04,0.04,-9.8182053,0.002775380213279474,-0.0009063046705004285,-1.4190875850002221e-05,-0.00794038116000599,0.0004988130060000738
0.17500000000000002,0.00019866200500002966,-0.7850190199999999,2.9536558499990067e-05,-2.3558289,0.00011521875500002065,1.5709459,0.78602118,0.04,0.04,-9.818012999999997,0.002839638502338169,-0.0010238925850021398,-1.4800390500011092e-05,-0.007971860934049422,0.0005190651600003685
0.1775,0.00020029216750005338,-0.7850106439999998,2.8990801949982134e-05,-2.3558353800000003,0.00011635368350003716,1.57094422,0.786022326,0.04,0.04,-9.817820699999995,0.0029038967913968634,-0.0011414804995038496,-1.5409905150019953e-05,-0.008003340708092855,0.000539317314000663
0.18,0.0002019223300000771,-0.7850022679999996,2.844504539997419e-05,-2.35584186,0.00011748861200005367,1.5709425399999999,0.786023472,0.04,0.04,-9.817628399999991,0.002968155080455559,-0.001259068414005561,-1.6019419800028826e-05,-0.008034820482136287,0.0005595694680009578
0.1825,0.00020355249250010083,-0.7849938919999996,2.789928884996625e-05,-2.35584834,0.00011862354050007019,1.5709408599999999,0.786024618,0.04,0.04,-9.81743609999999,0.0030324133695142537,-0.0013766563285072721,-1.6628934450037698e-05,-0.008066300256179722,0.0005798216220012525
0.185,0.00020547576500015813,-0.7849857639999994,2.7255508199947073e-05,-2.3558547200000004,0.00011996189700011001,1.5709388299999998,0.7860259940000001,0.04,0.04,-9.817203799999982,0.0030974628403832396,-0.0014950886100090802,-1.7365899400061172e-05,-0.00808823937550317,0.0006022763120017996
0.1875,0.00020754559250018827,-0.7849777599999993,2.6562715499936992e-05,-2.3558610500000006,0.00012140196750013098,1.5709366249999999,0.7860274850000001,0.04,0.04,-9.816951499999977,0.003162907902157252,-0.00161394307501081,-1.8166589500072822e-05,-0.00810540816746806,0.0006258322700021424
0.19,0.00020961542000021838,-0.7849697559999992,2.586992279992691e-05,-2.3558673800000007,0.00012284203800015192,1.5709344199999997,0.7860289760000001,0.04,0.04,-9.816699199999974,0.0032283529639312645,-0.0017327975400125396,-1.8967279600084476e-05,-0.008122576959432951,0.0006493882280024853
0.1925,0.0002116852475002485,-0.7849617519999991,2.5177130099916825e-05,-2.355873710000001,0.0001242821085001729,1.5709322149999998,0.7860304670000001,0.04,0.04,-9.81644689999997,0.003293798025705277,-0.0018516520050142692,-1.9767969700096126e-05,-0.00813974575139784,0.000672944186002828
0.195,0.00021375507500027863,-0.784953747999999,2.4484337399906745e-05,-2.355880040000001,0.00012572217900019386,1.5709300099999997,0.7860319580000001,0.04,0.04,-9.816194599999966,0.0033592430874792895,-0.0019705064700159987,-2.056865980010778e-05,-0.008156914543362731,0.0006965001440031708
0.1975,0.00021582490250030874,-0.7849457439999988,2.379154469989666e-05,-2.355886370000001,0.0001271622495002148,1.5709278049999997,0.7860334490000002,0.04,0.04,-9.815942299999962,0.003424688149253302,-0.0020893609350177283,-2.136934990011943e-05,-0.00817408333532762,0.0007200561020035137
0.2,0.0002178947300004214,-0.7849377399999988,2.309875199985898e-05,-2.355892700000001,0.0001286023200002928,1.5709255999999996,0.7860349400000003,0.04,0.04,-9.815689999999973,0.003490133211029237,-0.00220821540001878,-2.2170040000181115e-05,-0.00819125212729083,0.000743612060004401
0.2025,0.00022046872700038863,-0.7849300239999989,2.2237382849869948e-05,-2.355898625000001,0.00013039067250027002,1.5709228699999995,0.7860368840000003,0.04,0.04,-9.815528899999975,0.003567323274922044,-0.0023229296100173197,-2.3276329150167028e-05,-0.008198164682836307,0.0007704945410040588
0.20500000000000002,0.00022304272400035585,-0.784922307999999,2.1376013699880914e-05,-2.355904550000001,0.00013217902500024724,1.5709201399999997,0.7860388280000002,0.04,0.04,-9.815367799999978,0.0036445133388148514,-0.0024376438200158592,-2.4382618300152944e-05,-0.008205077238381785,0.0007973770220037165
0.20750000000000002,0.0002256167210003231,-0.784914591999999,2.051464454989188e-05,-2.355910475000001,0.00013396737750022447,1.5709174099999996,0.7860407720000002,0.04,0.04,-9.81520669999998,0.0037217034027076587,-0.0025523580300143987,-2.5488907450138856e-05,-0.008211989793927262,0.0008242595030033742
0.21,0.0002281907180002903,-0.7849068759999992,1.965327539990286e-05,-2.355916400000001,0.0001357557300002017,1.5709146799999998,0.7860427160000002,0.04,0.04,-9.815045599999982,0.003798893466600465,-0.0026670722400129365,-2.659519660012476e-05,-0.008218902349472739,0.0008511419840030316
0.2125,0.00023076471500025752,-0.7848991599999993,1.8791906249913827e-05,-2.3559223250000003,0.0001375440825001789,1.5709119499999997,0.7860446600000002,0.04,0.04,-9.814884499999984,0.0038760835304932724,-0.002781786450011476,-2.7701485750110675e-05,-0.008225814905018216,0.0008780244650026894
0.215,0.00023333871200022474,-0.7848914439999993,1.7930537099924794e-05,-2.3559282500000003,0.00013933243500015614,1.5709092199999999,0.7860466040000001,0.04,0.04,-9.814723399999986,0.00395327359438608,-0.0028965006600100156,-2.8807774900096588e-05,-0.008232727460563694,0.0009049069460023471
0.2175,0.00023610300750024886,-0.7848837874999994,1.7005559499916745e-05,-2.3559340150000003,0.00014125265150017282,1.570906295,0.7860486615000002,0.0399999995,0.04,-9.814547999999983,0.004030613624496853,-0.0030109283350090088,-3.007585395012594e-05,-0.008235746016725427,0.0009329905500024122
0.22,0.0002392479000002517,-0.7848762499999994,1.5953364999915788e-05,-2.35593946,0.0001434365960001748,1.5709029799999998,0.7860509460000003,0.039999998,0.04,-9.814343999999982,0.004108253587043454,-0.003124782940009112,-3.166751280012739e-05,-0.008230976574122438,0.0009634764000024399
0.2225,0.00024239279250025457,-0.7848687124999995,1.4901170499914829e-05,-2.3559449050000003,0.0001456205405001768,1.5708996649999998,0.7860532305000002,0.0399999965,0.04,-9.814139999999984,0.0041858935495900544,-0.003238637545009216,-3.325917165012884e-05,-0.008226207131519449,0.0009939622500024677
0.225,0.00024553768500025746,-0.7848611749999994,1.384897599991387e-05,-2.3559503500000005,0.00014780448500017877,1.5708963499999997,0.7860555150000003,0.039999994999999997,0.04,-9.813935999999984,0.004263533512136655,-0.0033524921500093195,-3.485083050013029e-05,-0.008221437688916458,0.0010244481000024955
0.2275,0.0002486825775002603,-0.7848536374999994,1.2796781499912913e-05,-2.3559557950000003,0.00014998842950018074,1.5708930349999999,0.7860577995000002,0.0399999935,0.04,-9.813731999999984,0.004341173474683256,-0.0034663467550094234,-3.644248935013173e-05,-0.00821666824631347,0.0010549339500025231
0.23,0.00025182747000026314,-0.7848460999999994,1.1744586999911955e-05,-2.3559612400000005,0.00015217237400018274,1.5708897199999998,0.7860600840000003,0.039999992,0.04,-9.813527999999984,0.004418813437229856,-0.0035802013600095273,-3.8034148200133184e-05,-0.00821189880371048,0.001085419800002551
0.2325,0.00025497236250026604,-0.7848385624999994,1.0692392499910996e-05,-2.3559666850000003,0.00015435631850018472,1.5708864049999998,0.7860623685000002,0.0399999905,0.04,-9.813323999999984,0.004496453399776458,-0.0036940559650096307,-3.9625807050134635e-05,-0.008207129361107492,0.0011159056500025786
0.23500000000000001,0.000258543578000358,-0.7848311089999993,9.497722979880254e-06,-2.35597203,0.00015683584300024852,1.5708826899999997,0.7860649970000003,0.039999989799999996,0.0399999995,-9.81311169999998,0.004583630431452077,-0.0038152326500118087,-4.1131236800138325e-05,-0.008194043673573249,0.001148853400003233
0.23750000000000002,0.00026232795500041303,-0.7848236974999991,8.231815949861831e-06,-2.3559773250000005,0.00015946315750028675,1.5708787749999995,0.7860677975000003,0.0399999895,0.03999999875,-9.812895249999977,0.0046755759976903856,-0.0039400703750136256,-4.25935520001596e-05,-0.008176799863574967,0.0011830321000037304
0.24,0.00026611233200046807,-0.7848162859999991,6.965908919843422e-06,-2.3559826200000007,0.00016209047200032496,1.5708748599999995,0.7860705980000005,0.0399999892,0.039999998,-9.812678799999974,0.004767521563928692,-0.004064908100015441,-4.405586720018087e-05,-0.008159556053576687,0.0012172108000042274
0.2425,0.00026989670900052316,-0.7848088744999989,5.700001889825001e-06,-2.3559879150000005,0.0001647177865003632,1.5708709449999994,0.7860733985000005,0.0399999889,0.03999999725,-9.81246234999997,0.004859467130167001,-0.0041897458250172576,-4.5518182400202154e-05,-0.008142312243578406,0.0012513895000047248
0.245,0.00027368108600057825,-0.7848014629999989,4.434094859806578e-06,-2.3559932100000007,0.00016734510100040143,1.5708670299999994,0.7860761990000005,0.0399999886,0.0399999965,-9.812245899999967,0.004951412696405309,-0.004314583550019075,-4.698049760022343e-05,-0.008125068433580124,0.0012855682000052222
0.2475,0.00027746546300063334,-0.7847940514999987,3.168187829788156e-06,-2.355998505000001,0.00016997241550043967,1.5708631149999992,0.7860789995000005,0.0399999883,0.03999999575,-9.812029449999965,0.005043358262643617,-0.004439421275020891,-4.844281280024471e-05,-0.008107824623581844,0.0013197469000057196
0.25,0.0002812498400008175,-0.7847866399999986,1.9022807997265962e-06,-2.3560038000000008,0.00017259973000056738,1.570859199999999,0.7860818000000006,0.039999988,0.039999995,-9.81181299999997,0.0051353038288816585,-0.0045642590000225984,-4.990512800033023e-05,-0.008090580813581593,0.0013539256000069063
0.2525,0.00028574391050076027,-0.7847792689999987,3.9922697974573295e-07,-2.3560090800000006,0.00017571903550052766,1.5708546399999992,0.7860851000000006,0.0399999874,0.039999994250000004,-9.811644099999972,0.005225781374626181,-0.004688492945021016,-5.172056255030711e-05,-0.008062508981670146,0.0013918941100064229
0.255,0.000290237981000703,-0.7847718979999988,-1.10382684023513e-06,-2.3560143600000005,0.00017883834100048795,1.5708500799999991,0.7860884000000006,0.0399999868,0.039999993500000004,-9.811475199999974,0.005316258920370704,-0.004812726890019435,-5.3535997100284e-05,-0.008034437149758699,0.0014298626200059394
0.2575,0.0002947320515006458,-0.7847645269999989,-2.6068806602159927e-06,-2.356019640000001,0.00018195764650044823,1.5708455199999993,0.7860917000000005,0.039999986200000004,0.039999992750000005,-9.811306299999975,0.005406736466115227,-0.004936960835017853,-5.535143165026088e-05,-0.008006365317847252,0.0014678311300054562
0.26,0.0002992261220005886,-0.7847571559999991,-4.109934480196856e-06,-2.3560249200000007,0.00018507695200040852,1.5708409599999993,0.7860950000000004,0.0399999856,0.039999992,-9.811137399999978,0.00549721401185975,-0.005061194780016271,-5.716686620023777e-05,-0.007978293485935803,0.0015057996400049728
0.2625,0.00030372019250053136,-0.7847497849999991,-5.612988300177719e-06,-2.3560302000000006,0.0001881962575003688,1.5708363999999995,0.7860983000000005,0.039999985,0.03999999125,-9.81096849999998,0.005587691557604273,-0.0051854287250146895,-5.8982300750214655e-05,-0.007950221654024356,0.0015437681500044893
0.265,0.0003082142630004741,-0.7847424139999992,-7.116042120158582e-06,-2.3560354800000005,0.0001913155630003291,1.5708318399999994,0.7861016000000004,0.0399999844,0.0399999905,-9.810799599999982,0.005678169103348796,-0.005309662670013108,-6.0797735300191544e-05,-0.007922149822112909,0.001581736660004006
0.2675,0.00031296874950051336,-0.7847350364999992,-8.70609560017168e-06,-2.3560407300000006,0.00019461536600035628,1.5708270249999994,0.7861050865000004,0.0399999838,0.0399999899,-9.810634249999984,0.00577433202416745,-0.005438314405013381,-6.2655354550189e-05,-0.00789050513412423,0.001620975205004066
0.27,0.00031824406800051816,-0.7847276459999992,-1.0470148400173287e-05,-2.3560459200000006,0.0001982761640003596,1.5708216999999993,0.7861089460000004,0.0399999832,0.0399999896,-9.810475999999984,0.005881865695129404,-0.005575801720013506,-6.459734320019077e-05,-0.00785171473398421,0.001662753820004104
0.2725,0.00032351938650052297,-0.7847202554999992,-1.2234201200174893e-05,-2.3560511100000006,0.00020193696200036294,1.5708163749999995,0.7861128055000004,0.0399999826,0.0399999893,-9.810317749999985,0.005989399366091356,-0.005713289035013631,-6.653933185019254e-05,-0.007812924333844189,0.001704532435004142
0.275,0.0003287947050005278,-0.7847128649999993,-1.39982540001765e-05,-2.3560563000000005,0.0002055977600003663,1.5708110499999994,0.7861166650000003,0.039999981999999996,0.039999989,-9.810159499999985,0.006096933037053309,-0.005850776350013756,-6.84813205001943e-05,-0.007774133933704169,0.00174631105000418
0.2775,0.0003340700235005326,-0.7847054744999993,-1.5762306800178106e-05,-2.3560614900000005,0.0002092585580003696,1.5708057249999994,0.7861205245000004,0.0399999814,0.0399999887,-9.810001249999985,0.006204466708015262,-0.005988263665013881,-7.042330915019607e-05,-0.007735343533564148,0.001788089665004218
0.28,0.0003393453420005374,-0.7846980839999992,-1.7526359600179713e-05,-2.3560666800000005,0.00021291935600037295,1.5708003999999995,0.7861243840000004,0.0399999808,0.0399999884,-9.809842999999985,0.006312000378977215,-0.006125750980014007,-7.236529780019785e-05,-0.007696553133424128,0.0018298682800042562
0.28250000000000003,0.0003446206605005422,-0.7846906934999992,-1.929041240018132e-05,-2.356071870000001,0.00021658015400037627,1.5707950749999995,0.7861282435000003,0.0399999802,0.0399999881,-9.809684749999985,0.006419534049939168,-0.006263238295014132,-7.430728645019961e-05,-0.007657762733284107,0.0018716468950042942
0.28500000000000003,0.0003504652040006913,-0.7846832369999991,-2.1244634700231143e-05,-2.3560770400000006,0.00022063544300047965,1.5707891399999994,0.7861325110000005,0.0399999797,0.039999988,-9.809520999999982,0.0065252347849426885,-0.006402203660015757,-7.63105564002294e-05,-0.007611867273220782,0.0019159165000051336
0.28750000000000003,0.0003565943600007805,-0.784675747499999,-2.3293941750260964e-05,-2.356082200000001,0.00022488797750054153,1.5707828999999993,0.7861369825000005,0.03999997925,0.039999988,-9.80935449999998,0.006630019051967419,-0.00654190805001779,-7.834446700025901e-05,-0.007562419283197452,0.001961431600005796
0.29,0.00036272351600086955,-0.784668257999999,-2.534324880029074e-05,-2.356087360000001,0.00022914051200060334,1.570776659999999,0.7861414540000006,0.039999978799999995,0.039999988,-9.809187999999978,0.006734803318992146,-0.00668161244001982,-8.037837760028856e-05,-0.007512971293174124,0.002006946700006457
0.2925,0.00036885267200095876,-0.7846607684999988,-2.7392555850320566e-05,-2.3560925200000007,0.00023339304650066522,1.570770419999999,0.7861459255000007,0.03999997835,0.039999988,-9.809021499999973,0.006839587586016876,-0.006821316830021853,-8.241228820031815e-05,-0.007463523303150795,0.00205246180000712
0.295,0.00037498182800104797,-0.7846532789999987,-2.9441862900350388e-05,-2.356097680000001,0.0002376455810007271,1.570764179999999,0.7861503970000008,0.0399999779,0.039999988,-9.808854999999971,0.006944371853041606,-0.006961021220023887,-8.444619880034776e-05,-0.007414075313127465,0.002097976900007782
0.2975,0.0003811109840011371,-0.7846457894999986,-3.149116995038021e-05,-2.356102840000001,0.000241898115500789,1.570757939999999,0.7861548685000008,0.03999997745,0.039999988,-9.808688499999969,0.007049156120066336,-0.007100725610025919,-8.648010940037736e-05,-0.007364627323104136,0.002143492000008444
0.3,0.0003872401400014119,-0.7846382999999985,-3.3540477000472006e-05,-2.3561080000000008,0.00024615065000097947,1.5707516999999986,0.786159340000001,0.039999977,0.039999988,-9.808521999999968,0.007153940387095232,-0.007240430000030928,-8.85140200004416e-05,-0.007315179333078744,0.002189007100009914
0.3025,0.00039429659900132205,-0.7846306349999986,-3.589952805044197e-05,-2.356113145000001,0.00025104596750091714,1.5707445899999986,0.786164494000001,0.03999997595,0.0399999868,-9.80835924999997,0.007279546419182032,-0.00739500455002896,-9.072106540041349e-05,-0.007255427609186525,0.0022385585800092835
0.305,0.0004013530580012322,-0.7846229699999987,-3.8258579100411937e-05,-2.356118290000001,0.0002559412850008548,1.5707374799999987,0.7861696480000009,0.0399999749,0.039999985599999996,-9.808196499999971,0.007405152451268834,-0.007549579100026992,-9.29281108003854e-05,-0.007195675885294306,0.0022881100600086524
0.3075,0.00040840951700114235,-0.7846153049999988,-4.06176301503819e-05,-2.3561234350000007,0.0002608366025007925,1.5707303699999988,0.7861748020000008,0.03999997385,0.0399999844,-9.808033749999973,0.007530758483355634,-0.007704153650025024,-9.51351562003573e-05,-0.007135924161402086,0.002337661540008022
0.31,0.0004154659760010525,-0.7846076399999989,-4.297668120035187e-05,-2.356128580000001,0.0002657319200007302,1.570723259999999,0.7861799560000008,0.0399999728,0.0399999832,-9.807870999999976,0.007656364515442436,-0.007858728200023056,-9.73422016003292e-05,-0.007076172437509867,0.0023872130200073907
0.3125,0.00042252243500096265,-0.784599974999999,-4.533573225032183e-05,-2.3561337250000007,0.0002706272375006678,1.570716149999999,0.7861851100000007,0.03999997175,0.039999981999999996,-9.807708249999978,0.007781970547529236,-0.008013302750021089,-9.954924700030109e-05,-0.007016420713617648,0.00243676450000676
0.315,0.0004295788940008728,-0.7845923099999991,-4.76947833002918e-05,-2.3561388700000006,0.0002755225550006055,1.5707090399999992,0.7861902640000006,0.039999970700000005,0.039999980799999994,-9.80754549999998,0.007907576579616037,-0.008167877300019121,-0.000101756292400273,-0.006956668989725429,0.0024863159800061294
0.3175,0.00043696915300093077,-0.7845845599999991,-5.016533180031112e-05,-2.356144015000001,0.0002806492300006456,1.570701609999999,0.7861956600000006,0.0399999694,0.0399999795,-9.807385949999983,0.008031922159730488,-0.008326510450019262,-0.00010403082240027832,-0.006893369066520809,0.0025371798750061787
0.32,0.0004450270120009381,-0.784576639999999,-5.2858875200313576e-05,-2.3561491600000006,0.00028623862000065067,1.570693539999999,0.7862015400000006,0.039999967600000005,0.039999978,-9.807232799999982,0.008153746835901542,-0.008493260800019413,-0.00010644032160028051,-0.006822972744695064,0.0025906686000062274
0.3225,0.00045308487100094544,-0.7845687199999991,-5.5552418600316024e-05,-2.356154305000001,0.0002918280100006558,1.570685469999999,0.7862074200000007,0.0399999658,0.0399999765,-9.807079649999983,0.008275571512072599,-0.008660011150019565,-0.00010884982080028271,-0.00675257642286932,0.002644157325006276
0.325,0.00046114273000095275,-0.7845607999999991,-5.824596200031848e-05,-2.3561594500000007,0.00029741740000066086,1.570677399999999,0.7862133000000007,0.039999964,0.039999975,-9.806926499999982,0.008397396188243655,-0.008826761500019717,-0.0001112593200002849,-0.0066821801010435765,0.0026976460500063248
0.3275,0.0004692005890009601,-0.784552879999999,-6.093950540032093e-05,-2.3561645950000005,0.000303006790000666,1.570669329999999,0.7862191800000007,0.0399999622,0.0399999735,-9.806773349999983,0.008519220864414711,-0.008993511850019868,-0.0001136688192002871,-0.006611783779217832,0.0027511347750063734
0.33,0.0004772584480009674,-0.7845449599999991,-6.363304880032338e-05,-2.356169740000001,0.00030859618000067106,1.570661259999999,0.7862250600000007,0.0399999604,0.039999972,-9.806620199999982,0.008641045540585767,-0.00916026220002002,-0.00011607831840028928,-0.006541387457392088,0.002804623500006422
0.3325,0.0004853163070009748,-0.784537039999999,-6.632659220032583e-05,-2.3561748850000006,0.00031418557000067614,1.570653189999999,0.7862309400000007,0.0399999586,0.0399999705,-9.806467049999982,0.008762870216756822,-0.009327012550020171,-0.00011848781760029147,-0.0064709911355663435,0.002858112225006471
0.335,0.0004940914940011963,-0.7845289199999989,-6.925971700039986e-05,-2.356180040000001,0.00032027211000082976,1.5706443699999988,0.7862373500000008,0.0399999569,0.0399999688,-9.806313099999981,0.008899536822010001,-0.00950515630002408,-0.00012099249260033429,-0.006393915321667367,0.002914238340007524
0.3375,0.0005032253450013292,-0.7845206999999987,-7.231263250044428e-05,-2.3561852000000005,0.00032660722500092195,1.5706351749999985,0.786244025000001,0.039999955250000004,0.039999967000000004,-9.806158749999978,0.009043624391800193,-0.009688996750026754,-0.00012354475550037142,-0.006313499761733597,0.00297168315000836
0.34,0.0005123591960014621,-0.7845124799999987,-7.536554800048872e-05,-2.3561903600000007,0.00033294234000101413,1.5706259799999984,0.7862507000000011,0.0399999536,0.0399999652,-9.806004399999976,0.009187711961590385,-0.00987283720002943,-0.00012609701840040857,-0.006233084201799827,0.003029127960009196
0.3425,0.000521493047001595,-0.7845042599999986,-7.841846350053314e-05,-2.356195520000001,0.0003392774550011063,1.5706167849999983,0.7862573750000011,0.03999995195,0.039999963400000005,-9.805850049999973,0.009331799531380577,-0.010056677650032105,-0.0001286492813004457,-0.006152668641866057,0.003086572770010032
0.34500000000000003,0.000530626898001728,-0.7844960399999985,-8.147137900057758e-05,-2.356200680000001,0.00034561257000119855,1.5706075899999983,0.7862640500000013,0.0399999503,0.0399999616,-9.805695699999971,0.009475887101170768,-0.01024051810003478,-0.00013120154420048286,-0.006072253081932286,0.003144017580010868
0.34750000000000003,0.0005397607490018609,-0.7844878199999984,-8.4524294500622e-05,-2.356205840000001,0.00035194768500129074,1.570598394999998,0.7862707250000014,0.03999994865,0.0399999598,-9.805541349999968,0.00961997467096096,-0.010424358550037456,-0.00013375380710052,-0.005991837521998516,0.003201462390011704
0.35000000000000003,0.000548894600002245,-0.7844795999999982,-8.757721000075034e-05,-2.3562110000000014,0.000358282800001557,1.5705891999999977,0.7862774000000017,0.039999947,0.039999958,-9.805386999999966,0.009764062240750274,-0.010608199000042376,-0.00013630607000060952,-0.005911421962062468,0.0032589072000133775
0.3525,0.0005591792750021139,-0.7844710499999983,-9.101448325070649e-05,-2.356216145000001,0.00036541541400146604,1.5705788649999979,0.7862849000000015,0.03999994595,0.0399999574,-9.805230099999967,0.009904124960332003,-0.0108023213500399,-0.00013909830950057392,-0.0058205705135873165,0.003320189295012596
0.355,0.0005694639500019829,-0.7844624999999984,-9.445175650066273e-05,-2.356221290000001,0.00037254802800137525,1.570568529999998,0.7862924000000014,0.0399999449,0.0399999568,-9.80507319999997,0.010044187679913734,-0.010996443700037429,-0.00014189054900053837,-0.005729719065112163,0.003381471390011816
0.3575,0.000579748625001852,-0.7844539499999985,-9.788902975061897e-05,-2.356226435000001,0.0003796806420012844,1.570558194999998,0.7862999000000014,0.03999994385,0.0399999562,-9.804916299999972,0.010184250399495467,-0.011190566050034956,-0.00014468278850050283,-0.00563886761663701,0.0034427534850110355
0.36,0.0005900333000017211,-0.7844453999999986,-0.0001013263030005752,-2.3562315800000007,0.0003868132560011936,1.5705478599999982,0.7863074000000013,0.0399999428,0.0399999556,-9.804759399999973,0.010324313119077198,-0.011384688400032485,-0.00014747502800046725,-0.005548016168161857,0.003504035580010255
0.3625,0.0006003179750015902,-0.7844368499999986,-0.00010476357625053144,-2.356236725000001,0.00039394587000110277,1.5705375249999984,0.7863149000000011,0.03999994175,0.039999955,-9.804602499999977,0.01046437583865893,-0.011578810750030014,-0.0001502672675004317,-0.005457164719686704,0.0035653176750094747
0.365,0.0006106026500014591,-0.7844282999999987,-0.00010820084950048767,-2.3562418700000007,0.000401078484001012,1.5705271899999986,0.7863224000000011,0.0399999407,0.039999954399999996,-9.804445599999978,0.010604438558240661,-0.011772933100027541,-0.00015305950700039616,-0.005366313271211551,0.0036265997700086943
0.3675,0.0006212959400015389,-0.7844196049999987,-0.00011177459525051428,-2.3562470300000005,0.0004084943150010672,1.5705164499999986,0.7863301965000011,0.039999939799999995,0.039999953799999995,-9.80428814999998,0.010750815225786298,-0.011972489650028133,-0.0001559065900003953,-0.0052720070117948685,0.0036892465250087402
0.37,0.0006328064600015494,-0.7844106199999987,-0.00011562128600051778,-2.3562522200000005,0.00041647658000107445,1.5705048999999984,0.7863385860000012,0.0399999392,0.0399999532,-9.80412959999998,0.010909819789252163,-0.012182914600028323,-0.000158863360000398,-0.005170791130499276,0.0037546226000087996
0.3725,0.0006443169800015599,-0.7844016349999987,-0.00011946797675052128,-2.3562574100000004,0.0004244588450010817,1.5704933499999985,0.7863469755000012,0.0399999386,0.0399999526,-9.803971049999978,0.011068824352718026,-0.012393339550028516,-0.00016182013000040068,-0.005069575249203684,0.0038199986750088594
0.375,0.0006558275000015703,-0.7843926499999987,-0.0001233146675005248,-2.356262600000001,0.000432441110001089,1.5704817999999985,0.7863553650000011,0.039999938,0.039999952,-9.803812499999978,0.011227828916183891,-0.012603764500028706,-0.00016477690000040338,-0.004968359367908092,0.0038853747500089187
0.3775,0.0006673380200015808,-0.7843836649999988,-0.0001271613582505283,-2.356267790000001,0.00044042337500109626,1.5704702499999985,0.7863637545000012,0.0399999374,0.0399999514,-9.803653949999978,0.011386833479649756,-0.012814189450028898,-0.00016773367000040608,-0.0048671434866125,0.003950750825008978
0.38,0.0006788485400015913,-0.7843746799999988,-0.00013100804900053177,-2.356272980000001,0.0004484056400011035,1.5704586999999983,0.7863721440000012,0.0399999368,0.039999950799999996,-9.803495399999978,0.011545838043115621,-0.01302461440002909,-0.00017069044000040876,-0.004765927605316907,0.004016126900009038
0.3825,0.0006903590600016018,-0.7843656949999988,-0.00013485473975053528,-2.356278170000001,0.0004563879050011108,1.5704471499999983,0.7863805335000013,0.0399999362,0.0399999502,-9.803336849999978,0.011704842606581486,-0.01323503935002928,-0.00017364721000041146,-0.004664711724021315,0.004081502975009098
0.385,0.0007027367800017944,-0.7843563999999986,-0.00013899103500059963,-2.356283420000001,0.0004649711240012443,1.5704347499999982,0.7863895670000014,0.0399999364,0.0399999508,-9.803173799999977,0.011875375825936412,-0.013459487500032419,-0.0001766861720004314,-0.00455662440507038,0.004149430350009693
0.3875,0.0007155481000018061,-0.7843469499999987,-0.00014327213250060354,-2.356288700000001,0.0004738548200012524,1.5704219249999982,0.7863989225000013,0.039999937,0.039999952,-9.803008499999976,0.012051673373232253,-0.01369094725003263,-0.0001797662300004342,-0.004445101367293928,0.004218633375009756
0.39,0.0007283594200018178,-0.7843374999999987,-0.00014755323000060743,-2.3562939800000007,0.00048273851600126046,1.5704090999999982,0.7864082780000013,0.0399999376,0.0399999532,-9.802843199999977,0.012227970920528094,-0.013922407000032841,-0.00018284628800043702,-0.004333578329517477,0.004287836400009818
0.3925,0.0007411707400018293,-0.7843280499999986,-0.00015183432750061132,-2.356299260000001,0.0004916222120012686,1.5703962749999982,0.7864176335000014,0.0399999382,0.0399999544,-9.802677899999976,0.012404268467823935,-0.014153866750033052,-0.00018592634600043983,-0.004222055291741025,0.0043570394250098815
0.395,0.000753982060001841,-0.7843185999999986,-0.00015611542500061523,-2.356304540000001,0.0005005059080012766,1.5703834499999982,0.7864269890000014,0.039999938799999996,0.039999955600000005,-9.802512599999977,0.012580566015119775,-0.014385326500033263,-0.0001890064040004426,-0.004110532253964573,0.004426242450009945
0.3975,0.0007667933800018527,-0.7843091499999987,-0.00016039652250061912,-2.3563098200000008,0.0005093896040012847,1.5703706249999982,0.7864363445000013,0.0399999394,0.0399999568,-9.802347299999976,0.012756863562415616,-0.014616786250033473,-0.00019208646200044542,-0.003999009216188122,0.004495445475010008
0.4,0.0007796047000020646,-0.7842996999999986,-0.00016467762000068988,-2.356315100000001,0.0005182733000014316,1.570357799999998,0.7864457000000016,0.03999994,0.039999958,-9.80218199999998,0.012933161109711185,-0.01484824600003617,-0.00019516652000048972,-0.0038874861784102266,0.0045646485000106814
0.4025,0.0007937916400020774,-0.7842896949999986,-0.00016941810600069418,-2.356320485000001,0.0005281104545014405,1.570343639999998,0.7864560410000015,0.03999994045,0.039999958,-9.80204669999998,0.013107587117727222,-0.015096780850036396,-0.0001985317340004928,-0.003766042739135086,0.004638047925010749
0.405,0.0008079785800020904,-0.7842796899999985,-0.0001741585920006985,-2.356325870000001,0.0005379476090014494,1.5703294799999978,0.7864663820000015,0.0399999409,0.039999958,-9.80191139999998,0.013282013125743262,-0.01534531570003662,-0.00020189694800049586,-0.0036445992998599456,0.004711447350010815
0.40750000000000003,0.0008221655200021033,-0.7842696849999985,-0.00017889907800070282,-2.356331255000001,0.0005477847635014584,1.570315319999998,0.7864767230000016,0.03999994135,0.039999958,-9.80177609999998,0.013456439133759301,-0.015593850550036847,-0.00020526216200049893,-0.003523155860584805,0.004784846775010882
0.41000000000000003,0.0008363524600021162,-0.7842596799999985,-0.00018363956400070712,-2.3563366400000008,0.0005576219180014674,1.5703011599999979,0.7864870640000016,0.0399999418,0.039999958,-9.80164079999998,0.013630865141775339,-0.015842385400037073,-0.000208627376000502,-0.0034017124213096646,0.004858246200010949
0.41250000000000003,0.0008505394000021292,-0.7842496749999984,-0.00018838005000071145,-2.356342025000001,0.0005674590725014764,1.5702869999999978,0.7864974050000015,0.039999942250000003,0.039999958,-9.80150549999998,0.013805291149791378,-0.016090920250037298,-0.00021199259000050506,-0.003280268982034524,0.004931645625011015
0.41500000000000004,0.000864726340002142,-0.7842396699999985,-0.00019312053600071576,-2.356347410000001,0.0005772962270014852,1.570272839999998,0.7865077460000016,0.039999942700000006,0.039999958,-9.80137019999998,0.013979717157807417,-0.016339455100037526,-0.00021535780400050813,-0.0031588255427593835,0.005005045050011083
0.4175,0.0008793966750023749,-0.7842294649999983,-0.00019802244900079353,-2.356352850000001,0.0005874683235016466,1.5702581849999977,0.7865184380000018,0.03999994355,0.03999995875,-9.801225549999975,0.014162853453338765,-0.01659603115004141,-0.00021877309450053393,-0.003034015640130717,0.005079663270011703
0.42,0.0008950338000023891,-0.7842188599999983,-0.0002032472160007983,-2.356358400000001,0.0005983103040016565,1.5702425399999975,0.7865298320000018,0.039999945200000005,0.039999961,-9.801062199999976,0.014363410323888862,-0.016868689600041658,-0.00022228853800053712,-0.0029024728107995817,0.005156719080011773
0.4225,0.0009106709250024034,-0.7842082549999984,-0.00020847198300080305,-2.356363950000001,0.0006091522845016664,1.5702268949999976,0.7865412260000018,0.03999994685,0.03999996325,-9.800898849999975,0.01456396719443896,-0.017141348050041905,-0.00022580398150054033,-0.002770929981468447,0.005233774890011843
0.425,0.0009263080500024176,-0.7841976499999983,-0.0002136967500008078,-2.356369500000001,0.0006199942650016762,1.5702112499999976,0.7865526200000018,0.0399999485,0.039999965500000005,-9.800735499999975,0.014764524064989057,-0.017414006500042156,-0.0002293194250005435,-0.0026393871521373123,0.005310830700011913
0.4275,0.0009419451750024318,-0.7841870449999984,-0.00021892151700081256,-2.356375050000001,0.0006308362455016861,1.5701956049999974,0.7865640140000018,0.03999995015,0.039999967750000004,-9.800572149999974,0.014965080935539155,-0.017686664950042404,-0.00023283486850054672,-0.0025078443228061776,0.005387886510011984
0.43,0.0009575823000024461,-0.7841764399999983,-0.0002241462840008173,-2.356380600000001,0.000641678226001696,1.5701799599999975,0.7865754080000018,0.039999951799999996,0.03999997,-9.800408799999975,0.015165637806089252,-0.01795932340004265,-0.0002363503120005499,-0.002376301493475043,0.005464942320012054
0.4325,0.0009732194250024603,-0.7841658349999983,-0.00022937105100082208,-2.356386150000001,0.0006525202065017059,1.5701643149999975,0.7865868020000019,0.03999995345,0.03999997225,-9.800245449999974,0.01536619467663935,-0.0182319818500429,-0.00023986575550055312,-0.002244758664143908,0.005541998130012124
0.435,0.0009898727200027158,-0.7841547759999982,-0.0002349351780009074,-2.3563921800000007,0.000664066520001883,1.5701476899999973,0.786598936000002,0.0399999546,0.039999973700000004,-9.80011319999998,0.015564555674822497,-0.018517779200046266,-0.00024350013300058454,-0.002107212936949008,0.005621727910012829
0.4375,0.0010070341000027313,-0.7841434899999982,-0.0002406689850009126,-2.356398450000001,0.0006759650000018938,1.5701305749999972,0.786611440000002,0.039999955499999996,0.03999997475,-9.799996499999981,0.015761818736822947,-0.018810146000046532,-0.0002471939775005879,-0.0019666657608243556,0.005702794675012902
0.44,0.001024195480002747,-0.7841322039999982,-0.0002464027920009178,-2.356404720000001,0.0006878634800019047,1.570113459999997,0.786623944000002,0.0399999564,0.0399999758,-9.799879799999982,0.015959081798823396,-0.019102512800046798,-0.0002508878220005913,-0.0018261185846997026,0.005783861440012976
0.4425,0.0010413568600027626,-0.7841209179999982,-0.00025213659900092305,-2.356410990000001,0.0006997619600019154,1.5700963449999972,0.786636448000002,0.0399999573,0.03999997685,-9.79976309999998,0.016156344860823846,-0.019394879600047064,-0.0002545816665005946,-0.0016855714085750495,0.00586492820501305
0.445,0.0010585182400027783,-0.7841096319999982,-0.0002578704060009283,-2.356417260000001,0.0007116604400019263,1.570079229999997,0.7866489520000021,0.0399999582,0.0399999779,-9.79964639999998,0.016353607922824295,-0.01968724640004733,-0.000258275511000598,-0.0015450242324503965,0.005945994970013124
0.4475,0.0010756796200027939,-0.7840983459999982,-0.0002636042130009335,-2.3564235300000007,0.0007235589200019372,1.5700621149999971,0.786661456000002,0.0399999591,0.03999997895,-9.799529699999981,0.016550870984824745,-0.019979613200047597,-0.00026196935550060137,-0.0014044770563257434,0.006027061735013197
0.45,0.001092841000003071,-0.784087059999998,-0.0002693380200010261,-2.356429800000001,0.0007354574000021293,1.5700449999999968,0.7866739600000022,0.03999996,0.03999998,-9.799412999999985,0.016748134046830544,-0.020271980000052845,-0.00026566320000063803,-0.001263929880199865,0.006108128500013901
0.4525,0.0011116004350028323,-0.7840750809999981,-0.0002756054970009463,-2.3564361000000007,0.0007484632700019637,1.570026294999997,0.7866876220000021,0.0399999609,0.0399999806,-9.799320974999986,0.016978072002564733,-0.020594772800048733,-0.0002695605405005884,-0.0011158969573219647,0.006193038085012819
0.455,0.0011303598700025935,-0.7840631019999983,-0.00028187297400086647,-2.3564424000000006,0.0007614691400017981,1.5700075899999972,0.7867012840000019,0.0399999618,0.0399999812,-9.799228949999987,0.01720800995829892,-0.020917565600044624,-0.0002734578810005388,-0.0009678640344440645,0.006277947670011739
0.4575,0.0011491193050023546,-0.7840511229999985,-0.0002881404510007867,-2.356448700000001,0.0007744750100016325,1.5699888849999977,0.7867149460000017,0.0399999627,0.0399999818,-9.799136924999988,0.01743794791403311,-0.021240358400040515,-0.0002773552215004892,-0.0008198311115661643,0.006362857255010657
0.46,0.0011678787400021158,-0.7840391439999986,-0.0002944079280007069,-2.356455000000001,0.0007874808800014669,1.5699701799999979,0.7867286080000016,0.0399999636,0.0399999824,-9.79904489999999,0.017667885869767294,-0.021563151200036407,-0.0002812525620004396,-0.000671798188688264,0.006447766840009576
0.4625,0.001186638175001877,-0.7840271649999988,-0.0003006754050006271,-2.3564613000000008,0.0008004867500013013,1.569951474999998,0.7867422700000014,0.0399999645,0.039999983,-9.79895287499999,0.01789782382550148,-0.021885944000032298,-0.00028514990250038996,-0.0005237652658103638,0.006532676425008496
0.465,0.0012053976100016382,-0.784015185999999,-0.0003069428820005473,-2.3564676000000007,0.0008134926200011357,1.5699327699999983,0.7867559320000013,0.0399999654,0.039999983600000004,-9.798860849999992,0.01812776178123567,-0.022208736800028186,-0.00028904724300034035,-0.0003757323429324635,0.006617586010007414
0.4675,0.0012247140800017097,-0.784002946999999,-0.0003133963760005712,-2.3564739600000006,0.0008268845050011852,1.5699135099999981,0.7867700050000013,0.039999966,0.039999984200000005,-9.798752374999987,0.01835509687663976,-0.022539834850029097,-0.0002929892265003374,-0.0002243961964135927,0.0067037189550074126
0.47000000000000003,0.001245144620002007,-0.7839901879999988,-0.0003202219040006705,-2.356480440000001,0.0008410484200013914,1.569893139999998,0.7867849000000015,0.039999966,0.0399999848,-9.798610999999985,0.0185772262513855,-0.02288754340003416,-0.00029702049600039603,-6.645360261512415e-05,0.006792298620008702
0.47250000000000003,0.0012655751600023045,-0.7839774289999986,-0.00032704743200076986,-2.3564869200000005,0.0008552123350015975,1.5698727699999977,0.7867997950000017,0.039999966,0.0399999854,-9.798469624999983,0.018799355626131244,-0.02323525195003922,-0.0003010517655004547,9.148899118334436e-05,0.00688087828500999
0.47500000000000003,0.0012860057000026017,-0.7839646699999984,-0.0003338729600008692,-2.3564934000000006,0.0008693762500018036,1.5698523999999974,0.7868146900000019,0.039999966,0.039999986,-9.798328249999981,0.019021485000876987,-0.023582960500044277,-0.0003050830350005134,0.00024943158498181287,0.00696945795001128
0.47750000000000004,0.001306436240002899,-0.7839519109999982,-0.0003406984880009685,-2.3564998800000008,0.0008835401650020098,1.569832029999997,0.7868295850000021,0.039999966,0.0399999866,-9.79818687499998,0.01924361437562273,-0.023930669050049338,-0.00030911430450057204,0.0004073741787802815,0.007058037615012568
0.48,0.0013268667800031958,-0.7839391519999981,-0.0003475240160010677,-2.356506360000001,0.0008977040800022156,1.5698116599999967,0.7868444800000024,0.039999966,0.0399999872,-9.798045499999978,0.01946574375036847,-0.02427837760005439,-0.00031314557400063063,0.0005653167725787464,0.007146617280013856
0.4825,0.0013472973200034932,-0.7839263929999979,-0.00035434954400116704,-2.356512840000001,0.0009118679950024217,1.5697912899999964,0.7868593750000026,0.039999966,0.0399999878,-9.797904124999976,0.01968787312511421,-0.02462608615005945,-0.0003171768435006893,0.000723259366377215,0.007235196945015145
0.485,0.0013688902000039123,-0.7839130919999977,-0.000361563244001307,-2.356519500000001,0.0009268374400027122,1.569769759999996,0.7868751160000029,0.039999966,0.0399999882,-9.797756199999974,0.019934500567660645,-0.024991763300066104,-0.0003214178560007668,0.0008874138642862809,0.00732627595001629
0.4875,0.0013910642500039325,-0.7838995199999976,-0.0003689710300013137,-2.3565262500000013,0.0009422096500027262,1.569747649999996,0.7868912800000029,0.039999966,0.0399999885,-9.797604999999974,0.020193377044097738,-0.025366424750066445,-0.00032576374000077075,0.0010546743142481883,0.007418604625016373
0.49,0.0014132383000039527,-0.7838859479999977,-0.00037637881600132046,-2.356533000000001,0.0009575818600027402,1.569725539999996,0.7869074440000029,0.039999966,0.0399999888,-9.797453799999973,0.020452253520534827,-0.025741086200066786,-0.0003301096240007747,0.0012219347642100954,0.007510933300016458
0.4925,0.001435412350003973,-0.7838723759999976,-0.0003837866020013272,-2.3565397500000014,0.0009729540700027542,1.569703429999996,0.7869236080000029,0.039999966,0.0399999891,-9.797302599999973,0.020711129996971916,-0.026115747650067127,-0.00033445550800077865,0.0013891952141720028,0.0076032619750165415
0.495,0.0014575864000039931,-0.7838588039999976,-0.00039119438800133395,-2.356546500000001,0.0009883262800027682,1.569681319999996,0.7869397720000029,0.039999966,0.0399999894,-9.797151399999972,0.02097000647340901,-0.026490409100067468,-0.0003388013920007826,0.00155645566413391,0.007695590650016626
0.4975,0.0014797604500040133,-0.7838452319999976,-0.0003986021740013407,-2.356553250000001,0.0010036984900027822,1.569659209999996,0.7869559360000029,0.039999966,0.0399999897,-9.797000199999973,0.0212288829498461,-0.02686507055006781,-0.00034314727600078654,0.0017237161140958171,0.00778791932501671
0.5,0.0015019345000043638,-0.7838316599999974,-0.00040600996000145776,-2.3565600000000013,0.001019070700003025,1.5696370999999956,0.7869721000000032,0.039999966,0.03999999,-9.796848999999979,0.02148775942628194,-0.027239732000073007,-0.0003474931600008201,0.0018909765640593417,0.007880248000017465
0.5025000000000001,0.0015259239100047133,-0.7838172284999972,-0.0004140239560015745,-2.3565673950000017,0.0010357009600032675,1.5696131749999953,0.7869895795000034,0.039999966,0.03999999,-9.796732299999977,0.021739751286854136,-0.027641089100078856,-0.0003520016860008858,0.002067126816871664,0.007976268100018865
0.505,0.001549913320005062,-0.783802796999997,-0.00042203795200169096,-2.3565747900000016,0.001052331220003509,1.5695892499999948,0.7870070590000037,0.039999966,0.03999999,-9.796615599999976,0.021991743147426322,-0.028042446200084687,-0.00035651021200095134,0.0022432770696839788,0.00807228820002026
0.5075000000000001,0.0015739027300054117,-0.7837883654999968,-0.0004300519480018078,-2.356582185000002,0.0010689614800037514,1.5695653249999946,0.7870245385000039,0.039999966,0.03999999,-9.796498899999973,0.02224373500799852,-0.028443803300090536,-0.000361018738001017,0.002419427322496301,0.00816830830002166
0.51,0.00159789214000576,-0.7837739339999965,-0.0004380659440019242,-2.356589580000002,0.001085591740003993,1.5695413999999943,0.7870420180000042,0.039999966,0.03999999,-9.796382199999972,0.022495726868570706,-0.028845160400096367,-0.00036552726400108254,0.0025955775753086154,0.008264328400023054
0.5125,0.0016218815500061087,-0.7837595024999964,-0.0004460799400020407,-2.3565969750000018,0.0011022220000042348,1.5695174749999938,0.7870594975000044,0.039999966,0.03999999,-9.79626549999997,0.022747718729142892,-0.0292465175001022,-0.00037003579000114805,0.00277172782812093,0.00836034850002445
0.515,0.0016458709600064585,-0.7837450709999961,-0.0004540939360021575,-2.356604370000002,0.0011188522600044772,1.5694935499999936,0.7870769770000047,0.039999966,0.03999999,-9.796148799999969,0.02299971058971509,-0.02964787460010805,-0.00037454431600121373,0.0029478780809332524,0.00845636860002585
0.5175,0.0016704890700071067,-0.7837303299999958,-0.0004623178850023741,-2.356611835000002,0.0011359182650049265,1.5694689899999927,0.7870949135000052,0.0399999656,0.0399999899,-9.796040674999974,0.023264775332143377,-0.03005968785011885,-0.00037911103300128623,0.0031263687299135983,0.008553641900027404
0.52,0.001696364580006778,-0.783714969999996,-0.0004709617400022642,-2.356619440000002,0.0011538557600046986,1.5694431599999932,0.7871137640000049,0.0399999644,0.0399999896,-9.795949699999976,0.02355598583825106,-0.030492413400113348,-0.0003837941320012267,0.0033095401712241405,0.008653421600026136
0.5225,0.001722240090006448,-0.7836996099999962,-0.00047960559500215396,-2.356627045000002,0.0011717932550044698,1.5694173299999934,0.7871326145000047,0.0399999632,0.0399999893,-9.795858724999977,0.02384719634435873,-0.030925138950107827,-0.00038847723100116695,0.003492711612534674,0.008753201300024865
0.525,0.001748115600006119,-0.7836842499999964,-0.0004882494500020441,-2.356634650000002,0.0011897307500042418,1.5693914999999938,0.7871514650000044,0.039999962,0.039999989,-9.795767749999978,0.024138406850466414,-0.03135786450010233,-0.0003931603300011074,0.003675883053845216,0.008852981000023595
0.5275,0.001773991110005789,-0.7836688899999966,-0.0004968933050019339,-2.356642255000002,0.001207668245004013,1.5693656699999943,0.7871703155000043,0.0399999608,0.0399999887,-9.79567677499998,0.024429617356574087,-0.03179059005009681,-0.00039784342900104773,0.0038590544951557495,0.008952760700022324
0.53,0.0017998666200054602,-0.7836535299999968,-0.000505537160001824,-2.356649860000002,0.001225605740003785,1.5693398399999945,0.787189166000004,0.0399999596,0.0399999884,-9.79558579999998,0.02472082786268177,-0.03222331560009131,-0.0004025265280009882,0.004042225936466292,0.009052540400021056
0.5325,0.0018257421300051301,-0.783638169999997,-0.0005141810150017137,-2.356657465000002,0.0012435432350035563,1.569314009999995,0.7872080165000037,0.0399999584,0.0399999881,-9.795494824999981,0.02501203836878944,-0.032656041150085795,-0.00040720962700092846,0.004225397377776825,0.009152320100019783
0.535,0.0018529218200056706,-0.7836222079999967,-0.0005232604050018942,-2.3566653000000017,0.0012623845200039308,1.5692868999999943,0.7872278160000041,0.039999957600000004,0.0399999876,-9.795378649999973,0.0252975450829247,-0.03311337100009568,-0.00041203613600099796,0.004414716502690688,0.009254476000021055
0.5375,0.001880753600006075,-0.7836059449999965,-0.0005325575625020292,-2.356673250000002,0.0012816777000042112,1.569259149999994,0.7872480900000044,0.039999957,0.039999987,-9.795249874999971,0.025580199901076222,-0.03358300300010251,-0.00041693435000106913,0.0046071094694035185,0.009357820000022558
0.54,0.0019085853800064807,-0.7835896819999962,-0.0005418547200021648,-2.356681200000002,0.0013009708800044923,1.5692313999999936,0.7872683640000048,0.0399999564,0.0399999864,-9.79512109999997,0.025862854719227755,-0.034052635000109355,-0.0004218325640011405,0.004799502436116358,0.009461164000024063
0.5425,0.001936417160006885,-0.783573418999996,-0.0005511518775022999,-2.356689150000002,0.0013202640600047727,1.569203649999993,0.787288638000005,0.0399999558,0.0399999858,-9.794992324999967,0.026145509537379277,-0.03452226700011617,-0.0004267307780012117,0.004991895402829188,0.009564508000025564
0.545,0.001964248940007291,-0.7835571559999958,-0.0005604490350024354,-2.356697100000002,0.001339557240005054,1.5691758999999927,0.7873089120000053,0.0399999552,0.039999985200000004,-9.794863549999967,0.026428164355530814,-0.03499189900012302,-0.0004316289920012831,0.005184288369542028,0.009667852000027071
0.5475,0.001992080720007695,-0.7835408929999955,-0.0005697461925025705,-2.356705050000002,0.0013588504200053343,1.5691481499999924,0.7873291860000056,0.0399999546,0.0399999846,-9.794734774999965,0.026710819173682336,-0.035461531000129845,-0.0004365272060013543,0.0053766813362548585,0.009771196000028572
0.55,0.0020199125000086903,-0.7835246299999951,-0.0005790433500029029,-2.3567130000000027,0.0013781436000060239,1.5691203999999914,0.7873494600000063,0.039999954,0.039999984,-9.79460599999996,0.026993473991845887,-0.035931163000143755,-0.0004414254200014782,0.0055690743029701475,0.009874540000031096
0.5525,0.002049769535008717,-0.783507315499995,-0.0005890168980029118,-2.3567215950000024,0.0013988403600060423,1.5690906699999914,0.7873712220000063,0.039999953399999996,0.0399999834,-9.79447324999996,0.027317418903206925,-0.03642506605014419,-0.00044650418600148274,0.005769884865789566,0.009981381250031191
0.555,0.0020796265700087444,-0.783490000999995,-0.000598990446002921,-2.3567301900000026,0.0014195371200060617,1.5690609399999913,0.7873929840000063,0.039999952799999995,0.0399999828,-9.794340499999961,0.027641363814567978,-0.03691896910014465,-0.0004515829520014875,0.005970695428608993,0.010088222500031292
0.5575,0.002109483605008771,-0.7834726864999949,-0.0006089639940029299,-2.3567387850000023,0.00144023388000608,1.5690312099999912,0.7874147460000064,0.0399999522,0.0399999822,-9.794207749999961,0.027965308725929016,-0.03741287215014509,-0.00045666171800149194,0.0061715059914284115,0.010195063750031385
0.56,0.002139340640008799,-0.7834553719999949,-0.0006189375420029392,-2.3567473800000025,0.0014609306400060994,1.5690014799999914,0.7874365080000064,0.0399999516,0.0399999816,-9.79407499999996,0.028289253637290068,-0.03790677520014555,-0.0004617404840014967,0.006372316554247839,0.010301905000031485
0.5625,0.002169197675008825,-0.783438057499995,-0.000628911090002948,-2.3567559750000027,0.0014816274000061178,1.5689717499999913,0.7874582700000063,0.039999951,0.039999981,-9.79394224999996,0.028613198548651107,-0.03840067825014599,-0.0004668192500015012,0.006573127117067257,0.01040874625003158
0.5650000000000001,0.002199054710008853,-0.7834207429999949,-0.0006388846380029574,-2.3567645700000024,0.001502324160006137,1.5689420199999913,0.7874800320000064,0.0399999504,0.039999980399999996,-9.793809499999961,0.02893714346001216,-0.03889458130014645,-0.00047189801600150595,0.006773937679886684,0.010515587500031679
0.5675,0.002229609575009357,-0.7834030984999947,-0.0006490912290031256,-2.3567732200000027,0.001523504495006486,1.5689115899999908,0.7875022980000068,0.03999994965,0.03999997985,-9.79369839999998,0.029258280340674524,-0.039403478650157815,-0.00047706506500156494,0.006977136200354733,0.010623525350032253
0.5700000000000001,0.002261560100008951,-0.7833847939999949,-0.0006597639060029899,-2.3567819800000023,0.0015456519800062045,1.568879759999991,0.7875255720000065,0.0399999486,0.039999979399999996,-9.79363059999998,0.029573801159947073,-0.039942364600150965,-0.000482408680001497,0.007185110636113664,0.010733656400030853
0.5725,0.0022935106250085435,-0.7833664894999951,-0.0006704365830028538,-2.3567907400000023,0.0015677994650059222,1.5688479299999916,0.7875488460000062,0.03999994755,0.03999997895,-9.793562799999982,0.02988932197921961,-0.04048125055014409,-0.0004877522950014288,0.007393085071872587,0.010843787450029448
0.5750000000000001,0.0023254611500081374,-0.7833481849999954,-0.0006811092600027182,-2.3567995000000024,0.0015899469500056406,1.5688160999999918,0.7875721200000059,0.0399999465,0.0399999785,-9.793494999999982,0.03020484279849216,-0.04102013650013724,-0.0004930959100013609,0.007601059507631518,0.010953918500028048
0.5775,0.00235741167500773,-0.7833298804999956,-0.000691781937002582,-2.356808260000002,0.0016120944350053582,1.5687842699999923,0.7875953940000057,0.039999945450000005,0.039999978049999996,-9.793427199999984,0.030520363617764695,-0.04155902245013037,-0.0004984395250012928,0.00780903394339044,0.011064049550026643
0.58,0.0023893622000073222,-0.7833115759999958,-0.0007024546140024459,-2.356817020000002,0.0016342419200050756,1.5687524399999928,0.7876186680000054,0.0399999444,0.0399999776,-9.793359399999984,0.03083588443703723,-0.0420979084001235,-0.0005037831400012246,0.008017008379149362,0.01117418060002524
0.5825,0.002421312725006916,-0.7832932714999961,-0.0007131272910023103,-2.3568257800000016,0.001656389405004794,1.568720609999993,0.787641942000005,0.039999943350000004,0.03999997715,-9.793291599999986,0.03115140525630978,-0.04263679435011665,-0.0005091267550011567,0.008224982814908294,0.01128431165002384
0.585,0.0024547036100075696,-0.7832742029999957,-0.0007242810080025283,-2.356835160000002,0.0016795352400052468,1.5686873399999925,0.7876662600000055,0.039999943,0.039999977,-9.793156099999964,0.03149709627040278,-0.043191854000124964,-0.0005145633840012167,0.008439219277400285,0.01139675740002521
0.5875,0.0024888146750080666,-0.7832547524999954,-0.0007356752450026944,-2.356844850000002,0.0017031802500055914,1.568653349999992,0.7876911000000059,0.039999943,0.039999977,-9.79298674999996,0.03185787238189162,-0.04375500050013317,-0.0005200465200012966,0.008656586753255827,0.011510360500026864
0.59,0.0025229257400085623,-0.7832353019999951,-0.00074706948200286,-2.3568545400000023,0.0017268252600059352,1.5686193599999916,0.7877159400000062,0.039999943,0.039999977,-9.792817399999958,0.032218648493380436,-0.044318147000141354,-0.0005255296560013763,0.008873954229111362,0.011623963600028516
0.5925,0.0025570368050090594,-0.7832158514999948,-0.0007584637190030261,-2.3568642300000024,0.0017504702700062798,1.568585369999991,0.7877407800000066,0.039999943,0.039999977,-9.792648049999956,0.032579424604869275,-0.04488129350014956,-0.0005310127920014563,0.009091321704966904,0.01173756670003017
0.595,0.002591147870009555,-0.7831964009999945,-0.0007698579560031916,-2.3568739200000026,0.0017741152800066233,1.5685513799999906,0.7877656200000069,0.039999943,0.039999977,-9.792478699999952,0.0329402007163581,-0.045444440000157744,-0.0005364959280015359,0.009308689180822437,0.011851169800031822
0.5975,0.002625258935010052,-0.7831769504999943,-0.0007812521930033577,-2.356883610000003,0.001797760290006968,1.56851738999999,0.7877904600000073,0.039999943,0.039999977,-9.79230934999995,0.03330097682784694,-0.04600758650016595,-0.0005419790640016158,0.00952605665667798,0.011964772900033477
0.6,0.002659370000011236,-0.7831574999999936,-0.0007926464300037532,-2.356893300000003,0.0018214053000077887,1.568483399999989,0.7878153000000082,0.039999943,0.039999977,-9.792139999999995,0.03366175293933279,-0.046570733000189185,-0.0005474622000017517,0.009743424132535133,0.012078376000036096
0.6025,0.0026957077850112703,-0.7831369139999935,-0.0008047843205037646,-2.356903155000003,0.001846593360007812,1.5684471599999887,0.7878417690000082,0.03999994255,0.039999977,-9.792119899999994,0.03401292394857565,-0.04718254880018976,-0.000553126845001757,0.00996602429083931,0.012195108550036205
0.605,0.0027320455700113023,-0.7831163279999935,-0.0008169222110037753,-2.356913010000003,0.0018717814200078344,1.5684109199999887,0.7878682380000083,0.0399999421,0.039999977,-9.792099799999994,0.034364094957818496,-0.0477943646001903,-0.0005587914900017619,0.010188624449143478,0.012311841100036308
0.6075,0.0027683833550113364,-0.7830957419999935,-0.0008290601015037867,-2.3569228650000027,0.001896969480007858,1.5683746799999887,0.7878947070000083,0.03999994165,0.039999977,-9.792079699999993,0.034715265967061364,-0.048406180400190874,-0.0005644561350017672,0.010411224607447655,0.012428573650036417
0.61,0.0028047211400113684,-0.7830751559999936,-0.0008411979920037975,-2.3569327200000028,0.0019221575400078803,1.5683384399999887,0.7879211760000083,0.0399999412,0.039999977,-9.792059599999995,0.03506643697630421,-0.04901799620019141,-0.0005701207800017723,0.010633824765751823,0.012545306200036521
0.6125,0.0028410589250114026,-0.7830545699999936,-0.0008533358825038087,-2.356942575000003,0.0019473456000079037,1.5683021999999887,0.7879476450000084,0.03999994075,0.039999977,-9.792039499999994,0.03541760798554707,-0.04962981200019198,-0.0005757854250017775,0.010856424924056,0.012662038750036629
0.615,0.0028773967100114346,-0.7830339839999936,-0.0008654737730038195,-2.356952430000003,0.001972533660007926,1.5682659599999886,0.7879741140000084,0.039999940299999995,0.039999977,-9.792019399999994,0.03576877899478992,-0.05024162780019253,-0.0005814500700017825,0.011079025082360168,0.012778771300036733
0.6175,0.002914498340012016,-0.7830130119999933,-0.0008778667700040137,-2.356962535000003,0.001998251055008329,1.568228979999988,0.7880011370000088,0.039999940149999996,0.03999997735,-9.791957199999954,0.036130866222202955,-0.05086512525020122,-0.0005872139520018547,0.011304587451813052,0.012896562350037298
0.62,0.0029531276600115236,-0.7829912679999935,-0.0008907699800038491,-2.356973140000003,0.0020250271200079875,1.5681905199999886,0.7880292680000084,0.0399999406,0.0399999784,-9.791810799999956,0.03651478588592535,-0.051511986000192966,-0.0005931763080017787,0.011536074243554935,0.013016470400035769
0.6225,0.0029917569800110328,-0.7829695239999939,-0.0009036731900036852,-2.356983745000003,0.0020518031850076473,1.568152059999989,0.788057399000008,0.03999994105,0.03999997945,-9.791664399999958,0.036898705549647755,-0.05215884675018474,-0.0005991386640017028,0.011767561035296827,0.013136378450034245
0.625,0.00303038630001054,-0.7829477799999941,-0.0009165764000035207,-2.356994350000003,0.0020785792500073058,1.5681135999999896,0.7880855300000077,0.039999941500000004,0.039999980500000004,-9.79151799999996,0.03728262521337015,-0.0528057075001765,-0.0006051010200016268,0.01199904782703871,0.013256286500032716
0.6275000000000001,0.003069015620010049,-0.7829260359999944,-0.0009294796100033566,-2.3570049550000025,0.0021053553150069656,1.56807513999999,0.7881136610000073,0.03999994195,0.03999998155,-9.791371599999962,0.03766654487709256,-0.053452568250168274,-0.000611063376001551,0.012230534618780603,0.013376194550031192
0.63,0.0031076449400095564,-0.7829042919999947,-0.000942382820003192,-2.3570155600000025,0.002132131380006624,1.5680366799999905,0.788141792000007,0.0399999424,0.039999982600000004,-9.791225199999964,0.038050464540814954,-0.05409942900016002,-0.000617025732001475,0.012462021410522486,0.013496102600029663
0.6325000000000001,0.0031462742600090656,-0.7828825479999949,-0.000955286030003028,-2.3570261650000024,0.002158907445006284,1.567998219999991,0.7881699230000067,0.039999942850000005,0.03999998365,-9.791078799999966,0.03843438420453736,-0.054746289750151805,-0.0006229880880013991,0.012693508202264378,0.013616010650028139
0.635,0.003186473800009841,-0.7828599999999946,-0.000968713690003287,-2.3570370300000025,0.002186771850006821,1.56795819999999,0.7881991940000072,0.039999943,0.039999984,-9.790963499999975,0.038841719552975176,-0.05541812230016432,-0.0006290354890014622,0.012929554749337425,0.013738063150029563
0.6375000000000001,0.0032274584500104385,-0.7828370499999942,-0.0009824035750034866,-2.3570480250000028,0.0022151804250072353,1.5679173999999896,0.7882290350000076,0.039999943,0.039999984,-9.790863749999973,0.03926076274375857,-0.05610244075017429,-0.000635125412501551,0.013167881174073698,0.013861187875031359
0.64,0.003268443100011034,-0.7828140999999939,-0.0009960934600036855,-2.357059020000003,0.0022435890000076482,1.567876599999989,0.7882588760000081,0.039999943,0.039999984,-9.790763999999973,0.03967980593454195,-0.05678675920018423,-0.0006412153360016395,0.013406207598809962,0.013984312600033147
0.6425,0.0033094277500116294,-0.7827911499999936,-0.0010097833450038844,-2.3570700150000032,0.0022719975750080607,1.5678357999999883,0.7882887170000085,0.039999943,0.039999984,-9.79066424999997,0.04009884912532533,-0.05747107765019417,-0.000647305259501728,0.013644534023546224,0.014107437325034937
0.645,0.003350412400012227,-0.7827681999999931,-0.001023473230004084,-2.357081010000003,0.002300406150008475,1.5677949999999878,0.7883185580000089,0.039999943,0.039999984,-9.79056449999997,0.04051789231610873,-0.05815539610020415,-0.0006533951830018168,0.013882860448282498,0.01423056205003673
0.6475,0.0033913970500128224,-0.7827452499999928,-0.001037163115004283,-2.3570920050000033,0.002328814725008888,1.567754199999987,0.7883483990000093,0.039999943,0.039999984,-9.790464749999968,0.040936935506892105,-0.05883971455021409,-0.0006594851065019053,0.01412118687301876,0.01435368677503852
0.65,0.0034323817000142115,-0.7827222999999921,-0.0010508530000047469,-2.357103000000004,0.0023572233000098506,1.5677133999999857,0.7883782400000103,0.039999943,0.039999984,-9.79036499999997,0.04135597869767182,-0.059524033000238154,-0.0006655750300020607,0.014359513297757552,0.014476811500041252
0.6525,0.003475784335013658,-0.7826981049999924,-0.001065350440004562,-2.3571146100000036,0.002387307630009467,1.5676701549999863,0.78840984500001,0.039999943600000004,0.0399999849,-9.79027244999997,0.04176375269902655,-0.060251381050228876,-0.0006718684405019804,0.01460552969955195,0.014602796575039644
0.655,0.003519186970013106,-0.7826739099999926,-0.0010798478800043778,-2.3571262200000036,0.0024173919600090845,1.5676269099999869,0.7884414500000095,0.039999944200000005,0.0399999858,-9.790179899999972,0.04217152670038131,-0.060978729100219634,-0.0006781618510019004,0.014851546101346359,0.014728781650038044
0.6575,0.0035625896050125523,-0.7826497149999929,-0.0010943453200041929,-2.357137830000003,0.0024474762900087007,1.5675836649999875,0.7884730550000092,0.0399999448,0.039999986700000004,-9.790087349999972,0.04257930070173605,-0.061706077150210356,-0.0006844552615018201,0.015097562503140755,0.014854766725036436
0.66,0.003605992240012001,-0.7826255199999933,-0.0011088427600040086,-2.3571494400000033,0.0024775606200083183,1.567540419999988,0.7885046600000087,0.0399999454,0.0399999876,-9.789994799999974,0.04298707470309081,-0.06243342520020111,-0.0006907486720017401,0.015343578904935163,0.014980751800034834
0.6625,0.0036493948750114472,-0.7826013249999936,-0.0011233402000038236,-2.357161050000003,0.0025076449500079346,1.5674971749999884,0.7885362650000084,0.039999946,0.0399999885,-9.789902249999976,0.04339484870444554,-0.06316077325019183,-0.0006970420825016598,0.01558959530672956,0.015106736875033227
0.665,0.0036927975100108958,-0.7825771299999938,-0.0011378376400036395,-2.357172660000003,0.002537729280007552,1.567453929999989,0.7885678700000079,0.0399999466,0.0399999894,-9.789809699999976,0.0438026227058003,-0.0638881213001826,-0.0007033354930015799,0.015835611708523968,0.015232721950031626
0.6675,0.0037370266400111414,-0.7825524914999937,-0.0011526111350037215,-2.3571844500000028,0.0025683863750077226,1.5674098749999887,0.7886000800000081,0.03999994665,0.0399999899,-9.78970759999997,0.04422769714158007,-0.06462822800018592,-0.0007096924620015745,0.01608397671958986,0.015359671100031294
0.67,0.0037829087600111844,-0.7825269659999937,-0.0011679367400037359,-2.3571966000000026,0.002600189000007752,1.5673641999999888,0.7886335000000082,0.0399999456,0.0399999896,-9.78958639999997,0.044687372446172165,-0.06539385200018663,-0.0007161765480015805,0.016337038949193625,0.015488548400031416
0.6725,0.0038287908800112252,-0.7825014404999937,-0.0011832623450037496,-2.357208750000003,0.0026319916250077805,1.5673185249999888,0.7886669200000082,0.03999994455,0.0399999893,-9.78946519999997,0.04514704775076424,-0.06615947600018732,-0.0007226606340015863,0.01659010117879738,0.01561742570003153
0.675,0.003874673000011268,-0.7824759149999937,-0.0011985879500037637,-2.357220900000003,0.00266379425000781,1.5672728499999886,0.7887003400000082,0.039999943499999996,0.039999989,-9.78934399999997,0.04560672305535633,-0.06692510000018803,-0.0007291447200015923,0.016843163408401148,0.015746303000031648
0.6775,0.003920555120011309,-0.7824503894999937,-0.0012139135550037774,-2.357233050000003,0.0026955968750078385,1.5672271749999886,0.7887337600000083,0.03999994245,0.0399999887,-9.78922279999997,0.046066398359948406,-0.0676907240001887,-0.0007356288060015981,0.017096225638004902,0.015875180300031762
0.68,0.003966437240011352,-0.7824248639999937,-0.0012292391600037917,-2.357245200000003,0.002727399500007868,1.5671814999999887,0.7887671800000082,0.039999941399999996,0.0399999884,-9.78910159999997,0.0465260736645405,-0.06845634800018942,-0.0007421128920016042,0.017349287867608667,0.016004057600031884
0.6825,0.0040123193600113925,-0.7823993384999937,-0.0012445647650038052,-2.357257350000003,0.002759202125007896,1.5671358249999887,0.7888006000000083,0.03999994035,0.0399999881,-9.78898039999997,0.046985748969132574,-0.06922197200019009,-0.0007485969780016098,0.01760235009721242,0.016132934900032
0.685,0.004059894560012508,-0.782372946999993,-0.0012604558900041782,-2.3572701000000036,0.00279217850000867,1.5670884399999876,0.7888352460000091,0.0399999396,0.0399999887,-9.78888949999998,0.0474371150137149,-0.0700222464002112,-0.0007552716060017487,0.017860076762802997,0.016263519600033954
0.6875,0.004108316300013212,-0.7823461224999927,-0.0012766297750044131,-2.3572831500000038,0.0028257417500091577,1.5670401999999868,0.7888705050000097,0.039999939,0.03999998975,-9.78881374999998,0.04788432642829697,-0.07083984600022308,-0.0007620415050018472,0.018120135646384355,0.01639495800003586
0.6900000000000001,0.004156738040013918,-0.7823192979999923,-0.0012928036600046487,-2.3572962000000035,0.0028593050000096467,1.5669919599999862,0.7889057640000101,0.0399999384,0.0399999908,-9.788737999999979,0.04833153784287906,-0.071657445600235,-0.0007688114040019458,0.018380194529965727,0.01652639640003778
0.6925,0.0042051597800146214,-0.7822924734999919,-0.0013089775450048837,-2.3573092500000037,0.0028928682500101344,1.5669437199999854,0.7889410230000107,0.039999937799999996,0.03999999185,-9.788662249999977,0.048778749257461125,-0.07247504520024688,-0.0007755813030020442,0.018640253413547084,0.016657834800039687
0.6950000000000001,0.004253581520015327,-0.7822656489999915,-0.0013251514300051195,-2.357322300000004,0.002926431500010624,1.5668954799999848,0.7889762820000112,0.0399999372,0.0399999929,-9.788586499999976,0.04922596067204321,-0.0732926448002588,-0.0007823512020021428,0.018900312297128456,0.0167892732000416
0.6975,0.00430200326001603,-0.7822388244999912,-0.0013413253150053545,-2.357335350000004,0.0029599947500111115,1.566847239999984,0.7890115410000117,0.0399999366,0.03999999395000001,-9.788510749999976,0.049673172086625285,-0.07411024440027067,-0.0007891211010022412,0.019160371180709814,0.016920711600043513
0.7000000000000001,0.004350425000017634,-0.7822119999999902,-0.0013574992000058902,-2.3573484000000042,0.0029935580000122228,1.5667989999999825,0.7890468000000129,0.039999936,0.039999995,-9.788434999999973,0.050120383501227904,-0.07492784400029495,-0.0007958910000024118,0.019420430064293028,0.017052150000046583
0.7025,0.004401445460016983,-0.7821838149999907,-0.001374541105005673,-2.3573617500000044,0.0030289218950117717,1.5667482249999831,0.7890839550000124,0.0399999354,0.039999993350000006,-9.788358349999974,0.05062700584547689,-0.07578123015028407,-0.0008028690450023228,0.01968582263225206,0.017186926950044864
0.705,0.004452465920016333,-0.782155629999991,-0.0013915830100054555,-2.357375100000004,0.0030642857900113206,1.5666974499999837,0.789121110000012,0.0399999348,0.0399999917,-9.788281699999976,0.051133628189725874,-0.07663461630027318,-0.0008098470900022338,0.01995121520021109,0.017321703900043145
0.7075,0.004503486380015685,-0.7821274449999913,-0.001408624915005239,-2.3573884500000037,0.0030996496850108713,1.5666466749999843,0.7891582650000114,0.039999934200000004,0.03999999005,-9.788205049999977,0.051640250533974884,-0.07748800245026234,-0.0008168251350021452,0.02021660776817013,0.01745648085004143
0.71,0.004554506840015034,-0.7820992599999917,-0.0014256668200050217,-2.357401800000004,0.00313501358001042,1.5665958999999852,0.789195420000011,0.0399999336,0.039999988400000006,-9.788128399999977,0.052146872878223866,-0.07834138860025146,-0.0008238031800020561,0.02048200033612916,0.01759125780003971
0.7125,0.004605527300014386,-0.7820710749999921,-0.0014427087250048051,-2.3574151500000036,0.003170377475009971,1.5665451249999858,0.7892325750000105,0.039999933,0.03999998675,-9.788051749999978,0.05265349522247287,-0.07919477475024062,-0.0008307812250019675,0.020747392904088204,0.017726034750038
0.715,0.004656547760013735,-0.7820428899999924,-0.0014597506300045877,-2.3574285000000033,0.00320574137000952,1.5664943499999864,0.78926973000001,0.0399999324,0.0399999851,-9.78797509999998,0.05316011756672186,-0.08004816090022973,-0.0008377592700018785,0.02101278547204723,0.01786081170003628
0.7175,0.004708453780014012,-0.7820142349999922,-0.0014770883050046802,-2.3574421450000034,0.003241719010009712,1.5664426949999861,0.7893075300000102,0.039999932,0.039999984200000005,-9.78788574999997,0.053660909272857965,-0.08091902275023645,-0.0008447811230018558,0.021280931588333742,0.017996326350035757
0.72,0.0047621309200140596,-0.7819846399999922,-0.0014950175200046962,-2.3574563800000035,0.0032789241400097446,1.5663892799999861,0.7893466200000102,0.039999932,0.0399999848,-9.787770999999971,0.05415003970278194,-0.08182483600023725,-0.0008518905920018621,0.021554584801268716,0.01813331640003588
0.7225,0.0048158080600141095,-0.7819550449999922,-0.0015129467350047127,-2.3574706150000035,0.0033161292700097794,1.566335864999986,0.7893857100000102,0.039999932,0.0399999854,-9.787656249999971,0.05463917013270593,-0.0827306492502381,-0.0008590000610018688,0.0218282380142037,0.01827030645003601
0.725,0.004869485200014157,-0.7819254499999923,-0.0015308759500047286,-2.3574848500000036,0.0033533344000098125,1.566282449999986,0.7894248000000103,0.039999932,0.039999986,-9.78754149999997,0.055128300562629906,-0.0836364625002389,-0.0008661095300018752,0.022101891227138674,0.01840729650003613
0.7275,0.004923162340014208,-0.7818958549999921,-0.0015488051650047454,-2.3574990850000037,0.0033905395300098473,1.566229034999986,0.7894638900000103,0.039999932,0.0399999866,-9.78742674999997,0.0556174309925539,-0.08454227575023975,-0.0008732189990018818,0.02237554444007366,0.01854428655003626
0.73,0.004976839480014255,-0.7818662599999922,-0.0015667343800047613,-2.357513320000004,0.00342774466000988,1.566175619999986,0.7895029800000104,0.039999932,0.0399999872,-9.78731199999997,0.05610656142247788,-0.08544808900024055,-0.0008803284680018881,0.022649197653008633,0.018681276600036382
0.7325,0.005030516620014305,-0.7818366649999922,-0.0015846635950047781,-2.357527555000004,0.003464949790009915,1.5661222049999857,0.7895420700000104,0.039999932,0.0399999878,-9.78719724999997,0.056595691852401875,-0.0863539022502414,-0.0008874379370018947,0.022922850865943617,0.018818266650036507
0.735,0.005086002200015591,-0.7818061099999914,-0.0016031969200052075,-2.357541950000004,0.003503408420010806,1.5660669799999845,0.7895824740000114,0.0399999318,0.0399999876,-9.787099099999976,0.05712426044062034,-0.08728800100026217,-0.0008947358070020438,0.02320024557419389,0.0189570019000386
0.7375,0.005142392000016413,-0.781775074999991,-0.001622032300005482,-2.3575564250000043,0.003542493800011376,1.5660108499999836,0.7896235350000119,0.0399999315,0.039999987,-9.787009249999974,0.05767254810796241,-0.088236242500276,-0.0009021278775021515,0.02347951103009958,0.019096609750040634
0.74,0.0051987818000172326,-0.7817440399999905,-0.0016408676800057558,-2.3575709000000042,0.003581579180011944,1.5659547199999828,0.7896645960000125,0.039999931200000005,0.0399999864,-9.786919399999974,0.05822083577530445,-0.08918448400028978,-0.000909519948002259,0.02375877648600526,0.019236217600042665
0.7425,0.005255171600018054,-0.7817130049999901,-0.0016597030600060303,-2.3575853750000046,0.0036206645600125134,1.565898589999982,0.7897056570000132,0.0399999309,0.0399999858,-9.786829549999972,0.058769123442646516,-0.09013272550030359,-0.0009169120185023667,0.024038041941910948,0.0193758254500447
0.745,0.005311561400018873,-0.7816819699999896,-0.001678538440006304,-2.357599850000005,0.0036597499400130816,1.5658424599999812,0.7897467180000137,0.039999930600000004,0.039999985200000004,-9.78673969999997,0.05931741110998855,-0.09108096700031737,-0.000924304089002474,0.024317307397816627,0.019515433300046726
0.7475,0.005367951200019695,-0.7816509349999892,-0.0016973738200065785,-2.357614325000005,0.003698835320013651,1.5657863299999804,0.7897877790000143,0.0399999303,0.0399999846,-9.786649849999968,0.05986569877733062,-0.0920292085003312,-0.0009316961595025818,0.024596572853722316,0.019655041150048763
0.75,0.005424341000021522,-0.7816198999999883,-0.0017162092000071888,-2.357628800000006,0.003737920700014917,1.5657301999999784,0.7898288400000156,0.03999993,0.039999984,-9.786559999999959,0.06041398644466743,-0.09297745000036305,-0.0009390882300027673,0.024875838309630846,0.019794649000051612
0.7525000000000001,0.00548349905002077,-0.7815874009999886,-0.0017359691950069376,-2.3576442800000055,0.0037789245950143957,1.5656712799999792,0.7898719335000152,0.03999992925,0.039999984,-9.78644854999996,0.06094788350183629,-0.09397536850035036,-0.0009466950255026706,0.025162945035945797,0.01993651765004981
0.755,0.005542657100020015,-0.781554901999989,-0.0017557291900066854,-2.357659760000005,0.003819928490013873,1.56561235999998,0.7899150270000146,0.039999928500000004,0.039999984,-9.786337099999962,0.06148178055900512,-0.09497328700033764,-0.0009543018210025736,0.02545005176226074,0.020078386300048
0.7575000000000001,0.005601815150019263,-0.7815224029999894,-0.0017754891850064343,-2.357675240000005,0.0038609323850133516,1.5655534399999809,0.789958120500014,0.039999927750000004,0.039999984,-9.786225649999963,0.06201567761617398,-0.09597120550032495,-0.0009619086165024769,0.02573715848857569,0.020220254950046194
0.76,0.005660973200018508,-0.7814899039999899,-0.0017952491800061823,-2.357690720000005,0.003901936280012829,1.5654945199999815,0.7900012140000134,0.039999927,0.039999984,-9.786114199999965,0.06254957467334282,-0.09696912400031221,-0.0009695154120023799,0.026024265214890627,0.020362123600044385
0.7625000000000001,0.005720131250017756,-0.7814574049999903,-0.0018150091750059312,-2.3577062000000044,0.003942940175012307,1.5654355999999823,0.790044307500013,0.03999992625,0.039999984,-9.786002749999966,0.06308347173051168,-0.09796704250029953,-0.0009771222075022831,0.02631137194120558,0.020503992250042583
0.765,0.005779289300017002,-0.7814249059999907,-0.001834769170005679,-2.3577216800000045,0.003983944070011784,1.565376679999983,0.7900874010000124,0.0399999255,0.039999984,-9.785891299999967,0.06361736878768051,-0.0989649610002868,-0.0009847290030021861,0.026598478667520516,0.020645860900040773
0.7675000000000001,0.005839387950017025,-0.7813919079999907,-0.001854843395005687,-2.3577372600000044,0.004025599850011801,1.5653168299999831,0.7901311715000124,0.039999925,0.0399999843,-9.78579204999998,0.064170806110068,-0.09997807900028664,-0.0009924254950021635,0.026887101307591418,0.020788399000039523
0.77,0.005901367800016235,-0.7813579119999912,-0.0018755460800054227,-2.357753040000004,0.004068559400011253,1.5652551199999838,0.7901762960000118,0.039999925,0.039999985200000004,-9.785717199999981,0.06476332396284364,-0.10102159600027334,-0.001000301380002063,0.0271787557751704,0.020932276000037685
0.7725,0.005963347650015444,-0.7813239159999915,-0.0018962487650051587,-2.357768820000004,0.004111518950010704,1.5651934099999847,0.7902214205000112,0.039999925,0.0399999861,-9.785642349999982,0.06535584181561929,-0.10206511300026003,-0.0010081772650019625,0.027470410242749377,0.02107615300003585
0.775,0.006025327500014657,-0.781289919999992,-0.0019169514500048956,-2.3577846000000036,0.004154478500010159,1.5651316999999854,0.7902665450000107,0.039999925,0.039999987,-9.785567499999983,0.06594835966839496,-0.10310863000024677,-0.0010160531500018625,0.027762064710328372,0.021220030000034022
0.7775,0.006087307350013866,-0.7812559239999924,-0.0019376541350046316,-2.3578003800000036,0.0041974380500096106,1.5650699899999863,0.7903116695000101,0.039999925,0.0399999879,-9.785492649999984,0.0665408775211706,-0.10415214700023347,-0.001023929035001762,0.02805371917790735,0.021363907000032187
0.78,0.006149287200013079,-0.7812219279999928,-0.0019583568200043683,-2.357816160000003,0.004240397600009065,1.565008279999987,0.7903567940000095,0.039999925,0.0399999888,-9.785417799999985,0.06713339537394629,-0.1051956640002202,-0.001031804920001662,0.028345373645486345,0.02150778400003036
0.7825,0.006211267050012288,-0.7811879319999933,-0.0019790595050041045,-2.357831940000003,0.004283357150008517,1.5649465699999878,0.7904019185000088,0.039999925,0.0399999897,-9.785342949999984,0.06772591322672193,-0.10623918100020689,-0.0010396808050015616,0.028637028113065323,0.021651661000028525
0.785,0.006275163200013214,-0.7811529099999928,-0.0020004023600044135,-2.3578483600000033,0.004327645000009158,1.564882959999987,0.7904484490000095,0.0399999242,0.0399999894,-9.785239399999977,0.06831279098999478,-0.10731726900022318,-0.001047629180001627,0.028934052027822954,0.021797344700029864
0.7875,0.006340017500014156,-0.7811173749999922,-0.002022065300004728,-2.3578651000000037,0.004372597000009811,1.564818399999986,0.7904956825000102,0.039999923,0.0399999885,-9.785121499999974,0.06889684870851866,-0.10841264250023909,-0.0010556138000017428,0.029233760666167542,0.021943931750031995
0.79,0.006404871800015101,-0.7810818399999917,-0.002043728240005044,-2.357881840000004,0.004417549000010466,1.564753839999985,0.7905429160000109,0.0399999218,0.0399999876,-9.785003599999973,0.06948090642704255,-0.10950801600025506,-0.0010635984200018593,0.029533469304512148,0.022090518800034133
0.7925,0.0064697261000160435,-0.7810463049999912,-0.002065391180005359,-2.357898580000004,0.00446250100001112,1.564689279999984,0.7905901495000117,0.0399999206,0.039999986700000004,-9.784885699999972,0.07006496414556643,-0.11060338950027097,-0.0010715830400019751,0.029833177942856736,0.02223710585003626
0.795,0.006534580400016989,-0.7810107699999908,-0.0020870541200056743,-2.3579153200000045,0.004507453000011775,1.5646247199999832,0.7906373830000124,0.0399999194,0.0399999858,-9.784767799999969,0.07064902186409032,-0.11169876300028693,-0.0010795676600020916,0.030132886581201338,0.022383692900038398
0.7975,0.006599434700017931,-0.7809752349999902,-0.0021087170600059893,-2.3579320600000044,0.004552405000012428,1.5645601599999823,0.7906846165000131,0.039999918200000005,0.0399999849,-9.784649899999968,0.0712330795826142,-0.11279413650030284,-0.0010875522800022075,0.03043259521954593,0.02253027995004053
0.8,0.0066642890000197285,-0.7809396999999892,-0.002130380000006589,-2.3579488000000053,0.004597357000013674,1.5644955999999806,0.7907318500000143,0.039999917,0.039999984,-9.784531999999977,0.07181713730115438,-0.11388951000033305,-0.001095536900002406,0.030732303857891892,0.022676867000043184
0.8025,0.006732069425019789,-0.7809026199999892,-0.0021530201300066095,-2.357966530000005,0.004644336595013715,1.5644281149999804,0.7907812075000145,0.03999991595,0.0399999834,-9.784449949999976,0.07245715484041773,-0.11503381500033408,-0.0011038033850024132,0.03103669155397953,0.022825232150043315
0.805,0.0067998498500198516,-0.7808655399999892,-0.0021756602600066306,-2.357984260000005,0.004691316190013759,1.5643606299999804,0.7908305650000145,0.0399999149,0.0399999828,-9.784367899999976,0.07309717237968111,-0.11617812000033514,-0.001112069870002421,0.031341079250067176,0.022973597300043454
0.8075,0.006867630275019912,-0.7808284599999891,-0.002198300390006651,-2.3580019900000053,0.0047382957850138005,1.5642931449999802,0.7908799225000145,0.03999991385,0.0399999822,-9.784285849999977,0.07373718991894446,-0.11732242500033616,-0.0011203363550024283,0.03164546694615481,0.023121962450043585
0.81,0.006935410700019975,-0.780791379999989,-0.002220940520006672,-2.3580197200000055,0.0047852753800138445,1.5642256599999802,0.7909292800000145,0.0399999128,0.0399999816,-9.784203799999975,0.07437720745820783,-0.11846673000033722,-0.0011286028400024361,0.03194985464224246,0.023270327600043723
0.8125,0.007003191125020035,-0.780754299999989,-0.002243580650006692,-2.358037450000005,0.004832254975013887,1.5641581749999802,0.7909786375000145,0.03999991175,0.039999981,-9.784121749999976,0.07501722499747118,-0.11961103500033823,-0.0011368693250024433,0.032254242338330096,0.023418692750043855
0.8150000000000001,0.007070971550020098,-0.780717219999989,-0.002266220780006713,-2.3580551800000054,0.00487923457001393,1.56409068999998,0.7910279950000146,0.0399999107,0.039999980399999996,-9.784039699999976,0.07565724253673456,-0.12075534000033931,-0.0011451358100024512,0.032558630034417745,0.023567057900043993
0.8175,0.0071397437550213645,-0.7806796024999884,-0.0022891922600071367,-2.3580730200000057,0.004926901785014808,1.564022219999979,0.7910780735000155,0.03999991,0.03999998,-9.783977049999992,0.07629391290266462,-0.12191797850036214,-0.0011534898650025754,0.0328644979746082,0.023716115350045426
0.8200000000000001,0.007210499520022396,-0.7806409099999877,-0.002312826440007481,-2.3580910800000057,0.0049759442400155235,1.5639517799999778,0.7911295940000163,0.03999991,0.03999998,-9.783953199999992,0.07692388892193706,-0.12311728400037962,-0.0011620190600026997,0.03317332640300033,0.02386655740004762
0.8225,0.007281255285023424,-0.7806022174999871,-0.0023364606200078244,-2.358109140000006,0.005024986695016236,1.5638813399999767,0.791181114500017,0.03999991,0.03999998,-9.783929349999992,0.07755386494120949,-0.12431658950039703,-0.0011705482550028237,0.033482154831392455,0.024016999450049804
0.8250000000000001,0.007352011050024455,-0.7805635249999866,-0.0023600948000081687,-2.3581272000000064,0.00507402915001695,1.5638108999999756,0.7912326350000177,0.03999991,0.03999998,-9.78390549999999,0.07818384096048193,-0.12551589500041452,-0.001179077450002948,0.03379098325978459,0.024167441500051998
0.8275,0.007422766815025484,-0.780524832499986,-0.002383728980008512,-2.3581452600000063,0.0051230716050176634,1.5637404599999747,0.7912841555000185,0.03999991,0.03999998,-9.78388164999999,0.07881381697975437,-0.12671520050043195,-0.001187606645003072,0.03409981168817671,0.024317883550054185
0.8300000000000001,0.0074935225800265145,-0.7804861399999855,-0.002407363160008857,-2.3581633200000067,0.005172114060018378,1.5636700199999736,0.7913356760000193,0.03999991,0.03999998,-9.783857799999991,0.07944379299902682,-0.12791450600044943,-0.0011961358400031962,0.03440864011656885,0.024468325600056375
0.8325,0.007564278345027543,-0.7804474474999848,-0.0024309973400092003,-2.3581813800000067,0.00522115651501909,1.5635995799999725,0.79138719650002,0.03999991,0.03999998,-9.78383394999999,0.08007376901829924,-0.12911381150046686,-0.00120466503500332,0.034717468544960974,0.024618767650058562
0.835,0.00763705034002845,-0.7804076799999844,-0.0024553050600095035,-2.358200090000007,0.005271596360019719,1.5635271499999717,0.7914401730000207,0.0399999096,0.03999998,-9.783711599999933,0.08074337020542979,-0.1303488340004831,-0.001213270350003333,0.03503132201743398,0.024770337900058663
