rsonawane2002/My_IMU/logs_2/traj_432/imu_400hz_432.csv
time,j1,j2,j3,j4,j5,j6,j7,gripper1,gripper2,imu_ax,imu_ay,imu_az,imu_gx,imu_gy,imu_gz
0.0,0.00016700293,-0.785875,4.0107683e-05,-2.3551247,9.29385e-05,1.570997,0.786,0.04,0.04,-9.486401,0.021673172712326,0.061441496,4.8805134e-08,-0.0011641276068985,9.50688e-08
0.0025,0.00016700393049999998,-0.7858577740000002,4.010930149999998e-05,-2.35513919,9.294294509999995e-05,1.570996565,0.786,0.04,0.04,-9.538588099999336,0.018518758573958717,0.053595886850099896,-7.363917059844092e-08,-0.0013252444798105786,1.5495643499923745e-07
0.005,0.00016700493099999997,-0.7858405480000005,4.011091999999996e-05,-2.35515368,9.294739019999989e-05,1.57099613,0.786,0.04,0.04,-9.59077519999867,0.01536434443559143,0.04575027770019979,-1.9608347519688185e-07,-0.0014863613527226571,2.1484406999847492e-07
0.0075,0.00016700593149999996,-0.7858233220000007,4.011253849999994e-05,-2.35516817,9.295183529999983e-05,1.5709956950000001,0.786,0.04,0.04,-9.642962299998008,0.012209930297224145,0.03790466855029969,-3.185277797953228e-07,-0.0016474782256347357,2.747317049977124e-07
0.01,0.00016700693199999994,-0.785806096000001,4.011415699999992e-05,-2.3551826599999997,9.295628039999978e-05,1.5709952600000001,0.786,0.04,0.04,-9.695149399997343,0.00905551615885686,0.030059059400399588,-4.409720843937637e-07,-0.001808595098546814,3.3461933999694984e-07
0.0125,0.00016700793249999993,-0.7857888700000011,4.0115775499999894e-05,-2.355197149999999,9.296072549999972e-05,1.570994825,0.786,0.04,0.04,-9.747336499996678,0.005901102020489574,0.022213450250499485,-5.634163889922048e-07,-0.001969711971458893,3.945069749961873e-07
0.015,0.00016700893299999992,-0.7857716440000013,4.011739399999988e-05,-2.355211639999999,9.296517059999966e-05,1.57099439,0.786,0.04,0.04,-9.799523599996013,0.0027466878821222895,0.014367841100599382,-6.858606935906455e-07,-0.002130828844370971,4.5439460999542473e-07
0.0175,0.00016701124099999956,-0.7857548570000015,4.0120322199999505e-05,-2.355225734999999,9.296744530000018e-05,1.57099396,0.786,0.04,0.04,-9.834226550000023,0.0006459258234820269,0.009062104175020142,-9.903266434404159e-07,-0.0022877539973572805,3.4466776504001534e-07
0.02,0.00016701616399999948,-0.7857389480000017,4.0125869799999434e-05,-2.355239039999999,9.296537920000022e-05,1.5709935400000001,0.786,0.04,0.04,-9.833961200000028,0.0006524679251007737,0.00883611170002302,-1.6588358839319035e-06,-0.0024362957104888494,-1.0428803995426798e-07
0.0225,0.00016702108699999943,-0.7857230390000018,4.013141739999936e-05,-2.3552523449999985,9.296331310000024e-05,1.57099312,0.786,0.04,0.04,-9.83369585000003,0.0006590100267195203,0.008610119225025897,-2.327345124423391e-06,-0.002584837423620418,-5.532438449485512e-07
0.025,0.00016702600999999936,-0.785707130000002,4.013696499999929e-05,-2.3552656499999984,9.296124700000027e-05,1.5709927000000001,0.786,0.04,0.04,-9.833430500000034,0.000665552128338267,0.008384126750028776,-2.995854364914879e-06,-0.0027333791367519867,-1.0021996499428351e-06
0.0275,0.0001670309329999993,-0.7856912210000022,4.014251259999922e-05,-2.355278954999998,9.295918090000029e-05,1.57099228,0.786,0.04,0.04,-9.833165150000038,0.0006720942299570138,0.008158134275031653,-3.6643636054063666e-06,-0.002881920849883555,-1.4511554549371185e-06
0.03,0.00016703585599999924,-0.7856753120000024,4.0148060199999156e-05,-2.355292259999998,9.295711480000031e-05,1.5709918600000001,0.786,0.04,0.04,-9.83289980000004,0.0006786363315757604,0.00793214180003453,-4.332872845897854e-06,-0.0030304625630151235,-1.9001112599314018e-06
0.0325,0.0001670407789999992,-0.7856594030000027,4.0153607799999085e-05,-2.3553055649999974,9.295504870000034e-05,1.57099144,0.786,0.04,0.04,-9.832634450000045,0.0006851784331945071,0.007706149325037407,-5.0013820863893435e-06,-0.0031790042761466923,-2.3490670649256855e-06
0.035,0.0001670527999999975,-0.7856443400000024,4.016618979999742e-05,-2.355318099999998,9.294202100000297e-05,1.57099101,0.786,0.04,0.04,-9.832345600000048,0.0006959477730539478,0.00751407899002803,-6.425563449711551e-06,-0.0033198223449070075,-3.364333899792162e-06
0.0375,0.00016706836999999774,-0.7856297000000021,4.018228899999766e-05,-2.355330249999998,9.29235125000027e-05,1.5709905750000002,0.786,0.04,0.04,-9.832045000000043,0.0007088307320353502,0.007338969725025482,-8.22758087473777e-06,-0.003456778591478745,-4.662756249811054e-06
0.04,0.00016708393999999798,-0.7856150600000019,4.0198388199997894e-05,-2.3553423999999983,9.290500400000243e-05,1.5709901400000001,0.786,0.04,0.04,-9.831744400000039,0.0007217136910167527,0.007163860460022934,-1.0029598299763995e-05,-0.003593734838050483,-5.96117859982995e-06
0.0425,0.00016709950999999819,-0.7856004200000017,4.0214487399998127e-05,-2.3553545499999986,9.288649550000216e-05,1.5709897050000001,0.786,0.04,0.04,-9.831443800000034,0.0007345966499981552,0.006988751195020385,-1.1831615724790218e-05,-0.003730691084622221,-7.259600949848845e-06
0.045,0.00016711507999999842,-0.7855857800000015,4.023058659999836e-05,-2.355366699999999,9.286798700000189e-05,1.57098927,0.786,0.04,0.04,-9.83114320000003,0.0007474796089795576,0.0068136419300178375,-1.3633633149816437e-05,-0.003867647331193959,-8.558023299867737e-06
0.0475,0.00016713064999999866,-0.7855711400000013,4.02466857999986e-05,-2.355378849999999,9.284947850000162e-05,1.570988835,0.786,0.04,0.04,-9.830842600000025,0.0007603625679609602,0.006638532665015289,-1.5435650574842662e-05,-0.004004603577765697,-9.856445649886633e-06
0.05,0.00016714621999999887,-0.7855565000000011,4.026278499999883e-05,-2.355390999999999,9.283097000000135e-05,1.5709884,0.786,0.04,0.04,-9.83054200000002,0.0007732455269423627,0.006463423400012741,-1.7237667999868884e-05,-0.004141559824337435,-1.1154867999905528e-05
0.0525,0.0001671822259999974,-0.785542970000001,4.02989547999974e-05,-2.355402129999999,9.278173850000355e-05,1.5709879800000002,0.786,0.04,0.04,-9.830299600000016,0.0007917794951922333,0.0063001936400117284,-2.0631666999756137e-05,-0.004267435614010495,-1.3667115699819493e-05
0.055,0.00016721823199999746,-0.7855294400000009,4.033512459999743e-05,-2.3554132599999993,9.27325070000035e-05,1.57098756,0.786,0.04,0.04,-9.830057200000017,0.0008103134634425152,0.00613696388001158,-2.402566599975923e-05,-0.00439331140368275,-1.617936339982178e-05
0.0575,0.00016725423799999749,-0.7855159100000009,4.0371294399997467e-05,-2.355424389999999,9.268327550000345e-05,1.57098714,0.786,0.04,0.04,-9.829814800000017,0.000828847431692797,0.005973734120011431,-2.7419664999762318e-05,-0.004519187193355005,-1.8691611099824065e-05
0.06,0.0001672902439999975,-0.7855023800000009,4.04074641999975e-05,-2.355435519999999,9.263404400000341e-05,1.57098672,0.786,0.04,0.04,-9.829572400000016,0.0008473813999430789,0.005810504360011283,-3.08136639997654e-05,-0.00464506298302726,-2.1203858799826345e-05
0.0625,0.00016732624999999754,-0.7854888500000009,4.044363399999753e-05,-2.3554466499999993,9.258481250000336e-05,1.5709863,0.786,0.04,0.04,-9.829330000000017,0.0008659153681933608,0.005647274600011134,-3.420766299976849e-05,-0.004770938772699514,-2.3716106499828634e-05
0.065,0.00016736225599999757,-0.7854753200000009,4.047980379999756e-05,-2.355457779999999,9.253558100000331e-05,1.57098588,0.786,0.04,0.04,-9.829087600000015,0.0008844493364436426,0.005484044840010986,-3.760166199977158e-05,-0.004896814562371768,-2.622835419983092e-05
0.0675,0.00016740926299999508,-0.7854621200000008,4.052670674999515e-05,-2.355468539999999,9.247013800000694e-05,1.570985605,0.786,0.04,0.04,-9.828839500000017,0.0009043839643692521,0.005333252550008933,-4.168293309961297e-05,-0.005019471212281911,-2.92550404997123e-05
0.07,0.0001674782719999942,-0.785449580000001,4.0595075999994275e-05,-2.355478559999999,9.237227200000819e-05,1.57098562,0.786,0.04,0.04,-9.828580000000022,0.0009271199116463577,0.0052073352000105355,-4.7138748399543504e-05,-0.005135689582665896,-3.331060399966067e-05
0.0725,0.00016754728099999333,-0.7854370400000011,4.06634452499934e-05,-2.355488579999999,9.227440600000944e-05,1.570985635,0.786,0.04,0.04,-9.828320500000025,0.000949855858923463,0.005081417850012139,-5.259456369947401e-05,-0.0052519079530498804,-3.736616749960901e-05
0.075,0.00016761628999999246,-0.7854245000000013,4.073181449999254e-05,-2.355498599999999,9.217654000001068e-05,1.57098565,0.786,0.04,0.04,-9.828061000000028,0.0009725918062005686,0.004955500500013743,-5.805037899940455e-05,-0.0053681263234338665,-4.1421730999557376e-05
0.0775,0.0001676852989999916,-0.7854119600000015,4.0800183749991665e-05,-2.355508619999999,9.207867400001192e-05,1.570985665,0.786,0.04,0.04,-9.827801500000032,0.0009953277534776742,0.004829583150015346,-6.350619429933508e-05,-0.005484344693817852,-4.547729449950574e-05
0.08,0.0001677543079999907,-0.7853994200000016,4.08685529999908e-05,-2.3555186399999988,9.198080800001318e-05,1.57098568,0.786,0.04,0.04,-9.827542000000035,0.0010180637007547798,0.0047036658000169495,-6.896200959926562e-05,-0.005600563064201837,-4.9532857999454104e-05
0.0825,0.00016782331699998984,-0.7853868800000018,4.093692224998993e-05,-2.3555286599999987,9.188294200001442e-05,1.570985695,0.786,0.04,0.04,-9.827282500000038,0.0010407996480318851,0.004577748450018552,-7.441782489919615e-05,-0.005716781434585822,-5.358842149940247e-05
0.085,0.0001679243409999834,-0.7853749140000017,4.103639439998368e-05,-2.355538219999999,9.173832640002384e-05,1.5709857600000001,0.786,0.04,0.04,-9.827040100000033,0.0010666914633435426,0.004451252900017988,-8.157063199886477e-05,-0.005825269734472007,-5.8868088399164094e-05
0.08750000000000001,0.0001680413724999851,-0.7853632350000015,4.115141799998535e-05,-2.355547549999999,9.157033600002139e-05,1.57098585,0.786,0.04,0.04,-9.82680625000003,0.0010941612126735523,0.004324468250016143,-8.957193499898122e-05,-0.005929892999106654,-6.475980699924984e-05
0.09,0.0001681584039999868,-0.7853515560000013,4.126644159998703e-05,-2.355556879999999,9.140234560001896e-05,1.57098594,0.786,0.04,0.04,-9.826572400000027,0.001121630962003562,0.0041976836000142985,-9.757323799909763e-05,-0.006034516263741301,-7.065152559933554e-05
0.0925,0.0001682754354999885,-0.7853398770000012,4.13814651999887e-05,-2.355566209999999,9.123435520001651e-05,1.57098603,0.786,0.04,0.04,-9.826338550000024,0.0011491007113335718,0.004070898950012453,-0.00010557454099921406,-0.006139139528375949,-7.654324419942128e-05
0.095,0.0001683924669999902,-0.785328198000001,4.1496488799990376e-05,-2.3555755399999994,9.106636480001406e-05,1.57098612,0.786,0.04,0.04,-9.82610470000002,0.0011765704606635815,0.003944114300010609,-0.0001135758439993305,-0.006243762793010596,-8.243496279950702e-05
0.0975,0.00016850949849999192,-0.7853165190000008,4.161151239999205e-05,-2.3555848699999995,9.089837440001161e-05,1.57098621,0.786,0.04,0.04,-9.825870850000017,0.0012040402099935913,0.0038173296500087633,-0.00012157714699944695,-0.006348386057645244,-8.832668139959276e-05
0.1,0.0001686265299999936,-0.7853048400000007,4.1726535999993725e-05,-2.3555941999999996,9.073038400000917e-05,1.5709863,0.786,0.04,0.04,-9.825637000000013,0.001231509959323601,0.003690545000006918,-0.0001295784499995634,-0.006453009322279891,-9.42183999996785e-05
0.10250000000000001,0.00016880881299999022,-0.7852939440000006,4.190475519999044e-05,-2.3556028549999994,9.04676080000141e-05,1.5709864199999999,0.7859997150000001,0.04,0.04,-9.82544815000001,0.0012609472905734606,0.003605860850004544,-0.00014050209199941387,-0.006550655909808651,-0.00010221153549957112
0.105,0.00016899109599999038,-0.7852830480000006,4.20829743999906e-05,-2.3556115099999997,9.020483200001387e-05,1.57098654,0.78599943,0.04,0.04,-9.82525930000001,0.001290384621823427,0.003521176700004467,-0.00015142573399942375,-0.006648302497337029,-0.00011020467099957835
0.1075,0.00016917337899999055,-0.7852721520000006,4.226119359999076e-05,-2.3556201649999995,8.994205600001363e-05,1.57098666,0.785999145,0.04,0.04,-9.825070450000009,0.001319821953073394,0.0034364925500043903,-0.00016234937599943368,-0.0067459490848654075,-0.00011819780649958563
0.11,0.0001693556619999907,-0.7852612560000006,4.2439412799990925e-05,-2.3556288199999993,8.967928000001339e-05,1.57098678,0.7859988600000001,0.04,0.04,-9.82488160000001,0.0013492592843233607,0.003351808400004313,-0.00017327301799944364,-0.0068435956723937865,-0.0001261909419995929
0.1125,0.00016953794499999087,-0.7852503600000006,4.261763199999109e-05,-2.3556374749999995,8.941650400001314e-05,1.5709868999999999,0.785998575,0.04,0.04,-9.82469275000001,0.0013786966155733276,0.003267124250004236,-0.00018419665999945358,-0.006941242259922166,-0.0001341840774996002
0.115,0.00016972022799999103,-0.7852394640000006,4.279585119999125e-05,-2.3556461299999993,8.91537280000129e-05,1.57098702,0.7859982900000001,0.04,0.04,-9.824503900000009,0.0014081339468232942,0.003182440100004159,-0.00019512030199946354,-0.007038888847450544,-0.00014217721299960746
0.11750000000000001,0.00016993067149998593,-0.7852287750000005,4.3001272999986296e-05,-2.3556544349999995,8.885067880002023e-05,1.570987145,0.785998005,0.04,0.03999999975,-9.824322500000008,0.0014388884010240687,0.0031005441300040256,-0.0002067106544993183,-0.007134196488181894,-0.00015091163549946107
0.12,0.0001701974359999825,-0.7852185000000007,4.326109999998298e-05,-2.3556620399999995,8.846708320002512e-05,1.57098728,0.78599772,0.04,0.039999999,-9.824156000000011,0.0014722771011270335,0.0030242245200049977,-0.0002196344279991537,-0.007224826235318164,-0.00016112863199933093
0.1225,0.00017046420049997911,-0.7852082250000009,4.352092699997968e-05,-2.3556696449999994,8.808348760003e-05,1.570987415,0.7859974350000001,0.04,0.03999999825,-9.823989500000012,0.0015056658012299984,0.0029479049100059693,-0.00023255820149898913,-0.007315455982454436,-0.00017134562849920086
0.125,0.00017073096499997572,-0.7851979500000009,4.378075399997637e-05,-2.355677249999999,8.769989200003489e-05,1.57098755,0.78599715,0.04,0.0399999975,-9.823823000000015,0.0015390545013329632,0.002871585300006941,-0.0002454819749988246,-0.007406085729590707,-0.00018156262499907077
0.1275,0.00017099772949997233,-0.7851876750000011,4.404058099997306e-05,-2.355684854999999,8.731629640003977e-05,1.570987685,0.7859968650000001,0.04,0.03999999675,-9.823656500000018,0.0015724432014359282,0.0027952656900079127,-0.00025840574849866004,-0.007496715476726978,-0.00019177962149894069
0.13,0.00017126449399996893,-0.7851774000000012,4.430040799996975e-05,-2.355692459999999,8.693270080004465e-05,1.57098782,0.7859965800000001,0.04,0.039999996,-9.82349000000002,0.001605831901538893,0.0027189460800088844,-0.0002713295219984955,-0.00758734522386325,-0.0002019966179988106
0.1325,0.00017153125849996554,-0.7851671250000013,4.456023499996645e-05,-2.355700064999999,8.654910520004953e-05,1.570987955,0.7859962950000001,0.04,0.03999999525,-9.823323500000022,0.001639220601641858,0.002642626470009856,-0.00028425329549833093,-0.007677974970999521,-0.0002122136144986805
0.135,0.00017186832399995397,-0.7851571900000012,4.488786009995529e-05,-2.355707299999999,8.60649790000661e-05,1.57098844,0.7859960100000001,0.04,0.039999994500000004,-9.823124100000028,0.0016721024061512242,0.002579495330006993,-0.000299637395997945,-0.00776381394824838,-0.00022413235999842055
0.1375,0.00017224053999995937,-0.7851474250000011,4.5249384249960545e-05,-2.355714349999999,8.553058750005832e-05,1.5709891,0.785995725,0.04,0.039999993750000004,-9.822908250000024,0.001704730762863639,0.00252295842500617,-0.0003162516599981868,-0.007847257540552094,-0.00023690197999860638
0.14,0.0001726127559999648,-0.785137660000001,4.561090839996581e-05,-2.3557213999999993,8.499619600005054e-05,1.57098976,0.7859954400000001,0.04,0.039999993000000005,-9.82269240000002,0.0017373591195760539,0.0024664215200053473,-0.00033286592399842856,-0.007930701132855808,-0.0002496715999987922
0.14250000000000002,0.00017298497199997023,-0.7851278950000008,4.597243254997107e-05,-2.3557284499999995,8.446180450004276e-05,1.57099042,0.7859951550000001,0.04,0.03999999225,-9.822476550000017,0.0017699874762884687,0.0024098846150045245,-0.0003494801879986704,-0.008014144725159522,-0.00026244121999897805
0.145,0.00017335718799997563,-0.7851181300000006,4.6333956699976325e-05,-2.3557354999999998,8.3927413000035e-05,1.57099108,0.78599487,0.04,0.0399999915,-9.822260700000014,0.0018026158330008834,0.0023533477100037025,-0.00036609445199891195,-0.008097588317463236,-0.0002752108399991638
0.1475,0.00017372940399998106,-0.7851083650000005,4.669548084998159e-05,-2.35574255,8.339302150002721e-05,1.57099174,0.7859945850000001,0.04,0.03999999075,-9.82204485000001,0.0018352441897132982,0.0022968108050028797,-0.0003827087159991538,-0.008181031909766951,-0.0002879804599993496
0.15,0.00017410161999998646,-0.7850986000000003,4.705700499998685e-05,-2.3557495999999998,8.285863000001945e-05,1.5709924,0.7859943,0.04,0.03999999,-9.821829000000006,0.001867872546425713,0.002240273900002057,-0.00039932297999939557,-0.008264475502070665,-0.00030075007999953544
0.1525,0.00017460184449997543,-0.7850892400000005,4.754181774997619e-05,-2.3557559599999998,8.213699200003545e-05,1.57099309,0.7859937300000001,0.04,0.0399999915,-9.821688900000007,0.0019018944294640291,0.0021860891750026612,-0.0004199405534989874,-0.008340973779555323,-0.00031659969799922155
0.155,0.00017510206899996907,-0.7850798800000005,4.8026630499970014e-05,-2.3557623199999997,8.141535400004463e-05,1.57099378,0.7859931600000001,0.04,0.039999993,-9.821548800000008,0.001935916312502396,0.002131904450003351,-0.00044055812699872487,-0.00841747205703973,-0.00033244931599901977
0.1575,0.00017560229349996269,-0.7850705200000007,4.851144324996384e-05,-2.3557686799999997,8.069371600005382e-05,1.5709944699999998,0.7859925900000001,0.04,0.0399999945,-9.82140870000001,0.001969938195540763,0.0020777197250040408,-0.0004611757004984624,-0.008493970334524136,-0.000348298933998818
0.16,0.00017610251799995633,-0.7850611600000008,4.899625599995767e-05,-2.3557750399999997,7.9972078000063e-05,1.5709951599999998,0.7859920200000001,0.04,0.039999996,-9.821268600000012,0.0020039600785791297,0.002023535000004731,-0.0004817932739981999,-0.008570468612008542,-0.00036414855199861615
0.1625,0.00017660274249994994,-0.7850518000000009,4.9481068749951495e-05,-2.3557813999999997,7.92504400000722e-05,1.5709958499999999,0.7859914500000001,0.04,0.0399999975,-9.821128500000015,0.0020379819616174965,0.0019693502750054207,-0.0005024108474979374,-0.008646966889492947,-0.00037999816999841437
0.165,0.00017710296699994358,-0.785042440000001,4.9965881499945324e-05,-2.3557877599999992,7.852880200008138e-05,1.5709965399999999,0.7859908800000001,0.04,0.039999999,-9.820988400000015,0.0020720038446558633,0.0019151655500061107,-0.0005230284209976749,-0.008723465166977354,-0.00039584778799821253
0.1675,0.00017765381549992112,-0.7850331785000011,5.049939374992368e-05,-2.3557938499999995,7.773437550011371e-05,1.5709973449999999,0.7859903080000001,0.04,0.04,-9.82084240000002,0.0021057850564788973,0.001869568405003438,-0.0005446399464971455,-0.00879833349025873,-0.0004125820969977618
0.17,0.0001783059119999217,-0.785024114000001,5.1130304999924256e-05,-2.3557993999999995,7.679437200011285e-05,1.5709983799999998,0.7859897320000001,0.04,0.04,-9.82068460000002,0.0021390849258710026,0.001841146420003412,-0.0005682393759971669,-0.008869941905132264,-0.0004310857879977786
0.17250000000000001,0.0001789580084999223,-0.785015049500001,5.1761216249924835e-05,-2.3558049499999996,7.585436850011199e-05,1.570999415,0.7859891560000001,0.04,0.04,-9.82052680000002,0.002172384795263108,0.0018127244350033861,-0.0005918388054971884,-0.0089415503200058,-0.0004495894789977955
0.17500000000000002,0.0001796101049999229,-0.7850059850000011,5.239212749992541e-05,-2.3558104999999996,7.491436500011113e-05,1.5710004499999999,0.78598858,0.04,0.04,-9.820369000000019,0.002205684664655213,0.0017843024500033603,-0.0006154382349972099,-0.009013158734879335,-0.0004680931699978123
0.1775,0.00018026220149992348,-0.784996920500001,5.3023038749925974e-05,-2.355816049999999,7.397436150011029e-05,1.5710014849999998,0.785988004,0.04,0.04,-9.820211200000019,0.002238984534047318,0.0017558804650033347,-0.0006390376644972311,-0.009084767149752869,-0.00048659686099782897
0.18,0.0001809142979999241,-0.784987856000001,5.365394999992655e-05,-2.355821599999999,7.303435800010943e-05,1.57100252,0.785987428,0.04,0.04,-9.820053400000019,0.002272284403439423,0.0017274584800033089,-0.0006626370939972526,-0.009156375564626404,-0.0005051005519978458
0.1825,0.00018156639449992467,-0.784978791500001,5.428486124992712e-05,-2.355827149999999,7.209435450010858e-05,1.5710035549999999,0.7859868520000001,0.04,0.04,-9.819895600000018,0.0023055842728315285,0.001699036495003283,-0.0006862365234972741,-0.009227983979499938,-0.0005236042429978626
0.185,0.00018233645899991252,-0.7849698690000009,5.502914829991549e-05,-2.3558324299999995,7.098704100012565e-05,1.57100476,0.785986088,0.04,0.039999999,-9.819739100000017,0.002341505931686382,0.0016744777100023873,-0.0007129432999970184,-0.009295380208634331,-0.0005439816309977513
0.1875,0.0001831655074999246,-0.7849610175000008,5.583012324992715e-05,-2.3558375749999994,6.979607250010831e-05,1.5710060499999998,0.78598523,0.04,0.0399999975,-9.819583250000015,0.0023787384852732886,0.001651850525002058,-0.0007412037499974297,-0.009360670344898061,-0.0005652958674980615
0.19,0.00018399455599993667,-0.7849521660000006,5.663109819993881e-05,-2.3558427199999996,6.860510400009098e-05,1.57100734,0.785984372,0.04,0.039999996,-9.819427400000013,0.0024159710388601957,0.0016292233400017288,-0.000769464199997841,-0.009425960481161792,-0.0005866101039983717
0.1925,0.00018482360449994874,-0.7849433145000005,5.743207314995046e-05,-2.355847865,6.741413550007366e-05,1.57100863,0.785983514,0.04,0.0399999945,-9.81927155000001,0.0024532035924471024,0.0016065961550013994,-0.0007977246499982523,-0.009491250617425522,-0.0006079243404986819
0.195,0.0001856526529999608,-0.7849344630000004,5.823304809996212e-05,-2.3558530099999997,6.622316700005633e-05,1.5710099199999998,0.785982656,0.04,0.039999993,-9.819115700000008,0.002490436146034009,0.0015839689700010702,-0.0008259850999986635,-0.009556540753689252,-0.000629238576998992
0.1975,0.00018648170149997286,-0.7849256115000003,5.903402304997378e-05,-2.355858155,6.5032198500039e-05,1.57101121,0.785981798,0.04,0.0399999915,-9.818959850000006,0.0025276686996209157,0.0015613417850007408,-0.0008542455499990748,-0.009621830889952982,-0.0006505528134993022
0.2,0.00018731074999998494,-0.7849167600000001,5.983499799998543e-05,-2.3558633,6.384123000002166e-05,1.5710125,0.78598094,0.04,0.03999999,-9.818804000000004,0.002564901253207823,0.0015387146000004116,-0.0008825059999994861,-0.009687121026216713,-0.0006718670499996125
0.2025,0.0001883429374999681,-0.7849079715000002,6.0831062799969205e-05,-2.35586756,6.235888200004584e-05,1.5710143449999998,0.785979794,0.04,0.03999999,-9.818695550000003,0.0025925667025140093,0.0015320552600002059,-0.000914333434999016,-0.009749055467544029,-0.0006965878974992358
0.20500000000000002,0.00018937512499995495,-0.7848991830000004,6.182712759995652e-05,-2.35587182,6.0876534000064705e-05,1.57101619,0.7859786480000001,0.04,0.03999999,-9.818587100000004,0.0026202321518200224,0.0015253959200002907,-0.0009461608699986107,-0.009810989908871286,-0.000721308744998921
0.20750000000000002,0.0001904073124999418,-0.7848903945000005,6.282319239994384e-05,-2.35587608,5.9394186000083575e-05,1.5710180349999998,0.785977502,0.04,0.03999999,-9.818478650000007,0.002647897601126035,0.0015187365800003755,-0.0009779883049982055,-0.009872924350198542,-0.0007460295924986062
0.21,0.00019143949999992865,-0.7848816060000006,6.381925719993115e-05,-2.3558803399999997,5.7911838000102465e-05,1.57101988,0.785976356,0.04,0.03999999,-9.818370200000007,0.0026755630504320476,0.0015120772400004604,-0.0010098157399977999,-0.009934858791525798,-0.0007707504399982912
0.2125,0.0001924716874999155,-0.7848728175000007,6.481532199991846e-05,-2.3558845999999996,5.642949000012134e-05,1.5710217249999998,0.78597521,0.04,0.03999999,-9.818261750000008,0.0027032284997380606,0.0015054179000005452,-0.0010416431749973947,-0.009996793232853055,-0.0007954712874979764
0.215,0.00019350387499990235,-0.7848640290000009,6.581138679990578e-05,-2.3558888599999994,5.494714200014021e-05,1.57102357,0.7859740640000001,0.04,0.03999999,-9.81815330000001,0.0027308939490440732,0.0014987585600006298,-0.0010734706099969895,-0.010058727674180312,-0.0008201921349976617
0.2175,0.00019461279999987024,-0.7848552315000009,6.688109849987494e-05,-2.3558930349999994,5.335446925018636e-05,1.5710254599999998,0.7859728500000002,0.04,0.03999999025,-9.818024750000017,0.0027587202494003325,0.0014920461300007009,-0.0011065707699963365,-0.010118445893743853,-0.0008460425399971111
0.22,0.0001958751999998714,-0.7848464160000009,6.809810399987604e-05,-2.3558970399999994,5.154114700018471e-05,1.5710274399999997,0.7859715000000002,0.04,0.039999991,-9.817856000000017,0.002786868251857233,0.0014852275200006946,-0.0011422163799963692,-0.010173731669777909,-0.0008741520599971367
0.2225,0.00019713759999987255,-0.784837600500001,6.931510949987714e-05,-2.3559010449999995,4.972782475018306e-05,1.5710294199999997,0.7859701500000001,0.04,0.03999999175,-9.817687250000017,0.0028150162543141336,0.0014784089100006884,-0.0011778619899964016,-0.010229017445811964,-0.0009022615799971623
0.225,0.00019839999999987372,-0.7848287850000009,7.053211499987825e-05,-2.3559050499999996,4.791450250018141e-05,1.5710313999999999,0.7859688000000001,0.04,0.0399999925,-9.817518500000016,0.002843164256771034,0.0014715903000006821,-0.001213507599996434,-0.010284303221846019,-0.0009303710999971879
0.2275,0.00019966239999987486,-0.7848199695000009,7.174912049987936e-05,-2.3559090549999997,4.610118025017976e-05,1.5710333799999998,0.7859674500000001,0.04,0.039999993250000004,-9.817349750000016,0.0028713122592279347,0.001464771690000676,-0.0012491532099964664,-0.010339588997880074,-0.0009584806199972135
0.23,0.000200924799999876,-0.7848111540000009,7.296612599988047e-05,-2.35591306,4.4287858000178106e-05,1.5710353599999998,0.7859661000000001,0.04,0.039999994000000004,-9.817181000000016,0.0028994602616848352,0.0014579530800006698,-0.0012847988199964988,-0.010394874773914129,-0.0009865901399972391
0.2325,0.00020218719999987717,-0.7848023385000009,7.418313149988157e-05,-2.355917065,4.2474535750176455e-05,1.5710373399999997,0.7859647500000001,0.04,0.039999994750000004,-9.817012250000015,0.0029276082641417358,0.0014511344700006636,-0.0013204444299965315,-0.010450160549948186,-0.0010146996599972647
0.23500000000000001,0.00020362159999986728,-0.7847934330000008,7.556511959987215e-05,-2.3559204599999997,4.041517520019053e-05,1.5710396199999996,0.78596326,0.04,0.039999995,-9.816918300000005,0.002956597483714302,0.0014617446499983128,-0.0013590952799964944,-0.010504674911494285,-0.0010449706799972628
0.23750000000000002,0.0002051419999998894,-0.7847844825000007,7.702959899989345e-05,-2.35592355,3.823279550015877e-05,1.5710420499999997,0.7859617000000001,0.04,0.039999995,-9.816861750000005,0.002986007311844885,0.0014810692249985942,-0.0013992487499970788,-0.010558803565796237,-0.001076322449997719
0.24,0.0002066623999999115,-0.7847755320000005,7.849407839991475e-05,-2.35592664,3.605041580012704e-05,1.5710444799999999,0.78596014,0.04,0.039999995,-9.816805200000003,0.003015417139975468,0.0015003937999988751,-0.0014394022199976627,-0.01061293222009819,-0.001107674219998175
0.2425,0.00020818279999993363,-0.7847665815000003,7.995855779993606e-05,-2.3559297299999997,3.386803610009528e-05,1.57104691,0.7859585800000001,0.04,0.039999995,-9.816748650000003,0.003044826968106051,0.0015197183749991563,-0.001479555689998247,-0.010667060874400142,-0.0011390259899986311
0.245,0.00020970319999995575,-0.7847576310000003,8.142303719995737e-05,-2.3559328199999996,3.168565640006352e-05,1.5710493399999998,0.78595702,0.04,0.039999995,-9.816692100000003,0.003074236796236634,0.0015390429499994374,-0.0015197091599988312,-0.010721189528702095,-0.0011703777599990873
0.2475,0.0002112235999999779,-0.7847486805000001,8.288751659997869e-05,-2.35593591,2.950327670003176e-05,1.57105177,0.78595546,0.04,0.039999995,-9.81663555,0.003103646624367217,0.0015583675249997188,-0.0015598626299994157,-0.010775318183004047,-0.0012017295299995437
0.25,0.000212744,-0.78473973,8.4351996e-05,-2.355939,2.7320897e-05,1.5710542,0.7859539,0.04,0.039999995,-9.816579,0.0031330564524978,0.0015776921,-0.0016000161,-0.010829446837306,-0.0012330813
0.2525,0.00021455091199997701,-0.7847305305000001,8.609118059997786e-05,-2.35594185,2.472666695003303e-05,1.5710572,0.78595204,0.04,0.03999999575,-9.816420900000002,0.0031490528956053215,0.001587579649999874,-0.00164478205499943,-0.010878492146729776,-0.001268110394999554
0.255,0.000216357823999954,-0.7847213310000002,8.783036519995572e-05,-2.3559447,2.213243690006606e-05,1.5710602,0.78595018,0.04,0.0399999965,-9.816262800000004,0.0031650493387128426,0.001597467199999748,-0.00168954800999886,-0.010927537456153552,-0.001303139489999108
0.2575,0.000218164735999931,-0.7847121315000003,8.956954979993358e-05,-2.35594755,1.953820685009909e-05,1.5710632,0.78594832,0.04,0.03999999725,-9.816104700000006,0.003181045781820364,0.0016073547499996222,-0.00173431396499829,-0.010976582765577328,-0.001338168584998662
0.26,0.00021997164799990798,-0.7847029320000004,9.130873439991142e-05,-2.3559504,1.6943976800132116e-05,1.5710662,0.78594646,0.04,0.039999998,-9.815946600000007,0.003197042224927885,0.0016172422999994965,-0.00177907991999772,-0.011025628075001103,-0.001373197679998216
0.2625,0.00022177855999988498,-0.7846937325000006,9.304791899988928e-05,-2.3559532499999998,1.4349746750165148e-05,1.5710691999999997,0.7859446000000001,0.04,0.03999999875,-9.815788500000009,0.0032130386680354066,0.0016271298499993705,-0.00182384587499715,-0.011074673384424878,-0.00140822677499777
0.265,0.00022358547199986196,-0.7846845330000007,9.478710359986714e-05,-2.3559560999999998,1.175551670019818e-05,1.5710721999999997,0.7859427400000001,0.04,0.0399999995,-9.81563040000001,0.0032290351111429277,0.0016370173999992446,-0.0018686118299965802,-0.011123718693848653,-0.0014432558699973242
0.2675,0.00022549754899983015,-0.7846752200000008,9.662708074983662e-05,-2.35595863,9.011086000243677e-06,1.5710753949999996,0.7859407650000001,0.04,0.04,-9.815507900000004,0.0032471765298378048,0.001651988749997988,-0.0019148641699960605,-0.011172111798074027,-0.0014793721799969356
0.27,0.00022761995599986104,-0.7846656800000006,9.866864299986633e-05,-2.35596052,5.966254000199365e-06,1.5710789799999998,0.7859385600000002,0.04,0.04,-9.815456600000003,0.003269607899709031,0.001677127699998354,-0.0019640892799967767,-0.011219200491902098,-0.0015176629199974928
0.2725,0.00022974236299989193,-0.7846561400000005,0.00010071020524989603,-2.35596241,2.9214220001550535e-06,1.5710825649999998,0.7859363550000001,0.04,0.04,-9.815405300000002,0.0032920392695802575,0.0017022666499987198,-0.002013314389997493,-0.011266289185730168,-0.00155595365999805
0.275,0.00023186476999992282,-0.7846466000000003,0.00010275176749992575,-2.3559643,-1.2340999988925745e-07,1.5710861499999997,0.7859341500000001,0.04,0.04,-9.815354000000001,0.003314470639451484,0.0017274055999990856,-0.00206253949999821,-0.011313377879558238,-0.0015942443999986072
0.2775,0.00023398717699995368,-0.7846370600000002,0.00010479332974995546,-2.35596619,-3.1682419999335684e-06,1.571089735,0.7859319450000001,0.04,0.04,-9.8153027,0.0033369020093227102,0.0017525445499994516,-0.002111764609998926,-0.011360466573386309,-0.0016325351399991645
0.28,0.00023610958399998457,-0.78462752,0.00010683489199998517,-2.3559680800000002,-6.213073999977881e-06,1.57109332,0.78592974,0.04,0.04,-9.8152514,0.003359333379193937,0.0017776834999998173,-0.0021609897199996427,-0.011407555267214379,-0.0016708258799997217
0.28250000000000003,0.00023823199100001546,-0.7846179799999998,0.00010887645425001487,-2.35596997,-9.25790600002219e-06,1.5710969049999999,0.785927535,0.04,0.04,-9.815200099999998,0.0033817647490651634,0.0018028224500001833,-0.0022102148300003586,-0.01145464396104245,-0.0017091166200002789
0.28500000000000003,0.0002405843810000539,-0.7846081299999997,0.0001111383605000518,-2.35597172,-1.2631082600077257e-05,1.57110089,0.78592509,0.04,0.04,-9.815080699999996,0.0033939212793485433,0.0018284013300005634,-0.0022624689000011744,-0.011498486902565622,-0.001749781320000914
0.28750000000000003,0.0002430517625000898,-0.7845981249999996,0.00011351043875008633,-2.3559734,-1.6168431500128734e-05,1.5711050750000002,0.7859225249999999,0.04,0.04,-9.814927249999993,0.0034009403898382804,0.001854200175000939,-0.0023162374500019568,-0.011540706967936437,-0.001791633000001523
0.29,0.00024551914400012566,-0.7845881199999994,0.00011588251700012079,-2.35597508,-1.9705780400180135e-05,1.5711092600000003,0.7859199599999999,0.04,0.04,-9.814773799999992,0.003407959500328017,0.0018799990200013138,-0.0023700060000027383,-0.01158292703330725,-0.0018334846800021312
0.2925,0.00024798652550016157,-0.7845781149999993,0.00011825459525015532,-2.35597676,-2.3243129300231615e-05,1.5711134450000002,0.7859173949999999,0.04,0.04,-9.81462034999999,0.0034149786108177544,0.0019057978650016893,-0.0024237745500035207,-0.011625147098678065,-0.0018753363600027403
0.295,0.0002504539070001975,-0.7845681099999992,0.00012062667350018983,-2.35597844,-2.6780478200283094e-05,1.5711176300000003,0.7859148299999998,0.04,0.04,-9.814466899999987,0.0034219977213074916,0.0019315967100020646,-0.002477543100004303,-0.011667367164048878,-0.0019171880400033494
0.2975,0.00025292128850023333,-0.784558104999999,0.00012299875175022436,-2.35598012,-3.0317827100334573e-05,1.5711218150000004,0.7859122649999998,0.04,0.04,-9.814313449999984,0.0034290168317972288,0.00195739555500244,-0.002531311650005086,-0.011709587229419694,-0.0019590397200039585
0.3,0.00025538867000031017,-0.7845480999999989,0.00012537083000029804,-2.3559818,-3.3855176000444254e-05,1.5711260000000005,0.7859096999999997,0.04,0.04,-9.814159999999996,0.0034360359422872994,0.0019831944000043168,-0.002585080200006363,-0.011751807294790398,-0.0020008914000049483
0.3025,0.0002582308250003128,-0.7845375594999988,0.00012810186200030052,-2.35598258,-3.792582860044796e-05,1.5711309350000005,0.7859068139999997,0.04,0.04,-9.814123249999996,0.0034461097326140234,0.0020227489500043525,-0.0026433846450064163,-0.011793028796096141,-0.0020462309550049896
0.305,0.0002610729800003153,-0.7845270189999988,0.000130832894000303,-2.3559833599999997,-4.199648120045166e-05,1.5711358700000004,0.7859039279999998,0.04,0.04,-9.814086499999995,0.003456183522940748,0.0020623035000043887,-0.0027016890900064695,-0.011834250297401884,-0.0020915705100050305
0.3075,0.00026391513500031793,-0.7845164784999988,0.0001335639260003055,-2.35598414,-4.6067133800455366e-05,1.5711408050000004,0.7859010419999997,0.04,0.04,-9.814049749999995,0.003466257313267472,0.002101858050004425,-0.0027599935350065222,-0.011875471798707626,-0.0021369100650050717
0.31,0.00026675729000032053,-0.7845059379999988,0.00013629495800030798,-2.35598492,-5.013778640045907e-05,1.5711457400000006,0.7858981559999997,0.04,0.04,-9.814012999999996,0.003476331103594196,0.0021414126000044607,-0.0028182979800065754,-0.011916693300013369,-0.002182249620005113
0.3125,0.00026959944500032314,-0.7844953974999989,0.00013902599000031047,-2.3559856999999997,-5.420843900046278e-05,1.5711506750000006,0.7858952699999997,0.04,0.04,-9.813976249999996,0.00348640489392092,0.002180967150004497,-0.0028766024250066287,-0.011957914801319112,-0.0022275891750051543
0.315,0.0002724416000003257,-0.7844848569999988,0.00014175702200031295,-2.35598648,-5.8279091600466486e-05,1.5711556100000006,0.7858923839999996,0.04,0.04,-9.813939499999995,0.003496478684247644,0.002220521700004533,-0.002934906870006682,-0.011999136302624855,-0.0022729287300051956
0.3175,0.0002754187050003603,-0.7844740984999988,0.00014461727400034605,-2.35598718,-6.254137775051548e-05,1.5711608050000005,0.7858893544999996,0.04,0.0399999995,-9.813870599999985,0.003500794642604041,0.0022580289300037078,-0.002994855660007017,-0.012038863170896037,-0.002319443700005422
0.32,0.00027866571000031894,-0.784462903999999,0.00014773596600030632,-2.35598772,-6.718693100045632e-05,1.5711665200000005,0.7858860379999997,0.04,0.039999998,-9.813737399999987,0.0034935949370257526,0.002291441520003282,-0.003058093140006212,-0.012075600773099649,-0.0023683095000048
0.3225,0.0002819127150002776,-0.7844517094999991,0.00015085465800026662,-2.35598826,-7.183248425039717e-05,1.5711722350000004,0.7858827214999997,0.04,0.0399999965,-9.813604199999988,0.0034863952314474643,0.002324854110002857,-0.0031213306200054067,-0.012112338375303261,-0.002417175300004178
0.325,0.00028515972000023624,-0.7844405149999992,0.00015397335000022692,-2.3559888,-7.647803750033804e-05,1.5711779500000003,0.7858794049999998,0.04,0.039999994999999997,-9.813470999999991,0.0034791955258691764,0.0023582667000024314,-0.0031845681000046014,-0.012149075977506873,-0.0024660411000035558
0.3275,0.0002884067250001949,-0.7844293204999994,0.00015709204200018722,-2.3559893400000003,-8.112359075027888e-05,1.5711836650000002,0.7858760884999998,0.04,0.0399999935,-9.813337799999992,0.003471995820290888,0.0023916792900020058,-0.003247805580003796,-0.012185813579710486,-0.0025149069000029336
0.33,0.00029165373000015354,-0.7844181259999995,0.0001602107340001475,-2.35598988,-8.576914400021973e-05,1.5711893800000003,0.7858727719999998,0.04,0.039999992,-9.813204599999994,0.0034647961147125997,0.0024250918800015806,-0.003311043060002991,-0.012222551181914098,-0.0025637727000023115
0.3325,0.0002949007350001122,-0.7844069314999996,0.0001633294260001078,-2.3559904200000004,-9.041469725016058e-05,1.5711950950000002,0.7858694554999999,0.04,0.0399999905,-9.813071399999995,0.0034575964091343113,0.002458504470001155,-0.003374280540002186,-0.01225928878411771,-0.0026126385000016894
0.335,0.00029843785600014737,-0.7843952499999995,0.0001667258650001415,-2.35599039,-9.547577650021088e-05,1.5712013000000002,0.7858658349999998,0.04,0.039999991,-9.813007099999998,0.0034498881781470513,0.0025050362500021253,-0.003440627100002718,-0.012295485753567398,-0.002664255030002121
0.3375,0.00030212003500020094,-0.7843833249999993,0.00017026117750019296,-2.3559900750000002,-0.00010074461875028756,1.5712077500000003,0.7858620624999998,0.04,0.0399999925,-9.812977249999998,0.0034419256844553407,0.002558127625002898,-0.0035085282000037058,-0.01233141240664016,-0.0027172469250028924
0.34,0.00030580221400025457,-0.7843713999999992,0.0001737964900002444,-2.35598976,-0.00010601346100036424,1.5712142000000004,0.7858582899999997,0.04,0.039999994,-9.812947399999997,0.0034339631907636297,0.0026112190000036704,-0.003576429300004694,-0.012367339059712924,-0.0027702388200036634
0.3425,0.00030948439300030814,-0.7843594749999989,0.00017733180250029584,-2.355989445,-0.00011128230325044091,1.5712206500000006,0.7858545174999997,0.04,0.0399999955,-9.812917549999998,0.0034260006970719186,0.002664310375004443,-0.003644330400005682,-0.012403265712785687,-0.0028232307150044345
0.34500000000000003,0.0003131665720003617,-0.7843475499999988,0.0001808671150003473,-2.35598913,-0.00011655114550051759,1.5712271000000007,0.7858507449999996,0.04,0.039999997,-9.812887699999997,0.0034180382033802076,0.0027174017500052154,-0.0037122315000066705,-0.01243919236585845,-0.0028762226100052055
0.34750000000000003,0.0003168487510004153,-0.7843356249999986,0.00018440242750039876,-2.355988815,-0.00012181998775059427,1.5712335500000008,0.7858469724999996,0.04,0.0399999985,-9.812857849999997,0.003410075709688497,0.002770493125005988,-0.0037801326000076584,-0.012475119018931212,-0.002929214505005977
0.35000000000000003,0.00032053093000052816,-0.7843236999999983,0.00018793774000050694,-2.3559885,-0.00012708883000075546,1.5712400000000009,0.7858431999999994,0.04,0.04,-9.812827999999984,0.0034021132159946857,0.0028235845000056763,-0.003848033700009237,-0.012511045672003542,-0.0029822064000071843
0.3525,0.0003246786205004753,-0.7843109349999985,0.00019191862000045615,-2.355987855,-0.00013302134500067978,1.5712472900000007,0.7858389789999994,0.04,0.04,-9.812708749999986,0.003377659013492023,0.0028681591450051076,-0.003920570655008312,-0.012543568154800637,-0.0030386239050064646
0.355,0.00032882631100042246,-0.7842981699999987,0.00019589950000040547,-2.35598721,-0.00013895386000060427,1.5712545800000006,0.7858347579999996,0.04,0.04,-9.812589499999987,0.0033532048109893593,0.00291273379000454,-0.003993107610007388,-0.012576090637597733,-0.0030950414100057466
0.3575,0.00033297400150036964,-0.7842854049999989,0.0001998803800003548,-2.355986565,-0.00014488637500052873,1.5712618700000005,0.7858305369999996,0.04,0.04,-9.81247024999999,0.0033287506084866956,0.0029573084350039726,-0.0040656445650064646,-0.012608613120394829,-0.003151458915005028
0.36,0.00033712169200031687,-0.784272639999999,0.00020386126000030412,-2.3559859199999997,-0.0001508188900004532,1.5712691600000006,0.7858263159999996,0.04,0.04,-9.81235099999999,0.003304296405984032,0.003001883080003405,-0.0041381815200055416,-0.012641135603191925,-0.0032078764200043097
0.3625,0.00034126938250026405,-0.7842598749999992,0.0002078421400002534,-2.355985275,-0.00015675140500037767,1.5712764500000005,0.7858220949999998,0.04,0.04,-9.812231749999992,0.0032798422034813683,0.0030464577250028375,-0.004210718475004618,-0.01267365808598902,-0.0032642939250035917
0.365,0.0003454170730002112,-0.7842471099999994,0.00021182302000020273,-2.35598463,-0.00016268392000030212,1.5712837400000004,0.7858178739999998,0.04,0.04,-9.812112499999994,0.0032553880009787046,0.0030910323700022698,-0.004283255430003694,-0.012706180568786116,-0.003320711430002873
0.3675,0.0003497300840001985,-0.7842340349999994,0.00021596212500019045,-2.35598371,-0.00016885241950028384,1.5712913200000003,0.7858134819999998,0.04,0.04,-9.812022199999998,0.003231381135991642,0.00314211932500274,-0.004357394930003306,-0.012738488521428268,-0.0033783918200025733
0.37,0.00035437373600020274,-0.7842203399999994,0.00022041768000019449,-2.35598224,-0.00017549288800028988,1.5712994800000002,0.7858087479999998,0.04,0.04,-9.811989799999997,0.003208268946035611,0.0032062309000027984,-0.004434739520003376,-0.012770367413760612,-0.0034385979800026284
0.3725,0.00035901738800020694,-0.7842066449999994,0.00022487323500019855,-2.35598077,-0.00018213335650029593,1.5713076400000003,0.7858040139999998,0.04,0.04,-9.811957399999999,0.00318515675607958,0.0032703424750028572,-0.004512084110003447,-0.012802246306092956,-0.003498804140002683
0.375,0.0003636610400002112,-0.7841929499999993,0.0002293287900002026,-2.3559793,-0.00018877382500030198,1.5713158000000003,0.7857992799999998,0.04,0.04,-9.811924999999999,0.0031620445661235492,0.0033344540500029156,-0.004589428700003517,-0.0128341251984253,-0.003559010300002738
0.3775,0.0003683046920002154,-0.7841792549999994,0.00023378434500020666,-2.35597783,-0.00019541429350030802,1.5713239600000004,0.7857945459999998,0.04,0.04,-9.811892599999998,0.003138932376167518,0.003398565625002974,-0.004666773290003587,-0.012866004090757645,-0.0036192164600027926
0.38,0.00037294834400021965,-0.7841655599999994,0.0002382399000002107,-2.35597636,-0.00020205476200031404,1.5713321200000003,0.7857898119999998,0.04,0.04,-9.811860199999998,0.003115820186211487,0.0034626772000030323,-0.004744117880003658,-0.012897882983089987,-0.0036794226200028476
0.3825,0.00037759199600022385,-0.7841518649999993,0.00024269545500021477,-2.35597489,-0.0002086952305003201,1.5713402800000003,0.7857850779999997,0.04,0.04,-9.811827799999998,0.003092707996255456,0.0035267887750030907,-0.004821462470003728,-0.012929761875422332,-0.003739628780002902
0.385,0.00038258656500030097,-0.7841375029999992,0.0002474867980002887,-2.3559730599999997,-0.00021583313600042998,1.5713490500000005,0.7857799799999997,0.04,0.039999999,-9.811750499999993,0.003055469621901541,0.0035817239700029306,-0.00490198580000478,-0.012959809321911826,-0.003801972250003691
0.3875,0.00038775659250037624,-0.784122807499999,0.0002524460350003608,-2.35597105,-0.00022321976000053747,1.5713581250000006,0.7857746999999996,0.04,0.0399999975,-9.811650749999993,0.0030111681553502264,0.0036320709750036636,-0.004984098500005974,-0.012988941045480094,-0.003865384375004614
0.39,0.00039292662000045146,-0.7841081119999987,0.000257405272000433,-2.3559690399999997,-0.00023060638400064496,1.5713672000000007,0.7857694199999995,0.04,0.039999996,-9.81155099999999,0.0029668666887989114,0.003682417980004396,-0.00506621120000717,-0.013018072769048364,-0.003928796500005537
0.3925,0.0003980966475005267,-0.7840934164999985,0.00026236450900050517,-2.35596703,-0.00023799300800075247,1.5713762750000009,0.7857641399999994,0.04,0.0399999945,-9.81145124999999,0.002922565222247597,0.003732764985005129,-0.0051483239000083645,-0.013047204492616633,-0.0039922086250064595
0.395,0.0004032666750006019,-0.7840787209999983,0.00026732374600057737,-2.3559650199999997,-0.00024537963200085995,1.571385350000001,0.7857588599999994,0.04,0.039999993,-9.811351499999988,0.0028782637556962823,0.0037831119900058616,-0.005230436600009559,-0.013076336216184902,-0.004055620750007383
0.3975,0.0004084367025006772,-0.7840640254999981,0.00027228298300064957,-2.35596301,-0.00025276625600096747,1.5713944250000011,0.7857535799999993,0.04,0.0399999915,-9.811251749999986,0.0028339622891449673,0.003833458995006594,-0.005312549300010755,-0.01310546793975317,-0.004119032875008305
0.4,0.00041360673000083345,-0.7840493299999977,0.00027724222000079923,-2.3559609999999997,-0.0002601528800011906,1.5714035000000015,0.7857482999999991,0.04,0.03999999,-9.811151999999993,0.0027896608225935235,0.0038838060000112077,-0.005394662000012619,-0.013134599663321273,-0.004182445000009831
0.4025,0.00041933354550076053,-0.7840335454999979,0.0002827341640007293,-2.355958255,-0.00026833405400108644,1.5714135800000013,0.7857424499999992,0.04,0.03999999075,-9.811102199999993,0.0027444706996842586,0.003960819360010227,-0.0054813772250115154,-0.013162589212883246,-0.00424999645000897
0.405,0.0004250603610006876,-0.7840177609999981,0.0002882261080006594,-2.35595551,-0.00027651522800098226,1.571423660000001,0.7857365999999992,0.04,0.0399999915,-9.811052399999994,0.002699280576774994,0.0040378327200092465,-0.005568092450010411,-0.013190578762445221,-0.00431754790000811
0.40750000000000003,0.0004307871765006147,-0.7840019764999984,0.0002937180520005895,-2.3559527649999996,-0.0002846964020008781,1.5714337400000011,0.7857307499999994,0.04,0.03999999225,-9.811002599999995,0.0026540904538657297,0.004114846080008266,-0.005654807675009307,-0.013218568312007194,-0.0043850993500072506
0.41000000000000003,0.0004365139920005418,-0.7839861919999985,0.00029920999600051957,-2.35595002,-0.00029287757600077397,1.571443820000001,0.7857248999999995,0.04,0.039999993000000005,-9.810952799999995,0.002608900330956465,0.004191859440007285,-0.005741522900008203,-0.013246557861569168,-0.00445265080000639
0.41250000000000003,0.0004422408075004689,-0.7839704074999987,0.00030470194000044965,-2.3559472749999997,-0.0003010587500006698,1.571453900000001,0.7857190499999995,0.04,0.039999993750000004,-9.810902999999996,0.0025637102080472004,0.004268872800006305,-0.005828238125007099,-0.013274547411131142,-0.00452020225000553
0.41500000000000004,0.00044796762300039597,-0.783954622999999,0.00031019388400037974,-2.35594453,-0.0003092399240005656,1.5714639800000008,0.7857131999999997,0.04,0.039999994500000004,-9.810853199999997,0.002518520085137936,0.004345886160005324,-0.005914953350005994,-0.013302536960693116,-0.00458775370000467
0.4175,0.0004538901100003847,-0.783938434999999,0.00031587302450036885,-2.355941605,-0.00031769943550054937,1.5714743900000008,0.7857071549999997,0.04,0.039999994750000004,-9.810792049999995,0.002465632976959955,0.004416254715003477,-0.006003254475005573,-0.013329742802308532,-0.004656441885004323
0.42,0.00046020394000039047,-0.783921439999999,0.00032192655800037436,-2.35593832,-0.0003267156220005576,1.5714854600000008,0.7857007199999997,0.04,0.039999994000000004,-9.810708199999995,0.002397351898248738,0.00447333366000353,-0.0060947274000056565,-0.013355381228031265,-0.004727403540004388
0.4225,0.0004665177700003962,-0.783904444999999,0.0003279800915003799,-2.355935035,-0.0003357318085005658,1.5714965300000008,0.7856942849999996,0.04,0.039999993250000004,-9.810624349999994,0.0023290708195375207,0.004530412605003581,-0.0061862003250057395,-0.013381019653754,-0.0047983651950044524
0.425,0.00047283160000040196,-0.7838874499999989,0.0003340336250003854,-2.35593175,-0.00034474799500057397,1.5715076000000008,0.7856878499999996,0.04,0.0399999925,-9.810540499999995,0.002260789740826303,0.004587491550003634,-0.0062776732500058234,-0.013406658079476733,-0.0048693268500045175
0.4275,0.0004791454300004077,-0.783870454999999,0.0003400871585003909,-2.355928465,-0.0003537641815005822,1.5715186700000008,0.7856814149999996,0.04,0.03999999175,-9.810456649999995,0.002192508662115086,0.004644570495003685,-0.0063691461750059065,-0.013432296505199465,-0.004940288505004582
0.43,0.00048545926000041344,-0.7838534599999989,0.00034614069200039643,-2.35592518,-0.0003627803680005904,1.5715297400000006,0.7856749799999996,0.04,0.039999991,-9.810372799999994,0.002124227583403869,0.004701649440003738,-0.00646061910000599,-0.013457934930922198,-0.005011250160004647
0.4325,0.0004917730900004192,-0.7838364649999989,0.0003521942255004019,-2.355921895,-0.0003717965545005986,1.5715408100000006,0.7856685449999996,0.04,0.03999999025,-9.810288949999995,0.0020559465046926517,0.0047587283850037895,-0.006552092025006073,-0.013483573356644933,-0.005082211815004711
0.435,0.0004984983450005296,-0.7838185999999987,0.00035864132300050756,-2.3559181799999998,-0.000381398720000756,1.571552590000001,0.7856616899999994,0.04,0.03999999,-9.810233899999998,0.0019891542848148942,0.00483421687000647,-0.006646675760007345,-0.01350895259529536,-0.005155670930005707
0.4375,0.0005054293125006304,-0.7838002999999983,0.00036528520250060425,-2.3559142499999997,-0.0003912938750009,1.571564725000001,0.7856546249999994,0.04,0.03999999,-9.810193249999998,0.001923106494353643,0.004918910125007703,-0.006742814900008744,-0.013534202240409672,-0.005230378775006795
0.44,0.0005123602800007313,-0.7837819999999981,0.00037192908200070094,-2.3559103199999996,-0.00040118903000104395,1.5715768600000013,0.7856475599999992,0.04,0.03999999,-9.810152599999997,0.0018570587038923918,0.0050036033800089355,-0.006838954040010143,-0.013559451885523984,-0.005305086620007882
0.4425,0.0005192912475008321,-0.7837636999999978,0.00037857296150079763,-2.3559063899999995,-0.00041108418500118796,1.5715889950000015,0.7856404949999991,0.04,0.03999999,-9.810111949999996,0.0017910109134311406,0.0050882966350101685,-0.006935093180011542,-0.013584701530638297,-0.005379794465008969
0.445,0.000526222215000933,-0.7837453999999976,0.0003852168410008943,-2.3559024599999994,-0.000420979340001332,1.5716011300000017,0.7856334299999991,0.04,0.03999999,-9.810071299999995,0.0017249631229698894,0.005172989890011401,-0.007031232320012942,-0.013609951175752609,-0.005454502310010057
0.4475,0.0005331531825010338,-0.7837270999999972,0.000391860720500991,-2.3558985299999993,-0.00043087449500147593,1.5716132650000019,0.7856263649999989,0.04,0.03999999,-9.810030649999995,0.0016589153325086382,0.005257683145012633,-0.00712737146001434,-0.013635200820866921,-0.005529210155011143
0.45,0.0005400841500012406,-0.7837087999999968,0.00039850460000118897,-2.355894599999999,-0.00044076965000177125,1.5716254000000023,0.7856192999999988,0.04,0.03999999,-9.809989999999992,0.0015928675420422362,0.005342376400009517,-0.007223510600016514,-0.013660450465981057,-0.005603918000012858
0.4525,0.0005476621425011441,-0.783689209999997,0.00040576739300109653,-2.3558900549999993,-0.00045158877500163345,1.571638660000002,0.7856115899999988,0.03999999925,0.03999999075,-9.809936299999993,0.0014953571604417177,0.005400508750008777,-0.00732438213501523,-0.0136846247129178,-0.005682456275011858
0.455,0.0005552401350010477,-0.7836696199999973,0.00041303018600100404,-2.3558855099999993,-0.0004624079000014957,1.5716519200000019,0.7856038799999989,0.0399999985,0.0399999915,-9.809882599999993,0.0013978467788411993,0.005458641100008037,-0.007425253670013945,-0.013708798959854543,-0.005760994550010858
0.4575,0.0005628181275009512,-0.7836500299999976,0.0004202929790009116,-2.3558809649999994,-0.00047322702500135797,1.5716651800000017,0.785596169999999,0.03999999775,0.03999999225,-9.809828899999994,0.0013003363972406807,0.005516773450007297,-0.007526125205012661,-0.013732973206791284,-0.005839532825009858
0.46,0.0005703961200008547,-0.7836304399999978,0.0004275557720008191,-2.3558764199999995,-0.00048404615000122023,1.5716784400000015,0.7855884599999992,0.039999997,0.039999993000000005,-9.809775199999995,0.0012028260156401623,0.005574905800006557,-0.007626996740011376,-0.013757147453728026,-0.005918071100008858
0.4625,0.0005779741125007583,-0.7836108499999981,0.00043481856500072666,-2.3558718749999996,-0.0004948652750010825,1.5716917000000012,0.7855807499999993,0.03999999625,0.039999993750000004,-9.809721499999995,0.0011053156340396436,0.005633038150005817,-0.0077278682750100925,-0.013781321700664768,-0.005996609375007858
0.465,0.0005855521050006617,-0.7835912599999982,0.00044208135800063417,-2.3558673299999997,-0.0005056844000009446,1.571704960000001,0.7855730399999993,0.0399999955,0.039999994500000004,-9.809667799999996,0.0010078052524391252,0.005691170500005076,-0.007828739810008808,-0.01380549594760151,-0.006075147650006859
0.4675,0.0005933556750006533,-0.7835711824999984,0.000449559899000626,-2.3558625699999993,-0.0005168247355009324,1.5717186400000012,0.7855651049999993,0.039999995,0.039999995,-9.809615049999996,0.0009096005000094335,0.005757120130006457,-0.007931142375008346,-0.013829311449082528,-0.006154794855006479
0.47000000000000003,0.0006016104000006608,-0.7835501299999983,0.0004574699360006332,-2.3558573799999993,-0.0005286074920009431,1.571733160000001,0.7855567199999993,0.039999995,0.039999995,-9.809564199999997,0.0008100070059218878,0.005838704320006531,-0.008036607000008442,-0.013852409459652349,-0.006236659920006553
0.47250000000000003,0.0006098651250006683,-0.7835290774999983,0.0004653799730006404,-2.35585219,-0.0005403902485009538,1.5717476800000012,0.7855483349999993,0.039999995,0.039999995,-9.809513349999996,0.0007104135118343422,0.005920288510006606,-0.008142071625008539,-0.01387550747022217,-0.006318524985006627
0.47500000000000003,0.0006181198500006758,-0.7835080249999983,0.00047329001000064757,-2.355847,-0.0005521730050009646,1.571762200000001,0.7855399499999993,0.039999995,0.039999995,-9.809462499999997,0.0006108200177467964,0.0060018727000066795,-0.008247536250008633,-0.013898605480791991,-0.0064003900500067025
0.47750000000000004,0.0006263745750006833,-0.7834869724999982,0.00048120004700065477,-2.35584181,-0.0005639557615009753,1.5717767200000012,0.7855315649999993,0.039999995,0.039999995,-9.809411649999996,0.0005112265236592508,0.006083456890006753,-0.00835300087500873,-0.013921703491361813,-0.006482255115006777
0.48,0.0006346293000006906,-0.7834659199999983,0.0004891100840006617,-2.35583662,-0.0005757385180009858,1.5717912400000011,0.7855231799999993,0.039999995,0.039999995,-9.809360799999997,0.0004116330295717073,0.006165041080006826,-0.008458465500008823,-0.013944801501931633,-0.006564120180006849
0.4825,0.0006428840250006982,-0.7834448674999982,0.0004970201210006689,-2.35583143,-0.0005875212745009965,1.5718057600000013,0.7855147949999993,0.039999995,0.039999995,-9.809309949999996,0.00031203953548416164,0.0062466252700069,-0.008563930125008919,-0.013967899512501453,-0.006645985245006924
0.485,0.000651609486000766,-0.783422751999998,0.0005053803700007339,-2.3558257899999995,-0.0005999741110010932,1.5718211100000015,0.7855059099999993,0.039999995,0.039999995,-9.809261599999996,0.00020809462293068802,0.006333331400007631,-0.00867255300000942,-0.013990246132017988,-0.0067302064400073
0.4875,0.0006605703150007741,-0.783400104999998,0.0005139657250007417,-2.3558199249999996,-0.0006127619875011048,1.5718368750000014,0.7854967749999991,0.039999995,0.039999995,-9.809214499999996,0.00010197400114508144,0.006422598500007713,-0.008782755000009522,-0.014012217056008023,-0.006815605700007378
0.49,0.0006695311440007823,-0.783377457999998,0.0005225510800007495,-2.3558140599999997,-0.0006255498640011165,1.5718526400000015,0.7854876399999992,0.039999995,0.039999995,-9.809167399999996,-4.146620640525149e-06,0.006511865600007794,-0.00889295700000962,-0.014034187979998058,-0.006901004960007456
0.4925,0.0006784919730007905,-0.7833548109999979,0.0005311364350007574,-2.355808195,-0.0006383377405011281,1.5718684050000014,0.7854785049999992,0.039999995,0.039999995,-9.809120299999996,-0.00011026724242613179,0.0066011327000078755,-0.009003159000009722,-0.014056158903988094,-0.006986404220007534
0.495,0.0006874528020007987,-0.7833321639999979,0.0005397217900007652,-2.3558023299999995,-0.0006511256170011398,1.5718841700000015,0.7854693699999992,0.039999995,0.039999995,-9.809073199999997,-0.00021638786421173837,0.006690399800007956,-0.009113361000009822,-0.014078129827978129,-0.0070718034800076116
0.4975,0.0006964136310008068,-0.783309516999998,0.0005483071450007729,-2.3557964649999996,-0.0006639134935011514,1.5718999350000014,0.7854602349999992,0.039999995,0.039999995,-9.809026099999997,-0.000322508485997345,0.006779666900008038,-0.009223563000009923,-0.014100100751968164,-0.007157202740007689
0.5,0.0007053744600008819,-0.7832868699999977,0.0005568925000008448,-2.3557905999999997,-0.0006767013700012583,1.5719157000000015,0.7854510999999991,0.039999995,0.039999995,-9.808978999999997,-0.00042862910778606,0.006868934000005499,-0.009333765000010423,-0.01412207167595816,-0.007242602000008095
0.5025000000000001,0.0007150705500008909,-0.7832626494999978,0.0005661809800008535,-2.3557841649999993,-0.0006905369995012712,1.5719327550000015,0.7854412299999991,0.03999999575,0.03999999575,-9.808940899999998,-0.0005689270794520459,0.006929400605005556,-0.00944835390001053,-0.014143600733952669,-0.007331613050008178
0.505,0.0007247666400008996,-0.7832384289999977,0.0005754694600008617,-2.3557777299999993,-0.0007043726290012836,1.5719498100000016,0.785431359999999,0.0399999965,0.0399999965,-9.808902799999997,-0.0007092250511180255,0.0069898672100056096,-0.009562942800010632,-0.014165129791947178,-0.0074206241000082575
0.5075000000000001,0.0007344627300009085,-0.7832142084999977,0.0005847579400008703,-2.3557712949999994,-0.0007182082585012965,1.5719668650000016,0.7854214899999991,0.03999999725,0.03999999725,-9.808864699999997,-0.0008495230227840113,0.007050333815005666,-0.009677531700010738,-0.014186658849941688,-0.007509635150008341
0.51,0.0007441588200009172,-0.7831899879999977,0.0005940464200008786,-2.3557648599999994,-0.0007320438880013087,1.5719839200000014,0.785411619999999,0.039999998,0.039999998,-9.808826599999998,-0.0009898209944499909,0.00711080042000572,-0.00979212060001084,-0.014208187907936197,-0.007598646200008419
0.5125,0.0007538549100009257,-0.7831657674999977,0.0006033349000008868,-2.3557584249999994,-0.0007458795175013211,1.5720009750000015,0.785401749999999,0.03999999875,0.03999999875,-9.808788499999997,-0.0011301189661159705,0.007171267025005773,-0.009906709500010942,-0.014229716965930705,-0.007687657250008499
0.515,0.0007635510000009348,-0.7831415469999976,0.0006126233800008955,-2.355751989999999,-0.000759715147001334,1.5720180300000015,0.785391879999999,0.0399999995,0.0399999995,-9.808750399999997,-0.0012704169377819564,0.007231733630005829,-0.010021298400011048,-0.014251246023925215,-0.007776668300008581
0.5175,0.0007735017600010177,-0.7831167549999974,0.0006221554120009749,-2.355745289999999,-0.0007739132430014521,1.5720355250000018,0.7853817499999989,0.03999999975,0.04,-9.808714199999997,-0.0014090998564046946,0.007305613065009799,-0.010137409050011594,-0.014272715058179772,-0.007866790350008986
0.52,0.0007839618600010274,-0.7830908199999974,0.0006321745480009842,-2.3557380599999993,-0.000788836272001466,1.5720539000000018,0.7853710999999989,0.039999999,0.04,-9.808681799999997,-0.001544552668942366,0.007406318160009893,-0.010256563200011705,-0.014294064044954476,-0.00795913440000907
0.5225,0.0007944219600010368,-0.7830648849999974,0.0006421936840009931,-2.3557308299999993,-0.0008037593010014792,1.5720722750000018,0.7853604499999989,0.03999999825,0.04,-9.808649399999998,-0.0016800054814800312,0.007507023255009982,-0.01037571735001181,-0.01431541303172918,-0.008051478450009152
0.525,0.0008048820600010465,-0.7830389499999975,0.0006522128200010024,-2.3557235999999993,-0.0008186823300014931,1.5720906500000018,0.7853497999999989,0.0399999975,0.04,-9.808616999999998,-0.0018154582940177026,0.007607728350010076,-0.010494871500011922,-0.014336762018503885,-0.008143822500009239
0.5275,0.0008153421600010558,-0.7830130149999974,0.0006622319560010114,-2.3557163699999992,-0.0008336053590015063,1.5721090250000018,0.7853391499999989,0.03999999675,0.04,-9.808584599999998,-0.0019509111065553679,0.007708433445010166,-0.010614025650012028,-0.01435811100527859,-0.00823616655000932
0.53,0.0008258022600010655,-0.7829870799999974,0.0006722510920010207,-2.355709139999999,-0.0008485283880015203,1.5721274000000018,0.7853284999999989,0.039999996,0.04,-9.808552199999998,-0.002086363919093039,0.00780913854001026,-0.010733179800012139,-0.014379459992053294,-0.008328510600009408
0.5325,0.0008362623600010749,-0.7829611449999974,0.0006822702280010296,-2.355701909999999,-0.0008634514170015336,1.5721457750000019,0.7853178499999989,0.03999999525,0.04,-9.808519799999997,-0.0022218167316307045,0.00790984363501035,-0.010852333950012245,-0.014400808978827999,-0.008420854650009489
0.535,0.0008472507470011668,-0.7829340629999971,0.0006927945400011175,-2.3556942099999993,-0.0008791253700016643,1.572165100000002,0.7853066669999988,0.039999995,0.0399999995,-9.808477499999995,-0.0023812212981460714,0.007986886100006762,-0.010974461400012818,-0.01442155037075492,-0.008515393100009917
0.5375,0.0008585032775011768,-0.7829064074999972,0.0007035714400011271,-2.355686274999999,-0.0008951747850016786,1.572184900000002,0.7852952174999988,0.039999995,0.03999999875,-9.808430249999995,-0.0025526017416447238,0.00805209725000682,-0.011098075500012928,-0.014441987965258087,-0.008611028750010002
0.54,0.0008697558080011873,-0.7828787519999971,0.0007143483400011371,-2.3556783399999994,-0.0009112242000016935,1.5722047000000021,0.7852837679999988,0.039999995,0.039999998,-9.808382999999996,-0.0027239821851433835,0.00811730840000688,-0.011221689600013043,-0.014462425559761257,-0.00870666440001009
0.5425,0.0008810083385011973,-0.7828510964999971,0.0007251252400011467,-2.3556704049999992,-0.0009272736150017077,1.5722245000000021,0.7852723184999988,0.039999995,0.03999999725,-9.808335749999996,-0.0028953626286420354,0.008182519550006939,-0.011345303700013153,-0.014482863154264424,-0.008802300050010176
0.545,0.0008922608690012078,-0.782823440999997,0.0007359021400011568,-2.355662469999999,-0.0009433230300017227,1.5722443000000021,0.7852608689999987,0.039999995,0.0399999965,-9.808288499999996,-0.0030667430721406956,0.008247730700006999,-0.011468917800013268,-0.014503300748767593,-0.008897935700010266
0.5475,0.0009035133995012178,-0.7827957854999971,0.0007466790400011663,-2.3556545349999993,-0.000959372445001737,1.5722641000000022,0.7852494194999987,0.039999995,0.03999999575,-9.808241249999995,-0.0032381235156393475,0.008312941850007057,-0.011592531900013378,-0.014523738343270762,-0.008993571350010351
0.55,0.0009147659300013178,-0.7827681299999968,0.000757455940001262,-2.355646599999999,-0.0009754218600018793,1.5722839000000022,0.7852379699999986,0.039999995,0.039999995,-9.808193999999995,-0.003409503959137662,0.008378153000011476,-0.011716146000013977,-0.014544175937773837,-0.009089207000010808
0.5525,0.0009268389305013286,-0.7827386249999968,0.0007690174315012723,-2.355637914999999,-0.0009926375610018945,1.5723050950000024,0.7852256894999986,0.03999999575,0.039999995,-9.808147049999995,-0.0035777226090616017,0.008483287550011568,-0.01184419050001409,-0.014563758997248684,-0.009188208050010895
0.555,0.0009389119310013398,-0.7827091199999967,0.0007805789230012831,-2.355629229999999,-0.0010098532620019106,1.5723262900000023,0.7852134089999986,0.0399999965,0.039999995,-9.808100099999995,-0.0037459412589855483,0.008588422100011667,-0.01197223500001421,-0.014583342056723533,-0.009287209100010987
0.5575,0.0009509849315013505,-0.7826796149999967,0.0007921404145012933,-2.355620544999999,-0.001027068963001926,1.5723474850000023,0.7852011284999986,0.03999999725,0.039999995,-9.808053149999996,-0.003914159908909488,0.008693556650011761,-0.012100279500014324,-0.01460292511619838,-0.009386210150011075
0.56,0.0009630579320013618,-0.7826501099999966,0.0008037019060013041,-2.3556118599999993,-0.001044284664001942,1.5723686800000025,0.7851888479999987,0.039999998,0.039999995,-9.808006199999994,-0.004082378558833435,0.008798691200011859,-0.012228324000014444,-0.014622508175673229,-0.009485211200011168
0.5625,0.0009751309325013726,-0.7826206049999966,0.0008152633975013144,-2.3556031749999993,-0.0010615003650019572,1.5723898750000025,0.7851765674999986,0.03999999875,0.039999995,-9.807959249999994,-0.004250597208757374,0.008903825750011952,-0.012356368500014557,-0.014642091235148076,-0.009584212250011256
0.5650000000000001,0.000987203933001384,-0.7825910999999965,0.0008268248890013251,-2.355594489999999,-0.0010787160660019732,1.5724110700000025,0.7851642869999986,0.0399999995,0.039999995,-9.807912299999995,-0.004418815858681321,0.00900896030001205,-0.012484413000014676,-0.014661674294622925,-0.009683213300011349
0.5675,0.0009995596600014926,-0.7825609684999963,0.0008386567125014291,-2.355585549999999,-0.0010963345650021282,1.5724327700000027,0.7851517199999986,0.04,0.03999999525,-9.807869649999995,-0.004600948886970002,0.009102639750008175,-0.012613910575015293,-0.014681146619843613,-0.009783395000011845
0.5700000000000001,0.0010124808400015046,-0.7825295839999963,0.0008510292000014406,-2.355576099999999,-0.0011147586600021454,1.5724554800000028,0.7851385799999985,0.04,0.039999996,-9.807835599999995,-0.004810910671973748,0.00917340900000824,-0.012746314300015417,-0.014700397476556102,-0.00988593800001194
0.5725,0.001025402020001516,-0.7824981994999963,0.0008634016875014517,-2.3555666499999988,-0.0011331827550021616,1.5724781900000027,0.7851254399999985,0.04,0.03999999675,-9.807801549999995,-0.0050208724569774845,0.009244178250008303,-0.012878718025015534,-0.014719648333268588,-0.009988481000012032
0.5750000000000001,0.0010383232000015282,-0.7824668149999963,0.0008757741750014631,-2.355557199999999,-0.0011516068500021788,1.5725009000000028,0.7851122999999984,0.04,0.0399999975,-9.807767499999995,-0.00523083424198123,0.00931494750000837,-0.013011121750015658,-0.014738899189981076,-0.010091024000012128
0.5775,0.0010512443800015396,-0.7824354304999962,0.0008881466625014742,-2.355547749999999,-0.0011700309450021953,1.5725236100000028,0.7850991599999984,0.04,0.03999999825,-9.807733449999995,-0.005440796026984967,0.009385716750008433,-0.013143525475015776,-0.014758150046693563,-0.010193567000012218
0.58,0.001064165560001551,-0.7824040459999962,0.0009005191500014852,-2.3555382999999988,-0.0011884550400022115,1.5725463200000027,0.7850860199999984,0.04,0.039999999,-9.807699399999995,-0.005650757811988703,0.009456486000008495,-0.013275929200015893,-0.014777400903406051,-0.010296110000012309
0.5825,0.0010770867400015632,-0.7823726614999962,0.0009128916375014968,-2.355528849999999,-0.0012068791350022287,1.5725690300000028,0.7850728799999983,0.04,0.03999999975,-9.807665349999995,-0.005860719596992449,0.00952725525000856,-0.013408332925016017,-0.014796651760118538,-0.010398653000012404
0.585,0.0010905914600016812,-0.782339959999996,0.0009258221400016097,-2.3555189099999985,-0.0012261334000023968,1.572592770000003,0.7850591549999982,0.04,0.04,-9.807628399999995,-0.006064954958880599,0.00962229400001306,-0.013543651900016667,-0.014815549738707431,-0.010503284700012877
0.5875,0.0011043879500016941,-0.782306599999996,0.000939031650001622,-2.3555087249999986,-0.001245802750002415,1.572617025000003,0.7850451374999983,0.04,0.04,-9.807589999999994,-0.0062663271092125265,0.00972946750001316,-0.013680428500016795,-0.014834271278234624,-0.010608960750012976
0.59,0.0011181844400017064,-0.7822732399999959,0.0009522411600016337,-2.355498539999999,-0.0012654721000024327,1.5726412800000031,0.7850311199999982,0.04,0.04,-9.807551599999995,-0.006467699259544445,0.009836641000013255,-0.013817205100016916,-0.014852992817761815,-0.01071463680001307
0.5925,0.0011319809300017192,-0.7822398799999959,0.000965450670001646,-2.3554883549999985,-0.001285141450002451,1.572665535000003,0.7850171024999982,0.04,0.04,-9.807513199999995,-0.006669071409876374,0.009943814500013356,-0.013953981700017043,-0.014871714357289009,-0.010820312850013168
0.595,0.0011457774200017315,-0.7822065199999958,0.0009786601800016578,-2.3554781699999987,-0.0013048108000024683,1.572689790000003,0.7850030849999983,0.04,0.04,-9.807474799999994,-0.0068704435602082925,0.010050988000013451,-0.014090758300017166,-0.0148904358968162,-0.010925988900013263
0.5975,0.0011595739100017444,-0.7821731599999958,0.00099186969000167,-2.3554679849999984,-0.0013244801500024868,1.572714045000003,0.7849890674999982,0.04,0.04,-9.807436399999995,-0.00707181571054022,0.01015816150001355,-0.014227534900017292,-0.014909157436343393,-0.011031664950013361
0.6,0.0011733704000018717,-0.7821397999999955,0.0010050792000017917,-2.3554577999999986,-0.0013441495000026677,1.5727383000000033,0.7849750499999981,0.04,0.04,-9.807397999999996,-0.007273187860877885,0.010265335000009394,-0.014364311500017955,-0.014927878975870543,-0.011137341000013876
0.6025,0.0011880691700020857,-0.782104399999995,0.0010191513750019967,-2.3554468499999985,-0.0013651034200029733,1.5727641300000037,0.7849601099999979,0.03999999925,0.04,-9.807365299999995,-0.007519686082412982,0.01033912015001047,-0.014505345325020012,-0.014946279209109747,-0.011246327250015465
0.605,0.0012027679400022993,-0.7820689999999945,0.0010332235500022011,-2.355435899999998,-0.0013860573400032777,1.572789960000004,0.7849451699999976,0.0399999985,0.04,-9.807332599999995,-0.007766184303948069,0.010412905300011542,-0.01464637915002206,-0.014964679442348949,-0.01135531350001705
0.6075,0.0012174667100025135,-0.782033599999994,0.0010472957250024064,-2.355424949999998,-0.0014070112600035832,1.5728157900000044,0.7849302299999975,0.03999999775,0.04,-9.807299899999995,-0.008012682525483166,0.010486690450012617,-0.014787412975024117,-0.014983079675588153,-0.011464299750018636
0.61,0.0012321654800027271,-0.7819981999999934,0.0010613679000026108,-2.355413999999998,-0.0014279651800038877,1.5728416200000048,0.7849152899999973,0.039999997,0.04,-9.807267199999995,-0.008259180747018252,0.01056047560001369,-0.014928446800026167,-0.015001479908827355,-0.01157328600002022
0.6125,0.0012468642500029412,-0.781962799999993,0.0010754400750028158,-2.355403049999998,-0.001448919100004193,1.5728674500000053,0.784900349999997,0.03999999625,0.04,-9.807234499999995,-0.008505678968553351,0.010634260750014765,-0.015069480625028222,-0.015019880142066558,-0.01168227225002181
0.615,0.0012615630200031548,-0.7819273999999924,0.0010895122500030204,-2.3553920999999978,-0.0014698730200044976,1.5728932800000057,0.7848854099999968,0.0399999955,0.04,-9.807201799999994,-0.008752177190088438,0.010708045900015837,-0.015210514450030271,-0.01503828037530576,-0.011791258500023393
0.6175,0.0012765713000034398,-0.7818912919999917,0.001103880380003293,-2.3553809049999974,-0.0014912676900049034,1.5729196600000062,0.7848701574999966,0.039999994750000004,0.04,-9.807168449999994,-0.008996492857166243,0.010794112750024351,-0.015352942500031965,-0.015056563820693859,-0.01190128870002468
0.62,0.0012921986000032405,-0.7818537679999923,0.001118840420003102,-2.3553692199999974,-0.0015135438600046194,1.5729471400000057,0.7848542799999967,0.039999994000000004,0.04,-9.807133799999994,-0.009236443415333856,0.010904743000022941,-0.015498159000030112,-0.015074613690379983,-0.01201340680002325
0.6225,0.0013078259000030418,-0.7818162439999927,0.001133800460002912,-2.355357534999998,-0.001535820030004336,1.5729746200000054,0.7848384024999969,0.039999993250000004,0.04,-9.807099149999994,-0.009476393973501482,0.011015373250021535,-0.015643375500028266,-0.015092663560066109,-0.012125524900021825
0.625,0.0013234532000028427,-0.7817787199999933,0.001148760500002721,-2.3553458499999977,-0.001558096200004052,1.5730021000000052,0.784822524999997,0.0399999925,0.04,-9.807064499999994,-0.009716344531669096,0.011126003500020123,-0.015788592000026417,-0.015110713429752233,-0.012237643000020395
0.6275000000000001,0.001339080500002644,-0.7817411959999937,0.001163720540002531,-2.355334164999998,-0.0015803723700037688,1.5730295800000047,0.7848066474999973,0.03999999175,0.04,-9.807029849999994,-0.009956295089836722,0.011236633750018718,-0.01593380850002457,-0.01512876329943836,-0.01234976110001897
0.63,0.0013547078000024446,-0.7817036719999941,0.0011786805800023403,-2.355322479999998,-0.0016026485400034848,1.5730570600000044,0.7847907699999975,0.039999991,0.04,-9.806995199999994,-0.010196245648004336,0.011347264000017307,-0.016079025000022718,-0.015146813169124484,-0.01246187920001754
0.6325000000000001,0.0013703351000022462,-0.7816661479999947,0.00119364062000215,-2.3553107949999985,-0.0016249247100032014,1.573084540000004,0.7847748924999977,0.03999999025,0.04,-9.806960549999994,-0.010436196206171961,0.011457894250015902,-0.016224241500020872,-0.01516486303881061,-0.012573997300016114
0.635,0.0013865987100026241,-0.7816271859999937,0.001209209010002512,-2.355298509999998,-0.0016481066400037402,1.5731131400000047,0.7847583639999973,0.039999989799999996,0.04,-9.806935199999996,-0.01070609018211098,0.011544591400011827,-0.01637222430002364,-0.015182917937639139,-0.01268816430001823
0.6375000000000001,0.0014031804750030922,-0.7815875049999926,0.0012250815750029598,-2.355285924999998,-0.0016717414500044072,1.5731423000000055,0.7847415099999968,0.0399999895,0.04,-9.806914499999996,-0.010990955866926319,0.011619322000013936,-0.016521590250027855,-0.015200975351038868,-0.01280335575002148
0.64,0.0014197622400035593,-0.7815478239999915,0.001240954140003407,-2.3552733399999974,-0.001695376260005073,1.5731714600000064,0.7847246559999964,0.0399999892,0.04,-9.806893799999996,-0.011275821551741644,0.01169405260001604,-0.01667095620003206,-0.015219032764438596,-0.012918547200024725
0.6425,0.0014363440050040265,-0.7815081429999904,0.001256826705003854,-2.355260754999997,-0.001719011070005739,1.573200620000007,0.7847078019999959,0.0399999889,0.04,-9.806873099999995,-0.01156068723655697,0.011768783200018146,-0.01682032215003627,-0.015237090177838326,-0.01303373865002797
0.645,0.0014529257700044943,-0.7814684619999892,0.001272699270004302,-2.3552481699999968,-0.0017426458800064058,1.573229780000008,0.7846909479999954,0.0399999886,0.04,-9.806852399999993,-0.011845552921372309,0.011843513800020255,-0.016969688100040483,-0.015255147591238055,-0.01314893010003122
0.6475,0.0014695075350049614,-0.7814287809999881,0.0012885718350047492,-2.3552355849999964,-0.0017662806900070717,1.5732589400000088,0.784674093999995,0.0399999883,0.04,-9.806831699999993,-0.012130418606187634,0.01191824440002236,-0.017119054050044692,-0.015273205004637783,-0.013264121550034466
0.65,0.0014860893000057502,-0.7813890999999862,0.0013044444000055039,-2.3552229999999956,-0.0017899155000081959,1.5732881000000103,0.7846572399999941,0.039999988,0.04,-9.806810999999984,-0.012415284291001569,0.011992975000037539,-0.017268420000050227,-0.015291262418037256,-0.013379313000038738
0.6525,0.0015036510450055262,-0.7813471899999868,0.0013212538350052894,-2.3552096799999958,-0.0018149466000078765,1.5733189850000098,0.7846393944999944,0.0399999868,0.04,-9.806763449999984,-0.01269586291172982,0.012107624650036076,-0.017421823800048274,-0.015308536542584886,-0.01349762505003723
0.655,0.001521212790005303,-0.7813052799999873,0.0013380632700050758,-2.355196359999996,-0.0018399777000075584,1.5733498700000095,0.7846215489999946,0.039999985599999996,0.04,-9.806715899999986,-0.012976441532458085,0.012222274300034619,-0.017575227600046324,-0.015325810667132516,-0.013615937100035726
0.6575,0.001538774535005079,-0.7812633699999879,0.0013548727050048614,-2.3551830399999965,-0.0018650088000072393,1.573380755000009,0.7846037034999949,0.0399999844,0.04,-9.806668349999986,-0.013257020153186335,0.012336923950033158,-0.017728631400044367,-0.015343084791680147,-0.013734249150034216
0.66,0.0015563362800048559,-0.7812214599999884,0.0013716821400046478,-2.3551697199999966,-0.0018900399000069212,1.5734116400000084,0.784585857999995,0.0399999832,0.04,-9.806620799999987,-0.013537598773914599,0.0124515736000317,-0.017882035200042418,-0.015360358916227777,-0.013852561200032714
0.6625,0.0015738980250046318,-0.781179549999989,0.0013884915750044333,-2.3551563999999967,-0.0019150710000066019,1.5734425250000081,0.7845680124999953,0.039999981999999996,0.04,-9.806573249999987,-0.01381817739464285,0.012566223250030237,-0.01803543900004046,-0.015377633040775406,-0.013970873250031204
0.665,0.0015914597700044085,-0.7811376399999895,0.0014053010100042198,-2.355143079999997,-0.0019401021000062838,1.5734734100000076,0.7845501669999955,0.039999980799999994,0.04,-9.80652569999999,-0.014098756015371115,0.01268087290002878,-0.01818884280003851,-0.015394907165323036,-0.0140891853000297
0.6675,0.001609356445004424,-0.7810949534999895,0.0014224307050042342,-2.355129469999997,-0.001965609915006305,1.5735048750000078,0.7845319844999955,0.03999997985,0.04,-9.806490649999999,-0.01439448809258951,0.01278311580001845,-0.018343593050037518,-0.01541229924187482,-0.014208440200028864
0.67,0.001627922980004188,-0.78105071399999,0.0014402009200040083,-2.355115279999997,-0.001992071160005969,1.5735375000000074,0.7845131279999957,0.039999979399999996,0.04,-9.806480599999999,-0.014720527082755125,0.012860545200017465,-0.018501036200035514,-0.015429927222434655,-0.014329580800027325
0.6725,0.0016464895150039513,-0.7810064744999906,0.0014579711350037818,-2.355101089999997,-0.0020185324050056314,1.573570125000007,0.784494271499996,0.03999997895,0.04,-9.806470549999998,-0.015046566072920728,0.012937974600016477,-0.018658479350033508,-0.015447555202994491,-0.01445072140002578
0.675,0.0016650560500037152,-0.7809622349999912,0.001475741350003556,-2.355086899999997,-0.0020449936500052954,1.5736027500000065,0.7844754149999963,0.0399999785,0.04,-9.806460499999998,-0.015372605063086343,0.013015404000015494,-0.018815922500031505,-0.015465183183554327,-0.01457186200002424
0.6775,0.0016836225850034785,-0.7809179954999917,0.0014935115650033292,-2.3550727099999973,-0.0020714548950049576,1.573635375000006,0.7844565584999965,0.039999978049999996,0.04,-9.806450449999998,-0.015698644053251946,0.013092833400014506,-0.018973365650029498,-0.015482811164114162,-0.014693002600022695
0.68,0.0017021891200032424,-0.7808737559999923,0.0015112817800031035,-2.3550585199999974,-0.0020979161400046216,1.5736680000000056,0.7844377019999967,0.0399999776,0.04,-9.806440399999998,-0.016024683043417563,0.013170262800013523,-0.019130808800027495,-0.015500439144673998,-0.014814143200021156
0.6825,0.0017207556550030056,-0.7808295164999929,0.0015290519950028768,-2.355044329999998,-0.002124377385004284,1.5737006250000052,0.784418845499997,0.03999997715,0.04,-9.806430349999998,-0.016350722033583162,0.013247692200012534,-0.019288251950025488,-0.015518067125233834,-0.01493528380001961
0.685,0.0017400083600032797,-0.7807837029999922,0.001547478310003139,-2.3550295599999975,-0.0021518137300046737,1.5737344500000057,0.7843992939999967,0.0399999766,0.0399999995,-9.806402999999994,-0.01667314674710624,0.013350405400019307,-0.01944836740002702,-0.015535543020817522,-0.015058269300020738
0.6875,0.0017596041500035644,-0.7807371024999915,0.0015662326750034113,-2.355014499999997,-0.0021797376250050795,1.5737688750000063,0.7843793949999964,0.039999976,0.03999999875,-9.806366999999993,-0.01699376432230932,0.013465760500020983,-0.019609819000029366,-0.01555294287391319,-0.015182177250022539
0.6900000000000001,0.00177919994000385,-0.7806905019999909,0.0015849870400036848,-2.354999439999997,-0.0022076615200054862,1.5738033000000067,0.7843594959999961,0.0399999754,0.039999998,-9.806330999999993,-0.017314381897512415,0.013581115600022663,-0.01977127060003172,-0.015570342727008859,-0.015306085200024345
0.6925,0.0017987957300041348,-0.7806439014999902,0.0016037414050039573,-2.3549843799999968,-0.002235585415005892,1.5738377250000073,0.7843395969999958,0.0399999748,0.03999999725,-9.806294999999992,-0.017634999472715494,0.01369647070002434,-0.019932722200034066,-0.015587742580104527,-0.015429993150026146
0.6950000000000001,0.0018183915200044203,-0.7805973009999895,0.0016224957700042306,-2.354969319999997,-0.0022635093100062988,1.5738721500000077,0.7843196979999956,0.0399999742,0.0399999965,-9.806258999999992,-0.017955617047918586,0.013811825800026021,-0.02009417380003642,-0.015605142433200195,-0.015553901100027951
0.6975,0.0018379873100047052,-0.7805507004999889,0.0016412501350045032,-2.3549542599999964,-0.0022914332050067046,1.5739065750000083,0.7842997989999952,0.0399999736,0.03999999575,-9.80622299999999,-0.018276234623121664,0.013927180900027697,-0.020255625400038765,-0.015622542286295862,-0.015677809050029752
0.7000000000000001,0.001857583100005259,-0.7805040999999876,0.001660004500005033,-2.354939199999996,-0.002319357100007494,1.5739410000000094,0.7842798999999947,0.039999973,0.039999995,-9.806186999999992,-0.018596852198338037,0.014042536000020167,-0.020417077000042097,-0.015639942139391495,-0.01580171700003234
0.7025,0.0018782320400052774,-0.7804550709999875,0.0016797657850050505,-2.3549231799999957,-0.00234878168500752,1.5739772850000093,0.7842589224999946,0.03999997195,0.039999995,-9.806160449999993,-0.018969618901705593,0.014121722950020238,-0.020582378200042245,-0.01565719572827657,-0.01592868945003245
0.705,0.0018988809800052956,-0.7804060419999874,0.001699527070005068,-2.354907159999996,-0.002378206270007546,1.5740135700000093,0.7842379449999947,0.0399999709,0.039999995,-9.806133899999994,-0.01934238560507315,0.014200909900020308,-0.020747679400042393,-0.015674449317161644,-0.01605566190003256
0.7075,0.0019195299200053149,-0.7803570129999874,0.0017192883550050865,-2.354891139999996,-0.002407630855007574,1.5740498550000095,0.7842169674999946,0.03999996985,0.039999995,-9.806107349999992,-0.019715152308440724,0.014280096850020381,-0.020912980600042548,-0.015691702906046722,-0.01618263435003268
0.71,0.0019401788600053333,-0.7803079839999874,0.001739049640005104,-2.3548751199999955,-0.0024370554400076,1.5740861400000095,0.7841959899999946,0.0399999688,0.039999995,-9.806080799999993,-0.02008791901180828,0.014359283800020451,-0.021078281800042693,-0.015708956494931797,-0.016309606800032794
0.7125,0.001960827800005353,-0.7802589549999873,0.0017588109250051224,-2.3548590999999957,-0.0024664800250076275,1.5741224250000094,0.7841750124999946,0.03999996775,0.039999995,-9.806054249999994,-0.020460685715175852,0.014438470750020525,-0.021243583000042848,-0.01572621008381687,-0.01643657925003291
0.715,0.001981476740005371,-0.7802099259999873,0.00177857221000514,-2.3548430799999958,-0.0024959046100076535,1.5741587100000094,0.7841540349999945,0.0399999667,0.039999995,-9.806027699999994,-0.020833452418543407,0.014517657700020597,-0.021408884200042996,-0.01574346367270195,-0.016563551700033024
0.7175,0.0020024845650055724,-0.7801600629999867,0.0017986766300053325,-2.3548268099999956,-0.0025258402500079402,1.5741956250000098,0.7841326974999944,0.0399999656,0.039999995,-9.805997849999992,-0.021208252664752528,0.014603136050025152,-0.021575458050043378,-0.01576053770259443,-0.016691436150033268
0.72,0.0020242101600052953,-0.7801085319999874,0.0018194673200050673,-2.354810039999996,-0.0025567980000075455,1.5742338000000093,0.7841106399999946,0.0399999644,0.039999995,-9.805961399999992,-0.021587119996639963,0.0147011972000239,-0.02174457720004122,-0.015777252614502135,-0.016821144600031614
0.7225,0.002045935755005019,-0.7800570009999881,0.0018402580100048032,-2.354793269999996,-0.002587755750007152,1.574271975000009,0.7840885824999949,0.0399999632,0.039999995,-9.805924949999993,-0.021965987328527413,0.014799258350022654,-0.02191369635003907,-0.015793967526409842,-0.016950853050029965
0.725,0.002067661350004742,-0.7800054699999888,0.001861048700004538,-2.3547764999999963,-0.0026187135000067573,1.5743101500000085,0.7840665249999952,0.039999962,0.039999995,-9.805888499999993,-0.022344854660414845,0.014897319500021404,-0.022082815500036913,-0.01581068243831755,-0.01708056150002831
0.7275,0.002089386945004466,-0.7799539389999893,0.0018818393900042738,-2.3547597299999965,-0.002649671250006364,1.5743483250000079,0.7840444674999955,0.0399999608,0.039999995,-9.805852049999991,-0.022723721992302295,0.014995380650020157,-0.022251934650034763,-0.015827397350225255,-0.017210269950026662
0.73,0.002111112540004189,-0.77990240799999,0.0019026300800040086,-2.3547429599999967,-0.002680629000005969,1.5743865000000075,0.7840224099999957,0.0399999596,0.039999995,-9.805815599999992,-0.023102589324189727,0.015093441800018906,-0.022421053800032606,-0.01584411226213296,-0.01733997840002501
0.7325,0.0021328381350039127,-0.7798508769999907,0.0019234207700037445,-2.354726189999997,-0.0027115867500055756,1.574424675000007,0.7840003524999961,0.0399999584,0.039999995,-9.805779149999992,-0.023481456656077176,0.01519150295001766,-0.02259017295003046,-0.01586082717404067,-0.01746968685002336
0.735,0.0021552968400042347,-0.7797976499999899,0.0019449123000040524,-2.3547087999999965,-0.0027435882800060343,1.5744640900000075,0.7839775499999957,0.0399999572,0.0399999943,-9.805762399999999,-0.023864977434349108,0.015305196300022543,-0.02276180840003208,-0.015878128074112784,-0.017601099500024538
0.7375,0.0021781221000045673,-0.7797435749999891,0.0019667542500043707,-2.3546910999999966,-0.0027761117000065084,1.574504125000008,0.7839543749999954,0.039999956,0.039999993250000004,-9.805755499999998,-0.02425082493581146,0.015426705750024314,-0.0229347020000346,-0.01589572196826687,-0.017733364250026466
0.74,0.002200947360004899,-0.7796894999999884,0.001988596200004688,-2.3546733999999963,-0.0028086351200069808,1.5745441600000087,0.783931199999995,0.0399999548,0.0399999922,-9.805748599999998,-0.024636672437273795,0.01554821520002608,-0.02310759560003711,-0.015913315862420955,-0.017865629000028388
0.7425,0.0022237726200052318,-0.7796354249999876,0.0020104381500050065,-2.354655699999996,-0.002841158540007455,1.5745841950000092,0.7839080249999947,0.0399999536,0.039999991150000004,-9.805741699999999,-0.02502251993873615,0.01566972465002785,-0.02328048920003963,-0.015930909756575042,-0.017997893750030317
0.745,0.0022465978800055636,-0.7795813499999867,0.002032280100005324,-2.3546379999999956,-0.0028736819600079276,1.5746242300000097,0.7838848499999944,0.0399999524,0.0399999901,-9.805734799999998,-0.025408367440198486,0.015791234100029618,-0.023453382800042142,-0.01594850365072913,-0.018130158500032238
0.7475,0.002269423140005896,-0.779527274999986,0.0020541220500056422,-2.3546202999999957,-0.0029062053800084013,1.5746642650000104,0.783861674999994,0.0399999512,0.039999989050000004,-9.805727899999999,-0.025794214941660842,0.015912743550031385,-0.023626276400044662,-0.015966097544883213,-0.018262423250034167
0.75,0.0022922484000065337,-0.7794731999999845,0.0020759640000062524,-2.3546025999999953,-0.0029387288000093095,1.5747043000000116,0.7838384999999933,0.03999995,0.039999988,-9.805720999999991,-0.02618006244313765,0.016034253000021856,-0.02379917000004819,-0.015983691439037252,-0.018394688000036723
0.7525000000000001,0.0023161955400062295,-0.7794165494999853,0.002098878705005961,-2.3545839699999953,-0.002972847890008876,1.574746375000011,0.7838141849999937,0.03999994955,0.0399999874,-9.805690699999992,-0.02661894336354223,0.016114361400020837,-0.023975771900045944,-0.016001111269001677,-0.018529281050035012
0.755,0.002340142680005924,-0.7793598989999859,0.0021217934100056686,-2.3545653399999957,-0.0030069669800084405,1.5747884500000104,0.783789869999994,0.0399999491,0.0399999868,-9.805660399999992,-0.027057824283946794,0.016194469800019817,-0.02415237380004369,-0.016018531098966098,-0.018663874100033295
0.7575000000000001,0.0023640898200056196,-0.7793032484999867,0.0021447081150053776,-2.3545467099999957,-0.003041086070008007,1.5748305250000099,0.7837655549999943,0.03999994865,0.039999986200000004,-9.805630099999993,-0.027496705204351376,0.016274578200018798,-0.024328975700041444,-0.016035950928930523,-0.018798467150031584
0.76,0.002388036960005314,-0.7792465979999874,0.0021676228200050852,-2.354528079999996,-0.0030752051600075716,1.5748726000000093,0.7837412399999947,0.0399999482,0.0399999856,-9.805599799999994,-0.027935586124755937,0.016354686600017775,-0.024505577600039193,-0.016053370758894944,-0.01893306020002987
0.7625000000000001,0.0024119841000050097,-0.7791899474999882,0.0021905375250047938,-2.354509449999996,-0.003109324250007138,1.5749146750000087,0.7837169249999949,0.03999994775,0.039999985,-9.805569499999994,-0.028374467045160518,0.01643479500001676,-0.024682179500036948,-0.01607079058885937,-0.01906765325002816
0.765,0.0024359312400047046,-0.7791332969999889,0.002213452230004502,-2.3544908199999965,-0.003143443340006703,1.5749567500000083,0.7836926099999952,0.0399999473,0.0399999844,-9.805539199999995,-0.028813347965565082,0.016514903400015737,-0.024858781400034696,-0.01608821041882379,-0.01920224630002644
0.7675000000000001,0.0024602596350047244,-0.7790757634999889,0.0022367314850045205,-2.3544718649999963,-0.0031781048100067307,1.5749995050000083,0.7836679049999953,0.0399999468,0.039999984,-9.805509449999995,-0.029251237958751702,0.016609772750023424,-0.025036591900033937,-0.016105517931285725,-0.019337820750025898
0.77,0.0024853505400047465,-0.7790164639999888,0.002260739840004542,-2.3544522599999964,-0.0032138510400067624,1.5750436200000084,0.7836424199999952,0.039999946200000004,0.039999984,-9.805480799999994,-0.029687146097504065,0.016734164000023533,-0.025216819600034097,-0.016122600808742872,-0.01947535800002602
0.7725,0.002510441445004769,-0.7789571644999888,0.0022847481950045634,-2.354432654999996,-0.003249597270006794,1.5750877350000083,0.7836169349999952,0.0399999456,0.039999984,-9.805452149999995,-0.030123054236256427,0.016858555250023645,-0.025397047300034257,-0.016139683686200015,-0.01961289525002614
0.775,0.0025355323500047926,-0.7788978649999886,0.0023087565500045856,-2.3544130499999962,-0.0032853435000068276,1.5751318500000084,0.7835914499999952,0.039999945,0.039999984,-9.805423499999995,-0.03055896237500881,0.01698294650002376,-0.025577275000034424,-0.016156766563657162,-0.01975043250002627
0.7775,0.0025606232550048147,-0.7788385654999885,0.002332764905004607,-2.3543934449999964,-0.0033210897300068594,1.5751759650000086,0.7835659649999951,0.0399999444,0.039999984,-9.805394849999994,-0.030994870513761173,0.01710733775002387,-0.025757502700034584,-0.016173849441114305,-0.019887969750026394
0.78,0.002585714160004838,-0.7787792659999885,0.0023567732600046293,-2.354373839999996,-0.003356835960006893,1.5752200800000085,0.7835404799999951,0.0399999438,0.039999984,-9.805366199999995,-0.03143077865251356,0.017231729000023985,-0.02593773040003475,-0.016190932318571452,-0.020025507000026522
0.7825,0.0026108050650048603,-0.7787199664999884,0.0023807816150046507,-2.354354234999996,-0.0033925821900069246,1.5752641950000086,0.7835149949999951,0.039999943200000006,0.039999984,-9.805337549999994,-0.03186668679126592,0.017356120250024098,-0.02611795810003491,-0.0162080151960286,-0.020163044250026643
0.785,0.0026366727700053495,-0.7786588599999873,0.0024055326600051184,-2.3543339899999958,-0.0034294332400076205,1.5753096300000093,0.7834887329999946,0.0399999427,0.039999983600000004,-9.805311999999995,-0.03233720846484101,0.017450385400016137,-0.026300530300037435,-0.01622493937611915,-0.02030204620002847
0.7875,0.002662928875005731,-0.7785968499999865,0.0024306550500054836,-2.3543134249999955,-0.0034668367000081643,1.57535572500001,0.7834620824999942,0.039999942250000003,0.039999983,-9.805287999999994,-0.03282503690581233,0.017529587500017287,-0.026484274750040105,-0.016241784207526474,-0.0204417805000305
0.79,0.0026891849800061134,-0.7785348399999855,0.0024557774400058496,-2.3542928599999953,-0.0035042401600087095,1.5754018200000108,0.7834354319999938,0.0399999418,0.0399999824,-9.805263999999994,-0.03331286534678367,0.01760878960001844,-0.026668019200042782,-0.0162586290389338,-0.020581514800032535
0.7925,0.002715441085006495,-0.7784728299999846,0.0024808998300062148,-2.354272294999995,-0.003541643620009253,1.5754479150000114,0.7834087814999934,0.03999994135,0.0399999818,-9.805239999999994,-0.033800693787754986,0.017687991700019595,-0.026851763650045452,-0.016275473870341128,-0.020721249100034568
0.795,0.002741697190006878,-0.7784108199999837,0.0025060222200065808,-2.3542517299999948,-0.003579047080009798,1.575494010000012,0.783382130999993,0.039999940899999996,0.0399999812,-9.805215999999994,-0.034288522228726324,0.017767193800020748,-0.02703550810004813,-0.01629231870174845,-0.020860983400036604
0.7975,0.002767953295007259,-0.7783488099999828,0.002531144610006946,-2.3542311649999945,-0.0036164505400103414,1.5755401050000128,0.7833554804999926,0.03999994045,0.0399999806,-9.805191999999993,-0.03477635066969764,0.0178463959000219,-0.0272192525500508,-0.016309163533155778,-0.021000717700038633
0.8,0.002794209400007987,-0.7782867999999811,0.002556267000007642,-2.354210599999994,-0.003653854000011378,1.575586200000014,0.7833288299999919,0.03999994,0.03999998,-9.805167999999991,-0.03526417911066725,0.017925598000038238,-0.027402997000054514,-0.016326008364563136,-0.021140452000041405
0.8025,0.002821651330007637,-0.7782220449999819,0.002582523270007307,-2.354189209999994,-0.003692944300010879,1.5756344100000135,0.7833009704999923,0.03999994,0.0399999806,-9.805135749999991,-0.035746070929005704,0.01805696470003656,-0.027590301550052126,-0.0163429694250273,-0.02128270870003959
0.805,0.0028490932600072883,-0.7781572899999828,0.0026087795400069735,-2.3541678199999945,-0.0037320346000103825,1.575682620000013,0.7832731109999925,0.03999994,0.0399999812,-9.80510349999999,-0.036227962747344175,0.018188331400034893,-0.027777606100049746,-0.016359930485491465,-0.02142496540003778
0.8075,0.0028765351900069385,-0.7780925349999837,0.0026350358100066386,-2.3541464299999943,-0.0037711249000098837,1.5757308300000124,0.7832452514999929,0.03999994,0.0399999818,-9.805071249999992,-0.036709854565682626,0.018319698100033217,-0.027964910650047355,-0.01637689154595563,-0.02156722210003597
0.81,0.0029039771200065896,-0.7780277799999844,0.002661292080006305,-2.3541250399999947,-0.0038102152000093867,1.5757790400000116,0.7832173919999933,0.03999994,0.0399999824,-9.805038999999992,-0.03719174638402109,0.018451064800031548,-0.028152215200044975,-0.016393852606419793,-0.02170947880003416
0.8125,0.00293141905000624,-0.7779630249999853,0.00268754835000597,-2.354103649999995,-0.0038493055000088884,1.575827250000011,0.7831895324999937,0.03999994,0.039999983,-9.805006749999992,-0.03767363820235954,0.01858243150002987,-0.028339519750042588,-0.016410813666883958,-0.021851735500032346
0.8150000000000001,0.002958860980005891,-0.7778982699999861,0.002713804620005636,-2.3540822599999953,-0.0038883958000083913,1.5758754600000104,0.783161672999994,0.03999994,0.039999983600000004,-9.804974499999993,-0.03815553002069801,0.018713798200028203,-0.028526824300040207,-0.016427774727348122,-0.021993992200030538
0.8175,0.0029867049700059147,-0.7778325649999861,0.0027404452950056586,-2.3540605499999954,-0.003928057865008425,1.5759243650000105,0.783133404999994,0.03999994,0.039999984800000006,-9.80495335,-0.03865722734492269,0.018827797250016366,-0.028715265600039373,-0.016444935370240225,-0.0221371057500299
0.8200000000000001,0.0030153530800059417,-0.777764959999986,0.0027678547800056843,-2.3540381999999953,-0.003968863460008463,1.5759746600000104,0.783104319999994,0.03999994,0.0399999872,-9.8049544,-0.0391985356808831,0.01890706100001644,-0.02890598040003955,-0.01646249517798784,-0.022281933000030035
0.8225,0.003044001190005967,-0.7776973549999859,0.0027952642650057088,-2.3540158499999952,-0.004009669055008499,1.5760249550000105,0.783075234999994,0.03999994,0.0399999896,-9.80495545,-0.03973984401684349,0.01898632475001651,-0.02909669520003972,-0.016480054985735456,-0.022426760250030164
0.8250000000000001,0.003072649300005994,-0.7776297499999859,0.002822673750005734,-2.353993499999995,-0.004050474650008537,1.5760752500000106,0.7830461499999939,0.03999994,0.039999992000000005,-9.8049565,-0.0402811523528039,0.019065588500016585,-0.0292874100000399,-0.01649761479348307,-0.0225715875000303
0.8275,0.003101297410006019,-0.7775621449999858,0.0028500832350057586,-2.353971149999995,-0.004091280245008573,1.5761255450000107,0.7830170649999939,0.03999994,0.0399999944,-9.80495755,-0.04082246068876428,0.019144852250016654,-0.02947812480004007,-0.016515174601230687,-0.022716414750030427
0.8300000000000001,0.0031299455200060455,-0.7774945399999857,0.0028774927200057843,-2.353948799999995,-0.004132085840008611,1.5761758400000105,0.7829879799999939,0.03999994,0.0399999968,-9.804958599999999,-0.04136376902472469,0.01922411600001673,-0.02966883960004025,-0.016532734408978303,-0.022861242000030563
0.8325,0.003158593630006071,-0.7774269349999857,0.0029049022050058088,-2.353926449999995,-0.004172891435008648,1.5762261350000106,0.7829588949999938,0.03999994,0.039999999200000004,-9.804959649999999,-0.04190507736068508,0.019303379750016798,-0.029859554400040417,-0.01655029421672592,-0.02300606925003069
0.835,0.003188059020006629,-0.7773574499999844,0.0029330931300063424,-2.3539033999999948,-0.004214857270009441,1.5762778800000117,0.7829289899999933,0.0399999396,0.0399999995,-9.804946999999995,-0.042437763884780766,0.01941575040002861,-0.030052507800043066,-0.01656819470227161,-0.023152156700032556
0.8375,0.0032179330500070645,-0.7772870249999834,0.002961674775006759,-2.3538799999999944,-0.004257403225010061,1.5763303500000123,0.7828986749999929,0.039999939,0.03999999875,-9.804927499999994,-0.042966139502948246,0.019544674500030487,-0.030246580500045896,-0.016586265526716173,-0.023298874250034695
0.84,0.0032478070800074986,-0.7772165999999823,0.002990256420007174,-2.353856599999994,-0.004299949180010679,1.5763828200000132,0.7828683599999924,0.0399999384,0.039999998,-9.804907999999996,-0.043494515121115705,0.01967359860003236,-0.030440653200048715,-0.016604336351160737,-0.023445591800036827
0.8425,0.003277681110007934,-0.7771461749999813,0.003018838065007591,-2.3538331999999937,-0.0043424951350113,1.5764352900000138,0.782838044999992,0.039999937799999996,0.03999999725,-9.804888499999995,-0.044022890739283185,0.01980252270003424,-0.030634725900051542,-0.0166224071756053,-0.023592309350038965
0.845,0.003307555140008368,-0.7770757499999803,0.0030474197100080064,-2.3538097999999934,-0.004385041090011918,1.5764877600000147,0.7828077299999915,0.0399999372,0.0399999965,-9.804868999999995,-0.044551266357450645,0.019931446800036112,-0.03082879860005436,-0.016640478000049863,-0.023739026900041097
0.8475,0.0033374291700088033,-0.7770053249999792,0.003076001355008423,-2.353786399999993,-0.004427587045012538,1.5765402300000155,0.7827774149999911,0.0399999366,0.03999999575,-9.804849499999994,-0.045079641975618125,0.020060370900037993,-0.03102287130005719,-0.016658548824494426,-0.023885744450043236
0.85,0.0033673032000096225,-0.7769348999999773,0.0031045830000092063,-2.3537629999999923,-0.004470133000013704,1.5765927000000168,0.7827470999999903,0.039999936,0.039999995,-9.804829999999992,-0.04560801759380533,0.02018929500002494,-0.031216944000061045,-0.016676619648938826,-0.02403246200004608
