rsonawane2002/My_IMU/logs_2/traj_359/clean_359.csv
time,j1,j2,j3,j4,j5,j6,j7,gripper1,gripper2,imu_ax,imu_ay,imu_az,imu_gx,imu_gy,imu_gz,quat_x,quat_y,quat_z,quat_w
1194.4333333325758,0.00016700293,-0.785875,4.0107683e-05,-2.3551247,9.29385e-05,1.570997,0.786,0.04,0.04,0.0,-0.0,0.0,2.875329272945135e-08,-0.0011641195053377316,4.421952117202833e-08,0.9999995971961153,0.00020320632366974898,0.0008736418299892524,3.263050917662294e-05
1194.4499999992424,0.00016700136,-0.78576016,4.0105864e-05,-2.3552213,9.298101e-05,1.5709941,0.786,0.04,0.04,-0.2919984589662139,-2.5271415270383506e-05,0.02012841112246644,4.375339789190897e-07,-0.0022386661976228255,8.441828816893105e-07,0.9999996850574877,0.0002032124961811228,0.0007665025164226741,3.2611333451729326e-05
1194.466666665909,0.00016696897,-0.7856543,4.004321e-05,-2.35531,9.306882e-05,1.5709913,0.786,0.04,0.04,0.023328732536942454,7.208559754932377e-05,-0.0016704153192659277,4.1674929177307505e-06,-0.003231071767339953,6.116071793777934e-06,0.99999975583439,0.00020325520195093113,0.0006677972330179965,3.263952685635852e-05
1194.4833333325757,0.00016685223,-0.785557,3.982001e-05,-2.355391,9.3290204e-05,1.5709884,0.786,0.04,0.039999995,0.022394890121546496,0.00018337285337794405,-0.001490998018649492,1.4223173482979998e-05,-0.004151401619261211,2.0730688748162757e-05,0.9999998122155471,0.00020339647508760112,0.0005771683261493806,3.2794324485681934e-05
1194.4999999992424,0.00016657301,-0.7854675,3.9293765e-05,-2.3554652,9.373578e-05,1.5709856,0.786,0.04,0.04,0.020453111075990904,0.0003707519126303505,-0.0014251077685933922,3.2443709841583354e-05,-0.005004427731724397,4.606989950662285e-05,0.9999998567141464,0.00020372582400374605,0.0004939303110005626,3.3171118292778355e-05
1194.516666665909,0.00016603025,-0.78538525,3.828226e-05,-2.355532,9.4559444e-05,1.5709854,0.786,0.04,0.04,0.02140805435963955,0.0005827366656244561,0.0012137120029009907,6.171158819301985e-05,-0.005801016679127585,8.784009656462392e-05,0.9999998906104884,0.0002043582726696304,0.00041936463854829825,3.391175936005768e-05
1194.5333333325757,0.00016510287,-0.78530973,3.6568526e-05,-2.3555958,9.593187e-05,1.570986,0.786,0.04,0.04,0.01253696914322866,0.0008466800879444085,-0.002041168873523347,0.00010379435545727747,-0.006530168686520842,0.00014821372454419915,0.9999999170461874,0.0002054312476761279,0.0003499545801210613,3.517687626668237e-05
1194.5499999992423,0.00016365174,-0.78524065,3.3904114e-05,-2.355654,9.8046534e-05,1.5709869,0.786,0.04,0.04,0.016918231663409777,0.0011496007584687598,-0.0009410724022052008,0.00016018827148760778,-0.007226877540319933,0.00022987528411594926,0.9999999367534165,0.0002071021424581378,0.0002867431551753308,3.715142913820336e-05
1194.566666665909,0.00016152136,-0.7851774,3.0012525e-05,-2.3557055,0.000101119265,1.5709878,0.7859981,0.04,0.04,0.017841626964232304,0.0014872892391916306,-0.00025787012685185573,0.00023241430784160997,-0.007885243954463156,0.00033521006622108874,0.9999999510274628,0.0002085928695770224,0.00022984954541401106,4.004089581762231e-05
1194.5833333325756,0.00015854214,-0.7851198,2.4592457e-05,-2.3557556,0.00010538538,1.5709888,0.7859962,0.04,0.04,0.008625749287838325,0.0018560604253395894,-0.0025539542111152613,0.0003308151129606189,-0.008506344512771867,0.00046634323967155347,0.9999999611869752,0.00021104869503194473,0.00017647223568896688,4.406865544025868e-05
1194.5999999992423,0.00015453158,-0.7850672,1.7320212e-05,-2.3557994,0.00011109664,1.5709932,0.7859943,0.04,0.04,0.017231952499319192,0.0022517931570506826,0.0024656529334254884,0.0004471452038882343,-0.009117520930794945,0.0006251534143276578,0.9999999672239321,0.00021467540781888419,0.00013045566578138103,4.947649079810624e-05
1194.616666665909,0.00014929628,-0.7850196,7.8529865e-06,-2.3558419,0.00011850927,1.570998,0.7859924,0.039999995,0.04,0.008013595378875138,0.0026805373390147765,-0.0019080302000373806,0.0005828428481044897,-0.009685830337161793,0.000812482028885609,0.9999999704161201,0.0002196911392335506,8.78062764589367e-05,5.651212284780368e-05
1194.6333333325756,0.00014263255,-0.78497654,-4.1694157e-06,-2.3558795,0.00012791164,1.5710062,0.7859905,0.03999999,0.03999999,0.014272501662926373,0.003115921365512978,0.0021030883278871926,0.0007378057849054018,-0.010250037646215522,0.001032336110554455,0.999999970917289,0.00022632526181405664,5.1563867278158734e-05,6.544818196886984e-05
1194.6499999992423,0.0001343286,-0.7849379,-1.9121991e-05,-2.3559148,0.00013959895,1.5710148,0.78598666,0.039999988,0.039999988,0.009040737984844505,0.0035736759251789665,-0.0011708015415168305,0.0009130950066897238,-0.010786010122220493,0.001283365540573188,0.9999999695445484,0.00023386276635098033,1.889727675300148e-05,7.6563710937714e-05
1194.666666665909,0.000124165,-0.7849036,-3.739262e-05,-2.3559492,0.000153873,1.571027,0.78598285,0.039999984,0.03999998,0.007535583407669577,0.004049628373767529,0.0007446170088520887,0.0011179210055543955,-0.011321084525983748,0.001568385970739682,0.9999999662462741,0.00024350457098713544,-9.299455757923385e-06,9.014707352873191e-05
1194.6833333325756,0.00011191617,-0.78487325,-5.9380054e-05,-2.3559785,0.00017104382,1.5710397,0.7859771,0.039999977,0.03999997,0.013035901108571224,0.0045394118344206915,0.00024592751755037057,0.001343751932365589,-0.011849379921393,0.0018874616643203756,0.9999999613929443,0.0002545507634076321,-3.2817547814654494e-05,0.00010649425940853342
1194.6999999992422,9.7351105e-05,-0.7848468,-8.54926e-05,-2.3560061,0.00019142848,1.5710559,0.7859714,0.03999997,0.03999996,0.008251798032676838,0.005041280586387857,0.0012165015910614585,0.0015989560705930717,-0.012370366963624198,0.0022405197892637957,0.9999999547634555,0.000268215398145626,-5.177615685946601e-05,0.00012590796972260655
1194.7166666659089,8.0234335e-05,-0.7848242,-0.00011614625,-2.3560328,0.00021535161,1.5710759,0.78596395,0.039999966,0.039999958,0.007111953093841272,0.005551661218519387,0.0010742957995191205,0.0018755966758572209,-0.01288803860472204,0.0026290557520955854,0.9999999464397393,0.00028389939017983674,-6.641338328454164e-05,0.00014869740122932127
1194.7333333325755,6.032677e-05,-0.78480524,-0.00015176312,-2.356057,0.00024314216,1.5710998,0.7859563,0.03999997,0.039999958,0.009684462601455834,0.00607050450042247,0.001959059956857523,0.0021809915658261114,-0.013406301320039758,0.0030544571080427423,0.9999999359700897,0.000302646702258711,-7.601377014619727e-05,0.0001751761875967789
1194.7499999992422,3.7386613e-05,-0.78478986,-0.00019277057,-2.3560786,0.0002751314,1.5711274,0.7859468,0.03999997,0.039999958,0.00921379002574163,0.00659697024559547,0.0018864232464110842,0.0025083787953177634,-0.013920733123230137,0.0035154135117239204,0.9999999231490759,0.00032386547162335046,-8.072577094286388e-05,0.0002056607603375043
1194.7666666659088,1.1169751e-05,-0.784778,-0.00023959961,-2.3560987,0.00031165543,1.5711589,0.7859362,0.039999973,0.03999996,0.007933064608423024,0.007126732478709897,0.0015992546766874227,0.0028648913529293702,-0.0144335611125004,0.004013092360088492,0.9999999071732163,0.00034824782680595404,-8.093633298359646e-05,0.0002404710372617138
1194.7833333325755,-1.856949e-05,-0.78476965,-0.00029268413,-2.3561182,0.00035305208,1.5711942,0.7859246,0.039999973,0.039999958,0.0059081410975547755,0.007660177266133926,0.001063754265673289,0.003246891624725548,-0.01495299611629196,0.004548562386250747,0.9999998870999195,0.00037613011980597885,-7.72408309463202e-05,0.00027992880390236377
1194.7999999992421,-5.2077532e-05,-0.78476447,-0.00035245932,-2.3561373,0.0003996592,1.5712335,0.78591126,0.039999973,0.039999958,0.005589164017805182,0.008196554458070783,0.0014430516000141225,0.003653134506723994,-0.015483880014999552,0.005120216230251025,0.9999998619912617,0.0004073727929523231,-6.969788974976996e-05,0.00032435639234041947
1194.8166666659088,-8.960151e-05,-0.78476286,-0.00041936178,-2.356155,0.0004518167,1.5712779,0.785896,0.03999998,0.039999966,0.007974096189355961,0.008735203000872892,0.0023448976422590917,0.004087514449655475,-0.01602987125203789,0.005728965388276402,0.9999998306320835,0.0004421948063521803,-5.714410662259597e-05,0.00037407767710518903
1194.8333333325754,-0.00013138835,-0.7847647,-0.00049382745,-2.3561707,0.0005098641,1.5713274,0.78587896,0.039999977,0.039999958,0.008729562746068176,0.009273455810466093,0.0028027105366534855,0.0045497433964492556,-0.016580654635564154,0.006375628603358421,0.9999997913807818,0.0004809340760187503,-3.928016409988066e-05,0.00042941573826927
1194.849999999242,-0.00017768449,-0.7847698,-0.0005762915,-2.3561852,0.0005741394,1.5713822,0.78586024,0.03999998,0.03999996,0.00721452766567765,0.009810912287169767,0.0025256227557335365,0.005038952110301595,-0.01713743870483493,0.007058397442453887,0.9999997422216704,0.0005239280852196378,-1.664097740327498e-05,0.0004906924005361692
1194.8666666659087,-0.00022873559,-0.7847782,-0.00066718814,-2.3561985,0.0006449808,1.5714427,0.7858397,0.03999998,0.039999958,0.0075749356549303926,0.010347626158890441,0.0029887397480887756,0.0055536498165089255,-0.01770584082765525,0.00777881634358143,0.9999996808985601,0.0005713647467263009,1.1192550361904812e-05,0.0005582291921314112
1194.8833333325754,-0.00028478587,-0.7847899,-0.00076694856,-2.356211,0.00072272285,1.5715094,0.7858172,0.039999984,0.03999996,0.007247729899240163,0.010882218020743916,0.0030563179749032443,0.006094769897528772,-0.01828308691145652,0.008534955423960966,0.9999996047224747,0.0006234898758282715,4.4222567338855424e-05,0.000632344553023293
1194.899999999242,-0.00034607822,-0.7848053,-0.0008760015,-2.3562233,0.00080770004,1.5715821,0.78579265,0.039999984,0.039999958,0.005959273878763938,0.011411489364916991,0.0024558936718266366,0.0066615812579675195,-0.018872332438510827,0.00932826133246292,0.9999995106573001,0.0006804880800650767,8.212377465980755e-05,0.000713356025378417
1194.9166666659087,-0.00041285335,-0.78482395,-0.0009947727,-2.3562353,0.000900242,1.5716615,0.78576577,0.039999984,0.039999958,0.006566207243730027,0.011941670690261159,0.0033123008917668173,0.007254115936212409,-0.0194768305570314,0.010156695256320205,0.9999993952298266,0.0007425125064548318,0.0001252567378155166,0.0008015771381646541
1194.9333333325753,-0.0004853499,-0.78484607,-0.0011236835,-2.3562472,0.001000678,1.5717478,0.7857366,0.039999984,0.039999954,0.0060326518418696295,0.01246377981337878,0.0031698542175107036,0.007873195964751575,-0.020094354940108965,0.011021613215611653,0.9999992544019536,0.0008098626923648975,0.00017359489329828049,0.0008973197698653713
1194.949999999242,-0.00056380423,-0.78487146,-0.0012631515,-2.356259,0.0011093324,1.571841,0.78570515,0.03999999,0.039999958,0.005838870628593895,0.012983369353964571,0.00326553162071086,0.008517420924670473,-0.020729031912326452,0.011921742341639643,0.9999990836843419,0.0008827761282377594,0.00022705254467479555,0.001000891565494609
1194.9666666659086,-0.00064844976,-0.7849004,-0.0014135895,-2.3562706,0.0012265252,1.5719416,0.78567135,0.03999999,0.039999958,0.0071346072284095285,0.013500164250806546,0.0036599419892757723,0.009186743163491507,-0.021382036294151394,0.012855786709170928,0.9999988778345437,0.0009615171710403222,0.00028625968439492823,0.0011125959627804583
1194.9833333325753,-0.0007395172,-0.78493303,-0.0015754052,-2.356282,0.0013525742,1.5720497,0.78563476,0.04,0.03999996,0.006432908971509832,0.01400815336805786,0.003493884689964588,0.009880244018684734,-0.0220487768042639,0.013824993195224393,0.9999986313853293,0.0010461088261796197,0.0003510722254010764,0.0012327335821583306
1194.999999999242,-0.0008372346,-0.7849692,-0.0017490007,-2.3562934,0.0014877915,1.5721658,0.78559566,0.04,0.039999966,0.006523882841946715,0.014513155710180366,0.0038749150076622385,0.01059947755975779,-0.022732192073939818,0.01482693108292745,0.9999983377677296,0.0011369584709239697,0.00042170382045239976,0.0013615994642231235
1195.0166666659086,-0.000941826,-0.785009,-0.0019347728,-2.356305,0.0016324866,1.5722902,0.78555375,0.04,0.039999958,0.006671722029438776,0.015010464927614018,0.0040099242890168085,0.01134239783836272,-0.02343175492691658,0.015863040345886065,0.999997990023883,0.0012341717334632273,0.000498309444540869,0.0014994852529885794
1195.0333333325752,-0.0010535122,-0.78505254,-0.0021331122,-2.3563163,0.0017869622,1.5724227,0.785509,0.04,0.03999996,0.006744506602407441,0.01550246047747849,0.00396635620827368,0.012109402661437434,-0.024148241390129194,0.016931885316815762,0.9999975804060401,0.0013379697144925197,0.000580925339583352,0.0016466769137104893
1195.049999999242,-0.0011725114,-0.7850998,-0.0023444034,-2.3563278,0.001951518,1.5725641,0.78546137,0.04,0.039999958,0.007007314887141902,0.01598935150686879,0.004365707339837321,0.012900334979397299,-0.024881763837439473,0.018032733142437477,0.9999971001734311,0.0014486004412516144,0.0006698863622876439,0.0018034560577350636
1195.0666666659085,-0.0012990376,-0.7851509,-0.0025690242,-2.3563392,0.0021264476,1.5727146,0.7854106,0.04,0.039999958,0.0071573742896458015,0.016468880726322535,0.004497531364133778,0.01371393251114083,-0.025631471228562963,0.019164969776844322,0.9999965400441059,0.0015661585099925504,0.0007653495073992126,0.001970098340169652
1195.0833333325752,-0.0014333002,-0.7852059,-0.0028073473,-2.3563507,0.00231204,1.5728737,0.7853569,0.04,0.039999947,0.007184602404008977,0.016939758437946924,0.0041505726191992665,0.014551086031300635,-0.026396324973718084,0.020328387501244397,0.9999958896886089,0.0016910021478407655,0.000867203770825773,0.0021468756935054617
1195.0999999992418,-0.0015755061,-0.78526473,-0.003059737,-2.3563616,0.0025085784,1.5730426,0.7852999,0.039999995,0.03999994,0.00821474669168154,0.017411464839416184,0.005216311272526752,0.015410232523659423,-0.02717972427144104,0.021522094272229425,0.9999951376218106,0.0018231892238258136,0.000976173948869905,0.002334051887081685
1195.1166666659085,-0.0017258575,-0.78532743,-0.0033265504,-2.3563726,0.0027163406,1.5732211,0.7852397,0.04,0.039999943,0.0074047936922116975,0.01786628793214345,0.004775634892939529,0.016291689411646142,-0.02797645475023396,0.022745152692184,0.9999942719425492,0.0019629804236585735,0.0010919421277915205,0.0025318871098002015
1195.1333333325751,-0.0018845522,-0.78539413,-0.0036081397,-2.3563838,0.0029356002,1.5734096,0.7851762,0.04,0.039999943,0.007294566637927602,0.018317924103118336,0.004939413798177306,0.017194743100248044,-0.028789658754290223,0.02399719700295204,0.9999932794277495,0.0021105736063815406,0.0012146979698181306,0.00274063628175659
1195.1499999992418,-0.0020517856,-0.78546494,-0.003904848,-2.3563952,0.0031666243,1.5736082,0.78510934,0.04,0.03999994,0.0074769440540967125,0.018762568650939043,0.00494231487415675,0.018118874931008017,-0.029619069386514523,0.025277749816776406,0.9999921459330994,0.0022661323529412753,0.0013445724742315915,0.0029605474384911067
1195.1666666659085,-0.0022277466,-0.78553987,-0.0042170123,-2.3564067,0.0034096732,1.5738174,0.78503895,0.04,0.039999936,0.008048031469853889,0.019204078011788358,0.005384145041609223,0.019063810476952776,-0.030465020103497394,0.0265858266701708,0.999990855896981,0.002429815994614212,0.0014819359671237454,0.0031918619087980497
1195.183333332575,-0.0024126228,-0.78561914,-0.0045449585,-2.3564181,0.0036650042,1.5740368,0.784965,0.04,0.03999993,0.008212420163511425,0.019627519668606336,0.004961423470661863,0.02002934353388975,-0.03132496147681691,0.02792085638141841,0.9999893931164197,0.0026018073746969924,0.0016267423953122313,0.0034348161841647605
1195.1999999992418,-0.0026065945,-0.7857025,-0.00488901,-2.3564296,0.003932866,1.574267,0.78488743,0.04,0.039999925,0.008116092400145547,0.02005473324277699,0.005428553116426649,0.021014961365050277,-0.03220139173347736,0.029281946528184492,0.9999877399142509,0.002782317379816566,0.0017791253591771979,0.00368964011019454
1195.2166666659084,-0.0028098389,-0.78579026,-0.005249481,-2.356441,0.0042135012,1.5745081,0.7848062,0.039999995,0.03999992,0.008434622980257878,0.020470803710539737,0.005357459992438862,0.022019864420285376,-0.03309395867771611,0.030668323506082385,0.9999858774450682,0.002971491357689322,0.0019392792529494207,0.003956557279666154
1195.233333332575,-0.00302253,-0.7858825,-0.0056266757,-2.3564527,0.004507147,1.5747604,0.78472114,0.04,0.03999992,0.008330857488658694,0.020878439435509204,0.005511779365918734,0.02304380036478299,-0.034000789984392016,0.032079557965915724,0.9999837856002541,0.0031694706173677764,0.0021073995120119236,0.004235783267247936
1195.2499999992417,-0.0032448357,-0.7859791,-0.006020895,-2.3564644,0.0048140395,1.5750244,0.7846322,0.04,0.039999917,0.008765822369971588,0.021281381334530437,0.005801371547553558,0.02408682580411968,-0.0349230737120786,0.03351456025018236,0.9999814427683111,0.0033764225453360363,0.0022837123343715606,0.004527532194923592
1195.2666666659084,-0.0034769203,-0.7860802,-0.006432431,-2.3564763,0.0051344014,1.5753001,0.7845394,0.039999995,0.03999991,0.008522286640988419,0.021677398657181553,0.00580851122500281,0.025148377529266547,-0.035858949645008194,0.034973089521348776,0.9999788262902458,0.003592539514879364,0.0024682660198636335,0.004832007230096243
1195.283333332575,-0.0037189452,-0.7861859,-0.006861564,-2.3564885,0.0054684537,1.5755873,0.78444254,0.039999995,0.039999906,0.008626778549714054,0.022057064610387506,0.005409388777311008,0.026227637644759886,-0.0368084731734241,0.03645433864821468,0.9999759128252501,0.003817917737018744,0.0026609911981201953,0.005149407665400163
1195.2999999992417,-0.0039710645,-0.7862963,-0.0073085697,-2.3565009,0.005816411,1.5758867,0.7843417,0.04,0.03999991,0.008916522024526863,0.02244091230452199,0.0059962323746276525,0.027324936846513725,-0.03777471949213015,0.0379570696684351,0.9999726759107355,0.004052770895393516,0.002862325672566071,0.005479924428011695
1195.3166666659083,-0.0042334306,-0.7864114,-0.0077737146,-2.3565135,0.00617848,1.576198,0.7842368,0.04,0.039999906,0.008852998740094264,0.02280724858197726,0.0055722798675272855,0.02843891811165744,-0.0387541567366356,0.039480463963311785,0.9999690895239994,0.004297245684499185,0.0030720828345037225,0.005823743051390103
1195.333333332575,-0.004506189,-0.7865311,-0.00825726,-2.3565264,0.0065548653,1.5765216,0.7841278,0.04,0.0399999,0.00893690386434276,0.02317487106256247,0.006045536169874133,0.029569330594809186,-0.03974878488649751,0.04102435980179995,0.9999651249500479,0.004551487385212195,0.0032905242812398825,0.006181043291545081
1195.3499999992416,-0.0047894837,-0.7866556,-0.008759456,-2.3565392,0.0069457586,1.5768579,0.78401446,0.04,0.039999902,0.009710061867362896,0.023541169016465593,0.006153330793501333,0.03071592178956214,-0.04075754434330213,0.04258775440460942,0.9999607517559023,0.004815576043314295,0.003518032390648028,0.00655199383700423
1195.3666666659083,-0.0050834497,-0.78678507,-0.009280549,-2.3565524,0.0073513514,1.5772067,0.783897,0.04,0.0399999,0.009425006522034707,0.023882950418055438,0.005848860575863313,0.031878677526499366,-0.04177887139253715,0.04417016114282338,0.9999559388050537,0.005089733801891901,0.003754512999385469,0.006936763688260215
1195.383333332575,-0.0053882217,-0.7869193,-0.009820774,-2.3565662,0.007771826,1.5775684,0.7837752,0.04,0.039999887,0.00855765642868711,0.024221640424852003,0.0059604716324601625,0.03305627687917795,-0.042813811421843595,0.04577015477532988,0.9999506542709974,0.0053740624536337996,0.003999844109570109,0.007335511082924366
1195.3999999992416,-0.005703929,-0.78705835,-0.01038036,-2.3565807,0.008207363,1.577943,0.7836489,0.04,0.039999887,0.008653138476955036,0.024554270343701487,0.005880743077102402,0.034248823103572607,-0.04386381140470898,0.0473871012460713,0.9999448645775815,0.005668598250490545,0.004254084324987824,0.00774839114608783
1195.4166666659082,-0.006030696,-0.7872026,-0.010959528,-2.356596,0.0086581325,1.5783306,0.7835183,0.04,0.039999884,0.009157393442338346,0.024884772823288714,0.005805849119266959,0.0354568553050158,-0.0449308890271798,0.049020717592182045,0.9999385321232708,0.005973610529636914,0.004517559911875578,0.008175549207317766
1195.4333333325749,-0.006368644,-0.78735185,-0.011558488,-2.356612,0.009124297,1.5787314,0.7833832,0.04,0.039999887,0.008991097719146524,0.02520396002887379,0.005857187431468347,0.036678188104514585,-0.046011200965957295,0.05067017966690143,0.9999316206424708,0.006289125958512769,0.004790212798452164,0.008617122219471536
1195.4499999992415,-0.006717887,-0.7875061,-0.012177451,-2.3566291,0.009606017,1.5791457,0.7832436,0.04,0.03999988,0.008326630699140303,0.025515870382110048,0.005858739351660702,0.037913484431320775,-0.04710765598157163,0.052334086512963465,0.9999240913211782,0.006615318621289466,0.005072014850888458,0.009073247511627908
1195.4666666659082,-0.0070785386,-0.7876655,-0.01281661,-2.3566468,0.010103448,1.5795736,0.7830995,0.04,0.03999988,0.009791089222588312,0.02583782895673563,0.006229004389890491,0.03916213569014673,-0.048221162598344545,0.05401215854729957,0.9999159010714755,0.006952296469921621,0.005363535721488858,0.009544047504996161
1195.4833333325748,-0.007450706,-0.7878302,-0.013476154,-2.3566651,0.010616737,1.580015,0.7829508,0.04,0.039999872,0.009502913026282478,0.02612293038207862,0.005698309057611262,0.04042341484006256,-0.0493463473154448,0.0557038774833268,0.9999070085683087,0.00730018853271002,0.005664601049876981,0.010029643977178496
1195.4999999992415,-0.007834489,-0.788,-0.01415627,-2.356685,0.011146024,1.5804703,0.7827975,0.04,0.039999872,0.008353067620592292,0.026417198939284597,0.005954794145379694,0.04169711710465231,-0.050486903718358296,0.05740800487835597,0.9998973707657128,0.007659068909197139,0.005975157571323229,0.01053015153055757
1195.5166666659081,-0.008229986,-0.7881749,-0.014857124,-2.3567047,0.011691444,1.5809395,0.78263944,0.04,0.039999872,0.010756388694543872,0.026720927860342247,0.006346739880247476,0.04298295600623708,-0.0516429112720999,0.05912368955344274,0.9998869390337242,0.00802899617738623,0.006295838799931301,0.01104566810829301
1195.5333333325748,-0.008637293,-0.7883553,-0.015578887,-2.3567245,0.012253126,1.5814227,0.78247666,0.04,0.039999865,0.011167075120210868,0.0270151806789784,0.006198123353362561,0.044280733762474385,-0.052809988868995156,0.060851113773753907,0.9998756640421942,0.008410122441460104,0.006626891279521536,0.011576295118487215
1195.5499999992414,-0.009056502,-0.788541,-0.01632172,-2.3567443,0.012831196,1.5819198,0.7823092,0.04,0.039999858,0.01114325064661692,0.027290683375953,0.006162973705370334,0.04558963051563526,-0.05398683780105906,0.06258847356407567,0.999863496373344,0.00880256307801422,0.006968324704574991,0.012122126634424581
1195.566666665908,-0.009487695,-0.78873193,-0.017085778,-2.3567646,0.0134257665,1.5824312,0.78213686,0.04,0.039999854,0.010290160224313283,0.027559146794077158,0.0062487165479963025,0.04690944141275252,-0.05517407959523918,0.06433538209176695,0.9998503863369341,0.009206372132240013,0.007320031549824823,0.012683248485937803
1195.5833333325747,-0.009930954,-0.78892815,-0.017871192,-2.356785,0.014036958,1.5829569,0.7819598,0.04,0.039999854,0.010874966841245559,0.027808643458452492,0.006211445713377728,0.04823994506655636,-0.05637388200352563,0.06609115206586634,0.999836279513184,0.009621681412922111,0.007682232360878208,0.0132597406451215
1195.5999999992414,-0.010386355,-0.78912985,-0.01867811,-2.3568058,0.01466487,1.583497,0.78177774,0.04,0.039999858,0.011158812643707883,0.02808304902085952,0.00611972470818678,0.049580455615649915,-0.05758407897805702,0.06785506433937093,0.9998211208228271,0.010048505953301954,0.008055120706208762,0.013851675534053816
1195.616666665908,-0.010853971,-0.78933704,-0.019506657,-2.3568265,0.015309604,1.5840516,0.7815908,0.04,0.039999854,0.01161428283467103,0.028335281756416975,0.006144042134859085,0.050930894911882726,-0.05880364849663741,0.06962625189496204,0.9998048524353906,0.010486971794170206,0.008438860112806753,0.014459118549605339
1195.6333333325747,-0.011333875,-0.7895497,-0.020356957,-2.3568475,0.01597126,1.5846208,0.781399,0.04,0.039999843,0.011334205008739495,0.028580408888955952,0.006132704992634075,0.05229059982709296,-0.06003267832865669,0.07140414635162085,0.9997874157857021,0.010937176433821137,0.008833496605578646,0.015082133334588623
1195.6499999992413,-0.011826131,-0.7897679,-0.021229131,-2.3568692,0.016649919,1.5852046,0.7812023,0.04,0.03999984,0.010595293468784739,0.02881218610198133,0.005715938616024374,0.05365935832978407,-0.061269938120110924,0.07318797949722963,0.9997687530463132,0.01139921020061889,0.009238809199835654,0.015720777448679953
1195.666666665908,-0.012330796,-0.7899917,-0.022123277,-2.3568926,0.01734567,1.585803,0.78100073,0.04,0.039999835,0.009053140737069754,0.028988004360939318,0.00530078582987592,0.055036539475333685,-0.0625196650363247,0.07497755839741455,0.999748806489276,0.011873154732625728,0.009654429170693361,0.016375106636339225
1195.6833333325746,-0.012847928,-0.7902209,-0.023039497,-2.356917,0.018058592,1.5864164,0.78079414,0.04,0.03999983,0.01034091719274155,0.029250009263388083,0.005733188079481977,0.056421975924117976,-0.06378556173583425,0.07677066098506288,0.9997275095259764,0.012359034906672825,0.010080854168436815,0.01704515568714958
1195.6999999992413,-0.013377579,-0.79045576,-0.02397788,-2.356942,0.018788751,1.5870445,0.7805826,0.04,0.03999983,0.010895448349934611,0.029467776429762532,0.005586869819973472,0.057815068597290686,-0.06506273637903484,0.07856650505620144,0.9997047955970686,0.01285695214850244,0.010518253748698973,0.01773095541002837
1195.716666665908,-0.013919799,-0.7906963,-0.024938524,-2.3569674,0.019536218,1.5876875,0.78036606,0.04,0.039999828,0.011530686114924471,0.02971149626227812,0.0056123576070543635,0.05921581059426517,-0.06635285750058711,0.08036713105150739,0.9996805953328264,0.013366955645255845,0.010966919071971632,0.018432539104864795
1195.7333333325746,-0.014474629,-0.7909422,-0.025921494,-2.356994,0.02030105,1.5883454,0.7801444,0.04,0.03999982,0.010304720905773834,0.02988242433644775,0.005546301296832645,0.060623272797179946,-0.06764964075409727,0.08216913633607367,0.9996548457448882,0.013889051643106325,0.011426457514257221,0.01914992668116218
1195.7499999992413,-0.015042114,-0.7911938,-0.026926866,-2.3570216,0.021083301,1.5890182,0.7799177,0.04,0.039999824,0.010416884170449947,0.03007688968925601,0.005100139040892238,0.06203828075172785,-0.06896131840691451,0.08397235691439565,0.9996274748517644,0.014423363171617437,0.011897011914121998,0.01988313918424721
1195.766666665908,-0.015622288,-0.7914511,-0.027954709,-2.3570492,0.021883028,1.5897061,0.7796859,0.04,0.039999817,0.01255835281386286,0.030332485507560125,0.005597822503533578,0.06345954826009034,-0.07028391908857405,0.08577659380881586,0.9995984036672079,0.014969892230411064,0.012379294618754188,0.020632178201092678
1195.7833333325746,-0.016215187,-0.7917142,-0.029005079,-2.357077,0.02270027,1.5904089,0.77944905,0.04,0.039999817,0.012684988074940229,0.030529281931591934,0.005452509582637433,0.0648872935510448,-0.07161488051578146,0.0875809077964089,0.9995675569733529,0.015528724743664046,0.01287339153482004,0.021397045229417874
1195.7999999992412,-0.016820833,-0.79198295,-0.03007803,-2.357105,0.023535078,1.5911268,0.7792071,0.04,0.039999824,0.01179517515219608,0.03068425453808324,0.005202696313966193,0.06632021961206679,-0.072949711838858,0.08938485633191548,0.9995348622996222,0.016099912711662973,0.013379062564418674,0.022177748831869584
1195.8166666659079,-0.01743926,-0.7922574,-0.031173596,-2.3571336,0.02438748,1.5918599,0.7789601,0.04,0.03999984,0.012003143868444255,0.030874653124811358,0.005227621450121234,0.06775886352703256,-0.07429538698307009,0.09118977085763699,0.9995002402421611,0.01668350656904035,0.013896515412827366,0.022974273085431228
1195.8333333325745,-0.018070482,-0.79253757,-0.032291826,-2.3571625,0.025257498,1.5926085,0.778708,0.04,0.039999865,0.012448592004221659,0.031082376647175586,0.005332321677009588,0.06920214068273677,-0.0756468007572395,0.09298990626802162,0.9994636098897652,0.01727952392521593,0.01442595945659788,0.02378659817615193
1195.8499999992412,-0.018714512,-0.79282326,-0.03343274,-2.3571918,0.026145166,1.593372,0.7784507,0.04,0.039999865,0.011849871854163752,0.031199406556220444,0.004914622869467422,0.0706503084199441,-0.07700595223181386,0.09478897636771545,0.9994248953358346,0.017887996620267178,0.01496709807882052,0.024614713790097876
1195.8666666659078,-0.019371372,-0.79311466,-0.03459637,-2.3572214,0.027050491,1.5941505,0.77818847,0.04,0.03999985,0.012522752339894083,0.03139849278879503,0.004786760073116625,0.07210290796350424,-0.07837352294316575,0.09658380803896985,0.9993840101494277,0.018509023862070772,0.015520200085431089,0.025458587600851762
1195.8833333325745,-0.020041067,-0.7934118,-0.035782736,-2.3572514,0.027973497,1.5949445,0.777921,0.04,0.03999985,0.012299518619185434,0.03156055206409436,0.004818512234416872,0.07355884776522843,-0.07974751610067982,0.09837489695695911,0.9993408705783806,0.019142554391648543,0.016085390000341364,0.026318192026504268
1195.8999999992411,-0.020723604,-0.79371464,-0.036991846,-2.3572822,0.02891419,1.5957534,0.77764845,0.04,0.03999985,0.011834291158030474,0.03167236902231821,0.004323067149858417,0.07501884743040861,-0.08112866110751969,0.1001623760611248,0.9992953952405316,0.019788639249926982,0.016662432716996852,0.027193494509857516
1195.9166666659078,-0.021418994,-0.7940231,-0.03822369,-2.3573139,0.029872574,1.5965776,0.77737075,0.04,0.039999846,0.011437838347050366,0.03181561792797438,0.004331755008490923,0.07648224553661757,-0.08251814353283715,0.10194294148171917,0.9992474983215852,0.0204473091914161,0.01725133299619172,0.028084446847654234
1195.9333333325744,-0.022127228,-0.79433733,-0.0394783,-2.3573465,0.030848648,1.5974171,0.77708787,0.04,0.039999843,0.011703925947004201,0.03197390252467902,0.004090057101802103,0.07794898624913223,-0.08391754446574945,0.10371837302373516,0.9991970902114072,0.021118557932219267,0.01785224640984248,0.02899101105588801
1195.949999999241,-0.0228483,-0.7946573,-0.040755644,-2.35738,0.031842403,1.5982718,0.7767999,0.04,0.039999843,0.012115019843328412,0.03211480232055974,0.00408564439340342,0.07941860228973757,-0.0853240715176869,0.10548698466377526,0.9991440785153992,0.021802458281401496,0.01846532630440009,0.02991312262157783
1195.9666666659077,-0.02358221,-0.79498297,-0.042055715,-2.3574142,0.032853846,1.599142,0.77650684,0.04,0.03999984,0.011814196678749944,0.0322290305029789,0.003928618087445379,0.08089054113800091,-0.08673850333933392,0.10724925649250738,0.9990883730382168,0.022498999064581703,0.01909058086697246,0.030850731322004433
1195.9833333325744,-0.024328938,-0.7953143,-0.043378476,-2.35745,0.033882923,1.6000271,0.7762087,0.04,0.039999835,0.010869753565034834,0.03229820084009946,0.003354633951224706,0.08236465768936856,-0.08816103010935761,0.10900298848681704,0.9990298896889087,0.023208206496470703,0.01972762891626785,0.03180376261900612
1195.999999999241,-0.025088469,-0.7956513,-0.04472391,-2.3574858,0.03492963,1.6009272,0.7759054,0.04,0.039999824,0.013403784205556768,0.032528760427739944,0.0038070044462878982,0.08384033575777666,-0.08959322804924552,0.11074878496533799,0.9989685223282847,0.023930029466178747,0.020377255251518612,0.03277213077304488
1196.0166666659077,-0.025860785,-0.795994,-0.046091992,-2.3575222,0.035993937,1.6018425,0.7755969,0.04,0.039999817,0.012281408363690183,0.03261198459203127,0.0034387187649365103,0.08531799825030492,-0.09103087444463887,0.11248501126948014,0.9989041800030475,0.02466450618601441,0.021039229589778625,0.03375577173325941
1196.0333333325743,-0.02664587,-0.7963424,-0.04748268,-2.3575592,0.037075836,1.6027732,0.7752834,0.04,0.039999824,0.012912979881174458,0.032745404791120064,0.0035211056614414815,0.08679695027321303,-0.09247369976933538,0.11421118125660294,0.998836759306015,0.025411669398484157,0.021713888086475695,0.03475460230830026
1196.049999999241,-0.027443694,-0.79669625,-0.04889594,-2.3575964,0.03817529,1.6037189,0.77496487,0.04,0.03999982,0.01300389659313339,0.03286030357478875,0.0033386904027432607,0.08827647404738453,-0.09392113475934888,0.11592801854910997,0.9987661647278259,0.02617154159788156,0.022401120333919843,0.035768539431254555
1196.0666666659076,-0.028254228,-0.79705596,-0.05033171,-2.3576336,0.039292235,1.6046797,0.7746412,0.04,0.03999982,0.01392851410768614,0.03299559301913613,0.003149367648069834,0.08975651039262056,-0.09537305698945388,0.11763361524172064,0.9986922909844872,0.02694404785606228,0.023101354920746674,0.03679746749590759
1196.0833333325743,-0.029077435,-0.7974212,-0.051789925,-2.357671,0.04042664,1.6056557,0.77431244,0.04,0.039999817,0.013255188716643218,0.03304999501063527,0.0030587101177870224,0.09123640457262579,-0.09682556897799646,0.11932888448937765,0.9986150430642042,0.027729173856805366,0.02381439380325037,0.03784129134794821
1196.099999999241,-0.029913291,-0.7977923,-0.053270537,-2.357709,0.041578457,1.6066462,0.77397877,0.04,0.039999805,0.013040357957860849,0.03311317972222311,0.0021785560459619546,0.09271686639329628,-0.0982816470525982,0.12101165809772949,0.9985343215251893,0.028527018701686377,0.024540035422448783,0.038899930612901146
1196.1166666659076,-0.030761754,-0.7981688,-0.054773457,-2.3577476,0.04274764,1.6076518,0.7736399,0.04,0.039999813,0.012372452116626853,0.03318658822107773,0.0026240423677936775,0.09419619596679307,-0.09974278057520483,0.12268176923544488,0.9984500295803949,0.02933742378455442,0.025278296043807352,0.03997326288553043
1196.1333333325742,-0.03162278,-0.7985509,-0.056298636,-2.3577862,0.04393412,1.6086723,0.7732961,0.04,0.0399998,0.013888823393770622,0.03333977186504716,0.0023050405808078267,0.09567586919740664,-0.10120830234829359,0.12433893738599561,0.9983620521344546,0.030160478569093423,0.026029569418612033,0.04106117273343887
1196.149999999241,-0.03249633,-0.79893833,-0.057845984,-2.3578255,0.04513784,1.6097075,0.77294725,0.04,0.0399998,0.012320143091515412,0.03335417919723693,0.0020428985783027542,0.09715411274940874,-0.10267535482464665,0.12598239911378648,0.9982702993803165,0.030996106088144057,0.02679339292859264,0.04216354916132863
1196.1666666659075,-0.033382334,-0.79933137,-0.059415422,-2.357866,0.04635873,1.6107576,0.7725934,0.04,0.039999805,0.011940887653061338,0.0333604113443603,0.0015786597551192827,0.09863139810498653,-0.10414823529285111,0.1276121419703572,0.9981746662438803,0.03184429282760664,0.027569806008285548,0.04328027818641293
1196.1833333325742,-0.034280766,-0.79972994,-0.061006844,-2.3579073,0.047596727,1.6118225,0.7722347,0.04,0.039999798,0.012727620313679466,0.033466292719128155,0.0015385125001987632,0.10010757658309238,-0.1056252515393992,0.12922663851313052,0.9980750400461618,0.032705098546737685,0.028359024859405287,0.04441122239844923
1196.1999999992408,-0.03519156,-0.80013406,-0.06262017,-2.3579497,0.048851747,1.612902,0.7718711,0.04,0.039999798,0.011927102821385205,0.033475796700355165,0.0010712097475051863,0.101581306609401,-0.1071062402404378,0.13082627758415266,0.9979713225825189,0.03357845388736692,0.02916082366947393,0.04555626302002605
1196.2166666659075,-0.03611466,-0.8005436,-0.06425529,-2.3579938,0.05012373,1.613996,0.7715026,0.04,0.039999794,0.010949867210952036,0.033435026440661875,0.0005905930059002529,0.10305325343397284,-0.10859250515637967,0.1324108927736784,0.9978634181670721,0.0344643146955141,0.029974856856702037,0.046715282862419334
1196.2333333325741,-0.037050005,-0.80095875,-0.06591208,-2.3580387,0.05141256,1.6151047,0.77112925,0.04,0.03999979,0.012955146259363559,0.033606597002719396,0.0008507213073993825,0.10452297099389335,-0.1100875195123627,0.13397741539611316,0.9977512011232414,0.035362630116811046,0.03080187819532367,0.047888091922638355
1196.2499999992408,-0.037997544,-0.8013794,-0.06759048,-2.3580835,0.05271819,1.6162275,0.7707508,0.04,0.03999979,0.013961156476294256,0.0337342035469132,0.0006668712887902828,0.10598992971582852,-0.11158309644839504,0.13552821707509555,0.9976345617912965,0.03627327484574265,0.031642023856840625,0.04907456548657373
1196.2666666659075,-0.038957193,-0.80180544,-0.069290355,-2.3581288,0.054040484,1.6173649,0.7703677,0.04,0.03999979,0.01325969616046141,0.0337464143932098,0.0005682776659243771,0.10745528553733169,-0.11307973209054405,0.13706106924142292,0.997513387922357,0.03719637231986006,0.03249526391491414,0.050274532568725494
1196.283333332574,-0.03992889,-0.8022366,-0.07101154,-2.3581743,0.055379376,1.6185164,0.76997966,0.04,0.039999783,0.01327905550798647,0.03373087608305875,0.0003856903054932914,0.108916096944262,-0.11457547485140368,0.13857670716277243,0.9973875795363246,0.03813176767302777,0.033361464245402296,0.05148783530315267
1196.2999999992408,-0.04091257,-0.802673,-0.072753936,-2.35822,0.056734767,1.6196822,0.76958686,0.04,0.039999783,0.013412000152079884,0.0337842347034184,0.00014352642874193577,0.11037452442616347,-0.11607251598041116,0.14007463281816385,0.9972570224065118,0.03907946867996456,0.034240721034098746,0.052714318848436775
1196.3166666659074,-0.041908152,-0.80311483,-0.07451744,-2.3582659,0.05810654,1.6208622,0.76918936,0.04,0.039999776,0.014269872944483453,0.03390033352543703,-6.767887770209313e-05,0.11182872957253825,-0.11756972900906276,0.1415539594208312,0.9971215927392333,0.0400394508631513,0.03513342850861529,0.05395381236744943
1196.333333332574,-0.04291556,-0.8035619,-0.07630187,-2.3583121,0.05949462,1.6220561,0.768787,0.04,0.039999772,0.013066741518197311,0.033750887816166864,-0.0006614981854280444,0.11327843414986385,-0.11906322713452379,0.1430144098262076,0.9969812014282965,0.04101156973099322,0.036039063149696765,0.0552061688046039
1196.3499999992407,-0.043934714,-0.8040142,-0.07810712,-2.3583586,0.060898855,1.623264,0.7683801,0.04,0.039999776,0.013517159628406716,0.03385456326368136,-0.0006626234377193896,0.11472472892206056,-0.12055707041897745,0.14445550866106982,0.9968357277023896,0.04199588636435399,0.03695783380792142,0.056471196416807076
1196.3666666659074,-0.044965524,-0.8044717,-0.079933,-2.3584054,0.06231916,1.6244855,0.7679685,0.04,0.03999977,0.013495327724122319,0.033785873757548324,-0.0010445354473365143,0.11616557604018017,-0.12204905149027347,0.14587764249195764,0.9966850669943009,0.042992250902183775,0.03788969141624066,0.05774872186733968
1196.383333332574,-0.046007916,-0.8049344,-0.081779405,-2.3584523,0.06375541,1.625721,0.76755226,0.04,0.039999776,0.013709358780999992,0.033872306656798634,-0.0011331220108212747,0.11760203925917861,-0.12354043821705654,0.14727802473445467,0.996529098227031,0.044000669858196534,0.038834847570473806,0.059038564117265296
1196.3999999992407,-0.0470618,-0.8054022,-0.08364616,-2.3584995,0.06520747,1.6269699,0.7671314,0.04,0.039999764,0.013459324398201744,0.033817891109293174,-0.0016223521785985184,0.11903295589971646,-0.12502775037119643,0.14865859763948397,0.99636772250314,0.045021021130848646,0.039793071503651675,0.0603405391966851
1196.4166666659073,-0.04812707,-0.80587506,-0.085533075,-2.3585477,0.06667525,1.6282322,0.76670617,0.04,0.03999976,0.012096063457667228,0.033592869371412704,-0.0021238313110183427,0.12045886106764944,-0.1265123013633283,0.1500193431075384,0.9962008397498195,0.046053350125061523,0.04076394266094061,0.06165449539772898
1196.433333332574,-0.04920364,-0.8063528,-0.087440014,-2.3585968,0.06815859,1.6295083,0.76627624,0.04,0.03999977,0.01214133759170899,0.033717890238846304,-0.0020270613607653587,0.12187854703120772,-0.12799875240672962,0.15135730888241922,0.996028342554862,0.04709742815332216,0.04174765327225275,0.06298020748629737
1196.4499999992406,-0.05029142,-0.80683553,-0.08936679,-2.3586466,0.06965736,1.6307974,0.7658419,0.04,0.039999764,0.012529529688976027,0.033617351133855,-0.0026515262949278195,0.12329326261038423,-0.12948475087094147,0.1526732272014875,0.9958501187327905,0.04815328654762631,0.0427441382622228,0.06431749885349314
1196.4666666659073,-0.051390313,-0.8073234,-0.09131325,-2.3586974,0.07117141,1.6320999,0.76540315,0.04,0.03999976,0.012385710446860543,0.0336205696637476,-0.002876190970391157,0.12470181669927353,-0.1309698884397976,0.15396700497317317,0.9956660554504778,0.04922084601709514,0.04375351731406782,0.06566615615136229
1196.483333332574,-0.05250022,-0.8078159,-0.09327919,-2.3587506,0.07270065,1.6334153,0.76496,0.04,0.03999976,0.009267360735609742,0.03325600239202642,-0.0035999220902249718,0.12610394310641265,-0.13245239436469222,0.155238830752072,0.995476087235234,0.050300013230959936,0.044774723192945454,0.06702605892329555
1196.4999999992406,-0.053621016,-0.8083135,-0.095264465,-2.3588037,0.07424489,1.6347437,0.7645125,0.04,0.03999977,0.01390553453863852,0.03362628912632615,-0.0032683522584342484,0.12750037084298815,-0.13394212637312783,0.15648609006899775,0.9952800514233332,0.05139070022312911,0.045809148349252364,0.0683969085329161
1196.5166666659072,-0.054752626,-0.80881566,-0.09726887,-2.3588574,0.075803995,1.6360848,0.76406074,0.04,0.039999776,0.012536208669144955,0.03350092934194804,-0.0034749721088633834,0.1288891832447872,-0.13542476459357575,0.15771139578644766,0.9950778568361291,0.052492885969806335,0.0468563125702522,0.0697785191107959
1196.5333333325739,-0.05589493,-0.8093227,-0.09929221,-2.3589115,0.07737786,1.6374387,0.7636047,0.04,0.03999977,0.012925485679371462,0.03339429138335959,-0.0038858888770754163,0.13027088736965267,-0.13690581655033454,0.15891162983439505,0.9948693891530861,0.053606419406497845,0.04791642320786203,0.0711706871650464
1196.5499999992405,-0.057047807,-0.8098344,-0.101334274,-2.3589656,0.0789663,1.6388048,0.76314425,0.04,0.039999776,0.013351338283351666,0.033360789512307254,-0.004134878463024627,0.13164489078623473,-0.1383812869534794,0.16008961925702042,0.9946545520239917,0.05473111290572824,0.048989418994148014,0.07257316476955332
1196.5666666659072,-0.05821115,-0.81035084,-0.1033949,-2.3590198,0.080569126,1.6401836,0.76267976,0.04,0.039999787,0.013592882617885493,0.03342640592685908,-0.004167464935145304,0.1330124310462443,-0.13985083769773615,0.16124230935288847,0.9944332167124217,0.05586706426605926,0.05007554835163671,0.07398572893849699
1196.5833333325738,-0.059384845,-0.8108718,-0.10547387,-2.359074,0.08218621,1.6415747,0.76221114,0.04,0.039999772,0.012926185629069664,0.033240766722475446,-0.004548566567197376,0.1343709727161852,-0.14131164333883287,0.16236891047304333,0.9942052932964699,0.05701411757814358,0.05117453838902139,0.07540816798422166
1196.5999999992405,-0.060568783,-0.81139725,-0.10757095,-2.3591287,0.083817385,1.6429778,0.76173854,0.04,0.039999783,0.01278533131006121,0.033095944619640494,-0.005123121576766643,0.13572091017656024,-0.1427655473434588,0.1634740282503128,0.9939706841428959,0.05817220094627064,0.0522861983775309,0.07684027303957058
1196.6166666659071,-0.061762825,-0.81192726,-0.10968596,-2.3591835,0.08546251,1.6443928,0.76126176,0.04,0.03999978,0.012822478877083654,0.032991730496909066,-0.005361020503924507,0.13706212511923832,-0.14421451118195516,0.16455192930070695,0.9937292893331767,0.05934109850028159,0.053410583707388444,0.07828181843950448
1196.6333333325738,-0.06296686,-0.81246173,-0.111818664,-2.3592384,0.0871214,1.6458195,0.760781,0.04,0.039999776,0.013114340580688832,0.03294330054408601,-0.005650763658193725,0.13839520784598935,-0.1456574599271972,0.1656066224641219,0.993481002373374,0.060520774808405516,0.05454770492373481,0.07973256315546082
1196.6499999992404,-0.0641808,-0.81300044,-0.11396887,-2.3592935,0.088793874,1.647258,0.7602962,0.04,0.039999772,0.01249954512134721,0.032891465062978575,-0.005757242314485822,0.1397190725399854,-0.14709056493513117,0.16663529330119944,0.993225727241392,0.06171114126433131,0.05569743064453727,0.08119227801496001
1196.666666665907,-0.06540446,-0.8135436,-0.11613631,-2.3593488,0.090479776,1.648708,0.75980765,0.04,0.03999978,0.012668155750006349,0.03260146914759732,-0.006382748729349963,0.14103356137708686,-0.1485169970961771,0.16763808892880305,0.992963364213331,0.06291209097671557,0.05685973523003852,0.08266073220490724
1196.6833333325737,-0.06663774,-0.81409115,-0.11832081,-2.359404,0.09217891,1.650169,0.75931525,0.04,0.039999776,0.012835981084435844,0.032584821104303385,-0.006728536656241957,0.14233847871838204,-0.14993534840853126,0.16861503965656416,0.9926938176365496,0.06412350978140945,0.058034543740500884,0.0841376945983081
1196.6999999992404,-0.06788048,-0.8146428,-0.120522104,-2.3594599,0.09389114,1.6516409,0.7588191,0.04,0.039999772,0.011662345025298393,0.03225538909483183,-0.007146277109870702,0.14363367764086749,-0.15134412997073168,0.1695649074469619,0.9924170125626623,0.06534527265645612,0.059221419206023355,0.08562296435465336
1196.716666665907,-0.06913259,-0.81519866,-0.122739956,-2.3595161,0.095616266,1.6531239,0.7583192,0.04,0.039999764,0.011911345693782494,0.03219499084293198,-0.007302447467116835,0.1449186404210275,-0.1527473269548661,0.17049032015109677,0.9921328423323967,0.06657725984551312,0.06042057775268912,0.08711627529304752
1196.7333333325737,-0.07039391,-0.8157587,-0.12497413,-2.3595734,0.09735407,1.6546183,0.7578155,0.04,0.039999772,0.011154010903702272,0.032052445417768416,-0.007431512275157814,0.14619362446457024,-0.1541419442680484,0.1713877609662408,0.9918412195468345,0.06781931621082549,0.061631965601243496,0.08861735931899235
1196.7499999992403,-0.071664326,-0.8163226,-0.12722439,-2.3596318,0.0991044,1.6561241,0.75730836,0.04,0.03999976,0.01041416134208717,0.03185370833223011,-0.007565990729330174,0.14745898815936032,-0.15552788487644134,0.17225745513472812,0.9915420489738876,0.06907152485484437,0.06285533305413969,0.0901260044467984
1196.766666665907,-0.07294366,-0.81689054,-0.12949051,-2.359691,0.10086703,1.6576414,0.7567975,0.04,0.03999976,0.011399685610680166,0.0318345270166942,-0.007721584362907485,0.1487119248828567,-0.15690576823007368,0.17310230755272454,0.9912352346425586,0.0703335531994954,0.06409102211894183,0.09164192152718614
1196.7833333325736,-0.07423182,-0.81746244,-0.13177225,-2.3597507,0.102641806,1.6591681,0.7562833,0.04,0.039999753,0.01062356619794258,0.0313365935860066,-0.009356103781321679,0.1499542354202484,-0.15827039316434133,0.17391975676515137,0.9909207314660277,0.07160538821114361,0.06533804438109293,0.09316497349550781
1196.7999999992403,-0.07552865,-0.81803805,-0.13406931,-2.3598115,0.10442851,1.6607051,0.75576544,0.04,0.039999753,0.010193121080392942,0.031220266025122623,-0.00890775546984468,0.1511853200084898,-0.1596315069662414,0.17470851581721675,0.9905984565439869,0.07288675958741869,0.06659658456272224,0.09469484196141192
1196.816666665907,-0.076834,-0.81861764,-0.13638148,-2.3598735,0.10622698,1.662252,0.7552444,0.04,0.03999975,0.009980268135922898,0.030920310556359354,-0.009655684282527943,0.15240657309144912,-0.16098507356474134,0.17546879175513155,0.9902683143334488,0.07417769889904559,0.06786650418373749,0.0962313474035946
1196.8333333325736,-0.07814774,-0.81920105,-0.1387085,-2.3599358,0.10803697,1.6638091,0.7547199,0.04,0.03999975,0.011593940012444293,0.0311082252530126,-0.0092302294163904,0.15361524844940033,-0.16233196770446262,0.1762012413797014,0.9899301953090156,0.07547799301492135,0.06914839460441016,0.09777413006274495
1196.8499999992403,-0.0794697,-0.819788,-0.1410501,-2.359998,0.1098583,1.6653757,0.7541922,0.04,0.039999753,0.011395757267829154,0.030800660822113968,-0.00968182964440345,0.15481182519795625,-0.16366342315916982,0.17690580877545425,0.9895840390742555,0.0767875037003237,0.070441887116327,0.09932295517374574
1196.866666665907,-0.08079974,-0.8203784,-0.14340602,-2.3600602,0.11169076,1.6669523,0.75366104,0.04,0.039999746,0.011535573209853212,0.030694482985316185,-0.00968129419551822,0.15599625243704987,-0.1649832389044131,0.17758222364816845,0.9892297565561254,0.0781060313833094,0.07174718333401459,0.10087754105396046
1196.8833333325736,-0.082137726,-0.8209724,-0.14577599,-2.360123,0.113534145,1.668538,0.75312674,0.04,0.039999742,0.010402184334701303,0.030257698087290952,-0.010562461296204084,0.1571678818068844,-0.1662884064543622,0.17823399440603754,0.9888672991029949,0.07943350163577811,0.07306369833521723,0.10243768626929879
1196.8999999992402,-0.08348349,-0.82157,-0.14815976,-2.3601859,0.115388274,1.670133,0.75258964,0.04,0.03999974,0.011003257599462302,0.03011672822563205,-0.010713269611839493,0.15832736298083278,-0.167582965186126,0.17885615412281974,0.9884965591208774,0.08076992217734236,0.07439166497632797,0.10400313677818289
1196.9166666659069,-0.08483688,-0.82217085,-0.15055703,-2.3602488,0.1172529,1.6717368,0.75204927,0.04,0.03999973,0.010809326652960749,0.029881053039715333,-0.010965986791622306,0.15947241730846382,-0.16886304466701818,0.1794493113717692,0.988117506562044,0.08211487241421198,0.07573082249338113,0.10557359271372067
1196.9333333325735,-0.08619774,-0.8227749,-0.15296751,-2.3603117,0.11912783,1.6733499,0.75150585,0.04,0.039999735,0.010804502990291454,0.029725460409685267,-0.010880664589318911,0.1606050430934353,-0.17012899375553994,0.18001396805858783,0.9877300514563766,0.08346832024001692,0.07708128512534766,0.10714877717322947
1196.9499999992402,-0.08756592,-0.82338256,-0.155391,-2.360375,0.12101285,1.6749711,0.75095963,0.04,0.039999735,0.010529165559436393,0.029268745728561196,-0.01214057668237345,0.1617240605575442,-0.17137913042076725,0.18055265494790054,0.9873341377196962,0.08483014949906464,0.07844269711124986,0.10872851281601736
1196.9666666659068,-0.08894125,-0.82399297,-0.15782711,-2.3604383,0.12290773,1.6766008,0.75041056,0.04,0.03999973,0.009576362126884064,0.02904176147941473,-0.011622338601524618,0.16282878900561515,-0.1726137249466036,0.1810623206219512,0.9869297304719072,0.08620018577822185,0.07981473593546957,0.11031247894050664
1196.9833333325735,-0.0903236,-0.824607,-0.16027568,-2.3605018,0.12481225,1.6782392,0.7498586,0.04,0.03999973,0.011098192700442766,0.029013505989766708,-0.01221442362213665,0.1639194242010881,-0.17383675407795493,0.18154580126068087,0.9865167093086409,0.0875782562773358,0.08119808672509306,0.1119004110557967
1196.9999999992401,-0.09171277,-0.8252235,-0.16273639,-2.3605652,0.12672624,1.6798857,0.74930406,0.04,0.039999723,0.009465957311594053,0.028602787435400012,-0.012053362945141366,0.16499557797642062,-0.17503921098161757,0.18200015703734862,0.9860950688428546,0.08896430937925413,0.08259185087063296,0.11349208355758314
1197.0166666659068,-0.09310866,-0.82584363,-0.1652089,-2.3606288,0.1286494,1.68154,0.74874663,0.04,0.039999712,0.010237322590445075,0.028187814708768855,-0.013366219870913909,0.16605609160068244,-0.17622611305448727,0.1824265500094121,0.9856647454660971,0.09035796274883176,0.08399633254080302,0.11508720273266594
1197.0333333325734,-0.094511054,-0.8264662,-0.167693,-2.3606925,0.13058148,1.6832019,0.7481867,0.04,0.03999972,0.009194270632439938,0.028058365782390737,-0.012825154011597562,0.16710267206626617,-0.17739546517851063,0.1828258956865761,0.9852257074327564,0.09175926548043978,0.08541097298844089,0.11668551026276845
1197.04999999924,-0.095919795,-0.82709205,-0.17018837,-2.3607564,0.1325224,1.6848713,0.7476243,0.04,0.039999716,0.009678537795609898,0.02752936428203623,-0.013709017824536929,0.16813380698598115,-0.17854919210416118,0.1831953321930514,0.9847778772352347,0.09316796960657395,0.08683600731876864,0.11828681152346664
1197.0666666659067,-0.09733472,-0.8277205,-0.17269464,-2.3608205,0.13447182,1.6865481,0.74705935,0.04,0.03999971,0.008819392580639018,0.027258110872702135,-0.0135773814033735,0.16914983000315975,-0.1796843890611472,0.18353494738599613,0.9843212470601173,0.09458389386742971,0.088271032451935,0.1198907604311518
1197.0833333325734,-0.098755635,-0.82835144,-0.17521164,-2.3608847,0.13642953,1.6882322,0.746492,0.04,0.03999971,0.008943308229181213,0.02711533015085643,-0.013691142131611045,0.1701500318483773,-0.18080230605417663,0.1838490129791645,0.9838557580370588,0.09600693723095678,0.08971600386178345,0.1214971359001018
1197.09999999924,-0.10018243,-0.82898504,-0.17773895,-2.3609488,0.13839532,1.6899232,0.7459224,0.04,0.039999697,0.0090431231227317,0.026625924076889573,-0.014273355199967419,0.1711339507795085,-0.1819030791009677,0.1841367500557717,0.9833813760915802,0.09743688158543612,0.09117084315051616,0.12310564821469422
1197.1166666659067,-0.10161491,-0.82962155,-0.18027632,-2.361013,0.14036897,1.6916208,0.7453505,0.04,0.039999694,0.009174125452515725,0.026269707252601915,-0.014789340131149409,0.1721015173866922,-0.1829836686361812,0.18439432337907646,0.9828980554935487,0.0988735328070385,0.09263552976561645,0.12471606008169077
1197.1333333325733,-0.103052884,-0.83026034,-0.1828235,-2.3610778,0.1423502,1.6933249,0.74477625,0.04,0.0399997,0.0069806059041166435,0.025781140105662903,-0.014922929265903662,0.1730529209006595,-0.18404193144501776,0.18462327928811292,0.9824058247820746,0.10031670357629688,0.09410925124183624,0.12632815699019098
1197.14999999924,-0.10449623,-0.8309013,-0.18538013,-2.3611429,0.14433879,1.6950355,0.74419993,0.04,0.039999697,0.007714805892922172,0.025602942188440725,-0.01494071887688797,0.17398823156124335,-0.18508747262197062,0.184826835082124,0.9819046237978325,0.10176632029757313,0.09559217698467022,0.12794163324289828
1197.1666666659066,-0.10594472,-0.8315445,-0.18794596,-2.3612082,0.14633453,1.6967521,0.7436216,0.04,0.039999682,0.007514425471866204,0.02513942168366201,-0.015346677719629831,0.17490651911190977,-0.18611273523457372,0.18500137353820229,0.9813944331289024,0.10322217177255173,0.09708410159447464,0.12955626999783457
1197.1833333325733,-0.10739822,-0.8321898,-0.19052063,-2.3612738,0.14833711,1.6984746,0.7430413,0.04,0.039999686,0.007259622110256103,0.02480796124356699,-0.015536443303876268,0.17580809170800396,-0.1871177954710445,0.18514471812946165,0.9808752410419939,0.10468408330892905,0.09858487068801843,0.13117174804052273
1197.19999999924,-0.10885657,-0.8328372,-0.19310383,-2.3613398,0.1503464,1.7002031,0.74245906,0.04,0.039999682,0.006813706674480002,0.02432130579392844,-0.015885322584541228,0.17669154668265782,-0.1881062165275305,0.18526603661626306,0.9803470234475751,0.10615188564955023,0.10009431118319945,0.13278787466965986
1197.2166666659066,-0.11031957,-0.8334868,-0.19569528,-2.3614066,0.15236206,1.7019368,0.7418749,0.04,0.03999968,0.006108184060948929,0.023777480779507698,-0.01642626513989054,0.1775576087043835,-0.18907298667510092,0.1853539341792907,0.9798098033226301,0.10762529373802286,0.10161203531084484,0.13440438884448988
1197.2333333325732,-0.111787,-0.8341385,-0.19829462,-2.3614738,0.15438394,1.7036761,0.7412889,0.04,0.039999686,0.006537466853462348,0.023396578378037658,-0.016422964850248967,0.1784065294049328,-0.19002426342120526,0.1854195164174825,0.979263538388294,0.10910416663483997,0.10313817180562912,0.1360210304428981
1197.24999999924,-0.11325874,-0.8347922,-0.20090163,-2.3615413,0.15641168,1.7054203,0.74070126,0.04,0.03999967,0.0064077990777455796,0.023180904617486897,-0.016831683367479755,0.1792384946220683,-0.19095232174505847,0.18545207141639908,0.9787082347294415,0.11058837477281581,0.10467241227637558,0.1376375266638149
1197.2666666659065,-0.11473462,-0.83544785,-0.20351592,-2.3616095,0.15844509,1.7071692,0.74011195,0.04,0.039999668,0.005454249973269043,0.022485359684287776,-0.017156154764430553,0.18005132909983912,-0.19186055170437488,0.1854599534449342,0.978143909198926,0.11207767921234575,0.10621442384435532,0.13925366381833304
1197.2833333325732,-0.116214424,-0.83610547,-0.20613717,-2.3616781,0.16048391,1.7089231,0.7395211,0.04,0.039999653,0.005904611633233969,0.0222125713097987,-0.01708555575119508,0.1808457951684535,-0.19275062783688432,0.18544353164073446,0.9775705321918483,0.11357192029010026,0.10776438314890115,0.14086912804551036
1197.2999999992398,-0.11769797,-0.83676463,-0.20876506,-2.361747,0.16252795,1.7106813,0.7389286,0.04,0.03999965,0.005481211101399097,0.02168373799830703,-0.017328019321616317,0.18162243614158613,-0.19361530755014705,0.18539412721484677,0.9769881454408036,0.11507083089619044,0.1093218155016301,0.14248371205308738
1197.3166666659065,-0.119185105,-0.83742535,-0.21139939,-2.361816,0.16457693,1.7124438,0.738335,0.04,0.03999964,0.005813994393122357,0.02155384567565921,-0.01744741377234238,0.18238008444320497,-0.1944607535005139,0.18532285639674884,0.9763967020870169,0.11657448004536049,0.11088676120592397,0.14409717882391518
1197.3333333325731,-0.12067565,-0.8380875,-0.2140397,-2.361885,0.16663061,1.7142105,0.73773986,0.04,0.039999634,0.005134540541540389,0.0208612504463912,-0.017595845278228772,0.18311698977884547,-0.1952827836129726,0.18522171907139628,0.9757962669805152,0.11808239757066255,0.11245895753344846,0.14570921591081729
1197.3499999992398,-0.12216942,-0.83875126,-0.2166857,-2.3619545,0.16868867,1.7159809,0.7371435,0.04,0.03999963,0.005042802531551871,0.020355487662238048,-0.018151095503626813,0.18383614667182457,-0.19608139104527372,0.18509211064548192,0.9751868471812841,0.1195944950736549,0.11403817773833594,0.1473195976468308
1197.3666666659065,-0.1236662,-0.83941627,-0.21933708,-2.3620243,0.170751,1.717755,0.73654586,0.04,0.039999623,0.004145669343014191,0.01975983164357875,-0.01805043187259603,0.18453377597763104,-0.1968580677022679,0.18494144618335123,0.9745684786522598,0.12111051653385353,0.11562409014608042,0.14892814703814056
1197.383333332573,-0.12516585,-0.84008265,-0.22199358,-2.3620942,0.17281726,1.7195324,0.73594713,0.04,0.039999627,0.004871269620876362,0.01958953373895067,-0.018402029511399576,0.18521319905659203,-0.19761181943466616,0.18476137745417764,0.9739411546442568,0.12263036275168988,0.11721673758614669,0.1505345736077305
1197.3999999992398,-0.12666817,-0.84075016,-0.22465475,-2.362164,0.17488717,1.7213129,0.7353473,0.04,0.03999961,0.004418083158519437,0.01890124548046268,-0.018448458552811076,0.18587202490409785,-0.19834165033200624,0.18455544889647402,0.9733049404654037,0.12415371963950403,0.1188158209175584,0.1521385798047261
1197.4166666659064,-0.128173,-0.84141886,-0.22732033,-2.3622339,0.17696053,1.7230963,0.7347466,0.04,0.03999961,0.004302724567040173,0.018448315181146535,-0.01874590662958031,0.1865104252750908,-0.19904618110409475,0.1843240970267852,0.9726598383564683,0.1256805206048963,0.1204211774134392,0.15373999355799464
1197.433333332573,-0.12968013,-0.8420886,-0.22999,-2.3623037,0.17903708,1.7248825,0.73414475,0.04,0.03999961,0.003998423662165962,0.018025484700268102,-0.0187175055978539,0.18712846984366113,-0.19972553330957354,0.18406556211346606,0.97200590401291,0.12721040996268893,0.12203267517905604,0.15533853465838113
1197.4499999992397,-0.13118942,-0.8427592,-0.23266348,-2.3623738,0.18111655,1.7266712,0.73354214,0.04,0.0399996,0.00317919975465486,0.01745042030086852,-0.01900664895251314,0.1877252969849554,-0.20037974505893275,0.1837841222107335,0.9713431800110703,0.1287433461751387,0.12364987399155113,0.15693401837550508
1197.4666666659064,-0.13270058,-0.8434306,-0.23534039,-2.362444,0.18319866,1.7284622,0.7329387,0.04,0.039999597,0.003271483057254443,0.016835672936654777,-0.01904529767873253,0.18830012832198315,-0.2010112128051833,0.18348022405539693,0.9706717291594176,0.1302789905273559,0.1252726385320466,0.15852616463239913
1197.483333332573,-0.13421348,-0.84410304,-0.23802035,-2.362514,0.18528323,1.7302552,0.7323346,0.04,0.0399996,0.0034488864987913814,0.01622348550250896,-0.019451752098254005,0.18885570640044025,-0.20161498621749296,0.18314557846795665,0.969991571601435,0.1318171736176918,0.1269009219980893,0.1601147705792826
1197.4999999992397,-0.13572797,-0.8447761,-0.24070306,-2.3625839,0.18736997,1.7320502,0.73173,0.04,0.039999593,0.003161101269144595,0.01593690682527016,-0.01923297926720302,0.18938843497173288,-0.20219556649323311,0.18279304581446387,0.969302759521714,0.13335778229402545,0.12853446843633945,0.1616995754756246
1197.5166666659063,-0.1372438,-0.8454496,-0.24338825,-2.362654,0.18945862,1.7338468,0.73112476,0.04,0.039999597,0.0019548261621427088,0.01517591695060494,-0.01942868090230032,0.18990029163547945,-0.20274519149455533,0.1824090580503865,0.9686053885300193,0.13490053678524713,0.1301727955700676,0.16328040231189986
1197.533333332573,-0.13876083,-0.8461239,-0.2460755,-2.3627238,0.19154887,1.7356445,0.73051906,0.04,0.039999593,0.0027361993894636782,0.014604312797145136,-0.01988699906112501,0.19038896582720577,-0.20327357497922866,0.18200782032790452,0.9678995148312665,0.1364451739296762,0.13181587279206494,0.16485696643079917
1197.5499999992396,-0.14027892,-0.8467984,-0.24876459,-2.3627937,0.1936405,1.7374437,0.72991306,0.04,0.03999959,0.0019174694907864165,0.01439830965360156,-0.01944451682487358,0.19085728256706122,-0.20377208528668717,0.18157602837577563,0.9671851646553916,0.13799169991372962,0.13346352725320443,0.1664290687307223
1197.5666666659063,-0.14179778,-0.84747344,-0.2514551,-2.3628635,0.19573331,1.739244,0.72930646,0.04,0.03999959,0.0018492118304624938,0.013435184238280717,-0.019796375212699502,0.19130052845154388,-0.20424570271204448,0.18112800950131305,0.9664624505573864,0.1395396000471533,0.1351155500976719,0.16799648747249282
1197.583333332573,-0.14331736,-0.8481489,-0.2541468,-2.3629334,0.19782695,1.7410449,0.72869974,0.04,0.039999586,0.0014326313359624976,0.013102955848781628,-0.020146558993272556,0.1917232064531465,-0.2046898611962582,0.18065385970153436,0.965731421016039,0.14108894055791926,0.1367715700160268,0.16955904856402346
1197.5999999992396,-0.1448373,-0.84882456,-0.2568393,-2.363003,0.19992128,1.742846,0.7280929,0.04,0.039999582,0.0014380133064317846,0.012195103020318232,-0.020082464576498538,0.19212323524875158,-0.20510656436504127,0.18015174138176562,0.9649921751942422,0.14263936165161328,0.13843134880634392,0.17111655673593235
1197.6166666659062,-0.14635755,-0.84950036,-0.25953224,-2.3630724,0.20201592,1.7446476,0.727486,0.04,0.039999586,0.001268591503444938,0.011969008401191417,-0.019923149018952202,0.1924987104063234,-0.20549844236288795,0.17963558954962916,0.9642447742041605,0.14419074495001208,0.14009484891758917,0.1726686937388647
1197.6333333325729,-0.14787784,-0.8501761,-0.26222533,-2.3631418,0.20411073,1.7464495,0.72687906,0.04,0.03999958,0.0004458063762147191,0.01116708148916623,-0.019929231523252433,0.1928523973226156,-0.20585908491701876,0.17908803767523418,0.9634893203720861,0.14574283804466484,0.14176166785866062,0.17421533862881555
1197.6499999992395,-0.14939803,-0.8508518,-0.26491824,-2.3632112,0.20620537,1.7482511,0.72627217,0.04,0.039999574,0.00011661620429315178,0.010536668392191473,-0.020206050192039804,0.19318089561733823,-0.20619510044598346,0.17852740243537135,0.9627259190401873,0.1472954406008788,0.14343147384433522,0.17575628096105503
1197.6666666659062,-0.15091787,-0.85152745,-0.2676106,-2.3632805,0.2082996,1.7500523,0.72566533,0.04,0.039999574,4.052998456849366e-05,0.009834317627044342,-0.02024883451592352,0.19348641006276984,-0.2065011590879137,0.17794021803409404,0.9619546625601446,0.14884826861303424,0.14510414140888497,0.17729130902469753
1197.6833333325728,-0.15243734,-0.8522029,-0.27030206,-2.3633492,0.21039315,1.7518531,0.7250586,0.04,0.03999957,0.0008926664811337304,0.009709599016405335,-0.020047584934723695,0.19377007743890018,-0.20677739205776574,0.1773265633582682,0.9611756156336051,0.15040117750640145,0.14677975308376442,0.17882009339198304
1197.6999999992395,-0.15395609,-0.852878,-0.27299225,-2.363418,0.2124858,1.7536534,0.7244522,0.04,0.039999574,-0.0010504911440722964,0.008512417992589949,-0.019979862700902906,0.19402788568564017,-0.20702443459331504,0.17669864266051932,0.9603889177287586,0.15195396213058096,0.14845766521983308,0.18034256772619578
1197.7166666659061,-0.155474,-0.8535526,-0.2756809,-2.363487,0.21457724,1.7554525,0.7238462,0.04,0.03999957,-0.0012049182299911365,0.007990836485655128,-0.02026163759452082,0.1942606289367673,-0.20724572365607685,0.17605363944097674,0.9595946949151514,0.153506446140359,0.15013749061867743,0.1818585340169141
1197.7333333325728,-0.15699084,-0.85422695,-0.27836785,-2.3635554,0.21666725,1.7572503,0.7232406,0.04,0.03999957,-0.0002361182861232436,0.007675777851623433,-0.020376248652764772,0.1944704599051368,-0.20743868969692897,0.17538283021965823,0.9587929907711702,0.15505838290401472,0.15181942854701294,0.1833678266624905
1197.7499999992394,-0.15850644,-0.85490084,-0.2810525,-2.3636243,0.21875557,1.7590469,0.72263545,0.04,0.039999563,-0.002244516803617813,0.0064461649285418865,-0.02011509047408211,0.19465489818270093,-0.20760039208052922,0.17469246834229699,0.9579839967157822,0.1566095067645286,0.15350284295540254,0.18487022916639798
1197.766666665906,-0.16002056,-0.855574,-0.28373468,-2.363693,0.22084196,1.7608417,0.7220307,0.04,0.03999956,-0.0016228165247600401,0.006114273318796881,-0.02011241955899301,0.1948174967357515,-0.20773148790587134,0.17397543998113846,0.9571678196520484,0.1581595745769379,0.15518758603842428,0.18636557389108208
1197.7833333325727,-0.1615331,-0.8562464,-0.28641415,-2.3637614,0.22292614,1.7626345,0.72142684,0.04,0.039999563,-0.0019197795237513304,0.0056593118621883765,-0.02016728435230153,0.194952999975611,-0.207839788226274,0.17324989408673672,0.9563445349602504,0.15970863651231326,0.15687338043141633,0.18785373136315456
1197.7999999992394,-0.16304387,-0.8569181,-0.28909034,-2.3638296,0.22500788,1.764425,0.7208236,0.04,0.039999556,-0.0020091872873440053,0.004647696554815894,-0.02013411733796655,0.19506556156418925,-0.20791375924683514,0.17249139004958508,0.9555143225782807,0.1612561985390721,0.15856005225993355,0.18933443323342872
1197.816666665906,-0.16455269,-0.857589,-0.29176307,-2.3638976,0.2270869,1.7662134,0.72022104,0.04,0.03999955,-0.00215834517018898,0.004321338802393271,-0.01996517903881667,0.19515112206837867,-0.20796475566678835,0.17172676161491662,0.95467726580549,0.1628021605617647,0.16024752033050077,0.19080751268883803
1197.8333333325727,-0.16605937,-0.858259,-0.294432,-2.3639655,0.22916292,1.7679993,0.7196194,0.04,0.03999955,-0.0029998984888202074,0.0035130261601235002,-0.019980783475359587,0.19521227086218218,-0.20798163557774288,0.17093768297279222,0.9538335220842377,0.1643463582442189,0.16193531531441197,0.19227282786255312
1197.8499999992393,-0.16756366,-0.8589278,-0.2970967,-2.3640335,0.23123574,1.7697822,0.7190187,0.04,0.039999545,-0.0036824579637606547,0.002428480667060473,-0.019725456798558305,0.19524909425118586,-0.20796593466793434,0.17012510871717307,0.9529832876129902,0.1658884874022458,0.16362291596580633,0.1937302367948233
1197.866666665906,-0.1690655,-0.8595958,-0.29975694,-2.3641014,0.23330508,1.7715622,0.71841896,0.04,0.03999955,-0.0032043515540980394,0.002189706184274609,-0.01997131273356878,0.19526059094683162,-0.2079268481307296,0.16929777137390037,0.9521266241684081,0.16742839659037784,0.16531051874108696,0.19517954800234283
1197.8833333325726,-0.17056459,-0.8602627,-0.30241254,-2.3641691,0.23537076,1.7733392,0.7178204,0.04,0.03999954,-0.003328120137480184,0.001598581931927523,-0.01966820253263002,0.1952442535305183,-0.2078612598877631,0.1684608565060039,0.9512636509114198,0.16896595696667593,0.16699785140246226,0.19662067406041753
1197.8999999992393,-0.17206073,-0.860928,-0.30506292,-2.3642364,0.2374324,1.7751125,0.7172229,0.04,0.039999537,-0.0038233770689455326,0.0007101322590963299,-0.0192603152828541,0.19520513810018417,-0.20775827331440286,0.16759116420536052,0.9503946161499544,0.170500796329771,0.16868442147187176,0.19805332109508994
1197.916666665906,-0.1735538,-0.8615918,-0.30770794,-2.364303,0.23948985,1.7768822,0.71662664,0.04,0.039999533,-0.0038410828837598388,0.00029190644311727354,-0.019305088311538654,0.19513908332099839,-0.20762895895760544,0.16671247682270993,0.9495196108303902,0.17203281244392785,0.17037013175062896,0.19947741300310154
1197.9333333325726,-0.17504363,-0.8622545,-0.31034702,-2.3643699,0.24154276,1.7786479,0.7160318,0.04,0.039999526,-0.004458396343709481,-0.0009446010022173823,-0.01946706626518857,0.19504453030254565,-0.20747522530968557,0.16582379209245224,0.9486388233165207,0.1735617501474428,0.17205465460690997,0.20089275151309136
1197.9499999992393,-0.17653003,-0.8629156,-0.31298006,-2.3644364,0.24359092,1.7804097,0.7154383,0.04,0.03999952,-0.0047059740376553805,-0.0011661382764427408,-0.01895673756708849,0.19492874613144517,-0.20728400215675147,0.16490289051493182,0.9477523859368334,0.17508747393014013,0.1737377851019333,0.20229921762497335
1197.966666665906,-0.17801282,-0.8635753,-0.3156066,-2.364503,0.24563412,1.7821672,0.7148463,0.04,0.039999515,-0.005069230319509899,-0.002281130394476971,-0.01905332404730231,0.19478461693528312,-0.20706691068580754,0.1639733751041079,0.946860478944696,0.17660970122791197,0.17541922375315908,0.20369669310680422
1197.9833333325726,-0.1794918,-0.86423326,-0.3182266,-2.364569,0.24767213,1.7839202,0.7142557,0.04,0.039999507,-0.004878845701838941,-0.0023518429720703615,-0.018767022891319485,0.1946138906789312,-0.20681955364363175,0.1630286485918806,0.9459632338554779,0.1781282657400925,0.1770988351457105,0.20508506461501722
1197.9999999992392,-0.18096678,-0.86488944,-0.32083955,-2.364635,0.24970466,1.7856686,0.71366674,0.04,0.039999507,-0.005861527812323075,-0.003503915249747358,-0.01842496072512745,0.1944174053300477,-0.20654348819334417,0.16206651112403356,0.9450608488112053,0.17964300548255188,0.17877619690482108,0.20646417133655068
1198.0166666659059,-0.18243764,-0.8655438,-0.32344505,-2.3647008,0.2517315,1.787412,0.7130794,0.04,0.0399995,-0.00577824096050783,-0.004222655996866109,-0.018360595734789875,0.19419394189050299,-0.2062374856865659,0.16108974822320404,0.9441535169845192,0.1811536322937584,0.18045106878535114,0.20783385106080612
1198.0333333325725,-0.18390411,-0.86619604,-0.32604286,-2.3647666,0.25375232,1.78915,0.71249366,0.04,0.0399995,-0.006813172803932233,-0.0051541388017550815,-0.018168129989248882,0.19394493540413774,-0.20590241222690026,0.16009817018201705,0.9432414733065165,0.18265988105812273,0.18212287574248176,0.20919404632463356
1198.0499999992392,-0.18536608,-0.8668462,-0.32863274,-2.3648322,0.2557669,1.7908832,0.71190983,0.04,0.039999496,-0.0061699979541529615,-0.005131623272613961,-0.017599944793955657,0.1936710015542341,-0.2055422137457248,0.15909080104452605,0.9423247644533949,0.18416181039306725,0.1837919281502818,0.21054451557189388
1198.0666666659058,-0.18682335,-0.8674945,-0.3312143,-2.3648973,0.257775,1.7926103,0.71132785,0.04,0.039999496,-0.006086048854081483,-0.006403865109894102,-0.018086143323392534,0.1933692608836387,-0.20515042856285387,0.1580690558230034,0.9414036471197643,0.18565896142361007,0.1854577347255157,0.2118852327633826
1198.0833333325725,-0.1882758,-0.8681409,-0.3337872,-2.364962,0.25977653,1.794332,0.71074784,0.04,0.039999492,-0.0063691988922975895,-0.006879684659955032,-0.01734590848996298,0.1930413117342945,-0.2047311119507754,0.1570330346446945,0.940478229529148,0.18715127535579118,0.18712033999716976,0.21321603662427352
1198.0999999992391,-0.18972318,-0.86878514,-0.3363512,-2.3650267,0.26177114,1.7960476,0.71016973,0.04,0.039999485,-0.006995481372573664,-0.00781241258075438,-0.017386303087230104,0.1926861753024133,-0.2042791174863171,0.15598441377946323,0.9395487740518365,0.18863842211353868,0.18877918061906454,0.21453686826510743
1198.1166666659058,-0.19116536,-0.86942655,-0.33890605,-2.3650908,0.26375857,1.7977569,0.70959383,0.04,0.039999492,-0.007586466858722218,-0.008012959859138302,-0.01656739688238318,0.19230544529988916,-0.20379887156211998,0.1549221862350833,0.9386154519512931,0.1901204731210148,0.1904338603007137,0.21584759417116411
1198.1333333325724,-0.1926022,-0.870066,-0.3414513,-2.3651547,0.2657385,1.7994604,0.7090202,0.04,0.039999485,-0.006851632490967319,-0.00888243975022407,-0.016700208137176986,0.19189745728806115,-0.20329362114851898,0.15384565148583626,0.9376783926695799,0.19159712198449902,0.19208471650682277,0.21714795981621327
1198.149999999239,-0.19403343,-0.87070316,-0.34398672,-2.3652182,0.26771083,1.8011569,0.70844865,0.04,0.039999485,-0.007336557984727321,-0.009961656195733859,-0.01667689373796577,0.19146140356411737,-0.20275387967984132,0.15275590851874182,0.9367378688970726,0.19306796584411126,0.19373108983862491,0.21843806987090553
1198.1666666659057,-0.19545898,-0.87133753,-0.34651202,-2.3652813,0.26967537,1.8028463,0.70787936,0.04,0.03999948,-0.008463927584001496,-0.010543121290407242,-0.015995179631600465,0.1909996160035295,-0.20218650487940787,0.15165588710328404,0.9357940947310643,0.19453299166755597,0.19537248538299015,0.21971781760843095
1198.1833333325724,-0.19687864,-0.87196946,-0.3490269,-2.3653445,0.27163163,1.8045288,0.70731246,0.04,0.039999485,-0.008559555804943386,-0.011203420172378742,-0.01589539919588656,0.19051196985412794,-0.2015930644934517,0.15054157861586345,0.9348472582544793,0.19599199683228655,0.19700885721783015,0.2209869930323968
1198.199999999239,-0.19829223,-0.87259835,-0.35153094,-2.3654075,0.27357963,1.8062044,0.7067481,0.04,0.03999948,-0.008786349452405418,-0.011879786293189643,-0.014979709766205218,0.18999834290278406,-0.20097234872077194,0.1494145591880538,0.9338975372746454,0.1974448937437118,0.1986399184232765,0.22224555477147553
1198.2166666659057,-0.19969958,-0.8732249,-0.35402402,-2.3654704,0.2755191,1.8078728,0.7061861,0.04,0.039999485,-0.00862709752516011,-0.012680948357979283,-0.015401450935992322,0.18945662062129934,-0.20032485604598932,0.14827691468895593,0.9329451171892689,0.19889129710763365,0.20026565228240015,0.22349346469963968
1198.2333333325723,-0.20110056,-0.8738485,-0.3565059,-2.365533,0.27744973,1.8095336,0.7056266,0.04,0.03999948,-0.00917896232861537,-0.013044058144418003,-0.014705631248923545,0.18888914205617718,-0.19964702354578362,0.1471279040092488,0.9319902279946014,0.20033116655600958,0.20188561221449397,0.22473059028458509
1198.249999999239,-0.20249495,-0.87446916,-0.3589761,-2.3655958,0.2793713,1.8111863,0.70506996,0.04,0.039999485,-0.009802319887786126,-0.014391850825179464,-0.014526638853018525,0.18829521237555646,-0.19894334175268982,0.145965949197491,0.9310331249065016,0.20176430636496923,0.2034992712988363,0.2259569241796761
1198.2666666659056,-0.20388263,-0.87508696,-0.3614344,-2.3656583,0.28128356,1.812831,0.7045159,0.04,0.039999474,-0.009316533962699936,-0.014661740603005846,-0.014186524087267394,0.18767512378741832,-0.19821380744764944,0.1447931269096803,0.9300739843367537,0.20319043115117483,0.20510675597686467,0.22717229364780084
1198.2833333325723,-0.20526344,-0.87570155,-0.36388052,-2.3657207,0.28318653,1.8144679,0.7039645,0.04,0.039999478,-0.010084745646166127,-0.015430930507176477,-0.013400144660091762,0.1870294952616354,-0.19745808218414812,0.14360950408115908,0.9291129948338194,0.20460945862640637,0.20670773194762457,0.22837671909502802
1198.299999999239,-0.20663722,-0.87631303,-0.3663141,-2.3657827,0.28507972,1.8160963,0.7034159,0.04,0.039999478,-0.009458720785415764,-0.015983731828494996,-0.013406298898410718,0.18635741932050015,-0.19667513361788785,0.142414848734093,0.9281503953686342,0.2060211464350124,0.2083020593838732,0.22956999554621343
1198.3166666659056,-0.20800377,-0.87692153,-0.36873493,-2.3658447,0.286963,1.8177165,0.7028702,0.04,0.039999478,-0.010090761597503217,-0.01682277764292195,-0.012932631664175354,0.18565911671881843,-0.1958651588919967,0.14121108240211894,0.9271863670357394,0.2074253618213884,0.2098895536620894,0.23075210794240159
1198.3333333325722,-0.209363,-0.8775267,-0.37114275,-2.3659067,0.28883624,1.8193276,0.7023274,0.04,0.039999478,-0.010891130538626115,-0.01770765631975424,-0.012643499532338787,0.1849346078293085,-0.19502890067761494,0.13999730780438363,0.926221187554638,0.20882188518047015,0.21146958793445875,0.23192314540248168
1198.349999999239,-0.21071467,-0.8781284,-0.3735373,-2.3659685,0.29069906,1.8209298,0.7017877,0.039999995,0.039999474,-0.010651116680238104,-0.018048652681201816,-0.012085015072260674,0.18418558821154823,-0.19416759063445888,0.13877136872575999,0.9252550439912385,0.21021066179768497,0.21304210036658833,0.23308291380267093
1198.3666666659055,-0.21205871,-0.8787266,-0.37591827,-2.3660302,0.29255137,1.822523,0.70125103,0.04,0.039999478,-0.011124017382435625,-0.018806651066660685,-0.011586992073220337,0.18340985813914065,-0.1932824113665419,0.13753765562116746,0.9242881626903988,0.21159145645984545,0.21460688047153295,0.2342313700550922
1198.3833333325722,-0.21339494,-0.8793216,-0.37828538,-2.3660917,0.2943929,1.8241072,0.7007173,0.039999995,0.039999474,-0.010423913804924467,-0.019373906678543662,-0.011419784649313591,0.18260850739915754,-0.19237178927377274,0.13629344562341883,0.9233207306272335,0.21296398844586684,0.21616402248804736,0.23536839932541306
1198.3999999992388,-0.21472315,-0.87991315,-0.3806384,-2.3661523,0.29622346,1.8256817,0.70018685,0.039999988,0.039999466,-0.009642986696745126,-0.019829192119991124,-0.011108602695308889,0.18178147732232677,-0.19143381414848162,0.13504209937261905,0.9223529338461496,0.21432819135483525,0.21771334847523768,0.23649395280147315
1198.4166666659055,-0.21604328,-0.8805011,-0.38297698,-2.3662126,0.2980428,1.8272467,0.69965965,0.03999999,0.039999474,-0.011170998921095077,-0.02071379661354733,-0.010410665186921797,0.1809288175917387,-0.1904685926032748,0.13378194928017473,0.9213850537968136,0.2156839036907398,0.21925437154762586,0.23760798994525045
1198.4333333325721,-0.21735516,-0.8810853,-0.3853009,-2.3662727,0.2998507,1.8288014,0.69913566,0.03999999,0.039999474,-0.011660195097062953,-0.021598551638490893,-0.01017837218348916,0.18004994826512102,-0.1894784323761081,0.13251483531067393,0.9204173794669848,0.2170308827450411,0.22078660682604884,0.23871053130575623
1198.4499999992388,-0.21865866,-0.8816656,-0.38761017,-2.3663325,0.30164704,1.8303467,0.6986153,0.039999995,0.039999474,-0.01148556429164671,-0.021408361520036667,-0.009379616021876203,0.17914765403803193,-0.18846679198237512,0.13124003161594827,0.9194499416616592,0.218369364406175,0.2223102468625747,0.2398015421283101
1198.4666666659054,-0.2199536,-0.8822423,-0.3899042,-2.3663921,0.30343166,1.8318814,0.6980981,0.039999988,0.039999474,-0.01156170086269448,-0.02309649770707578,-0.009449903122216163,0.1782167014134356,-0.1874282803620712,0.12995545458570507,0.9184831442887863,0.21969864535136313,0.2238248333815465,0.24088101388420707
1198.483333332572,-0.22123982,-0.88281506,-0.39218262,-2.3664515,0.30520418,1.8334064,0.6975845,0.039999984,0.039999474,-0.011674314630205629,-0.02316893481598692,-0.008219302577150422,0.17726370561860252,-0.18636656704813195,0.12866286682946504,0.9175171449753395,0.2210188708561752,0.22533041148868016,0.24194865790102066
1198.4999999992388,-0.22251719,-0.8833839,-0.3944454,-2.36651,0.30696452,1.8349208,0.69707435,0.03999999,0.039999478,-0.010732035648164384,-0.023647020553785314,-0.008408323850583876,0.17628397193025663,-0.18528118262344428,0.1273665250725034,0.916552154587466,0.2223297368271873,0.22682683785338567,0.24300457130033892
1198.5166666659054,-0.22378555,-0.88394874,-0.39669234,-2.366567,0.30871257,1.8364238,0.69656783,0.03999999,0.03999948,-0.010322906592730163,-0.02418008927744797,-0.0080607443232239,0.17527941111342463,-0.18416913235046567,0.12606366470699978,0.9155883770476376,0.22363111624379042,0.22831388049899345,0.2440488058448976
1198.533333332572,-0.22504482,-0.8845095,-0.39892307,-2.3666232,0.31044805,1.8379171,0.69606483,0.03999999,0.03999948,-0.010878748225850998,-0.024290484197653228,-0.006842059837697256,0.1742503016893224,-0.18303294910405607,0.12475514938413759,0.914625953236884,0.2249230016374084,0.22979184691871563,0.24508103984116192
1198.5499999992387,-0.2262948,-0.88506633,-0.40113747,-2.366679,0.31217068,1.8393997,0.6955656,0.03999999,0.039999485,-0.011694722027177917,-0.025436406977719095,-0.006906775346249283,0.17319405142307653,-0.18186795129868855,0.12344255968203915,0.9136651808525426,0.22620520591854493,0.23126006741686272,0.24610144926714217
1198.5666666659054,-0.22753543,-0.88561904,-0.40333527,-2.3667338,0.3138805,1.8408707,0.6950701,0.03999999,0.039999485,-0.011311567869576322,-0.026170857759910682,-0.006613003308153509,0.17211225591556242,-0.18067883487920483,0.12212567532394444,0.9127063001627533,0.22747750150955875,0.23271824606034744,0.2471101250470776
1198.583333332572,-0.22876655,-0.8861676,-0.40551618,-2.366788,0.3155772,1.8423303,0.6945783,0.039999984,0.039999478,-0.01177064324249244,-0.026800280193284287,-0.005981326816439925,0.17100638801997428,-0.17946522793773156,0.12080270812700417,0.9117495711009003,0.2287397041735851,0.234166188981799,0.24810695933335972
1198.5999999992387,-0.229988,-0.8867118,-0.4076801,-2.3668413,0.3172606,1.8437785,0.6940904,0.03999998,0.03999948,-0.012016885760068874,-0.02711827099707298,-0.005400629087537467,0.16987762699391504,-0.1782288963290662,0.11947466497347761,0.9107951738901371,0.2299918334877207,0.23560369274651244,0.24909196637306127
1198.6166666659053,-0.23119967,-0.88725156,-0.4098266,-2.366894,0.3189305,1.8452151,0.6936065,0.039999984,0.039999485,-0.012053629500119456,-0.02790236233652932,-0.004799727176107993,0.16872431778074157,-0.1769707418284589,0.11814169962098517,0.9098433640922994,0.23123367970511785,0.23703057768828803,0.25006507838559733
1198.633333332572,-0.23240142,-0.8877871,-0.41195562,-2.3669467,0.32058677,1.84664,0.6931266,0.039999984,0.039999492,-0.013202793835809246,-0.02878732804634243,-0.004460904673453392,0.16754666560543946,-0.17568853830534498,0.11680499864265025,0.9088943681924933,0.23246516044407806,0.23844643965369428,0.25102643698255145
1198.6499999992386,-0.23359315,-0.88831806,-0.41406682,-2.3669994,0.32222924,1.8480527,0.6926506,0.039999988,0.039999496,-0.01376921636389028,-0.029591051283806014,-0.0038040082278145704,0.16634641141707002,-0.174387554160947,0.11546293113142385,0.9079485113025997,0.23368602024621182,0.2398508341705142,0.25197603479813085
1198.6666666659053,-0.23477478,-0.8888445,-0.41616005,-2.367052,0.32385767,1.849453,0.6921788,0.039999988,0.0399995,-0.013869321099191367,-0.030136164312222213,-0.003533387630683116,0.1651255529380385,-0.17306876414653144,0.1141150327075032,0.9070059963871643,0.2348962357533998,0.24124350928169744,0.2529139185099587
1198.683333332572,-0.23594612,-0.88936645,-0.41823512,-2.3671045,0.32547203,1.8508414,0.691711,0.039999984,0.0399995,-0.012980445548427255,-0.030162422747548323,-0.002749088123543686,0.16388279166984024,-0.17173234875378676,0.11276139505491829,0.9060669240286017,0.23609568358479463,0.24262486010416667,0.25383997839861683
1198.6999999992386,-0.23710705,-0.8898839,-0.42029175,-2.3671565,0.3270721,1.8522177,0.6912475,0.039999977,0.0399995,-0.012730640355895773,-0.03074652893306773,-0.0023132417305671282,0.16261760236382458,-0.1703751891437753,0.11140382783166891,0.9051315207786498,0.2372842690870941,0.24399468910917887,0.2547541901976241
1198.7166666659052,-0.23825754,-0.8903965,-0.4223299,-2.367208,0.3286577,1.8535813,0.6907881,0.039999977,0.039999504,-0.013337348468844823,-0.03108510253652108,-0.0019012368467574703,0.16132969576232503,-0.16899746762022091,0.11004235221649517,0.904200070104714,0.23846182719864256,0.2453526083645131,0.2556565816881015
1198.7333333325719,-0.23939735,-0.8909045,-0.42434916,-2.3672585,0.33022863,1.8549325,0.69033295,0.039999988,0.039999522,-0.011966284836617547,-0.03156261286320072,-0.0013213285223967475,0.16002048951602532,-0.16760144888476147,0.10867673172502779,0.9032727137660824,0.23962819516431513,0.24669892004063834,0.25654702395220397
1198.7499999992385,-0.24052644,-0.8914076,-0.4263494,-2.3673089,0.33178484,1.8562711,0.689882,0.03999997,0.03999951,-0.013672318809510031,-0.03237311782744445,-0.0006508825674433893,0.15868864095085958,-0.1661832769967378,0.10731030913956845,0.9023497441849863,0.24078328786474318,0.24803300497258818,0.2574256706286342
1198.7666666659052,-0.2416447,-0.891906,-0.42833048,-2.3673592,0.33332616,1.8575968,0.6894353,0.039999977,0.03999953,-0.014022647961198231,-0.03313870377428252,-0.0003858436150583344,0.1573370202161106,-0.16474762020293843,0.10593916241355239,0.9014313902539627,0.24192697655404743,0.249354585242272,0.25829261990788643
1198.7833333325718,-0.242752,-0.89239955,-0.43029225,-2.3674095,0.33485225,1.8589095,0.68899316,0.039999977,0.039999537,-0.014216072918449285,-0.03334357328274029,0.00026788715785652784,0.15596525849849838,-0.16329563461428814,0.10456522968674722,0.900517851821151,0.24305930092221562,0.25066350369587354,0.25914780088114253
1198.7999999992385,-0.24384826,-0.89288825,-0.4322343,-2.3674595,0.3363631,1.8602093,0.68855536,0.039999984,0.039999552,-0.013534023508299242,-0.033958117423316114,0.0008731552261220799,0.15457314194698268,-0.16182826057819696,0.1031880192738992,0.8996093457499895,0.2441799805993935,0.25195985172672253,0.2599911445253544
1198.8166666659051,-0.2449334,-0.893372,-0.43415686,-2.3675096,0.33785874,1.8614956,0.68812215,0.039999973,0.039999552,-0.014449134309435507,-0.03438783572355941,0.0010376652645138762,0.15316107654255384,-0.16034322024319303,0.10180869982654898,0.8987060376644823,0.24528910100923504,0.25324309990856375,0.2608230188081347
1198.8333333325718,-0.24600731,-0.8938507,-0.43605936,-2.3675592,0.33933893,1.8627688,0.6876932,0.039999973,0.039999556,-0.013351337616684944,-0.03470379200249951,0.001990912255456223,0.15172952406966309,-0.15884470259548572,0.1004244567963306,0.8978081866260904,0.24638631545824768,0.25451356048579626,0.26164306050595526
1198.8499999992384,-0.24706987,-0.89432436,-0.43794185,-2.3676083,0.34080344,1.8640283,0.6872688,0.039999973,0.03999957,-0.013551488676410983,-0.03504300929445536,0.00214587409361755,0.1502798943733218,-0.1573267601801061,0.09903848739599959,0.8969159628252278,0.24747167657829836,0.25577094104302767,0.26245142529387183
1198.866666665905,-0.24812101,-0.89479315,-0.43980405,-2.3676558,0.3422522,1.8652741,0.686849,0.039999973,0.03999959,-0.011241844024478809,-0.03495927836756341,0.0023654033693754073,0.14881121436919398,-0.15579355691868013,0.09765004552262659,0.8960294923713072,0.24854497662210728,0.25701568430394234,0.2632479466558283
1198.8833333325717,-0.24916059,-0.8952567,-0.44164583,-2.3677018,0.34368512,1.8665068,0.68643373,0.03999997,0.039999597,-0.011663242644477378,-0.03493899616374696,0.003499448062926902,0.14732242992360647,-0.15424153376435665,0.09626404287548039,0.8951489159750888,0.24960626326189056,0.2582478211099991,0.2640325632587713
1198.8999999992384,-0.2501886,-0.89571494,-0.44346705,-2.3677466,0.34510213,1.8677254,0.68602324,0.039999973,0.039999615,-0.012604026275875313,-0.03606403659386359,0.003630882368366173,0.14581270777430566,-0.15266887719778238,0.09487916560791207,0.894274537384542,0.25065542884616465,0.259466616066727,0.26480555681950935
1198.916666665905,-0.25120494,-0.8961681,-0.44526753,-2.367791,0.34650287,1.8689301,0.6856174,0.03999997,0.03999963,-0.013475087887115933,-0.0366272249537114,0.004137218150468414,0.14428510733296107,-0.15108039456196157,0.09349284911485857,0.8934065990299014,0.25169234794533196,0.260671926724717,0.265566860532738
1198.9333333325717,-0.25220942,-0.8966161,-0.4470472,-2.3678343,0.34788746,1.8701209,0.6852161,0.039999973,0.039999656,-0.012676622570451102,-0.03681425980931463,0.004705582467479097,0.14274067639717977,-0.1494740101474119,0.09210436174263752,0.892545234213508,0.25271687874326265,0.2618638368285752,0.26631656922248503
1198.9499999992383,-0.2532021,-0.8970588,-0.44880584,-2.3678772,0.34925565,1.8712977,0.6848197,0.039999973,0.03999967,-0.01362705870504577,-0.03734476472641024,0.005305833322699627,0.14118946388748593,-0.14782972354728696,0.09069114670758492,0.8916906691390979,0.25372909937675814,0.26304197635427906,0.26705470109204565
1198.966666665905,-0.25418288,-0.8974962,-0.45054334,-2.36792,0.35060745,1.8724605,0.68442786,0.039999973,0.039999682,-0.013939098021831242,-0.03792406478193566,0.005784214774551266,0.13959979119877006,-0.14621679242023208,0.08932775056601092,0.8908431174681801,0.25472880198963316,0.264206199279496,0.2677813693272622
1198.9833333325716,-0.2551517,-0.8979281,-0.4522596,-2.3679621,0.35194275,1.8736092,0.684041,0.039999977,0.03999974,-0.0138010793429455,-0.037938487146038646,0.006425158995049252,0.13800597973664205,-0.14456742925037863,0.08793809916021003,0.8900027044278245,0.2557161642380141,0.2653563755130337,0.26849659855041286
1198.9999999992383,-0.2561083,-0.89835477,-0.4539545,-2.3680038,0.35326135,1.8747433,0.6836589,0.03999996,0.03999973,-0.013610670174113437,-0.03871039207901106,0.006619869764357134,0.13639137044170024,-0.1429119477731723,0.08655476556063253,0.8891697032981836,0.25669078903658515,0.2664923960138188,0.2692004465583397
1199.016666665905,-0.2570528,-0.89877605,-0.45562783,-2.3680453,0.3545632,1.8758631,0.68328166,0.039999973,0.03999976,-0.014021603166147756,-0.03900489380751493,0.007231129013773874,0.13477748448728827,-0.14121444039168274,0.08513768443867567,0.8883442681287207,0.2576527663329789,0.26761409121825896,0.2698929629783565
1199.0333333325716,-0.2579851,-0.89919186,-0.4572795,-2.3680866,0.35584825,1.8769683,0.6829092,0.039999973,0.03999978,-0.014123359295270532,-0.039363974564043946,0.007792885367408076,0.13313675604520395,-0.1395327104463387,0.08375029347622423,0.8875266053651706,0.2586019687820886,0.26872132549381256,0.2705741963599871
1199.0499999992383,-0.25890505,-0.89960223,-0.45890945,-2.3681278,0.35711637,1.8780588,0.6825417,0.039999966,0.039999805,-0.014485031446698216,-0.03981647789814691,0.008208733262327073,0.1314841378280665,-0.1378390348427858,0.08236005808914323,0.8867168761231826,0.25953842342574096,0.26981388466538564,0.2712442736829649
1199.066666665905,-0.25981274,-0.9000071,-0.46051762,-2.3681688,0.35836738,1.8791347,0.6821793,0.039999973,0.039999846,-0.014101537487709592,-0.039705827929858994,0.008561500230963581,0.1298178934347353,-0.1361370918009036,0.08097057254343865,0.8859152231300668,0.2604621306219655,0.2708918134949506,0.2719031469470098
1199.0833333325716,-0.26070803,-0.90040666,-0.46210375,-2.3682091,0.3596014,1.880196,0.6818218,0.039999966,0.039999854,-0.012842728640949375,-0.03989521945022556,0.009046841190385457,0.1281360707368976,-0.13443137327149654,0.07958606244296648,0.8851217388289065,0.26137295107906167,0.27195540491083386,0.2725508129441186
1199.0999999992382,-0.26159087,-0.90080065,-0.463668,-2.3682492,0.36081833,1.8812425,0.6814692,0.039999977,0.039999906,-0.01402793873981345,-0.040264716391569255,0.009520792662054411,0.12644293835448805,-0.13271037518825074,0.07819816451298033,0.8843366511974596,0.2622708302630533,0.27300424905829723,0.2731874428631496
1199.1166666659049,-0.26246116,-0.90118885,-0.46520987,-2.368289,0.36201793,1.8822743,0.6811216,0.039999973,0.039999958,-0.01416014206130356,-0.04086534289360344,0.01037601618865125,0.12473936371145619,-0.1309735566437261,0.07680607858449306,0.8835602176170343,0.2631556947939796,0.27403812602442024,0.27381294276761386
1199.1333333325715,-0.26331893,-0.9015716,-0.46672964,-2.3683283,0.36320052,1.8832911,0.6807791,0.039999973,0.039999995,-0.013311329310816689,-0.040703228364102895,0.010320659105733654,0.12302278456948691,-0.12923893011132714,0.07542278669393877,0.8827923897929822,0.2640276345914051,0.2750572632808893,0.27442759812396866
1199.1499999992382,-0.2641641,-0.9019487,-0.46822703,-2.3683674,0.36436567,1.8842932,0.6804416,0.039999977,0.04,-0.013825818975288229,-0.04110147535618669,0.010999822530632919,0.12129242141229407,-0.12749626642925116,0.07404308951898086,0.8820334565515263,0.2648865065783243,0.27606146485864563,0.2750312487274798
1199.1666666659048,-0.26499662,-0.90232015,-0.46970206,-2.3684046,0.36551324,1.8852801,0.68010914,0.039999973,0.04,-0.011035949636939435,-0.04019264501650133,0.010907141916449703,0.11955187498718918,-0.12574747763036404,0.07266413142171958,0.8812834571537901,0.2657322330270877,0.2770512912922509,0.2756237117353976
1199.1833333325715,-0.26581654,-0.902686,-0.47115472,-2.3684406,0.36664337,1.8862523,0.6797817,0.039999977,0.04,-0.011950659268178399,-0.04059208971122219,0.011497091413104066,0.11780150433798708,-0.12398256038519134,0.07128696665149725,0.8805424854004071,0.26656488706952847,0.2780265996324876,0.27620518149245465
1199.1999999992381,-0.2666237,-0.90304613,-0.47258478,-2.3684762,0.367756,1.8872094,0.67945945,0.039999984,0.04,-0.013349439440668576,-0.04165172456318533,0.012255792371362872,0.11603756130317514,-0.12220934086332924,0.06991672301209881,0.8798107941712241,0.2673844420121269,0.27898681529446867,0.2767758723615799
1199.2166666659048,-0.26741803,-0.9034007,-0.47399226,-2.3685105,0.36885116,1.8881514,0.6791421,0.039999973,0.04,-0.011819683780522894,-0.04143400149231313,0.01233389148413977,0.11426456096837499,-0.12043059835764676,0.06854807528874192,0.8790884826358905,0.268190645310944,0.2799323276275027,0.27733573410881557
1199.2333333325714,-0.26819974,-0.9037497,-0.4753772,-2.3685439,0.36992863,1.8890783,0.67882997,0.03999998,0.04,-0.012333638071648778,-0.04125218192411184,0.012511900501666062,0.1124792057638565,-0.11865106777371133,0.0671941237183766,0.8783756287878176,0.26898377397441314,0.2808629627534654,0.2778848326977085
1199.249999999238,-0.26896873,-0.9040928,-0.47673944,-2.3685763,0.3709885,1.88999,0.6785229,0.039999977,0.04,-0.012517704067693813,-0.04161287928988733,0.013303393589536583,0.11068281051061735,-0.11686789268001163,0.06584618682650983,0.8776724229190562,0.26976372137691446,0.28177856891859393,0.2784232224051378
1199.2666666659047,-0.26972476,-0.90443015,-0.478079,-2.3686085,0.37203076,1.8908865,0.678221,0.03999996,0.04,-0.013509159576186036,-0.04240865064250032,0.013830768765465962,0.10887824646436166,-0.11507679247887703,0.06450174020224524,0.8769790140408487,0.2705304403730685,0.2826788458655018,0.27895117827971727
1199.2833333325714,-0.27046794,-0.9047619,-0.4793958,-2.3686402,0.37305534,1.8917676,0.67792416,0.03999997,0.04,-0.013035505997827102,-0.04245916835881047,0.013830958656968484,0.10706705845457135,-0.11328481056768434,0.0631602731736752,0.8762955484097463,0.27128383593340777,0.2835638133687265,0.2794687029817538
1199.299999999238,-0.27119824,-0.905088,-0.48068988,-2.368672,0.3740622,1.8926336,0.67763233,0.03999997,0.04,-0.013731984291665,-0.04262703353047348,0.014444053513051891,0.10525566640203662,-0.11148038947528342,0.06181285756297381,0.8756221381914122,0.2720239537691452,0.28443337190871143,0.27997588580008465
1199.3166666659047,-0.27191576,-0.9054084,-0.4819612,-2.3687036,0.3750513,1.8934844,0.6773456,0.039999973,0.04,-0.013747973566768934,-0.0425761977851602,0.014745603277011021,0.10343298382718144,-0.10968506855262211,0.060481733216327625,0.8749588879846346,0.27275086658494324,0.28528747802958304,0.28047275089279955
1199.3333333325713,-0.27262038,-0.905723,-0.4832097,-2.3687353,0.37602282,1.8943197,0.67706406,0.03999996,0.04,-0.013779106678457609,-0.043085801281561587,0.015182228909460527,0.10160742351473702,-0.10788678341491477,0.059150253017607776,0.8743058959043458,0.2734645585498655,0.2861259348615541,0.2809595789497626
1199.349999999238,-0.27331218,-0.90603197,-0.48443532,-2.3687663,0.37697655,1.8951398,0.6767878,0.03999995,0.04,-0.012116596025313342,-0.04238578316788644,0.015210193582837483,0.0997755526058213,-0.10609695831202086,0.05782873872551113,0.8736631800627966,0.27416505012700937,0.2869492734049362,0.2814361163457794
1199.3666666659046,-0.2739911,-0.9063351,-0.48563814,-2.368797,0.3779125,1.8959448,0.6765167,0.039999936,0.04,-0.013210751584669111,-0.04264938724964917,0.015811490900974334,0.09794189249715138,-0.1042957175033308,0.05650472916517105,0.8730308931568838,0.2748523817507048,0.2877571659923311,0.2819025385833204
1199.3833333325713,-0.27465713,-0.90663254,-0.48681828,-2.3688276,0.37883067,1.8967348,0.6762507,0.03999993,0.04,-0.01297376361182323,-0.04253243273387719,0.016002607013709813,0.09610483166777196,-0.10249575613360534,0.055185389679686614,0.8724090846350127,0.27552653746233224,0.28854973753446317,0.28235892967836124
1199.399999999238,-0.27531016,-0.9069242,-0.4879756,-2.3688576,0.37973118,1.8975091,0.6759898,0.039999917,0.04,-0.012744565301092692,-0.04316076201698049,0.016283274822503913,0.09426379002853993,-0.10069713022119513,0.05387283836570049,0.8717979376367534,0.2761873564724125,0.28932674583870016,0.28280547059679034
1199.4166666659046,-0.27595046,-0.90721005,-0.4891101,-2.3688877,0.38061392,1.8982679,0.6757341,0.039999906,0.04,-0.013471703520728795,-0.043032576878176965,0.016511406297214926,0.09242327148433624,-0.098901331398483,0.05256497689108937,0.8711975148002811,0.2768350474112534,0.29008808773578093,0.2832422074557766
1199.4333333325712,-0.27657795,-0.9074904,-0.49022192,-2.3689158,0.38147902,1.8990114,0.6754833,0.03999989,0.04,-0.009573508057103552,-0.04167730334647679,0.01621625576619934,0.09058169296321905,-0.09710951305814282,0.05126137558750778,0.8706076843784466,0.27746943469481594,0.2908348970505595,0.2836688833286603
1199.449999999238,-0.27719253,-0.907765,-0.49131104,-2.3689425,0.3823265,1.8997406,0.6752378,0.03999988,0.04,-0.010168848907321504,-0.04144665050295204,0.01706221941732977,0.08873762946843759,-0.09531328149755908,0.04996830630035168,0.8700284065406284,0.27809087291315265,0.291567200864336,0.2840855603421471
1199.4666666659045,-0.27779442,-0.9080339,-0.4923774,-2.3689685,0.3831562,1.9004544,0.6749974,0.039999872,0.04,-0.011795998440033983,-0.04250747255135634,0.017037606777003944,0.08688789260443239,-0.093513719072503,0.04868423457187214,0.8694600072569135,0.2786991871622036,0.2922842709563194,0.2844924670487209
1199.4833333325712,-0.27838334,-0.908297,-0.49342114,-2.3689935,0.3839683,1.901153,0.6747622,0.039999858,0.04,-0.011439972011695332,-0.042403832705251165,0.017571029663465687,0.08503879072953395,-0.09171850906653717,0.047408752468834296,0.868902506331367,0.279294395121726,0.2929861700421353,0.2848897672937706
1199.4999999992378,-0.27895963,-0.90855443,-0.4944423,-2.3690178,0.3847627,1.9018364,0.67453194,0.039999846,0.04,-0.011582014966693421,-0.04213432643974668,0.017467298084739014,0.08319204878636216,-0.08992345043543767,0.04613762715227998,0.8683559529755783,0.2798765566195132,0.293672994552726,0.285277451364657
1199.5166666659045,-0.2795232,-0.9088063,-0.49544105,-2.3690417,0.38553977,1.9025047,0.6743068,0.03999983,0.04,-0.011706615219608807,-0.042413772967864194,0.01775842023872265,0.08134536940468477,-0.08813517753024634,0.044877788695833934,0.8678203269383283,0.2804457506529368,0.29434470073887603,0.28565583879960404
1199.5333333325711,-0.2800741,-0.9090525,-0.49641725,-2.3690648,0.3862993,1.903158,0.6740868,0.03999982,0.04,-0.011411586818299568,-0.04214226580041558,0.01808742710027733,0.07950162618149134,-0.08634798192454587,0.04362283676962435,0.8672957279266252,0.2810020221436131,0.29500134239924203,0.2860248098575906
1199.5499999992378,-0.28061232,-0.90929306,-0.4973711,-2.3690877,0.38704142,1.903796,0.67387176,0.039999817,0.04,-0.012187687141107517,-0.042488051224509604,0.018205080917366168,0.07766123597198224,-0.08456625903910875,0.04237501468249448,0.866782255366973,0.28154531777412667,0.2956427051885613,0.286384613220053
1199.5666666659044,-0.281138,-0.9095281,-0.49830264,-2.36911,0.38776633,1.9044192,0.67366153,0.03999981,0.04,-0.01133581663257388,-0.04197972873440925,0.018391550231555698,0.07582509221690696,-0.08279370534414829,0.04113634062747101,0.8662798339886675,0.2820757197475506,0.2962691898672883,0.2867352519116696
1199.583333332571,-0.28165114,-0.9097573,-0.4992119,-2.3691323,0.38847387,1.9050275,0.67345655,0.039999798,0.04,-0.012127307966247614,-0.042049967856527815,0.018767653390772132,0.07399344476102494,-0.08102698374514934,0.039906356485867524,0.8657885544992016,0.28259346382156425,0.2968804491214874,0.2870768399452261
1199.5999999992378,-0.28215185,-0.909981,-0.5000991,-2.3691545,0.38916415,1.9056214,0.6732566,0.03999979,0.04,-0.012041827053499432,-0.041645563694570065,0.018778723455037394,0.07216757479538582,-0.07926769490456226,0.038682857442328224,0.8653083616764633,0.283098619830857,0.2974767614829464,0.287409441459875
