rsonawane2002/My_IMU/logs_2/traj_397/imu_397.csv
time,j1,j2,j3,j4,j5,j6,j7,gripper1,gripper2,imu_ax,imu_ay,imu_az,imu_gx,imu_gy,imu_gz
1614.333333332194,0.00016700293,-0.785875,4.0107683e-05,-2.3551247,9.29385e-05,1.570997,0.786,0.04,0.04,-9.512719,-0.016100069507956505,0.082711056,4.9631783e-08,-0.0011641274904832244,5.1336417e-07
1614.3499999988605,0.00016701482,-0.78576016,4.0123006e-05,-2.3552213,9.296399e-05,1.5709941,0.786,0.04,0.04,-9.834506,0.0006580720655620098,0.009058907,-1.2902356e-06,-0.002238501561805606,7.187824e-08
1614.3666666655272,0.00016708959,-0.7856543,4.0195806e-05,-2.35531,9.291768e-05,1.5709913,0.786,0.04,0.04,-9.832292,0.0007626726292073727,0.0075758044,-9.620423e-06,-0.003226306289434433,-5.8333844e-06
1614.3833333321938,0.00016733432,-0.78555703,4.0421983e-05,-2.355391,9.2687376e-05,1.5709884,0.786,0.04,0.04,-9.830577,0.0009754307684488595,0.0061135287,-3.1681695e-05,-0.00413587037473917,-2.2177821e-05
1614.3999999988605,0.00016790477,-0.7854676,4.0939354e-05,-2.3554654,9.211298e-05,1.5709856,0.786,0.04,0.04,-9.828561,0.0012706104898825288,0.0048607267,-7.3347546e-05,-0.0049683828838169575,-5.346291e-05
1614.4166666655271,0.00016900049,-0.78538567,4.192339e-05,-2.3555336,9.1000824e-05,1.5709827,0.786,0.04,0.039999995,-9.826787,0.001648537116125226,0.003644817,-0.00014031242,-0.005730089265853167,-0.000102976475
1614.4333333321938,0.00017086042,-0.78531086,4.3583477e-05,-2.355599,8.909632e-05,1.5709826,0.7859981,0.04,0.039999995,-9.82521,0.002094862749800086,0.0024420987,-0.0002378538,-0.006425696890801191,-0.00017591227
1614.4499999988604,0.00017375851,-0.78524256,4.6159374e-05,-2.355658,8.6121094e-05,1.5709827,0.7859962,0.04,0.039999995,-9.823767,0.0025751711800694466,0.0013609733,-0.00036181466,-0.0070588961243629456,-0.00027473446
1614.466666665527,0.00017800037,-0.78518075,4.9917988e-05,-2.355716,8.175622e-05,1.5709832,0.7859943,0.04,0.04,-9.822104,0.0031233951449394226,0.00030608894,-0.00052523724,-0.007626391481608152,-0.00040310077
1614.4833333321938,0.00018391914,-0.7851249,5.5150034e-05,-2.3557708,7.566924e-05,1.5709838,0.7859914,0.04,0.04,-9.8209305,0.003670655656605959,-0.00059625786,-0.0007323389,-0.008152760565280914,-0.0005626817
1614.4999999988604,0.00019187287,-0.7850748,6.2167666e-05,-2.355822,6.750184e-05,1.5709846,0.78598756,0.04,0.04,-9.819648,0.004287867806851864,-0.0015462751,-0.000982105,-0.00863051600754261,-0.0007553961
1614.516666665527,0.00020224132,-0.78503036,7.130174e-05,-2.3558729,5.6877423e-05,1.5709854,0.78598183,0.04,0.04,-9.818118,0.004853092133998871,-0.0023773392,-0.0012784546,-0.009057440795004368,-0.0009828432
1614.5333333321937,0.00021542348,-0.7849914,8.2899984e-05,-2.3559234,4.3385455e-05,1.5709864,0.7859761,0.04,0.04,-9.817056,0.005474457982927561,-0.0032156124,-0.0016195768,-0.009447436779737473,-0.001248598
1614.5499999988604,0.00023183486,-0.78495765,9.7324024e-05,-2.355974,2.6606569e-05,1.5709873,0.7859685,0.039999995,0.039999995,-9.815979,0.006008393131196499,-0.003964314,-0.0020176896,-0.00980478897690773,-0.0015533469
1614.566666665527,0.0002519054,-0.7849293,0.00011494843,-2.3560247,6.093488e-06,1.5709916,0.78595895,0.03999999,0.04,-9.814904,0.006603133399039507,-0.004774045,-0.0024658814,-0.010128120891749859,-0.0019000558
1614.5833333321937,0.00027607707,-0.7849063,0.00013615788,-2.356076,-1.8588156e-05,1.5709963,0.7859475,0.039999988,0.039999995,-9.813738,0.007074901834130287,-0.0055433856,-0.0029671877,-0.010404198430478573,-0.0022865823
1614.5999999988603,0.0003048026,-0.7848888,0.00016134622,-2.356131,-4.789623e-05,1.571001,0.7859338,0.039999988,0.04,-9.812622,0.0075974902138113976,-0.006245866,-0.003523651,-0.010646278038620949,-0.002716434
1614.616666665527,0.00033854286,-0.78487635,0.00019091477,-2.3561888,-8.229154e-05,1.5710058,0.78591734,0.039999984,0.03999999,-9.811904,0.007954973727464676,-0.0068607163,-0.004135495,-0.01087045669555664,-0.0031878361
1614.6333333321936,0.0003777665,-0.7848694,0.00022527123,-2.3562477,-0.00012225576,1.571014,0.78589827,0.03999998,0.03999999,-9.811031,0.008360607549548149,-0.007569005,-0.0048022512,-0.011072616092860699,-0.0037049144
1614.6499999988603,0.00042294714,-0.7848678,0.00026482777,-2.356313,-0.00016826265,1.5710225,0.7858764,0.039999973,0.039999988,-9.809791,0.008544466458261013,-0.008232983,-0.005526351,-0.011227420531213284,-0.0042664376
1614.666666665527,0.0004745627,-0.78487176,0.0003100004,-2.3563795,-0.00022079426,1.5710311,0.78585136,0.03999997,0.039999984,-9.809334,0.008723652921617031,-0.008838845,-0.0063086897,-0.01137551013380289,-0.004871974
1614.6833333321936,0.0005330943,-0.78488123,0.00036120752,-2.356453,-0.00028033712,1.5710433,0.7858232,0.039999966,0.039999984,-9.808064,0.00889340415596962,-0.009470031,-0.0071487133,-0.011489683762192726,-0.0055235163
1614.6999999988602,0.0005990246,-0.78489625,0.00041886943,-2.3565333,-0.00034737762,1.5710557,0.7857915,0.039999958,0.039999977,-9.807516,0.008772417902946472,-0.010095591,-0.008047948,-0.011582241393625736,-0.0062195486
1614.7166666655269,0.00067283714,-0.784917,0.0004834071,-2.356616,-0.00042240488,1.5710698,0.785756,0.039999954,0.039999977,-9.806971,0.00873081386089325,-0.010731967,-0.009005597,-0.011667681857943535,-0.0069618947
1614.7333333321935,0.00075501594,-0.7849436,0.00055524136,-2.3567061,-0.00050590606,1.571086,0.7857164,0.03999995,0.039999973,-9.805728,0.008352622389793396,-0.011313623,-0.010021399,-0.011714351363480091,-0.0077488115
1614.7499999988602,0.0008460435,-0.7849763,0.0006347922,-2.3568037,-0.00059836946,1.5711025,0.7856725,0.039999947,0.039999973,-9.805124,0.008059290237724781,-0.011956733,-0.011095196,-0.01174701377749443,-0.008581973
1614.7666666655268,0.0009464006,-0.78501505,0.0007224783,-2.3569088,-0.00070027926,1.5711225,0.78562415,0.03999994,0.039999966,-9.804496,0.007382329553365707,-0.012468831,-0.012226272,-0.011769210919737816,-0.009459526
1614.7833333321935,0.0010565659,-0.7850602,0.0008187161,-2.357022,-0.00081211986,1.5711435,0.785571,0.039999932,0.03999996,-9.803749,0.00680534727871418,-0.013177099,-0.013415474,-0.01176763791590929,-0.010382956
1614.7999999988601,0.0011770146,-0.7851118,0.00092391926,-2.3571439,-0.00093437004,1.5711673,0.7855129,0.039999925,0.039999958,-9.803139,0.0057968078181147575,-0.0136975115,-0.014661384,-0.01175395492464304,-0.011351162
1614.8166666655268,0.0013082183,-0.78517,0.0010384988,-2.3572783,-0.0010675057,1.5711931,0.7854498,0.03999992,0.039999954,-9.802445,0.004907757043838501,-0.0143780615,-0.015964191,-0.011722627095878124,-0.012362951
1614.8333333321934,0.0014506442,-0.78523505,0.0011628608,-2.3574212,-0.0012119996,1.5712208,0.7853812,0.039999917,0.039999954,-9.802341,0.0035280995070934296,-0.014952572,-0.017323695,-0.011693933978676796,-0.013419705
1614.84999999886,0.0016047552,-0.7853071,0.0012974081,-2.3575726,-0.001368318,1.5712516,0.78530705,0.039999913,0.039999954,-9.801515,0.0022738277912139893,-0.015644582,-0.01873838,-0.011647788807749748,-0.014520152
1614.8666666655267,0.0017710082,-0.7853862,0.0014425392,-2.3577352,-0.0015369231,1.5712835,0.78522706,0.039999917,0.039999958,-9.800803,0.0005020983517169952,-0.016268859,-0.020208035,-0.011578254401683807,-0.015663786
1614.8833333321934,0.0019498557,-0.7854726,0.0015986473,-2.3579094,-0.0017182706,1.5713187,0.785141,0.039999925,0.03999997,-9.8002615,-0.0011300444602966309,-0.016940758,-0.021732323,-0.011505724862217903,-0.016849317
1614.89999999886,0.0021417423,-0.78556657,0.0017661212,-2.358095,-0.0019128112,1.5713568,0.7850487,0.039999925,0.039999973,-9.799886,-0.0033456608653068542,-0.01759896,-0.0233096,-0.011421754024922848,-0.018077955
1614.9166666655267,0.0023471096,-0.7856684,0.0019453424,-2.3582926,-0.0021209887,1.571397,0.7849499,0.03999993,0.03999998,-9.799289,-0.005591575056314468,-0.01828905,-0.024939815,-0.011323650367558002,-0.019348245
1614.9333333321933,0.0025663893,-0.7857778,0.0021366884,-2.3585033,-0.0023432395,1.5714401,0.7848444,0.039999932,0.039999988,-9.798698,-0.007879020646214485,-0.01902445,-0.026621742,-0.011217530816793442,-0.020659653
1614.94999999886,0.002800008,-0.7858955,0.002340532,-2.3587263,-0.0025799945,1.5714864,0.784732,0.039999936,0.039999995,-9.798432,-0.010783698409795761,-0.01972464,-0.028354727,-0.011106237769126892,-0.022011593
1614.9666666655266,0.003048383,-0.78602135,0.0025572355,-2.3589633,-0.002831646,1.5715353,0.7846126,0.03999995,0.039999995,-9.797731,-0.013516884297132492,-0.020511474,-0.030137561,-0.010980215854942799,-0.02339928
1614.9833333321933,0.0033119281,-0.7861555,0.0027871588,-2.3592134,-0.0030986269,1.5715873,0.78448594,0.039999954,0.039999995,-9.797482,-0.016940493136644363,-0.021225594,-0.031970013,-0.010850928723812103,-0.024828982
1614.99999999886,0.0035910464,-0.7862986,0.0030306547,-2.3594778,-0.0033813715,1.571642,0.7843517,0.039999966,0.04,-9.796844,-0.020204933360219002,-0.022081716,-0.033851124,-0.010710840113461018,-0.026299672
1615.0166666655266,0.003886134,-0.7864502,0.003288066,-2.3597567,-0.0036802378,1.5717002,0.7842099,0.03999997,0.04,-9.796554,-0.024125294759869576,-0.02280804,-0.03577878,-0.010565556585788727,-0.02780443
1615.0333333321933,0.004197579,-0.78661084,0.0035597328,-2.3600507,-0.003995602,1.5717617,0.7840602,0.039999984,0.04,-9.796031,-0.027890419587492943,-0.023728246,-0.037753295,-0.010412685573101044,-0.02934508
1615.04999999886,0.004525763,-0.7867807,0.0038459857,-2.3603601,-0.004327869,1.5718265,0.78390247,0.03999998,0.039999995,-9.795713,-0.03241441026329994,-0.024537835,-0.03977281,-0.010252242907881737,-0.03092571
1615.0666666655266,0.0048710583,-0.7869599,0.00414715,-2.360685,-0.004677445,1.5718946,0.78373647,0.039999977,0.039999995,-9.795231,-0.036751024425029755,-0.02547838,-0.04183709,-0.010086741298437119,-0.032543823
1615.0833333321932,0.0052338303,-0.7871485,0.004463543,-2.3610268,-0.005044716,1.5719664,0.7835622,0.03999997,0.04,-9.79495,-0.041847020387649536,-0.02634165,-0.043943968,-0.0099153658375144,-0.034198668
1615.0999999988599,0.005614433,-0.78734666,0.004795475,-2.361385,-0.0054300246,1.5720417,0.7833794,0.03999996,0.04,-9.794548,-0.04674314334988594,-0.02735705,-0.04609393,-0.009741210378706455,-0.035887156
1615.1166666655265,0.006013214,-0.7875545,0.005143249,-2.3617601,-0.0058337403,1.5721207,0.7831878,0.03999995,0.04,-9.7943325,-0.052448585629463196,-0.028295707,-0.048284877,-0.009563921019434929,-0.037611023
1615.1333333321932,0.0064305123,-0.7877725,0.005507159,-2.3621514,-0.006256175,1.5722033,0.78298736,0.039999943,0.04,-9.793862,-0.05793612822890282,-0.029392902,-0.05051594,-0.009382447227835655,-0.03936557
1615.1499999988598,0.006866662,-0.7880005,0.0058874944,-2.3625612,-0.006697692,1.5722895,0.78277785,0.039999932,0.04,-9.793491,-0.06427298486232758,-0.030377014,-0.05278635,-0.00919156614691019,-0.041154724
1615.1666666655265,0.0073219812,-0.7882386,0.006284536,-2.3629885,-0.0071586324,1.5723794,0.7825592,0.03999993,0.04,-9.793339,-0.07067526876926422,-0.031465735,-0.055094335,-0.009004375897347927,-0.04297707
1615.1833333321931,0.007796782,-0.7884873,0.0066985535,-2.3634331,-0.0076392516,1.5724732,0.78233117,0.03999993,0.04,-9.79288,-0.07708748430013657,-0.03267817,-0.057439685,-0.008815005421638489,-0.04482554
1615.1999999988598,0.008291374,-0.7887466,0.0071298173,-2.3638968,-0.008139874,1.5725709,0.7820936,0.039999925,0.04,-9.792545,-0.08440817892551422,-0.033769585,-0.059820812,-0.008617350831627846,-0.046705883
1615.2166666655264,0.00880605,-0.78901654,0.007578583,-2.3643787,-0.008660803,1.5726726,0.7818465,0.039999932,0.04,-9.792225,-0.09149942547082901,-0.035048097,-0.062236425,-0.00842114258557558,-0.048614122
1615.233333332193,0.009341098,-0.7892974,0.008045101,-2.3648798,-0.009202332,1.5727781,0.7815897,0.039999977,0.04,-9.791972,-0.0995350182056427,-0.03623888,-0.064686626,-0.008221536874771118,-0.050557937
1615.2499999988597,0.009896794,-0.78958935,0.008529614,-2.3653998,-0.009764671,1.5728878,0.78132284,0.039999988,0.04,-9.791563,-0.10725772380828857,-0.0375902,-0.067169145,-0.008021954447031021,-0.0525214
1615.2666666655264,0.010473409,-0.7898922,0.009032358,-2.3659394,-0.010348127,1.5730014,0.781046,0.03999999,0.04,-9.79133,-0.11596399545669556,-0.038848273,-0.06968289,-0.007819254882633686,-0.054514296
1615.283333332193,0.011071206,-0.79020625,0.009553562,-2.366499,-0.010953,1.5731192,0.7807589,0.03999998,0.04,-9.790951,-0.12444945424795151,-0.04032127,-0.072226964,-0.007618250325322151,-0.056536343
1615.2999999988597,0.011690437,-0.79053175,0.010093444,-2.3670778,-0.011579551,1.5732412,0.78046167,0.03999997,0.04,-9.790791,-0.13386234641075134,-0.041687965,-0.07480054,-0.007417595479637384,-0.058584597
1615.3166666655263,0.012331348,-0.7908688,0.010652218,-2.367677,-0.012228044,1.5733677,0.78015393,0.03999995,0.04,-9.790297,-0.14305232465267181,-0.04324165,-0.0774025,-0.007214788813143969,-0.060659416
1615.333333332193,0.012994175,-0.79121757,0.011230091,-2.368297,-0.012898707,1.5734986,0.7798357,0.03999994,0.04,-9.790089,-0.15318609774112701,-0.044698577,-0.08003143,-0.0070102037861943245,-0.06275696
1615.3499999988596,0.013679144,-0.7915781,0.011827256,-2.3689377,-0.013591753,1.5736339,0.7795068,0.03999993,0.04,-9.789711,-0.16309133172035217,-0.046339005,-0.08268625,-0.006808624602854252,-0.0648774
1615.3666666655263,0.014386472,-0.7919505,0.012443907,-2.3695986,-0.014307394,1.5737733,0.7791673,0.03999993,0.04,-9.789507,-0.17397540807724,-0.047906257,-0.08536604,-0.006606580223888159,-0.067019396
1615.383333332193,0.015116372,-0.79233474,0.013080224,-2.3702805,-0.015045822,1.573917,0.77881694,0.039999932,0.04,-9.788971,-0.18462319672107697,-0.049654514,-0.08807026,-0.006404760759323835,-0.06918306
1615.3999999988596,0.015869044,-0.79273105,0.013736389,-2.3709836,-0.015807273,1.5740651,0.7784555,0.039999936,0.04,-9.788779,-0.19628508388996124,-0.051323302,-0.0907973,-0.006205396726727486,-0.07136934
1615.4166666655262,0.016644679,-0.7931396,0.014412564,-2.3717084,-0.016591927,1.5742182,0.7780833,0.039999943,0.04,-9.788454,-0.20801538228988647,-0.053117555,-0.09354532,-0.006008734926581383,-0.07357677
1615.433333332193,0.017443463,-0.79356027,0.015108912,-2.372455,-0.017399961,1.5743757,0.77769977,0.039999943,0.04,-9.787937,-0.21982423961162567,-0.055051535,-0.0963153,-0.005811542272567749,-0.07580634
1615.4499999988595,0.01826557,-0.79399323,0.015825585,-2.3732228,-0.01823158,1.5745379,0.7773052,0.03999994,0.04,-9.787728,-0.2326495200395584,-0.056903474,-0.09910358,-0.0056174383498728275,-0.07805649
1615.4666666655262,0.019111171,-0.7944385,0.016562736,-2.374013,-0.019086948,1.5747045,0.77689934,0.039999936,0.04,-9.787197,-0.24522462487220764,-0.05895368,-0.10191108,-0.005426355171948671,-0.08032567
1615.4833333321928,0.019980425,-0.79489636,0.017320495,-2.374825,-0.019966228,1.5748761,0.77648205,0.039999932,0.04,-9.786959,-0.2588333785533905,-0.06093098,-0.10473621,-0.0052397954277694225,-0.08261247
1615.4999999988595,0.020873483,-0.79536676,0.018098999,-2.3756595,-0.020869633,1.5750523,0.7760535,0.03999996,0.04,-9.786371,-0.27225935459136963,-0.063111536,-0.1075772,-0.005054097156971693,-0.08492693
1615.5166666655261,0.021790484,-0.79585,0.018898366,-2.376516,-0.02179719,1.5752332,0.77561337,0.03999997,0.04,-9.7861,-0.2866041362285614,-0.06520966,-0.110434204,-0.004873656667768955,-0.0872467
1615.5333333321928,0.022731567,-0.796346,0.019718722,-2.3773954,-0.02274906,1.5754186,0.7751616,0.039999966,0.04,-9.785469,-0.300777405500412,-0.06751788,-0.113305196,-0.004694837611168623,-0.089583814
1615.5499999988594,0.023696851,-0.79685473,0.020560173,-2.378297,-0.023725389,1.5756092,0.7746983,0.039999954,0.04,-9.785124,-0.3160126805305481,-0.069727585,-0.116189234,-0.004522074945271015,-0.09193768
1615.566666665526,0.024686461,-0.79737604,0.02142282,-2.3792214,-0.024726328,1.5758044,0.7742234,0.039999947,0.04,-9.784433,-0.3309893012046814,-0.07220829,-0.119085565,-0.004350000526756048,-0.0943074
1615.5833333321928,0.025700511,-0.79791045,0.022306772,-2.3801684,-0.02575197,1.5760043,0.7737368,0.03999995,0.04,-9.784064,-0.34702470898628235,-0.07460409,-0.12199355,-0.004185290075838566,-0.09668996
1615.5999999988594,0.0267391,-0.7984578,0.0232121,-2.381138,-0.026802428,1.5762092,0.77323824,0.039999954,0.04,-9.783336,-0.36282598972320557,-0.077182576,-0.12491158,-0.0040244427509605885,-0.099087216
1615.616666665526,0.027802324,-0.7990181,0.024138898,-2.3821306,-0.027877769,1.576419,0.7727279,0.039999958,0.04,-9.7827835,-0.37969040870666504,-0.0797261,-0.12783845,-0.003865140723064542,-0.10149685
1615.6333333321927,0.028890263,-0.79959154,0.025087235,-2.3831458,-0.0289781,1.5766336,0.7722058,0.039999958,0.04,-9.782015,-0.39631903171539307,-0.08247671,-0.13077328,-0.0037114121951162815,-0.103920914
1615.6499999988594,0.030003011,-0.80017805,0.02605719,-2.3841844,-0.030103503,1.5768528,0.7716718,0.039999958,0.04,-9.781399,-0.41403257846832275,-0.08515594,-0.13371587,-0.003560637589544058,-0.10635934
1615.666666665526,0.03114063,-0.8007777,0.027048811,-2.3852465,-0.031254064,1.5770772,0.77112585,0.039999973,0.04,-9.7807255,-0.4318426549434662,-0.087985136,-0.13666435,-0.0034184730611741543,-0.10881196
1615.6833333321927,0.03230319,-0.8013907,0.028062178,-2.3863325,-0.032429785,1.5773064,0.77056795,0.03999998,0.04,-9.779861,-0.44966015219688416,-0.09098329,-0.13961786,-0.003282446414232254,-0.11126774
1615.6999999988593,0.033490732,-0.80201626,0.029097322,-2.387442,-0.033630777,1.5775405,0.7699981,0.03999998,0.04,-9.7792425,-0.468648761510849,-0.09391345,-0.14257535,-0.003154054284095764,-0.113737285
1615.716666665526,0.03470333,-0.8026554,0.030154284,-2.3885744,-0.03485708,1.5777797,0.76941615,0.03999998,0.04,-9.778359,-0.4873453378677368,-0.0971343,-0.14553587,-0.0030369553714990616,-0.11621477
1615.7333333321926,0.035941005,-0.803308,0.0312331,-2.3897295,-0.03610872,1.5780239,0.7688223,0.039999973,0.04,-9.77745,-0.5071446299552917,-0.10023272,-0.14849855,-0.002921495819464326,-0.11870129
1615.7499999988593,0.03720379,-0.8039736,0.03233381,-2.3909078,-0.037385773,1.5782728,0.7682164,0.039999977,0.04,-9.776229,-0.5266848206520081,-0.103576936,-0.15146314,-0.002806046511977911,-0.12119613
1615.766666665526,0.038491722,-0.8046526,0.03345643,-2.3921094,-0.03868824,1.5785267,0.7675983,0.03999998,0.04,-9.775374,-0.5473254323005676,-0.10688209,-0.15442766,-0.002701149322092533,-0.12369864
1615.7833333321926,0.03980482,-0.8053446,0.03460098,-2.393335,-0.04001616,1.5787857,0.7669682,0.039999995,0.04,-9.774134,-0.5677863359451294,-0.110410355,-0.15739083,-0.002600918523967266,-0.12621868
1615.7999999988592,0.04114308,-0.80605,0.035767462,-2.3945847,-0.041369513,1.5790496,0.76632595,0.04,0.04,-9.773174,-0.5892118811607361,-0.113922834,-0.16035226,-0.002510921098291874,-0.12873451
1615.8166666655259,0.042506523,-0.8067687,0.036955893,-2.3958573,-0.0427483,1.5793185,0.7656718,0.04,0.04,-9.771913,-0.6104573607444763,-0.11765392,-0.16331077,-0.0024298029020428658,-0.13125774
1615.8333333321925,0.04389515,-0.80750084,0.038166262,-2.3971536,-0.04415254,1.5795923,0.7650055,0.04,0.04,-9.770715,-0.6327929496765137,-0.121354625,-0.1662664,-0.002354899188503623,-0.13378698
1615.8499999988592,0.045308944,-0.80824625,0.039398566,-2.3984735,-0.045582205,1.5798712,0.7643273,0.039999995,0.04,-9.76927,-0.6548804640769958,-0.12527895,-0.16921721,-0.002287870505824685,-0.13632058
1615.8666666655258,0.046747893,-0.8090049,0.04065278,-2.3998163,-0.04703732,1.580155,0.7636369,0.04,0.04,-9.767918,-0.6780567765235901,-0.12920037,-0.17216307,-0.002227146876975894,-0.13885942
1615.8833333321925,0.048211977,-0.8097768,0.041928902,-2.4011824,-0.048517834,1.5804437,0.7629344,0.04,0.04,-9.766284,-0.7009828686714172,-0.13333744,-0.17510195,-0.002173599088564515,-0.14140123
1615.8999999988591,0.04970115,-0.8105619,0.043226894,-2.402572,-0.05002377,1.5807374,0.76221985,0.04,0.04,-9.764769,-0.7250561714172363,-0.13748004,-0.17803337,-0.002126639010384679,-0.14395659
1615.9166666655258,0.051215388,-0.8113601,0.044546735,-2.4039857,-0.051555023,1.5810362,0.7614935,0.04,0.04,-9.763113,-0.7491041421890259,-0.14178379,-0.18095613,-0.0020891609601676464,-0.14650455
1615.9333333321924,0.052754648,-0.81217164,0.04588838,-2.405423,-0.053111564,1.5813396,0.76075435,0.04,0.04,-9.76141,-0.7733084559440613,-0.14628263,-0.18387057,-0.0020638350397348404,-0.14905576
1615.949999998859,0.054318875,-0.8129964,0.047251787,-2.4068832,-0.054693334,1.581648,0.7600036,0.04,0.04,-9.7596245,-0.7985799312591553,-0.15074414,-0.18677102,-0.0020476514473557472,-0.15160796
1615.9666666655257,0.055908028,-0.8138342,0.0486369,-2.4083662,-0.056300305,1.5819614,0.7592411,0.04,0.04,-9.757586,-0.823625385761261,-0.15546851,-0.1896623,-0.0020388702396303415,-0.15416296
1615.9833333321924,0.057522032,-0.81468517,0.05004367,-2.4098725,-0.0579324,1.5822797,0.7584667,0.04,0.04,-9.755549,-0.8497128486633301,-0.16020995,-0.19254269,-0.002035457408055663,-0.15671705
1615.999999998859,0.059160817,-0.815549,0.051472027,-2.4114017,-0.059589576,1.5826026,0.7576805,0.04,0.04,-9.75337,-0.8756429553031921,-0.16515748,-0.19541027,-0.0020427810959517956,-0.1592821
1616.0166666655257,0.060824305,-0.81642616,0.05292193,-2.412954,-0.061271697,1.5829307,0.7568824,0.04,0.04,-9.751177,-0.9025012850761414,-0.17014837,-0.19826448,-0.0020588478073477745,-0.1618352
1616.0333333321923,0.06251241,-0.8173161,0.05439328,-2.414529,-0.06297873,1.5832636,0.75607246,0.04,0.04,-9.7487135,-0.9292141199111938,-0.1753451,-0.20110437,-0.002081779995933175,-0.1643897
1616.049999998859,0.064225055,-0.81821907,0.055886034,-2.4161272,-0.06471055,1.5836011,0.7552507,0.04,0.04,-9.746295,-0.9569506645202637,-0.18060754,-0.20392822,-0.002112718066200614,-0.16694199
1616.0666666655256,0.06596216,-0.8191348,0.057400066,-2.4177485,-0.06646711,1.5839436,0.75441724,0.04,0.04,-9.743671,-0.9844685196876526,-0.18605815,-0.2067355,-0.0021551698446273804,-0.1694915
1616.0833333321923,0.06772359,-0.8200634,0.058935303,-2.4193926,-0.06824826,1.584291,0.75357217,0.04,0.04,-9.741094,-1.0130436420440674,-0.19159447,-0.2095257,-0.0022081269416958094,-0.17204148
1616.099999998859,0.06950927,-0.821005,0.060491662,-2.421059,-0.070053905,1.5846429,0.75271547,0.04,0.04,-9.738197,-1.0414015054702759,-0.19733164,-0.21229833,-0.002269766526296735,-0.17459367
1616.1166666655256,0.07131904,-0.8219591,0.06206906,-2.4227476,-0.071883984,1.5849999,0.75184715,0.04,0.04,-9.735262,-1.0707329511642456,-0.20311107,-0.21505198,-0.002340349368751049,-0.1771372
1616.1333333321923,0.073152825,-0.822926,0.06366737,-2.424459,-0.073738344,1.5853616,0.7509674,0.04,0.04,-9.732083,-1.0998473167419434,-0.20916368,-0.21778597,-0.002417799085378647,-0.17967479
1616.149999998859,0.075010516,-0.82390535,0.0652865,-2.4261925,-0.07561683,1.5857277,0.75007606,0.04,0.04,-9.728933,-1.1299991607666016,-0.21522893,-0.2205,-0.0025052912533283234,-0.18220787
1616.1666666655256,0.07689193,-0.8248976,0.0669263,-2.4279482,-0.07751933,1.5860984,0.7491734,0.04,0.04,-9.725581,-1.1602373123168945,-0.22151124,-0.223192,-0.002603689441457391,-0.1847364
1616.1833333321922,0.078796975,-0.82590187,0.0685867,-2.4297261,-0.079445705,1.5864742,0.74825937,0.04,0.04,-9.721982,-1.1906108856201172,-0.22794032,-0.22586259,-0.002709886757656932,-0.1872687
1616.1999999988589,0.08072551,-0.8269186,0.070267536,-2.4315257,-0.08139582,1.5868547,0.747334,0.04,0.04,-9.718413,-1.2218683958053589,-0.23452608,-0.22850955,-0.0028262005653232336,-0.18978603
1616.2166666655255,0.08267738,-0.8279477,0.071968704,-2.4333472,-0.083369516,1.5872395,0.7463975,0.04,0.04,-9.714502,-1.252963662147522,-0.24129382,-0.23113304,-0.0029493013862520456,-0.19229667
1616.2333333321922,0.08465241,-0.828989,0.07369006,-2.4351907,-0.08536666,1.5876287,0.7454499,0.04,0.04,-9.710637,-1.2850419282913208,-0.24813177,-0.23373194,-0.003085012547671795,-0.19480056
1616.2499999988588,0.086650476,-0.83004254,0.0754315,-2.4370558,-0.08738707,1.5880227,0.74449116,0.04,0.04,-9.706499,-1.3169145584106445,-0.2552063,-0.23630562,-0.0032310395035892725,-0.19729811
1616.2666666655255,0.08867141,-0.83110815,0.07719282,-2.4389422,-0.08943064,1.5884212,0.74352163,0.04,0.04,-9.702236,-1.3497847318649292,-0.26239762,-0.23885305,-0.0033848395105451345,-0.19979708
1616.2833333321921,0.09071503,-0.8321857,0.07897393,-2.4408495,-0.0914971,1.5888242,0.74254113,0.04,0.04,-9.697726,-1.3823307752609253,-0.26980212,-0.24137442,-0.0035471501760184765,-0.20227653
1616.2999999988588,0.092781134,-0.8332751,0.08077466,-2.4427774,-0.093586355,1.5892314,0.74154997,0.04,0.04,-9.693117,-1.4158862829208374,-0.2773165,-0.2438683,-0.003718723077327013,-0.20474811
1616.3166666655254,0.0948696,-0.83437616,0.08259484,-2.4447262,-0.09569817,1.5896431,0.740548,0.04,0.04,-9.688197,-1.449233889579773,-0.28505743,-0.24633484,-0.003897044574841857,-0.20721103
1616.333333332192,0.09698022,-0.835489,0.084434345,-2.446696,-0.09783242,1.5900593,0.7395355,0.04,0.04,-9.683267,-1.4834980964660645,-0.2929203,-0.24877203,-0.004084653686732054,-0.20966446
1616.3499999988587,0.0991128,-0.83661336,0.08629298,-2.4486864,-0.09998889,1.5904797,0.73851234,0.04,0.04,-9.678112,-1.5176242589950562,-0.30099383,-0.25117978,-0.0042823259718716145,-0.212116
1616.3666666655254,0.10126716,-0.8377493,0.08817058,-2.4506967,-0.10216738,1.5909047,0.7374787,0.04,0.04,-9.6727295,-1.5525259971618652,-0.30920917,-0.25355697,-0.004487413913011551,-0.21454816
1616.383333332192,0.10344309,-0.8388966,0.090066984,-2.4527273,-0.10436764,1.5913337,0.73643476,0.04,0.04,-9.667145,-1.587296962738037,-0.31764072,-0.2559028,-0.004699882119894028,-0.21696824
1616.3999999988587,0.1056404,-0.84005505,0.09198201,-2.454778,-0.106589526,1.591767,0.73538053,0.04,0.04,-9.661422,-1.6229358911514282,-0.32620406,-0.25821736,-0.004922038409858942,-0.21937765
1616.4166666655253,0.107858874,-0.8412248,0.093915485,-2.4568477,-0.10883282,1.5922042,0.7343162,0.04,0.04,-9.655451,-1.6586403846740723,-0.33498555,-0.26049957,-0.005151776131242514,-0.22177415
1616.433333332192,0.11009827,-0.8424055,0.095867194,-2.458938,-0.111097336,1.5926456,0.7332417,0.04,0.04,-9.64921,-1.69447660446167,-0.3439456,-0.26274943,-0.005387235898524523,-0.22416542
1616.4499999988586,0.112358436,-0.84359723,0.09783701,-2.461047,-0.1133828,1.5930914,0.73215735,0.04,0.04,-9.642958,-1.731079339981079,-0.35307634,-0.26496452,-0.005635102745145559,-0.2265405
1616.4666666655253,0.11463911,-0.8447999,0.099824674,-2.4631753,-0.115689024,1.593541,0.73106295,0.04,0.04,-9.636297,-1.7675105333328247,-0.3624271,-0.26714626,-0.005887114442884922,-0.22889811
1616.483333332192,0.11694007,-0.8460131,0.10183001,-2.4653227,-0.11801574,1.5939947,0.7299591,0.04,0.04,-9.629514,-1.8047454357147217,-0.37192437,-0.2692924,-0.0061470987275242805,-0.23124096
1616.4999999988586,0.119261116,-0.847237,0.10385285,-2.4674888,-0.12036272,1.5944526,0.72884554,0.04,0.04,-9.6225395,-1.8418306112289429,-0.3816569,-0.27140403,-0.00641608377918601,-0.23356968
1616.5166666655252,0.12160197,-0.84847134,0.105892934,-2.4696732,-0.122729786,1.5949142,0.72772247,0.04,0.04,-9.615222,-1.8796958923339844,-0.39155853,-0.2734795,-0.006689195521175861,-0.23588637
1616.533333332192,0.12396242,-0.8497158,0.107950106,-2.4718761,-0.12511669,1.5953797,0.72659004,0.04,0.04,-9.607778,-1.9174251556396484,-0.40166175,-0.27551818,-0.006970433983951807,-0.23819287
1616.5499999988585,0.1263422,-0.85097075,0.11002411,-2.474097,-0.12752318,1.595849,0.72544825,0.04,0.04,-9.600098,-1.9558098316192627,-0.41197273,-0.27751985,-0.007260095793753862,-0.24047592
1616.5666666655252,0.12874107,-0.8522357,0.112114765,-2.4763362,-0.12994896,1.5963222,0.72429734,0.04,0.04,-9.592128,-1.9940844774246216,-0.4224632,-0.2794835,-0.007554715499281883,-0.24274124
1616.5833333321918,0.1311588,-0.8535106,0.11422182,-2.4785924,-0.13239379,1.5967991,0.72313744,0.04,0.04,-9.584004,-2.033088445663452,-0.43317127,-0.2814087,-0.00785801000893116,-0.24499004
1616.5999999988585,0.13359515,-0.85479546,0.11634506,-2.480866,-0.13485742,1.5972798,0.72196865,0.04,0.04,-9.575489,-2.071944236755371,-0.44407824,-0.28329617,-0.00816281232982874,-0.24722543
1616.6166666655251,0.13604979,-0.85608983,0.118484296,-2.483157,-0.1373396,1.5977641,0.7207909,0.04,0.04,-9.566823,-2.111504077911377,-0.45518616,-0.28514397,-0.008473994210362434,-0.2494476
1616.6333333321918,0.13852254,-0.85739374,0.12063927,-2.4854646,-0.13984005,1.5982513,0.7196045,0.04,0.04,-9.557949,-2.150838613510132,-0.4665126,-0.28695163,-0.008792118169367313,-0.25164196
1616.6499999988584,0.1410131,-0.85870713,0.12280974,-2.4877884,-0.1423585,1.5987424,0.7184096,0.04,0.04,-9.548749,-2.1908974647521973,-0.47802812,-0.28871822,-0.009118389338254929,-0.25382128
1616.666666665525,0.14352117,-0.86002976,0.12499546,-2.4901285,-0.14489467,1.5992371,0.7172062,0.04,0.04,-9.539228,-2.2309458255767822,-0.4897748,-0.29044506,-0.009445111267268658,-0.25597784
1616.6833333321918,0.14604649,-0.8613615,0.12719627,-2.4924846,-0.1474483,1.5997348,0.71599454,0.04,0.04,-9.529557,-2.271121025085449,-0.5017117,-0.29213032,-0.009775685146450996,-0.25811875
1616.6999999988584,0.14858879,-0.8627021,0.12941185,-2.4948568,-0.15001911,1.6002359,0.7147746,0.04,0.04,-9.519545,-2.3118624687194824,-0.5138761,-0.29377443,-0.010111949406564236,-0.2602387
1616.716666665525,0.1511478,-0.86405146,0.13164195,-2.497245,-0.15260689,1.6007402,0.7135468,0.04,0.04,-9.509415,-2.352541923522949,-0.52624667,-0.29537535,-0.010454013012349606,-0.2623464
1616.7333333321917,0.15372322,-0.8654098,0.13388638,-2.4996488,-0.15521124,1.6012479,0.7123111,0.04,0.04,-9.498902,-2.3936760425567627,-0.53885365,-0.29693404,-0.01080180425196886,-0.26442355
1616.7499999988584,0.15631478,-0.86677647,0.13614482,-2.5020676,-0.15783189,1.6017587,0.7110677,0.04,0.04,-9.488214,-2.4347543716430664,-0.55163157,-0.29844958,-0.011153624393045902,-0.2664782
1616.766666665525,0.15892217,-0.86815137,0.13841708,-2.504501,-0.1604686,1.602273,0.7098167,0.04,0.04,-9.4771,-2.476351261138916,-0.5646944,-0.29992235,-0.011509085074067116,-0.26851392
1616.7833333321917,0.16154517,-0.8695345,0.14070292,-2.5069485,-0.16312103,1.6027901,0.7085582,0.04,0.04,-9.465842,-2.517834186553955,-0.5779335,-0.30135125,-0.011867283843457699,-0.2705247
1616.7999999988583,0.1641834,-0.8709258,0.14300197,-2.5094104,-0.16578892,1.6033102,0.70729244,0.04,0.04,-9.4541,-2.5598111152648926,-0.5914217,-0.30273554,-0.01222569402307272,-0.27251372
1616.816666665525,0.16683657,-0.87232506,0.14531408,-2.5118864,-0.16847193,1.6038333,0.7060195,0.04,0.04,-9.442275,-2.6017215251922607,-0.6050754,-0.30407652,-0.012586868368089199,-0.27448624
1616.8333333321916,0.16950437,-0.8737322,0.14763898,-2.514376,-0.17116973,1.6043593,0.70473963,0.04,0.04,-9.4300585,-2.6440227031707764,-0.618996,-0.3053723,-0.012951428070664406,-0.27642858
1616.8499999988583,0.17218654,-0.8751467,0.14997633,-2.5168786,-0.17388207,1.6048883,0.7034527,0.04,0.04,-9.417616,-2.6862564086914062,-0.633087,-0.3066241,-0.013316559605300426,-0.27834678
1616.866666665525,0.17488274,-0.87656844,0.15232594,-2.5193954,-0.17660853,1.60542,0.70215905,0.04,0.04,-9.404764,-2.7288694381713867,-0.64748687,-0.3078295,-0.0136821074411273,-0.28023577
1616.8833333321916,0.17759266,-0.87799764,0.15468751,-2.521924,-0.17934899,1.6059543,0.7008589,0.04,0.04,-9.391931,-2.7715113162994385,-0.6620254,-0.30898798,-0.014054694212973118,-0.2821076
1616.8999999988582,0.18031599,-0.87943405,0.15706076,-2.5244648,-0.18210296,1.6064912,0.69955224,0.04,0.04,-9.378367,-2.8143796920776367,-0.67684776,-0.31010213,-0.014423626475036144,-0.28394708
1616.9166666655249,0.18305239,-0.8808772,0.15944533,-2.5270188,-0.18487018,1.6070307,0.6982393,0.04,0.04,-9.364651,-2.8573648929595947,-0.69185454,-0.31117064,-0.014790629968047142,-0.28576562
1616.9333333321915,0.18580158,-0.88232696,0.16184106,-2.5295837,-0.18765035,1.6075728,0.69692034,0.04,0.04,-9.350928,-2.900376796722412,-0.70706207,-0.31219205,-0.015163708478212357,-0.28755867
1616.9499999988582,0.1885632,-0.88378346,0.16424759,-2.5321608,-0.19044317,1.6081173,0.69559526,0.04,0.04,-9.336461,-2.943669319152832,-0.7225859,-0.3131673,-0.015532325953245163,-0.28932497
1616.9666666655248,0.19133693,-0.88524646,0.16666475,-2.5347488,-0.1932482,1.6086642,0.6942645,0.04,0.04,-9.32206,-2.986884355545044,-0.73821723,-0.3140954,-0.01590326614677906,-0.2910578
1616.9833333321915,0.19412246,-0.88671565,0.16909213,-2.5373485,-0.19606517,1.6092135,0.69292796,0.04,0.04,-9.30705,-3.0304012298583984,-0.7541544,-0.31497756,-0.016271939501166344,-0.29276508
1616.9999999988581,0.19691949,-0.8881908,0.1715295,-2.5399585,-0.19889377,1.6097649,0.691586,0.04,0.04,-9.292052,-3.073873996734619,-0.7702625,-0.31581146,-0.016642142087221146,-0.29444352
1617.0166666655248,0.19972768,-0.889672,0.1739766,-2.5425794,-0.20173363,1.6103187,0.69023865,0.04,0.04,-9.276422,-3.1175529956817627,-0.7866742,-0.31659886,-0.01700919307768345,-0.29609415
1617.0333333321914,0.20254666,-0.8911589,0.17643304,-2.5452094,-0.20458442,1.6108744,0.6888861,0.04,0.04,-9.260796,-3.161196231842041,-0.8032016,-0.31733763,-0.017377639189362526,-0.29771358
1617.049999998858,0.20537607,-0.89265126,0.17889866,-2.5478494,-0.20744582,1.6114324,0.68752843,0.04,0.04,-9.244472,-3.2049973011016846,-0.8200481,-0.3180304,-0.017739644274115562,-0.2993048
1617.0666666655247,0.20821562,-0.8941489,0.18137309,-2.5504994,-0.21031748,1.6119924,0.686166,0.04,0.04,-9.228167,-3.2487995624542236,-0.83704567,-0.31867474,-0.01809929497539997,-0.30086863
1617.0833333321914,0.21106493,-0.8956517,0.18385606,-2.5531588,-0.21319902,1.6125542,0.68479884,0.04,0.04,-9.211423,-3.29274582862854,-0.854343,-0.31927115,-0.01845935545861721,-0.30240095
1617.099999998858,0.21392377,-0.89715976,0.18634725,-2.5558262,-0.21609017,1.6131179,0.68342716,0.04,0.04,-9.194526,-3.3366565704345703,-0.8717645,-0.3198193,-0.018818827345967293,-0.30390397
1617.1166666655247,0.21679172,-0.89867234,0.18884633,-2.558502,-0.21899064,1.6136835,0.68205106,0.04,0.04,-9.176965,-3.3806252479553223,-0.88948625,-0.320321,-0.019171062856912613,-0.30537152
1617.1333333321913,0.2196684,-0.90018976,0.19135305,-2.5611858,-0.22189988,1.6142505,0.6806708,0.04,0.04,-9.159398,-3.4245922565460205,-0.90737164,-0.3207739,-0.019520089030265808,-0.30680752
1617.149999998858,0.22255348,-0.9017116,0.19386707,-2.5638776,-0.22481763,1.6148194,0.6792866,0.04,0.04,-9.141269,-3.4686145782470703,-0.9255222,-0.32118022,-0.019864721223711967,-0.3082099
1617.1666666655246,0.22544667,-0.9032377,0.19638813,-2.5665767,-0.22774361,1.6153896,0.67789847,0.04,0.04,-9.122976,-3.5126452445983887,-0.9438677,-0.321539,-0.020205041393637657,-0.30958015
1617.1833333321913,0.22834758,-0.9047679,0.19891591,-2.5692835,-0.23067737,1.6159617,0.67650664,0.04,0.04,-9.10447,-3.556680679321289,-0.9623688,-0.32184923,-0.020541738718748093,-0.3109188
1617.199999998858,0.23125583,-0.9063019,0.2014501,-2.5719972,-0.23361859,1.6165352,0.6751112,0.04,0.04,-9.085492,-3.6007237434387207,-0.98120177,-0.32211167,-0.020874736830592155,-0.31222194
1617.2166666655246,0.23417109,-0.90783966,0.20399041,-2.5747175,-0.23656692,1.61711,0.67371225,0.039999977,0.04,-9.066372,-3.644740581512451,-1.000127,-0.3223256,-0.02120332606136799,-0.3134927
1617.2333333321913,0.23709296,-0.909381,0.20653652,-2.5774443,-0.23952205,1.6176862,0.6723102,0.03999996,0.04,-9.046716,-3.6887497901916504,-1.0193805,-0.32249117,-0.02152777649462223,-0.31473005
1617.249999998858,0.24002114,-0.9109256,0.20908809,-2.5801778,-0.24248357,1.6182637,0.6709051,0.039999943,0.04,-9.026967,-3.73270583152771,-1.038724,-0.32260978,-0.021847039461135864,-0.31593102
1617.2666666655246,0.24295525,-0.9124734,0.21164484,-2.5829155,-0.24545117,1.6188422,0.66949713,0.03999993,0.04,-9.006777,-3.7766449451446533,-1.0583991,-0.32268003,-0.022163337096571922,-0.31709817
1617.2833333321912,0.24589501,-0.9140241,0.21420646,-2.5856586,-0.24842447,1.6194221,0.66808665,0.03999991,0.04,-8.986272,-3.820502281188965,-1.0781679,-0.32270348,-0.022470200434327126,-0.3182295
1617.2999999988579,0.24883997,-0.91557765,0.2167726,-2.5884078,-0.25140312,1.6200026,0.6666734,0.03999989,0.04,-8.96534,-3.864290475845337,-1.0982424,-0.3226809,-0.02276955544948578,-0.31932557
1617.3166666655245,0.25178984,-0.91713387,0.21934305,-2.59116,-0.25438666,1.6205842,0.6652579,0.039999872,0.04,-8.944506,-3.908113718032837,-1.118403,-0.32260793,-0.02306942082941532,-0.32038456
1617.3333333321912,0.25474417,-0.9186923,0.22191738,-2.5939174,-0.2573748,1.6211671,0.66384023,0.039999843,0.04,-8.922795,-3.9517178535461426,-1.1388881,-0.3224903,-0.023355631157755852,-0.32140672
1617.3499999988578,0.25770262,-0.92025316,0.22449528,-2.5966778,-0.26036718,1.6217504,0.6624206,0.03999983,0.04,-8.901261,-3.99535870552063,-1.1594555,-0.32232505,-0.023637626320123672,-0.32239088
1617.3666666655245,0.26066482,-0.92181593,0.22707647,-2.5994425,-0.26336354,1.6223345,0.6609991,0.039999813,0.04,-8.879028,-4.038783073425293,-1.1803098,-0.3221151,-0.023909421637654305,-0.32333764
1617.3833333321911,0.26363048,-0.9233805,0.22966066,-2.6022096,-0.26636332,1.6229191,0.65957594,0.03999979,0.04,-8.856913,-4.082266807556152,-1.2012554,-0.32185715,-0.024177459999918938,-0.32424772
1617.3999999988578,0.26659924,-0.92494667,0.2322475,-2.6049805,-0.26936617,1.6235045,0.6581514,0.03999977,0.04,-8.834093,-4.125471115112305,-1.2225055,-0.32155356,-0.024436937645077705,-0.32511634
1617.4166666655244,0.2695708,-0.92651445,0.23483673,-2.6077533,-0.2723719,1.6240904,0.6567255,0.03999974,0.04,-8.811244,-4.168683052062988,-1.2438885,-0.32120326,-0.024690071120858192,-0.32594883
1617.433333332191,0.27254462,-0.9280833,0.23742789,-2.6105282,-0.27538,1.6246768,0.6552985,0.03999972,0.04,-8.788039,-4.211786270141602,-1.2653792,-0.3208078,-0.024932032451033592,-0.32674083
1617.4499999988577,0.27552053,-0.92965335,0.24002083,-2.6133056,-0.2783901,1.6252638,0.6538706,0.03999969,0.04,-8.7644615,-4.2546305656433105,-1.2871863,-0.32036662,-0.025168078020215034,-0.32749403
1617.4666666655244,0.27849784,-0.93122417,0.24261518,-2.6160843,-0.28140184,1.6258509,0.6524418,0.03999967,0.04,-8.740762,-4.297504901885986,-1.3090342,-0.31987965,-0.025394592434167862,-0.32820654
1617.483333332191,0.28147644,-0.93279564,0.24521051,-2.618864,-0.2844149,1.6264386,0.6510125,0.039999645,0.04,-8.716585,-4.340053081512451,-1.3311832,-0.31934807,-0.025615615770220757,-0.32888004
1617.4999999988577,0.28445598,-0.93436754,0.2478066,-2.6216443,-0.28742883,1.6270263,0.6495828,0.039999615,0.04,-8.692261,-4.38259220123291,-1.3533894,-0.31877244,-0.025823993608355522,-0.32951173
1617.5166666655243,0.28743598,-0.9359399,0.2504032,-2.6244252,-0.2904434,1.627614,0.6481528,0.03999959,0.04,-8.667438,-4.424801349639893,-1.3758782,-0.3181531,-0.026023322716355324,-0.33010358
1617.533333332191,0.29041615,-0.9375122,0.2529998,-2.627206,-0.29345796,1.6282017,0.64672285,0.039999567,0.04,-8.642656,-4.4670562744140625,-1.3983824,-0.31748915,-0.026214975863695145,-0.33065432
1617.5499999988576,0.29339588,-0.9390845,0.2555964,-2.6299868,-0.2964724,1.6287893,0.645293,0.039999537,0.04,-8.617277,-4.508884906768799,-1.4211968,-0.3167827,-0.026396948844194412,-0.3311623
1617.5666666655243,0.29637507,-0.9406565,0.25819242,-2.6327667,-0.29948625,1.6293769,0.6438633,0.039999504,0.04,-8.591928,-4.550778388977051,-1.4440266,-0.3160335,-0.026570690795779228,-0.33163062
1617.583333332191,0.29935336,-0.942228,0.2607876,-2.6355462,-0.30249923,1.6299645,0.642434,0.03999947,0.04,-8.566022,-4.592236518859863,-1.4671425,-0.31524053,-0.026733675971627235,-0.3320562
1617.5999999988576,0.3023302,-0.9437988,0.26338148,-2.6383247,-0.3055108,1.6305515,0.64100546,0.03999945,0.04,-8.540128,-4.633738040924072,-1.4902819,-0.3144044,-0.02688739076256752,-0.33243904
1617.6166666655242,0.30530533,-0.94536877,0.2659739,-2.6411018,-0.30852073,1.6311381,0.6395777,0.039999418,0.04,-8.513819,-4.674771785736084,-1.513678,-0.31352696,-0.027035821229219437,-0.33277988
1617.633333332191,0.30827856,-0.94693756,0.26856443,-2.6438763,-0.3115287,1.6317246,0.63815093,0.03999939,0.04,-8.487356,-4.715842247009277,-1.5371022,-0.312608,-0.027173440903425217,-0.33307973
1617.6499999988575,0.3112493,-0.94850504,0.27115306,-2.6466486,-0.3145341,1.6323106,0.6367251,0.039999355,0.04,-8.460396,-4.7564005851745605,-1.5608023,-0.31164795,-0.027298595756292343,-0.3333333
1617.6666666655242,0.31421727,-0.9500713,0.2737392,-2.6494184,-0.31753674,1.632896,0.6353008,0.039999332,0.04,-8.433382,-4.79690408706665,-1.5845535,-0.31064564,-0.027414929121732712,-0.33354333
1617.6833333321908,0.317182,-0.9516358,0.27632257,-2.6521847,-0.32053623,1.6334805,0.633878,0.039999284,0.04,-8.406155,-4.837316036224365,-1.6083575,-0.3096044,-0.02751953713595867,-0.33371532
1617.6999999988575,0.32014343,-0.9531986,0.2789028,-2.6549478,-0.32353222,1.6340647,0.63245684,0.039999265,0.04,-8.378503,-4.877124786376953,-1.6324134,-0.30852404,-0.0276141706854105,-0.33383825
1617.7166666655241,0.32310086,-0.9547593,0.28147966,-2.6577077,-0.32652426,1.6346481,0.6310376,0.03999923,0.04,-8.350853,-4.917049884796143,-1.6564513,-0.3074037,-0.0276972446590662,-0.3339199
1617.7333333321908,0.3260541,-0.9563178,0.28405276,-2.6604636,-0.3295121,1.6352305,0.62962025,0.03999919,0.04,-8.322811,-4.956413269042969,-1.6807536,-0.3062444,-0.027772588655352592,-0.33395895
1617.7499999988574,0.32900262,-0.9578739,0.28662196,-2.663215,-0.33249527,1.6358123,0.62820506,0.03999917,0.04,-8.29472,-4.995789527893066,-1.7050179,-0.30504584,-0.027838142588734627,-0.3339507
1617.766666665524,0.33194625,-0.95942736,0.28918684,-2.6659627,-0.33547345,1.6363927,0.6267925,0.039999127,0.04,-8.266136,-5.03458309173584,-1.7295258,-0.3038102,-0.02789141982793808,-0.33389965
1617.7833333321908,0.33488458,-0.96097785,0.29174697,-2.6687043,-0.3384463,1.6369721,0.62538236,0.039999094,0.04,-8.237742,-5.073479652404785,-1.753997,-0.30253574,-0.02794112078845501,-0.33380225
1617.7999999988574,0.33781713,-0.96252567,0.29430214,-2.6714408,-0.34141344,1.6375507,0.6239748,0.039999053,0.04,-8.20868,-5.111672878265381,-1.7787067,-0.3012253,-0.027976464480161667,-0.33366236
1617.816666665524,0.3407437,-0.96407026,0.29685208,-2.6741724,-0.3443745,1.638128,0.62257034,0.039999016,0.04,-8.179729,-5.14995002746582,-1.8033535,-0.2998787,-0.02799997292459011,-0.33347583
1617.8333333321907,0.34366387,-0.9656114,0.29939643,-2.6768973,-0.3473291,1.6387041,0.6211689,0.039998982,0.04,-8.150468,-5.187623500823975,-1.8282185,-0.29849565,-0.028016846626996994,-0.33324322
1617.8499999988574,0.3465773,-0.9671489,0.30193487,-2.6796157,-0.35027692,1.6392788,0.61977065,0.03999894,0.04,-8.121071,-5.225321292877197,-1.8530439,-0.29707775,-0.028021210804581642,-0.33296674
1617.866666665524,0.34948352,-0.9686828,0.30446708,-2.6823275,-0.35321754,1.6398522,0.6183757,0.039998896,0.04,-8.091372,-5.262340545654297,-1.8780699,-0.2956249,-0.02801702544093132,-0.33264488
1617.8833333321907,0.35238233,-0.9702128,0.3069928,-2.6850324,-0.35615066,1.6404238,0.6169844,0.039998863,0.04,-8.061626,-5.29942512512207,-1.9030161,-0.29413864,-0.028000010177493095,-0.3322769
1617.8999999988573,0.35527334,-0.9717387,0.30951178,-2.6877303,-0.35907593,1.6409941,0.6155969,0.039998837,0.04,-8.031604,-5.335851192474365,-1.9281666,-0.2926179,-0.027975987643003464,-0.33186504
1617.916666665524,0.3581562,-0.9732603,0.31202358,-2.6904206,-0.36199287,1.6415626,0.6142132,0.0399988,0.04,-8.0015,-5.372152805328369,-1.9533215,-0.2910637,-0.027941888198256493,-0.3314081
1617.9333333321906,0.3610306,-0.9747774,0.31452802,-2.6931033,-0.36490127,1.6421297,0.61283374,0.039998755,0.04,-7.97134,-5.408315658569336,-1.978452,-0.2894764,-0.02789984829723835,-0.33090666
1617.9499999988573,0.36389616,-0.9762898,0.3170247,-2.6957777,-0.36780074,1.642695,0.61145836,0.039998718,0.04,-7.9408064,-5.443730354309082,-2.0037763,-0.28785712,-0.02784772403538227,-0.33035702
1617.966666665524,0.36675256,-0.9777973,0.31951344,-2.6984434,-0.37069097,1.6432586,0.6100876,0.039998673,0.04,-7.910361,-5.479256629943848,-2.0290082,-0.28620535,-0.02778744511306286,-0.3297638
1617.9833333321906,0.3695993,-0.9793001,0.32199383,-2.7011003,-0.37357154,1.6438202,0.6087213,0.039998632,0.04,-7.8795176,-5.51399040222168,-2.0544105,-0.2845234,-0.027716374024748802,-0.3291231
1617.9999999988572,0.37243623,-0.98079747,0.32446566,-2.7037482,-0.37644216,1.64438,0.60735965,0.039998587,0.04,-7.8487306,-5.548813819885254,-2.079691,-0.2828116,-0.027636248618364334,-0.3284366
1618.0166666655239,0.37526292,-0.9822895,0.32692856,-2.7063863,-0.37930244,1.6449374,0.6060029,0.03999855,0.04,-7.8177395,-5.582901954650879,-2.1051478,-0.28106833,-0.027549153193831444,-0.3277039
1618.0333333321905,0.37807903,-0.98377603,0.32938224,-2.7090144,-0.38215205,1.645493,0.60465133,0.03999851,0.04,-7.786668,-5.617033958435059,-2.130502,-0.27929705,-0.027451684698462486,-0.3269293
1618.0499999988572,0.3808842,-0.9852567,0.3318264,-2.7116327,-0.38499072,1.6460463,0.603305,0.03999847,0.04,-7.7553825,-5.650394439697266,-2.155978,-0.27749726,-0.027344975620508194,-0.32610807
1618.0666666655238,0.38367817,-0.98673147,0.33426088,-2.7142403,-0.387818,1.6465976,0.6019641,0.039998434,0.04,-7.724196,-5.683816909790039,-2.181359,-0.27566946,-0.02723255753517151,-0.32523784
1618.0833333321905,0.38646057,-0.98820025,0.33668524,-2.7168372,-0.3906336,1.6471466,0.60062873,0.039998382,0.04,-7.692656,-5.716482639312744,-2.2068698,-0.27381444,-0.02710861712694168,-0.3243261
1618.0999999988571,0.38923115,-0.98966277,0.3390992,-2.719423,-0.39343724,1.6476932,0.599299,0.039998334,0.04,-7.6612678,-5.749202251434326,-2.2322338,-0.2719329,-0.026977641507983208,-0.3233663
1618.1166666655238,0.39198947,-0.99111897,0.3415025,-2.721997,-0.39622858,1.6482373,0.59797513,0.039998297,0.04,-7.629612,-5.78112268447876,-2.2577252,-0.27002448,-0.02683887630701065,-0.32236305
1618.1333333321904,0.39473525,-0.99256825,0.3438949,-2.72456,-0.39900723,1.648779,0.5966573,0.039998256,0.04,-7.597973,-5.813097953796387,-2.2830796,-0.26809216,-0.026689309626817703,-0.32131308
1618.149999998857,0.39746812,-0.99401134,0.34627604,-2.72711,-0.40177286,1.6493182,0.59534544,0.03999821,0.04,-7.5662923,-5.844334602355957,-2.308543,-0.2661321,-0.026537282392382622,-0.32022128
1618.1666666655237,0.40018788,-0.99544716,0.34864578,-2.729648,-0.4045253,1.6498547,0.5940401,0.039998163,0.04,-7.534324,-5.8752827644348145,-2.3338914,-0.26415133,-0.026369696483016014,-0.3190837
1618.1833333321904,0.40289408,-0.99687564,0.35100377,-2.7321742,-0.40726408,1.6503885,0.5927411,0.039998118,0.04,-7.5026813,-5.906232833862305,-2.3591907,-0.2621449,-0.026200583204627037,-0.31789827
1618.199999998857,0.40558654,-0.9982968,0.35334963,-2.7346869,-0.40998882,1.6509198,0.5914487,0.039998073,0.04,-7.4707885,-5.936319351196289,-2.3845837,-0.26011276,-0.026026835665106773,-0.31667164
1618.2166666655237,0.4082648,-0.99971056,0.35568324,-2.7371862,-0.41269925,1.6514485,0.59016323,0.039998025,0.04,-7.438869,-5.966439723968506,-2.4098146,-0.25805995,-0.025842079892754555,-0.31540015
1618.2333333321903,0.41092867,-1.001118,0.35800433,-2.7396727,-0.41539514,1.6519741,0.58888453,0.039997976,0.04,-7.4068255,-5.995700836181641,-2.435093,-0.2559861,-0.02564946562051773,-0.31408173
1618.249999998857,0.41357774,-1.0025163,0.3603126,-2.7421453,-0.41807616,1.6524968,0.5876129,0.039997935,0.04,-7.3749447,-6.025147914886475,-2.4601376,-0.2538922,-0.025450944900512695,-0.31272072
1618.2666666655236,0.41621178,-1.0039065,0.36260766,-2.7446039,-0.42074198,1.6530166,0.58634853,0.03999789,0.04,-7.342975,-6.053725719451904,-2.4853947,-0.25177392,-0.02524915151298046,-0.31132248
1618.2833333321903,0.41883057,-1.0052888,0.36488932,-2.747048,-0.42339236,1.6535333,0.58509153,0.039997842,0.04,-7.311008,-6.082304954528809,-2.5104117,-0.24963582,-0.025041641667485237,-0.3098738
1618.299999998857,0.42143384,-1.0066634,0.36715743,-2.7494771,-0.42602685,1.654047,0.583842,0.039997797,0.04,-7.278962,-6.110070705413818,-2.5354502,-0.2474786,-0.024827532470226288,-0.3083827
1618.3166666655236,0.42402107,-1.00803,0.36941168,-2.7518916,-0.42864537,1.6545576,0.58260006,0.039997753,0.04,-7.246963,-6.137954235076904,-2.56029,-0.24530384,-0.02460443414747715,-0.30684942
1618.3333333321903,0.42659205,-1.0093874,0.37165183,-2.754291,-0.43124753,1.6550648,0.58136594,0.039997708,0.04,-7.214919,-6.164925575256348,-2.585147,-0.24311253,-0.02437538094818592,-0.3052708
1618.349999998857,0.42914653,-1.0107361,0.3738775,-2.7566755,-0.43383288,1.6555688,0.5801397,0.03999766,0.04,-7.1831007,-6.19209623336792,-2.6099112,-0.24090041,-0.024144649505615234,-0.30365413
1618.3666666655236,0.43168423,-1.0120763,0.37608877,-2.7590442,-0.43640134,1.6560695,0.5789215,0.039997626,0.04,-7.151169,-6.218321800231934,-2.6346207,-0.23867126,-0.023909879848361015,-0.30199665
1618.3833333321902,0.43420485,-1.0134072,0.37828505,-2.7613966,-0.43895245,1.656567,0.5777115,0.039997578,0.04,-7.1193237,-6.244661331176758,-2.659148,-0.23642564,-0.02367028407752514,-0.3002899
1618.3999999988569,0.43670812,-1.0147291,0.38046613,-2.763733,-0.441486,1.6570612,0.5765098,0.039997526,0.04,-7.0874176,-6.2701191902160645,-2.6836874,-0.2341645,-0.02342488430440426,-0.29854777
1618.4166666655235,0.43919373,-1.0160419,0.382632,-2.766053,-0.44400185,1.657552,0.57531667,0.03999748,0.04,-7.055662,-6.295434951782227,-2.708059,-0.23188823,-0.023174550384283066,-0.2967632
1618.4333333321902,0.4416615,-1.0173451,0.38478222,-2.768356,-0.4464996,1.6580391,0.57413197,0.039997436,0.04,-7.023983,-6.320672512054443,-2.732292,-0.22959745,-0.022920094430446625,-0.29494017
1618.4499999988568,0.4441111,-1.0186386,0.3869166,-2.770642,-0.44897896,1.6585226,0.5729559,0.039997403,0.04,-6.992298,-6.3449554443359375,-2.7564738,-0.22729224,-0.022662227973341942,-0.29307517
1618.4666666655235,0.44654232,-1.0199224,0.389035,-2.772911,-0.45143965,1.6590024,0.57178855,0.03999735,0.04,-6.9607444,-6.369382381439209,-2.7804818,-0.22497302,-0.02240060456097126,-0.29117018
1618.48333333219,0.4489549,-1.0211965,0.39113706,-2.775163,-0.4538815,1.6594787,0.57063055,0.039997302,0.04,-6.929253,-6.392945289611816,-2.8044343,-0.22263967,-0.022137334570288658,-0.28922632
1618.4999999988568,0.4513485,-1.0224605,0.3932227,-2.7773967,-0.45630425,1.6599513,0.5694815,0.03999726,0.04,-6.8979363,-6.416649341583252,-2.828171,-0.22029544,-0.021871346980333328,-0.28724396
1618.5166666655234,0.45372295,-1.0237144,0.39529166,-2.7796133,-0.45870766,1.6604202,0.5683417,0.039997216,0.04,-6.8665586,-6.439403533935547,-2.8518717,-0.21793924,-0.021600782871246338,-0.28522325
1618.53333333219,0.45607793,-1.0249581,0.39734372,-2.7818108,-0.46109143,1.6608851,0.5672111,0.039997194,0.04,-6.8354893,-6.462374687194824,-2.87535,-0.21557043,-0.021330324932932854,-0.2831648
1618.5499999988567,0.4584133,-1.0261915,0.3993786,-2.7839909,-0.4634552,1.661346,0.56609005,0.039997138,0.04,-6.8042836,-6.484321594238281,-2.898751,-0.21319236,-0.02105477638542652,-0.28106502
1618.5666666655234,0.46072873,-1.0274143,0.4013961,-2.786152,-0.46579885,1.6618029,0.5649785,0.039997097,0.04,-6.7734966,-6.506601810455322,-2.9219463,-0.21080235,-0.020781897008419037,-0.27893364
1618.58333333219,0.4630241,-1.0286266,0.40339607,-2.7882943,-0.46812212,1.6622559,0.56387645,0.03999705,0.04,-6.742582,-6.5278120040893555,-2.9450428,-0.20840389,-0.020505575463175774,-0.2767637
1618.5999999988567,0.46529916,-1.0298282,0.4053783,-2.790418,-0.4704249,1.6627048,0.56278425,0.03999701,0.04,-6.711948,-6.549288272857666,-2.9679456,-0.20599501,-0.02022731862962246,-0.27456108
1618.6166666655233,0.4675535,-1.0310189,0.4073426,-2.7925222,-0.47270676,1.6631497,0.56170213,0.03999697,0.04,-6.6813974,-6.569811820983887,-2.9907281,-0.2035775,-0.01994904689490795,-0.2723193
1618.63333333219,0.46978706,-1.0321984,0.40928885,-2.7946072,-0.47496766,1.6635906,0.5606297,0.03999693,0.04,-6.6510305,-6.590494632720947,-3.013307,-0.2011535,-0.019669372588396072,-0.2700428
1618.6499999988566,0.47199962,-1.0333669,0.41121668,-2.796672,-0.47720715,1.6640271,0.5595675,0.039996877,0.04,-6.6208177,-6.610335826873779,-3.035777,-0.19871908,-0.019390789791941643,-0.26773506
1618.6666666655233,0.4741909,-1.0345243,0.41312602,-2.7987175,-0.47942534,1.6644593,0.5585153,0.039996833,0.04,-6.590696,-6.630006313323975,-3.05803,-0.19627956,-0.019109295681118965,-0.2653942
1618.68333333219,0.4763607,-1.0356706,0.41501668,-2.8007426,-0.48162174,1.6648875,0.5574736,0.039996803,0.04,-6.560841,-6.649608612060547,-3.0800745,-0.19383281,-0.018829360604286194,-0.26301706
1618.6999999988566,0.47850886,-1.0368054,0.41688865,-2.8027484,-0.4837962,1.6653118,0.55644226,0.03999676,0.04,-6.531066,-6.668305397033691,-3.1019914,-0.19138224,-0.018546856939792633,-0.26060724
1618.7166666655232,0.48063526,-1.0379286,0.41874143,-2.8047335,-0.4859486,1.6657317,0.55542135,0.039996717,0.04,-6.5016613,-6.68729305267334,-3.1237106,-0.18892372,-0.018266798928380013,-0.2581682
1618.7333333321899,0.48273954,-1.0390402,0.42057502,-2.8066976,-0.48807877,1.666147,0.5544111,0.03999667,0.04,-6.472284,-6.705267429351807,-3.1452699,-0.18646017,-0.017986582592129707,-0.25569856
1618.7499999988565,0.4848217,-1.0401404,0.42238924,-2.8086407,-0.49018648,1.666558,0.5534115,0.03999663,0.04,-6.4430985,-6.723427772521973,-3.1665685,-0.18399446,-0.01770605891942978,-0.2531973
1618.7666666655232,0.48688138,-1.0412285,0.424184,-2.8105636,-0.49227136,1.6669644,0.55242264,0.039996598,0.04,-6.4140983,-6.740714073181152,-3.1877208,-0.18152538,-0.017423592507839203,-0.2506649
1618.7833333321898,0.4889185,-1.0423048,0.42595905,-2.812465,-0.49433345,1.6673667,0.55144453,0.03999655,0.04,-6.3854647,-6.758260250091553,-3.2086475,-0.17905152,-0.01714671403169632,-0.2481043
1618.7999999988565,0.49093282,-1.0433689,0.42771426,-2.8143451,-0.49637246,1.6677644,0.55047745,0.039996512,0.04,-6.356919,-6.774859428405762,-3.2294216,-0.17657483,-0.01686769537627697,-0.24551412
1618.8166666655231,0.4929242,-1.0444211,0.4294495,-2.8162038,-0.49838835,1.6681577,0.54952145,0.039996482,0.04,-6.3286533,-6.791692733764648,-3.2499413,-0.17409581,-0.016591819003224373,-0.24289738
1618.8333333321898,0.49489248,-1.0454609,0.43116465,-2.8180406,-0.5003808,1.6685462,0.5485764,0.03999644,0.04,-6.30055,-6.807613372802734,-3.2702837,-0.17161626,-0.01631546951830387,-0.24025275
1618.8499999988564,0.49683753,-1.0464885,0.4328595,-2.8198562,-0.5023498,1.66893,0.5476425,0.0399964,0.04,-6.2727337,-6.823781490325928,-3.2903724,-0.16913517,-0.016040952876210213,-0.23758608
1618.866666665523,0.49875915,-1.047504,0.43453404,-2.8216496,-0.50429523,1.6693096,0.54671985,0.039996356,0.04,-6.2451878,-6.839075565338135,-3.310294,-0.16665204,-0.015770267695188522,-0.23489152
1618.8833333321897,0.50065714,-1.0485067,0.43618807,-2.8234215,-0.5062168,1.6696842,0.5458084,0.039996322,0.04,-6.2178135,-6.854544162750244,-3.3299642,-0.16416928,-0.015499013476073742,-0.23216991
1618.8999999988564,0.50253165,-1.0494972,0.43782148,-2.8251712,-0.5081143,1.6700542,0.54490834,0.03999629,0.04,-6.190777,-6.869200229644775,-3.3494508,-0.16168493,-0.015233801677823067,-0.22942562
1618.916666665523,0.50438225,-1.050475,0.43943408,-2.826899,-0.5099877,1.6704196,0.5440198,0.039996255,0.04,-6.1639667,-6.883812427520752,-3.3686883,-0.15920143,-0.01496950350701809,-0.22665833
1618.9333333321897,0.50620914,-1.05144,0.44102588,-2.8286042,-0.511837,1.6707803,0.5431427,0.03999621,0.04,-6.137442,-6.898362159729004,-3.3877,-0.1567183,-0.01470947079360485,-0.22386965
1618.9499999988564,0.508012,-1.0523927,0.4425968,-2.8302872,-0.51366174,1.6711363,0.54227716,0.039996177,0.04,-6.1110783,-6.912027359008789,-3.4065232,-0.15423594,-0.014449119567871094,-0.22105834
1618.966666665523,0.5097905,-1.0533322,0.44414645,-2.8319476,-0.5154622,1.6714873,0.54142314,0.03999614,0.04,-6.0850997,-6.9259772300720215,-3.4250474,-0.15175608,-0.014192381873726845,-0.21822695
1618.9833333321897,0.51154464,-1.054259,0.445675,-2.833585,-0.517238,1.6718335,0.54058087,0.039996106,0.04,-6.0593896,-6.939029216766357,-3.4434018,-0.14927724,-0.013941017910838127,-0.21537474
1618.9999999988563,0.5132744,-1.0551728,0.44718227,-2.8351994,-0.51898926,1.672175,0.5397507,0.039996073,0.04,-6.0338936,-6.95231294631958,-3.46148,-0.14680237,-0.013691366650164127,-0.2125029
1619.016666665523,0.5149797,-1.0560743,0.4486682,-2.8367903,-0.52071583,1.6725119,0.53893214,0.03999604,0.04,-6.0086975,-6.964787006378174,-3.4793391,-0.14433354,-0.013443518429994583,-0.20961478
1619.0333333321896,0.51666015,-1.0569623,0.4501327,-2.8383603,-0.52241707,1.6728437,0.53812516,0.039996006,0.04,-5.9837093,-6.977440357208252,-3.496905,-0.14187072,-0.013194860890507698,-0.20670398
1619.0499999988563,0.51831615,-1.0578374,0.4515757,-2.839907,-0.52409345,1.6731707,0.5373298,0.039995976,0.04,-5.9594207,-6.989487648010254,-3.5143232,-0.13940512,-0.01296001486480236,-0.20378383
1619.066666665523,0.51994735,-1.0586994,0.45299715,-2.84143,-0.5257448,1.6734929,0.5365465,0.03999594,0.04,-5.9350796,-7.001596450805664,-3.5314505,-0.1369435,-0.01272566057741642,-0.2008452
1619.0833333321896,0.5215537,-1.0595485,0.45439696,-2.8429294,-0.5273709,1.6738101,0.53577507,0.039995912,0.04,-5.9110456,-7.0128703117370605,-3.5483472,-0.13448954,-0.012492942623794079,-0.19788997
1619.0999999988562,0.5231352,-1.0603844,0.45577505,-2.844405,-0.5289718,1.6741225,0.5350157,0.039995886,0.04,-5.887322,-7.0244035720825195,-3.56496,-0.13204204,-0.012262041680514812,-0.19491948
1619.1166666655229,0.52469164,-1.0612069,0.4571315,-2.8458574,-0.53054756,1.6744299,0.5342682,0.03999585,0.04,-5.863913,-7.035168647766113,-3.5813568,-0.12960267,-0.012031533755362034,-0.19194198
1619.1333333321895,0.52622294,-1.0620162,0.4584661,-2.8472867,-0.5320979,1.6747324,0.5335328,0.03999582,0.04,-5.840904,-7.046188831329346,-3.5974982,-0.1271674,-0.011807057075202465,-0.18894704
1619.1499999988562,0.5277294,-1.0628121,0.45977882,-2.8486931,-0.53362286,1.67503,0.5328094,0.039995793,0.04,-5.818254,-7.0564422607421875,-3.6133876,-0.12473906,-0.011587921530008316,-0.1859423
1619.1666666655228,0.5292106,-1.0635952,0.46106967,-2.8500764,-0.5351225,1.6753224,0.532098,0.039995756,0.04,-5.7959104,-7.066715240478516,-3.6290455,-0.12231515,-0.011374158784747124,-0.18292709
1619.1833333321895,0.53066677,-1.0643647,0.46233857,-2.851436,-0.5365969,1.67561,0.53139865,0.039995726,0.04,-5.7738667,-7.076959609985352,-3.6444032,-0.119899794,-0.011166091077029705,-0.17990607
1619.1999999988561,0.53209776,-1.0651212,0.46358556,-2.852771,-0.5380455,1.6758924,0.5307116,0.039995704,0.04,-5.7521057,-7.086367130279541,-3.6595497,-0.11749261,-0.010960599407553673,-0.1768716
1619.2166666655228,0.5335034,-1.0658642,0.4648106,-2.8540828,-0.53946865,1.67617,0.5300365,0.039995674,0.04,-5.730608,-7.09604549407959,-3.6744065,-0.11509696,-0.010755904018878937,-0.17383176
1619.2333333321894,0.53488374,-1.0665941,0.46601367,-2.8553715,-0.5408663,1.6764426,0.5293736,0.039995644,0.04,-5.7095685,-7.104995250701904,-3.689028,-0.11270975,-0.010555846616625786,-0.17078292
1619.249999998856,0.53623897,-1.0673106,0.46719483,-2.8566363,-0.5422384,1.6767104,0.5287227,0.03999562,0.04,-5.6888742,-7.114227294921875,-3.70337,-0.110332526,-0.01036131102591753,-0.1677304
1619.2666666655227,0.537569,-1.0680133,0.46835384,-2.8578782,-0.54358494,1.6769731,0.528084,0.039995592,0.04,-5.6685023,-7.122714996337891,-3.7174895,-0.10796345,-0.010170347057282925,-0.16467243
1619.2833333321894,0.5388739,-1.0687027,0.46949092,-2.8590963,-0.5449061,1.6772307,0.5274573,0.039995562,0.04,-5.6485243,-7.131502151489258,-3.7313592,-0.105602965,-0.009985490702092648,-0.16161652
1619.299999998856,0.5401533,-1.0693789,0.47060612,-2.8602912,-0.5462015,1.6774832,0.52684283,0.03999554,0.04,-5.6288095,-7.139463424682617,-3.744948,-0.10325278,-0.009804920293390751,-0.15855257
1619.3166666655227,0.54140776,-1.070042,0.47169933,-2.8614614,-0.54747134,1.677731,0.52624047,0.03999552,0.04,-5.609513,-7.147766590118408,-3.7582846,-0.10091381,-0.009631498716771603,-0.15549058
1619.3333333321893,0.542637,-1.0706918,0.4727707,-2.862609,-0.548716,1.677974,0.5256502,0.039995506,0.04,-5.5903525,-7.155206203460693,-3.7713325,-0.09859089,-0.00945399608463049,-0.1524233
1619.349999998856,0.5438411,-1.0713284,0.47382003,-2.8637333,-0.54993504,1.6782116,0.5250719,0.039995477,0.04,-5.5717926,-7.163088798522949,-3.7841527,-0.09627765,-0.009284761734306812,-0.14935875
1619.3666666655226,0.5450201,-1.0719517,0.47484753,-2.8648343,-0.55112875,1.6784445,0.5245057,0.039995454,0.04,-5.553581,-7.170223712921143,-3.7966943,-0.0939754,-0.009122642688453197,-0.14629626
1619.3833333321893,0.5461743,-1.0725617,0.47585323,-2.865912,-0.5522972,1.6786727,0.5239515,0.03999543,0.04,-5.5356045,-7.177590847015381,-3.8090036,-0.09168683,-0.008962439373135567,-0.14323735
1619.399999998856,0.5473033,-1.0731587,0.47683725,-2.8669665,-0.55344015,1.6788955,0.52340925,0.039995417,0.04,-5.518049,-7.184298992156982,-3.8210545,-0.089409806,-0.008806279860436916,-0.14018103
1619.4166666655226,0.5484075,-1.0737427,0.47779953,-2.867997,-0.554558,1.6791135,0.5228789,0.0399954,0.04,-5.5008354,-7.191006660461426,-3.8328137,-0.08714785,-0.008656221441924572,-0.13712972
1619.4333333321892,0.54948676,-1.0743135,0.47874013,-2.869004,-0.5556507,1.6793269,0.52236056,0.039995372,0.04,-5.4838657,-7.197709560394287,-3.8443253,-0.084901355,-0.008506417274475098,-0.13408485
1619.449999998856,0.55054116,-1.0748712,0.47965908,-2.8699882,-0.5567185,1.6795349,0.52185416,0.03999535,0.04,-5.467338,-7.2037577629089355,-3.8555846,-0.08267144,-0.008358696475625038,-0.13104682
1619.4666666655226,0.5515711,-1.0754156,0.48055667,-2.8709495,-0.5577611,1.6797383,0.5213597,0.039995335,0.04,-5.4512362,-7.210114479064941,-3.8665693,-0.080455616,-0.008219659328460693,-0.12801613
1619.4833333321892,0.5525762,-1.0759475,0.4814328,-2.8718877,-0.5587788,1.679937,0.5208768,0.03999531,0.04,-5.435446,-7.215826511383057,-3.877345,-0.078254454,-0.008083186112344265,-0.12499499
1619.4999999988559,0.5535569,-1.076466,0.48228762,-2.8728032,-0.55977196,1.6801307,0.5204058,0.039995287,0.04,-5.419973,-7.2217326164245605,-3.8878026,-0.07607173,-0.007949234917759895,-0.12198103
1619.5166666655225,0.55451334,-1.076972,0.4831212,-2.8736959,-0.5607402,1.6803197,0.5199464,0.039995268,0.04,-5.404946,-7.2270894050598145,-3.8980744,-0.07390247,-0.007821128703653812,-0.11898055
1619.5333333321892,0.5554455,-1.0774649,0.4839337,-2.8745658,-0.5616842,1.680504,0.5194986,0.03999525,0.04,-5.390167,-7.232630252838135,-3.908028,-0.071752645,-0.007694966159760952,-0.11599324
1619.5499999988558,0.5563535,-1.0779452,0.48472494,-2.8754132,-0.56260353,1.6806833,0.5190624,0.039995234,0.04,-5.3758674,-7.237610816955566,-3.9177794,-0.069617994,-0.0075741298496723175,-0.113018356
1619.5666666655225,0.5572375,-1.078413,0.48549542,-2.8762388,-0.5634988,1.6808578,0.5186379,0.039995212,0.04,-5.361814,-7.242795944213867,-3.9272423,-0.067503236,-0.007455391343683004,-0.110061206
1619.583333332189,0.5580978,-1.0788679,0.48624521,-2.8770418,-0.56436974,1.6810278,0.5182247,0.0399952,0.04,-5.348235,-7.247408866882324,-3.936454,-0.06540732,-0.007343609351664782,-0.107116304
1619.5999999988558,0.5589344,-1.0793107,0.48697436,-2.8778226,-0.56521666,1.6811931,0.5178229,0.039995186,0.04,-5.3349085,-7.2522807121276855,-3.9454756,-0.06332852,-0.007233454380184412,-0.10418947
1619.6166666655224,0.55974746,-1.0797408,0.48768303,-2.8785818,-0.56604,1.6813537,0.51743233,0.03999518,0.04,-5.321941,-7.256514072418213,-3.9541664,-0.061271776,-0.007125388830900192,-0.101279095
1619.633333332189,0.56053764,-1.0801586,0.48837134,-2.8793187,-0.5668395,1.6815096,0.517053,0.039995164,0.04,-5.3094225,-7.2610931396484375,-3.9626827,-0.05923188,-0.007024125661700964,-0.09839221
1619.6499999988557,0.56130457,-1.0805643,0.48903957,-2.8800344,-0.5676156,1.681661,0.5166848,0.039995153,0.04,-5.2970877,-7.264989376068115,-3.9709117,-0.05721448,-0.006921497639268637,-0.09552261
1619.6666666655224,0.5620482,-1.0809577,0.48968768,-2.8807285,-0.5683685,1.681808,0.51632744,0.03999514,0.04,-5.2852874,-7.269033908843994,-3.9789267,-0.055215657,-0.006825344171375036,-0.09267456
1619.683333332189,0.56276906,-1.0813388,0.490316,-2.8814018,-0.5690982,1.6819504,0.51598126,0.039995126,0.04,-5.2736864,-7.27299165725708,-3.986688,-0.05324002,-0.006731244269758463,-0.08984742
1619.6999999988557,0.56346726,-1.0817083,0.49092463,-2.8820536,-0.569805,1.6820885,0.5156458,0.03999511,0.04,-5.262602,-7.27654504776001,-3.9942224,-0.051285222,-0.006643285043537617,-0.08704712
1619.7166666655223,0.5641432,-1.0820659,0.4915139,-2.8826847,-0.5704895,1.682222,0.51532114,0.039995104,0.04,-5.251695,-7.280230522155762,-4.0014954,-0.049354583,-0.006556443404406309,-0.08427209
1619.733333332189,0.5647969,-1.0824119,0.49208376,-2.8832948,-0.57115155,1.6823511,0.5150072,0.039995093,0.04,-5.241224,-7.28344202041626,-4.008544,-0.047446217,-0.006474544294178486,-0.08152173
1619.7499999988556,0.5654289,-1.0827464,0.49263456,-2.883885,-0.57179135,1.682476,0.5147037,0.039995074,0.04,-5.231002,-7.286833763122559,-4.0153694,-0.04556292,-0.0063939690589904785,-0.07879966
1619.7666666655223,0.5660391,-1.0830694,0.49316645,-2.8844543,-0.57240933,1.6825966,0.51441056,0.03999507,0.04,-5.2211924,-7.289762496948242,-4.0219517,-0.043703713,-0.0063158851116895676,-0.07610703
1619.783333332189,0.56662774,-1.083381,0.4936797,-2.8850038,-0.5730057,1.6827129,0.51412773,0.039995063,0.04,-5.211662,-7.292880535125732,-4.028307,-0.04186992,-0.006241133436560631,-0.073443346
1619.7999999988556,0.5671954,-1.0836817,0.49417457,-2.8855336,-0.5735805,1.6828251,0.5138551,0.039995056,0.04,-5.2025037,-7.2955169677734375,-4.03446,-0.040061604,-0.006168431602418423,-0.07081157
1619.8166666655222,0.5677423,-1.0839713,0.4946512,-2.8860438,-0.57413393,1.6829333,0.51359254,0.039995044,0.04,-5.193661,-7.298400402069092,-4.040368,-0.038279105,-0.006099709775298834,-0.06821081
1619.8333333321889,0.5682685,-1.08425,0.49510992,-2.886535,-0.5746666,1.6830372,0.5133399,0.039995044,0.04,-5.185112,-7.300752639770508,-4.0460606,-0.036524877,-0.006030240096151829,-0.06564402
1619.8499999988555,0.56877434,-1.084518,0.49555084,-2.8870072,-0.57517886,1.6831369,0.51309675,0.039995033,0.04,-5.1769357,-7.303382873535156,-4.0515366,-0.034796912,-0.005966625642031431,-0.06311382
1619.8666666655222,0.56926006,-1.0847752,0.49597424,-2.8874607,-0.57567084,1.6832328,0.51286334,0.03999503,0.04,-5.1690764,-7.305520534515381,-4.056795,-0.03309567,-0.005905747413635254,-0.060619444
1619.8833333321888,0.56972605,-1.0850217,0.4963806,-2.8878963,-0.57614267,1.6833248,0.5126394,0.039995026,0.04,-5.16148,-7.307831287384033,-4.0618687,-0.03142374,-0.005847375374287367,-0.05816227
1619.8999999988555,0.57017285,-1.0852581,0.49677008,-2.888313,-0.576595,1.683413,0.5124248,0.039995022,0.04,-5.154323,-7.309807777404785,-4.0667505,-0.029777959,-0.005794125143438578,-0.055746883
1619.9166666655221,0.57060057,-1.0854847,0.497143,-2.8887124,-0.5770281,1.6834974,0.5122194,0.03999502,0.04,-5.147234,-7.311672687530518,-4.0713897,-0.028164502,-0.005738744977861643,-0.053368375
1619.9333333321888,0.57100964,-1.0857013,0.49749947,-2.889094,-0.57744217,1.6835781,0.5120228,0.039995015,0.04,-5.140575,-7.313671588897705,-4.075824,-0.026581781,-0.005687273573130369,-0.05103051
1619.9499999988554,0.5714002,-1.085908,0.49784,-2.8894587,-0.5778376,1.6836553,0.5118351,0.039995007,0.04,-5.1342177,-7.31523323059082,-4.080084,-0.025028512,-0.005636974237859249,-0.048736826
1619.966666665522,0.5717727,-1.0861053,0.49816477,-2.8898067,-0.57821494,1.6837289,0.5116562,0.039995007,0.04,-5.128099,-7.316972732543945,-4.084159,-0.023507347,-0.0055888742208480835,-0.046485893
1619.9833333321887,0.57212746,-1.0862933,0.49847415,-2.890138,-0.5785743,1.6837989,0.5114856,0.039994996,0.04,-5.122359,-7.318328380584717,-4.08802,-0.02201957,-0.005544248502701521,-0.044279207
1619.9999999988554,0.5724651,-1.0864724,0.49876854,-2.8904529,-0.5789162,1.6838657,0.51132345,0.03999499,0.04,-5.116778,-7.319849014282227,-4.091716,-0.020564334,-0.005501327570527792,-0.042121213
1620.016666665522,0.57278574,-1.0866421,0.49904817,-2.8907518,-0.5792409,1.6839291,0.5111693,0.039994985,0.04,-5.111479,-7.320960998535156,-4.095202,-0.019145288,-0.005456846673041582,-0.0400081
1620.0333333321887,0.5730899,-1.0868031,0.4993134,-2.8910356,-0.5795491,1.6839894,0.51102304,0.039994985,0.04,-5.106488,-7.322281360626221,-4.0985484,-0.017759543,-0.005415992811322212,-0.03794464
1620.0499999988554,0.5733781,-1.0869559,0.49956465,-2.8913047,-0.57984066,1.6840466,0.5108846,0.03999498,0.04,-5.1018105,-7.323272228240967,-4.1017075,-0.016407218,-0.005376797169446945,-0.035933267
1620.066666665522,0.5736503,-1.0871007,0.49980214,-2.8915594,-0.5801167,1.6841007,0.5107535,0.03999498,0.04,-5.097303,-7.324392318725586,-4.1046844,-0.015092671,-0.005338331218808889,-0.033972017
1620.0833333321887,0.5739074,-1.087237,0.5000264,-2.8917992,-0.58037734,1.6841516,0.5106299,0.039994977,0.04,-5.093116,-7.325161457061768,-4.1074743,-0.01381576,-0.005302614998072386,-0.03206509
1620.0999999988553,0.5741497,-1.0873654,0.50023764,-2.8920252,-0.58062273,1.6841992,0.51051354,0.039994974,0.04,-5.0890923,-7.326088905334473,-4.110171,-0.012574747,-0.005269291810691357,-0.03021248
1620.116666665522,0.5743777,-1.0874863,0.50043666,-2.8922381,-0.58085376,1.6842444,0.51040417,0.039994974,0.04,-5.085329,-7.326657295227051,-4.112646,-0.011374426,-0.00523781031370163,-0.028414873
1620.1333333321886,0.5745917,-1.0875999,0.50062346,-2.8924382,-0.58107036,1.684287,0.5103011,0.03999497,0.04,-5.08182,-7.327469348907471,-4.1150355,-0.010211067,-0.005208006594330072,-0.026673071
1620.1499999988553,0.5747923,-1.0877064,0.50079846,-2.8926253,-0.58127344,1.6843265,0.51020455,0.039994966,0.04,-5.0785317,-7.327909469604492,-4.117234,-0.0090874545,-0.00517850648611784,-0.024993539
1620.166666665522,0.57497996,-1.0878062,0.50096214,-2.8928008,-0.5814636,1.6843636,0.5101148,0.039994963,0.04,-5.075374,-7.328337669372559,-4.119276,-0.008006417,-0.005149641074240208,-0.023372756
1620.1833333321886,0.57515514,-1.0878992,0.501115,-2.892964,-0.581641,1.6843983,0.5100308,0.039994963,0.04,-5.07256,-7.328881740570068,-4.1212187,-0.0069674077,-0.005125212483108044,-0.021813612
1620.1999999988552,0.5753184,-1.0879859,0.50125736,-2.8931165,-0.58180636,1.6844306,0.5099526,0.03999496,0.04,-5.0697894,-7.3290557861328125,-4.123011,-0.005971574,-0.005098527763038874,-0.020316832
1620.2166666655219,0.5754702,-1.0880666,0.50138974,-2.8932588,-0.58196014,1.6844609,0.50987947,0.039994955,0.04,-5.067332,-7.3294291496276855,-4.12469,-0.0050183167,-0.005074819549918175,-0.018885013
1620.2333333321885,0.5756111,-1.0881412,0.5015127,-2.8933892,-0.582103,1.6844887,0.5098115,0.039994955,0.04,-5.065084,-7.329553604125977,-4.1262517,-0.004105457,-0.0050539979711174965,-0.017517848
1620.2499999988552,0.5757415,-1.0882106,0.5016265,-2.893511,-0.5822351,1.6845146,0.50974894,0.039994955,0.04,-5.062732,-7.329624652862549,-4.127686,-0.0032407157,-0.005029706750065088,-0.016214862
1620.2666666655218,0.5758623,-1.0882746,0.50173175,-2.8936245,-0.58235747,1.6845385,0.50969076,0.03999495,0.04,-5.060895,-7.3296661376953125,-4.1290107,-0.0024218322,-0.005009965039789677,-0.014983412
1620.2833333321885,0.57597375,-1.0883338,0.5018289,-2.8937302,-0.5824703,1.6845607,0.50963706,0.03999495,0.04,-5.059155,-7.3298020362854,-4.1302567,-0.001644849,-0.004995186813175678,-0.013820148
1620.2999999988551,0.57607645,-1.0883884,0.5019185,-2.8938277,-0.5825744,1.6845808,0.5095877,0.03999495,0.04,-5.0575657,-7.329699516296387,-4.1314077,-0.000913972,-0.0049834782257676125,-0.012730346
1620.3166666655218,0.57617104,-1.0884389,0.502001,-2.8939176,-0.58267015,1.6845996,0.5095423,0.03999495,0.04,-5.055999,-7.329622745513916,-4.1324496,-0.00023307484,-0.004973510280251503,-0.011712385
1620.3333333321884,0.57625806,-1.0884852,0.50207686,-2.8939998,-0.5827582,1.6846168,0.5095003,0.03999495,0.04,-5.0546193,-7.329380989074707,-4.13342,0.00039873717,-0.004964075051248074,-0.010769301
1620.349999998855,0.57633793,-1.0885279,0.50214654,-2.8940747,-0.5828393,1.6846325,0.5094619,0.03999495,0.04,-5.0532546,-7.329163551330566,-4.1342983,0.000979955,-0.004954285454005003,-0.009900139
1620.3666666655217,0.5764116,-1.0885673,0.5022106,-2.8941424,-0.58291394,1.6846471,0.5094265,0.03999495,0.04,-5.0520005,-7.328814506530762,-4.1350775,0.0015111868,-0.004943373613059521,-0.00909979
1620.3833333321884,0.5764793,-1.0886033,0.50227016,-2.8942032,-0.5829824,1.6846606,0.5093939,0.03999495,0.04,-5.050757,-7.328581809997559,-4.135807,0.0019971218,-0.004927944857627153,-0.008361412
1620.399999998855,0.5765415,-1.0886365,0.5023243,-2.8942623,-0.5830456,1.6846727,0.5093637,0.039994955,0.04,-5.0495944,-7.32828426361084,-4.1364746,0.0024418822,-0.004908853210508823,-0.0076778536
1620.4166666655217,0.5765988,-1.0886672,0.5023743,-2.8943148,-0.5831037,1.6846842,0.5093362,0.039994955,0.04,-5.0490894,-7.328329086303711,-4.137107,0.0028581235,-0.004903898108750582,-0.0070561846
1620.4333333321883,0.5766516,-1.0886953,0.5024205,-2.894366,-0.5831572,1.6846945,0.50931096,0.039994955,0.04,-5.0479894,-7.328080654144287,-4.1376657,0.0032356419,-0.004890691954642534,-0.006480289
1620.449999998855,0.57670003,-1.0887212,0.50246286,-2.8944104,-0.5832063,1.6847043,0.50928766,0.039994955,0.04,-5.0475483,-7.328134536743164,-4.13824,0.003590418,-0.0048902896232903,-0.0059538977
1620.4666666655216,0.5767444,-1.088745,0.5025014,-2.8944538,-0.58325166,1.6847131,0.5092662,0.039994955,0.04,-5.04651,-7.327813625335693,-4.1386995,0.003909865,-0.0048788608983159065,-0.005466537
1620.4833333321883,0.57678545,-1.088767,0.5025378,-2.8944907,-0.5832933,1.6847212,0.50924635,0.039994955,0.04,-5.046175,-7.327828884124756,-4.1391654,0.0042090444,-0.004879286512732506,-0.00502337
1620.499999998855,0.5768235,-1.0887872,0.50257057,-2.894527,-0.5833317,1.6847287,0.50922805,0.039994955,0.04,-5.045164,-7.3275628089904785,-4.139553,0.004478706,-0.004868248477578163,-0.004607318
1620.5166666655216,0.57685786,-1.0888059,0.5026013,-2.8945582,-0.58336693,1.6847354,0.5092111,0.039994955,0.04,-5.0448885,-7.3275909423828125,-4.1399565,0.0047328286,-0.004865045193582773,-0.0042299037
1620.5333333321882,0.57689005,-1.088823,0.50262916,-2.8945873,-0.5833995,1.684742,0.5091958,0.039994955,0.04,-5.044136,-7.327365875244141,-4.140267,0.004960297,-0.004857343155890703,-0.0038789848
1620.549999998855,0.57691944,-1.0888387,0.5026548,-2.894616,-0.5834292,1.6847479,0.50918156,0.039994955,0.04,-5.043708,-7.327297687530518,-4.1406045,0.00517082,-0.004848224576562643,-0.0035565707
1620.5666666655216,0.5769461,-1.0888534,0.5026784,-2.8946407,-0.58345664,1.6847533,0.5091684,0.039994955,0.04,-5.043492,-7.327371597290039,-4.1409216,0.0053689545,-0.004847301170229912,-0.0032637846
1620.5833333321882,0.5769708,-1.0888666,0.50270015,-2.8946621,-0.58348185,1.6847581,0.5091564,0.039994955,0.04,-5.0429306,-7.327142715454102,-4.141156,0.0055461293,-0.004842495080083609,-0.0029925006
1620.5999999988549,0.5769936,-1.0888789,0.5027202,-2.8946834,-0.58350515,1.6847625,0.5091453,0.039994955,0.04,-5.0424137,-7.32702112197876,-4.1413927,0.0057065724,-0.004833548795431852,-0.0027411953
1620.6166666655215,0.57701445,-1.0888902,0.5027386,-2.894704,-0.5835266,1.6847668,0.5091352,0.03999496,0.04,-5.042253,-7.32705545425415,-4.1416306,0.0058579803,-0.004830785095691681,-0.0025102368
1620.6333333321882,0.57703346,-1.0889008,0.50275546,-2.8947222,-0.5835463,1.6847707,0.50912577,0.03999496,0.04,-5.0420713,-7.327103614807129,-4.141864,0.005999649,-0.004831693600863218,-0.0023000306
1620.6499999988548,0.57705164,-1.0889103,0.5027712,-2.894738,-0.58356434,1.6847742,0.5091171,0.03999496,0.04,-5.04168,-7.326947212219238,-4.142036,0.0061267763,-0.004829227924346924,-0.0021061064
1620.6666666655215,0.5770683,-1.0889192,0.5027855,-2.8947518,-0.583581,1.6847774,0.50910914,0.03999496,0.04,-5.0412755,-7.326877593994141,-4.1422157,0.006244018,-0.0048223696649074554,-0.0019248753
1620.683333332188,0.5770833,-1.0889273,0.5027986,-2.8947654,-0.5835964,1.6847802,0.5091019,0.03999496,0.04,-5.0409746,-7.3267974853515625,-4.1423597,0.0063498416,-0.004813565406948328,-0.0017580457
1620.6999999988548,0.5770973,-1.0889348,0.50281084,-2.8947787,-0.5836105,1.684783,0.50909525,0.03999496,0.04,-5.0408907,-7.3268046379089355,-4.142509,0.0064479136,-0.004810548387467861,-0.0016060951
1620.7166666655214,0.5771103,-1.0889418,0.50282186,-2.8947918,-0.5836234,1.6847856,0.509089,0.03999496,0.04,-5.040757,-7.3268585205078125,-4.1426635,0.006541016,-0.004809356294572353,-0.0014666879
1620.733333332188,0.5771219,-1.0889482,0.5028322,-2.8948038,-0.5836354,1.6847881,0.50908333,0.03999496,0.04,-5.0406556,-7.326861381530762,-4.142797,0.006628683,-0.0048100934363901615,-0.0013399102
1620.7499999988547,0.5771329,-1.0889541,0.50284153,-2.8948138,-0.5836463,1.6847904,0.50907815,0.03999496,0.04,-4.930459,-7.193120002746582,-4.0802445,0.0,-0.0,0.0
1620.7666666655214,0.5771329,-1.0889541,0.50284153,-2.8948138,-0.5836463,1.6847904,0.50907815,0.03999496,0.04,-5.0405107,-7.325706958770752,-4.1428714,0.0,-0.0,0.0
1620.783333332188,0.5771329,-1.0889541,0.50284153,-2.8948138,-0.5836463,1.6847904,0.50907815,0.03999496,0.04,-5.0405107,-7.325706958770752,-4.1428714,0.0,-0.0,0.0
1620.7999999988547,0.5771329,-1.0889541,0.50284153,-2.8948138,-0.5836463,1.6847904,0.50907815,0.03999496,0.04,-5.0405107,-7.325706958770752,-4.1428714,0.0,-0.0,0.0
1620.8166666655213,0.5771329,-1.0889541,0.50284153,-2.8948138,-0.5836463,1.6847904,0.50907815,0.03999496,0.04,-5.0405107,-7.325706958770752,-4.1428714,0.0,-0.0,0.0
1620.833333332188,0.5771329,-1.0889541,0.50284153,-2.8948138,-0.5836463,1.6847904,0.50907815,0.03999496,0.04,-5.0405107,-7.325706958770752,-4.1428714,0.0,-0.0,0.0
1620.8499999988546,0.5771329,-1.0889541,0.50284153,-2.8948138,-0.5836463,1.6847904,0.50907815,0.03999496,0.04,-5.0405107,-7.325706958770752,-4.1428714,0.0,-0.0,0.0
1620.8666666655213,0.5771329,-1.0889541,0.50284153,-2.8948138,-0.5836463,1.6847904,0.50907815,0.03999496,0.04,-5.0405107,-7.325706958770752,-4.1428714,0.0,-0.0,0.0
1620.883333332188,0.5771329,-1.0889541,0.50284153,-2.8948138,-0.5836463,1.6847904,0.50907815,0.03999496,0.04,-5.0405107,-7.325706958770752,-4.1428714,0.0,-0.0,0.0
1620.8999999988546,0.5771329,-1.0889541,0.50284153,-2.8948138,-0.5836463,1.6847904,0.50907815,0.03999496,0.04,-5.0405107,-7.325706958770752,-4.1428714,0.0,-0.0,0.0
1620.9166666655212,0.5771329,-1.0889541,0.50284153,-2.8948138,-0.5836463,1.6847904,0.50907815,0.03999496,0.04,-5.0405107,-7.325706958770752,-4.1428714,0.0,-0.0,0.0
1620.9333333321879,0.5771329,-1.0889541,0.50284153,-2.8948138,-0.5836463,1.6847904,0.50907815,0.03999496,0.04,-5.0405107,-7.325706958770752,-4.1428714,0.0,-0.0,0.0
1620.9499999988545,0.5771329,-1.0889541,0.50284153,-2.8948138,-0.5836463,1.6847904,0.50907815,0.03999496,0.04,-5.0405107,-7.325706958770752,-4.1428714,0.0,-0.0,0.0
1620.9666666655212,0.5771329,-1.0889541,0.50284153,-2.8948138,-0.5836463,1.6847904,0.50907815,0.03999496,0.04,-5.0405107,-7.325706958770752,-4.1428714,0.0,-0.0,0.0
1620.9833333321878,0.5771329,-1.0889541,0.50284153,-2.8948138,-0.5836463,1.6847904,0.50907815,0.03999496,0.04,-5.0405107,-7.325706958770752,-4.1428714,0.0,-0.0,0.0
1620.9999999988545,0.5771329,-1.0889541,0.50284153,-2.8948138,-0.5836463,1.6847904,0.50907815,0.03999496,0.04,-5.0405107,-7.325706958770752,-4.1428714,0.0,-0.0,0.0
1621.0166666655211,0.5771329,-1.0889541,0.50284153,-2.8948138,-0.5836463,1.6847904,0.50907815,0.03999496,0.04,-5.0405107,-7.325706958770752,-4.1428714,0.0,-0.0,0.0
1621.0333333321878,0.5771329,-1.0889541,0.50284153,-2.8948138,-0.5836463,1.6847904,0.50907815,0.03999496,0.04,-5.0405107,-7.325706958770752,-4.1428714,0.0,-0.0,0.0
1621.0499999988544,0.5771329,-1.0889541,0.50284153,-2.8948138,-0.5836463,1.6847904,0.50907815,0.03999496,0.04,-5.0405107,-7.325706958770752,-4.1428714,0.0,-0.0,0.0
1621.066666665521,0.5771329,-1.0889541,0.50284153,-2.8948138,-0.5836463,1.6847904,0.50907815,0.03999496,0.04,-5.0405107,-7.325706958770752,-4.1428714,0.0,-0.0,0.0
1621.0833333321877,0.5771329,-1.0889541,0.50284153,-2.8948138,-0.5836463,1.6847904,0.50907815,0.03999496,0.04,-5.0405107,-7.325706958770752,-4.1428714,0.0,-0.0,0.0
1621.0999999988544,0.5771329,-1.0889541,0.50284153,-2.8948138,-0.5836463,1.6847904,0.50907815,0.03999496,0.04,-5.0405107,-7.325706958770752,-4.1428714,0.0,-0.0,0.0
1621.116666665521,0.5771329,-1.0889541,0.50284153,-2.8948138,-0.5836463,1.6847904,0.50907815,0.03999496,0.04,-5.0405107,-7.325706958770752,-4.1428714,0.0,-0.0,0.0
1621.1333333321877,0.5771329,-1.0889541,0.50284153,-2.8948138,-0.5836463,1.6847904,0.50907815,0.03999496,0.04,-5.0405107,-7.325706958770752,-4.1428714,0.0,-0.0,0.0
1621.1499999988544,0.5771329,-1.0889541,0.50284153,-2.8948138,-0.5836463,1.6847904,0.50907815,0.03999496,0.04,-5.0405107,-7.325706958770752,-4.1428714,0.0,-0.0,0.0
1621.166666665521,0.5771329,-1.0889541,0.50284153,-2.8948138,-0.5836463,1.6847904,0.50907815,0.03999496,0.04,-5.0405107,-7.325706958770752,-4.1428714,0.0,-0.0,0.0
1621.1833333321877,0.5771329,-1.0889541,0.50284153,-2.8948138,-0.5836463,1.6847904,0.50907815,0.03999496,0.04,-5.0405107,-7.325706958770752,-4.1428714,0.0,-0.0,0.0
1621.1999999988543,0.5771329,-1.0889541,0.50284153,-2.8948138,-0.5836463,1.6847904,0.50907815,0.03999496,0.04,-5.0405107,-7.325706958770752,-4.1428714,0.0,-0.0,0.0
1621.216666665521,0.5771329,-1.0889541,0.50284153,-2.8948138,-0.5836463,1.6847904,0.50907815,0.03999496,0.04,-5.0405107,-7.325706958770752,-4.1428714,0.0,-0.0,0.0
1621.2333333321876,0.5771329,-1.0889541,0.50284153,-2.8948138,-0.5836463,1.6847904,0.50907815,0.03999496,0.04,-5.0405107,-7.325706958770752,-4.1428714,0.0,-0.0,0.0
1621.2499999988543,0.5771329,-1.0889541,0.50284153,-2.8948138,-0.5836463,1.6847904,0.50907815,0.03999496,0.04,-5.0405107,-7.325706958770752,-4.1428714,0.0,-0.0,0.0
1621.266666665521,0.5771329,-1.0889541,0.50284153,-2.8948138,-0.5836463,1.6847904,0.50907815,0.03999496,0.04,-5.0405107,-7.325706958770752,-4.1428714,0.0,-0.0,0.0
1621.2833333321876,0.5771329,-1.0889541,0.50284153,-2.8948138,-0.5836463,1.6847904,0.50907815,0.03999496,0.04,-5.0405107,-7.325706958770752,-4.1428714,0.0,-0.0,0.0
1621.2999999988542,0.5771329,-1.0889541,0.50284153,-2.8948138,-0.5836463,1.6847904,0.50907815,0.03999496,0.04,-5.0405107,-7.325706958770752,-4.1428714,0.0,-0.0,0.0
1621.3166666655209,0.5771329,-1.0889541,0.50284153,-2.8948138,-0.5836463,1.6847904,0.50907815,0.03999496,0.04,-5.0405107,-7.325706958770752,-4.1428714,0.0,-0.0,0.0
1621.3333333321875,0.5771329,-1.0889541,0.50284153,-2.8948138,-0.5836463,1.6847904,0.50907815,0.03999496,0.04,-5.0405107,-7.325706958770752,-4.1428714,0.0,-0.0,0.0
1621.3499999988542,0.5771329,-1.0889541,0.50284153,-2.8948138,-0.5836463,1.6847904,0.50907815,0.03999496,0.04,-5.0405107,-7.325706958770752,-4.1428714,0.0,-0.0,0.0
1621.3666666655208,0.5771329,-1.0889541,0.50284153,-2.8948138,-0.5836463,1.6847904,0.50907815,0.03999496,0.04,-5.0405107,-7.325706958770752,-4.1428714,0.0,-0.0,0.0
1621.3833333321875,0.5771329,-1.0889541,0.50284153,-2.8948138,-0.5836463,1.6847904,0.50907815,0.03999496,0.04,-5.0405107,-7.325706958770752,-4.1428714,0.0,-0.0,0.0
1621.3999999988541,0.5771329,-1.0889541,0.50284153,-2.8948138,-0.5836463,1.6847904,0.50907815,0.03999496,0.04,-5.0405107,-7.325706958770752,-4.1428714,0.0,-0.0,0.0
1621.4166666655208,0.5771329,-1.0889541,0.50284153,-2.8948138,-0.5836463,1.6847904,0.50907815,0.03999496,0.04,-5.0405107,-7.325706958770752,-4.1428714,0.0,-0.0,0.0
1621.4333333321874,0.5771329,-1.0889541,0.50284153,-2.8948138,-0.5836463,1.6847904,0.50907815,0.03999496,0.04,-5.0405107,-7.325706958770752,-4.1428714,0.0,-0.0,0.0
1621.449999998854,0.5771329,-1.0889541,0.50284153,-2.8948138,-0.5836463,1.6847904,0.50907815,0.03999496,0.04,-5.0405107,-7.325706958770752,-4.1428714,0.0,-0.0,0.0
1621.4666666655207,0.5771329,-1.0889541,0.50284153,-2.8948138,-0.5836463,1.6847904,0.50907815,0.03999496,0.04,-5.0405107,-7.325706958770752,-4.1428714,0.0,-0.0,0.0
1621.4833333321874,0.5771329,-1.0889541,0.50284153,-2.8948138,-0.5836463,1.6847904,0.50907815,0.03999496,0.04,-5.0405107,-7.325706958770752,-4.1428714,0.0,-0.0,0.0
1621.499999998854,0.5771329,-1.0889541,0.50284153,-2.8948138,-0.5836463,1.6847904,0.50907815,0.03999496,0.04,-5.0405107,-7.325706958770752,-4.1428714,0.0,-0.0,0.0
1621.5166666655207,0.5771329,-1.0889541,0.50284153,-2.8948138,-0.5836463,1.6847904,0.50907815,0.03999496,0.04,-5.0405107,-7.325706958770752,-4.1428714,0.0,-0.0,0.0
1621.5333333321873,0.5771329,-1.0889541,0.50284153,-2.8948138,-0.5836463,1.6847904,0.50907815,0.03999496,0.04,-5.0405107,-7.325706958770752,-4.1428714,0.0,-0.0,0.0
1621.549999998854,0.5771329,-1.0889541,0.50284153,-2.8948138,-0.5836463,1.6847904,0.50907815,0.03999496,0.04,-5.0405107,-7.325706958770752,-4.1428714,0.0,-0.0,0.0
1621.5666666655206,0.5771329,-1.0889541,0.50284153,-2.8948138,-0.5836463,1.6847904,0.50907815,0.03999496,0.04,-5.0405107,-7.325706958770752,-4.1428714,0.0,-0.0,0.0
1621.5833333321873,0.5771329,-1.0889541,0.50284153,-2.8948138,-0.5836463,1.6847904,0.50907815,0.03999496,0.04,-5.0405107,-7.325706958770752,-4.1428714,0.0,-0.0,0.0
1621.599999998854,0.5771329,-1.0889541,0.50284153,-2.8948138,-0.5836463,1.6847904,0.50907815,0.03999496,0.04,-5.0405107,-7.325706958770752,-4.1428714,0.0,-0.0,0.0
1621.6166666655206,0.5771329,-1.0889541,0.50284153,-2.8948138,-0.5836463,1.6847904,0.50907815,0.03999496,0.04,-5.0405107,-7.325706958770752,-4.1428714,0.0,-0.0,0.0
1621.6333333321872,0.5771329,-1.0889541,0.50284153,-2.8948138,-0.5836463,1.6847904,0.50907815,0.03999496,0.04,-5.0405107,-7.325706958770752,-4.1428714,0.0,-0.0,0.0
1621.649999998854,0.5771329,-1.0889541,0.50284153,-2.8948138,-0.5836463,1.6847904,0.50907815,0.03999496,0.04,-5.0405107,-7.325706958770752,-4.1428714,0.0,-0.0,0.0
1621.6666666655206,0.5771329,-1.0889541,0.50284153,-2.8948138,-0.5836463,1.6847904,0.50907815,0.03999496,0.04,-5.0405107,-7.325706958770752,-4.1428714,0.0,-0.0,0.0
1621.6833333321872,0.5771329,-1.0889541,0.50284153,-2.8948138,-0.5836463,1.6847904,0.50907815,0.03999496,0.04,-5.0405107,-7.325706958770752,-4.1428714,0.0,-0.0,0.0
1621.6999999988539,0.5771329,-1.0889541,0.50284153,-2.8948138,-0.5836463,1.6847904,0.50907815,0.03999496,0.04,-5.0405107,-7.325706958770752,-4.1428714,0.0,-0.0,0.0
1621.7166666655205,0.5771329,-1.0889541,0.50284153,-2.8948138,-0.5836463,1.6847904,0.50907815,0.03999496,0.04,-5.0405107,-7.325706958770752,-4.1428714,0.0,-0.0,0.0
1621.7333333321872,0.5771329,-1.0889541,0.50284153,-2.8948138,-0.5836463,1.6847904,0.50907815,0.03999496,0.04,-5.0405107,-7.325706958770752,-4.1428714,0.0,-0.0,0.0
1621.7499999988538,0.5771329,-1.0889541,0.50284153,-2.8948138,-0.5836463,1.6847904,0.50907815,0.03999496,0.04,-5.0405107,-7.325706958770752,-4.1428714,0.0,-0.0,0.0
1621.7666666655205,0.5771329,-1.0889541,0.50284153,-2.8948138,-0.5836463,1.6847904,0.50907815,0.03999496,0.04,-5.0405107,-7.325706958770752,-4.1428714,0.0,-0.0,0.0
1621.783333332187,0.5771329,-1.0889541,0.50284153,-2.8948138,-0.5836463,1.6847904,0.50907815,0.03999496,0.04,-5.0405107,-7.325706958770752,-4.1428714,0.0,-0.0,0.0
1621.7999999988538,0.5771329,-1.0889541,0.50284153,-2.8948138,-0.5836463,1.6847904,0.50907815,0.03999496,0.04,-5.0405107,-7.325706958770752,-4.1428714,0.0,-0.0,0.0
1621.8166666655204,0.5771329,-1.0889541,0.50284153,-2.8948138,-0.5836463,1.6847904,0.50907815,0.03999496,0.04,-5.0405107,-7.325706958770752,-4.1428714,0.0,-0.0,0.0
1621.833333332187,0.5771329,-1.0889541,0.50284153,-2.8948138,-0.5836463,1.6847904,0.50907815,0.03999496,0.04,-5.0405107,-7.325706958770752,-4.1428714,0.0,-0.0,0.0
1621.8499999988537,0.5771329,-1.0889541,0.50284153,-2.8948138,-0.5836463,1.6847904,0.50907815,0.03999496,0.04,-5.0405107,-7.325706958770752,-4.1428714,0.0,-0.0,0.0
1621.8666666655204,0.5771329,-1.0889541,0.50284153,-2.8948138,-0.5836463,1.6847904,0.50907815,0.03999496,0.04,-5.0405107,-7.325706958770752,-4.1428714,0.0,-0.0,0.0
1621.883333332187,0.5771329,-1.0889541,0.50284153,-2.8948138,-0.5836463,1.6847904,0.50907815,0.03999496,0.04,-5.0405107,-7.325706958770752,-4.1428714,0.0,-0.0,0.0
1621.8999999988537,0.5771329,-1.0889541,0.50284153,-2.8948138,-0.5836463,1.6847904,0.50907815,0.03999496,0.04,-5.0405107,-7.325706958770752,-4.1428714,0.0,-0.0,0.0
1621.9166666655203,0.5771329,-1.0889541,0.50284153,-2.8948138,-0.5836463,1.6847904,0.50907815,0.03999496,0.04,-5.0405107,-7.325706958770752,-4.1428714,0.0,-0.0,0.0
1621.933333332187,0.5771329,-1.0889541,0.50284153,-2.8948138,-0.5836463,1.6847904,0.50907815,0.03999496,0.04,-5.0405107,-7.325706958770752,-4.1428714,0.0,-0.0,0.0
1621.9499999988536,0.5771329,-1.0889541,0.50284153,-2.8948138,-0.5836463,1.6847904,0.50907815,0.03999496,0.04,-5.0405107,-7.325706958770752,-4.1428714,0.0,-0.0,0.0
1621.9666666655203,0.5771329,-1.0889541,0.50284153,-2.8948138,-0.5836463,1.6847904,0.50907815,0.03999496,0.04,-5.0405107,-7.325706958770752,-4.1428714,0.0,-0.0,0.0
1621.983333332187,0.5771329,-1.0889541,0.50284153,-2.8948138,-0.5836463,1.6847904,0.50907815,0.03999496,0.04,-5.0405107,-7.325706958770752,-4.1428714,0.0,-0.0,0.0
1621.9999999988536,0.5771329,-1.0889541,0.50284153,-2.8948138,-0.5836463,1.6847904,0.50907815,0.03999496,0.04,-5.0405107,-7.325706958770752,-4.1428714,0.0,-0.0,0.0
1622.0166666655202,0.5771329,-1.0889541,0.50284153,-2.8948138,-0.5836463,1.6847904,0.50907815,0.03999496,0.04,-5.0405107,-7.325706958770752,-4.1428714,0.0,-0.0,0.0
1622.0333333321869,0.5771329,-1.0889541,0.50284153,-2.8948138,-0.5836463,1.6847904,0.50907815,0.03999496,0.04,-5.0405107,-7.325706958770752,-4.1428714,0.0,-0.0,0.0
1622.0499999988535,0.5771329,-1.0889541,0.50284153,-2.8948138,-0.5836463,1.6847904,0.50907815,0.03999496,0.04,-5.0405107,-7.325706958770752,-4.1428714,0.0,-0.0,0.0
1622.0666666655202,0.5771329,-1.0889541,0.50284153,-2.8948138,-0.5836463,1.6847904,0.50907815,0.03999496,0.04,-5.0405107,-7.325706958770752,-4.1428714,0.0,-0.0,0.0
1622.0833333321868,0.5771329,-1.0889541,0.50284153,-2.8948138,-0.5836463,1.6847904,0.50907815,0.03999496,0.04,-5.0405107,-7.325706958770752,-4.1428714,0.0,-0.0,0.0
1622.0999999988535,0.5771329,-1.0889541,0.50284153,-2.8948138,-0.5836463,1.6847904,0.50907815,0.03999496,0.04,-5.0405107,-7.325706958770752,-4.1428714,0.0,-0.0,0.0
1622.1166666655201,0.5771329,-1.0889541,0.50284153,-2.8948138,-0.5836463,1.6847904,0.50907815,0.03999496,0.04,-5.0405107,-7.325706958770752,-4.1428714,0.0,-0.0,0.0
1622.1333333321868,0.5771329,-1.0889541,0.50284153,-2.8948138,-0.5836463,1.6847904,0.50907815,0.03999496,0.04,-5.0405107,-7.325706958770752,-4.1428714,0.0,-0.0,0.0
1622.1499999988534,0.5771329,-1.0889541,0.50284153,-2.8948138,-0.5836463,1.6847904,0.50907815,0.03999496,0.04,-5.0405107,-7.325706958770752,-4.1428714,0.0,-0.0,0.0
1622.16666666552,0.5771329,-1.0889541,0.50284153,-2.8948138,-0.5836463,1.6847904,0.50907815,0.03999496,0.04,-5.0405107,-7.325706958770752,-4.1428714,0.0,-0.0,0.0
1622.1833333321867,0.5771329,-1.0889541,0.50284153,-2.8948138,-0.5836463,1.6847904,0.50907815,0.03999496,0.04,-5.0405107,-7.325706958770752,-4.1428714,0.0,-0.0,0.0
1622.1999999988534,0.5771329,-1.0889541,0.50284153,-2.8948138,-0.5836463,1.6847904,0.50907815,0.03999496,0.04,-5.0405107,-7.325706958770752,-4.1428714,0.0,-0.0,0.0
1622.21666666552,0.5771329,-1.0889541,0.50284153,-2.8948138,-0.5836463,1.6847904,0.50907815,0.03999496,0.04,-5.0405107,-7.325706958770752,-4.1428714,0.0,-0.0,0.0
1622.2333333321867,0.5771329,-1.0889541,0.50284153,-2.8948138,-0.5836463,1.6847904,0.50907815,0.03999496,0.04,-5.0405107,-7.325706958770752,-4.1428714,0.0,-0.0,0.0
1622.2499999988534,0.5771329,-1.0889541,0.50284153,-2.8948138,-0.5836463,1.6847904,0.50907815,0.03999496,0.04,-5.0405107,-7.325706958770752,-4.1428714,0.0,-0.0,0.0
1622.26666666552,0.5771329,-1.0889541,0.50284153,-2.8948138,-0.5836463,1.6847904,0.50907815,0.03999496,0.04,-5.0405107,-7.325706958770752,-4.1428714,0.0,-0.0,0.0
1622.2833333321867,0.5771329,-1.0889541,0.50284153,-2.8948138,-0.5836463,1.6847904,0.50907815,0.03999496,0.04,-5.0405107,-7.325706958770752,-4.1428714,0.0,-0.0,0.0
1622.2999999988533,0.5771329,-1.0889541,0.50284153,-2.8948138,-0.5836463,1.6847904,0.50907815,0.03999496,0.04,-5.0405107,-7.325706958770752,-4.1428714,0.0,-0.0,0.0
1622.31666666552,0.5771329,-1.0889541,0.50284153,-2.8948138,-0.5836463,1.6847904,0.50907815,0.03999496,0.04,-5.0405107,-7.325706958770752,-4.1428714,0.0,-0.0,0.0
1622.3333333321866,0.5771329,-1.0889541,0.50284153,-2.8948138,-0.5836463,1.6847904,0.50907815,0.03999496,0.04,-5.0405107,-7.325706958770752,-4.1428714,0.0,-0.0,0.0
1622.3499999988533,0.5771329,-1.0889541,0.50284153,-2.8948138,-0.5836463,1.6847904,0.50907815,0.03999496,0.04,-5.0405107,-7.325706958770752,-4.1428714,0.0,-0.0,0.0
