rsonawane2002/My_IMU/logs_2/traj_2503/imu_400hz_2503.csv
time,j1,j2,j3,j4,j5,j6,j7,gripper1,gripper2,imu_ax,imu_ay,imu_az,imu_gx,imu_gy,imu_gz
0.0,0.00016700293,-0.785875,4.0107683e-05,-2.3551247,9.29385e-05,1.570997,0.786,0.04,0.04,-9.542852309264257,0.2110721044481308,0.2397226297036869,-0.0003035555130276,-0.0030725027904068,-0.000709829122151
0.0025,0.0001670025115,-0.785857774,4.010907455e-05,-2.35513919,9.294487575000001e-05,1.570996565,0.786,0.04,0.04,-9.592768592224694,0.21457607375811588,0.18925871448599252,-0.0002921863866875795,-0.0030777819472883774,-0.0008298313845727229
0.005,0.000167002093,-0.785840548,4.01104661e-05,-2.3551536800000004,9.295125150000001e-05,1.57099613,0.786,0.04,0.04,-9.642684875185132,0.21808004306810097,0.13879479926829816,-0.000280817260347559,-0.003083061104169955,-0.0009498336469944459
0.0075,0.0001670016745,-0.7858233219999999,4.0111857650000006e-05,-2.3551681700000002,9.295762725000001e-05,1.570995695,0.786,0.04,0.04,-9.69260115814557,0.22158401237808606,0.0883308840506038,-0.0002694481340075385,-0.0030883402610515326,-0.001069835909416169
0.01,0.000167001256,-0.785806096,4.0113249200000005e-05,-2.35518266,9.296400300000001e-05,1.5709952600000001,0.786,0.04,0.04,-9.742517441106008,0.22508798168807115,0.03786696883290941,-0.000258079007667518,-0.00309361941793311,-0.001189838171837892
0.0125,0.0001670008375,-0.78578887,4.0114640750000004e-05,-2.3551971500000004,9.297037875000002e-05,1.570994825,0.786,0.04,0.04,-9.792433724066445,0.22859195099805624,-0.01259694638478498,-0.00024670988132749754,-0.0030988985748146877,-0.0013098404342596149
0.015,0.000167000419,-0.785771644,4.01160323e-05,-2.3552116400000003,9.297675450000002e-05,1.57099439,0.786,0.04,0.04,-9.842350007026884,0.23209592030804133,-0.06306086160247931,-0.00023534075498747703,-0.0031041777316962657,-0.0014298426966813378
0.0175,0.000166998053,-0.785754862,4.0118209100000015e-05,-2.3552257350000003,9.298540375000005e-05,1.57099396,0.786,0.04,0.04,-9.88089224427888,0.2213461425956938,-0.0956807966730285,-0.0002405347759909792,-0.0027154377025748366,-0.0012818268685844982
0.02,0.000166991792,-0.785738968,4.012195640000001e-05,-2.3552390400000003,9.299860000000005e-05,1.5709935400000001,0.786,0.04,0.04,-9.896686390114326,0.1820888708390944,-0.09261277144980448,-0.0002788550916810463,-0.00153865930145882,-0.0005977748594583047
0.0225,0.000166985531,-0.785723074,4.012570370000001e-05,-2.3552523450000002,9.301179625000005e-05,1.57099312,0.786,0.04,0.04,-9.91248053594977,0.142831599082495,-0.08954474622658046,-0.0003171754073711135,-0.00036188090034280354,8.627714966788881e-05
0.025,0.00016697927,-0.78570718,4.012945100000001e-05,-2.35526565,9.302499250000004e-05,1.5709927,0.786,0.04,0.04,-9.928274681785217,0.10357432732589553,-0.08647672100335643,-0.00035549572306118075,0.0008148975007732143,0.0007703291587940831
0.0275,0.000166973009,-0.7856912859999999,4.0133198300000013e-05,-2.355278955,9.303818875000004e-05,1.57099228,0.786,0.04,0.04,-9.944068827620661,0.06431705556929612,-0.08340869578013241,-0.0003938160387512479,0.0019916759018892313,0.0014543811679202765
0.03,0.000166966748,-0.7856753919999999,4.013694560000001e-05,-2.35529226,9.305138500000005e-05,1.57099186,0.786,0.04,0.04,-9.959862973456108,0.025059783812696718,-0.08034067055690838,-0.000432136354441315,0.0031684543030052474,0.0021384331770464703
0.0325,0.000166960487,-0.7856594979999999,4.014069290000001e-05,-2.3553055649999997,9.306458125000005e-05,1.57099144,0.786,0.04,0.04,-9.975657119291553,-0.014197487943902742,-0.07727264533368436,-0.00047045667013138225,0.004345232704121266,0.0028224851861726645
0.035,0.00016694396899999994,-0.785644453,4.0148672800000034e-05,-2.3553181,9.309022860000011e-05,1.57099101,0.786,0.04,0.04,-9.99180936876261,-0.03214428231995861,-0.06045191936412814,-0.0008844813598676204,0.0036280304099115335,0.0025572370262829476
0.0375,0.00016692232249999994,-0.7856298325,4.0158769000000035e-05,-2.3553302499999997,9.312210150000012e-05,1.570990575,0.786,0.04,0.04,-10.008140670051468,-0.03943583800591534,-0.03675484302151731,-0.0014863582366238986,0.001963837768054277,0.0018173387818929668
0.04,0.00016690067599999992,-0.785615212,4.0168865200000036e-05,-2.3553424,9.315397440000012e-05,1.57099014,0.786,0.04,0.04,-10.024471971340326,-0.04672739369187208,-0.013057766678906416,-0.0020882351133801784,0.0002996451261970158,0.0010774405375029842
0.0425,0.00016687902949999992,-0.7856005915,4.0178961400000036e-05,-2.35535455,9.318584730000012e-05,1.5709897050000001,0.786,0.04,0.04,-10.040803272629185,-0.054018949377828814,0.01063930966370448,-0.0026901119901364583,-0.0013645475156602452,0.00033754229311300146
0.045,0.00016685738299999992,-0.7855859709999999,4.018905760000004e-05,-2.3553667,9.321772020000013e-05,1.57098927,0.786,0.04,0.04,-10.057134573918043,-0.061310505063785534,0.034336386006315306,-0.0032919888668927364,-0.003028740157517502,-0.00040235595127697957
0.0475,0.00016683573649999993,-0.7855713504999999,4.019915380000004e-05,-2.35537885,9.324959310000012e-05,1.570988835,0.786,0.04,0.04,-10.073465875206901,-0.06860206074974227,0.0580334623489262,-0.003893865743649016,-0.004692932799374763,-0.001142254195666962
0.05,0.00016681408999999982,-0.78555673,4.0209250000000086e-05,-2.355391,9.328146600000027e-05,1.5709884,0.786,0.04,0.04,-10.089797176495503,-0.0758936164356182,0.08173053869130283,-0.004495742620402366,-0.006357125441225616,-0.0018821524400523511
0.0525,0.0001667633689999998,-0.785543248,4.0231410550000085e-05,-2.35540213,9.334904010000027e-05,1.57098798,0.786,0.04,0.04,-10.041562460496046,-0.06288116369918222,0.04656293083784059,-0.004361640482090303,-0.0064113756775463935,-0.0014679068188485284
0.055,0.0001667126479999998,-0.785529766,4.025357110000009e-05,-2.35541326,9.341661420000028e-05,1.57098756,0.786,0.04,0.04,-9.99332774449659,-0.04986871096274619,0.011395322984378259,-0.0042275383437782406,-0.006465625913867172,-0.0010536611976447044
0.0575,0.0001666619269999998,-0.785516284,4.027573165000009e-05,-2.35542439,9.348418830000028e-05,1.57098714,0.786,0.04,0.04,-9.945093028497132,-0.03685625822631017,-0.023772284869084087,-0.004093436205466179,-0.00651987615018795,-0.0006394155764408807
0.06,0.0001666112059999998,-0.785502802,4.029789220000009e-05,-2.35543552,9.355176240000028e-05,1.57098672,0.786,0.04,0.04,-9.896858312497676,-0.02384380548987418,-0.05893989272254631,-0.003959334067154116,-0.006574126386508728,-0.00022516995523705775
0.0625,0.00016656048499999977,-0.7854893199999999,4.0320052750000094e-05,-2.3554466499999998,9.36193365000003e-05,1.5709863,0.786,0.04,0.04,-9.848623596498218,-0.010831352753438148,-0.09410750057600865,-0.0038252319288420533,-0.006628376622829506,0.00018907566596676603
0.065,0.00016650976399999978,-0.785475838,4.034221330000009e-05,-2.35545778,9.36869106000003e-05,1.57098588,0.786,0.04,0.04,-9.80038888049876,0.0021810999829978694,-0.129275108429471,-0.003691129790529991,-0.0066826268591502844,0.0006033212871705898
0.0675,0.00016644355149999956,-0.7854626975,4.037081675000018e-05,-2.35546855,9.377359400000055e-05,1.570985455,0.786,0.04,0.04,-9.775088974921387,0.009950414384623343,-0.1528357926129562,-0.0034105533228281537,-0.006857710310347925,0.0007755976937796103
0.07,0.00016634635599999955,-0.78545024,4.0412306000000185e-05,-2.3554786,9.389849600000055e-05,1.57098502,0.786,0.04,0.04,-9.795658690187281,0.007233452116833406,-0.15318262945694255,-0.0028370281963525155,-0.007274460191294549,0.0004639356712085173
0.0725,0.00016624916049999956,-0.7854377825,4.0453795250000184e-05,-2.35548865,9.402339800000056e-05,1.570984585,0.786,0.04,0.04,-9.816228405453176,0.004516489849043484,-0.1535294663009289,-0.002263503069876881,-0.007691210072241171,0.00015227364863742608
0.075,0.00016615196499999955,-0.785425325,4.049528450000019e-05,-2.3554987,9.414830000000057e-05,1.57098415,0.786,0.04,0.04,-9.836798120719068,0.0017995275812535474,-0.15387630314491524,-0.0016899779434012426,-0.008107959953187794,-0.00015938837393366702
0.0775,0.00016605476949999956,-0.7854128675,4.053677375000019e-05,-2.35550875,9.427320200000057e-05,1.5709837150000001,0.786,0.04,0.04,-9.857367835984963,-0.0009174346865363902,-0.15422313998890158,-0.0011164528169256044,-0.00852470983413442,-0.0004710503965047599
0.08,0.00016595757399999955,-0.7854004099999999,4.057826300000019e-05,-2.3555188,9.439810400000059e-05,1.57098328,0.786,0.04,0.04,-9.877937551250856,-0.003634396954326326,-0.15456997683288792,-0.0005429276904499662,-0.008941459715081044,-0.000782712419075853
0.0825,0.00016586037849999953,-0.7853879524999999,4.06197522500002e-05,-2.35552885,9.452300600000059e-05,1.570982845,0.786,0.04,0.04,-9.89850726651675,-0.006351359222116264,-0.15491681367687427,3.059743602567156e-05,-0.009358209596027667,-0.001094374441646946
0.085,0.00016571836599999922,-0.7853761499999999,4.0679907800000334e-05,-2.35553868,9.470315700000099e-05,1.57098241,0.7859998100000001,0.04,0.04,-9.879050685671418,-0.030332442444660636,-0.14486529951632945,0.0006263436087981292,-0.009552079973824694,-0.0010991572144960497
0.08750000000000001,0.0001655539449999992,-0.785364675,4.074939650000034e-05,-2.3555484,9.4910932500001e-05,1.570981975,0.785999525,0.04,0.04,-9.839580956770899,-0.0649455861443555,-0.12961460985362994,0.0012332003047187592,-0.009634510600049299,-0.0009505003624874313
0.09,0.0001653895239999992,-0.7853532,4.081888520000034e-05,-2.35555812,9.511870800000101e-05,1.57098154,0.78599924,0.04,0.04,-9.80011122787038,-0.09955872984405019,-0.11436392019093052,0.001840057000639386,-0.009716941226273902,-0.0008018435104788135
0.0925,0.00016522510299999917,-0.785341725,4.088837390000034e-05,-2.35556784,9.532648350000102e-05,1.570981105,0.785998955,0.04,0.04,-9.76064149896986,-0.13417187354374505,-0.09911323052823101,0.002446913696560016,-0.009799371852498507,-0.000653186658470195
0.095,0.00016506068199999917,-0.78533025,4.095786260000035e-05,-2.35557756,9.553425900000104e-05,1.57098067,0.78599867,0.04,0.04,-9.721171770069342,-0.16878501724343992,-0.08386254086553149,0.003053770392480646,-0.009881802478723112,-0.0005045298064615763
0.0975,0.00016489626099999916,-0.785318775,4.102735130000035e-05,-2.35558728,9.574203450000105e-05,1.570980235,0.7859983850000001,0.04,0.04,-9.68170204116882,-0.2033981609431348,-0.06861185120283197,0.003660627088401276,-0.009964233104947717,-0.0003558729544529578
0.1,0.0001647318399999987,-0.7853073,4.109684000000055e-05,-2.355597,9.594981000000165e-05,1.5709798,0.7859981,0.04,0.04,-9.64223231226863,-0.23801130464234163,-0.05336116154035851,0.004267483784313576,-0.01004666373117121,-0.00020721610244428082
0.10250000000000001,0.00016447643049999867,-0.78529668,4.1204201300000554e-05,-2.35560573,9.627198000000167e-05,1.57097938,0.785997815,0.04,0.03999999925,-9.667042835853348,-0.17727295478616498,-0.08228056453931833,0.003246834132687142,-0.009911786383438892,-4.716065639524659e-05
0.105,0.00016422102099999865,-0.78528606,4.131156260000056e-05,-2.35561446,9.659415000000168e-05,1.57097896,0.78599753,0.04,0.0399999985,-9.691853359438063,-0.11653460492998867,-0.11119996753827797,0.002226184481060714,-0.009776909035706575,0.00011289478965378674
0.1075,0.00016396561149999863,-0.7852754399999999,4.141892390000057e-05,-2.35562319,9.691632000000171e-05,1.57097854,0.785997245,0.04,0.03999999775,-9.716663883022779,-0.05579625507381203,-0.14011937053723778,0.0012055348294342802,-0.009642031687974256,0.00027295023570282097
0.11,0.00016371020199999864,-0.78526482,4.1526285200000574e-05,-2.35563192,9.723849000000172e-05,1.57097812,0.7859969600000001,0.04,0.039999997,-9.741474406607495,0.0049420947823646255,-0.1690387735361976,0.00018488517780784666,-0.009507154340241939,0.00043300568175185514
0.1125,0.00016345479249999862,-0.7852541999999999,4.163364650000058e-05,-2.3556406500000002,9.756066000000173e-05,1.5709777,0.785996675,0.04,0.03999999625,-9.76628493019221,0.06568044463854125,-0.19795817653515743,-0.0008357644738185878,-0.009372276992509622,0.0005930611278008894
0.115,0.0001631993829999986,-0.7852435799999999,4.174100780000058e-05,-2.35564938,9.788283000000175e-05,1.5709772800000001,0.78599639,0.04,0.0399999955,-9.791095453776926,0.1264187944947179,-0.22687757953411725,-0.0018564141254450214,-0.009237399644777303,0.0007531165738499237
0.11750000000000001,0.00016290484949999794,-0.7852332049999999,4.186467110000086e-05,-2.3556578800000003,9.825288370000256e-05,1.57097685,0.7859961050000001,0.04,0.03999999525,-9.788582519359926,0.16060373265356437,-0.21074981806393922,-0.002411242226897214,-0.009030025183383146,0.0008926945281764041
0.12,0.00016253206799999792,-0.78522332,4.202093840000087e-05,-2.3556659200000003,9.871870480000259e-05,1.5709764000000002,0.78599582,0.04,0.039999996,-9.731422668940848,0.14168184741906437,-0.10452772765771495,-0.0020344272280239726,-0.008677656494668897,0.0009913174990587891
0.1225,0.0001621592864999979,-0.785213435,4.2177205700000876e-05,-2.3556739600000003,9.918452590000261e-05,1.57097595,0.7859955350000001,0.04,0.03999999675,-9.674262818521768,0.12275996218456423,0.0016943627485098978,-0.001657612229150729,-0.008325287805954647,0.001089940469941175
0.125,0.00016178650499999787,-0.78520355,4.233347300000089e-05,-2.3556820000000003,9.965034700000265e-05,1.5709755,0.78599525,0.04,0.0399999975,-9.61710296810269,0.1038380769500641,0.10791645315473472,-0.0012807972302774856,-0.007972919117240396,0.0011885634408235605
0.1275,0.00016141372349999785,-0.785193665,4.24897403000009e-05,-2.3556900400000003,0.00010011616810000267,1.5709750500000002,0.785994965,0.04,0.03999999825,-9.559943117683611,0.08491619171556396,0.2141385435609596,-0.0009039822314042419,-0.007620550428526146,0.0012871864117059463
0.13,0.00016104094199999785,-0.78518378,4.264600760000091e-05,-2.3556980800000002,0.0001005819892000027,1.5709746,0.7859946800000001,0.04,0.039999999,-9.502783267264533,0.06599430648106383,0.3203606339671844,-0.0005271672325309986,-0.007268181739811896,0.0013858093825883319
0.1325,0.00016066816049999783,-0.785173895,4.280227490000092e-05,-2.35570612,0.00010104781030000274,1.57097415,0.785994395,0.04,0.03999999975,-9.445623416845454,0.0470724212465637,0.42658272437340927,-0.0001503522336577549,-0.006915813051097645,0.0014844323534707175
0.135,0.00016019791999999695,-0.78516447,4.2999144600001284e-05,-2.35571386,0.00010163523460000384,1.5709737000000001,0.7859940200000001,0.04,0.0399999995,-9.491174621811567,0.025362357694993544,0.40165640503931677,-0.0004446960845415657,-0.00691785946589162,0.0014105546368638827
0.1375,0.0001596789499999969,-0.785155275,4.32163155000013e-05,-2.35572145,0.00010228346050000388,1.57097325,0.7859936,0.04,0.03999999875,-9.588081354468917,0.0022582049849252245,0.31115588083679974,-0.001074619360295029,-0.0070971134324350205,0.0012504265765147186
0.14,0.00015915997999999687,-0.78514608,4.343348640000131e-05,-2.35572904,0.00010293168640000391,1.5709728,0.78599318,0.04,0.039999998,-9.684988087126266,-0.020845947725143095,0.22065535663428268,-0.0017045426360484922,-0.00727636739897842,0.0010902985161655543
0.14250000000000002,0.00015864100999999684,-0.785136885,4.3650657300001324e-05,-2.35573663,0.00010357991230000395,1.57097235,0.78599276,0.04,0.03999999725,-9.781894819783616,-0.04395010043521141,0.13015483243176562,-0.002334465911801955,-0.00745562136552182,0.00093017045581639
0.145,0.00015812203999999682,-0.7851276899999999,4.3867828200001335e-05,-2.35574422,0.00010422813820000398,1.5709719,0.78599234,0.04,0.0399999965,-9.878801552440965,-0.06705425314527946,0.03965430822924959,-0.0029643891875554113,-0.007634875332065219,0.0007700423954672275
0.1475,0.0001576030699999968,-0.785118495,4.4084999100001346e-05,-2.35575181,0.00010487636410000402,1.5709714499999998,0.78599192,0.04,0.03999999575,-9.975708285098316,-0.09015840585534779,-0.050846215973267495,-0.0035943124633088745,-0.00781412929860862,0.0006099143351180632
0.15,0.00015708409999999563,-0.7851093,4.430217000000182e-05,-2.3557594,0.00010552459000000541,1.570971,0.7859915,0.04,0.039999995,-10.072615017754542,-0.11326255856530351,-0.14134674017494384,-0.00422423573905243,-0.007993383265150113,0.00044978627476925756
0.1525,0.0001563880804999956,-0.7851006899999999,4.459314000000184e-05,-2.3557664500000004,0.00010639052875000547,1.5709705049999998,0.78599093,0.04,0.03999999575,-9.989574483587976,-0.11835133001789284,-0.09735294535117639,-0.003269169998297535,-0.007867735314207612,0.00034700779462578665
0.155,0.00015569206099999555,-0.78509208,4.488411000000186e-05,-2.3557735,0.00010725646750000551,1.57097001,0.78599036,0.04,0.0399999965,-9.90653394942141,-0.12344010147048219,-0.053359150527408944,-0.00231410425754264,-0.00774208736326511,0.0002442293144823157
0.1575,0.00015499604149999552,-0.78508347,4.517508000000187e-05,-2.35578055,0.00010812240625000557,1.5709695149999998,0.7859897899999999,0.04,0.03999999725,-9.823493415254845,-0.12852887292307152,-0.009365355703641498,-0.0013590385167877445,-0.0076164394123226075,0.0001414508343388448
0.16,0.00015430002199999548,-0.7850748599999999,4.546605000000189e-05,-2.3557876,0.00010898834500000562,1.57096902,0.7859892199999999,0.04,0.039999998,-9.74045288108828,-0.13361764437566087,0.03462843912012592,-0.00040397277603284936,-0.007490791461380105,3.867235419537389e-05
0.1625,0.00015360400249999544,-0.78506625,4.57570200000019e-05,-2.35579465,0.00010985428375000567,1.5709685249999998,0.78598865,0.04,0.03999999875,-9.657412346921713,-0.1387064158282502,0.07862223394389337,0.0005510929647220457,-0.007365143510437603,-6.410612594809703e-05
0.165,0.0001529079829999954,-0.78505764,4.604799000000192e-05,-2.3558017,0.00011072022250000572,1.57096803,0.78598808,0.04,0.0399999995,-9.574371812755148,-0.14379518728083954,0.12261602876766081,0.0015061587054769413,-0.007239495559495101,-0.000166884606091568
0.1675,0.00015214201349999395,-0.7850492,4.636809750000252e-05,-2.3558085550000003,0.00011167378925000751,1.570967365,0.7859874124999999,0.04,0.0399999995,-9.529167314314801,-0.12795279101141327,0.15779263668090346,0.0019718390977633707,-0.0069879068456449745,-0.00035059719590411977
0.17,0.0001512361439999939,-0.7850410999999999,4.674648000000254e-05,-2.35581502,0.00011280261200000758,1.57096636,0.78598655,0.04,0.039999998,-9.559634887324634,-0.07024805929920576,0.17533487077362303,0.001458748793142096,-0.00648443660598712,-0.0006961780050499997
0.17250000000000001,0.00015033027449999387,-0.785033,4.712486250000256e-05,-2.3558214850000003,0.00011393143475000765,1.570965355,0.7859856875,0.04,0.0399999965,-9.590102460334467,-0.012543327586998249,0.19287710486634263,0.0009456584885208213,-0.005980966366329266,-0.0010417588141958796
0.17500000000000002,0.0001494244049999938,-0.7850249,4.750324500000258e-05,-2.35582795,0.00011506025750000771,1.57096435,0.785984825,0.04,0.039999994999999997,-9.6205700333443,0.045161404125209276,0.21041933895906223,0.00043256818389954656,-0.005477496126671412,-0.0013873396233417597
0.1775,0.00014851853549999376,-0.7850168,4.78816275000026e-05,-2.3558344150000003,0.00011618908025000777,1.570963345,0.7859839625,0.04,0.0399999935,-9.651037606354134,0.10286613583741613,0.2279615730517816,-8.052212072172209e-05,-0.004974025887013563,-0.0017329204324876358
0.18,0.00014761266599999372,-0.7850087,4.826001000000262e-05,-2.35584088,0.00011731790300000782,1.5709623400000001,0.7859831,0.04,0.039999992,-9.681505179363967,0.16057086754962366,0.2455038071445012,-0.0005936124253429968,-0.00447055564735571,-0.0020785012416335157
0.1825,0.00014670679649999367,-0.7850005999999999,4.8638392500002644e-05,-2.3558473450000004,0.00011844672575000789,1.570961335,0.7859822375000001,0.04,0.0399999905,-9.7119727523738,0.21827559926183118,0.26304604123722075,-0.0011067027299642715,-0.003967085407697855,-0.0024240820507793956
0.185,0.00014563815799999188,-0.78499279,4.908465600000338e-05,-2.3558537,0.00011977473700001006,1.5709603300000001,0.785981378,0.04,0.039999991,-9.710746421216394,0.1820442801375784,0.2521375102311017,-0.0013623865298915548,-0.00393641119611081,-0.002839234702445311
0.1875,0.00014448813499999183,-0.784985125,4.956486000000341e-05,-2.3558600000000003,0.00012120234250001013,1.570959325,0.7859805200000001,0.04,0.0399999925,-9.69367313797587,0.098844935596577,0.227003596676012,-0.0014893670774759021,-0.004142134998551711,-0.003289173275370147
0.19,0.00014333811199999176,-0.7849774599999999,5.004506400000344e-05,-2.3558663,0.00012262994800001022,1.57095832,0.785979662,0.04,0.039999994,-9.676599854735343,0.015645591055575614,0.2018696831209223,-0.0016163476250602496,-0.004347858800992614,-0.0037391118482949827
0.1925,0.0001421880889999917,-0.784969795,5.052526800000347e-05,-2.3558726,0.0001240575535000103,1.570957315,0.7859788040000001,0.04,0.0399999955,-9.659526571494819,-0.06755375348542575,0.1767357695658326,-0.001743328172644597,-0.004553582603433515,-0.004189050421219819
0.195,0.00014103806599999162,-0.7849621299999999,5.10054720000035e-05,-2.3558789,0.0001254851590000104,1.57095631,0.785977946,0.04,0.039999997,-9.642453288254295,-0.15075309802642717,0.15160185601074289,-0.0018703087202289442,-0.004759306405874417,-0.004638988994144655
0.1975,0.00013988804299999155,-0.7849544649999999,5.1485676000003525e-05,-2.3558852,0.00012691276450001046,1.570955305,0.785977088,0.04,0.0399999985,-9.625380005013769,-0.23395244256742853,0.12646794245565318,-0.0019972892678132917,-0.004965030208315319,-0.00508892756706949
0.2,0.00013873801999998942,-0.7849468,5.196588000000441e-05,-2.3558915,0.0001283403700000131,1.5709543,0.78597623,0.04,0.04,-9.608306721773557,-0.31715178710765424,0.10133402890059598,-0.0021242698153936487,-0.005170754010757128,-0.005538866139984525
0.2025,0.00013730799649998933,-0.7849395039999999,5.256275250000445e-05,-2.3558973649999997,0.00013011533350001323,1.5709532499999999,0.7859750855000001,0.04,0.04,-9.63351519538767,-0.29544012958814164,0.08059829761082123,-0.00171161074960097,-0.005499152825456227,-0.004663196763533394
0.20500000000000002,0.00013587797299998924,-0.784932208,5.3159625000004486e-05,-2.35590323,0.00013189029700001333,1.5709522,0.7859739410000001,0.04,0.04,-9.65872366900178,-0.27372847206862905,0.059862566321046466,-0.0012989516838082913,-0.005827551640155326,-0.0037875273870822635
0.20750000000000002,0.00013444794949998918,-0.7849249119999999,5.375649750000452e-05,-2.355909095,0.00013366526050001342,1.57095115,0.7859727965000001,0.04,0.04,-9.683932142615893,-0.2520168145491165,0.03912683503127171,-0.0008862926180156123,-0.006155950454854425,-0.0029118580106311334
0.21,0.00013301792599998912,-0.7849176159999999,5.4353370000004545e-05,-2.3559149600000002,0.00013544022400001352,1.5709501,0.7859716520000001,0.04,0.04,-9.709140616230005,-0.23030515702960414,0.01839110374149719,-0.00047363355222293816,-0.0064843492695535205,-0.0020361886341800123
0.2125,0.00013158790249998903,-0.7849103199999999,5.495024250000458e-05,-2.355920825,0.0001372151875000136,1.57094905,0.7859705075,0.04,0.04,-9.734349089844116,-0.20859349951009154,-0.002344627548277564,-6.097448643025902e-05,-0.006812748084252619,-0.0011605192577288821
0.215,0.00013015787899998895,-0.7849030239999999,5.554711500000462e-05,-2.3559266900000004,0.00013899015100001373,1.570948,0.785969363,0.04,0.04,-9.759557563458229,-0.18688184199057897,-0.023080358838052317,0.0003516845793624197,-0.007141146898951718,-0.0002848498812777515
0.2175,0.00012862219449998665,-0.7848958294999999,5.618803000000558e-05,-2.355932385,0.00014089597450001658,1.570946835,0.785968123,0.04,0.04,-9.773033422898497,-0.15144036642298975,-0.05204322887113946,0.0006534116503098106,-0.007454668192211474,0.0002545987697648933
0.22,0.0001268751879999873,-0.784888838,5.6917030000005305e-05,-2.3559377400000003,0.0001430635180000158,1.57094544,0.785966692,0.04,0.04,-9.763044053991893,-0.08853925476020712,-0.09746037639027616,0.0007332747315743812,-0.007738434442593585,0.00012160597001407229
0.2225,0.00012512818149998793,-0.7848818464999999,5.764603000000504e-05,-2.355943095,0.000145231061500015,1.570944045,0.785965261,0.04,0.04,-9.75305468508529,-0.025638143097424487,-0.14287752390941286,0.0008131378128389518,-0.008022200692975694,-1.1386829736748712e-05
0.225,0.00012338117499998858,-0.784874855,5.837503000000477e-05,-2.35594845,0.00014739860500001417,1.5709426499999999,0.78596383,0.04,0.04,-9.743065316178688,0.03726296856535816,-0.18829467142854953,0.0008930008941035223,-0.008305966943357805,-0.0001443796294875697
0.2275,0.00012163416849998922,-0.7848678634999999,5.91040300000045e-05,-2.355953805,0.00014956614850001338,1.570941255,0.785962399,0.04,0.04,-9.733075947272086,0.1001640802281408,-0.23371181894768622,0.0009728639753680929,-0.008589733193739915,-0.0002773724292383906
0.23,0.00011988716199998987,-0.7848608719999999,5.983303000000423e-05,-2.35595916,0.00015173369200001258,1.57093986,0.785960968,0.04,0.04,-9.723086578365484,0.16306519189092342,-0.27912896646682295,0.0010527270566326634,-0.008873499444122026,-0.0004103652289892117
0.2325,0.0001181401554999905,-0.7848538804999999,6.056203000000396e-05,-2.355964515,0.0001539012355000118,1.570938465,0.785959537,0.04,0.04,-9.713097209458882,0.2259663035537061,-0.32454611398595967,0.0011325901378972342,-0.009157265694504136,-0.0005433580287400327
0.23500000000000001,0.00011615643399998816,-0.784847035,6.138969050000494e-05,-2.35596983,0.0001563620880000147,1.57093694,0.785957914,0.04,0.04,-9.740215595089008,0.2521368870519266,-0.32060384626531707,0.0008836584385940518,-0.009464058718786464,-0.0003646018234133949
0.23750000000000002,0.00011405435499998715,-0.7848402624999999,6.226668125000537e-05,-2.355975125,0.00015896959500001596,1.5709353499999998,0.785956195,0.04,0.04,-9.785887857987055,0.25994220646830496,-0.2919818709253746,0.00047032934901092163,-0.009782365130018622,-2.99711155517529e-05
0.24,0.00011195227599998615,-0.7848334899999999,6.314367200000579e-05,-2.35598042,0.0001615771020000172,1.57093376,0.785954476,0.04,0.04,-9.8315601208851,0.26774752588468326,-0.2633598955854325,5.700025942779606e-05,-0.010100671541250777,0.00030465959230988537
0.2425,0.00010985019699998513,-0.7848267175,6.40206627500062e-05,-2.355985715,0.00016418460900001846,1.5709321699999999,0.785952757,0.04,0.04,-9.877232383783149,0.2755528453010616,-0.23473792024549,-0.00035632883015533395,-0.010418977952482937,0.0006392903001715274
0.245,0.0001077481179999841,-0.784819945,6.489765350000663e-05,-2.35599101,0.00016679211600001973,1.57093058,0.785951038,0.04,0.04,-9.922904646681195,0.28335816471743996,-0.20611594490554755,-0.000769657919738464,-0.010737284363715096,0.0009739210080331694
0.2475,0.00010564603899998309,-0.7848131724999999,6.577464425000706e-05,-2.355996305,0.00016939962300002097,1.5709289899999999,0.785949319,0.04,0.04,-9.968576909579243,0.2911634841338183,-0.1774939695656051,-0.001182987009321594,-0.011055590774947254,0.0013085517158948116
0.25,0.00010354395999997872,-0.7848063999999999,6.665163500000888e-05,-2.3560016,0.0001720071300000264,1.5709274,0.7859476,0.04,0.04,-10.01424917247685,0.29896880354957406,-0.14887199422582223,-0.0015963160989020215,-0.011373897186169291,0.0016431824237505635
0.2525,0.00010104788649997857,-0.784799815,6.769286525000894e-05,-2.35600679,0.00017510214300002657,1.57092566,0.7859455645,0.04,0.04,-10.008410037246232,0.23375268295519672,-0.1389676767673836,-0.0016926843408229522,-0.010505037219262676,0.0012870623736470229
0.255,9.855181299997843e-05,-0.78479323,6.8734095500009e-05,-2.35601198,0.00017819715600002675,1.57092392,0.785943529,0.04,0.04,-10.002570902015615,0.16853656236081938,-0.129063359308945,-0.0017890525827438828,-0.00963617725235606,0.0009309423235434824
0.2575,9.605573949997828e-05,-0.784786645,6.977532575000905e-05,-2.35601717,0.00018129216900002692,1.57092218,0.7859414935,0.04,0.04,-9.996731766784997,0.10332044176644203,-0.11915904185050637,-0.0018854208246648133,-0.008767317285449445,0.0005748222734399419
0.26,9.355966599997814e-05,-0.78478006,7.081655600000912e-05,-2.3560223600000003,0.0001843871820000271,1.57092044,0.785939458,0.04,0.04,-9.99089263155438,0.03810432117206469,-0.10925472439206774,-0.0019817890665857437,-0.00789845731854283,0.00021870222333640133
0.2625,9.106359249997799e-05,-0.7847734749999999,7.185778625000918e-05,-2.3560275500000003,0.0001874821950000273,1.5709187,0.7859374225,0.04,0.04,-9.985053496323761,-0.02711179942231262,-0.09935040693362912,-0.0020781573085066744,-0.007029597351636216,-0.00013741782676713905
0.265,8.856751899997785e-05,-0.78476689,7.289901650000924e-05,-2.3560327400000003,0.00019057720800002745,1.5709169600000001,0.785935387,0.04,0.04,-9.979214361093144,-0.09232792001668999,-0.08944608947519049,-0.002174525550427605,-0.006160737384729601,-0.0004935378768706794
0.2675,8.592687169997383e-05,-0.7847603335,7.400049730001091e-05,-2.3560379150000004,0.00019385199750003245,1.57091508,0.7859332134999999,0.04,0.03999999975,-9.977382778415336,-0.14359608557256004,-0.08911726292789468,-0.002234336753338366,-0.005923590025547125,-0.0005761278696799569
0.27,8.299707679997367e-05,-0.784753834,7.522247920001098e-05,-2.35604306,0.00019748634000003266,1.57091292,0.785930764,0.04,0.039999999,-9.983566300842831,-0.16696834105253422,-0.10793941820211651,-0.0022210338782317203,-0.006949867881762264,-0.00011165774792264507
0.2725,8.006728189997349e-05,-0.7847473345,7.644446110001105e-05,-2.356048205,0.00020112068250003286,1.57091076,0.7859283145,0.04,0.03999999825,-9.989749823270325,-0.1903405965325084,-0.12676157347633837,-0.0022077310031250745,-0.007976145737977404,0.00035281237383466687
0.275,7.713748699997332e-05,-0.7847408349999999,7.766644300001112e-05,-2.3560533500000003,0.0002047550250000331,1.5709085999999999,0.785925865,0.04,0.0399999975,-9.99593334569782,-0.21371285201248258,-0.1455837287505602,-0.0021944281280184288,-0.009002423594192541,0.0008172824955919788
0.2775,7.420769209997316e-05,-0.7847343354999999,7.888842490001119e-05,-2.356058495,0.0002083893675000333,1.57090644,0.7859234155,0.04,0.03999999675,-10.002116868125313,-0.23708510749245676,-0.16440588402478204,-0.002181125252911783,-0.010028701450407681,0.0012817526173492905
0.28,7.127789719997298e-05,-0.784727836,8.011040680001126e-05,-2.35606364,0.0002120237100000335,1.57090428,0.785920966,0.04,0.039999996,-10.008300390552806,-0.26045736297243094,-0.1832280392990039,-0.0021678223778051372,-0.01105497930662282,0.0017462227391066025
0.28250000000000003,6.834810229997282e-05,-0.7847213365,8.133238870001133e-05,-2.356068785,0.0002156580525000337,1.57090212,0.7859185165,0.04,0.03999999525,-10.014483912980301,-0.2838296184524051,-0.2020501945732257,-0.0021545195026984915,-0.01208125716283796,0.0022106928608639142
0.28500000000000003,6.510233329996822e-05,-0.784714878,8.268609440001325e-05,-2.35607391,0.00021968378000003942,1.57089978,0.78591579,0.04,0.039999995,-10.007362463038016,-0.2796723373359517,-0.1734765636464897,-0.0020837202390652405,-0.012509052125403049,0.0020441310132142
0.28750000000000003,6.169857724996803e-05,-0.78470844,8.410566200001333e-05,-2.356079025,0.00022390520000003966,1.5708973499999999,0.785912925,0.04,0.039999995,-9.99358852691112,-0.2617502879218603,-0.12120503962026608,-0.00198417278116989,-0.012637605641155632,0.0015620531808741723
0.29,5.8294821199967905e-05,-0.784702002,8.552522960001338e-05,-2.35608414,0.0002281266200000398,1.57089492,0.78591006,0.04,0.039999995,-9.979814590784224,-0.24382823850776925,-0.06893351559404362,-0.0018846253232745415,-0.012766159156908211,0.001079975348534155
0.2925,5.489106514996771e-05,-0.784695564,8.694479720001345e-05,-2.356089255,0.00023234804000004004,1.5708924899999999,0.785907195,0.04,0.039999995,-9.966040654657327,-0.22590618909367782,-0.01666199156782,-0.0017850778653791908,-0.012894712672660794,0.0005978975161941272
0.295,5.1487309099967515e-05,-0.784689126,8.836436480001354e-05,-2.35609437,0.0002365694600000403,1.57089006,0.78590433,0.04,0.039999995,-9.952266718530431,-0.2079841396795864,0.03560953245840362,-0.00168553040748384,-0.013023266188413376,0.0001158196838540993
0.2975,4.808355304996732e-05,-0.784682688,8.978393240001362e-05,-2.356099485,0.00024079088000004053,1.5708876299999999,0.785901465,0.04,0.039999995,-9.938492782403536,-0.190062090265495,0.08788105648462721,-0.001585982949588489,-0.013151819704165959,-0.0003662581484859288
0.3,4.467979699996215e-05,-0.7846762499999999,9.120350000001578e-05,-2.3561046,0.0002450123000000469,1.5708852,0.7858986,0.04,0.039999995,-9.9247188462762,-0.1721400408517364,0.1401525805103714,-0.001486435491688297,-0.013280373219908482,-0.0008483359808203871
0.3025,4.0761325399961925e-05,-0.7846697924999999,9.283766375001588e-05,-2.35610943,0.0002498697650000472,1.570882425,0.7858953405,0.04,0.03999999575,-9.865569799270265,-0.18867358335146556,0.1427931091854781,-0.0008856423976966824,-0.01236751858161171,-0.0007538193566899516
0.305,3.68428537999617e-05,-0.784663335,9.447182750001596e-05,-2.35611426,0.0002547272300000475,1.57087965,0.785892081,0.04,0.0399999965,-9.806420752264328,-0.20520712585119472,0.14543363786058483,-0.0002848493037050676,-0.011454663943314937,-0.0006593027325595162
0.3075,3.292438219996147e-05,-0.7846568774999999,9.610599125001606e-05,-2.35611909,0.0002595846950000478,1.570876875,0.7858888215,0.04,0.03999999725,-9.747271705258392,-0.22174066835092388,0.14807416653569155,0.0003159437902865471,-0.010541809305018164,-0.0005647861084290807
0.31,2.9005910599961243e-05,-0.78465042,9.774015500001615e-05,-2.35612392,0.0002644421600000481,1.5708741,0.7858855619999999,0.04,0.039999998,-9.688122658252455,-0.23827421085065303,0.15071469521079825,0.0009167368842781618,-0.009628954666721392,-0.00047026948429864523
0.3125,2.508743899996102e-05,-0.7846439624999999,9.937431875001625e-05,-2.35612875,0.0002692996250000483,1.570871325,0.7858823024999999,0.04,0.03999999875,-9.62897361124652,-0.2548077533503822,0.15335522388590497,0.0015175299782697763,-0.008716100028424618,-0.00037575286016820975
0.315,2.1168967399960792e-05,-0.784637505,0.00010100848250001635,-2.35613358,0.0002741570900000486,1.57086855,0.7858790429999999,0.04,0.0399999995,-9.569824564240584,-0.27134129585011135,0.15599575256101167,0.0021183230722613914,-0.007803245390127846,-0.0002812362360377743
0.3175,1.7065208999954974e-05,-0.784631035,0.00010271988475001878,-2.356138395,0.00027924382150005584,1.5708656,0.7858756264999999,0.03999999975,0.04,-9.538881051687554,-0.25746221079388826,0.14882190735098472,0.0022682482855319198,-0.00696960419667139,-0.00029537245200848903
0.32,1.2590876999954716e-05,-0.7846245399999999,0.00010458576400001888,-2.35614318,0.0002847890860000561,1.5708623,0.785871896,0.039999999,0.04,-9.564348608037786,-0.1827578706285098,0.12201931437157759,0.0015164377374010311,-0.006294389892888406,-0.0005268143481716824
0.3225,8.116544999954457e-06,-0.784618045,0.00010645164325001899,-2.356147965,0.00029033435050005644,1.570859,0.7858681654999999,0.03999999825,0.04,-9.589816164388017,-0.10805353046313132,0.09521672139217047,0.0007646271892701429,-0.005619175589105422,-0.0007582562443348758
0.325,3.6422129999541986e-06,-0.7846115499999999,0.0001083175225000191,-2.35615275,0.00029587961500005677,1.5708557,0.7858644349999999,0.0399999975,0.04,-9.61528372073825,-0.03334919029775285,0.06841412841276334,1.281664113925423e-05,-0.004943961285322438,-0.0009896981404980691
0.3275,-8.321190000460586e-07,-0.7846050549999999,0.00011018340175001921,-2.356157535,0.0003014248795000571,1.5708524000000001,0.7858607044999999,0.03999999675,0.04,-9.64075127708848,0.04135514986762562,0.04161153543335622,-0.000738993906991634,-0.004268746981539454,-0.0012211400366612622
0.33,-5.306451000046319e-06,-0.78459856,0.00011204928100001931,-2.35616232,0.0003069701440000574,1.5708491,0.785856974,0.039999996,0.04,-9.666218833438712,0.11605949003300409,0.014808942453949092,-0.0014908044551225222,-0.00359353267775647,-0.0014525819328244558
0.3325,-9.780783000046576e-06,-0.7845920649999999,0.00011391516025001943,-2.356167105,0.00031251540850005775,1.5708458,0.7858532435,0.03999999525,0.04,-9.691686389788945,0.1907638301983825,-0.011993650525458033,-0.0022426150032534104,-0.0029183183739734855,-0.0016840238289876491
0.335,-1.4653253500053086e-05,-0.7845854899999999,0.00011594702800002213,-2.35617193,0.0003185539170000658,1.57084231,0.7858491999999999,0.039999994500000004,0.0399999995,-9.717567755371912,0.19780956286771925,-0.03505788289844891,-0.002050655160410611,-0.003285132399760163,-0.001353365317413807
0.3375,-1.9724793250053378e-05,-0.7845788749999999,0.00011806189000002225,-2.3561767750000002,0.00032483904750006616,1.570838725,0.7858449999999999,0.039999993750000004,0.03999999875,-9.743656025571235,0.17102599179062267,-0.056252934968319374,-0.001386810122103113,-0.00417296059030722,-0.0007416566019846367
0.34,-2.479633300005367e-05,-0.7845722599999999,0.00012017675200002237,-2.35618162,0.00033112417800006653,1.57083514,0.7858407999999999,0.039999993000000005,0.039999998,-9.769744295770561,0.1442424207135261,-0.07744798703818985,-0.0007229650837956147,-0.005060788780854275,-0.00012994788655546646
0.3425,-2.9867872750053966e-05,-0.7845656449999999,0.0001222916140000225,-2.356186465,0.00033740930850006685,1.570831555,0.7858365999999999,0.03999999225,0.03999999725,-9.795832565969885,0.11745884963642951,-0.09864303910806031,-5.912004548811649e-05,-0.005948616971401332,0.00048176082887370375
0.34500000000000003,-3.4939412500054255e-05,-0.7845590299999999,0.00012440647600002263,-2.3561913100000003,0.0003436944390000672,1.5708279699999999,0.7858323999999999,0.0399999915,0.0399999965,-9.82192083616921,0.09067527855933293,-0.11983809117793078,0.0006047249928193819,-0.006836445161948389,0.0010934695443028744
0.34750000000000003,-4.001095225005455e-05,-0.7845524149999998,0.00012652133800002274,-2.356196155,0.0003499795695000676,1.5708243849999999,0.7858282,0.03999999075,0.03999999575,-9.848009106368535,0.06389170748223635,-0.14103314324780122,0.0012685700311268803,-0.0077242733524954445,0.0017051782597320446
0.35000000000000003,-4.5082492000061744e-05,-0.7845457999999998,0.00012863620000002574,-2.356201,0.00035626470000007653,1.5708208,0.785824,0.03999999,0.039999995,-9.87409737656732,0.03710813640585781,-0.1622281953172602,0.001932415069417608,-0.008612101543038434,0.0023168869751597205
0.3525,-5.0792774200061953e-05,-0.7845390109999999,0.00013101734500002582,-2.35620589,0.00036334110450007677,1.5708167949999998,0.7858192599999999,0.0399999897,0.039999994250000004,-9.850306495050749,0.07672605551872483,-0.1453702871129631,0.0010453902304783515,-0.009123874355301258,0.0027904052427265022
0.355,-5.650305640006228e-05,-0.784532222,0.00013339849000002597,-2.35621078,0.00037041750900007717,1.57081279,0.78581452,0.0399999894,0.039999993500000004,-9.826515613534175,0.11634397463159273,-0.12851237890866563,0.0001583653915390754,-0.009635647167564092,0.0032639235102932948
0.3575,-6.22133386000626e-05,-0.7845254329999999,0.0001357796350000261,-2.35621567,0.00037749391350007757,1.5708087849999999,0.7858097799999999,0.0399999891,0.039999992750000005,-9.802724732017602,0.15596189374446062,-0.11165447070436813,-0.0007286594474002011,-0.010147419979826926,0.0037374417778600873
0.36,-6.792362080006293e-05,-0.7845186439999999,0.00013816078000002623,-2.35622056,0.00038457031800007797,1.57080478,0.78580504,0.0399999888,0.039999992,-9.778933850501028,0.19557981285732853,-0.09479656250007064,-0.001615684286339477,-0.01065919279208976,0.00421096004542688
0.3625,-7.363390300006326e-05,-0.784511855,0.00014054192500002639,-2.35622545,0.00039164672250007837,1.570800775,0.7858002999999999,0.0399999885,0.03999999125,-9.755142968984455,0.23519773197019642,-0.07793865429577314,-0.002502709125278753,-0.011170965604352595,0.0046844783129936715
0.365,-7.93441852000636e-05,-0.7845050659999999,0.00014292307000002651,-2.35623034,0.00039872312700007877,1.57079677,0.78579556,0.0399999882,0.0399999905,-9.731352087467881,0.2748156510830643,-0.06108074609147565,-0.00338973396421803,-0.01168273841661543,0.005157996580560464
0.3675,-8.528124900007154e-05,-0.7844982079999999,0.00014539876550002983,-2.356235305,0.00040608045200008863,1.5707926,0.7857906299999999,0.0399999878,0.0399999899,-9.732491914789428,0.2866675483753424,-0.026487287574550662,-0.003675402986408429,-0.011860958752284831,0.00530946809952498
0.37,-9.167187600007192e-05,-0.7844912119999999,0.00014806356200003,-2.3562404200000002,0.0004139996180000891,1.5707881000000001,0.7857853199999999,0.0399999872,0.0399999896,-9.783493159784708,0.24298740202923386,0.04357727156584538,-0.0027583603751615607,-0.011372074134800918,0.004816846121317337
0.3725,-9.806250300007228e-05,-0.784484216,0.00015072835850003013,-2.3562455350000002,0.0004219187840000896,1.5707836,0.78578001,0.0399999866,0.0399999893,-9.834494404779988,0.1993072556831253,0.1136418307062414,-0.0018413177639146927,-0.010883189517317005,0.004324224143109693
0.375,-0.00010445313000007265,-0.78447722,0.0001533931550000303,-2.3562506500000002,0.00042983795000009,1.5707791,0.7857746999999999,0.039999986,0.039999989,-9.885495649775267,0.1556271093370167,0.18370638984663745,-0.0009242751526678246,-0.010394304899833092,0.00383160216490205
0.3775,-0.00011084375700007301,-0.784470224,0.00015605795150003043,-2.3562557650000002,0.0004377571160000905,1.5707746,0.7857693899999999,0.0399999854,0.0399999887,-9.936496894770547,0.11194696299090814,0.2537709489870335,-7.232541420956924e-06,-0.009905420282349179,0.003338980186694406
0.38,-0.0001172343840000734,-0.7844632279999999,0.0001587227480000306,-2.3562608800000002,0.00044567628200009097,1.5707701,0.78576408,0.0399999848,0.0399999884,-9.987498139765828,0.06826681664479956,0.32383550812742956,0.0009098100698259112,-0.009416535664865265,0.002846358208486763
0.3825,-0.00012362501100007377,-0.7844562319999999,0.00016138754450003073,-2.3562659950000002,0.0004535954480000914,1.5707656,0.7857587699999999,0.039999984200000005,0.0399999881,-10.038499384761108,0.024586670298690994,0.3939000672678256,0.0018268526810727792,-0.008927651047381352,0.0023537362302791195
0.385,-0.0001304969280000825,-0.7844490749999999,0.00016425301100003438,-2.35627113,0.00046211080300010224,1.57076072,0.7857530669999999,0.039999984,0.039999988,-10.066960239107098,0.00594771377776254,0.36234836381728136,0.0014683744432189539,-0.008405682333231374,0.002235375749568688
0.3875,-0.00013760949000008292,-0.7844418375,0.00016721881250003458,-2.356276275,0.00047092425250010276,1.57075565,0.7857471675,0.039999984,0.039999988,-10.084150898129032,-0.00017064783122724796,0.27998852907391036,0.00047213578084796164,-0.007867171570749223,0.002304146017597127
0.39,-0.00014472205200008332,-0.7844345999999999,0.00017018461400003474,-2.35628142,0.0004797377020001032,1.57075058,0.785741268,0.039999984,0.039999988,-10.101341557150965,-0.006289009440217038,0.19762869433053937,-0.0005241028815230306,-0.007328660808267071,0.002372916285625566
0.3925,-0.00015183461400008374,-0.7844273624999999,0.0001731504155000349,-2.356286565,0.0004885511515001037,1.5707455099999998,0.7857353684999999,0.039999984,0.039999988,-10.118532216172898,-0.012407371049206826,0.11526885958716837,-0.0015203415438940233,-0.00679015004578492,0.002441686553654005
0.395,-0.00015894717600008413,-0.7844201249999999,0.00017611621700003508,-2.35629171,0.0004973646010001042,1.57074044,0.785729469,0.039999984,0.039999988,-10.135722875194832,-0.018525732658196615,0.032909024843797374,-0.0025165802062650155,-0.006251639283302769,0.0025104568216824438
0.3975,-0.00016605973800008455,-0.7844128874999999,0.00017908201850003525,-2.356296855,0.0005061780505001048,1.57073537,0.7857235695,0.039999984,0.039999988,-10.152913534216765,-0.024644094267186403,-0.04945080989957362,-0.0035128188686360078,-0.005713128520820618,0.0025792270897108823
0.4,-0.00017317230000009408,-0.7844056499999998,0.0001820478200000392,-2.356302,0.0005149915000001165,1.5707303,0.7857176699999999,0.039999984,0.039999988,-10.170104193237341,-0.030762455875800183,-0.13181064464171596,-0.004509057530986227,-0.005174617758342155,0.002647997357739253
0.4025,-0.00018104830050009454,-0.7843981034999998,0.00018533193650003941,-2.35630719,0.0005247506410001172,1.570724675,0.7857111194999999,0.039999984,0.039999988,-10.073764622315963,-0.005405273064433117,-0.11132370199912214,-0.003766286497536449,-0.004944850722473212,0.002711073940905362
0.405,-0.000188924301000095,-0.7843905569999998,0.0001886160530000396,-2.35631238,0.0005345097820001177,1.57071905,0.785704569,0.039999984,0.039999988,-9.977425051394587,0.01995190974693395,-0.09083675935652831,-0.003023515464086671,-0.004715083686604268,0.0027741505240714706
0.40750000000000003,-0.00019680030150009544,-0.7843830104999998,0.0001919001695000398,-2.35631757,0.0005442689230001183,1.5707134249999999,0.7856980185,0.039999984,0.039999988,-9.881085480473208,0.04530909255830101,-0.07034981671393448,-0.0022807444306368932,-0.0044853166507353255,0.0028372271072375794
0.41000000000000003,-0.0002046763020000959,-0.7843754639999999,0.00019518428600003997,-2.3563227600000003,0.0005540280640001188,1.5707077999999999,0.7856914679999999,0.039999984,0.039999988,-9.78474590955183,0.07066627536966807,-0.04986287407134066,-0.0015379733971871154,-0.004255549614866383,0.002900303690403688
0.41250000000000003,-0.00021255230250009634,-0.7843679174999999,0.00019846840250004017,-2.3563279500000003,0.0005637872050001195,1.5707021749999999,0.7856849174999999,0.039999984,0.039999988,-9.688406338630452,0.09602345818103514,-0.029375931428746824,-0.000795202363737338,-0.004025782578997439,0.002963380273569797
0.41500000000000004,-0.0002204283030000968,-0.7843603709999999,0.00020175251900004035,-2.3563331400000003,0.00057354634600012,1.5706965499999999,0.7856783669999999,0.039999984,0.039999988,-9.592066767709076,0.1213806409924022,-0.00888898878615299,-5.243133028755981e-05,-0.0037960155431284955,0.0030264568567359056
0.4175,-0.000228572568500107,-0.7843526979999998,0.00020514848700004462,-2.356338365,0.0005836377880001326,1.570690735,0.785671595,0.039999984,0.039999988,-9.546477202904297,0.14832971455232993,0.004336670486010832,0.0005920090224953902,-0.003832320961143328,0.0030282432336339858
0.42,-0.00023725336400010752,-0.7843447719999999,0.00020876815800004481,-2.3563436600000003,0.0005943938320001333,1.57068454,0.7856643799999999,0.039999984,0.039999988,-9.602387650327088,0.17846256960920437,0.003039763018120417,0.001039788013955626,-0.004400771286896221,0.002907449198002804
0.4225,-0.000245934159500108,-0.7843368459999999,0.00021238782900004504,-2.356348955,0.0006051498760001339,1.570678345,0.7856571649999999,0.039999984,0.039999988,-9.65829809774988,0.20859542466607878,0.001742855550230002,0.0014875670054158617,-0.004969221612649113,0.002786655162371622
0.425,-0.0002546149550001085,-0.7843289199999999,0.00021600750000004524,-2.3563542500000003,0.0006159059200001345,1.57067215,0.7856499499999999,0.039999984,0.039999988,-9.71420854517267,0.23872827972295318,0.00044594808233958724,0.0019353459968760975,-0.005537671938402006,0.00266586112674044
0.4275,-0.00026329575050010903,-0.7843209939999999,0.00021962717100004544,-2.356359545,0.0006266619640001351,1.570665955,0.7856427349999999,0.039999984,0.039999988,-9.770118992595462,0.26886113477982765,-0.0008509593855508275,0.0023831249883363337,-0.006106122264154899,0.002545067091109258
0.43,-0.00027197654600010954,-0.7843130679999999,0.00022324684200004567,-2.3563648400000003,0.0006374180080001358,1.57065976,0.7856355199999999,0.039999984,0.039999988,-9.826029440018253,0.298993989836702,-0.002147866853441243,0.0028309039797965695,-0.006674572589907791,0.0024242730554780764
0.4325,-0.00028065734150011006,-0.7843051419999999,0.00022686651300004586,-2.356370135,0.0006481740520001364,1.570653565,0.7856283049999999,0.039999984,0.039999988,-9.881939887441044,0.32912684489357646,-0.0034447743213316577,0.0032786829712568052,-0.007243022915660684,0.0023034790198468943
0.435,-0.00028990210000012133,-0.7842969699999999,0.00023072134100005057,-2.35637547,0.0006596286840001504,1.570647,0.7856206049999999,0.039999983600000004,0.0399999876,-9.905589366084833,0.3500616491777775,0.027902716442709724,0.0034148510583227798,-0.007167191380889192,0.0021683414740845982
0.4375,-0.00029942884000012184,-0.7842886749999999,0.0002346937475000508,-2.356380825,0.000671432610000151,1.57064025,0.7856126625,0.039999983,0.039999987,-9.91310836034004,0.3663974280759046,0.07557240632178466,0.0033952136932005237,-0.00676921891587391,0.002026032173257155
0.44,-0.0003089555800001224,-0.7842803799999999,0.00023866615400005103,-2.35638618,0.0006832365360001517,1.5706335,0.7856047199999999,0.0399999824,0.0399999864,-9.920627354595247,0.3827332069740317,0.1232420962008596,0.0033755763280782676,-0.006371246450858627,0.0018837228724297118
0.4425,-0.00031848232000012295,-0.7842720849999999,0.00024263856050005126,-2.356391535,0.0006950404620001524,1.57062675,0.7855967774999999,0.0399999818,0.0399999858,-9.928146348850456,0.3990689858721588,0.17091178607993454,0.0033559389629560115,-0.005973273985843344,0.0017414135716022686
0.445,-0.0003280090600001235,-0.7842637899999999,0.00024661096700005146,-2.35639689,0.000706844388000153,1.57062,0.7855888349999999,0.0399999812,0.039999985200000004,-9.935665343105663,0.4154047647702859,0.21858147595900948,0.0033363015978337554,-0.005575301520828061,0.0015991042707748254
0.4475,-0.00033753580000012406,-0.7842554949999999,0.0002505833735000517,-2.356402245,0.0007186483140001537,1.5706132499999998,0.7855808925,0.0399999806,0.0399999846,-9.94318433736087,0.43174054366841297,0.2662511658380844,0.0033166642327114994,-0.0051773290558127785,0.001456794969947382
0.45,-0.00034706254000013616,-0.7842471999999999,0.0002545557800000568,-2.3564076,0.0007304522400001688,1.5706065,0.7855729499999999,0.03999998,0.039999984,-9.950703331614864,0.4480763225655276,0.31392085571608996,0.0032970268675815966,-0.0047793565907985145,0.0013144856691216433
0.4525,-0.0003574760980001368,-0.7842384699999999,0.000258897968000057,-2.3564133,0.0007433546445001695,1.57059909,0.7855643025,0.03999998,0.039999984,-9.865471515997722,0.3869968450849057,0.2798245394159902,0.0026927144795746817,-0.004459305220260626,0.0013025007417908376
0.455,-0.0003678896560001374,-0.7842297399999999,0.00026324015600005725,-2.356419,0.0007562570490001702,1.57059168,0.7855556549999999,0.03999998,0.039999984,-9.780239700380578,0.3259173676042839,0.24572822311589054,0.002088402091567767,-0.004139253849722737,0.0012905158144600319
0.4575,-0.000378303214000138,-0.7842210099999999,0.00026758234400005754,-2.3564247,0.000769159453500171,1.57058427,0.7855470075,0.03999998,0.039999984,-9.695007884763436,0.2648378901236621,0.2116319068157908,0.0014840897035608518,-0.0038192024791848488,0.0012785308871292261
0.46,-0.00038871677200013856,-0.7842122799999999,0.00027192453200005777,-2.3564304,0.0007820618580001717,1.5705768599999999,0.7855383599999999,0.03999998,0.039999984,-9.609776069146292,0.2037584126430403,0.1775355905156911,0.0008797773155539367,-0.00349915110864696,0.0012665459597984204
0.4625,-0.0003991303300001392,-0.7842035499999999,0.00027626672000005806,-2.3564361,0.0007949642625001724,1.57056945,0.7855297124999999,0.03999998,0.039999984,-9.52454425352915,0.14267893516241847,0.14343927421559138,0.00027546492754702183,-0.0031790997381090716,0.0012545610324676147
0.465,-0.0004095438880001398,-0.78419482,0.0002806089080000583,-2.3564418,0.0008078666670001732,1.57056204,0.785521065,0.03999998,0.039999984,-9.439312437912006,0.08159945768179666,0.10934295791549167,-0.00032884746045989304,-0.002859048367571183,0.001242576105136809
0.4675,-0.0004202665695001529,-0.7841859399999999,0.0002850800045000638,-2.356447685,0.0008211519785001894,1.5705544299999998,0.7855121549999999,0.03999997985,0.0399999838,-9.410296884074375,0.04428685564509374,0.0797569106909318,-0.0006730285642560559,-0.0027647666507788016,0.0015046222928002872
0.47000000000000003,-0.00043160749800015357,-0.7841767599999999,0.00028980891800006405,-2.3564539399999997,0.0008352031040001903,1.5705464199999999,0.7855027199999999,0.039999979399999996,0.0399999832,-9.493713853788954,0.05450800449334884,0.0591914016169051,-0.0004969470996622358,-0.003122024241450077,0.002314730710419129
0.47250000000000003,-0.0004429484265001542,-0.7841675799999999,0.0002945378315000643,-2.356460195,0.0008492542295001911,1.57053841,0.7854932849999999,0.03999997895,0.0399999826,-9.57713082350353,0.06472915334160394,0.03862589254287841,-0.00032086563506841565,-0.0034792818321213526,0.0031248391280379708
0.47500000000000003,-0.00045428935500015484,-0.7841583999999999,0.0002992667450000646,-2.35646645,0.0008633053550001919,1.5705304,0.7854838499999999,0.0399999785,0.039999981999999996,-9.66054779321811,0.07495030218985904,0.01806038346885172,-0.0001447841704745955,-0.003836539422792628,0.0039349475456568125
0.47750000000000004,-0.0004656302835001555,-0.7841492199999999,0.00030399565850006485,-2.356472705,0.0008773564805001927,1.5705223899999998,0.7854744149999999,0.039999978049999996,0.0399999814,-9.743964762932688,0.08517145103811413,-0.0025051256051749765,3.1297294119224644e-05,-0.0041937970134639044,0.0047450559632756534
0.48,-0.00047697121200015595,-0.7841400399999999,0.00030872457200006506,-2.35647896,0.0008914076060001933,1.5705143799999999,0.7854649799999999,0.0399999776,0.0399999808,-9.827381732647265,0.095392599886369,-0.023070634679201216,0.00020737875871304089,-0.004551054604135171,0.005555164380894477
0.4825,-0.0004883121405001566,-0.7841308599999999,0.00031345348550006533,-2.356485215,0.000905458731500194,1.57050637,0.7854555449999999,0.03999997715,0.0399999802,-9.910798702361843,0.10561374873462409,-0.0436361437532279,0.00038346022330686114,-0.004908312194806447,0.00636527279851332
0.485,-0.0005002981050001707,-0.78412133,0.0003184513960000712,-2.35649154,0.0009203088460002115,1.5704979399999999,0.7854455799999999,0.0399999763,0.039999979299999995,-9.93412171290273,0.06893062082052034,-0.05150676020097407,0.0004218811202702684,-0.005259522353875727,0.006924970765356324
0.4875,-0.0005126065875001714,-0.7841116249999999,0.0003235838050000715,-2.3564979,0.0009355584550002124,1.5704892999999998,0.7854353499999999,0.03999997525,0.03999997825,-9.92739774385864,0.008795354526696303,-0.05302993033597488,0.00039147173342275163,-0.005607708797144197,0.0073594635068192
0.49,-0.000524915070000172,-0.7841019199999999,0.0003287162140000718,-2.35650426,0.0009508080640002133,1.5704806599999999,0.7854251199999999,0.0399999742,0.0399999772,-9.920673774814551,-0.05133991176712774,-0.054553100470975696,0.00036106234657523487,-0.005955895240412667,0.007793956248282075
0.4925,-0.0005372235525001728,-0.7840922149999999,0.0003338486230000721,-2.35651062,0.0009660576730002141,1.57047202,0.7854148899999999,0.03999997315,0.03999997615,-9.91394980577046,-0.11147517806095175,-0.0560762706059765,0.0003306529597277181,-0.006304081683681137,0.00822844898974495
0.495,-0.0005495320350001735,-0.7840825099999998,0.0003389810320000723,-2.35651698,0.000981307282000215,1.5704633799999999,0.7854046599999999,0.0399999721,0.0399999751,-9.907225836726372,-0.17161044435477582,-0.057599440740977316,0.00030024357288020134,-0.006652268126949608,0.008662941731207824
0.4975,-0.0005618405175001742,-0.7840728049999999,0.0003441134410000726,-2.35652334,0.0009965568910002159,1.57045474,0.7853944299999999,0.03999997105,0.03999997405,-9.900501867682284,-0.23174571064859986,-0.05912261087597813,0.00026983418603268464,-0.007000454570218077,0.0090974344726707
0.5,-0.0005741490000001892,-0.7840630999999999,0.00034924585000007893,-2.3565297,0.0010118065000002344,1.5704460999999998,0.7853841999999999,0.03999997,0.039999973,-9.893777898638515,-0.29188097694067267,-0.06064578101107828,0.0002394247991816193,-0.007348641013478588,0.009531927214119329
0.5025000000000001,-0.0005874648525001903,-0.7840528399999999,0.00035479834150007933,-2.356536195,0.0010283037850002358,1.5704367849999998,0.7853731299999999,0.039999968500000004,0.03999997255,-9.909590625198337,-0.2287867355271631,-0.06915903124945762,-4.069169464229812e-05,-0.007136698671459051,0.008963927893132589
0.505,-0.0006007807050001908,-0.7840425799999998,0.00036035083300007956,-2.35654269,0.0010448010700002364,1.5704274699999998,0.7853620599999999,0.039999967000000004,0.0399999721,-9.925403351758158,-0.16569249411365636,-0.07767228148783656,-0.00032080818846620305,-0.006924756329439523,0.008395928572145873
0.5075000000000001,-0.0006140965575001919,-0.7840323199999999,0.00036590332450008,-2.356549185,0.0010612983550002378,1.5704181549999998,0.7853509899999999,0.039999965500000005,0.03999997165,-9.94121607831798,-0.1025982527001468,-0.0861855317262159,-0.0006009246822901205,-0.006712813987419987,0.007827929251159133
0.51,-0.0006274124100001924,-0.7840220599999999,0.0003714558160000802,-2.35655568,0.0010777956400002382,1.5704088399999998,0.7853399199999999,0.039999964,0.039999971200000005,-9.957028804877803,-0.03950401128664005,-0.09469878196459486,-0.0008810411761140255,-0.006500871645400459,0.007259929930172417
0.5125,-0.0006407282625001928,-0.7840117999999999,0.0003770083075000804,-2.356562175,0.001094292925000239,1.5703995249999998,0.7853288499999999,0.0399999625,0.03999997075,-9.972841531437625,0.023590230126866674,-0.1032120322029738,-0.0011611576699379303,-0.006288929303380932,0.006691930609185702
0.515,-0.0006540441150001938,-0.7840015399999999,0.00038256079900008083,-2.35656867,0.0011107902100002402,1.5703902099999998,0.7853177799999999,0.039999961,0.0399999703,-9.988654257997448,0.08668447154037623,-0.11172528244135313,-0.0014412741637618478,-0.0060769869613613945,0.006123931288198961
0.5175,-0.0006677088425002096,-0.7839910864999999,0.0003882587950000874,-2.35657534,0.0011277197250002596,1.5703806399999998,0.7853064249999998,0.0399999599,0.0399999695,-9.997823555232744,0.13047538335118933,-0.11773848204989211,-0.0018405090265991124,-0.005779011575219131,0.005407269067593663
0.52,-0.0006820713200002108,-0.7839802459999998,0.0003942478000000879,-2.35658236,0.001145513700000261,1.57037056,0.7852944999999998,0.0399999596,0.039999968000000004,-9.993705993819864,0.13565963595914832,-0.11875158039907925,-0.002477980627447493,-0.005308970100842664,0.004393281047770661
0.5225,-0.0006964337975002113,-0.7839694054999998,0.0004002368050000881,-2.35658938,0.0011633076750002618,1.57036048,0.7852825749999998,0.0399999593,0.039999966500000005,-9.989588432406984,0.14084388856710708,-0.11976467874826634,-0.0031154522282958457,-0.004838928626466217,0.0033792930279477056
0.525,-0.0007107962750002124,-0.7839585649999998,0.00040622581000008856,-2.3565964,0.0011811016500002632,1.5703504,0.7852706499999997,0.039999959,0.039999965,-9.985470870994103,0.14602814117506607,-0.12077777709745348,-0.0037529238291442264,-0.004368887152089749,0.0023653050081247047
0.5275,-0.0007251587525002129,-0.7839477244999998,0.0004122148150000888,-2.35660342,0.0011988956250002637,1.57034032,0.7852587249999998,0.039999958700000005,0.0399999635,-9.981353309581223,0.1512123937830248,-0.12179087544664058,-0.004390395429992579,-0.0038988456777133023,0.0013513169883017486
0.53,-0.0007395212300002141,-0.7839368839999998,0.0004182038200000893,-2.35661044,0.0012166896000002654,1.5703302399999999,0.7852467999999998,0.0399999584,0.039999962,-9.977235748168342,0.15639664639098383,-0.12280397379582772,-0.00502786703084096,-0.003428804203336835,0.0003373289684787473
0.5325,-0.0007538837075002146,-0.7839260434999998,0.00042419282500008945,-2.35661746,0.001234483575000266,1.5703201599999999,0.7852348749999998,0.0399999581,0.0399999605,-9.973118186755462,0.16158089899894257,-0.1238170721450148,-0.005665338631689313,-0.0029587627289603883,-0.0006766590513442089
0.535,-0.000768969890000232,-0.7839148069999998,0.00043048364400009674,-2.35662476,0.0012531739100002876,1.57030958,0.7852223399999998,0.0399999572,0.0399999594,-9.935400951265306,0.17180775544050395,-0.09976529481764963,-0.005206729395562211,-0.0028522162781535096,-0.00033979147538164625
0.5375,-0.0007844179250002326,-0.7839033724999998,0.000436925370000097,-2.3566322,0.0012723124250002883,1.5702987499999999,0.7852094999999998,0.039999956,0.0399999585,-9.880883878737643,0.18455591379869615,-0.06318107965285394,-0.00420007974098432,-0.0029274173391191823,0.0006725038984281648
0.54,-0.0007998659600002338,-0.7838919379999998,0.0004433670960000975,-2.35663964,0.0012914509400002898,1.57028792,0.7851966599999998,0.0399999548,0.0399999576,-9.82636680620998,0.19730407215688894,-0.026596864488056607,-0.0031934300864063844,-0.0030026184000848583,0.0016847992722380208
0.5425,-0.0008153139950002344,-0.7838805034999998,0.0004498088220000977,-2.35664708,0.0013105894550002905,1.5702770899999998,0.7851838199999998,0.0399999536,0.0399999567,-9.77184973368232,0.21005223051508115,0.009987350676739101,-0.0021867804318284937,-0.003077819461050531,0.002697094646047832
0.545,-0.0008307620300002356,-0.7838690689999999,0.00045625054800009827,-2.35665452,0.0013297279700002918,1.57026626,0.7851709799999999,0.0399999524,0.0399999558,-9.717332661154655,0.2228003888732739,0.04657156584153642,-0.0011801307772505588,-0.0031530205220162066,0.0037093900198576875
0.5475,-0.0008462100650002361,-0.7838576344999999,0.0004626922740000985,-2.35666196,0.0013488664850002925,1.57025543,0.7851581399999998,0.0399999512,0.039999954899999995,-9.662815588626994,0.23554854723146612,0.08315578100633213,-0.00017348112267266767,-0.0032282215829818797,0.0047216853936674985
0.55,-0.0008616581000002547,-0.7838461999999998,0.0004691340000001062,-2.3566694,0.0013680050000003155,1.5702445999999999,0.7851452999999998,0.03999995,0.039999954,-9.608298516099625,0.24829670558834654,0.11973999617009483,0.0008331685318840541,-0.003303422643947734,0.005733980767464235
0.5525,-0.0008782300355002552,-0.7838341099999998,0.00047604445500010645,-2.3566770200000002,0.0013885354850003162,1.570232975,0.7851315299999998,0.03999994955,0.039999954,-9.57293077060695,0.17563578439442434,0.08899140191729918,0.0004592143497740757,-0.003390241970835517,0.005892453361487746
0.555,-0.0008948019710002565,-0.7838220199999998,0.000482954910000107,-2.35668464,0.0014090659700003178,1.57022135,0.7851177599999998,0.0399999491,0.039999954,-9.537563025114272,0.1029748632004989,0.05824280766450217,8.526016766408084e-05,-0.003477061297723304,0.006050925955511263
0.5575,-0.0009113739065002572,-0.7838099299999998,0.0004898653650001072,-2.35669226,0.0014295964550003187,1.5702097249999998,0.7851039899999998,0.03999994865,0.039999954,-9.502195279621597,0.030313942006576694,0.02749421341170652,-0.00028869401444589753,-0.003563880624611087,0.006209398549534774
0.56,-0.0009279458420002585,-0.7837978399999999,0.0004967758200001078,-2.35669988,0.0014501269400003204,1.5701980999999998,0.7850902199999997,0.0399999482,0.039999954,-9.466827534128921,-0.04234697918734873,-0.00325438084109049,-0.0006626481965558925,-0.003650699951498874,0.006367871143558292
0.5625,-0.000944517777500259,-0.7837857499999998,0.000503686275000108,-2.3567075,0.001470657425000321,1.5701864749999999,0.7850764499999998,0.03999994775,0.039999954,-9.431459788636246,-0.11500790038127093,-0.03400297509388614,-0.0010366023786658708,-0.003737519278386657,0.006526343737581802
0.5650000000000001,-0.0009610897130002604,-0.7837736599999998,0.0005105967300001086,-2.35671512,0.0014911879100003226,1.5701748499999997,0.7850626799999998,0.0399999473,0.039999954,-9.396092043143568,-0.1876688215751964,-0.06475156934668314,-0.0014105565607758657,-0.003824338605274444,0.006684816331605319
0.5675,-0.0009780488865002792,-0.7837613399999998,0.0005176686850001165,-2.35672293,0.001512198055000346,1.5701629599999998,0.7850485849999997,0.03999994665,0.039999953649999996,-9.404250532873926,-0.21793115049975806,-0.08175808260446463,-0.001447654356118755,-0.0038077420391809964,0.006630962197797169
0.5700000000000001,-0.0009957825360002808,-0.7837485599999998,0.000525063640000117,-2.35673112,0.0015341675200003478,1.5701505399999998,0.7850338399999998,0.0399999456,0.0399999526,-9.49946149304419,-0.16339629489160068,-0.07128043387416343,-0.0008110393779751441,-0.0035843136871397236,0.006152454608355746
0.5725,-0.0010135161855002813,-0.7837357799999998,0.0005324585950001173,-2.35673931,0.0015561369850003485,1.5701381199999997,0.7850190949999998,0.03999994455,0.039999951549999996,-9.594672453214448,-0.10886143928344572,-0.0608027851438627,-0.00017442439983156159,-0.003360885335098461,0.005673947018914344
0.5750000000000001,-0.0010312498350002828,-0.7837229999999998,0.0005398535500001179,-2.3567475,0.0015781064500003503,1.5701256999999997,0.7850043499999997,0.039999943499999996,0.0399999505,-9.689883413384713,-0.054326583675288365,-0.050325136413561504,0.0004621905783120494,-0.003137456983057188,0.005195439429472921
0.5775,-0.0010489834845002835,-0.7837102199999998,0.0005472485050001182,-2.35675569,0.0016000759150003512,1.5701132799999997,0.7849896049999997,0.03999994245,0.03999994945,-9.785094373554971,0.0002082719328665994,-0.039847487683260775,0.0010988055564556322,-0.002914028631015925,0.004716931840031519
0.58,-0.001066717134000284,-0.7836974399999999,0.0005546434600001184,-2.3567638800000004,0.0016220453800003518,1.5701008599999997,0.7849748599999997,0.039999941399999996,0.0399999484,-9.88030533372523,0.054743127541021536,-0.029369838952960046,0.0017354205345992146,-0.0026906002789746624,0.004238424250590117
0.5825,-0.0010844507835002855,-0.7836846599999998,0.000562038415000119,-2.3567720700000003,0.0016440148450003536,1.5700884399999997,0.7849601149999997,0.03999994035,0.03999994735,-9.975516293895494,0.10927798314917894,-0.018892190222658853,0.0023720355127428254,-0.002467171926933389,0.003759916661148694
0.585,-0.0011029837200003056,-0.7836714099999998,0.0005697667600001274,-2.3567805900000005,0.0016669743200003783,1.5700754499999998,0.7849447099999998,0.0399999392,0.0399999463,-9.980595961730227,0.1146808524990938,-0.010454959019057589,0.002497595971149374,-0.002203879165312792,0.0037396644207724193
0.5875,-0.0011219163000003069,-0.7836579249999999,0.0005776618000001279,-2.356789275,0.0016904288000003803,1.570062175,0.7849289749999997,0.039999938,0.03999994525,-9.940609983400462,0.09551772872166825,-0.003037936578731774,0.0023676291697059186,-0.0019206541989039592,0.003948539854912111
0.59,-0.0011408488800003077,-0.7836444399999998,0.0005855568400001283,-2.35679796,0.001713883280000381,1.5700488999999997,0.7849132399999997,0.0399999368,0.0399999442,-9.900624005070698,0.07635460494424355,0.004379085861593711,0.0022376623682624688,-0.0016374292324951392,0.004157415289051793
0.5925,-0.001159781460000309,-0.7836309549999998,0.0005934518800001289,-2.3568066450000003,0.0017373377600003828,1.5700356249999998,0.7848975049999998,0.0399999356,0.03999994315,-9.860638026740933,0.057191481166818006,0.011796108301919524,0.0021076955668190133,-0.0013542042660863065,0.004366290723191485
0.595,-0.00117871404000031,-0.7836174699999998,0.0006013469200001291,-2.3568153300000003,0.0017607922400003837,1.57002235,0.7848817699999997,0.0399999344,0.0399999421,-9.82065204841117,0.03802835738939331,0.019213130742245007,0.001977728765375564,-0.0010709792996774865,0.0045751661573311675
0.5975,-0.0011976466200003112,-0.7836039849999997,0.0006092419600001298,-2.3568240150000004,0.0017842467200003854,1.5700090749999998,0.7848660349999997,0.039999933200000004,0.03999994105,-9.780666070081404,0.018865233611967763,0.02663015318257082,0.0018477619639321085,-0.0007877543332686539,0.004784041591470859
0.6,-0.0012165792000003322,-0.7835904999999997,0.0006171370000001386,-2.3568327,0.0018077012000004115,1.5699957999999998,0.7848502999999998,0.039999932,0.03999994,-9.740680091752495,-0.00029789016529861413,0.03404717562276154,0.001717795162483746,-0.0005045293668678437,0.004992917025624345
0.6025,-0.001236747375000334,-0.7835762574999997,0.0006255473950001392,-2.3568415050000002,0.0018326861000004136,1.5699816699999998,0.7848335359999997,0.039999931700000005,0.0399999394,-9.752576647440565,-0.009852204732671907,0.03328507060978215,0.0012896485795152166,-0.00070747861339194,0.006039586632169313
0.605,-0.0012569155500003347,-0.7835620149999998,0.0006339577900001395,-2.35685031,0.0018576710000004146,1.5699675399999997,0.7848167719999997,0.0399999314,0.039999938799999996,-9.764473203128633,-0.019406519300044778,0.03252296559680279,0.0008615019965467066,-0.0009104278599160272,0.007086256238714235
0.6075,-0.0012770837250003363,-0.7835477724999997,0.0006423681850001402,-2.3568591150000002,0.0018826559000004166,1.5699534099999997,0.7848000079999997,0.039999931100000004,0.0399999382,-9.776369758816701,-0.028960833867418073,0.031760860583823394,0.0004333554135781774,-0.0011133771064401235,0.008132925845259204
0.61,-0.001297251900000337,-0.7835335299999998,0.0006507785800001405,-2.35686792,0.0019076408000004174,1.5699392799999998,0.7847832439999997,0.0399999308,0.0399999376,-9.788266314504769,-0.038515148434790945,0.030998755570844028,5.208830609667236e-06,-0.0013163263529642106,0.009179595451804128
0.6125,-0.0013174200750003385,-0.7835192874999998,0.0006591889750001412,-2.3568767250000002,0.0019326257000004195,1.5699251499999998,0.7847664799999997,0.0399999305,0.039999937,-9.800162870192839,-0.048069463002164234,0.030236650557864633,-0.000422937752358862,-0.001519275599488307,0.010226265058349095
0.615,-0.0013375882500003392,-0.7835050449999998,0.0006675993700001415,-2.35688553,0.0019576106000004203,1.5699110199999997,0.7847497159999997,0.039999930200000006,0.0399999364,-9.812059425880907,-0.057623777569537106,0.02947454554488527,-0.0008510843353273722,-0.001722224846012394,0.011272934664894017
0.6175,-0.0013581802750003624,-0.7834905324999998,0.0006761865650001511,-2.35689463,0.001983120515000449,1.5698965899999997,0.7847326004999997,0.03999993,0.039999936,-9.817843596925712,-0.06165821058989829,0.04398786341139872,-0.0007732277665311341,-0.0017379579091380624,0.011965728860768072
0.62,-0.001379620000000363,-0.7834754799999998,0.0006851273600001514,-2.35690432,0.00200968046000045,1.5698815599999996,0.7847147819999997,0.03999993,0.039999936,-9.811402998684915,-0.05465288051707391,0.08905202703457585,0.0003166351057177397,-0.0013792586054953246,0.011950772235354047
0.6225,-0.0014010597250003647,-0.7834604274999998,0.0006940681550001521,-2.35691401,0.002036240405000452,1.5698665299999996,0.7846969634999996,0.03999993,0.039999936,-9.804962400444118,-0.04764755044424922,0.13411619065775499,0.001406497977966662,-0.001020559301852571,0.011935815609940021
0.625,-0.0014224994500003656,-0.7834453749999998,0.0007030089500001524,-2.3569237,0.0020628003500004527,1.5698514999999997,0.7846791449999997,0.03999993,0.039999936,-9.798521802203323,-0.04064222037142484,0.17918035428093212,0.0024963608502155355,-0.0006618599982098333,0.011920858984525995
0.6275000000000001,-0.0014439391750003673,-0.7834303224999998,0.0007119497450001532,-2.35693339,0.002089360295000455,1.5698364699999998,0.7846613264999996,0.03999993,0.039999936,-9.792081203962526,-0.03363689029860015,0.22424451790411126,0.0035862237224644575,-0.00030316069456707965,0.011905902359111969
0.63,-0.001465378900000368,-0.7834152699999997,0.0007208905400001535,-2.35694308,0.002115920240000456,1.5698214399999997,0.7846435079999996,0.03999993,0.039999936,-9.78564060572173,-0.02663156022577577,0.2693086815272884,0.004676086594713331,5.553860907565812e-05,0.011890945733697943
0.6325000000000001,-0.0014868186250003698,-0.7834002174999997,0.0007298313350001541,-2.35695277,0.002142480185000458,1.5698064099999998,0.7846256894999997,0.03999993,0.039999936,-9.779200007480934,-0.019626230152951084,0.31437284515046754,0.005765949466962254,0.00041423791271841194,0.011875989108283917
0.635,-0.001509129710000393,-0.7833846399999997,0.0007391355750001639,-2.35696263,0.0021701193700004867,1.5697907999999998,0.7846071489999996,0.039999930200000006,0.0399999364,-9.836180746624114,0.004830112327242144,0.2734518336058944,0.005561262766678155,0.0005257614787072915,0.011041616004620398
0.6375000000000001,-0.0015318764750003949,-0.7833687999999998,0.0007486215375001647,-2.356972575,0.002198298175000489,1.5697748999999999,0.7845882474999997,0.0399999305,0.039999937,-9.924872154456823,0.038011961010443546,0.1895382344807817,0.004709301280177807,0.0005136971758788406,0.009797534661863897
0.64,-0.0015546232400003956,-0.7833529599999998,0.000758107500000165,-2.3569825200000003,0.0022264769800004903,1.5697589999999997,0.7845693459999996,0.0399999308,0.0399999376,-10.01356356228953,0.07119380969364346,0.10562463535567271,0.003857339793677496,0.0005016328730503901,0.008553453319107455
0.6425,-0.0015773700050003966,-0.7833371199999998,0.0007675934625001653,-2.3569924650000003,0.002254655785000491,1.5697430999999997,0.7845504444999997,0.039999931100000004,0.0399999382,-10.102254970122235,0.10437565837684339,0.021711036230563696,0.003005378307177186,0.0004895685702219397,0.00730937197635101
0.645,-0.0016001167700003982,-0.7833212799999998,0.0007770794250001661,-2.35700241,0.0022828345900004934,1.5697271999999998,0.7845315429999997,0.0399999314,0.039999938799999996,-10.190946377954944,0.1375575070600448,-0.06220256289454901,0.002153416820676838,0.0004775042673934887,0.00606529063359451
0.6475,-0.0016228635350003992,-0.7833054399999997,0.0007865653875001664,-2.357012355,0.0023110133950004943,1.5697112999999998,0.7845126414999997,0.039999931700000005,0.0399999394,-10.279637785787651,0.17073935574324473,-0.146116162019658,0.0013014553341765276,0.0004654399645650383,0.004821209290838065
0.65,-0.0016456103000004247,-0.7832895999999997,0.0007960513500001772,-2.3570223,0.002339192200000526,1.5696953999999999,0.7844937399999997,0.039999932,0.03999994,-10.368329193616571,0.2039212044240786,-0.2300297611432787,0.000449493847678063,0.0004533756617406069,0.003577127948096473
0.6525,-0.0016696987700004255,-0.7832729499999997,0.0008060970165001775,-2.3570330250000002,0.002369033065000527,1.5696784949999998,0.7844737134999997,0.03999993095,0.039999938799999996,-10.242096448151866,0.1028170484470412,-0.22931432190534856,-0.0002956379749680284,0.0006693063383927546,0.003178565023073399
0.655,-0.0016937872400004275,-0.7832562999999997,0.0008161426830001783,-2.3570437500000003,0.0023988739300005294,1.5696615899999997,0.7844536869999996,0.0399999299,0.0399999376,-10.115863702687154,0.0017128924699993386,-0.2285988826674184,-0.0010407697976141529,0.0008852370150449118,0.002780002098050307
0.6575,-0.0017178757100004282,-0.7832396499999997,0.0008261883495001786,-2.3570544750000004,0.0024287147950005305,1.5696446849999997,0.7844336604999996,0.03999992885,0.0399999364,-9.989630957222447,-0.09939126350703803,-0.22788344342948827,-0.0017859016202602443,0.0011011676916970596,0.002381439173027233
0.66,-0.0017419641800004303,-0.7832229999999997,0.0008362340160001794,-2.3570652,0.002458555660000533,1.5696277799999998,0.7844136339999996,0.0399999278,0.0399999352,-9.863398211757735,-0.2004954194840799,-0.2271680041915581,-0.002531033442906369,0.0013170983683492169,0.0019828762480041413
0.6625,-0.001766052650000431,-0.7832063499999997,0.0008462796825001798,-2.357075925,0.002488396525000534,1.5696108749999997,0.7843936074999996,0.03999992675,0.039999934,-9.73716546629303,-0.3015995754611173,-0.226452564953628,-0.0032761652655524604,0.0015330290450013646,0.0015843133229810672
0.665,-0.001790141120000433,-0.7831896999999997,0.0008563253490001805,-2.3570866500000003,0.0025182373900005366,1.5695939699999997,0.7843735809999997,0.0399999257,0.0399999328,-9.610932720828318,-0.40270373143815913,-0.22573712571569785,-0.004021297088198585,0.0017489597216535217,0.0011857503979579753
0.6675,-0.0018146882300004586,-0.7831727719999997,0.0008665623320001912,-2.3570974700000002,0.002548646315000568,1.5695767499999997,0.7843531759999997,0.03999992475,0.0399999319,-9.54640903410873,-0.4372040182733816,-0.22684266994975233,-0.004274544036212467,0.0018940517936929066,0.0013252202938483044
0.67,-0.0018401526200004608,-0.7831552879999997,0.0008771819480001921,-2.35710848,0.002580191360000571,1.5695588999999996,0.7843320139999996,0.039999924,0.039999931600000004,-9.605303464869388,-0.33849656683576,-0.23159018112748128,-0.003544021235041583,0.001897466656518242,0.0025407558314783315
0.6725,-0.0018656170100004618,-0.7831378039999997,0.0008878015640001925,-2.35711949,0.002611736405000572,1.5695410499999998,0.7843108519999996,0.03999992325,0.0399999313,-9.664197895630044,-0.2397891153981428,-0.23633769230520998,-0.002813498433870732,0.001900881519343577,0.003756291369108305
0.675,-0.0018910814000004637,-0.7831203199999996,0.0008984211800001933,-2.3571305000000002,0.0026432814500005745,1.5695231999999997,0.7842896899999996,0.0399999225,0.039999931,-9.723092326390702,-0.1410816639605212,-0.24108520348293894,-0.002082975632699849,0.0019042963821689122,0.0049718269067383315
0.6775,-0.0019165457900004648,-0.7831028359999996,0.0009090407960001937,-2.3571415100000004,0.0026748264950005756,1.5695053499999996,0.7842685279999996,0.03999992175,0.039999930700000005,-9.781986757151358,-0.042374212522903965,-0.24583271466066767,-0.0013524528315289976,0.0019077112449942474,0.006187362444368304
0.68,-0.0019420101800004667,-0.7830853519999997,0.0009196604120001946,-2.35715252,0.002706371540000578,1.5694874999999997,0.7842473659999996,0.039999921,0.0399999304,-9.840881187912016,0.0563332389147177,-0.2505802258383966,-0.0006219300303581146,0.0019111261078195827,0.007402897981998331
0.6825,-0.0019674745700004677,-0.7830678679999997,0.000930280028000195,-2.3571635300000002,0.002737916585000579,1.5694696499999996,0.7842262039999995,0.03999992025,0.039999930100000004,-9.899775618672672,0.15504069035233486,-0.2553277370161253,0.00010859277081273679,0.0019145409706449177,0.008618433519628306
0.685,-0.0019938784600004957,-0.7830497759999997,0.0009412915800002066,-2.3571748800000005,0.002770625340000614,1.5694511599999996,0.7842042549999996,0.039999919700000004,0.0399999295,-9.867457350158487,0.18162784411997868,-0.22915382349429841,0.0005665994444738426,0.0023697848244930695,0.009155664066978202
0.6875,-0.002020752100000497,-0.7830313799999996,0.000952499100000207,-2.3571864000000002,0.002803915950000615,1.5694323499999996,0.7841819124999996,0.03999991925,0.039999928750000004,-9.789532732010658,0.17215484905561731,-0.1875191976239746,0.0008883480543913191,0.003050943173833909,0.009353742119216083
0.6900000000000001,-0.0020476257400004988,-0.7830129839999996,0.0009637066200002079,-2.3571979200000004,0.0028372065600006176,1.5694135399999998,0.7841595699999996,0.0399999188,0.039999928000000004,-9.711608113862825,0.16268185399125554,-0.14588457175364888,0.0012100966643088097,0.0037321015231747785,0.009551820171453975
0.6925,-0.0020744993800005,-0.7829945879999997,0.0009749141400002084,-2.3572094400000005,0.002870497170000619,1.5693947299999997,0.7841372274999996,0.039999918350000004,0.03999992725,-9.633683495714996,0.15320885892689418,-0.10424994588332506,0.0015318452742262862,0.004413259872515618,0.009749898223691857
0.6950000000000001,-0.002101373020000502,-0.7829761919999997,0.0009861216600002092,-2.3572209600000003,0.0029037877800006215,1.5693759199999997,0.7841148849999996,0.0399999179,0.0399999265,-9.555758877567163,0.1437358638625324,-0.06261532001299938,0.001853593884143777,0.005094418221856487,0.009947976275929747
0.6975,-0.002128246660000503,-0.7829577959999996,0.0009973291800002095,-2.3572324800000004,0.0029370783900006226,1.5693571099999997,0.7840925424999996,0.039999917450000005,0.03999992575,-9.477834259419334,0.13426286879817104,-0.020980694142675532,0.002175342494061253,0.0057755765711973266,0.01014605432816763
0.7000000000000001,-0.0021551203000005317,-0.7829393999999996,0.0010085367000002218,-2.3572440000000006,0.002970369000000659,1.5693382999999996,0.7840701999999996,0.039999917,0.039999925,-9.399909641274144,0.12478987373489434,0.020653931727440202,0.002497091103960903,0.006456734920519368,0.010344132380395915
0.7025,-0.002183435935000533,-0.7829199944999996,0.0010203457650002222,-2.3572561500000004,0.00300544581000066,1.5693184699999996,0.7840466649999996,0.039999917450000005,0.03999992575,-9.46272435177693,0.17308019040626235,0.05111460558698247,0.001869100680051776,0.006135622376419522,0.010030880114795804
0.705,-0.002211751570000534,-0.7829005889999996,0.0010321548300002226,-2.3572683000000003,0.0030405226200006614,1.5692986399999997,0.7840231299999996,0.0399999179,0.0399999265,-9.525539062279716,0.2213705070776304,0.08157527944652473,0.0012411102561426489,0.005814509832319676,0.009717627849195692
0.7075,-0.002240067205000536,-0.7828811834999996,0.0010439638950002236,-2.35728045,0.0030755994300006645,1.5692788099999997,0.7839995949999996,0.039999918350000004,0.03999992725,-9.588353772782504,0.2696608237490006,0.11203595330606834,0.0006131198322334938,0.005493397288219815,0.009404375583595567
0.71,-0.0022683828400005372,-0.7828617779999997,0.001055772960000224,-2.3572926,0.0031106762400006653,1.5692589799999996,0.7839760599999996,0.0399999188,0.039999928000000004,-9.651168483285291,0.31795114042036854,0.14249662716561062,-1.4870591675633562e-05,0.005172284744119968,0.009091123317995456
0.7125,-0.0022966984750005396,-0.7828423724999997,0.001067582025000225,-2.3573047500000004,0.0031457530500006684,1.5692391499999996,0.7839525249999996,0.03999991925,0.039999928750000004,-9.71398319378808,0.3662414570917387,0.17295730102515422,-0.0006428610155847889,0.004851172200020107,0.008777871052395332
0.715,-0.00232501411000054,-0.7828229669999996,0.0010793910900002254,-2.3573169000000003,0.0031808298600006697,1.5692193199999995,0.7839289899999996,0.039999919700000004,0.0399999295,-9.776797904290865,0.4145317737631068,0.2034179748846965,-0.001270851439493916,0.004530059655920261,0.008464618786795221
0.7175,-0.002353821100000571,-0.7828032684999997,0.0010914051300002382,-2.3573292,0.0032165152150007074,1.5691991449999996,0.7839050484999995,0.03999992025,0.039999930100000004,-9.82685905147447,0.4283328217531701,0.20858992922020234,-0.0018573849313148277,0.004406053132918564,0.008379892472251736
0.72,-0.002383610800000572,-0.7827829839999997,0.0011038291200002387,-2.3573418000000004,0.003253417660000709,1.5691782799999996,0.7838802939999996,0.039999921,0.0399999304,-9.851413072021899,0.37315533238656357,0.16318444451199088,-0.0023610045589663705,0.004676258652079228,0.008752218059782149
0.7225,-0.0024134005000005744,-0.7827626994999997,0.0011162531100002396,-2.3573544,0.0032903201050007115,1.5691574149999996,0.7838555394999995,0.03999992175,0.039999930700000005,-9.87596709256933,0.3179778430199546,0.11777895980377742,-0.002864624186617936,0.004946464171239905,0.009124543647312579
0.725,-0.002443190200000575,-0.7827424149999996,0.00112867710000024,-2.3573670000000004,0.003327222550000713,1.5691365499999996,0.7838307849999996,0.0399999225,0.039999931,-9.90052111311676,0.262800353653348,0.07237347509556596,-0.0033682438142694786,0.00521666969040057,0.009496869234842992
0.7275,-0.0024729799000005777,-0.7827221304999996,0.001141101090000241,-2.3573796000000002,0.003364124995000716,1.5691156849999996,0.7838060304999995,0.03999992325,0.0399999313,-9.92507513366419,0.20762286428673898,0.02696799038735251,-0.0038718634419210437,0.005486875209561246,0.009869194822373422
0.73,-0.002502769600000579,-0.7827018459999996,0.0011535250800002415,-2.3573922000000005,0.0034010274400007173,1.5690948199999997,0.7837812759999996,0.039999924,0.039999931600000004,-9.949629154211621,0.15244537492013244,-0.01843749432085895,-0.004375483069572587,0.00575708072872191,0.010241520409903835
0.7325,-0.002532559300000581,-0.7826815614999996,0.0011659490700002425,-2.3574048000000003,0.0034379298850007204,1.5690739549999997,0.7837565214999995,0.03999992475,0.0399999319,-9.974183174759052,0.09726788555352339,-0.0638429790290724,-0.004879102697224151,0.0060272862478825875,0.010613845997434266
0.735,-0.0025633525300006116,-0.7826606549999996,0.0011787917400002553,-2.3574178700000004,0.003476075430000758,1.5690523999999995,0.7837309329999995,0.039999925,0.039999932,-9.959489027305219,0.08004344438410398,-0.06340579020332329,-0.004319091279497176,0.006254468481244221,0.01070657866452826
0.7375,-0.002594647525000614,-0.7826394374999995,0.0011918437500002563,-2.3574311750000003,0.003514842525000761,1.5690304999999996,0.7837049274999995,0.039999925,0.039999932,-9.92517079585248,0.0817955273116109,-0.040047264612606756,-0.0032272643391276184,0.006460139071708237,0.010659514871416326
0.74,-0.0026259425200006155,-0.7826182199999996,0.0012048957600002566,-2.3574444800000003,0.003553609620000762,1.5690085999999996,0.7836789219999994,0.039999925,0.039999932,-9.89085256439974,0.08354761023911773,-0.016688739021891254,-0.0021354373987581094,0.006665809662172244,0.010612451078304394
0.7425,-0.002657237515000618,-0.7825970024999996,0.0012179477700002576,-2.3574577850000002,0.0035923767150007656,1.5689866999999995,0.7836529164999995,0.039999925,0.039999932,-9.856534332947001,0.08529969316662465,0.0066697865688252755,-0.0010436104583885523,0.006871480252636261,0.01056538728519246
0.745,-0.002688532510000619,-0.7825757849999996,0.0012309997800002582,-2.35747109,0.003631143810000767,1.5689647999999996,0.7836269109999995,0.039999925,0.039999932,-9.822216101494263,0.0870517760941315,0.030028312159540785,4.821648198095711e-05,0.007077150843100268,0.010518323492080529
0.7475,-0.0027198275050006214,-0.7825545674999996,0.0012440517900002591,-2.357484395,0.00366991090500077,1.5689428999999995,0.7836009054999995,0.039999925,0.039999932,-9.787897870041522,0.08880385902163841,0.05338683775025732,0.0011400434223505142,0.007282821433564285,0.010471259698968595
0.75,-0.0027511225000006532,-0.7825333499999996,0.0012571038000002723,-2.3574977000000006,0.0037086780000008092,1.5689209999999996,0.7835748999999994,0.039999925,0.039999932,-9.7535796385884,0.09055594194972563,0.07674536333983778,0.0022318703626941832,0.007488492024026684,0.010424195905865206
0.7525000000000001,-0.002783953570000656,-0.7825111679999995,0.0012707966550002735,-2.3575116950000004,0.0037493476500008124,1.5688979749999996,0.7835476299999994,0.03999992605,0.039999933200000004,-9.7000290229671,0.12147934839941593,0.04305237251663962,0.0020249345900073363,0.0076133171711177785,0.010806530073501122
0.755,-0.002816784640000657,-0.7824889859999996,0.001284489510000274,-2.3575256900000006,0.003790017300000814,1.5688749499999997,0.7835203599999994,0.0399999271,0.0399999344,-9.646478407345798,0.15240275484910487,0.009359381693442956,0.0018179988173204992,0.007738142318208868,0.01118886424113702
0.7575000000000001,-0.0028496157100006596,-0.7824668039999996,0.001298182365000275,-2.3575396850000003,0.003830686950000817,1.5688519249999995,0.7834930899999994,0.03999992815,0.0399999356,-9.592927791724497,0.18332616129879514,-0.0243336091297552,0.0016110630446336525,0.007862967465299964,0.011571198408772937
0.76,-0.0028824467800006607,-0.7824446219999995,0.0013118752200002755,-2.3575536800000005,0.0038713566000008184,1.5688288999999995,0.7834658199999994,0.0399999292,0.0399999368,-9.539377176103196,0.21424956774848408,-0.05802659995295187,0.0014041272719468151,0.007987792612391052,0.011953532576408835
0.7625000000000001,-0.0029152778500006636,-0.7824224399999996,0.0013255680750002767,-2.3575676750000003,0.003912026250000822,1.5688058749999996,0.7834385499999994,0.03999993025,0.039999938,-9.485826560481895,0.24517297419817438,-0.09171959077615002,0.0011971914992599687,0.008112617759482146,0.01233586674404475
0.765,-0.0029481089200006647,-0.7824002579999996,0.001339260930000277,-2.3575816700000005,0.003952695900000823,1.5687828499999996,0.7834112799999994,0.0399999313,0.0399999392,-9.432275944860596,0.27609638064786335,-0.12541258159934668,0.0009902557265731313,0.008237442906573236,0.01271820091168065
0.7675000000000001,-0.002981461915000699,-0.7823777214999995,0.0013531715400002915,-2.3575958250000006,0.003994012025000866,1.5687594699999996,0.7833835749999993,0.0399999324,0.03999994035,-9.42333438779209,0.29262046145239434,-0.13597651225310195,0.0007715401584404917,0.008321222333994785,0.0128928734830749
0.77,-0.0030158587600007,-0.7823544759999995,0.001367517660000292,-2.3576103000000006,0.004036621100000868,1.5687353799999997,0.7833549999999994,0.0399999336,0.039999941399999996,-9.503610947821032,0.2803458909692375,-0.10028232257219759,0.000529264999418428,0.008322910322084735,0.01265222286202376
0.7725,-0.0030502556050007014,-0.7823312304999995,0.0013818637800002925,-2.3576247750000006,0.0040792301750008685,1.5687112899999995,0.7833264249999994,0.0399999348,0.03999994245,-9.583887507849973,0.2680713204860806,-0.06458813289129323,0.00028698984039636434,0.008324598310174684,0.012411572240972623
0.775,-0.003084652450000704,-0.7823079849999995,0.0013962099000002935,-2.3576392500000005,0.004121839250000872,1.5686871999999996,0.7832978499999994,0.039999936,0.0399999435,-9.664164067878916,0.25579675000292323,-0.028893943210387296,4.471468137428995e-05,0.008326286298264634,0.012170921619921473
0.7775,-0.0031190492950007053,-0.7822847394999995,0.001410556020000294,-2.3576537250000005,0.004164448325000874,1.5686631099999995,0.7832692749999994,0.0399999372,0.03999994455,-9.744440627907856,0.2435221795197664,0.006800246470517052,-0.0001975604776477737,0.008327974286354584,0.011930270998870335
0.78,-0.003153446140000708,-0.7822614939999996,0.0014249021400002952,-2.3576682000000004,0.004207057400000877,1.5686390199999996,0.7832406999999993,0.0399999384,0.0399999456,-9.824717187936802,0.231247609036609,0.04249443615142301,-0.000439835636669848,0.008329662274444535,0.011689620377819187
0.7825,-0.0031878429850007092,-0.7822382484999996,0.0014392482600002958,-2.3576826750000004,0.004249666475000878,1.5686149299999996,0.7832121249999994,0.0399999396,0.03999994665,-9.904993747965742,0.21897303855345213,0.07818862583232736,-0.0006821107956919117,0.008331350262534485,0.011448969756768047
0.785,-0.0032233032400007453,-0.7822143349999996,0.0014540380800003108,-2.3576978000000004,0.004293592650000923,1.5685900599999996,0.7831826599999994,0.03999994,0.0399999473,-9.888223605091463,0.22716109566593126,0.0649782822889307,-0.0009516873309626838,0.008503785831867937,0.011314788097663564
0.7875,-0.003259295200000746,-0.7821900874999995,0.0014690497500003113,-2.35771325,0.004338177375000925,1.5685647999999994,0.7831527499999994,0.03999994,0.03999994775,-9.822930110770082,0.2455804665752771,0.027315672135656652,-0.001234914554356524,0.008761595191815196,0.011233840919527472
0.79,-0.0032952871600007492,-0.7821658399999996,0.0014840614200003124,-2.3577287000000005,0.004382762100000928,1.5685395399999995,0.7831228399999993,0.03999994,0.0399999482,-9.7576366164487,0.2639998374846238,-0.010346938017619059,-0.0015181417777503764,0.009019404551762467,0.011152893741391376
0.7925,-0.0033312791200007506,-0.7821415924999995,0.001499073090000313,-2.3577441500000003,0.004427346825000929,1.5685142799999996,0.7830929299999994,0.03999994,0.03999994865,-9.69234312212732,0.2824192083939696,-0.04800954817089309,-0.0018013690011442166,0.009277213911709726,0.011071946563255282
0.795,-0.0033672710800007532,-0.7821173449999995,0.0015140847600003142,-2.3577596000000005,0.004471931550000933,1.5684890199999995,0.7830630199999994,0.03999994,0.0399999491,-9.627049627805938,0.3008385793033163,-0.0856721583241688,-0.002084596224538069,0.009535023271656997,0.010990999385119186
0.7975,-0.0034032630400007546,-0.7820930974999996,0.0015290964300003148,-2.3577750500000003,0.004516516275000934,1.5684637599999995,0.7830331099999994,0.03999994,0.03999994955,-9.561756133484558,0.3192579502126621,-0.12333476847744285,-0.0023678234479319092,0.009792832631604256,0.010910052206983092
0.8,-0.003439255000000792,-0.7820688499999995,0.0015441081000003303,-2.3577905000000006,0.004561101000000981,1.5684384999999996,0.7830031999999993,0.03999994,0.03999995,-9.496462639165884,0.3376773211204784,-0.16099737862917146,-0.0026510506713183926,0.010050641991541256,0.010829105028868646
0.8025,-0.003476870470000793,-0.7820435374999994,0.001559797140000331,-2.3578061300000006,0.004607696775000982,1.5684121449999995,0.7829719399999994,0.03999994,0.03999995,-9.559878783979809,0.28339307514091194,-0.125161028889137,-0.0025841976273285904,0.009820525494853728,0.0117766763646999
0.805,-0.0035144859400007963,-0.7820182249999995,0.001575486180000332,-2.3578217600000007,0.004654292550000986,1.5683857899999996,0.7829406799999994,0.03999994,0.03999995,-9.623294928793737,0.22910882916134306,-0.08932467914910092,-0.0025173445833387847,0.009590408998166189,0.012724247700531195
0.8075,-0.0035521014100007974,-0.7819929124999995,0.0015911752200003326,-2.3578373900000003,0.004700888325000987,1.5683594349999994,0.7829094199999993,0.03999994,0.03999995,-9.686711073607661,0.17482458318177663,-0.05348832940906645,-0.0024504915393489825,0.00936029250147866,0.01367181903636245
0.81,-0.0035897168800008003,-0.7819675999999994,0.001606864260000334,-2.3578530200000003,0.004747484100000992,1.5683330799999995,0.7828781599999993,0.03999994,0.03999995,-9.75012721842159,0.12054033720220778,-0.01765197966903037,-0.0023836384953591773,0.009130176004791123,0.014619390372193744
0.8125,-0.003627332350000802,-0.7819422874999995,0.0016225533000003346,-2.3578686500000003,0.004794079875000993,1.5683067249999996,0.7828468999999993,0.03999994,0.03999995,-9.813543363235514,0.06625609122264131,0.018184370071004097,-0.002316785451369375,0.008900059508103594,0.015566961708024999
0.8150000000000001,-0.0036649478200008047,-0.7819169749999995,0.0016382423400003357,-2.3578842800000004,0.004840675650000997,1.5682803699999994,0.7828156399999994,0.03999994,0.03999995,-9.87695950804944,0.011971845243072432,0.054020719811040147,-0.0022499324073795694,0.008669943011416055,0.016514533043856295
0.8175,-0.0037031136800008413,-0.7818913024999994,0.001654161025000351,-2.3579002650000005,0.004887953125001042,1.5682536399999996,0.7827839199999993,0.039999940149999996,0.03999995,-9.919935908100983,-0.02187008482578829,0.0696637593752076,-0.0020207092841022325,0.008808871072575416,0.01689604355368352
0.8200000000000001,-0.003742380320000845,-0.7818649099999994,0.0016705390000003523,-2.3579169600000003,0.004936594000001046,1.5682261599999994,0.7827512799999993,0.0399999406,0.03999995,-9.922032818631703,-0.014827383077178017,0.04492017859153271,-0.0014667460022811031,0.009685888249357446,0.016145432411611774
0.8225,-0.0037816469600008462,-0.7818385174999994,0.001686916975000353,-2.3579336550000005,0.004985234875001048,1.5681986799999994,0.7827186399999992,0.03999994105,0.03999995,-9.924129729162422,-0.007784681328568056,0.020176597807858916,-0.0009127827204599985,0.010562905426139437,0.01539482126954006
0.8250000000000001,-0.0038209136000008494,-0.7818121249999994,0.0017032949500003542,-2.3579503500000003,0.005033875750001052,1.5681711999999994,0.7826859999999993,0.039999941500000004,0.03999995,-9.926226639693141,-0.0007419795799577834,-0.004566982975815981,-0.00035881943863886917,0.011439922602921468,0.014644210127468315
0.8275,-0.0038601802400008507,-0.7817857324999994,0.0017196729250003547,-2.3579670450000005,0.005082516625001053,1.5681437199999995,0.7826533599999993,0.03999994195,0.03999995,-9.92832355022386,0.006300722168652177,-0.029310563759489774,0.00019514384318223546,0.012316939779703459,0.013893598985396605
0.8300000000000001,-0.003899446880000854,-0.7817593399999994,0.0017360509000003562,-2.3579837400000003,0.005131157500001057,1.5681162399999993,0.7826207199999993,0.0399999424,0.03999995,-9.93042046075458,0.013343423917262447,-0.054054144543164664,0.000749107125003365,0.013193956956485488,0.01314298784332486
0.8325,-0.003938713520000855,-0.7817329474999993,0.0017524288750003568,-2.3580004350000006,0.005179798375001059,1.5680887599999993,0.7825880799999992,0.039999942850000005,0.03999995,-9.932517371285298,0.02038612566587241,-0.07879772532683844,0.0013030704068244699,0.01407097413326748,0.012392376701253146
0.835,-0.003979098900000894,-0.7817058349999993,0.0017692736000003725,-2.3580173,0.005229825000001106,1.5680604999999992,0.7825545159999993,0.0399999434,0.0399999504,-9.891311088935087,0.013110013934312338,-0.10678450617205153,0.0012109172590940727,0.014392711909617061,0.01213978736682149
0.8375,-0.004020043650000896,-0.7816783624999993,0.001786351700000374,-2.35803425,0.00528054450000111,1.5680318499999992,0.7825204899999992,0.039999944,0.039999951,-9.828453210146527,-0.0013255045366313695,-0.13639288704787653,0.0007957058966195845,0.014436809985777666,0.012136208936185446
0.84,-0.004060988400000898,-0.7816508899999994,0.0018034298000003746,-2.3580512000000002,0.0053312640000011124,1.5680031999999993,0.7824864639999992,0.039999944600000004,0.0399999516,-9.765595331357972,-0.01576102300757444,-0.1660012679237002,0.00038049453414511474,0.014480908061938268,0.012132630505549401
0.8425,-0.004101933150000901,-0.7816234174999994,0.001820507900000376,-2.3580681500000003,0.005381983500001116,1.5679745499999993,0.7824524379999993,0.039999945200000005,0.0399999522,-9.702737452569412,-0.03019654147851815,-0.19560964879952522,-3.4716828329373365e-05,0.014525006138098871,0.012129052074913356
0.845,-0.0041428779000009025,-0.7815959449999994,0.0018375860000003766,-2.3580851000000003,0.005432703000001118,1.5679458999999993,0.7824184119999993,0.0399999458,0.039999952799999995,-9.639879573780856,-0.04463205994946121,-0.2252180296753489,-0.00044992819080384326,0.014569104214259472,0.012125473644277312
0.8475,-0.004183822650000906,-0.7815684724999994,0.001854664100000378,-2.3581020500000003,0.005483422500001122,1.5679172499999994,0.7823843859999993,0.0399999464,0.039999953399999996,-9.577021694992297,-0.05906757842040492,-0.25482641055117394,-0.0008651395532783314,0.014613202290420076,0.012121895213641265
0.85,-0.0042247674000009455,-0.7815409999999994,0.0018717422000003943,-2.3581190000000003,0.005534142000001171,1.5678885999999994,0.7823503599999992,0.039999947,0.039999954,-9.514163816205818,-0.07350309689045438,-0.284434791425701,-0.0012803509157600739,0.014657300366584856,0.012118316783002108
0.8525,-0.004267416270000948,-0.7815124099999994,0.0018895315100003957,-2.358136925,0.005586972405001175,1.5678587349999995,0.7823149059999992,0.03999994805,0.039999954899999995,-9.545055419656618,-0.04761289834340019,-0.25553081855008913,-0.002023751192730213,0.014889983531717506,0.011974313357793738
0.855,-0.00431006514000095,-0.7814838199999994,0.0019073208200003965,-2.3581548500000005,0.0056398028100011766,1.5678288699999994,0.7822794519999993,0.0399999491,0.0399999558,-9.575947023107416,-0.02172269979634716,-0.22662684567447855,-0.0027671514697003197,0.015122666696850143,0.011830309932585372
0.8575,-0.004352714010000954,-0.7814552299999994,0.0019251101300003979,-2.3581727750000003,0.005692633215001181,1.5677990049999992,0.7822439979999992,0.03999995015,0.0399999567,-9.606838626558217,0.00416749875070703,-0.1977228727988667,-0.0035105517466704596,0.015355349861982793,0.011686306507377
0.86,-0.004395362880000955,-0.7814266399999994,0.0019428994400003984,-2.3581907000000006,0.0057454636200011825,1.5677691399999993,0.7822085439999992,0.0399999512,0.0399999576,-9.637730230009014,0.03005769729776006,-0.16881889992325616,-0.004253952023640565,0.01558803302711543,0.011542303082168635
0.8625,-0.004438011750000958,-0.7813980499999994,0.0019606887500004,-2.3582086250000005,0.005798294025001187,1.5677392749999992,0.7821730899999992,0.03999995225,0.0399999585,-9.668621833459815,0.055947895844814244,-0.1399149270476443,-0.004997352300610705,0.01582071619224808,0.011398299656960265
0.865,-0.0044806606200009595,-0.7813694599999994,0.0019784780600004006,-2.3582265500000004,0.005851124430001188,1.5677094099999993,0.7821376359999992,0.039999953299999995,0.0399999594,-9.699513436910612,0.08183809439186726,-0.11101095417203372,-0.005740752577580812,0.016053399357380718,0.0112542962317519
0.8675,-0.004523886120001002,-0.7813404899999993,0.0019965079700004183,-2.3582446850000007,0.005904669065001242,1.5676791349999992,0.7821017149999991,0.0399999542,0.0399999605,-9.730663141098706,0.10287337212761478,-0.07781451723304536,-0.0061583248237075386,0.016112433599822826,0.011381337613652813
0.87,-0.004568264880001003,-0.7813107599999993,0.002015019080000419,-2.3582632400000008,0.005959642160001243,1.5676480399999992,0.7820648599999991,0.0399999548,0.039999962,-9.762329046761334,0.11419880824173413,-0.036033152168177374,-0.0059242410082136045,0.01582416999691912,0.012050468609717237
