rsonawane2002/My_IMU/logs_2/traj_1000/imu_400hz_1000.csv
time,j1,j2,j3,j4,j5,j6,j7,gripper1,gripper2,imu_ax,imu_ay,imu_az,imu_gx,imu_gy,imu_gz
0.0,0.00016703313,-0.78463066,4.018289e-05,-2.3561552,9.3351664e-05,1.5709763,0.7860001,1.2118691e-05,1.21186895e-05,-9.809999,0.0006323276320472,-0.0050887167,0.0,-0.0,0.0
0.0025,0.0001669771125,-0.784628341,4.0096243399999995e-05,-2.3561570599999997,0.0001035257898999999,1.570976315,0.785999965,0.00048217063234999536,0.0004824116810749955,-9.853198669605716,-0.003879625620696716,-0.02092726620096775,-0.0002623341718439225,-0.0021270875926884393,0.0002149955178714879
0.005,0.000166921095,-0.784626022,4.00095968e-05,-2.35615892,0.0001136999157999998,1.5709763300000001,0.78599983,0.0009522225736999908,0.000952704672649991,-9.896398339211434,-0.008391578873440633,-0.0367658157019355,-0.000524668343687845,-0.004254175185376879,0.0004299910357429758
0.0075,0.0001668650775,-0.784623703,3.99229502e-05,-2.3561607799999997,0.0001238740416999997,1.570976345,0.785999695,0.0014222745150499862,0.0014229976642249863,-9.93959800881715,-0.012903532126184548,-0.05260436520290326,-0.0007870025155317673,-0.006381262778065317,0.0006449865536144637
0.01,0.00016680906,-0.784621384,3.98363036e-05,-2.35616264,0.0001340481675999996,1.57097636,0.78599956,0.0018923264563999816,0.001893290655799982,-9.982797678422866,-0.017415485378928463,-0.068442914703871,-0.00104933668737569,-0.008508350370753757,0.0008599820714859516
0.0125,0.0001667530425,-0.784619065,3.9749657e-05,-2.3561644999999998,0.0001442222934999995,1.5709763749999999,0.785999425,0.002362378397749977,0.0023635836473749772,-10.025997348028584,-0.02192743863167238,-0.08428146420483876,-0.0013116708592196124,-0.010635437963442197,0.0010749775893574396
0.015,0.000166697025,-0.784616746,3.9663010400000003e-05,-2.35616636,0.0001543964193999994,1.57097639,0.78599929,0.0028324303390999724,0.0028338766389499723,-10.0691970176343,-0.026439391884416293,-0.1001200137058065,-0.0015740050310635346,-0.012762525556130635,0.0012899731072289274
0.0175,0.0001666652775,-0.784614485,3.96116417e-05,-2.356168195,0.0001606286350000001,1.570976395,0.7859992,0.0032931983849999722,0.0032947986149999718,-10.084400216103969,-0.029072540818613712,-0.10700140448882195,-0.0014880116324821197,-0.014124195434153206,0.0014355337160799446
0.02,0.00016668207000000002,-0.78461234,3.9630828799999996e-05,-2.35616998,0.0001589770300000001,1.57097638,0.7859992,0.003735398639999973,0.0037369785599999732,-10.043610472301523,-0.02794808111571703,-0.09596847783592756,-0.0007053630930498273,-0.01395502988284359,0.0014422245068899796
0.0225,0.0001666988625,-0.784610195,3.9650015899999994e-05,-2.356171765,0.0001573254250000001,1.570976365,0.7859992,0.0041775988949999746,0.004179158504999975,-10.002820728499078,-0.026823621412820346,-0.08493555118303317,7.728544638246535e-05,-0.013785864331533976,0.0014489152977000147
0.025,0.000166715655,-0.78460805,3.9669203e-05,-2.35617355,0.00015567382000000008,1.57097635,0.7859992,0.004619799149999977,0.0046213384499999765,-9.962030984696634,-0.02569916170992366,-0.07390262453013877,0.0008599339858147586,-0.013616698780224359,0.0014556060885100497
0.0275,0.0001667324475,-0.784605905,3.9688390099999995e-05,-2.356175335,0.00015402221500000009,1.5709763350000001,0.7859992,0.005061999404999978,0.005063518394999978,-9.921241240894188,-0.024574702007026977,-0.06286969787724439,0.0016425825252470512,-0.013447533228914744,0.0014622968793200847
0.03,0.00016674924,-0.78460376,3.97075772e-05,-2.35617712,0.00015237061000000006,1.57097632,0.7859992,0.0055041996599999796,0.005505698339999979,-9.880451497091743,-0.023450242304130293,-0.05183677122435,0.002425231064679344,-0.01327836767760513,0.0014689876701301197
0.0325,0.0001667660325,-0.784601615,3.97267643e-05,-2.356178905,0.00015071900500000007,1.570976305,0.7859992,0.005946399914999982,0.005947878284999982,-9.839661753289299,-0.022325782601233607,-0.0408038445714556,0.0032078796041116373,-0.013109202126295513,0.0014756784609401548
0.035,0.000166793578,-0.7845995800000001,3.97521234e-05,-2.35618065,0.00014921668500000006,1.5709762100000002,0.7859992,0.006365018299999985,0.006366478039999985,-9.822467001946558,-0.02263498376428969,-0.03245376761021492,0.003367442480751006,-0.012968819097032885,0.0013864917226756952
0.0375,0.0001668265,-0.7845976,3.97805685e-05,-2.356182375,0.00014778900750000006,1.5709760750000001,0.7859992,0.006771845749999985,0.006773287699999986,-9.817069746833674,-0.02366101536032229,-0.02544511549480135,0.0032154625259938558,-0.012842827328793755,0.00124936621987398
0.04,0.000166859422,-0.78459562,3.9809013599999996e-05,-2.3561841,0.00014636133000000003,1.57097594,0.7859992,0.007178673199999987,0.007180097359999988,-9.811672491720788,-0.02468704695635489,-0.018436463379387757,0.003063482571236705,-0.012716835560554625,0.0011122407170722644
0.0425,0.000166892344,-0.78459364,3.98374587e-05,-2.356185825,0.00014493365250000002,1.570975805,0.7859992,0.007585500649999989,0.00758690701999999,-9.806275236607904,-0.025713078552387487,-0.011427811263974168,0.0029115026164795543,-0.012590843792315494,0.0009751152142705488
0.045,0.000166925266,-0.78459166,3.98659038e-05,-2.35618755,0.00014350597500000002,1.5709756700000002,0.7859992,0.007992328099999989,0.00799371667999999,-9.800877981495018,-0.026739110148420085,-0.004419159148560593,0.002759522661722404,-0.012464852024076364,0.0008379897114688335
0.0475,0.00016695818800000002,-0.78458968,3.98943489e-05,-2.3561892749999997,0.00014207829750000002,1.570975535,0.7859992,0.008399155549999992,0.008400526339999992,-9.795480726382134,-0.027765141744452684,0.0025894929668529992,0.0026075427069652533,-0.012338860255837233,0.0007008642086671179
0.05,0.00016699111,-0.7845877,3.9922794e-05,-2.356191,0.00014065062000000002,1.5709754,0.7859992,0.008805982999999993,0.008807335999999994,-9.790083471269249,-0.028791173340485282,0.009598145082266585,0.0024555627522081028,-0.012212868487598103,0.0005637387058654023
0.0525,0.00016705618150000001,-0.7845858025,3.997058985e-05,-2.3561927099999997,0.00013944378750000002,1.57097498,0.7859992,0.009180267649999994,0.009181604449999995,-9.79982644503947,-0.027848718259649147,0.0034443409379606126,0.0022391433671794985,-0.01230084924684525,8.914253990289215e-05
0.055,0.00016712125300000002,-0.784583905,4.00183857e-05,-2.35619442,0.000138236955,1.57097456,0.7859992,0.009554552299999996,0.009555872899999996,-9.80956941880969,-0.026906263178812978,-0.002709463206345594,0.0020227239821508924,-0.0123888300060924,-0.00038545362605962494
0.0575,0.0001671863245,-0.7845820075000001,4.006618155e-05,-2.35619613,0.0001370301225,1.57097414,0.7859992,0.009928836949999999,0.009930141349999998,-9.819312392579912,-0.025963808097976812,-0.0088632673506518,0.0018063045971222864,-0.01247681076533955,-0.0008600497920221422
0.06,0.000167251396,-0.78458011,4.01139774e-05,-2.35619784,0.00013582329,1.57097372,0.7859992,0.010303121599999998,0.010304409799999999,-9.829055366350133,-0.025021353017140643,-0.015017071494957988,0.001589885212093681,-0.0125647915245867,-0.001334645957984658
0.0625,0.0001673164675,-0.7845782125,4.016177325e-05,-2.35619955,0.00013461645750000002,1.5709733,0.7859992,0.01067740625,0.01067867825,-9.838798340120352,-0.024078897936304473,-0.021170875639264196,0.001373465827065075,-0.01265277228383385,-0.0018092421239471752
0.065,0.00016738153900000002,-0.784576315,4.02095691e-05,-2.3562012599999997,0.00013340962500000002,1.57097288,0.7859992,0.011051690900000001,0.011052946700000002,-9.848541313890573,-0.023136442855468307,-0.027324679783570404,0.0011570464420364692,-0.012740753043081,-0.0022838382899096924
0.0675,0.0001674641105,-0.7845744625000001,4.026807175e-05,-2.35620297,0.000132278306,1.570972455,0.7859992,0.011415995750000003,0.011417235750000004,-9.852995503871846,-0.022702280138806586,-0.03146199510457956,0.0009043545117921921,-0.012707521558283327,-0.0026242608086366006
0.07,0.00016758168200000002,-0.7845727,4.0347988e-05,-2.35620468,0.000131298014,1.57097202,0.7859992,0.011760341000000004,0.011761566000000005,-9.846872126275219,-0.02328470215049373,-0.03156633277899474,0.0005791174911165757,-0.012431865585396017,-0.002696336032892301
0.0725,0.0001676992535,-0.7845709375000001,4.042790425e-05,-2.35620639,0.00013031772199999998,1.570971585,0.7859992,0.012104686250000005,0.012105896250000005,-9.84074874867859,-0.02386712416218087,-0.03167067045340992,0.000253880470440961,-0.012156209612508706,-0.002768411257148001
0.075,0.000167816825,-0.784569175,4.0507820500000005e-05,-2.3562081,0.00012933742999999997,1.5709711499999999,0.7859992,0.012449031500000006,0.012450226500000007,-9.834625371081964,-0.02444954617386801,-0.0317750081278251,-7.135655023465543e-05,-0.011880553639621394,-0.0028404864814037013
0.0775,0.0001679343965,-0.7845674125,4.058773675000001e-05,-2.3562098099999997,0.00012835713799999997,1.570970715,0.7859992,0.012793376750000007,0.012794556750000009,-9.828501993485338,-0.025031968185555153,-0.03187934580224028,-0.00039659357091027195,-0.011604897666734084,-0.0029125617056594017
0.08,0.00016805196800000002,-0.78456565,4.0667653e-05,-2.35621152,0.00012737684599999996,1.57097028,0.7859992,0.013137722000000008,0.013138887000000009,-9.82237861588871,-0.025614390197242296,-0.031983683476655464,-0.0007218305915858885,-0.011329241693846772,-0.0029846369299151017
0.0825,0.0001681695395,-0.7845638875,4.0747569250000004e-05,-2.35621323,0.00012639655399999996,1.570969845,0.7859992,0.01348206725000001,0.01348321725000001,-9.816255238292083,-0.02619681220892944,-0.03208802115107064,-0.0010470676122615048,-0.011053585720959462,-0.003056712154170802
0.085,0.000168338317,-0.7845621399999999,4.0859030400000005e-05,-2.35621495,0.00012557560549999997,1.57096941,0.7859992,0.01380804990000001,0.01380918580000001,-9.813725726358966,-0.023548692876534525,-0.029571642714517548,-0.001288418153114167,-0.011025544484602823,-0.0029421280353199627
0.08750000000000001,0.0001685326975,-0.7845603999999999,4.0986264000000006e-05,-2.356216675,0.00012483432874999995,1.570968975,0.7859992,0.014124851250000011,0.014125973500000012,-9.812993147257602,-0.01928530287209881,-0.0257449062224805,-0.001487825454055358,-0.011121310616511504,-0.0027342142449158667
0.09,0.000168727078,-0.78455866,4.111349760000001e-05,-2.3562184,0.00012409305199999996,1.57096854,0.7859992,0.01444165260000001,0.014442761200000011,-9.81226056815624,-0.01502191286766312,-0.021918169730443474,-0.0016872327549965476,-0.011217076748420183,-0.002526300454511772
0.0925,0.0001689214585,-0.78455692,4.124073120000001e-05,-2.356220125,0.00012335177524999997,1.5709681050000002,0.7859992,0.014758453950000012,0.014759548900000013,-9.811527989054877,-0.010758522863227406,-0.01809143323840643,-0.0018866400559377386,-0.011312842880328864,-0.0023183866641076764
0.095,0.00016911583900000002,-0.7845551799999999,4.13679648e-05,-2.3562218500000003,0.00012261049849999995,1.5709676700000001,0.7859992,0.015075255300000014,0.015076336600000014,-9.810795409953514,-0.006495132858791691,-0.01426469674636938,-0.0020860473568789293,-0.011408609012237544,-0.0021104728737035804
0.0975,0.0001693102195,-0.7845534399999999,4.14951984e-05,-2.356223575,0.00012186922174999996,1.5709672350000001,0.7859992,0.015392056650000015,0.015393124300000015,-9.810062830852152,-0.0022317428543559767,-0.010437960254332336,-0.00228545465782012,-0.011504375144146225,-0.0019025590832994843
0.1,0.00016950460000000002,-0.7845517,4.162243200000001e-05,-2.3562253,0.00012112794499999997,1.5709668,0.7859992,0.015708858000000017,0.015709912000000017,-9.809330251750788,0.0020316471500795596,-0.006611223762295598,-0.0024848619587612675,-0.011600141276054944,-0.0016946452928954126
0.10250000000000001,0.00016980365800000003,-0.78454996,4.1814320700000007e-05,-2.35622701,0.00012064403074999996,1.57096638,0.785998915,0.016000317750000017,0.016001359150000016,-9.810718262017376,0.003098748673725789,-0.008357183365346445,-0.001899598147684165,-0.012395626317375188,-0.0019215820281789637
0.105,0.00017010271600000003,-0.7845482199999999,4.200620940000001e-05,-2.3562287200000003,0.00012016011649999997,1.57096596,0.78599863,0.016291777500000017,0.016292806300000018,-9.812106272283962,0.004165850197372013,-0.010103142968397283,-0.0013143343366070657,-0.013191111358695428,-0.0021485187634625136
0.1075,0.00017040177400000003,-0.7845464799999999,4.219809810000001e-05,-2.35623043,0.00011967620224999998,1.57096554,0.785998345,0.016583237250000018,0.016584253450000017,-9.81349428255055,0.005232951721018242,-0.011849102571448132,-0.0007290705255299631,-0.01398659640001567,-0.0023754554987460647
0.11,0.00017070083200000004,-0.78454474,4.2389986800000014e-05,-2.3562321400000004,0.00011919228799999997,1.57096512,0.78599806,0.01687469700000002,0.01687570060000002,-9.814882292817137,0.006300053244664472,-0.01359506217449898,-0.00014380671445286038,-0.014782081441335915,-0.0026023922340296154
0.1125,0.00017099989000000004,-0.784543,4.2581875500000016e-05,-2.35623385,0.00011870837374999996,1.5709647,0.785997775,0.017166156750000022,0.01716714775000002,-9.816270303083725,0.007367154768310701,-0.015341021777549826,0.00044145709662424216,-0.015577566482656156,-0.0028293289693131665
0.115,0.00017129894800000005,-0.7845412599999999,4.277376420000002e-05,-2.35623556,0.00011822445949999996,1.57096428,0.78599749,0.017457616500000023,0.017458594900000023,-9.81765831335031,0.008434256291956932,-0.017086981380600674,0.0010267209077013447,-0.0163730515239764,-0.0030562657045967176
0.11750000000000001,0.00017164323550000006,-0.784539515,4.2993631500000024e-05,-2.3562372700000003,0.00011783431049999999,1.57096385,0.785997203,0.017741304750000023,0.01774227095000002,-9.816566629032774,0.007904345842539308,-0.01734660810472695,0.0013070822066247084,-0.01670584780996009,-0.00279540278092718
0.12,0.00017207798200000003,-0.78453776,4.326945600000002e-05,-2.35623898,0.00011763169199999999,1.5709634000000001,0.785996912,0.01800945000000002,0.018010404800000022,-9.810515555546989,0.0041804114469951425,-0.014633569071005163,0.0009776384812408138,-0.016113266585271013,-0.0015589405393518212
0.1225,0.00017251272850000003,-0.784536005,4.354528050000002e-05,-2.3562406900000004,0.00011742907349999998,1.57096295,0.785996621,0.01827759525000002,0.018278538650000023,-9.804464482061205,0.0004564770514509566,-0.01192053003728336,0.0006481947558569173,-0.01552068536058193,-0.0003224782977764556
0.125,0.00017294747500000004,-0.78453425,4.382110500000003e-05,-2.3562424,0.00011722645499999998,1.5709625,0.78599633,0.018545740500000022,0.018546672500000024,-9.79841340857542,-0.0032674573440932293,-0.009207491003561559,0.00031875103047302074,-0.014928104135892847,0.0009139839437989098
0.1275,0.00017338222150000004,-0.784532495,4.4096929500000026e-05,-2.35624411,0.00011702383649999997,1.57096205,0.785996039,0.018813885750000023,0.018814806350000025,-9.792362335089635,-0.006991391739637417,-0.006494451969839757,-1.0692694910875667e-05,-0.014335522911203765,0.002150446185374276
0.13,0.00017381696800000004,-0.78453074,4.4372754000000024e-05,-2.3562458200000003,0.00011682121799999998,1.5709616,0.785995748,0.019082031000000027,0.019082940200000027,-9.786311261603851,-0.010715326135181603,-0.0037814129361179536,-0.0003401364202947721,-0.013742941686514682,0.0033869084269496415
0.1325,0.00017425171450000004,-0.784528985,4.464857850000002e-05,-2.35624753,0.00011661859949999998,1.57096115,0.7859954570000001,0.019350176250000028,0.019351074050000028,-9.780260188118067,-0.014439260530725789,-0.0010683739023961518,-0.0006695801456786685,-0.013150360461825598,0.004623370668525007
0.135,0.00017479947700000008,-0.78452714,4.499436700000004e-05,-2.35624927,0.000116622599,1.57096065,0.7859951700000001,0.019604022200000026,0.019604909200000027,-9.78159749219799,-0.017021874142821084,0.0007441328701165453,-0.0009388127819633355,-0.012911996104788194,0.004429146300769063
0.1375,0.00017540374750000008,-0.78452525,4.537513750000004e-05,-2.356251025,0.0001167299075,1.570960125,0.785994885,0.019850718500000027,0.019851595000000027,-9.786628985060766,-0.019033827363192198,0.002106373512024901,-0.0011779398736984016,-0.012850740181576543,0.0035195786283477993
0.14,0.00017600801800000008,-0.78452336,4.575590800000004e-05,-2.35625278,0.00011683721600000001,1.5709596000000001,0.7859946,0.02009741480000003,0.020098280800000028,-9.791660477923543,-0.021045780583563312,0.0034686141539332573,-0.0014170669654334676,-0.012789484258364892,0.0026100109559265353
0.14250000000000002,0.00017661228850000008,-0.7845214699999999,4.613667850000005e-05,-2.356254535,0.00011694452450000002,1.570959075,0.785994315,0.02034411110000003,0.02034496660000003,-9.796691970786318,-0.023057733803934426,0.004830854795841614,-0.0016561940571685335,-0.012728228335153241,0.0017004432835052712
0.145,0.00017721655900000008,-0.78451958,4.6517449000000044e-05,-2.35625629,0.000117051833,1.57095855,0.78599403,0.02059080740000003,0.020591652400000028,-9.801723463649095,-0.02506968702430552,0.006193095437749955,-0.0018953211489035969,-0.012666972411941592,0.0007908756110840175
0.1475,0.00017782082950000008,-0.7845176899999999,4.689821950000004e-05,-2.356258045,0.00011715914150000001,1.570958025,0.7859937450000001,0.02083750370000003,0.02083833820000003,-9.80675495651187,-0.027081640244676634,0.007555336079658311,-0.0021344482406386632,-0.012605716488729941,-0.00011869206133724702
0.15,0.0001784251000000001,-0.7845158,4.727899000000006e-05,-2.3562598,0.00011726645000000006,1.5709575,0.78599346,0.02108420000000003,0.02108502400000003,-9.811786449374646,-0.029093593465047068,0.008917576721566253,-0.002373575332373678,-0.012544460565518247,-0.001028259733758316
0.1525,0.0001792352335000001,-0.78451379,4.778722600000006e-05,-2.35626166,0.00011771673500000005,1.57095651,0.785992896,0.02131116380000003,0.02131197775000003,-9.811389790609628,-0.025528675968752433,0.006904723382933249,-0.002193263356396057,-0.0121229861186452,-0.0003388256436883478
0.155,0.0001800453670000001,-0.78451178,4.829546200000006e-05,-2.35626352,0.00011816702000000006,1.57095552,0.7859923320000001,0.02153812760000003,0.021538931500000028,-9.81099313184461,-0.021963758472457802,0.004891870044300246,-0.002012951380418436,-0.011701511671772155,0.00035060844638162033
0.1575,0.00018085550050000012,-0.78450977,4.8803698000000064e-05,-2.35626538,0.00011861730500000006,1.57095453,0.785991768,0.021765091400000033,0.02176588525000003,-9.810596473079592,-0.01839884097616317,0.0028790167056672424,-0.0018326394044408155,-0.011280037224899108,0.0010400425364515886
0.16,0.0001816656340000001,-0.78450776,4.9311934000000065e-05,-2.3562672399999998,0.00011906759000000007,1.5709535399999999,0.785991204,0.021992055200000034,0.02199283900000003,-9.810199814314572,-0.014833923479868541,0.0008661633670342377,-0.0016523274284631947,-0.01085856277802606,0.0017294766265215566
0.1625,0.00018247576750000014,-0.78450575,4.9820170000000074e-05,-2.3562691,0.00011951787500000007,1.57095255,0.78599064,0.022219019000000034,0.022219792750000033,-9.809803155549554,-0.011269005983573912,-0.0011466899715987643,-0.0014720154524855739,-0.010437088331153014,0.0024189107165915246
0.165,0.00018328590100000013,-0.78450374,5.0328406000000075e-05,-2.35627096,0.00011996816000000007,1.57095156,0.785990076,0.022445982800000035,0.02244674650000003,-9.809406496784536,-0.007704088487279281,-0.003159543310231768,-0.001291703476507953,-0.010015613884279967,0.0031083448066614922
0.1675,0.00018417749400000016,-0.7845016650000001,5.08870907000001e-05,-2.3562729399999998,0.00012054504150000014,1.5709505449999999,0.7859895100000001,0.022666894700000034,0.02266764875000003,-9.810325577101546,-0.004515494427596447,-0.003005170884927592,-0.0011842506235360307,-0.009911099385526045,0.0033608485572488096
0.17,0.00018523200600000018,-0.78449946,5.1546672800000104e-05,-2.35627516,0.00012137511600000014,1.57094948,0.78598894,0.022875702800000033,0.022876448000000032,-9.813876135582612,-0.002079547241136696,0.0014836530682479877,-0.0012225160165754059,-0.010440504783009943,0.002739491628871422
0.17250000000000001,0.00018628651800000018,-0.784497255,5.22062549000001e-05,-2.35627738,0.00012220519050000015,1.570948415,0.78598837,0.023084510900000035,0.02308524725000003,-9.817426694063677,0.0003563999453230554,0.005972477021423568,-0.0012607814096147812,-0.01096991018049384,0.002118134700494034
0.17500000000000002,0.00018734103000000017,-0.78449505,5.286583700000011e-05,-2.3562796,0.00012303526500000015,1.57094735,0.7859878,0.023293319000000035,0.023294046500000033,-9.820977252544743,0.0027923471317828066,0.010461300974599148,-0.0012990468026541563,-0.011499315577977738,0.0014967777721166461
0.1775,0.00018839554200000017,-0.784492845,5.3525419100000106e-05,-2.35628182,0.00012386533950000016,1.570946285,0.78598723,0.023502127100000034,0.023502845750000032,-9.824527811025808,0.00522829431824253,0.014950124927774679,-0.001337312195693531,-0.01202872097546163,0.0008754208437392655
0.18,0.0001894500540000002,-0.78449064,5.418500120000011e-05,-2.35628404,0.00012469541400000016,1.57094522,0.7859866600000001,0.023710935200000036,0.02371164500000003,-9.828078369506875,0.007664241504702281,0.019438948880950258,-0.0013755775887329062,-0.012558126372945528,0.00025406391536187756
0.1825,0.00019050456600000018,-0.784488435,5.484458330000011e-05,-2.35628626,0.00012552548850000016,1.570944155,0.78598609,0.023919743300000035,0.023920444250000034,-9.83162892798794,0.010100188691162033,0.023927772834125838,-0.0014138429817722815,-0.013087531770429425,-0.0003672930130155104
0.185,0.00019174896500000023,-0.784486075,5.5621747600000144e-05,-2.35628888,0.00012663553900000023,1.57094275,0.78598536,0.024117416600000035,0.02411810910000003,-9.83536530326616,0.011121714759615925,0.018739090615958416,-0.0015972767882351444,-0.01341972161048912,-0.0006536034099582805
0.1875,0.00019308830750000024,-0.7844836374999999,5.645770300000015e-05,-2.3562917,0.00012788557750000024,1.570941175,0.78598455,0.024309522500000035,0.02431020675000003,-9.839194586942957,0.011436030269067431,0.008711655312123198,-0.0018532948014096955,-0.013653303671836791,-0.0007723905411838711
0.19,0.00019442765000000025,-0.7844812,5.729365840000015e-05,-2.35629452,0.00012913561600000022,1.5709396,0.78598374,0.024501628400000038,0.024502304400000036,-9.843023870619755,0.011750345778518937,-0.001315779991712021,-0.0021093128145842467,-0.013886885733184463,-0.0008911776724094616
0.1925,0.00019576699250000026,-0.7844787624999999,5.812961380000016e-05,-2.35629734,0.00013038565450000024,1.570938025,0.78598293,0.024693734300000037,0.024694402050000036,-9.846853154296552,0.012064661287970443,-0.011343215295547236,-0.002365330827758798,-0.014120467794532132,-0.001009964803635052
0.195,0.00019710633500000024,-0.784476325,5.8965569200000164e-05,-2.35630016,0.00013163569300000025,1.57093645,0.78598212,0.024885840200000037,0.024886499700000037,-9.850682437973349,0.01237897679742195,-0.02137065059938245,-0.002621348840933349,-0.014354049855879803,-0.0011287519348606428
0.1975,0.00019844567750000025,-0.7844738874999999,5.9801524600000165e-05,-2.3563029799999997,0.00013288573150000023,1.570934875,0.7859813099999999,0.02507794610000004,0.025078597350000037,-9.854511721650146,0.012693292306873456,-0.03139808590321767,-0.0028773668541079,-0.014587631917227475,-0.0012475390660862333
0.2,0.0001997850200000003,-0.78447145,6.063748000000021e-05,-2.3563058,0.00013413577000000035,1.5709333,0.7859805,0.025270052000000036,0.025270695000000034,-9.858341005326942,0.013007607816324214,-0.04142552120705006,-0.0031333848672823327,-0.014821213978575032,-0.001366326197311762
0.2025,0.00020145131600000032,-0.7844687124999999,6.167589100000022e-05,-2.356308815,0.00013584901600000035,1.5709316800000002,0.785979645,0.025446791150000037,0.025447426350000035,-9.849316330254624,0.009580808745834515,-0.037214241213010854,-0.0027977547739958214,-0.0144865758559029,-0.0011755894284117994
0.20500000000000002,0.00020311761200000035,-0.7844659749999999,6.271430200000021e-05,-2.35631183,0.00013756226200000037,1.57093006,0.7859787899999999,0.025623530300000037,0.025624157700000035,-9.840291655182305,0.006154009675344815,-0.03300296121897166,-0.0024621246807093097,-0.01415193773323077,-0.0009848526595118367
0.20750000000000002,0.00020478390800000035,-0.7844632374999999,6.375271300000022e-05,-2.356314845,0.00013927550800000037,1.57092844,0.785977935,0.025800269450000038,0.025800889050000036,-9.831266980109987,0.0027272106048551147,-0.02879168122493246,-0.0021264945874227984,-0.013817299610558638,-0.000794115890611874
0.21,0.00020645020400000033,-0.7844605,6.479112400000022e-05,-2.35631786,0.00014098875400000036,1.57092682,0.78597708,0.02597700860000004,0.025977620400000036,-9.822242305037669,-0.0006995884656345458,-0.02458040123089331,-0.0017908644941362906,-0.01348266148788651,-0.0006033791217119135
0.2125,0.00020811650000000033,-0.7844577625,6.582953500000022e-05,-2.3563208749999998,0.00014270200000000036,1.5709252,0.785976225,0.02615374775000004,0.026154351750000037,-9.81321762996535,-0.004126387536124246,-0.02036912123685411,-0.001455234400849779,-0.01314802336521438,-0.00041264235281195084
0.215,0.00020978279600000036,-0.784455025,6.686794600000023e-05,-2.35632389,0.00014441524600000038,1.57092358,0.78597537,0.02633048690000004,0.026331083100000038,-9.804192954893034,-0.007553186606613945,-0.01615784124281491,-0.0011196043075632676,-0.012813385242542247,-0.0002219055839119881
0.2175,0.00021157260600000044,-0.7844521849999999,6.798283050000027e-05,-2.3563270199999997,0.00014629815100000048,1.57092178,0.78597442,0.026502513750000036,0.026503102500000035,-9.79663397516923,-0.008291603505432336,-0.011690891111792681,-0.000827576586738415,-0.012537296775598695,-7.668082075037834e-05
0.22,0.00021360944400000044,-0.78444914,6.925066200000028e-05,-2.3563303799999997,0.0001485203740000005,1.57091962,0.78597328,0.026665116000000037,0.026665698000000036,-9.792006386142456,-0.003653256060913381,-0.006712600706804883,-0.0006227536108367941,-0.012378307620112184,-2.2480069065384896e-05
0.2225,0.00021564628200000045,-0.784446095,7.05184935000003e-05,-2.3563337399999997,0.0001507425970000005,1.57091746,0.7859721399999999,0.02682771825000004,0.026828293500000037,-9.78737879711568,0.0009850913836055748,-0.0017343103018170863,-0.0004179306349351732,-0.012219318464625675,3.1720682619608545e-05
0.225,0.00021768312000000048,-0.7844430499999999,7.17863250000003e-05,-2.3563371,0.00015296482000000053,1.5709153,0.785971,0.026990320500000036,0.026990889000000035,-9.782751208088904,0.0056234388281245305,0.0032439801031707103,-0.00021310765903355226,-0.012060329309139164,8.592143430460197e-05
0.2275,0.00021971995800000048,-0.784440005,7.30541565000003e-05,-2.35634046,0.00015518704300000052,1.57091314,0.78596986,0.027152922750000037,0.027153484500000036,-9.778123619062129,0.010261786272643486,0.00822227050815851,-8.284683131931344e-06,-0.011901340153652653,0.00014012218598959543
0.23,0.0002217567960000005,-0.78443696,7.432198800000032e-05,-2.35634382,0.00015740926600000052,1.57091098,0.78596872,0.02731552500000004,0.027316080000000038,-9.773496030035353,0.014900133717162443,0.013200560913146307,0.00019653829276968958,-0.011742350998166142,0.00019432293767458888
0.2325,0.0002237936340000005,-0.784433915,7.558981950000031e-05,-2.35634718,0.00015963148900000054,1.57090882,0.78596758,0.02747812725000004,0.02747867550000004,-9.768868441008578,0.019538481161681397,0.018178851318134105,0.0004013612686713105,-0.011583361842679631,0.00024852368935958234
0.23500000000000001,0.0002261073650000006,-0.78443059,7.70290770000004e-05,-2.35635099,0.00016222504000000068,1.5709063,0.785966243,0.027632057700000035,0.027632599400000037,-9.771912132078455,0.01948286032184633,0.017671161040896947,0.0002694419040259147,-0.01169015650798551,0.00040260556886986115
0.23750000000000002,0.00022855954250000063,-0.784427125,7.855404750000039e-05,-2.356355025,0.0001650042550000007,1.5709036,0.7859648075,0.02778165225000004,0.027782187500000038,-9.778791463196656,0.017080255339836863,0.014420480422550373,-3.084863089280158e-05,-0.011929843083687436,0.0006066280122927271
0.24,0.0002310117200000006,-0.78442366,8.007901800000038e-05,-2.35635906,0.00016778347000000069,1.5709009,0.785963372,0.027931246800000035,0.027931775600000035,-9.785670794314855,0.014677650357827421,0.011169799804203833,-0.00033113916581151457,-0.01216952965938936,0.0008106504557155907
0.2425,0.0002334638975000006,-0.784420195,8.160398850000038e-05,-2.356363095,0.0001705626850000007,1.5708982,0.7859619365,0.028080841350000038,0.028081363700000035,-9.792550125433056,0.012275045375817957,0.007919119185857259,-0.0006314297007302308,-0.012409216235091286,0.0010146728991384565
0.245,0.00023591607500000064,-0.78441673,8.312895900000039e-05,-2.35636713,0.00017334190000000072,1.5708955,0.7859605009999999,0.028230435900000038,0.028230951800000036,-9.799429456551255,0.009872440393808489,0.004668438567510685,-0.000931720235648947,-0.01264890281079321,0.0012186953425613225
0.2475,0.00023836825250000065,-0.7844132650000001,8.46539295000004e-05,-2.356371165,0.00017612111500000074,1.5708928,0.7859590654999999,0.028380030450000038,0.028380539900000036,-9.806308787669456,0.007469835411799023,0.0014177579491641105,-0.0012320107705676635,-0.012888589386495137,0.0014227177859841883
0.25,0.0002408204300000008,-0.7844098,8.617890000000048e-05,-2.3563752,0.0001789003300000009,1.5708901,0.78595763,0.028529625000000038,0.028530128000000037,-9.813188118787652,0.005067230429791167,-0.0018329226691823478,-0.0015323013054863513,-0.013128275962196833,0.0016267402294068674
0.2525,0.00024373381850000076,-0.7844058850000001,8.798937150000047e-05,-2.35637967,0.00018228667600000086,1.57088716,0.7859559905,0.028667253750000034,0.028667750750000033,-9.809698080939814,0.00869774173311817,-0.004639809060928348,-0.0017255726768241398,-0.012506127553815048,0.001129560611144577
0.255,0.0002466472070000007,-0.78440197,8.979984300000045e-05,-2.35638414,0.00018567302200000083,1.57088422,0.785954351,0.028804882500000035,0.028805373500000033,-9.806208043091974,0.012328253036445174,-0.007446695452674348,-0.001918844048161928,-0.011883979145433266,0.0006323809928822865
0.2575,0.00024956059550000067,-0.784398055,9.161031450000042e-05,-2.35638861,0.0001890593680000008,1.57088128,0.7859527115,0.02894251125000003,0.028942996250000033,-9.802718005244136,0.015958764339772176,-0.010253581844420349,-0.002112115419499716,-0.01126183073705148,0.000135201374619996
0.26,0.00025247398400000064,-0.7843941400000001,9.34207860000004e-05,-2.35639308,0.00019244571400000077,1.57087834,0.785951072,0.029080140000000032,0.029080619000000033,-9.799227967396297,0.019589275643099178,-0.013060468236166349,-0.0023053867908375044,-0.010639682328669697,-0.0003619782436422947
0.2625,0.0002553873725000006,-0.784390225,9.523125750000039e-05,-2.35639755,0.00019583206000000074,1.5708754,0.7859494324999999,0.02921776875000003,0.02921824175000003,-9.795737929548459,0.02321978694642618,-0.01586735462791235,-0.002498658162175293,-0.01001753392028791,-0.000859157861904585
0.265,0.0002583007610000006,-0.78438631,9.704172900000037e-05,-2.35640202,0.00019921840600000074,1.5708724600000001,0.785947793,0.02935539750000003,0.02935586450000003,-9.792247891700619,0.026850298249753185,-0.01867424101965835,-0.002691929533513081,-0.009395385511906128,-0.0013563374801668757
0.2675,0.00026138345900000073,-0.78438222,9.895699250000044e-05,-2.356406765,0.00020282433000000087,1.57086935,0.7859460665,0.029489356400000024,0.02948981775000003,-9.79043238434301,0.02905534510614533,-0.02021828291860896,-0.002818439347339334,-0.009081180172567874,-0.0014681788464503496
0.27,0.0002648047760000008,-0.78437778,0.00010108184000000048,-2.3564120600000003,0.00020686941000000092,1.5708659,0.7859441659999999,0.029615975600000028,0.02961643200000003,-9.791965937965855,0.028409463068670412,-0.019236635831971154,-0.0028114260461426384,-0.009382860971316109,-0.0008093437087769078
0.2725,0.0002682260930000008,-0.78437334,0.00010320668750000052,-2.356417355,0.000210914490000001,1.57086245,0.7859422655,0.029742594800000032,0.029743046250000033,-9.793499491588703,0.027763581031195497,-0.018254988745333347,-0.0028044127449459435,-0.009684541770064345,-0.0001505085711034661
0.275,0.0002716474100000009,-0.7843689,0.00010533153500000056,-2.3564226500000003,0.00021495957000000108,1.570859,0.785940365,0.029869214000000033,0.029869660500000034,-9.795033045211548,0.027117698993720577,-0.01727334165869554,-0.002797399443749248,-0.00998622256881258,0.0005083265665699757
0.2775,0.00027506872700000095,-0.78436446,0.0001074563825000006,-2.356427945,0.00021900465000000114,1.5708555499999999,0.7859384644999999,0.029995833200000037,0.029996274750000038,-9.796566598834396,0.02647181695624566,-0.01629169457205773,-0.0027903861425525533,-0.010287903367560816,0.0011671617042434174
0.28,0.000278490044000001,-0.78436002,0.00010958123000000063,-2.35643324,0.00022304973000000122,1.5708521,0.785936564,0.030122452400000038,0.030122889000000038,-9.798100152457241,0.025825934918770745,-0.015310047485419923,-0.002783372841355858,-0.010589584166309052,0.001825996841916859
0.28250000000000003,0.0002819113610000011,-0.78435558,0.00011170607750000067,-2.356438535,0.0002270948100000013,1.5708486499999998,0.7859346635,0.03024907160000004,0.030249503250000042,-9.799633706080087,0.02518005288129583,-0.014328400398782117,-0.002776359540159163,-0.010891264965057287,0.0024848319795903006
0.28500000000000003,0.00028570291500000126,-0.78435076,0.00011406006500000079,-2.35644447,0.00023161454600000153,1.57084482,0.7859325519999999,0.030368938600000037,0.030369365200000036,-9.800566003689347,0.022696014978363162,-0.015070262872480852,-0.0030239228908564,-0.010982880056941537,0.00270416553007985
0.28750000000000003,0.0002896795875000012,-0.7843457500000001,0.00011652862250000077,-2.356450725,0.00023637161000000147,1.5708408,0.785930335,0.030485429500000036,0.030485851000000036,-9.801197673291814,0.01929289914270297,-0.0166738801263466,-0.0033987745675004167,-0.010969462295393946,0.002703748286977775
0.29,0.0002936562600000011,-0.78434074,0.00011899718000000069,-2.35645698,0.00024112867400000133,1.57083678,0.785928118,0.030601920400000034,0.030602336800000032,-9.80182934289428,0.015889783307042847,-0.01827749738021231,-0.003773626244144425,-0.010956044533846358,0.0027033310438757
0.2925,0.0002976329325000011,-0.78433573,0.00012146573750000068,-2.356463235,0.0002458857380000013,1.57083276,0.7859259009999999,0.030718411300000033,0.030718822600000032,-9.802461012496746,0.012486667471382653,-0.019881114634078052,-0.004148477920788441,-0.010942626772298767,0.002702913800773625
0.295,0.00030160960500000104,-0.78433072,0.00012393429500000066,-2.3564694900000003,0.00025064280200000127,1.57082874,0.7859236839999999,0.03083490220000003,0.030835308400000032,-9.803092682099212,0.00908355163572246,-0.0214847318879438,-0.004523329597432459,-0.010929209010751176,0.00270249655767155
0.2975,0.000305586277500001,-0.78432571,0.00012640285250000062,-2.356475745,0.0002553998660000012,1.57082472,0.785921467,0.03095139310000003,0.030951794200000028,-9.803724351701678,0.005680435800062264,-0.023088349141809544,-0.004898181274076475,-0.010915791249203588,0.002702079314569475
0.3,0.0003095629500000011,-0.7843207,0.0001288714100000007,-2.356482,0.0002601569300000014,1.5708207,0.78591925,0.031067884000000028,0.031068280000000028,-9.804356021304145,0.0022773199644030738,-0.02469196639567436,-0.005273032950720259,-0.010902373487655805,0.002701662071467169
0.3025,0.00031414297050000117,-0.784315051,0.00013171332800000074,-2.3564885550000003,0.00026568027650000146,1.570816035,0.7859166925,0.03117505690000003,0.03117544825000003,-9.805311684332962,0.002988891608557031,-0.022494018798067453,-0.004692963764207753,-0.0100980900065431,0.0017561492360221474
0.305,0.00031872299100000126,-0.784309402,0.0001345552460000008,-2.35649511,0.00027120362300000155,1.57081137,0.785914135,0.031282229800000026,0.03128261650000003,-9.806267347361777,0.0037004632527109886,-0.020296071200460543,-0.004112894577695248,-0.009293806525430395,0.0008106364005771257
0.3075,0.00032330301150000135,-0.784303753,0.00013739716400000085,-2.356501665,0.0002767269695000017,1.570806705,0.7859115775,0.031389402700000034,0.03138978475000003,-9.807223010390594,0.0044120348968649465,-0.018098123602853636,-0.0035328253911827427,-0.00848952304431769,-0.00013487643486789595
0.31,0.00032788303200000145,-0.784298104,0.0001402390820000009,-2.3565082200000003,0.0002822503160000018,1.57080204,0.78590902,0.031496575600000035,0.031496953000000036,-9.80817867341941,0.005123606541018904,-0.01590017600524673,-0.0029527562046702373,-0.007685239563204986,-0.001080389270312918
0.3125,0.00033246305250000154,-0.784292455,0.00014308100000000096,-2.3565147750000004,0.00028777366250000186,1.570797375,0.7859064625,0.031603748500000035,0.031604121250000033,-9.809134336448226,0.005835178185172861,-0.013702228407639818,-0.002372687018157732,-0.006880956082092282,-0.0020259021057579393
0.315,0.00033704307300000164,-0.784286806,0.000145922918000001,-2.35652133,0.00029329700900000195,1.5707927099999999,0.785903905,0.031710921400000036,0.03171128950000004,-9.810089999477043,0.00654674982932682,-0.01150428081003291,-0.001792617831645227,-0.006076672600979578,-0.0029714149412029614
0.3175,0.0003418403450000019,-0.784280933,0.0001488992655000012,-2.3565282350000003,0.00029909416450000234,1.57078781,0.785901245,0.03181523675000003,0.03181560065000003,-9.810798129654396,0.006436223225135356,-0.009451051873394413,-0.0015564365867858396,-0.0056358202928688496,-0.0033274289086529405
0.32,0.00034707212000000193,-0.784274612,0.0001521444720000012,-2.3565358400000003,0.0003054389380000024,1.57078244,0.78589838,0.031913837000000035,0.031914197600000034,-9.811011194128822,0.004681500124255732,-0.00768726025869227,-0.0020080312252315664,-0.005921830330760885,-0.0025044451401147567
0.3225,0.00035230389500000194,-0.7842682910000001,0.00015538967850000122,-2.3565434450000002,0.00031178371150000235,1.5707770699999999,0.785895515,0.03201243725000003,0.032012794550000036,-9.81122425860325,0.0029267770233761103,-0.005923468643990127,-0.0024596258636772938,-0.006207840368652922,-0.001681461371576573
0.325,0.00035753567000000196,-0.78426197,0.00015863488500000123,-2.35655105,0.0003181284850000024,1.5707716999999999,0.78589265,0.032111037500000036,0.03211139150000004,-9.811437323077676,0.0011720539224964873,-0.004159677029287984,-0.00291122050212302,-0.006493850406544958,-0.0008584776030383895
0.3275,0.000362767445000002,-0.784255649,0.00016188009150000125,-2.3565586549999997,0.0003244732585000024,1.57076633,0.785889785,0.032209637750000034,0.03220998845000004,-9.811650387552103,-0.0005826691783831356,-0.002395885414585841,-0.0033628151405687475,-0.0067798604444369946,-3.549383450020564e-05
0.33,0.00036799922000000203,-0.784249328,0.00016512529800000126,-2.3565662599999997,0.00033081803200000245,1.57076096,0.7858869199999999,0.03230823800000004,0.032308585400000034,-9.81186345202653,-0.0023373922792627585,-0.0006320937998836977,-0.003814409779014475,-0.007065870482329031,0.0007874899340379778
0.3325,0.00037323099500000204,-0.784243007,0.00016837050450000125,-2.3565738649999997,0.0003371628055000025,1.57075559,0.7858840549999999,0.032406838250000035,0.032407182350000036,-9.812076516500957,-0.004092115380142381,0.0011316978148184446,-0.004266004417460201,-0.0073518805202210675,0.0016104737025761616
0.335,0.00037892977200000235,-0.78423619,0.00017190465100000145,-2.3565821999999996,0.00034409269700000285,1.57074971,0.78588092,0.03250018050000004,0.03250052100000003,-9.808544018413603,-0.002052929752647164,-0.0014052266068345027,-0.0041788297500124595,-0.007780517902111578,0.002345733896312983
0.3375,0.0003848620500000024,-0.784229125,0.00017558326750000147,-2.3565909,0.0003513151475000029,1.570743575,0.78587765,0.03259089375000004,0.03259123050000003,-9.803138739045362,0.0018832102390321228,-0.006092509046661199,-0.0038222704296184576,-0.0082804689560012,0.0030371323026492014
0.34,0.0003907943280000024,-0.78422206,0.00017926188400000149,-2.3565996,0.0003585375980000029,1.57073744,0.78587438,0.032681607000000036,0.032681940000000034,-9.79773345967712,0.00581935023071141,-0.010779791486487894,-0.0034657111092244557,-0.008780420009890821,0.0037285307089854197
0.3425,0.0003967266060000024,-0.784214995,0.0001829405005000015,-2.3566083,0.00036576004850000297,1.570731305,0.78587111,0.032772320250000035,0.032772649500000035,-9.792328180308878,0.009755490222390698,-0.015467073926314589,-0.003109151788830454,-0.009280371063780445,0.004419929115321637
0.34500000000000003,0.00040265888400000245,-0.78420793,0.00018661911700000152,-2.356617,0.000372982499000003,1.57072517,0.78586784,0.032863033500000034,0.032863359000000036,-9.786922900940638,0.013691630214069984,-0.020154356366141286,-0.0027525924684364527,-0.009780322117670066,0.0051113275216578555
0.34750000000000003,0.0004085911620000025,-0.7842008650000001,0.00019029773350000154,-2.3566257,0.000380204949500003,1.570719035,0.78586457,0.03295374675000003,0.03295406850000004,-9.781517621572396,0.017627770205749273,-0.02484163880596798,-0.0023960331480424512,-0.01028027317155969,0.005802725927994074
0.35000000000000003,0.0004145234400000028,-0.7841938,0.00019397635000000175,-2.3566344,0.0003874274000000034,1.5707129,0.7858613,0.03304446000000003,0.03304477800000003,-9.776112342204158,0.021563910197426144,-0.02952892124579117,-0.0020394738276487915,-0.010780224225448807,0.006494124334329901
0.3525,0.0004212051090000027,-0.784185916,0.00019811858350000168,-2.35664412,0.0003955840430000033,1.57070603,0.785857619,0.033127917000000034,0.03312823230000003,-9.776313300629962,0.01977069067413408,-0.025904152243479805,-0.0024940547844116883,-0.010083403213792428,0.006260026197648305
0.355,0.00042788677800000273,-0.784178032,0.0002022608170000017,-2.35665384,0.0004037406860000033,1.57069916,0.785853938,0.03321137400000003,0.03321168660000003,-9.776514259055764,0.017977471150841976,-0.02227938324116836,-0.0029486357411745955,-0.009386582202136035,0.006025928060966705
0.3575,0.00043456844700000274,-0.784170148,0.00020640305050000172,-2.35666356,0.0004118973290000034,1.57069229,0.785850257,0.03329483100000003,0.033295140900000034,-9.776715217481568,0.016184251627549873,-0.018654614238856913,-0.0034032166979375026,-0.008689761190479643,0.005791829924285103
0.36,0.0004412501160000028,-0.784162264,0.00021054528400000174,-2.35667328,0.0004200539720000034,1.57068542,0.785846576,0.033378288000000034,0.033378595200000034,-9.776916175907372,0.01439103210425777,-0.015029845236545469,-0.0038577976547004094,-0.007992940178823248,0.005557731787603502
0.3625,0.0004479317850000028,-0.7841543799999999,0.00021468751750000175,-2.356683,0.00042821061500000345,1.57067855,0.785842895,0.033461745000000036,0.033462049500000035,-9.777117134333176,0.012597812580965668,-0.011405076234234025,-0.004312378611463316,-0.007296119167166856,0.005323633650921902
0.365,0.0004546134540000028,-0.784146496,0.00021882975100000177,-2.35669272,0.0004363672580000035,1.57067168,0.785839214,0.03354520200000004,0.033545503800000036,-9.777318092758978,0.010804593057673565,-0.0077803072319225786,-0.004766959568226223,-0.006599298155510463,0.005089535514240301
0.3675,0.00046156125000000326,-0.7841383255,0.00022313662550000203,-2.356702825,0.000444854384000004,1.570664555,0.78583538,0.03362643425000003,0.033626732850000035,-9.776548642034266,0.009186849487032309,-0.006353041546454107,-0.004983659673777182,-0.006016307401084391,0.005041199752803311
0.37,0.00046904130000000337,-0.7841295819999999,0.0002277727820000021,-2.3567137,0.0004540024760000041,1.57065692,0.78583124,0.033703217000000035,0.03370351140000004,-9.773838373008523,0.007920057821692066,-0.009320782494663105,-0.004724598076905163,-0.005660977161118519,0.005364388741854827
0.3725,0.0004765213500000035,-0.7841208384999999,0.0002324089385000022,-2.356724575,0.0004631505680000043,1.570649285,0.7858271,0.03377999975000004,0.033780289950000035,-9.77112810398278,0.0066532661563518235,-0.012288523442872103,-0.0044655364800331426,-0.005305646921152648,0.0056875777309063425
0.375,0.0004840014000000037,-0.7841120949999999,0.00023704509500000224,-2.35673545,0.0004722986600000044,1.57064165,0.78582296,0.033856782500000036,0.03385706850000004,-9.768417834957038,0.005386474491011582,-0.015256264391081102,-0.004206474883161123,-0.004950316681186777,0.006010766719957858
0.3775,0.0004914814500000038,-0.7841033515,0.00024168125150000235,-2.356746325,0.0004814467520000046,1.570634015,0.78581882,0.03393356525000004,0.03393384705000004,-9.765707565931296,0.004119682825671339,-0.018224005339290097,-0.003947413286289104,-0.004594986441220905,0.006333955709009373
0.38,0.000498961500000004,-0.784094608,0.0002463174080000024,-2.3567572,0.0004905948440000048,1.57062638,0.78581468,0.034010348000000044,0.03401062560000004,-9.762997296905553,0.002852891160331097,-0.0211917462874991,-0.003688351689417084,-0.004239656201255034,0.006657144698060889
0.3825,0.0005064415500000041,-0.7840858645,0.0002509535645000025,-2.3567680749999997,0.0004997429360000049,1.570618745,0.7858105400000001,0.03408713075000004,0.03408740415000004,-9.76028702787981,0.0015860994949908544,-0.0241594872357081,-0.0034292900925450643,-0.0038843259612891625,0.006980333687112405
0.385,0.0005144864960000045,-0.784076515,0.0002559391750000028,-2.35677971,0.0005095901170000055,1.5706104799999998,0.785806084,0.03415981900000004,0.03416008950000004,-9.763984882951775,0.00721805633173327,-0.03010539781519786,-0.003442968871600511,-0.0038496788976343584,0.007155217182093304
0.3875,0.0005228138900000045,-0.7840668624999999,0.0002610995125000027,-2.356791725,0.0005197868425000054,1.5706019,0.78580147,0.03423046000000004,0.034230728250000036,-9.770886800072583,0.016299387419508513,-0.03754039321032434,-0.003593017838619355,-0.003975373422134692,0.007255947930039078
0.39,0.0005311412840000043,-0.78405721,0.0002662598500000027,-2.3568037399999997,0.0005299835680000054,1.57059332,0.785796856,0.03430110100000004,0.03430136700000004,-9.777788717193394,0.025380718507283757,-0.04497538860545082,-0.0037430668056381987,-0.0041010679466350255,0.0073566786779848525
0.3925,0.0005394686780000043,-0.7840475575,0.00027142018750000264,-2.356815755,0.0005401802935000052,1.57058474,0.785792242,0.03437174200000004,0.03437200575000004,-9.784690634314202,0.034462049595059004,-0.0524103840005773,-0.0038931157726570425,-0.00422676247113536,0.007457409425930627
0.395,0.0005477960720000042,-0.784037905,0.00027658052500000263,-2.3568277699999998,0.0005503770190000051,1.5705761599999999,0.785787628,0.034442383000000035,0.034442644500000036,-9.791592551435013,0.04354338068283425,-0.05984537939570378,-0.004043164739675887,-0.004352456995635694,0.007558140173876401
0.3975,0.0005561234660000042,-0.7840282525,0.00028174086250000257,-2.356839785,0.0005605737445000051,1.57056758,0.785783014,0.03451302400000004,0.03451328325000004,-9.798494468555822,0.0526247117706095,-0.06728037479083027,-0.00419321370669473,-0.004478151520136028,0.007658870921822175
0.4,0.0005644508600000046,-0.7840186,0.0002869012000000028,-2.3568518,0.0005707704700000056,1.570559,0.7857784,0.034583665000000034,0.03458392200000004,-9.805396385676625,0.06170604285837828,-0.07471537018594732,-0.004343262673713644,-0.004603846044636174,0.007759601669767495
0.4025,0.0005736744710000047,-0.784007965,0.0002926159240000029,-2.3568649699999997,0.0005820734995000057,1.5705495950000001,0.785773315,0.03464865445000003,0.034648908600000035,-9.799501745325339,0.05756861298226316,-0.06286281003245378,-0.004637259516130189,-0.00434644395718313,0.00693079619476162
0.405,0.0005828980820000049,-0.78399733,0.000298330648000003,-2.35687814,0.000593376529000006,1.57054019,0.78576823,0.034713643900000035,0.03471389520000004,-9.79360710497405,0.05343118310614803,-0.051010249878960245,-0.004931256358546734,-0.004089041869730085,0.006101990719755745
0.40750000000000003,0.000592121693000005,-0.783986695,0.0003040453720000031,-2.35689131,0.0006046795585000061,1.570530785,0.785763145,0.03477863335000004,0.034778881800000036,-9.787712464622762,0.049293753230032905,-0.0391576897254667,-0.00522525320096328,-0.0038316397822770404,0.005273185244749871
0.41000000000000003,0.0006013453040000052,-0.78397606,0.0003097600960000032,-2.35690448,0.0006159825880000063,1.57052138,0.7857580599999999,0.034843622800000036,0.03484386840000004,-9.781817824271476,0.04515632335391778,-0.027305129571973168,-0.005519250043379825,-0.003574237694823996,0.004444379769743996
0.41250000000000003,0.0006105689150000053,-0.783965425,0.0003154748200000033,-2.35691765,0.0006272856175000065,1.570511975,0.785752975,0.03490861225000004,0.03490885500000004,-9.775923183920188,0.04101889347780266,-0.015452569418479632,-0.00581324688579637,-0.003316835607370951,0.003615574294738122
0.41500000000000004,0.0006197925260000055,-0.78395479,0.0003211895440000034,-2.35693082,0.0006385886470000067,1.5705025700000002,0.78574789,0.034973601700000044,0.03497384160000004,-9.7700285435689,0.036881463601687536,-0.0036000092649861037,-0.006107243728212915,-0.0030594335199179068,0.0027867688197322467
0.4175,0.0006293311025000059,-0.7839438200000001,0.00032709909200000366,-2.3569444,0.0006502795765000073,1.57049284,0.78574263,0.03503685810000004,0.03503709540000004,-9.766379301611186,0.03248159302805883,0.00024145737285711372,-0.006178919092704818,-0.0027002256265897776,0.0022987181506072324
0.42,0.0006394996100000058,-0.78393218,0.0003333982880000036,-2.3569588,0.0006627463060000071,1.57048246,0.78573702,0.035096648400000034,0.03509688360000004,-9.76722085644061,0.027556841059404057,-0.01193926302055738,-0.005805951501348626,-0.0021374061215119976,0.0024921770932420906
0.4225,0.0006496681175000057,-0.78392054,0.00033969748400000357,-2.3569732,0.000675213035500007,1.57047208,0.78573141,0.035156438700000035,0.03515667180000004,-9.768062411270034,0.022632089090749284,-0.024119983413971872,-0.0054329839099924344,-0.0015745866164342175,0.002685636035876949
0.425,0.0006598366250000057,-0.7839089,0.00034599668000000346,-2.3569876,0.0006876797650000069,1.5704617,0.7857257999999999,0.035216229000000036,0.03521646000000003,-9.768903966099458,0.017707337122094515,-0.03630070380738636,-0.005060016318636243,-0.0010117671113564375,0.002879094978511807
0.4275,0.0006700051325000055,-0.78389726,0.0003522958760000034,-2.357002,0.0007001464945000068,1.57045132,0.7857201899999999,0.03527601930000004,0.035276248200000034,-9.76974552092888,0.012782585153439746,-0.04848142420080085,-0.004687048727280051,-0.0004489476062786574,0.0030725539211466655
0.43,0.0006801736400000054,-0.7838856200000001,0.00035859507200000336,-2.3570164,0.0007126132240000067,1.5704409400000001,0.7857145799999999,0.03533580960000003,0.035336036400000034,-9.770587075758305,0.007857833184784974,-0.060662144594215345,-0.00431408113592386,0.00011387189879912257,0.0032660128637815237
0.4325,0.0006903421475000053,-0.78387398,0.0003648942680000033,-2.3570308,0.0007250799535000066,1.5704305600000001,0.78570897,0.03539559990000003,0.035395824600000035,-9.771428630587728,0.0029330812161302046,-0.07284286498762983,-0.003941113544567668,0.0006766914038769025,0.003459471806416382
0.435,0.0007011729000000059,-0.7838616,0.00037160307800000367,-2.3570460200000003,0.0007383608320000073,1.5704194900000001,0.785702995,0.03545220180000003,0.03545242420000003,-9.773004683270004,-0.0010336059306035933,-0.0724912040321281,-0.0045732035965921295,0.0007824513177403367,0.0033395120255876537
0.4375,0.0007123347750000059,-0.78384885,0.0003785166950000037,-2.3570616500000003,0.0007520487850000073,1.570408075,0.7856968375,0.03550720950000003,0.03550742950000003,-9.774947984878706,-0.0045212606663780335,-0.06587335240218307,-0.00570782247030573,0.0006596814359971386,0.0030628428830275023
0.44,0.000723496650000006,-0.7838361,0.0003854303120000037,-2.35707728,0.0007657367380000074,1.57039666,0.78569068,0.03556221720000003,0.03556243480000003,-9.776891286487407,-0.008008915402152473,-0.05925550077223804,-0.00684244134401933,0.0005369115542539406,0.0027861737404673514
0.4425,0.000734658525000006,-0.78382335,0.00039234392900000374,-2.35709291,0.0007794246910000075,1.570385245,0.7856845225,0.03561722490000003,0.03561744010000003,-9.778834588096109,-0.011496570137926914,-0.05263764914229301,-0.00797706021773293,0.00041414167251074255,0.0025095045979072
0.445,0.000745820400000006,-0.7838106,0.00039925754600000376,-2.35710854,0.0007931126440000075,1.57037383,0.785678365,0.035672232600000034,0.03567244540000003,-9.78077788970481,-0.014984224873701355,-0.046019797512347985,-0.00911167909144653,0.00029137179076754445,0.002232835455347049
0.4475,0.0007569822750000061,-0.78379785,0.0004061711630000038,-2.35712417,0.0008068005970000076,1.570362415,0.7856722075,0.03572724030000003,0.03572745070000003,-9.782721191313511,-0.018471879609475796,-0.03940194588240296,-0.01024629796516013,0.00016860190902434635,0.0019561663127868976
0.45,0.0007681441500000067,-0.7837851,0.0004130847800000042,-2.3571398,0.0008204885500000084,1.570351,0.78566605,0.03578224800000003,0.035782456000000025,-9.78466449292221,-0.02195953434524486,-0.03278409425246048,-0.011380916838873122,4.583202728138141e-05,0.001679497170226934
0.4525,0.0007803474975000068,-0.783771216,0.0004206425720000042,-2.35715672,0.0008354549125000084,1.570338535,0.7856593075,0.03583285530000003,0.03583306210000003,-9.784386177192367,-0.015759884993951107,-0.030777264902180686,-0.011417868224417732,0.0003430233736735403,0.0017409526360022242
0.455,0.0007925508450000069,-0.783757332,0.00042820036400000424,-2.35717364,0.0008504212750000084,1.57032607,0.785652565,0.035883462600000034,0.035883668200000024,-9.784107861462521,-0.009560235642657355,-0.02877043555190089,-0.01145481960996234,0.0006402147200656992,0.0018024081017775145
0.4575,0.0008047541925000069,-0.783743448,0.00043575815600000427,-2.35719056,0.0008653876375000085,1.570313605,0.7856458225,0.03593406990000003,0.03593427430000003,-9.783829545732678,-0.003360586291363602,-0.02676360620162109,-0.011491770995506951,0.0009374060664578581,0.001863863567552805
0.46,0.0008169575400000069,-0.783729564,0.00044331594800000435,-2.35720748,0.0008803540000000085,1.57030114,0.7856390799999999,0.03598467720000003,0.03598488040000003,-9.783551230002834,0.0028390630599301504,-0.02475677685134129,-0.011528722381051562,0.0012345974128500168,0.0019253190333280953
0.4625,0.0008291608875000071,-0.78371568,0.0004508737400000044,-2.3572243999999998,0.0008953203625000086,1.570288675,0.7856323374999999,0.03603528450000003,0.036035486500000026,-9.783272914272988,0.0090387124112239,-0.02274994750106149,-0.011565673766596172,0.0015317887592421757,0.0019867744991033855
0.465,0.0008413642350000071,-0.783701796,0.0004584315320000044,-2.35724132,0.0009102867250000087,1.5702762099999998,0.785625595,0.036085891800000026,0.03608609260000003,-9.782994598543144,0.015238361762517656,-0.02074311815078169,-0.011602625152140783,0.0018289801056343346,0.0020482299648786756
0.4675,0.0008539306620000078,-0.7836875154999999,0.00046621387700000483,-2.357258785,0.0009256982300000095,1.570263375,0.7856186475,0.03613514985000003,0.03613534920000003,-9.784549267019498,0.0199399385785325,-0.019096481814913337,-0.011816527705004748,0.0022259158096598498,0.0021240909494348466
0.47000000000000003,0.0008672232480000079,-0.783672442,0.00047444532800000486,-2.35727734,0.0009420000200000096,1.5702498,0.78561129,0.036181709400000026,0.036181906800000024,-9.789769903908242,0.02164537032399741,-0.018170231507865973,-0.012384332592506497,0.0028223402289515526,0.002228762971552702
0.47250000000000003,0.000880515834000008,-0.7836573685,0.0004826767790000049,-2.357295895,0.0009583018100000097,1.570236225,0.7856039324999999,0.036228268950000024,0.03622846440000003,-9.794990540796984,0.023350802069462315,-0.01724398120081861,-0.012952137480008244,0.003418764648243255,0.0023334349936705574
0.47500000000000003,0.0008938084200000079,-0.7836422949999999,0.0004909082300000049,-2.35731445,0.0009746036000000097,1.5702226499999998,0.7855965749999999,0.03627482850000003,0.03627502200000003,-9.800211177685727,0.025056233814927224,-0.016317730893771247,-0.013519942367509991,0.004015189067534957,0.002438107015788413
0.47750000000000004,0.000907101006000008,-0.7836272215,0.000499139681000005,-2.3573330049999996,0.0009909053900000098,1.570209075,0.7855892175,0.03632138805000003,0.03632157960000003,-9.805431814574469,0.02676166556039213,-0.01539148058672388,-0.014087747255011739,0.00461161348682666,0.002542779037906268
0.48,0.0009203935920000078,-0.783612148,0.0005073711320000048,-2.3573515599999997,0.0010072071800000097,1.5701954999999999,0.78558186,0.036367947600000027,0.03636813720000003,-9.810652451463211,0.028467097305857,-0.014465230279676538,-0.014655552142513472,0.005208037906118349,0.0026474510600241214
0.4825,0.0009336861780000078,-0.7835970744999999,0.0005156025830000048,-2.3573701149999997,0.0010235089700000096,1.570181925,0.7855745024999999,0.036414507150000025,0.03641469480000003,-9.815873088351953,0.03017252905132191,-0.013538979972629175,-0.015223357030015221,0.005804462325410053,0.002752123082141977
0.485,0.0009477364660000086,-0.783581145,0.0005243026400000053,-2.3573897699999997,0.0010407387100000106,1.5701675899999998,0.7855667249999999,0.03645858400000002,0.036458770200000025,-9.81379646090305,0.02926044884196635,-0.013109646181414783,-0.014917976691497569,0.005741303848527606,0.002684171242116698
0.4875,0.0009621656050000087,-0.7835647875,0.0005332370000000053,-2.357409975,0.0010584324250000107,1.570152875,0.7855587374999999,0.03650141950000002,0.03650160450000003,-9.808071201285333,0.02703961265520404,-0.012928770648116216,-0.01417600373997138,0.005348353923558965,0.002529907471020083
0.49,0.0009765947440000086,-0.78354843,0.0005421713600000053,-2.35743018,0.0010761261400000107,1.57013816,0.78555075,0.036544255000000025,0.03654443880000003,-9.802345941667618,0.024818776468441738,-0.01274789511481765,-0.013434030788445192,0.004955403998590322,0.002375643699923467
0.4925,0.0009910238830000088,-0.7835320725,0.0005511057200000054,-2.357450385,0.001093819855000011,1.570123445,0.7855427625,0.03658709050000002,0.036587273100000026,-9.796620682049902,0.022597940281679434,-0.012567019581519085,-0.012692057836919002,0.0045624540736216804,0.0022213799288268513
0.495,0.001005453022000009,-0.7835157150000001,0.0005600400800000055,-2.35747059,0.001111513570000011,1.5701087299999998,0.7855347749999999,0.03662992600000003,0.03663010740000003,-9.790895422432186,0.02037710409491713,-0.01238614404822052,-0.011950084885392814,0.004169504148653039,0.0020671161577302355
0.4975,0.001019882161000009,-0.7834993575,0.0005689744400000055,-2.357490795,0.001129207285000011,1.570094015,0.7855267874999999,0.036672761500000026,0.036672941700000024,-9.785170162814468,0.018156267908154822,-0.012205268514921952,-0.011208111933866626,0.0037765542236843975,0.0019128523866336197
0.5,0.0010343113000000099,-0.783483,0.0005779088000000059,-2.357511,0.001146901000000012,1.5700793,0.7855188,0.03671559700000003,0.036715776000000026,-9.779444903196756,0.01593543172139471,-0.012024392981625822,-0.010466138982341392,0.0033836042987160633,0.0017585886155373363
0.5025000000000001,0.0010499238250000103,-0.783465345,0.0005875750850000063,-2.3575326000000003,0.0011660428750000125,1.5700633849999999,0.785510175,0.03675500545000003,0.03675518265000002,-9.7783356229386,0.01724373248425503,-0.01575967996823348,-0.011259160304999759,0.0034852352815652157,0.0021388371495804316
0.505,0.00106553635000001,-0.78344769,0.0005972413700000061,-2.3575542,0.0011851847500000121,1.57004747,0.78550155,0.036794413900000024,0.03679458930000002,-9.777226342680445,0.018552033247115286,-0.019494966954840976,-0.012052181627658089,0.003586866264414364,0.0025190856836235097
0.5075000000000001,0.0010811488750000105,-0.7834300350000001,0.0006069076550000063,-2.3575758,0.0012043266250000126,1.570031555,0.785492925,0.03683382235000003,0.036833995950000024,-9.776117062422289,0.0198603340099756,-0.023230253941448637,-0.012845202950316456,0.0036884972472635167,0.002899334217666605
0.51,0.00109676140000001,-0.78341238,0.0006165739400000061,-2.3575974,0.0012234685000000122,1.57001564,0.7854843,0.036873230800000024,0.03687340260000002,-9.775007782164133,0.021168634772835856,-0.026965540928056128,-0.013638224272974786,0.003790128230112665,0.0032795827517096833
0.5125,0.0011123739250000098,-0.7833947250000001,0.000626240225000006,-2.357619,0.001242610375000012,1.569999725,0.785475675,0.036912639250000025,0.036912809250000025,-9.773898501905977,0.022476935535696116,-0.030700827914663626,-0.014431245595633118,0.003891759212961813,0.0036598312857527614
0.515,0.0011279864500000102,-0.78337707,0.0006359065100000063,-2.3576406,0.0012617522500000125,1.5699838099999999,0.78546705,0.036952047700000025,0.03695221590000002,-9.772789221647821,0.02378523629855643,-0.034436114901271284,-0.015224266918291485,0.003993390195810966,0.0040400798197958564
0.5175,0.0011440088950000107,-0.7833589525,0.0006458263100000065,-2.35766287,0.001281395390000013,1.569967485,0.785458192,0.036990405750000024,0.03699057240000002,-9.771592988152996,0.023032954371748814,-0.03666967623989589,-0.01561600532816912,0.004345738372276488,0.004384084507957936
0.52,0.001160851180000011,-0.78333991,0.0006562531400000069,-2.35768648,0.0013020410600000137,1.5699503399999999,0.785448868,0.03702666300000002,0.03702682860000002,-9.770222848184826,0.018159507065617038,-0.035899786282563316,-0.01520517791248765,0.0051995209359733605,0.004655601504358238
0.5225,0.0011776934650000108,-0.7833208675,0.0006666799700000066,-2.35771009,0.0013226867300000133,1.569933195,0.785439544,0.03706292025000003,0.03706308480000002,-9.768852708216658,0.01328605975948548,-0.03512989632523077,-0.014794350496806196,0.006053303499670195,0.004927118500758529
0.525,0.0011945357500000114,-0.783301825,0.000677106800000007,-2.3577337,0.0013433324000000138,1.56991605,0.78543022,0.037099177500000025,0.03709934100000002,-9.767482568248488,0.008412612453353705,-0.03436000636789819,-0.014383523081124725,0.006907086063367068,0.005198635497158831
0.5275,0.001211378035000011,-0.7832827824999999,0.0006875336300000067,-2.3577573099999998,0.0013639780700000134,1.569898905,0.785420896,0.03713543475000002,0.03713559720000002,-9.76611242828032,0.003539165147222148,-0.03359011641056564,-0.013972695665443274,0.007760868627063903,0.005470152493559121
0.53,0.0012282203200000114,-0.78326374,0.0006979604600000071,-2.3577809199999997,0.001384623740000014,1.5698817600000001,0.785411572,0.03717169200000003,0.037171853400000024,-9.764742288312151,-0.0013342821589096276,-0.032820226453233056,-0.013561868249761803,0.008614651190760776,0.005741669489959423
0.5325,0.0012450626050000111,-0.7832446974999999,0.0007083872900000069,-2.3578045299999997,0.0014052694100000135,1.569864615,0.785402248,0.037207949250000025,0.03720810960000002,-9.763372148343981,-0.006207729465041185,-0.032050336495900514,-0.01315104083408035,0.00946843375445761,0.006013186486359713
0.535,0.0012627551600000125,-0.783224701,0.0007193399900000077,-2.35782911,0.0014269541200000152,1.56984657,0.785392456,0.03724227270000002,0.03724243250000002,-9.763694918125623,-0.0041640739575551575,-0.03265556525560044,-0.012870886069844352,0.010334063109807256,0.005566810906496359
0.5375,0.0012808728500000122,-0.7832042275,0.0007305556250000075,-2.357854175,0.0014491583500000147,1.569828075,0.78538243,0.03727562925000002,0.03727578875000002,-9.764864142782168,0.0013381329567291652,-0.03394835337381451,-0.012656067631330906,0.01120561586098323,0.004761489038502289
0.54,0.0012989905400000125,-0.783183754,0.0007417712600000078,-2.35787924,0.0014713625800000154,1.56980958,0.785372404,0.03730898580000002,0.03730914500000002,-9.766033367438713,0.006840339871013731,-0.03524114149202863,-0.012441249192817451,0.012077168612159243,0.003956167170508182
0.5425,0.0013171082300000123,-0.7831632805,0.0007529868950000076,-2.357904305,0.001493566810000015,1.569791085,0.785362378,0.03734234235000002,0.03734250125000002,-9.767202592095257,0.012342546785298052,-0.0365339296102427,-0.012226430754304005,0.012948721363335218,0.003150845302514111
0.545,0.0013352259200000126,-0.783142807,0.0007642025300000078,-2.35792937,0.0015157710400000156,1.56977259,0.785352352,0.037375698900000025,0.037375857500000026,-9.768371816751802,0.01784475369958262,-0.037826717728456825,-0.012011612315790548,0.01382027411451123,0.002345523434520005
0.5475,0.0013533436100000124,-0.7831223335,0.0007754181650000076,-2.357954435,0.0015379752700000152,1.569754095,0.785342326,0.03740905545000003,0.037409213750000024,-9.769541041408347,0.02334696061386694,-0.03911950584667089,-0.011796793877277102,0.014691826865687206,0.0015402015665259344
0.55,0.0013714613000000138,-0.78310186,0.0007866338000000085,-2.3579795,0.001560179500000017,1.5697356,0.7853323,0.03744241200000002,0.03744257000000002,-9.770710266064889,0.028849167528148457,-0.04041229396488887,-0.011581975438764361,0.01556337961686233,0.0007348796985327795
0.5525,0.0013908995150000135,-0.783079906,0.0007986661250000084,-2.35800665,0.0015839970100000166,1.5697158,0.78532156,0.03747309930000002,0.03747325595000002,-9.769121232793088,0.03005288225755477,-0.04713569426935327,-0.012372263719763972,0.015184206784153062,0.0012689099939150348
0.555,0.001410337730000014,-0.7830579520000001,0.0008106984500000086,-2.3580338,0.0016078145200000172,1.569696,0.78531082,0.037503786600000026,0.037503941900000025,-9.767532199521286,0.031256596986961135,-0.05385909457381796,-0.013162552000763618,0.014805033951443777,0.001802940289297314
0.5575,0.0014297759450000137,-0.783035998,0.0008227307750000084,-2.35806095,0.0016316320300000166,1.5696762,0.78530008,0.037534473900000025,0.03753462785000002,-9.765943166249484,0.03246031171636745,-0.060582494878282364,-0.013952840281763228,0.014425861118734508,0.0023369705846795694
0.56,0.0014492141600000142,-0.783014044,0.0008347631000000088,-2.3580881,0.0016554495400000174,1.5696564,0.7852893400000001,0.03756516120000002,0.03756531380000002,-9.764354132977681,0.03366402644577381,-0.06730589518274706,-0.014743128562762876,0.014046688286025224,0.0028710008800618483
0.5625,0.0014686523750000139,-0.78299209,0.0008467954250000086,-2.35811525,0.0016792670500000168,1.5696366,0.7852786,0.03759584850000002,0.037595999750000025,-9.762765099705879,0.03486774117518013,-0.07402929548721145,-0.015533416843762487,0.013667515453315956,0.003405031175444104
0.5650000000000001,0.0014880905900000144,-0.782970136,0.0008588277500000089,-2.3581423999999997,0.0017030845600000176,1.5696168,0.78526786,0.03762653580000003,0.03762668570000002,-9.761176066434077,0.0360714559045865,-0.08075269579167614,-0.016323705124762132,0.01328834262060667,0.003939061470826384
0.5675,0.0015079838400000151,-0.782947695,0.0008711414730000092,-2.35817013,0.0017274576450000182,1.569596525,0.7852568600000001,0.03765640530000002,0.037656554350000024,-9.762209622751117,0.03461800516037161,-0.08426134053990332,-0.01682013483570149,0.013142691488339296,0.0045361686052898
0.5700000000000001,0.0015287871600000156,-0.78292428,0.0008840179920000097,-2.35819902,0.0017529418800000189,1.5695753,0.78524534,0.03768463920000002,0.03768478840000002,-9.76848835824582,0.02785022346893137,-0.08134047417567694,-0.01672884740652225,0.013464083756954199,0.0052594294179151594
0.5725,0.0015495904800000152,-0.782900865,0.0008968945110000094,-2.35822791,0.0017784261150000185,1.5695540749999999,0.7852338200000001,0.03771287310000002,0.03771302245000002,-9.774767093740524,0.02108244177749143,-0.07841960781145069,-0.01663755997734302,0.01378547602556909,0.005982690230540487
0.5750000000000001,0.0015703938000000157,-0.78287745,0.0009097710300000097,-2.3582568,0.0018039103500000191,1.5695328499999999,0.7852223,0.037741107000000024,0.03774125650000002,-9.781045829235227,0.01431466008605119,-0.0754987414472243,-0.016546272548163782,0.014106868294183993,0.006705951043165846
0.5775,0.0015911971200000155,-0.7828540350000001,0.0009226475490000095,-2.3582856899999998,0.0018293945850000187,1.5695116249999999,0.78521078,0.037769340900000024,0.03776949055000002,-9.78732456472993,0.00754687839461125,-0.07257787508299804,-0.016454985118984546,0.014428260562798882,0.007429211855791173
0.58,0.001612000440000015,-0.78283062,0.0009355240680000092,-2.35831458,0.0018548788200000183,1.5694904,0.7851992600000001,0.037797574800000025,0.03779772460000002,-9.793603300224634,0.0007790967031713128,-0.06965700871877178,-0.016363697689805314,0.014749652831413771,0.0081524726684165
0.5825,0.0016328037600000156,-0.782807205,0.0009484005870000096,-2.35834347,0.001880363055000019,1.569469175,0.78518774,0.037825808700000026,0.03782595865000002,-9.799882035719337,-0.005988684988268926,-0.06673614235454539,-0.016272410260626077,0.015071045100028675,0.00887573348104186
0.585,0.0016545463700000163,-0.78278278,0.00096185798400001,-2.35837366,0.0019069939000000197,1.569447,0.7851757100000001,0.03785253760000002,0.03785268670000002,-9.795482519501363,-0.006727063813420712,-0.06232601414642843,-0.01636716623390458,0.015066339528779508,0.009057214608591534
0.5875,0.0016767586250000168,-0.78275785,0.0009756058200000103,-2.3584045000000002,0.0019341980500000204,1.56942435,0.785163425,0.03787851400000002,0.03787866175000002,-9.78574387742707,-0.004450741205438357,-0.05717125501636836,-0.016554943908411644,0.014898585037598848,0.008967805893604283
0.59,0.0016989708800000164,-0.78273292,0.00098935365600001,-2.35843534,0.00196140220000002,1.5694017,0.78515114,0.03790449040000002,0.03790463680000002,-9.776005235352775,-0.002174418597456101,-0.05201649588630852,-0.016742721582918698,0.014730830546418196,0.008878397178617034
0.5925,0.001721183135000017,-0.78270799,0.0010031014920000103,-2.35846618,0.0019886063500000207,1.56937905,0.785138855,0.03793046680000002,0.03793061185000002,-9.76626659327848,0.00010190401052625336,-0.046861736756248454,-0.016930499257425763,0.014563076055237536,0.008788988463629781
0.595,0.0017433953900000167,-0.78268306,0.0010168493280000102,-2.35849702,0.00201581050000002,1.5693564,0.78512657,0.03795644320000002,0.03795658690000002,-9.756527951204188,0.002378226618508509,-0.041706977626188614,-0.01711827693193282,0.014395321564056885,0.008699579748642534
0.5975,0.0017656076450000171,-0.7826581300000001,0.0010305971640000105,-2.35852786,0.002043014650000021,1.56933375,0.785114285,0.03798241960000002,0.03798256195000002,-9.746789309129893,0.004654549226490865,-0.036552218496128545,-0.017306054606439886,0.014227567072876226,0.008610171033655281
0.6,0.0017878199000000178,-0.7826332,0.001044345000000011,-2.3585587,0.0020702188000000215,1.5693111,0.785102,0.03800839600000002,0.03800853700000002,-9.737050667055614,0.006930871834473374,-0.03139745936607577,-0.0174938322809464,0.014059812581695915,0.008520762318668613
0.6025,0.0018114842000000184,-0.782606626,0.0010589907900000115,-2.3585916250000003,0.0020991949000000224,1.56928698,0.7850889305,0.03803229220000002,0.03803243245000002,-9.746541995429887,0.009545872465728729,-0.035594046671813845,-0.016960753844805623,0.014345222784045573,0.009201156175357071
0.605,0.0018351485000000182,-0.782580052,0.0010736365800000111,-2.35862455,0.002128171000000022,1.56926286,0.7850758609999999,0.03805618840000002,0.03805632790000002,-9.75603332380416,0.012160873096983967,-0.03979063397755174,-0.016427675408664875,0.014630632986395218,0.0098815500320455
0.6075,0.0018588128000000188,-0.782553478,0.0010882823700000116,-2.3586574750000002,0.002157147100000023,1.5692387399999999,0.7850627915,0.038080084600000015,0.03808022335000002,-9.765524652178433,0.014775873728239321,-0.04398722128328983,-0.0158945969725241,0.014916043188744876,0.010561943888733959
0.61,0.0018824771000000183,-0.782526904,0.0011029281600000113,-2.3586904,0.0021861232000000225,1.56921462,0.785049722,0.03810398080000001,0.03810411880000002,-9.775015980552705,0.01739087435949456,-0.048183808589027724,-0.015361518536383349,0.015201453391094522,0.011242337745422385
0.6125,0.0019061414000000189,-0.78250033,0.0011175739500000118,-2.358723325,0.0022150993000000234,1.5691905,0.7850366525,0.03812787700000002,0.03812801425000002,-9.78450730892698,0.020005874990749913,-0.0523803958947658,-0.014828440100242575,0.01548686359344418,0.011922731602110844
0.615,0.0019298057000000184,-0.782473756,0.0011322197400000114,-2.3587562500000003,0.002244075400000023,1.56916638,0.785023583,0.038151773200000016,0.03815190970000002,-9.793998637301252,0.022620875622005154,-0.056576983200503694,-0.014295361664101825,0.015772273795793823,0.012603125458799273
0.6175,0.0019539681150000203,-0.782446628,0.0011471736100000126,-2.35878984,0.002273659270000025,1.56914175,0.7850102315,0.03817503200000001,0.038175168000000016,-9.797743659283862,0.02512113711152824,-0.059480971906110736,-0.014211178460902654,0.01613612184960336,0.012602406215777984
0.62,0.00197912676000002,-0.782418392,0.0011627436400000123,-2.35882476,0.0023044586800000247,1.5691161,0.784996316,0.038197016000000014,0.03819715200000002,-9.789996068483191,0.027391920317587515,-0.05979976341146497,-0.015024785723583425,0.01665684560633207,0.011239460773342163
0.6225,0.0020042854050000207,-0.782390156,0.0011783136700000128,-2.35885968,0.0023352580900000254,1.56909045,0.7849824005,0.03821900000000002,0.03821913600000002,-9.78224847768252,0.02966270352364689,-0.060118554916819215,-0.01583839298626423,0.017177569363060807,0.009876515330906282
0.625,0.0020294440500000202,-0.7823619199999999,0.0011938837000000123,-2.3588946,0.002366057500000025,1.5690648,0.7849684849999999,0.03824098400000002,0.03824112000000002,-9.77450088688185,0.03193348672970617,-0.06043734642217345,-0.016652000248945,0.017698293119789515,0.00851356988847046
0.6275000000000001,0.002054602695000021,-0.7823336839999999,0.0012094537300000128,-2.3589295200000002,0.0023968569100000256,1.56903915,0.7849545695,0.038262968000000015,0.03826310400000002,-9.766753296081177,0.034204269935765544,-0.0607561379275277,-0.01746560751162581,0.01821901687651825,0.0071506244460345795
0.63,0.0020797613400000206,-0.7823054479999999,0.0012250237600000126,-2.3589644400000003,0.002427656320000025,1.5690135,0.7849406539999999,0.03828495200000002,0.038285088000000016,-9.759005705280506,0.036475053141824816,-0.06107492943288194,-0.01827921477430658,0.018739740633246963,0.005787679003598759
0.6325000000000001,0.002104919985000021,-0.7822772119999999,0.001240593790000013,-2.3589993600000003,0.0024584557300000257,1.56898785,0.7849267384999999,0.03830693600000002,0.03830707200000002,-9.751258114479834,0.03874583634788419,-0.06139372093823618,-0.019092822036987384,0.019260464389975696,0.0044247335611628785
0.635,0.002131102780000022,-0.7822478329999999,0.0012567971400000134,-2.3590357,0.002490504340000027,1.56896115,0.7849122599999999,0.03832774920000002,0.03832788500000001,-9.751205337307749,0.04238792228586548,-0.06044216736533902,-0.019919811441966292,0.01963696223285595,0.004413678871988853
0.6375000000000001,0.0021577976500000225,-0.7822178824999999,0.0012733171500000139,-2.35907275,0.002523177550000028,1.568933925,0.7848974999999999,0.03834797700000002,0.03834811250000002,-9.75499996694994,0.0467156595898054,-0.05885544125331846,-0.02075349191809428,0.019941347118812257,0.005078569559443236
0.64,0.0021844925200000223,-0.7821879319999999,0.0012898371600000135,-2.3591098,0.002555850760000027,1.5689067,0.7848827399999999,0.038368204800000014,0.038368340000000015,-9.75879459659213,0.05104339689374513,-0.05726871514129797,-0.02158717239422223,0.020245732004768553,0.00574346024689759
0.6425,0.0022111873900000217,-0.7821579814999999,0.0013063571700000134,-2.35914685,0.0025885239700000266,1.5688794750000001,0.78486798,0.038388432600000015,0.03838856750000001,-9.762589226234322,0.055371134197684864,-0.05568198902927748,-0.02242085287035018,0.020550116890724845,0.006408350934351942
0.645,0.0022378822600000224,-0.782128031,0.0013228771800000137,-2.3591839,0.0026211971800000275,1.56885225,0.78485322,0.038408660400000016,0.038408795000000016,-9.766383855876514,0.059698871501624784,-0.054095262917256914,-0.023254533346478166,0.020854501776681154,0.007073241621806325
0.6475,0.002264577130000022,-0.7820980805,0.0013393971900000135,-2.35922095,0.002653870390000027,1.568825025,0.78483846,0.03842888820000002,0.038429022500000014,-9.770178485518706,0.06402660880556452,-0.05250853680523642,-0.024088213822606116,0.021158886662637447,0.007738132309260678
0.65,0.002291272000000024,-0.78206813,0.0013559172000000147,-2.359258,0.0026865436000000293,1.5687978,0.7848237,0.03844911600000001,0.03844925000000001,-9.773973115160892,0.06835434610950286,-0.05092181069322062,-0.024921894298733083,0.021463271548593444,0.008403022996714835
0.6525,0.0023195438650000233,-0.782036435,0.0013734125550000143,-2.35929718,0.002721140335000029,1.568769,0.7848080655,0.03846772260000002,0.038467856000000016,-9.770940979486301,0.07080591554325005,-0.05497975115508377,-0.02454671624372861,0.021399047800648375,0.008799329411321203
0.655,0.002347815730000024,-0.78200474,0.0013909079100000148,-2.35933636,0.0027557370700000295,1.5687402,0.784792431,0.038486329200000016,0.03848646200000001,-9.767908843811712,0.07325748497699737,-0.05903769161694711,-0.02417153818872412,0.021334824052703306,0.009195635825927589
0.6575,0.0023760875950000235,-0.781973045,0.0014084032650000145,-2.35937554,0.002790333805000029,1.5687114,0.7847767965,0.038504935800000015,0.03850506800000002,-9.764876708137123,0.07570905441074456,-0.06309563207881026,-0.023796360133719646,0.021270600304758237,0.009591942240533956
0.66,0.0024043594600000246,-0.78194135,0.001425898620000015,-2.3594147199999997,0.0028249305400000297,1.5686826,0.784761162,0.03852354240000002,0.038523674000000015,-9.761844572462532,0.07816062384449188,-0.0671535725406736,-0.023421182078715155,0.021206376556813164,0.009988248655140341
0.6625,0.002432631325000024,-0.781909655,0.0014433939750000146,-2.3594539,0.0028595272750000294,1.5686538,0.7847455274999999,0.03854214900000002,0.03854228000000002,-9.758812436787943,0.08061219327823907,-0.07121151300253675,-0.02304600402371068,0.021142152808868095,0.01038455506974671
0.665,0.002460903190000025,-0.7818779599999999,0.001460889330000015,-2.35949308,0.00289412401000003,1.568625,0.784729893,0.03856075560000002,0.038560886000000016,-9.755780301113354,0.08306376271198637,-0.07526945346440009,-0.022670825968706194,0.021077929060923022,0.010780861484353095
0.6675,0.0024897141100000257,-0.7818456635,0.0014787180450000156,-2.3595330199999998,0.002929378125000031,1.568595655,0.7847139664999999,0.03857886660000002,0.038578996650000016,-9.75486365242663,0.08324574698742912,-0.07900284676224792,-0.022326086819056155,0.021280194652490217,0.010887468108235954
0.67,0.002519603140000026,-0.781812164,0.001497213480000016,-2.35957448,0.0029659470000000317,1.56856522,0.784697456,0.03859598640000002,0.038596116600000015,-9.758177977715624,0.07888856094628031,-0.08208714573206778,-0.022042225480114735,0.022015438923079913,0.010414675150674013
0.6725,0.002549492170000025,-0.7817786644999999,0.0015157089150000154,-2.35961594,0.0030025158750000306,1.568534785,0.7846809455,0.03861310620000002,0.03861323655000001,-9.761492303004617,0.07453137490513169,-0.0851714447018875,-0.02175836414117333,0.022750683193669574,0.009941882193112093
0.675,0.002579381200000025,-0.7817451649999999,0.0015342043500000155,-2.3596574,0.003039084750000031,1.56850435,0.7846644349999999,0.03863022600000002,0.03863035650000002,-9.764806628293613,0.07017418886398287,-0.08825574367170735,-0.02147450280223191,0.02348592746425927,0.009469089235550152
0.6775,0.002609270230000024,-0.7817116654999999,0.001552699785000015,-2.35969886,0.00307565362500003,1.568473915,0.7846479245,0.03864734580000001,0.038647476450000016,-9.768120953582606,0.06581700282283426,-0.09134004264152708,-0.021190641463290503,0.02422117173484893,0.00899629627798823
0.68,0.002639159260000025,-0.781678166,0.0015711952200000152,-2.35974032,0.0031122225000000305,1.56844348,0.784631414,0.03866446560000001,0.038664596400000015,-9.7714352788716,0.06145981678168544,-0.09442434161134693,-0.020906780124349086,0.024956416005438624,0.00852350332042629
0.6825,0.002669048290000024,-0.7816446665,0.0015896906550000147,-2.35978178,0.0031487913750000295,1.568413045,0.7846149035,0.03868158540000001,0.03868171635000001,-9.774749604160593,0.05710263074053682,-0.09750864058116665,-0.02062291878540768,0.02569166027602829,0.00805071036286437
0.685,0.0027000416700000258,-0.781609944,0.0016088690200000162,-2.35982478,0.003186706900000032,1.56838149,0.78459778,0.03869779220000001,0.03869792310000001,-9.773987159384088,0.055230532946507836,-0.09849100327759679,-0.02106913172035689,0.02616572425922086,0.00822251149805553
0.6875,0.0027315872250000257,-0.78157461,0.001628388850000016,-2.35986855,0.0032252957500000317,1.568349375,0.78458035,0.03871354250000001,0.03871367325000001,-9.771186329574839,0.05460097927603433,-0.09842239783733585,-0.02188038179225007,0.026509198098715332,0.008716609679622057
0.6900000000000001,0.002763132780000027,-0.781539276,0.0016479086800000168,-2.35991232,0.0032638846000000335,1.56831726,0.7845629199999999,0.03872929280000001,0.03872942340000001,-9.768385499765591,0.0539714256055608,-0.0983537923970749,-0.022691631864143278,0.026852671938209813,0.009210707861188605
0.6925,0.002794678335000027,-0.781503942,0.0016674285100000167,-2.35995609,0.003302473450000033,1.568285145,0.78454549,0.03874504310000001,0.03874517355000001,-9.765584669956343,0.05334187193508729,-0.09828518695681396,-0.023502881936036456,0.027196145777704284,0.009704806042755134
0.6950000000000001,0.002826223890000028,-0.781468608,0.0016869483400000175,-2.35999986,0.0033410623000000345,1.56825303,0.78452806,0.038760793400000014,0.03876092370000001,-9.762783840147096,0.052712318264613756,-0.09821658151655302,-0.02431413200792967,0.027539619617198766,0.010198904224321684
0.6975,0.002857769445000028,-0.781433274,0.0017064681700000174,-2.36004363,0.0033796511500000345,1.568220915,0.78451063,0.03877654370000001,0.03877667385000001,-9.759983010337848,0.05208276459414025,-0.09814797607629208,-0.025125382079822844,0.027883093456693236,0.010693002405888212
0.7000000000000001,0.0028893150000000307,-0.78139794,0.001725988000000019,-2.3600874,0.0034182400000000376,1.5681888,0.7844932,0.03879229400000001,0.03879242400000001,-9.757182180528604,0.05145321092366719,-0.09807937063603263,-0.025936632151714937,0.028226567296187468,0.01118710058745402
0.7025,0.00292255561500003,-0.7813607279999999,0.0017465561050000185,-2.36013354,0.0034588954000000366,1.56815493,0.78447484,0.038806782950000014,0.03880691340000001,-9.760014498849792,0.05133329820062862,-0.0996064000805711,-0.025545082494525237,0.028301512284220808,0.010886188489682484
0.705,0.0029557962300000287,-0.7813235159999999,0.001767124210000018,-2.36017968,0.0034995508000000355,1.56812106,0.78445648,0.03882127190000001,0.038821402800000016,-9.762846817170978,0.051213385477590044,-0.10113342952510958,-0.02515353283733554,0.028376457272254144,0.01058527639191095
0.7075,0.002989036845000029,-0.781286304,0.001787692315000018,-2.36022582,0.003540206200000036,1.56808719,0.78443812,0.03883576085000001,0.03883589220000001,-9.765679135492164,0.05109347275455147,-0.10266045896964812,-0.024761983180145823,0.028451402260287487,0.0102843642941394
0.71,0.0030222774600000284,-0.7812490919999999,0.0018082604200000175,-2.36027196,0.0035808616000000348,1.56805332,0.78441976,0.03885024980000001,0.03885038160000001,-9.768511453813352,0.0509735600315129,-0.1041874884141866,-0.024370433522956127,0.028526347248320823,0.009983452196367863
0.7125,0.0030555180750000284,-0.78121188,0.0018288285250000179,-2.3603181,0.003621517000000035,1.56801945,0.7844014,0.03886473875000001,0.038864871000000016,-9.771343772134538,0.05085364730847432,-0.10571451785872515,-0.02397888386576641,0.028601292236354166,0.009682540098596315
0.715,0.0030887586900000276,-0.7811746679999999,0.0018493966300000171,-2.36036424,0.003662172400000034,1.56798558,0.78438304,0.03887922770000001,0.038879360400000014,-9.774176090455724,0.050733734585435744,-0.10724154730326363,-0.023587334208576713,0.028676237224387505,0.009381628000824779
0.7175,0.00312257683000003,-0.781136804,0.0018703219450000187,-2.36041115,0.0037035321000000367,1.56795112,0.78436436,0.03889333115000001,0.038893464000000016,-9.775828134794603,0.04979783458351984,-0.10821700932634568,-0.023289015754651452,0.02905433339537542,0.009079313128434094
0.72,0.0031575500200000297,-0.7810976359999999,0.0018919616800000185,-2.3604596,0.0037463004000000363,1.56791548,0.78434504,0.03890666360000001,0.038906796000000014,-9.775119631168876,0.047229960023855586,-0.10808933650651893,-0.023177159707254404,0.030038731932270142,0.00877419270680516
0.7225,0.0031925232100000313,-0.7810584679999999,0.0019136014150000194,-2.36050805,0.003789068700000038,1.56787984,0.78432572,0.03891999605000001,0.03892012800000001,-9.774411127543148,0.044662085464191224,-0.10796166368669217,-0.02306530365985735,0.031023130469164904,0.008469072285176212
0.725,0.003227496400000031,-0.7810193,0.0019352411500000192,-2.3605565,0.003831837000000038,1.5678442,0.7843064,0.03893332850000001,0.03893346000000002,-9.773702623917421,0.04209421090452697,-0.10783399086686543,-0.0229534476124603,0.032007529006059625,0.008163951863547278
0.7275,0.0032624695900000324,-0.7809801319999999,0.00195688088500002,-2.36060495,0.0038746053000000393,1.56780856,0.78428708,0.03894666095000001,0.038946792000000015,-9.772994120291692,0.0395263363448626,-0.10770631804703869,-0.022841591565063248,0.03299192754295439,0.007858831441918332
0.73,0.0032974427800000323,-0.7809409639999999,0.00197852062000002,-2.3606534,0.003917373600000039,1.56777292,0.78426776,0.03895999340000001,0.03896012400000001,-9.772285616665965,0.03695846178519835,-0.10757864522721194,-0.0227297355176662,0.03397632607984911,0.007553711020289398
0.7325,0.003332415970000034,-0.780901796,0.0020001603550000207,-2.36070185,0.003960141900000041,1.56773728,0.7842484399999999,0.03897332585000002,0.03897345600000002,-9.771577113040237,0.03439058722553398,-0.10745097240738519,-0.022617879470269144,0.03496072461674388,0.00724859059866045
0.735,0.0033685689300000346,-0.780861316,0.0020225297100000214,-2.36075188,0.004004348500000042,1.56770048,0.78422847,0.03898594530000001,0.038986075400000014,-9.773852614407982,0.034895230641339134,-0.10776065878232935,-0.02327482816309001,0.03532180696960194,0.007122981444582296
0.7375,0.0034053117750000353,-0.78082018,0.002045263875000022,-2.3608027,0.004049274250000043,1.5676631,0.784208175,0.03899820825000001,0.038998338500000014,-9.777620118272456,0.03693613304487243,-0.10828902475465806,-0.024316179226018222,0.03537123123044302,0.0070871279242791406
0.74,0.003442054620000034,-0.780779044,0.0020679980400000212,-2.36085352,0.004094200000000041,1.56762572,0.78418788,0.039010471200000015,0.039010601600000014,-9.78138762213693,0.038977035448405625,-0.10881739072698673,-0.025357530288946384,0.035420655491284106,0.007051274403975987
0.7425,0.0034787974650000346,-0.780737908,0.0020907322050000214,-2.36090434,0.004139125750000042,1.56758834,0.7841675850000001,0.03902273415000001,0.039022864700000014,-9.785155126001403,0.04101793785193892,-0.10934575669931543,-0.02639888135187459,0.03547007975212519,0.007015420883672832
0.745,0.003515540310000033,-0.780696772,0.0021134663700000207,-2.36095516,0.004184051500000041,1.56755096,0.78414729,0.03903499710000001,0.039035127800000013,-9.788922629865878,0.04305884025547212,-0.1098741226716441,-0.027440232414802753,0.035519504012966274,0.006979567363369678
0.7475,0.003552283155000034,-0.780655636,0.0021362005350000213,-2.3610059800000003,0.004228977250000042,1.56751358,0.784126995,0.03904726005000001,0.03904739090000001,-9.792690133730352,0.04509974265900541,-0.1104024886439728,-0.028481583477730964,0.03556892827380736,0.006943713843066522
0.75,0.003589026000000034,-0.7806145,0.0021589347000000214,-2.3610568,0.0042739030000000415,1.5674762,0.7841067,0.039059523000000006,0.039059654000000006,-9.796457637594818,0.04714064506253722,-0.11093085461630645,-0.029522934540657825,0.035618352534648595,0.006907860322764543
0.7525000000000001,0.0036275744250000358,-0.780571351,0.0021827855850000224,-2.36111023,0.004321030060000044,1.56743696,0.7840854150000001,0.03907080735000001,0.03907093880000001,-9.792345062550314,0.04761369622956801,-0.1170484256399087,-0.029100938578083373,0.0358378748647481,0.008194906131632845
0.755,0.0036661228500000356,-0.780528202,0.002206636470000022,-2.3611636600000003,0.004368157120000044,1.56739772,0.78406413,0.03908209170000001,0.03908222360000001,-9.78823248750581,0.048086747396598774,-0.12316599666351068,-0.02867894261550894,0.036057397194847594,0.009481951940501089
0.7575000000000001,0.003704671275000037,-0.7804850529999999,0.002230487355000023,-2.3612170900000002,0.0044152841800000455,1.56735848,0.784042845,0.03909337605000001,0.03909350840000001,-9.784119912461307,0.04855979856362957,-0.12928356768711294,-0.02825694665293449,0.0362769195249471,0.01076899774936939
0.76,0.003743219700000037,-0.7804419039999999,0.0022543382400000227,-2.36127052,0.004462411240000045,1.56731924,0.78402156,0.03910466040000001,0.03910479320000001,-9.780007337416803,0.049032849730660334,-0.1354011387107149,-0.027834950690360055,0.036496441855046594,0.012056043558237634
0.7625000000000001,0.0037817681250000386,-0.7803987549999999,0.0022781891250000237,-2.36132395,0.004509538300000047,1.56728,0.784000275,0.03911594475000001,0.03911607800000001,-9.7758947623723,0.04950590089769112,-0.14151870973431716,-0.027412954727785602,0.0367159641851461,0.013343089367105935
0.765,0.0038203165500000384,-0.780355606,0.002302040010000024,-2.3613773800000004,0.004556665360000047,1.56724076,0.78397899,0.039127229100000015,0.03912736280000001,-9.771782187327796,0.049978952064721895,-0.14763628075791915,-0.02699095876521117,0.03693548651524559,0.014630135175974179
0.7675000000000001,0.0038594785050000417,-0.7803117729999999,0.0023262703850000254,-2.361431655,0.00460454049500005,1.5672008849999999,0.783957368,0.03913821225000001,0.039138346200000014,-9.768491239899232,0.05029226226061924,-0.15231409619495706,-0.026826844346121804,0.03729819302752653,0.01525513038340401
0.77,0.003899867520000041,-0.7802665719999999,0.0023512597400000253,-2.36148762,0.00465391178000005,1.56715974,0.783935072,0.03914859300000001,0.03914872680000001,-9.766843547702537,0.050286090514251175,-0.15411240045887947,-0.027178493014000216,0.037947267904168996,0.014556024387963011
0.7725,0.00394025653500004,-0.780221371,0.0023762490950000248,-2.361543585,0.0047032830650000496,1.567118595,0.783912776,0.03915897375000001,0.03915910740000001,-9.765195855505842,0.05027991876788311,-0.15591070472280188,-0.02753014168187863,0.03859634278081147,0.013856918392522014
0.775,0.003980645550000042,-0.78017617,0.0024012384500000255,-2.36159955,0.004752654350000051,1.56707745,0.78389048,0.03916935450000001,0.03916948800000001,-9.763548163309148,0.05027374702151505,-0.15770900898672438,-0.02788179034975706,0.039245417657453964,0.013157812397080986
0.7775,0.00402103456500004,-0.780130969,0.002426227805000025,-2.3616555150000003,0.00480202563500005,1.567036305,0.783868184,0.03917973525000001,0.03917986860000001,-9.761900471112453,0.050267575275146976,-0.1595073132506468,-0.028233439017635472,0.03989449253409643,0.012458706401639989
0.78,0.004061423580000042,-0.780085768,0.0024512171600000257,-2.3617114800000003,0.004851396920000051,1.5669951599999998,0.783845888,0.03919011600000001,0.039190249200000006,-9.760252778915756,0.05026140352877891,-0.1613056175145693,-0.0285850876855139,0.04054356741073893,0.011759600406198958
0.7825,0.004101812595000041,-0.780040567,0.002476206515000025,-2.3617674450000004,0.004900768205000051,1.5669540149999999,0.783823592,0.03920049675000001,0.039200629800000004,-9.758605086719061,0.05025523178241085,-0.1631039217784917,-0.028936736353392313,0.0411926422873814,0.011060494410757961
0.785,0.004143451940000043,-0.77999397,0.002501969000000027,-2.3618251100000003,0.004951663330000054,1.5669116299999999,0.7838005939999999,0.03921032330000001,0.03921045620000001,-9.75956442748971,0.04820327319356481,-0.16542451678377554,-0.029221084096270968,0.04135629481538014,0.010986272655651165
0.7875,0.004185716450000042,-0.779946675,0.002528118050000026,-2.3618836250000004,0.005003320375000052,1.566868625,0.783777245,0.03921987275000001,0.03922000550000001,-9.761827284744026,0.045128421183484625,-0.16800625715973874,-0.029471781376649873,0.041277236169058124,0.011224493020710036
0.79,0.004227980960000043,-0.77989938,0.0025542671000000263,-2.36194214,0.0050549774200000525,1.56682562,0.783753896,0.03922942220000001,0.03922955480000001,-9.76409014199834,0.042053569173404304,-0.17058799753570209,-0.029722478657028793,0.0411981775227361,0.01146271338576892
0.7925,0.004270245470000041,-0.779852085,0.0025804161500000257,-2.362000655,0.005106634465000051,1.566782615,0.783730547,0.03923897165000001,0.03923910410000001,-9.766352999252655,0.03897871716332412,-0.1731697379116653,-0.029973175937407698,0.04111911887641408,0.011700933750827792
0.795,0.004312509980000042,-0.77980479,0.002606565200000026,-2.36205917,0.0051582915100000515,1.56673961,0.783707198,0.03924852110000001,0.039248653400000014,-9.768615856506969,0.0359038651532438,-0.1757514782876286,-0.030223873217786617,0.04104006023009207,0.011939154115886676
0.7975,0.004354774490000041,-0.779757495,0.0026327142500000254,-2.362117685,0.00520994855500005,1.566696605,0.783683849,0.03925807055000001,0.03925820270000001,-9.770878713761284,0.03282901314316362,-0.1783332186635918,-0.030474570498165526,0.04096100158377004,0.012177374480945549
0.8,0.0043970390000000435,-0.7797102,0.002658863300000027,-2.3621762,0.005261605600000053,1.5666536,0.7836605,0.03926762000000001,0.03926775200000001,-9.773141571015598,0.029754161133091,-0.18091495903954827,-0.030725267778544188,0.04088194293744907,0.012415594846004066
0.8025,0.004441211900000043,-0.77966076,0.002686192670000027,-2.36223737,0.005315589460000053,1.5666086449999999,0.783636095,0.039276406250000014,0.03927653915000001,-9.774574657080688,0.034567333738017125,-0.1764768349527373,-0.03071629594442468,0.04186715361703608,0.012278439405046452
0.805,0.004485384800000045,-0.77961132,0.002713522040000028,-2.36229854,0.005369573320000055,1.56656369,0.78361169,0.03928519250000001,0.03928532630000001,-9.77600774314578,0.03938050634294346,-0.17203871086592618,-0.03070732411030517,0.04285236429662314,0.01214128396408883
0.8075,0.004529557700000045,-0.7795618799999999,0.0027408514100000277,-2.3623597100000002,0.005423557180000055,1.5665187349999998,0.783587285,0.039293978750000014,0.03929411345000001,-9.77744082921087,0.04419367894786959,-0.1676005867791152,-0.03069835227618566,0.04383757497621015,0.012004128523131216
0.81,0.004573730600000047,-0.77951244,0.002768180780000029,-2.36242088,0.005477541040000057,1.56647378,0.78356288,0.03930276500000001,0.03930290060000001,-9.778873915275959,0.049006851552795924,-0.16316246269230408,-0.03068938044206615,0.04482278565579721,0.011866973082173595
0.8125,0.004617903500000046,-0.7794629999999999,0.0027955101500000286,-2.36248205,0.005531524900000057,1.566428825,0.783538475,0.039311551250000014,0.03931168775000001,-9.78030700134105,0.053820024157722045,-0.15872433860549315,-0.03068040860794664,0.04580799633538423,0.011729817641215981
0.8150000000000001,0.004662076400000048,-0.77941356,0.0028228395200000297,-2.36254322,0.005585508760000059,1.56638387,0.78351407,0.03932033750000001,0.039320474900000006,-9.78174008740614,0.05863319676264839,-0.154286214518682,-0.03067143677382713,0.04679320701497129,0.011592662200258362
0.8175,0.00470689635000005,-0.7793634049999999,0.0028505690450000305,-2.3626053000000002,0.00564028147000006,1.566338265,0.78348931,0.03932888925000001,0.039329027350000004,-9.782039724349202,0.06021559792570763,-0.15297383736372763,-0.030897178766853554,0.04756141525353353,0.011577790049644971
0.8200000000000001,0.004753010400000051,-0.7793118199999999,0.0028790988800000313,-2.3626692,0.005696631880000062,1.56629136,0.78346384,0.03933697200000001,0.03933711040000001,-9.780072463048215,0.05533645620506435,-0.15791295407245626,-0.03159234841416959,0.047895618610048346,0.011807484479718853
0.8225,0.00479912445000005,-0.779260235,0.002907628715000031,-2.3627331000000003,0.0057529822900000615,1.5662444549999999,0.78343837,0.03934505475000001,0.03934519345000001,-9.77810520174723,0.05045731448442127,-0.16285207078118466,-0.03228751806148559,0.048229821966563155,0.012037178909792723
0.8250000000000001,0.004845238500000052,-0.77920865,0.002936158550000032,-2.362797,0.005809332700000063,1.5661975499999998,0.7834129,0.03935313750000001,0.039353276500000006,-9.776137940446244,0.045578172763777985,-0.16779118748991328,-0.032982687708801625,0.04856402532307797,0.012266873339866605
0.8275,0.0048913525500000506,-0.7791570649999999,0.0029646883850000315,-2.3628609000000003,0.005865683110000062,1.5661506449999998,0.78338743,0.03936122025000001,0.03936135955000001,-9.774170679145257,0.04069903104313491,-0.1727303041986417,-0.03367785735611763,0.04889822867959277,0.012496567769940476
0.8300000000000001,0.004937466600000052,-0.7791054799999999,0.0029932182200000323,-2.3629248,0.005922033520000063,1.56610374,0.78336196,0.03936930300000001,0.03936944260000001,-9.77220341784427,0.03581988932249162,-0.1776694209073703,-0.03437302700343366,0.049232432036107596,0.012726262200014356
0.8325,0.004983580650000051,-0.779053895,0.0030217480550000318,-2.3629887000000003,0.0059783839300000625,1.566056835,0.7833364899999999,0.03937738575000001,0.03937752565000001,-9.770236156543286,0.030940747601848544,-0.18260853761609872,-0.035068196650749665,0.0495666353926224,0.012955956630088227
0.835,0.005031009800000052,-0.7790008359999999,0.0030510913300000326,-2.36305436,0.006036337810000064,1.5660085599999998,0.7833103,0.039385037000000005,0.03938517750000001,-9.766608479298133,0.03179431890307743,-0.18223312076463824,-0.03567366260109582,0.04969928618520377,0.013306515996235604
0.8375,0.0050790965000000535,-0.7789470399999999,0.0030808413250000334,-2.3631209,0.006095093425000066,1.5659596,0.78328375,0.039392472500000004,0.039392613750000006,-9.762150594080904,0.03551424671522833,-0.17920043713309627,-0.0362342767029573,0.049731160695818934,0.013717507830419456
0.84,0.0051271832000000525,-0.7788932439999999,0.0031105913200000328,-2.3631874400000004,0.006153849040000064,1.56591064,0.7832572,0.039399908000000004,0.039400050000000006,-9.757692708863674,0.03923417452737906,-0.17616775350155442,-0.03679489080481875,0.049763035206434096,0.014128499664603288
0.8425,0.005175269900000054,-0.7788394479999999,0.0031403413150000335,-2.36325398,0.0062126046550000655,1.56586168,0.78323065,0.039407343500000004,0.039407486250000005,-9.753234823646444,0.04295410233952996,-0.17313506987001245,-0.037355504906680236,0.04979490971704925,0.014539491498787138
0.845,0.005223356600000053,-0.7787856519999999,0.003170091310000033,-2.3633205200000003,0.006271360270000065,1.56581272,0.7832041,0.039414779000000004,0.039414922500000005,-9.748776938429215,0.0466740301516807,-0.17010238623847063,-0.037916119008541686,0.049826784227664414,0.01495048333297097
0.8475,0.005271443300000054,-0.778731856,0.0031998413050000336,-2.3633870600000004,0.006330115885000066,1.56576376,0.78317755,0.039422214500000004,0.039422358750000004,-9.744319053211985,0.050393957963831594,-0.16706970260692866,-0.038476733110403165,0.049858658738279577,0.015361475167154822
0.85,0.005319530000000056,-0.7786780599999998,0.0032295913000000343,-2.3634536,0.006388871500000067,1.5657148,0.783151,0.039429650000000004,0.039429795000000004,-9.739861167994764,0.054113885775981245,-0.16403701897540057,-0.03903734721226387,0.049890533248895454,0.015772467001336984
0.8525,0.005369620625000058,-0.7786220409999999,0.0032605807000000357,-2.36352302,0.00645007007500007,1.565663815,0.7831233145000001,0.039436490750000004,0.039436635750000004,-9.742339558213445,0.05685882436266013,-0.17339935536389164,-0.038925318988636194,0.050570100537807035,0.01467853067779643
