rsonawane2002/My_IMU/logs_2/traj_1000/imu_1000.csv
time,j1,j2,j3,j4,j5,j6,j7,gripper1,gripper2,imu_ax,imu_ay,imu_az,imu_gx,imu_gy,imu_gz
1.0333333333333345,0.00016703313,-0.78463066,4.018289e-05,-2.3561552,9.3351664e-05,1.5709763,0.7860001,1.2118691e-05,1.21186895e-05,-9.809999,0.000632327632047236,-0.0050887167,0.0,-0.0,0.0
1.0500000000000012,0.00016665968,-0.7846152,3.9605246e-05,-2.3561676,0.00016117917,1.5709764,0.7859992,0.0031457983,0.0031474053,-10.097996797371447,-0.029447360719579253,-0.1106790467064527,-0.001748894478959509,-0.014180583951256456,0.0014333034524766789
1.0666666666666678,0.00016677163,-0.7846009,3.973316e-05,-2.3561795,0.00015016847,1.5709763,0.7859992,0.0060938,0.0060952716,-9.826065172021815,-0.02195096270026804,-0.0371262023538237,0.0034687624505891843,-0.013052813609192372,0.0014779087245435317
1.0833333333333344,0.00016699111,-0.7845877,3.9922794e-05,-2.356191,0.00014065062,1.5709754,0.7859992,0.008805983,0.008807336,-9.790083471269247,-0.028791173340485324,0.009598145082266769,0.0024555627522081895,-0.012212868487598134,0.0005637387058654497
1.100000000000001,0.00016742492,-0.78457505,4.0241433e-05,-2.3562024,0.00013260507,1.5709726,0.7859992,0.011301214,0.011302459,-9.855036629737388,-0.022508139468244235,-0.03142721587977452,0.001012766852017495,-0.012799406882579138,-0.002600235733884709
1.1166666666666676,0.00016820873,-0.7845633,4.0774208e-05,-2.3562138,0.00012606979,1.5709697,0.7859992,0.013596849,0.013597994,-9.81421411242654,-0.026390952879491874,-0.032122800375875754,-0.001155479952486718,-0.01096170039666379,-0.0030807372289227003
1.1333333333333342,0.0001695046,-0.7845517,4.1622432e-05,-2.3562253,0.000121127945,1.5709668,0.7859992,0.015708858,0.015709912,-9.809330251750788,0.0020316471500795713,-0.006611223762295514,-0.002484861958761311,-0.011600141276054958,-0.0016946452928954898
1.1500000000000008,0.00017149832,-0.7845401,4.290169e-05,-2.3562367,0.00011790185,1.570964,0.7859973,0.017651923,0.017652893,-9.818583653528037,0.00914565730772102,-0.01825095444930119,0.0014168967817527816,-0.01690337488485659,-0.0032075568614524604
1.1666666666666674,0.00017439663,-0.7845284,4.474052e-05,-2.3562481,0.00011655106,1.570961,0.78599536,0.019439558,0.019440452,-9.778243163622806,-0.01568057199590687,-0.00016402755782254919,-0.0007793947208066791,-0.012952833386929336,0.005035524749050071
1.183333333333334,0.0001784251,-0.7845158,4.727899e-05,-2.3562598,0.00011726645,1.5709575,0.78599346,0.0210842,0.021085024,-9.811786449374646,-0.029093593465047526,0.008917576721566595,-0.0023735753323737884,-0.01254446056551838,-0.001028259733758461
1.2000000000000006,0.00018382599,-0.7845024,5.066723e-05,-2.3562722,0.00012026835,1.5709509,0.7859897,0.022597292,0.022598049,-9.809142057607858,-0.005327476823083489,-0.00450144553598681,-0.0011714954925229617,-0.00973463091969807,0.0035679675333747532
1.2166666666666672,0.00019085607,-0.7844877,5.5064444e-05,-2.356287,0.00012580218,1.5709438,0.7859859,0.023989346,0.023990044,-9.832812447481627,0.010912171086648213,0.025424047485183607,-0.001426598112785408,-0.013264000236257324,-0.0005744119891412917
1.2333333333333338,0.00019978502,-0.78447145,6.063748e-05,-2.3563058,0.00013413577,1.5709333,0.7859805,0.025270052,0.025270695,-9.858341005326944,0.013007607816324922,-0.04142552120705092,-0.0031333848672824623,-0.014821213978575165,-0.001366326197311815
1.2500000000000004,0.00021089366,-0.7844532,6.756022e-05,-2.3563259,0.00014555741,1.5709225,0.7859748,0.026448313,0.026448904,-9.798176504844825,-0.009837719320273018,-0.013350321246789757,-0.0008958509120390276,-0.012590293160760982,-9.474773797872132e-05
1.266666666666667,0.00022447258,-0.7844329,7.601243e-05,-2.3563483,0.00016037223,1.5709081,0.7859672,0.027532328,0.027532874,-9.767325911332987,0.021084596976519966,0.01983828145312883,0.0004696355939718567,-0.011530365457517592,0.0002665906065879844
1.2833333333333337,0.00024082043,-0.7844098,8.61789e-05,-2.3563752,0.00017890033,1.5708901,0.78595763,0.028529625,0.028530128,-9.813188118787654,0.0050672304297902804,-0.0018329226691816457,-0.0015323013054863598,-0.013128275962197084,0.0016267402294070964
1.3000000000000003,0.00026024302,-0.7843837,9.824871e-05,-2.356405,0.00020147597,1.5708705,0.7859467,0.02944715,0.029447613,-9.789921199802059,0.02927063911863713,-0.020545498614155167,-0.002820777114404987,-0.00898061990631841,-0.001687790559008305
1.3166666666666669,0.0002830518,-0.7843541,0.00011241436,-2.3564403,0.00022844317,1.5708475,0.78593403,0.030291278,0.030291708,-9.800144890621036,0.02496475886880443,-0.014001184703236585,-0.002774021773093631,-0.010991825231306696,0.002704443692147952
1.3333333333333335,0.00030956295,-0.7843207,0.00012887141,-2.356482,0.00026015693,1.5708207,0.78591925,0.031067884,0.03106828,-9.804356021304145,0.0022773199644029723,-0.02469196639567492,-0.005273032950720418,-0.010902373487656075,0.002701662071467411
1.35,0.00034009642,-0.78428304,0.00014781753,-2.3565257,0.00029697924,1.5707896,0.7859022,0.03178237,0.031782735,-9.810727108162919,0.0070211309254292024,-0.01003898241162915,-0.001405905040637197,-0.005540483613571445,-0.003601756831499386
1.3666666666666667,0.00037497492,-0.7842409,0.00016945224,-2.3565764,0.00033927773,1.5707538,0.7858831,0.032439705,0.032440048,-9.812147537992432,-0.004677023080434923,0.0017196283530518906,-0.00441653596360866,-0.007447217199518332,0.001884801625421978
1.3833333333333333,0.00041452344,-0.7841938,0.00019397635,-2.3566344,0.0003874274,1.5707129,0.7858613,0.03304446,0.033044778,-9.776112342204158,0.021563910197426997,-0.029528921245792733,-0.00203947382764865,-0.010780224225449166,0.006494124334330006
1.4,0.0004590679,-0.78414124,0.00022159124,-2.3566992,0.00044180502,1.5706671,0.78583676,0.03360084,0.03360114,-9.777452065042848,0.009609113375479626,-0.005363794563716573,-0.005070013539401345,-0.006134750814406582,0.004933470089786065
1.4166666666666665,0.0005089349,-0.78408295,0.00025249895,-2.3567717,0.0005027923,1.5706162,0.78580916,0.034112725,0.034112997,-9.75938360487123,0.0011638356065448597,-0.02514873421844288,-0.003342936226921282,-0.003765882547967477,0.007088063350129409
1.4333333333333331,0.00056445086,-0.7840186,0.0002869012,-2.3568518,0.00057077047,1.570559,0.7857784,0.034583665,0.034583922,-9.805396385676627,0.061706042858380314,-0.07471537018595312,-0.00434326267371358,-0.004603846044636332,0.007759601669767971
1.4499999999999997,0.0006259416,-0.7839477,0.00032499936,-2.3569396,0.000646124,1.5704963,0.7857445,0.035016928,0.035017166,-9.766098783334712,0.03412317701761338,0.004301697504002465,-0.006303241623157164,-0.002887832128282721,0.0022342318363955745
1.4666666666666663,0.00069373165,-0.7838701,0.000366994,-2.3570356,0.00072923553,1.5704271,0.7857071,0.03541553,0.035415754,-9.771709148864202,0.001291497226581298,-0.07690310511876167,-0.0038167910141158035,0.0008642979055692174,0.0035239581206279553
1.483333333333333,0.00076814415,-0.7837851,0.00041308478,-2.3571398,0.00082048855,1.570351,0.78566605,0.035782248,0.035782456,-9.78466449292221,-0.021959534345248336,-0.032784094252461635,-0.011380916838873129,4.5832027281216434e-05,0.0016794971702269283
1.4999999999999996,0.0008494998,-0.78369254,0.00046347006,-2.3572526,0.0009202643,1.5702679,0.7856211,0.03611963,0.03611983,-9.782809054723247,0.019371461330043246,-0.019405231917263066,-0.011627259409170566,0.002027107669895656,0.0020892002753955365
1.5166666666666662,0.00093811704,-0.78359205,0.0005183464,-2.3573763,0.0010289429,1.5701774,0.78557205,0.036430027,0.036430214,-9.817613300648198,0.03074100629980922,-0.013230229870280604,-0.015412625325848804,0.0060032704651736485,0.0027870137561812995
1.5333333333333328,0.0010343113,-0.783483,0.0005779088,-2.357511,0.001146901,1.5700793,0.7855188,0.036715597,0.036715776,-9.779444903196755,0.015935431721393917,-0.012024392981623524,-0.010466138982340934,0.0033836042987160585,0.0017585886155371685
1.5499999999999994,0.0011383948,-0.7833653,0.0006423507,-2.357655,0.0012745135,1.5699732,0.7854613,0.03697832,0.036978487,-9.772049701475721,0.02465743680712911,-0.03692630622567391,-0.015752947800063248,0.004061144184377013,0.004293578842491013
1.566666666666666,0.0012506767,-0.78323835,0.0007118629,-2.3578124,0.0014121513,1.5698589,0.78539914,0.037220035,0.037220195,-9.762915435021261,-0.007832211900415258,-0.0317937065101235,-0.01301409836218682,0.009753027942356066,0.00610369215182638
1.5833333333333326,0.0013714613,-0.78310186,0.0007866338,-2.3579795,0.0015601795,1.5697356,0.7853323,0.037442412,0.03744257,-9.77071026606489,0.028849167528147604,-0.04041229396488419,-0.011581975438763872,0.015563379616862692,0.000734879698532466
1.5999999999999992,0.0015010494,-0.7829555,0.0008668493,-2.3581605,0.0017189629,1.5696036,0.7852607,0.037646994,0.037647143,-9.760116710919545,0.03687393239085657,-0.08523496266131428,-0.016850563978761387,0.013035560732134105,0.004295081667747568
1.6166666666666658,0.0016397382,-0.7827994,0.00095269276,-2.3583531,0.0018888578,1.5694621,0.7851839,0.03783522,0.03783537,-9.8019749475509,-0.008244612218743959,-0.06576252023313886,-0.01624198111756645,0.015178175856233414,0.009116820418583164
1.6333333333333324,0.0017878199,-0.7826332,0.001044345,-2.3585587,0.0020702188,1.5693111,0.785102,0.038008396,0.038008537,-9.737050667055609,0.006930871834471431,-0.03139745936607265,-0.017493832280946888,0.014059812581695749,0.008520762318668124
1.649999999999999,0.0019455819,-0.78245604,0.0011419836,-2.3587782,0.0022633928,1.5691503,0.78501487,0.038167704,0.03816784,-9.800326189550761,0.02436420937617336,-0.05937470807099246,-0.013939976040008416,0.015962547264026707,0.013056721363257745
1.6666666666666656,0.0021133062,-0.7822678,0.0012457838,-2.359011,0.0024687222,1.5689793,0.7849221,0.038314264,0.0383144,-9.74867558421295,0.039502764083235456,-0.06149998477335402,-0.019364024457880342,0.019434038975551588,0.003970418413685497
1.6833333333333322,0.002291272,-0.78206813,0.0013559172,-2.359258,0.0026865436,1.5687978,0.7848237,0.038449116,0.03844925,-9.773973115160894,0.06835434610950089,-0.050921810693217245,-0.024921894298733413,0.021463271548593562,0.008403022996714549
1.6999999999999988,0.0024797511,-0.78185683,0.0014725529,-2.3595192,0.0029171885,1.5686058,0.78471947,0.03857316,0.03857329,-9.753758877330297,0.08469814233448243,-0.07797474710563879,-0.022420707265370297,0.02103511322895975,0.01104506576075703
1.7166666666666655,0.0026790113,-0.7816335,0.0015958558,-2.3597956,0.003160981,1.5684029,0.7846094,0.038687292,0.038687423,-9.775854379256922,0.05565023539349073,-0.09853674023777081,-0.0205282983390941,0.02593674169955768,0.007893112710344126
1.733333333333332,0.002889315,-0.78139794,0.001725988,-2.3600874,0.00341824,1.5681888,0.7844932,0.038792294,0.038792424,-9.757182180528602,0.0514532109236673,-0.09807937063603128,-0.025936632151715343,0.028226567296187482,0.011187100587454379
1.7499999999999987,0.0031109191,-0.78114986,0.0018631087,-2.360395,0.003689276,1.567963,0.7843708,0.038888887,0.03888902,-9.776064302669846,0.05065379277007686,-0.10825956693295472,-0.023326301103783906,0.02872620054974309,0.00918101993564408
1.7666666666666653,0.0033440737,-0.78088874,0.0020073736,-2.360718,0.003974398,1.5677254,0.784242,0.03897777,0.0389779,-9.771340945164997,0.03353462903898177,-0.10740841480077648,-0.02258059412113697,0.03528885746237455,0.0071468837914511725
1.7833333333333319,0.003589026,-0.7806145,0.0021589347,-2.3610568,0.004273903,1.5674762,0.7841067,0.039059523,0.039059654,-9.796457637594822,0.047140645062536825,-0.110930854616301,-0.029522934540658238,0.03561835253464849,0.006907860322763425
1.7999999999999985,0.0038460155,-0.78032684,0.0023179406,-2.361413,0.0045880834,1.5672146,0.7839648,0.039134752,0.039134886,-9.769040470631463,0.050294319509408665,-0.15171466144031448,-0.026709628123495314,0.03708183473531176,0.015488165715218489
1.816666666666665,0.0041152756,-0.7800255,0.0024845363,-2.3617861,0.0049172253,1.5669403,0.78381616,0.039203957,0.03920409,-9.758055855986832,0.05025317453362151,-0.1637033565331307,-0.029053952576018127,0.04140900057959497,0.010827459078945004
1.8333333333333317,0.004397039,-0.7797102,0.0026588633,-2.3621762,0.0052616056,1.5666536,0.7836605,0.03926762,0.039267752,-9.773141571015595,0.029754161133086335,-0.18091495903955263,-0.030725267778544296,0.04088194293744815,0.01241559484600429
1.8499999999999983,0.004691525,-0.7793806,0.0028410591,-2.362584,0.005621498,1.5663539,0.7834978,0.039326195,0.039326333,-9.782695478116201,0.06184197849926061,-0.15132746512747955,-0.030665455551080804,0.04745001413469496,0.01150122523962015
1.866666666666665,0.004998952,-0.7790367,0.003031258,-2.36301,0.0059971674,1.5660412,0.783328,0.03938008,0.03938022,-9.769580402776292,0.029314367028306205,-0.18425490985233617,-0.03529991986652091,0.04967803651146032,0.01303252144011269
1.8833333333333315,0.00531953,-0.77867806,0.0032295913,-2.3634536,0.0063888715,1.5657148,0.783151,0.03942965,0.039429795,-9.739861167994759,0.05411388577597828,-0.16403701897539028,-0.03903734721226405,0.049890533248894774,0.015772467001338268
1.8999999999999981,0.0056534675,-0.7783046,0.0034361873,-2.3639164,0.006796862,1.5653749,0.78296643,0.039475255,0.0394754,-9.756383769452638,0.07241347635383677,-0.22645259489866149,-0.03829049238807956,0.05442098184163844,0.008479558177734835
1.9166666666666647,0.006000963,-0.777916,0.0036511682,-2.3643973,0.007221379,1.5650214,0.7827745,0.039517224,0.039517373,-9.76892238723989,0.09678016562662783,-0.2003559427331217,-0.0440812249691863,0.05522503420838947,0.012268775785537417
1.9333333333333313,0.0063622105,-0.77751195,0.003874655,-2.3648977,0.0076626632,1.5646538,0.782575,0.039555836,0.039555985,-9.787542629327394,0.07342839050388901,-0.199560626198371,-0.04342178783131297,0.060672391943858574,0.01522592356268991
1.949999999999998,0.006737398,-0.77709234,0.0041067638,-2.365417,0.008120943,1.5642719,0.7823679,0.039591353,0.03959151,-9.752271041993875,0.08052291259898295,-0.1925357640699399,-0.04588270526103888,0.0626520877439052,0.01794104262532279
1.9666666666666646,0.0071267085,-0.7766569,0.004347607,-2.365956,0.00859644,1.5638757,0.7821529,0.039624017,0.039624177,-9.746858399718073,0.11514325081676677,-0.2498599931336062,-0.039393784988771045,0.06310944565051818,0.022262581561335988
1.9833333333333312,0.007530317,-0.77620566,0.0045972946,-2.3665152,0.009089373,1.5634649,0.7819301,0.039654072,0.039654233,-9.732403850658809,0.07370729209171241,-0.22012449070729584,-0.040918169056746126,0.06448676008852891,0.01848396925845743
1.9999999999999978,0.007948398,-0.77573806,0.004855932,-2.3670938,0.0095999455,1.5630394,0.78169924,0.03968172,0.039681885,-9.768469354657121,0.11225893026113316,-0.2690507860541029,-0.04232302327519403,0.06959969836735498,0.022632187174524292
2.0166666666666644,0.008381111,-0.7752541,0.005123621,-2.367693,0.010128363,1.5625991,0.7814604,0.039707158,0.03970733,-9.728607726338598,0.06330748843044195,-0.2804280541086247,-0.04599802976451724,0.0726633548499658,0.02287867374304586
2.033333333333331,0.008828615,-0.77475375,0.00540046,-2.3683126,0.010674815,1.5621437,0.7812134,0.03973054,0.039730716,-9.758083031533912,0.08398118537905128,-0.2633419547754861,-0.04627293986191825,0.0802122462414715,0.019413724905949385
2.0499999999999976,0.009291063,-0.7742366,0.0056865457,-2.3689525,0.01123949,1.5616732,0.780958,0.03975206,0.039752237,-9.711437712526122,0.07834460864183926,-0.2839776565964114,-0.052049589314089685,0.08081281460266725,0.020284214974466468
2.066666666666664,0.009768606,-0.77370256,0.005981965,-2.3696132,0.011822567,1.5611875,0.7806943,0.03977187,0.039772052,-9.754419996960417,0.0986868787456329,-0.3258901454558366,-0.05117478086360755,0.08407016664569154,0.02617642160520823
2.083333333333331,0.010261389,-0.77315146,0.006286809,-2.370295,0.012424223,1.5606862,0.7804223,0.03979008,0.039790265,-9.739119675748771,0.12298349260004636,-0.3321083513128403,-0.060598868768970346,0.09300213982105406,0.022463684596841647
2.0999999999999974,0.010769541,-0.7725833,0.006601162,-2.3709984,0.013044625,1.5601693,0.7801417,0.03980683,0.03980702,-9.73475189961942,0.12272783597841447,-0.3187719097005428,-0.056669885886089955,0.09055508995364628,0.02252936711596494
2.116666666666664,0.011293198,-0.7719977,0.0069251037,-2.3717232,0.013683926,1.5596365,0.7798525,0.03982225,0.039822448,-9.772053991717366,0.13480276638028157,-0.3377452747928349,-0.06027576725008449,0.09818923422457655,0.023477863919519133
2.1333333333333306,0.0118324775,-0.77139467,0.007258711,-2.3724697,0.014342285,1.559088,0.77955484,0.03983643,0.03983663,-9.735450750138764,0.12415387145082772,-0.386786613564658,-0.05803047714357145,0.09942877718843346,0.02530641435344121
2.1499999999999972,0.012387505,-0.770774,0.0076020584,-2.3732378,0.015019841,1.5585234,0.7792485,0.039849464,0.03984967,-9.716879145435055,0.16634222860670367,-0.42033426909035715,-0.0674374033361073,0.10148774931305359,0.02060365211619852
2.166666666666664,0.012958388,-0.77013564,0.007955217,-2.3740282,0.015716733,1.5579426,0.7789333,0.039861463,0.03986167,-9.762377567180057,0.12578293189195777,-0.4452505018227076,-0.0657515238912054,0.09908284024273999,0.025544513484096903
2.1833333333333305,0.0135452375,-0.76947945,0.008318249,-2.374841,0.016433094,1.5573456,0.7786093,0.039872486,0.039872702,-9.737923576589779,0.11962308452573922,-0.4836420780693333,-0.06229711572299511,0.1020507455789686,0.02482385204624323
2.199999999999997,0.014148155,-0.7688052,0.008691226,-2.3756757,0.017169047,1.5567323,0.7782764,0.03988263,0.03988285,-9.729713852164384,0.14347578037412012,-0.4580035871908374,-0.06916224473432549,0.10402246068085919,0.028724782438166566
2.2166666666666637,0.014767239,-0.7681132,0.009074199,-2.376532,0.017924722,1.5561025,0.77793455,0.03989195,0.039892178,-9.7400077228113,0.13343897127642346,-0.5014203078568512,-0.06557527331920664,0.11180884472389088,0.02907595819115984
2.2333333333333303,0.015402579,-0.76740277,0.009467228,-2.3774114,0.018700216,1.5554562,0.7775839,0.039900526,0.039900754,-9.749563670088246,0.18339959424960425,-0.5500688667270397,-0.07448467174617282,0.1090746521225974,0.032411133459244394
2.249999999999997,0.016054258,-0.76667416,0.009870364,-2.378313,0.019495632,1.5547934,0.77722424,0.039908413,0.039908648,-9.757784709826828,0.1746980384352107,-0.5178819698935938,-0.07240368349700603,0.12393445585674098,0.025839791952450293
2.2666666666666635,0.01672236,-0.7659274,0.010283659,-2.379238,0.020311076,1.5541137,0.7768552,0.039915662,0.0399159,-9.705027048799414,0.13729300413283532,-0.555011945515051,-0.07308301291779244,0.12271010973653912,0.02611207935342044
2.28333333333333,0.01740696,-0.765162,0.010707161,-2.3801854,0.021146638,1.5534174,0.77647734,0.039922334,0.03992258,-9.730059042973933,0.16072867613315595,-0.5879806389455939,-0.07512211206623162,0.1280360998272636,0.030751980517580907
2.2999999999999967,0.018108122,-0.7643781,0.011140913,-2.3811553,0.022002397,1.5527043,0.7760904,0.039928466,0.039928716,-9.732095483548486,0.19468393776619272,-0.5644682605608222,-0.07866945121512763,0.1270552597956066,0.0341947568472025
2.3166666666666633,0.018825915,-0.7635756,0.011584948,-2.382148,0.022878446,1.5519744,0.77569413,0.039934095,0.039934352,-9.759311339100075,0.13782124165237694,-0.6399730755937684,-0.08197008118363482,0.13187174108055844,0.030214553570962675
2.33333333333333,0.019560399,-0.7627544,0.012039309,-2.383164,0.023774846,1.5512273,0.77528876,0.03993928,0.03993954,-9.723269352031558,0.17949840986318674,-0.6415658573086206,-0.07842978797211063,0.13490864565835997,0.030466499144149565
2.3499999999999965,0.020311624,-0.7619144,0.01250403,-2.3842027,0.024691664,1.5504632,0.7748742,0.03994404,0.03994431,-9.728863241717477,0.1838982021251716,-0.657992110097504,-0.08319093680159359,0.1397771738929638,0.027357890523078403
2.366666666666663,0.021079645,-0.76105577,0.012979136,-2.3852646,0.025628956,1.549682,0.7744503,0.039948422,0.039948698,-9.720782254015337,0.20454439644570932,-0.6759948575925836,-0.08590729503909497,0.1429742111539977,0.028783761233584938
2.3833333333333298,0.021864496,-0.7601786,0.013464657,-2.3863504,0.026586777,1.5488838,0.77401704,0.039952453,0.039952733,-9.6892329880281,0.20923130526221692,-0.6844399369916554,-0.08537539488572107,0.14679661336805994,0.028146210304261444
2.3999999999999964,0.022666223,-0.75928223,0.013960615,-2.3874593,0.027565176,1.5480684,0.7735745,0.03995615,0.03995643,-9.705778973310565,0.24126522986570512,-0.7930642158379666,-0.09197410325089292,0.14830157793739476,0.030616774978547652
2.416666666666663,0.02348485,-0.75836694,0.014467032,-2.3885922,0.028564185,1.5472357,0.77312267,0.039959546,0.039959837,-9.696872174243902,0.21967408692293575,-0.7615831426289773,-0.09374600134118913,0.15101355048789009,0.03513728304395016
2.4333333333333296,0.024320412,-0.7574329,0.014983927,-2.3897479,0.029583849,1.546386,0.7726615,0.03996266,0.03996296,-9.687129748593799,0.218718516173774,-0.8455832529294058,-0.0935825607583734,0.1575879373862486,0.034578683864626016
2.449999999999996,0.025172941,-0.7564798,0.0155113125,-2.3909273,0.030624196,1.5455189,0.77219105,0.039965518,0.03996582,-9.693532378755311,0.23684266750383742,-0.8214370550121108,-0.09171484505157979,0.16244830916998462,0.037360100978616056
2.466666666666663,0.026042439,-0.7555078,0.0160492,-2.39213,0.031685244,1.5446343,0.7717112,0.039968133,0.039968442,-9.705320372372986,0.22823008011988954,-0.8731503316653196,-0.09780776168861564,0.16413480156850843,0.04020558518509232
2.4833333333333294,0.02692893,-0.7545168,0.016597597,-2.3933556,0.03276701,1.543733,0.77122194,0.03997055,0.039970864,-9.70147123356203,0.19782052666652208,-0.9136464442574019,-0.09455820877980509,0.1673680498846179,0.03668316757115856
2.499999999999996,0.027832415,-0.753507,0.017156513,-2.3946056,0.0338695,1.542814,0.7707233,0.03997277,0.03997308,-9.71342928495202,0.22977623793484503,-0.8931886597407969,-0.10044304455395303,0.17081714908063703,0.035021659823771506
2.5166666666666626,0.028752897,-0.7524781,0.017725943,-2.395879,0.034992725,1.5418776,0.77021533,0.03997479,0.039975114,-9.68960358980059,0.24984135180365982,-0.9714425682360728,-0.10290908536153791,0.17691982981382748,0.04094067428418359
2.533333333333329,0.02969038,-0.75143003,0.018305888,-2.3971758,0.036136683,1.5409244,0.76969784,0.039976653,0.039976977,-9.696004720636987,0.284496633026223,-0.9658800580420304,-0.10212899399695947,0.17175666758251573,0.039445337792812174
2.549999999999996,0.03064486,-0.75036293,0.01889635,-2.3984962,0.037301354,1.5399538,0.76917106,0.039978366,0.03997869,-9.641711206701949,0.25845517195649875,-0.9979997478306482,-0.10765456727647063,0.18060740981757506,0.04265897567612946
2.5666666666666624,0.03161633,-0.74927706,0.019497313,-2.3998399,0.038486756,1.5389653,0.7686349,0.039979957,0.039980285,-9.688112824909155,0.2881410624812421,-1.0386253806149395,-0.11211968930501137,0.19001519038013245,0.04157634992354314
2.583333333333329,0.03260476,-0.74817216,0.020108772,-2.4012072,0.039692834,1.5379604,0.76808935,0.039981376,0.039981715,-9.68562503364332,0.2863941291265323,-1.0768689919314727,-0.10830338344012488,0.1907862215294599,0.039451398374175765
2.5999999999999956,0.033610135,-0.7470483,0.020730725,-2.4025981,0.0409196,1.5369381,0.76753455,0.039982684,0.039983027,-9.672171009228453,0.2812783383686961,-1.1291122815329664,-0.11177778132036233,0.1937059996193894,0.0429788620406291
2.6166666666666623,0.034632448,-0.74590564,0.021363145,-2.4040124,0.042166993,1.5358982,0.76697034,0.0399839,0.039984245,-9.670530542587473,0.28986481796708385,-1.1219648617785938,-0.11079351055898172,0.19402724176070027,0.04056459881136137
2.633333333333329,0.03567164,-0.74474394,0.022006016,-2.4054496,0.043434992,1.5348418,0.7663969,0.039985005,0.039985355,-9.702650723254573,0.32299746409356617,-1.214105735977372,-0.10871868522004242,0.19922895578551236,0.0428426100940073
2.6499999999999955,0.036727685,-0.74356353,0.022659322,-2.4069107,0.044723548,1.5337678,0.76581424,0.039986003,0.03998636,-9.658490734939399,0.2967267629683804,-1.202032519496247,-0.1158934336608747,0.20067946752872168,0.04491415865772314
2.666666666666662,0.037800565,-0.74236435,0.023323037,-2.408395,0.046032622,1.5326767,0.7652222,0.0399869,0.039987266,-9.663237791762407,0.34805422468436126,-1.2337932723202987,-0.11640668049754208,0.20789956605823603,0.04254790048390416
2.6833333333333287,0.038890228,-0.7411465,0.023997135,-2.4099023,0.047362164,1.5315688,0.7646209,0.03998774,0.039988104,-9.665877748610626,0.34755492028297896,-1.279639411303416,-0.12070228838913835,0.2041894895502676,0.04365159713592142
2.6999999999999953,0.039996646,-0.7399098,0.024681587,-2.411432,0.048712116,1.5304435,0.7640104,0.0399885,0.039988868,-9.647090862825596,0.3711619121393076,-1.2997719864776356,-0.12144376718147235,0.21646974903341917,0.043171376775762514
2.716666666666662,0.041119736,-0.7386546,0.025376368,-2.4129846,0.05008239,1.5293015,0.76339066,0.039989177,0.039989557,-9.630467721720015,0.3678692409049195,-1.396565224035505,-0.12358881025724475,0.219164809823981,0.047283193264145
2.7333333333333285,0.042259455,-0.7373808,0.026081435,-2.4145608,0.05147296,1.5281426,0.7627617,0.039989818,0.039990194,-9.64801141574256,0.3852736571199553,-1.3743778054477285,-0.11868328671647461,0.21522489066053394,0.048859521968103344
2.749999999999995,0.04341574,-0.7360884,0.02679675,-2.4161596,0.052883744,1.5269668,0.7621236,0.03999037,0.039990757,-9.606817288167191,0.40450927874607134,-1.4428191485300557,-0.12446727439539361,0.22141789586079233,0.04705123724027341
2.7666666666666617,0.044588536,-0.73477775,0.02752228,-2.4177814,0.05431466,1.5257742,0.76147634,0.039990883,0.03999127,-9.643965935317311,0.40667726031655294,-1.4864318536621406,-0.1281093470434528,0.22131038269961917,0.04646740664460205
2.7833333333333283,0.045777775,-0.7334487,0.02825798,-2.419426,0.055765618,1.524565,0.7608201,0.039991364,0.039991755,-9.614198692357688,0.40614117991239673,-1.4988486022313747,-0.12666739041239714,0.2322321478228186,0.042233718207552486
2.799999999999995,0.046983384,-0.73210126,0.029003806,-2.4210927,0.057236537,1.5233389,0.76015484,0.039991785,0.039992183,-9.625563744507975,0.39692470164784155,-1.5330635143138922,-0.13270657186723023,0.2365737795669367,0.04602781642314109
2.8166666666666615,0.048205283,-0.7307358,0.029759718,-2.422782,0.058727335,1.5220966,0.75948066,0.039992176,0.03999258,-9.584325230704405,0.4530371335439587,-1.6049106920193004,-0.13556693413975043,0.23829867975311103,0.04863553258810349
2.833333333333328,0.049443398,-0.72935194,0.030525656,-2.4244936,0.06023789,1.5208375,0.7587974,0.039992534,0.039992936,-9.57071498261208,0.44807616753141005,-1.610689694595871,-0.13357460267214444,0.24354412033978817,0.05081801229035335
2.8499999999999948,0.05069766,-0.72795033,0.03130158,-2.4262276,0.06176813,1.5195622,0.7581053,0.03999283,0.039993245,-9.598971588188094,0.4507585277969851,-1.657331714841097,-0.13576562941525747,0.23881113716375357,0.04600020147957046
2.8666666666666614,0.051967937,-0.72653073,0.032087423,-2.427984,0.063317925,1.5182709,0.7574043,0.039993104,0.039993517,-9.575943864828636,0.48154513176142694,-1.705207618347162,-0.13714570174995752,0.24611854033052025,0.05498374201263841
2.883333333333328,0.053254176,-0.72509354,0.032883145,-2.4297626,0.06488718,1.516963,0.75669473,0.039993346,0.03999376,-9.623458258070777,0.5030853136510639,-1.7587961900229943,-0.13955346821267722,0.25111709648580277,0.049352696325828935
2.8999999999999946,0.054556288,-0.72363836,0.03368867,-2.4315631,0.06647577,1.5156393,0.7559763,0.03999357,0.03999399,-9.614928690067591,0.47601135663399663,-1.817823537377799,-0.1393547556544968,0.2543188820411928,0.04903272999044361
2.916666666666661,0.05587416,-0.7221656,0.034503944,-2.4333856,0.068083584,1.5142995,0.75524867,0.03999376,0.039994188,-9.59363899284076,0.5246816559703397,-1.8505895890732416,-0.137958945741908,0.259170858783385,0.046635780851619964
2.933333333333328,0.05720769,-0.7206755,0.035328906,-2.4352298,0.06971048,1.5129436,0.7545133,0.039993934,0.039994366,-9.544254904418375,0.5025639305907743,-1.88771391504948,-0.14589697650782937,0.26127291504186695,0.04725631567641045
2.9499999999999944,0.05855676,-0.71916807,0.03616349,-2.4370954,0.07135632,1.511572,0.75376844,0.039994083,0.039994515,-9.568260260050216,0.5140808622581693,-1.9151908249133893,-0.14544422003100688,0.26105899741525795,0.05109339462741091
2.966666666666661,0.059921287,-0.71764326,0.037007622,-2.4389822,0.07302101,1.510185,0.7530158,0.039994206,0.03999464,-9.545958377099621,0.5347922583464885,-1.9826583378886293,-0.14540060512453892,0.26724717615879373,0.04991934400076855
2.9833333333333276,0.061301153,-0.71610147,0.037861247,-2.4408908,0.07470441,1.5087825,0.7522546,0.03999431,0.039994746,-9.541979882006059,0.528434608619159,-2.0580582289268037,-0.14676338313506243,0.2670391128134578,0.052255249749620515
2.9999999999999942,0.06269622,-0.71454257,0.03872429,-2.4428196,0.076406315,1.5073642,0.75148463,0.039994407,0.039994847,-9.532230914044666,0.5693728265731599,-2.104502414900963,-0.14559237042742118,0.2722862150022972,0.0529663344631767
3.016666666666661,0.06410637,-0.71296674,0.03959667,-2.4447691,0.07812664,1.5059297,0.75070655,0.039994475,0.039994925,-9.49913152237578,0.6056927101543949,-2.098191225794888,-0.1465795395454143,0.2809012457137931,0.05452829377533709
3.0333333333333274,0.06553151,-0.71137446,0.040478304,-2.44674,0.07986523,1.5044799,0.7499204,0.039994534,0.03999499,-9.497321267221372,0.5812307725944983,-2.1654320454355913,-0.14908210968445496,0.2840027738936157,0.05467773514394096
3.049999999999994,0.06697148,-0.70976555,0.041369125,-2.4487312,0.081621915,1.5030148,0.74912596,0.03999458,0.039995033,-9.490367449885442,0.5749360130192714,-2.223867870311924,-0.15101067407536847,0.2888295008791191,0.05041007778483766
3.0666666666666607,0.068426184,-0.70814055,0.042269047,-2.450743,0.083396524,1.5015365,0.74832344,0.03999461,0.039995063,-9.479548445659557,0.6512695510095613,-2.2814954764508277,-0.1527970254024603,0.28636426171824947,0.05122433958062789
3.0833333333333273,0.06989547,-0.7064988,0.043178,-2.4527738,0.085188925,1.5000436,0.7475128,0.039994635,0.03999509,-9.490229390489876,0.628016664729683,-2.2594982800764636,-0.15289756608347443,0.2854247318902919,0.05076486721068522
3.099999999999994,0.07137921,-0.7048412,0.044095892,-2.4548252,0.08699891,1.4985356,0.74669415,0.039994653,0.039995108,-9.452344959232278,0.6653669697454687,-2.3832711965615916,-0.15519249904426863,0.2902538749116622,0.05431198315639853
3.1166666666666605,0.07287725,-0.7031675,0.04502263,-2.4568965,0.08882634,1.4970125,0.7458676,0.039994653,0.03999511,-9.449791432886803,0.6533888697627463,-2.3995326684528546,-0.15235262238640335,0.2985805574260956,0.054597510151095485
3.133333333333327,0.07438945,-0.7014781,0.045958128,-2.4589868,0.09067104,1.4954753,0.7450334,0.039994642,0.039995104,-9.416785094635769,0.7052827683469461,-2.4377910024757496,-0.15352295458297496,0.29651274775230596,0.05980274426697739
3.1499999999999937,0.07591565,-0.69977313,0.046902303,-2.4610968,0.09253281,1.4939238,0.74419147,0.039994627,0.039995093,-9.412041893550004,0.6950143903544923,-2.5437909640854524,-0.1510292251455783,0.30106878618922644,0.06060948348943808
3.1666666666666603,0.07745573,-0.69805276,0.04785505,-2.4632256,0.09441151,1.492358,0.74334186,0.039994616,0.039995085,-9.403263174909204,0.7309011651001445,-2.5723735772625966,-0.15517933711242876,0.3037952126337033,0.05900315777057551
3.183333333333327,0.079009525,-0.6963171,0.048816282,-2.4653738,0.096306905,1.4907787,0.7424846,0.039994597,0.039995067,-9.367655798275479,0.7322628356370542,-2.620652017945381,-0.1627812469174724,0.3067841299877366,0.05449927351446643
3.1999999999999935,0.08057689,-0.6945662,0.049785893,-2.4675412,0.098218836,1.4891851,0.74162,0.039994564,0.039995037,-9.336206301498548,0.7693264825607369,-2.637085014588414,-0.1587065757906065,0.3118680990528285,0.051977409314405636
3.21666666666666,0.08215765,-0.6928006,0.050763804,-2.4697263,0.10014711,1.4875784,0.7407479,0.039994515,0.039994992,-9.350602407920569,0.7608089376042033,-2.716574875404838,-0.162603383390889,0.31630950765435184,0.055763482638323154
3.2333333333333267,0.08375166,-0.69102013,0.05174991,-2.4719298,0.10209152,1.4859582,0.7398685,0.039994463,0.039994948,-9.381248783138648,0.7365472859643556,-2.7144100868850938,-0.16218756205089804,0.31706682977567563,0.05527319285896346
3.2499999999999933,0.08535877,-0.6892251,0.05274411,-2.474151,0.10405189,1.4843246,0.738982,0.0399944,0.039994884,-9.317963539990718,0.8189257154686607,-2.8428716469617603,-0.16391245508584323,0.3133723235306625,0.05868963405540626
3.26666666666666,0.08697881,-0.68741566,0.05374629,-2.4763904,0.10602799,1.482678,0.73808837,0.039994333,0.03999482,-9.315622632439908,0.8285467631242182,-2.8651888083000725,-0.16167094775467444,0.3246004657214759,0.05513897335695813
3.2833333333333266,0.08861157,-0.6855921,0.05475636,-2.4786472,0.10801963,1.4810185,0.73718756,0.03999426,0.039994746,-9.287348791400042,0.8325809815538308,-2.917915016398542,-0.16032135779927678,0.3267493441130959,0.05781429394674226
3.299999999999993,0.09025693,-0.6837544,0.055774204,-2.4809213,0.11002659,1.479346,0.73627985,0.03999419,0.03999468,-9.256901705458308,0.8345285315852199,-2.9656569506565176,-0.16956051302806144,0.32750976839228013,0.06172096784621007
3.3166666666666598,0.091914676,-0.68190295,0.05679971,-2.4832125,0.11204867,1.4776608,0.73536533,0.039994124,0.039994612,-9.273100589430051,0.8650241359204335,-3.002117307172624,-0.16418614362969627,0.32324325047297214,0.060437862516627715
3.3333333333333264,0.093584634,-0.68003786,0.05783278,-2.4855208,0.11408564,1.4759634,0.7344441,0.039994057,0.03999455,-9.239906138861915,0.8920347738345763,-3.0769488627584187,-0.16437626952491677,0.3354963061171202,0.0592254683097535
3.349999999999993,0.09526666,-0.67815953,0.058873307,-2.4878452,0.116137296,1.4742538,0.7335162,0.039993983,0.039994475,-9.197712195393741,0.8818372833181374,-3.11815377229429,-0.17242965891963768,0.33219855442004953,0.05978400978467432
3.3666666666666596,0.09696054,-0.6762678,0.059921186,-2.4901862,0.11820341,1.472532,0.73258185,0.039993897,0.03999439,-9.178956761445864,0.9274524456225736,-3.1722147571926085,-0.16713789503395168,0.33854399567702076,0.06468191351285119
3.383333333333326,0.0986661,-0.67436326,0.060976267,-2.4925427,0.120283745,1.4707984,0.73164105,0.039993804,0.039994296,-9.170446395383582,0.9829012845629799,-3.242414716789838,-0.16946294820626567,0.34234443694132044,0.05955354386255629
3.399999999999993,0.100383155,-0.67244583,0.062038463,-2.4949155,0.12237805,1.4690531,0.73069394,0.039993726,0.039994217,-9.133558620034306,1.003523561489079,-3.289227694722501,-0.1682286761031158,0.34501220664460314,0.0592791413417804
3.4166666666666594,0.1021115,-0.67051566,0.06310764,-2.4973044,0.12448616,1.4672967,0.7297407,0.03999364,0.039994135,-9.095740536247218,0.9855022492308917,-3.3402207417688694,-0.1691062723124303,0.34256896636153245,0.0581858207311892
3.433333333333326,0.103850976,-0.66857326,0.06418371,-2.499709,0.12660779,1.4655287,0.7287811,0.03999357,0.039994065,-9.09818685421993,0.9649687882646811,-3.367768609556679,-0.16547901664718773,0.34367034268758745,0.05962655117671384
3.4499999999999926,0.105601385,-0.66661876,0.06526651,-2.5021281,0.12874274,1.46375,0.7278156,0.039993484,0.03999398,-9.089192649895208,0.9711912558119439,-3.4558991740834717,-0.16847720677151498,0.3517161158800283,0.057968239400945275
3.4666666666666592,0.10736252,-0.66465217,0.06635595,-2.5045624,0.13089073,1.4619602,0.72684425,0.0399934,0.039993897,-9.050497220599114,1.0125986835734688,-3.485791126764205,-0.16881010836229693,0.3547722497807616,0.055564209153114184
3.483333333333326,0.1091342,-0.662674,0.06745188,-2.5070112,0.13305151,1.4601598,0.725867,0.03999332,0.039993815,-9.073190870893772,1.0119200965366966,-3.595524970959796,-0.17176918560360227,0.35280996733893877,0.06043409409733367
3.4999999999999925,0.11091616,-0.6606845,0.068554215,-2.509474,0.13522486,1.4583486,0.7248841,0.039993238,0.039993733,-9.060608861389262,1.0585730530496986,-3.625316772741224,-0.17182613965962387,0.35456030849536974,0.06210981532463151
3.516666666666659,0.112708256,-0.6586838,0.0696628,-2.5119498,0.1374106,1.4565272,0.7238957,0.039993156,0.03999365,-9.022714094503266,1.1202500989765036,-3.668501699884762,-0.1714693149879282,0.36132402572234884,0.05952060412457259
3.5333333333333257,0.11451026,-0.65667176,0.07077753,-2.5144396,0.1396084,1.4546957,0.72290176,0.039993078,0.039993573,-8.99546195916311,1.1191083705164298,-3.7244601112625277,-0.17031162187372997,0.3579922556289108,0.06104707143423461
3.5499999999999923,0.116322,-0.654649,0.07189826,-2.5169427,0.141818,1.4528545,0.72190255,0.039992996,0.03999349,-8.9474782212902,1.126449433120577,-3.77324551250608,-0.1697013081513143,0.3626440905818521,0.05983075090137217
3.566666666666659,0.11814325,-0.652616,0.07302487,-2.519459,0.1440392,1.4510037,0.72089803,0.039992914,0.03999341,-8.904642738797055,1.1267178316194908,-3.8256535713757613,-0.16990789671439477,0.3652608264368306,0.06055571953144714
3.5833333333333255,0.11997379,-0.6505724,0.074157216,-2.5219882,0.14627168,1.4491438,0.7198885,0.03999283,0.039993327,-8.930058409527044,1.1102526754872222,-3.8829886553575452,-0.17610684737039808,0.3679156405060463,0.05536639454299923
3.599999999999992,0.12181344,-0.64851886,0.07529519,-2.5245295,0.1485152,1.4472742,0.718874,0.039992757,0.039993253,-8.865241705327326,1.1615118979066206,-3.962016046920057,-0.17027434676649333,0.3731917127088614,0.06201313116811772
3.6166666666666587,0.12366196,-0.64645547,0.076438636,-2.527083,0.15076959,1.4453958,0.7178545,0.039992686,0.039993178,-8.846259368716249,1.2033671740316958,-3.977602017179179,-0.1724813663709839,0.37679584732726495,0.06080429576456927
3.6333333333333253,0.12551913,-0.6443825,0.077587456,-2.529649,0.15303452,1.4435085,0.7168303,0.03999261,0.039993104,-8.79927387888336,1.1875148394368693,-4.050153944812636,-0.17525075757869724,0.37390443480676655,0.06576885016788382
3.649999999999992,0.12738477,-0.6423002,0.07874149,-2.532226,0.15530966,1.4416125,0.7158014,0.03999253,0.03999302,-8.800544584956045,1.2743872947752917,-4.090281270367788,-0.1736167718287017,0.3817239525571133,0.06164877792063994
3.6666666666666585,0.12925859,-0.6402087,0.07990061,-2.5348153,0.15759487,1.4397085,0.71476805,0.039992463,0.039992955,-8.753259952361715,1.2875957544481338,-4.173593503122007,-0.17457307396553873,0.3759845003480009,0.06008498464283657
3.683333333333325,0.13114044,-0.63810825,0.081064664,-2.5374153,0.1598898,1.4377965,0.7137303,0.039992392,0.039992884,-8.741809321083084,1.2791360062149322,-4.208937185323832,-0.16897764731300732,0.37997704746203725,0.05574222769494831
3.6999999999999917,0.1330301,-0.6359993,0.08223354,-2.540026,0.16219416,1.4358764,0.71268827,0.03999232,0.03999281,-8.69636703369223,1.3001959725992893,-4.302664648911173,-0.17137662664375333,0.3814657307593463,0.061077218038853374
3.7166666666666583,0.13492732,-0.6338819,0.08340707,-2.5426466,0.1645077,1.4339486,0.71164197,0.039992243,0.03999273,-8.645211682150892,1.2980617566462926,-4.303133434403884,-0.17079364497345068,0.3806835274750318,0.059710774279303304
3.733333333333325,0.13683183,-0.6317565,0.08458513,-2.5452774,0.1668302,1.4320134,0.7105918,0.03999218,0.039992668,-8.623872960572042,1.335102908431782,-4.374571616580354,-0.1700988939199068,0.379371221801291,0.0675461831600162
3.7499999999999916,0.13874346,-0.62962323,0.08576759,-2.5479176,0.1691613,1.430071,0.70953774,0.03999211,0.039992593,-8.610652716999015,1.3878649969967294,-4.458946969240567,-0.17397900263790048,0.3828939998317904,0.06895666944698824
3.766666666666658,0.14066198,-0.62748224,0.08695429,-2.5505676,0.17150082,1.4281219,0.7084799,0.03999204,0.039992522,-8.5420086123936,1.3701144728214567,-4.473465201844306,-0.16653702164349007,0.385992941920208,0.06249895606647117
3.7833333333333248,0.14258716,-0.625334,0.08814511,-2.5532272,0.17384838,1.4261658,0.7074184,0.03999197,0.03999245,-8.56278531701635,1.385364570442258,-4.588805360046854,-0.1732262332680865,0.3897582346296453,0.06457136628347344
3.7999999999999914,0.14451872,-0.6231787,0.08933989,-2.5558956,0.17620376,1.4242034,0.7063532,0.039991908,0.03999239,-8.476717197485977,1.442019020083802,-4.608720980953832,-0.16734854123732693,0.3869769296899576,0.0576426305450404
3.816666666666658,0.14645652,-0.62101656,0.090538464,-2.5585723,0.17856666,1.4222343,0.70528466,0.039991844,0.039992325,-8.507975270920593,1.4648886555441538,-4.635043402111401,-0.1681461817344901,0.39356476108320554,0.05975680605826575
3.8333333333333246,0.14840028,-0.61884785,0.091740735,-2.5612566,0.18093677,1.4202596,0.7042127,0.03999178,0.03999226,-8.46493495193494,1.479857337457562,-4.683961583466368,-0.16575801571683307,0.39057166608126004,0.059226544708764525
3.849999999999991,0.15034975,-0.61667264,0.092946544,-2.5639489,0.18331388,1.4182792,0.703138,0.039991714,0.03999219,-8.39716172925582,1.5078823816185905,-4.746284282157899,-0.16929720869512593,0.40157362934110225,0.056296089634668436
3.866666666666658,0.15230474,-0.61449146,0.09415574,-2.5666487,0.18569764,1.4162931,0.70206016,0.039991662,0.039992135,-8.38321129782707,1.521519638265679,-4.829092815633846,-0.16572739000405484,0.3979236542985363,0.05664720448308298
3.8833333333333244,0.15426494,-0.6123047,0.09536821,-2.569356,0.18808776,1.4143018,0.7009794,0.0399916,0.03999207,-8.334419895734172,1.5562883531165486,-4.856063430783443,-0.16875992871610593,0.39997507674917737,0.057813374412427364
3.899999999999991,0.15623021,-0.6101123,0.09658375,-2.5720701,0.19048396,1.4123054,0.6998959,0.03999155,0.039992023,-8.297694231741763,1.5521792130396177,-4.973124859870165,-0.17106258230854843,0.39798380185316984,0.059453782261285185
3.9166666666666576,0.15820028,-0.6079145,0.09780222,-2.574791,0.19288594,1.4103042,0.6988098,0.039991487,0.039991956,-8.26303666820314,1.6190106916599027,-5.021008427458291,-0.16640351149195218,0.40336067750201515,0.058682448021335994
3.9333333333333242,0.16017489,-0.60571164,0.09902352,-2.5775182,0.19529349,1.408298,0.6977211,0.039991427,0.039991893,-8.234499604974479,1.5928952464596804,-5.054188514267504,-0.16638338502851083,0.4050950819014989,0.06357818088780742
3.949999999999991,0.16215377,-0.6035042,0.10024748,-2.5802515,0.19770622,1.4062878,0.69663006,0.039991383,0.039991844,-8.196072621358622,1.6591551146652945,-5.118265374734632,-0.16266252051532537,0.404109269956965,0.059132050456417784
3.9666666666666575,0.1641367,-0.60129225,0.10147392,-2.5829895,0.2001239,1.4042735,0.69553685,0.039991338,0.039991796,-8.159687857208622,1.6963612960311392,-5.1946352985935595,-0.16113907410434697,0.4066660317121392,0.061647713255301134
3.983333333333324,0.16612345,-0.59907603,0.102702744,-2.5857325,0.20254613,1.4022553,0.6944417,0.039991304,0.03999176,-8.115082929019382,1.6835335612795865,-5.209229398977438,-0.15993827558475324,0.4061798059318685,0.05650125186347907
3.9999999999999907,0.16811383,-0.596856,0.103933774,-2.5884814,0.20497271,1.4002336,0.6933445,0.039991274,0.03999172,-8.041786217130209,1.7019932372477642,-5.254054551355266,-0.1653406608760849,0.4041186106888743,0.06185586389009966
4.016666666666658,0.17010747,-0.5946323,0.105166845,-2.5912342,0.20740335,1.3982087,0.6922455,0.039991233,0.039991677,-8.04166270053861,1.7262898527677288,-5.314068311607058,-0.15970751659220625,0.4026900659094628,0.06507480063715275
4.033333333333324,0.17210422,-0.59240526,0.10640179,-2.5939913,0.20983773,1.3961805,0.69114465,0.039991204,0.039991643,-8.009381578939054,1.7342027978887664,-5.4033083716601675,-0.16188102152723133,0.40557624319784424,0.060811390569400256
4.049999999999991,0.17410384,-0.59017515,0.107638516,-2.5967526,0.21227553,1.3941495,0.69004214,0.03999118,0.03999162,-7.949257194575426,1.7696774905963768,-5.437546970967444,-0.15950927435958714,0.40588002402938356,0.059519217156407886
4.0666666666666575,0.17610607,-0.5879423,0.10887684,-2.5995169,0.21471646,1.3921157,0.6889384,0.039991163,0.0399916,-7.950605728059815,1.7985897679905218,-5.5276174735809995,-0.16566720739136326,0.41108575358105715,0.061198424285228634
4.083333333333324,0.17811066,-0.5857069,0.110116616,-2.6022847,0.21716027,1.3900797,0.6878334,0.039991144,0.039991576,-7.850877410294249,1.7992650852997574,-5.530738056534349,-0.16057194431666091,0.41156718799536907,0.06400492444614284
4.099999999999991,0.18011741,-0.5834692,0.111357674,-2.6050553,0.21960658,1.3880415,0.6867271,0.039991133,0.03999156,-7.859329174909712,1.850605341274603,-5.577539295645733,-0.1570100241854771,0.41194464577819895,0.06374697861418047
4.116666666666657,0.18212602,-0.5812295,0.11259991,-2.6078281,0.2220551,1.3860016,0.68561983,0.03999113,0.039991554,-7.807499670969052,1.875797204346956,-5.611887619514701,-0.1534354978418184,0.4111806577967943,0.0576594393831733
4.133333333333324,0.18413624,-0.5789882,0.11384311,-2.6106033,0.22450557,1.38396,0.6845118,0.03999112,0.039991543,-7.761342643399277,1.8995860539703973,-5.689855128118002,-0.16041907270774702,0.40934014398360574,0.060759510643490514
4.149999999999991,0.18614781,-0.5767452,0.115087144,-2.6133807,0.22695775,1.3819172,0.68340313,0.039991103,0.039991524,-7.712694624479464,1.958574791878405,-5.769501981874695,-0.15912601437431778,0.41162718821619165,0.061467419369153835
4.166666666666657,0.18816054,-0.5745013,0.116331875,-2.6161594,0.22941117,1.379873,0.6822937,0.039991092,0.03999151,-7.66816692310661,1.9387917107655048,-5.800659707295054,-0.15224572988526378,0.409469625976129,0.062312447819593164
4.183333333333324,0.19017422,-0.57225645,0.117577165,-2.6189399,0.23186561,1.3778278,0.68118393,0.03999109,0.0399915,-7.600046397401955,2.005830710757856,-5.854334869247539,-0.15191062480013953,0.41290780934196664,0.061389656323827826
4.19999999999999,0.19218849,-0.57001096,0.11882282,-2.6217203,0.23432086,1.3757821,0.6800737,0.03999108,0.03999149,-7.588196513157469,1.9676412114498842,-5.886208958922287,-0.15260619027175998,0.41442486653445365,0.06057265295186071
4.216666666666657,0.19420314,-0.5677648,0.12006872,-2.6245012,0.23677659,1.3737364,0.67896336,0.03999108,0.03999149,-7.515812620870144,1.9933817756335184,-5.947486625163957,-0.15151972937153946,0.4089890324579754,0.06065624149524365
4.233333333333324,0.19621795,-0.5655188,0.1213147,-2.6272824,0.23923242,1.3716903,0.67785305,0.039991084,0.03999149,-7.507119943826057,2.025525760408811,-6.039081119927864,-0.1487260596070168,0.406524026825202,0.06166640495291903
4.24999999999999,0.19823267,-0.5632729,0.12256058,-2.630063,0.24168803,1.3696445,0.67674273,0.039991092,0.039991494,-7.432786918946225,2.0543486924197327,-6.0207677932858745,-0.15254878638168964,0.4128163838923531,0.05606511185369569
4.266666666666657,0.200247,-0.56102747,0.12380625,-2.6328433,0.24414317,1.367599,0.67563254,0.039991096,0.039991494,-7.403737776679449,2.077564306561108,-6.109574854083979,-0.15064876716294148,0.4094740105349101,0.05665551579789564
4.2833333333333234,0.20226075,-0.55878305,0.12505154,-2.635623,0.24659759,1.365554,0.6745227,0.03999111,0.039991505,-7.36940737581538,2.0752942952409996,-6.140481804465869,-0.1474146739142312,0.4148950165393294,0.058957235126287914
4.29999999999999,0.20427366,-0.5565394,0.12629631,-2.6384013,0.24905092,1.3635103,0.67341346,0.03999113,0.03999152,-7.3157028956045425,2.1116755617103453,-6.163435643055929,-0.14415576794890397,0.41130033125795357,0.05639349968367696
4.316666666666657,0.20628549,-0.55429727,0.1275404,-2.6411788,0.25150287,1.3614677,0.6723049,0.03999115,0.03999154,-7.271673167660491,2.176118855826582,-6.241693049359027,-0.1448908107278867,0.40932234839391146,0.06232250170693555
4.333333333333323,0.20829597,-0.55205667,0.12878361,-2.6439538,0.2539532,1.3594263,0.67119706,0.03999117,0.039991554,-7.172367747863564,2.18397088923198,-6.293576567798605,-0.14500045702488762,0.40860634393237194,0.06513142513418918
4.34999999999999,0.21030492,-0.5498178,0.13002583,-2.6467264,0.25640157,1.3573867,0.67009014,0.039991193,0.039991572,-7.133162309581828,2.2245536124209817,-6.299450512720344,-0.13887404552325697,0.41181752084387996,0.06226571317044212
4.3666666666666565,0.21231197,-0.5475811,0.1312669,-2.6494963,0.2588475,1.355349,0.6689842,0.039991226,0.039991602,-7.103457060999833,2.2189648333057255,-6.400593021663918,-0.14103481602868514,0.41193041930041824,0.06304411246550357
4.383333333333323,0.21431692,-0.545347,0.13250668,-2.6522634,0.26129094,1.3533133,0.66787946,0.039991256,0.03999163,-7.079231977173614,2.255384813428135,-6.399040793549868,-0.13988730383178674,0.4103309362295218,0.05731881419242727
4.39999999999999,0.21631958,-0.54311544,0.13374501,-2.6550272,0.26373145,1.3512799,0.66677594,0.039991282,0.03999165,-7.016412968187538,2.2471888112577485,-6.487746476880732,-0.14487506014247226,0.40863150738254284,0.06014798347135762
4.416666666666656,0.2183197,-0.5408869,0.13498175,-2.6577878,0.26616874,1.3492494,0.66567385,0.039991315,0.03999168,-6.955917912421637,2.2732400701651088,-6.522317615411458,-0.13588617570351016,0.41231542135027227,0.06189276492988619
4.433333333333323,0.22031702,-0.53866154,0.13621673,-2.6605437,0.2686026,1.3472217,0.66457325,0.03999134,0.039991703,-6.944154685081274,2.3131233033965537,-6.555100360087214,-0.1361041124411153,0.40752769922121423,0.06509361861278727
4.4499999999999895,0.2223113,-0.5364398,0.13744979,-2.6632955,0.27103275,1.3451972,0.66347444,0.039991375,0.039991733,-6.821753365125505,2.297894008257486,-6.614209972329306,-0.13319184212169627,0.41033285645415735,0.05796877236136949
4.466666666666656,0.22430222,-0.5342218,0.13868079,-2.6660423,0.2734587,1.3431761,0.6623775,0.039991416,0.03999177,-6.837508527498882,2.3710827963678986,-6.628155760213343,-0.13102944622925874,0.40373509167429894,0.06387849973654558
4.483333333333323,0.22628963,-0.5320078,0.1399096,-2.6687844,0.27588043,1.3411587,0.6612825,0.039991453,0.039991803,-6.792381135327086,2.367041065918749,-6.674085342956525,-0.12917836491899665,0.4044157719777441,0.05713824413076271
4.499999999999989,0.2282732,-0.52979827,0.14113608,-2.6715214,0.27829745,1.3391454,0.6601896,0.039991498,0.039991844,-6.7067823885147115,2.390264723881206,-6.731238026533088,-0.13162022027925974,0.4049087649411562,0.058371783114126816
4.516666666666656,0.23025285,-0.52759314,0.14236002,-2.6742525,0.28070945,1.337136,0.6590991,0.03999155,0.039991893,-6.635059238434531,2.4424790872051907,-6.768815234469525,-0.1311897187788057,0.40670639246141327,0.06205420886753497
4.533333333333323,0.23222817,-0.5253928,0.1435813,-2.6769776,0.28311625,1.3351308,0.6580109,0.039991606,0.039991945,-6.625877212861421,2.418739491933611,-6.83213668267248,-0.12474950588481826,0.4015361868563393,0.05820044674455262
4.549999999999989,0.23419896,-0.52319765,0.14479981,-2.679697,0.2855175,1.3331305,0.6569253,0.03999166,0.039991993,-6.578171090069702,2.4145671579790786,-6.887258843435129,-0.12450249497310392,0.4047372464821955,0.06095555217755329
4.566666666666656,0.23616509,-0.5210078,0.1460154,-2.6824098,0.28791296,1.3311343,0.6558422,0.039991718,0.03999205,-6.4797120990394825,2.519309316609521,-6.909099099547357,-0.12011450495473117,0.40453402872924343,0.05812391737743424
4.583333333333322,0.23812619,-0.5188236,0.14722785,-2.6851156,0.29030222,1.3291436,0.6547619,0.039991766,0.039992094,-6.517814126471306,2.5304868720386806,-6.948505349708591,-0.12419428809707289,0.3959305698878693,0.05878669092426592
4.599999999999989,0.24008204,-0.51664543,0.14843708,-2.6878138,0.2926851,1.3271585,0.65368444,0.039991833,0.03999215,-6.401484065886177,2.5287323468438188,-6.985423580882628,-0.12352071532761433,0.39777996572698077,0.060861025539654036
4.616666666666656,0.24203242,-0.51447344,0.14964293,-2.6905043,0.2950612,1.3251791,0.65261006,0.039991904,0.039992217,-6.42363432032043,2.557009671950588,-7.033738093206395,-0.11846969083515707,0.4048726657127047,0.060622851350748005
4.633333333333322,0.24397716,-0.51230776,0.15084527,-2.6931868,0.29743028,1.323205,0.651539,0.039991982,0.039992288,-6.309856561373932,2.5769236078732827,-7.045007646552579,-0.11255546067230546,0.39612803970450944,0.0627345031503555
4.649999999999989,0.24591593,-0.5101489,0.15204392,-2.695861,0.29979217,1.3212373,0.6504711,0.039992064,0.039992366,-6.294697013688146,2.6256109144792985,-7.121349764840767,-0.11790131868346264,0.3978190484072163,0.05978981101948794
4.666666666666655,0.24784859,-0.5079968,0.1532387,-2.6985269,0.30214643,1.319276,0.6494066,0.03999215,0.039992448,-6.1871423956879354,2.633795534226205,-7.162330234136054,-0.11532173652323667,0.39163718430016947,0.057210109133218175
4.683333333333322,0.2497748,-0.50585204,0.15442951,-2.7011843,0.30449286,1.3173211,0.64834565,0.03999223,0.039992522,-6.149758476332982,2.627303632697529,-7.183771934075681,-0.11150944480896367,0.3939039538088382,0.05933649983085424
4.699999999999989,0.2516945,-0.50371486,0.15561622,-2.7038317,0.30683118,1.3153731,0.6472884,0.03999231,0.039992597,-6.124109967361338,2.6516592471596696,-7.217236874917908,-0.11620642149323597,0.3900349870568163,0.05856007434140463
4.716666666666655,0.2536072,-0.5015853,0.15679866,-2.7064693,0.30916107,1.3134319,0.6462349,0.039992403,0.039992686,-6.047950447221153,2.674507236451759,-7.291990421359839,-0.1075635854513853,0.387776267546209,0.06448411330177665
4.733333333333322,0.25551298,-0.49946386,0.15797673,-2.7090974,0.3114823,1.3114979,0.6451854,0.039992485,0.039992765,-6.0047649300591015,2.6936425599791893,-7.321625833252967,-0.11078386136024794,0.38353795336250684,0.060243047252415485
4.7499999999999885,0.25741136,-0.49735054,0.15915029,-2.7117162,0.31379458,1.3095716,0.64414,0.039992582,0.039992854,-5.9311143472607,2.70398206543468,-7.3476589108613615,-0.10446176429717398,0.381699126258737,0.056783781342532404
4.766666666666655,0.2593022,-0.49524575,0.1603192,-2.714324,0.3160976,1.307653,0.6430987,0.03999267,0.03999294,-5.887232013812213,2.713265205895392,-7.392872706793294,-0.10659393055413405,0.3792734390853093,0.061284722086707724
4.783333333333322,0.26118538,-0.4931496,0.1614832,-2.7169209,0.31839108,1.3057423,0.64206165,0.039992757,0.03999302,-5.863744769910841,2.76728279308682,-7.443642518041304,-0.10404231441362391,0.38714649572650844,0.05610120484961468
4.799999999999988,0.2630604,-0.49106252,0.1626423,-2.7195065,0.32067487,1.3038397,0.641029,0.039992843,0.039993104,-5.79905816761133,2.7925121916803426,-7.441196484889933,-0.10599152159072578,0.38269035782854316,0.057645239933294505
4.816666666666655,0.26492718,-0.4889846,0.16379632,-2.722081,0.32294866,1.3019457,0.640001,0.03999294,0.039993197,-5.714947411430023,2.7844583106574046,-7.483029282960429,-0.10405758237605237,0.3803972425111611,0.053262606007591175
4.8333333333333215,0.26678565,-0.48691612,0.16494514,-2.724644,0.32521206,1.3000602,0.6389776,0.03999303,0.039993282,-5.665077360879468,2.800746195276622,-7.489806345368231,-0.10141299598792645,0.3787123110401347,0.054909337092478486
4.849999999999988,0.2686355,-0.4848574,0.16608857,-2.7271948,0.32746488,1.2981834,0.6379591,0.03999312,0.039993368,-5.652383961309118,2.843135230970212,-7.570004095841749,-0.09854356957996309,0.3745781774132857,0.05435987124313054
4.866666666666655,0.27047658,-0.4828087,0.16722654,-2.7297332,0.32970682,1.2963158,0.6369454,0.039993204,0.03999345,-5.559387844614176,2.8357864478296704,-7.564274663626979,-0.09553514465964763,0.3761881428486073,0.05818058882441794
4.883333333333321,0.2723086,-0.48077005,0.1683589,-2.7322595,0.33193764,1.2944574,0.6359368,0.039993297,0.03999354,-5.490123133825553,2.887124547461872,-7.60286335204801,-0.0979061464793839,0.37457104815610637,0.056199129770665913
4.899999999999988,0.27413112,-0.47874185,0.16948548,-2.7347724,0.33415708,1.2926085,0.6349333,0.039993387,0.039993625,-5.469929673377124,2.8920523521706634,-7.662977389002195,-0.093615050260861,0.36945498883224814,0.05488741714754415
4.9166666666666545,0.27594432,-0.4767244,0.1706062,-2.7372718,0.3363649,1.2907692,0.63393503,0.039993476,0.03999371,-5.376050165248675,2.9464847246807113,-7.698588641363375,-0.093497179392951,0.36620265216736175,0.05665028261404067
4.933333333333321,0.2777477,-0.47471786,0.17172088,-2.7397583,0.33856088,1.2889397,0.6329422,0.039993577,0.039993804,-5.376956136343669,2.908017210083049,-7.704048198563444,-0.09285811483492505,0.36826675883614424,0.05349476310089721
4.949999999999988,0.2795413,-0.47272247,0.17282943,-2.7422311,0.3407447,1.2871205,0.6319547,0.039993677,0.0399939,-5.331847493280163,2.9955838949935103,-7.741930279837883,-0.09381988112763075,0.36321863469496996,0.05637489204736987
4.966666666666654,0.2813248,-0.4707384,0.1739317,-2.7446904,0.3429162,1.2853115,0.63097286,0.039993778,0.039993998,-5.245877045984124,2.9621583813186514,-7.76642333841488,-0.09240926898345832,0.3614387194234678,0.05530524028349538
4.983333333333321,0.283098,-0.4687658,0.17502756,-2.7471354,0.34507507,1.2835128,0.6299967,0.039993886,0.039994102,-5.19529148519597,2.989749354864495,-7.781551899463113,-0.08746561712754983,0.3605800871051386,0.057664663983754534
4.999999999999988,0.28486058,-0.46680492,0.17611694,-2.7495654,0.347221,1.281725,0.62902635,0.03999399,0.039994203,-5.15215467031364,2.9822179125560435,-7.81375642265672,-0.09328247342172286,0.3580960228711841,0.055967500927857586
5.016666666666654,0.28661236,-0.46485627,0.17719966,-2.7519803,0.34935385,1.2799481,0.62806195,0.039994095,0.039994303,-5.096530899663395,2.987076064121241,-7.833683913092115,-0.0899219551545031,0.3542395023243776,0.05424511504023071
5.033333333333321,0.28835332,-0.4629197,0.17827564,-2.75438,0.35147342,1.2781823,0.6271036,0.0399942,0.039994404,-5.064642830405722,3.0088038976468674,-7.874482191653185,-0.08713392994065661,0.35379311427710214,0.05205178051201897
5.049999999999987,0.29008317,-0.4609957,0.17934471,-2.7567644,0.35357928,1.2764277,0.6261516,0.0399943,0.0399945,-4.950353117373855,3.060538069777831,-7.92060357459243,-0.08306702214125841,0.3519284400047673,0.05992866148429821
5.066666666666654,0.29180172,-0.45908433,0.18040684,-2.7591329,0.3556714,1.2746849,0.6252056,0.0399944,0.039994597,-4.910543184435925,3.032666885641294,-7.919805767612001,-0.08098451003197833,0.34642326070189217,0.05640871108566326
5.083333333333321,0.2935088,-0.45718578,0.1814618,-2.7614856,0.3577495,1.2729537,0.62426615,0.039994497,0.03999469,-4.8890073746492995,3.054542514345381,-7.947700664344161,-0.07956740173145822,0.3433567796745258,0.055151320829114565
5.099999999999987,0.29520413,-0.45530036,0.18250954,-2.763822,0.35981333,1.2712346,0.6233329,0.039994605,0.039994795,-4.854851007733534,3.077673194828174,-8.003024396958827,-0.07981491871182167,0.3443750489980632,0.056403639607502117
5.116666666666654,0.2968876,-0.45342818,0.18354993,-2.7661426,0.36186254,1.2695277,0.62240654,0.03999471,0.039994895,-4.8151955369630555,3.144764317646553,-8.044026971977525,-0.0794999025639267,0.3400627216586939,0.05749350577077518
5.13333333333332,0.29855913,-0.4515694,0.18458287,-2.768447,0.3638971,1.2678325,0.6214866,0.039994814,0.039994996,-4.7402347772271325,3.1496452821036054,-8.016036735356176,-0.0768969311399126,0.3357495383678844,0.05098068056649116
5.149999999999987,0.30021828,-0.44972438,0.18560824,-2.7707334,0.3659167,1.2661502,0.62057346,0.039994925,0.039995104,-4.6769146046218895,3.0983809220436966,-8.083733464769495,-0.07392655660108727,0.3314790538764614,0.05264957103029397
5.166666666666654,0.30186507,-0.4478933,0.18662594,-2.7730026,0.3679211,1.2644804,0.6196672,0.039995026,0.0399952,-4.6170415267380625,3.14397198822517,-8.068278398796448,-0.07288336748678455,0.33304253322422045,0.05461943293836887
5.18333333333332,0.30349937,-0.4460763,0.18763585,-2.7752547,0.36991015,1.2628235,0.6187678,0.03999512,0.03999529,-4.550785879795394,3.163247487333325,-8.122483369995942,-0.07529935652350966,0.33378139066941087,0.05067160316714188
5.199999999999987,0.30512086,-0.44427353,0.18863784,-2.7774887,0.3718837,1.2611794,0.6178756,0.039995223,0.03999539,-4.511236435347034,3.1919911886183665,-8.118476736763215,-0.07385667253267789,0.32900907976389965,0.05395700093592986
5.2166666666666535,0.30672944,-0.4424852,0.18963182,-2.7797053,0.37384143,1.2595485,0.6169904,0.03999533,0.039995495,-4.495153599535314,3.189656866011365,-8.146213062183152,-0.0671068513510269,0.3260041752648595,0.052228382764549726
5.23333333333332,0.3083249,-0.44071162,0.1906177,-2.7819037,0.37578318,1.2579309,0.6161125,0.039995443,0.039995603,-4.434115554666096,3.2078311918694986,-8.154161108949268,-0.06845039595517553,0.3204087564407169,0.05478200666560763
5.249999999999987,0.30990714,-0.4389527,0.19159542,-2.784084,0.3777087,1.256327,0.6152419,0.03999555,0.039995708,-4.359393444303544,3.197481916305003,-8.216924408466017,-0.06856182962820871,0.32112666793213757,0.05208895160595025
5.266666666666653,0.31147596,-0.4372089,0.19256476,-2.7862456,0.3796178,1.2547362,0.61437863,0.03999565,0.039995804,-4.327917675615153,3.258171247479593,-8.19321716856548,-0.06282949827950214,0.315072095297916,0.05371422103266376
5.28333333333332,0.31303123,-0.4354802,0.19352572,-2.788388,0.38151023,1.2531595,0.61352295,0.039995756,0.03999591,-4.289556857540379,3.3045441731401244,-8.235300060922519,-0.06538412046629104,0.3132395966530884,0.058000217522560134
5.2999999999999865,0.31457266,-0.43376693,0.19447818,-2.790512,0.3833859,1.2515967,0.61267483,0.039995853,0.039996002,-4.244843416701307,3.285719666798459,-8.262374502794176,-0.06315771710207725,0.3091491067516549,0.05402531000592955
5.316666666666653,0.31610018,-0.4320692,0.19542204,-2.7926166,0.3852447,1.2500483,0.6118344,0.039995957,0.039996102,-4.204947705053493,3.256111894615642,-8.253578253490701,-0.06290131283768846,0.3074078404235369,0.052795851209386416
5.33333333333332,0.3176137,-0.43038717,0.1963572,-2.794702,0.38708618,1.248514,0.61100185,0.03999605,0.03999619,-4.130219073974492,3.3028974508527593,-8.293814987036267,-0.06031098470115859,0.29985692517052887,0.054426530487359764
5.349999999999986,0.31911302,-0.42872092,0.19728358,-2.7967675,0.3889104,1.246994,0.61017704,0.03999615,0.03999629,-4.0917572912584514,3.3194995972845365,-8.303012890800968,-0.05896857323217819,0.30116008440174935,0.05333813362011594
5.366666666666653,0.32059807,-0.42707074,0.19820108,-2.7988129,0.39071727,1.2454892,0.60936,0.039996244,0.039996378,-4.069650403858671,3.3140068908846327,-8.32777552690943,-0.05493880695131281,0.2963613564981291,0.05220279669116409
5.3833333333333195,0.32206866,-0.42543674,0.19910967,-2.8008392,0.39250648,1.2439997,0.60855097,0.03999634,0.03999647,-3.974231822768931,3.333870131492321,-8.317933651583573,-0.05283511847466813,0.29505191340174974,0.05313455880967086
5.399999999999986,0.32352465,-0.42381892,0.20000918,-2.8028445,0.3942778,1.2425244,0.60775,0.03999644,0.039996568,-3.9424143996423924,3.292704742233715,-8.367013285599684,-0.05692580157585436,0.2952494397346138,0.05096368411621232
5.416666666666653,0.32496592,-0.42221767,0.2008996,-2.8048294,0.39603117,1.2410634,0.60695726,0.03999654,0.039996665,-3.9134879785738423,3.325674475368848,-8.359573917299912,-0.051585502226566875,0.29214703794769303,0.049394468073860026
5.433333333333319,0.3263923,-0.42063308,0.2017808,-2.8067942,0.39776626,1.2396177,0.60617286,0.03999662,0.039996743,-3.8899375883186464,3.3893246707476936,-8.379646861229357,-0.0518772108862987,0.2838122113435469,0.05340518411049636
5.449999999999986,0.32780358,-0.41906524,0.20265271,-2.8087382,0.3994831,1.2381874,0.60539657,0.039996706,0.039996825,-3.8292915293855163,3.333385480719695,-8.425307375104179,-0.05325546501373635,0.28017879466487144,0.04520810901784249
5.466666666666653,0.3291998,-0.41751418,0.20351528,-2.8106608,0.40118152,1.2367727,0.6046285,0.0399968,0.039996915,-3.7394075942966825,3.3778896965119003,-8.446324171451831,-0.0519475588413866,0.2774766557863086,0.04727526353849081
5.483333333333319,0.33058074,-0.41598016,0.2043684,-2.8125625,0.40286124,1.2353733,0.6038693,0.0399969,0.03999701,-3.7294391863675553,3.4254574611076034,-8.478080756976754,-0.0511436489867694,0.2726616025773624,0.0500298280657243
5.499999999999986,0.33194637,-0.41446334,0.20521201,-2.814443,0.4045222,1.2339895,0.60311836,0.039996985,0.039997097,-3.6802230139131247,3.4020982063817224,-8.457996836314724,-0.04576711207161751,0.27559946965498,0.04708308210418673
5.516666666666652,0.33329636,-0.41296378,0.20604609,-2.8163028,0.40616426,1.2326213,0.60237557,0.039997067,0.039997175,-3.641012347318283,3.4056688828538038,-8.463441706033406,-0.04246272253478346,0.2639878926565364,0.05264985108843959
5.533333333333319,0.33463088,-0.41148156,0.20687054,-2.8181407,0.40778732,1.2312691,0.60164195,0.03999716,0.039997265,-3.5748307788276437,3.432302120828712,-8.4416616704904,-0.0461316457424926,0.2620282234970681,0.05059770290251178
5.549999999999986,0.33594957,-0.41001692,0.20768526,-2.8199565,0.40939128,1.2299329,0.60091656,0.03999725,0.03999735,-3.5368277391799654,3.4722854585605116,-8.481286090405387,-0.04988934808112677,0.2636493367714113,0.05024098550086838
5.566666666666652,0.3372526,-0.40856987,0.20849013,-2.8217509,0.41097593,1.2286128,0.6002,0.03999734,0.03999744,-3.518000387388309,3.4424230916182093,-8.462644386168279,-0.04541987689234123,0.25824846961172754,0.04455720135586384
5.583333333333319,0.33853966,-0.40714058,0.20928529,-2.823523,0.4125412,1.2273086,0.59949225,0.039997425,0.03999752,-3.4442625097610944,3.4424389900811536,-8.517961797859554,-0.04106040112499211,0.2553165512223462,0.047111593786349444
5.599999999999985,0.3398108,-0.40572923,0.2100705,-2.8252735,0.414087,1.2260209,0.5987934,0.039997514,0.039997607,-3.3954813106355846,3.495336947639217,-8.552365235201638,-0.04639182562140968,0.252301544013504,0.04529460359165398
5.616666666666652,0.3410657,-0.4043357,0.21084578,-2.8270013,0.415613,1.2247496,0.59810334,0.039997615,0.039997708,-3.374263222107508,3.4835305259763842,-8.55921111103328,-0.04124876387652766,0.25071047850152467,0.04668570946134761
5.633333333333319,0.34230444,-0.40296018,0.21161097,-2.828707,0.41711935,1.2234946,0.59742194,0.039997704,0.039997794,-3.3368798163102995,3.488101799014147,-8.558082956929265,-0.041942970799243966,0.24468071040539596,0.048098001851223704
5.649999999999985,0.343527,-0.40160286,0.21236615,-2.8303902,0.41860583,1.2222562,0.59674984,0.039997797,0.039997883,-3.3073636859315565,3.498623169590654,-8.605649571878802,-0.03443943516784503,0.24162381797127994,0.05163804159146122
5.666666666666652,0.34473318,-0.4002638,0.21311119,-2.8320506,0.42007253,1.2210342,0.59608686,0.039997883,0.03999797,-3.2790440590564613,3.496160208342955,-8.61925486399082,-0.03776211615691967,0.2413579943077712,0.047519579634224075
5.6833333333333185,0.34592298,-0.39894304,0.21384604,-2.8336887,0.4215191,1.2198291,0.5954328,0.039997973,0.039998055,-3.194181060467196,3.4614100280546496,-8.640203937260546,-0.04092552597626587,0.23376685697826866,0.05084699528056208
5.699999999999985,0.3470962,-0.39764062,0.21457076,-2.8353038,0.4229455,1.2186406,0.59478784,0.039998062,0.03999814,-3.1984951240368575,3.5297017932806076,-8.612220844669153,-0.036443966287976345,0.2307051109795617,0.04415347194665025
5.716666666666652,0.34825283,-0.39635664,0.21528524,-2.8368957,0.42435172,1.2174691,0.594152,0.03999814,0.03999822,-3.1399030800207055,3.49758771605589,-8.621330557956467,-0.03596912985446568,0.22962874890053858,0.04459747870965011
5.733333333333318,0.34939286,-0.3950913,0.21598938,-2.838465,0.42573768,1.2163142,0.59352535,0.03999821,0.039998285,-3.107734484190778,3.525467921469082,-8.647113879200047,-0.03899517982125771,0.22759000633052842,0.04105946531712062
5.749999999999985,0.35051623,-0.39384437,0.21668328,-2.8400123,0.4271033,1.2151766,0.59290797,0.03999829,0.03999836,-3.1000836054952248,3.521858251588621,-8.64335344281048,-0.036442648604254314,0.2259242010625675,0.043262483623873214
5.7666666666666515,0.35162282,-0.39261612,0.2173668,-2.8415358,0.4284486,1.2140558,0.59229964,0.039998356,0.039998427,-3.0219354313706734,3.5073376515934527,-8.623541709905972,-0.03247779716755277,0.21404280179121926,0.041546387617695864
5.783333333333318,0.35271257,-0.39140666,0.2180399,-2.8430364,0.42977327,1.2129521,0.5917007,0.039998434,0.0399985,-2.964280021507631,3.5583351259679494,-8.6523501581328,-0.028003837058077616,0.21293225011584718,0.04115658364743435
5.799999999999985,0.35378549,-0.3902159,0.21870257,-2.844513,0.4310775,1.2118654,0.59111094,0.039998494,0.03999856,-2.951538915012691,3.561927901717457,-8.666127967388295,-0.02499512317422921,0.20942273223441243,0.04640951566471976
5.816666666666651,0.3548415,-0.3890441,0.21935481,-2.845966,0.43236113,1.210796,0.5905306,0.039998557,0.03999862,-2.914278008814802,3.5589267877726796,-8.67550419553917,-0.028214823796939292,0.20685482864320368,0.045130556945880744
5.833333333333318,0.35588053,-0.38789102,0.21999659,-2.8473954,0.43362415,1.209744,0.5899595,0.03999863,0.03999869,-2.8781010804781775,3.559419296977303,-8.692496326837848,-0.025783642735367485,0.19716768182708966,0.04281774928461245
5.8499999999999845,0.35690272,-0.38675693,0.22062789,-2.8488019,0.4348665,1.2087088,0.58939785,0.039998684,0.039998744,-2.865402659464165,3.5829269121570184,-8.748885328548022,-0.028046309452113883,0.2001068621646044,0.04624883077853675
5.866666666666651,0.35790792,-0.38564178,0.22124869,-2.8501847,0.43608814,1.2076908,0.58884543,0.03999875,0.039998807,-2.8340279735438467,3.583031820103968,-8.735707149710237,-0.028432118431744424,0.19765780497996635,0.03962196101417119
5.883333333333318,0.35889608,-0.38454556,0.22185895,-2.851544,0.43728903,1.2066908,0.5883024,0.03999881,0.039998863,-2.8013635783336515,3.581419833526785,-8.701773389629254,-0.023300907804309195,0.19128006743887446,0.04305923596910432
5.899999999999984,0.35986716,-0.3834684,0.22245866,-2.85288,0.4384691,1.2057074,0.5877688,0.039998874,0.03999892,-2.715667397078434,3.6076075021596155,-8.742954693482657,-0.029840736892360095,0.18478670934292377,0.04268106888882357
5.916666666666651,0.36082113,-0.3824101,0.22304787,-2.8541927,0.4396285,1.2047417,0.58724463,0.03999893,0.03999897,-2.7404196462068326,3.5945830853315663,-8.735096183480332,-0.02267254129196805,0.1833915333392754,0.037104021571364026
5.933333333333318,0.36175805,-0.38137084,0.22362648,-2.8554816,0.44076708,1.2037933,0.58672976,0.03999899,0.039999023,-2.726282132907807,3.6284643546260544,-8.750568141885992,-0.026446825780780253,0.17925915142000967,0.041503842175874835
5.949999999999984,0.36267787,-0.3803506,0.22419457,-2.8567467,0.44188485,1.2028618,0.5862244,0.03999904,0.039999075,-2.6731802279149903,3.582639195081234,-8.773707978190927,-0.02424241155976375,0.17505485641343205,0.03706507823074684
5.966666666666651,0.36358058,-0.37934938,0.2247521,-2.857988,0.44298184,1.2019479,0.58572847,0.039999098,0.039999124,-2.6321664311440887,3.6104689592941646,-8.753710672590286,-0.021856736716145818,0.17512061399296203,0.03663417833946059
5.983333333333317,0.36446622,-0.37836716,0.22529908,-2.8592062,0.44405806,1.2010515,0.58524185,0.039999157,0.03999918,-2.5776989646869204,3.6314080824023183,-8.753869533821737,-0.023975454197117017,0.1716275720035486,0.04073599811728585
5.999999999999984,0.36533475,-0.3774039,0.22583547,-2.860401,0.4451134,1.2001722,0.5847646,0.039999217,0.039999235,-2.580437183706097,3.659509554067023,-8.775388150707643,-0.019297536920365045,0.16370495366605722,0.03922658508065323
6.016666666666651,0.36618626,-0.3764596,0.22636135,-2.861572,0.446148,1.1993104,0.5842967,0.039999273,0.039999288,-2.5383606697250936,3.6296692103116377,-8.795566970570468,-0.021398421968240648,0.16344399017200498,0.03553092377110216
6.033333333333317,0.3670208,-0.37553433,0.22687672,-2.8627203,0.44716185,1.1984658,0.5838382,0.039999336,0.039999347,-2.539372983470707,3.628308898547334,-8.790331186428153,-0.019526772103411305,0.15763952166429956,0.03418835724577738
6.049999999999984,0.36783826,-0.3746279,0.22738156,-2.8638444,0.44815502,1.1976383,0.58338916,0.039999384,0.0399994,-2.447015514345805,3.629167337912001,-8.804668797806722,-0.021648848775637254,0.1521797832168246,0.03180732166743507
6.06666666666665,0.36863872,-0.3737403,0.22787596,-2.8649457,0.44912755,1.196828,0.5829494,0.03999944,0.039999463,-2.4642176536059437,3.6011848096787475,-8.773627276674663,-0.022313066612160523,0.15003292205922697,0.03274278331950148
6.083333333333317,0.36942223,-0.37287158,0.22835983,-2.8660235,0.45007932,1.1960349,0.58251905,0.039999492,0.03999954,-2.38630903698819,3.6807632561259274,-8.803546725846541,-0.02007668100377011,0.14833499963308627,0.03154007168277637
6.099999999999984,0.37018877,-0.37202173,0.22883324,-2.867077,0.4510104,1.1952591,0.58209795,0.03999955,0.039999634,-2.3957130301997323,3.6469976066330325,-8.772096517592583,-0.017683985815194276,0.15032742857809225,0.031076435024954392
6.11666666666665,0.37093857,-0.3711906,0.22929624,-2.8681076,0.45192108,1.1945008,0.5816862,0.0399996,0.03999974,-2.37372137563442,3.668127800949155,-8.817967554203081,-0.017940940657028042,0.14156190702259344,0.03708187717654297
6.133333333333317,0.37167147,-0.3703781,0.22974883,-2.869115,0.4528113,1.1937593,0.5812836,0.039999645,0.03999988,-2.3517988726668015,3.6827497523913792,-8.815960927816922,-0.01801525472377202,0.14053719769565112,0.029622487030821078
6.1499999999999835,0.37238756,-0.36958447,0.23019104,-2.8701,0.4536811,1.1930343,0.5808903,0.039999675,0.04,-2.339069729476592,3.666533139235674,-8.829194735791637,-0.018588169490695684,0.13172900058445047,0.03651206514756218
6.16666666666665,0.37308693,-0.36880934,0.23062295,-2.871062,0.45453057,1.1923264,0.58050615,0.039999682,0.04,-2.255393708636483,3.677709458241714,-8.808683666019743,-0.022603548330932585,0.13240878639357068,0.032616403865511755
6.183333333333317,0.37376955,-0.36805272,0.2310446,-2.8720007,0.45535982,1.1916355,0.5801312,0.039999694,0.04,-2.289287864760452,3.7005015465725233,-8.822700091831969,-0.012104715847888426,0.1268045333338188,0.0317703143467264
6.199999999999983,0.37443563,-0.36731452,0.23145594,-2.8729167,0.45616886,1.1909616,0.5797653,0.039999697,0.04,-2.264211139561519,3.683177166936842,-8.815993093540019,-0.016754876026852963,0.12525507731157035,0.031159208169777793
6.21666666666665,0.37508512,-0.36659467,0.2318571,-2.8738096,0.4569578,1.1903043,0.5794085,0.039999697,0.04,-2.245490966709746,3.671628588922921,-8.857483976647472,-0.016357794454082898,0.12035651956370898,0.024871041618906947
6.2333333333333165,0.37571827,-0.36589304,0.23224811,-2.87468,0.45772678,1.1896636,0.57906085,0.03999969,0.04,-2.19508811482366,3.658908692007145,-8.841467518428884,-0.013446400662459295,0.11833972145940609,0.030715279905442105
6.249999999999983,0.37633502,-0.3652096,0.23262905,-2.8755279,0.45847583,1.1890397,0.5787222,0.039999686,0.04,-2.1564193810293917,3.6877156358895977,-8.795636598952427,-0.015456353098767034,0.115537663438501,0.030062291334495304
6.26666666666665,0.37693554,-0.36454427,0.23299989,-2.8763535,0.4592052,1.188432,0.57839245,0.039999694,0.04,-2.1959078277641653,3.7043325627763983,-8.860827081370292,-0.016869968132993657,0.11045050033487033,0.027700742222152287
6.283333333333316,0.3775199,-0.36389685,0.2333608,-2.8771572,0.45991486,1.1878407,0.5780715,0.039999694,0.04,-2.137903775133727,3.691049916036009,-8.867772673576027,-0.008124004628723097,0.106445240342526,0.027014155784896948
6.299999999999983,0.37808818,-0.36326727,0.2337118,-2.877938,0.460605,1.1872659,0.57775944,0.039999694,0.04,-2.0898111657535665,3.72493975774191,-8.85385648882095,-0.013709744609395834,0.10492633808634323,0.028529804428819132
6.3166666666666496,0.3786405,-0.3626554,0.23405296,-2.8786972,0.4612758,1.1867071,0.57745624,0.039999697,0.04,-2.1158213676904114,3.711652534846497,-8.874448683099416,-0.011050753229442482,0.10151111286222719,0.024455076273127072
6.333333333333316,0.379177,-0.3620611,0.23438431,-2.8794346,0.46192726,1.1861644,0.5771617,0.039999694,0.04,-2.1024501784865377,3.726439238639522,-8.867109409917873,-0.01562956305552999,0.0987292456184401,0.0213519462571605
6.349999999999983,0.37969777,-0.36148423,0.23470598,-2.8801503,0.4625596,1.1856377,0.57687575,0.039999697,0.04,-2.069539975920563,3.7199979842743005,-8.901898741224487,-0.017012021815195982,0.09314518043971061,0.022910682421926235
6.366666666666649,0.38020313,-0.36092466,0.23501803,-2.8808446,0.46317306,1.1851267,0.5765985,0.0399997,0.04,-2.0367659965352005,3.7065728488950356,-8.859538215141717,-0.011585742334396219,0.09165024277770749,0.026047384887638587
6.383333333333316,0.38069284,-0.3603823,0.23532052,-2.881518,0.46376768,1.1846315,0.57632947,0.039999697,0.04,-2.03964297310884,3.7177394907108425,-8.881436778349968,-0.01262661958936876,0.0923937371204483,0.019054891461217877
6.399999999999983,0.38116723,-0.35985687,0.23561354,-2.88217,0.46434376,1.1841516,0.5760691,0.039999697,0.04,-2.001453208806177,3.6976595311214364,-8.857470565695122,-0.009476674442091288,0.0838975514657557,0.026281221208006935
6.416666666666649,0.38162646,-0.35934833,0.23589726,-2.882801,0.46490142,1.183687,0.5758168,0.039999697,0.04,-2.0233263029699446,3.704972285328023,-8.878031664218366,-0.010284722968202807,0.07860719339448512,0.021711128577821506
6.433333333333316,0.38207066,-0.35885647,0.23617168,-2.8834114,0.46544078,1.1832374,0.57557297,0.039999705,0.04,-2.0225388563178033,3.740291250780282,-8.869118142634415,-0.00611349912994912,0.08007701114864069,0.023485660710360144
6.449999999999982,0.3825001,-0.35838106,0.23643689,-2.884001,0.4659621,1.1828032,0.57533723,0.0399997,0.04,-1.9762551043694174,3.6677953820491034,-8.88858155172468,-0.014332775529878532,0.08073119530124218,0.02501632549894924
6.466666666666649,0.3829148,-0.3579221,0.23669305,-2.8845706,0.46646556,1.1823838,0.57510954,0.039999694,0.04,-1.948625783903943,3.693058014746032,-8.864196038497939,-0.008718631404962401,0.07570590564119815,0.022723703771129672
6.483333333333316,0.38331497,-0.357479,0.2369402,-2.8851204,0.4669513,1.1819792,0.5748899,0.039999697,0.04,-1.9542040303502968,3.6830785519089235,-8.906146255158061,-0.013528610049903501,0.07038193866495894,0.017291236826153647
6.499999999999982,0.38370076,-0.35705203,0.23717847,-2.8856502,0.46741965,1.181589,0.57467824,0.039999694,0.04,-1.9008555125326285,3.7026793401541522,-8.844884898471884,-0.0119611338977487,0.06905708093484832,0.016011366344954703
6.516666666666649,0.38407233,-0.35664067,0.23740806,-2.8861606,0.46787077,1.1812135,0.5744742,0.039999694,0.04,-1.8968885267108597,3.713480769991624,-8.880497572450397,-0.011698547988882275,0.0672151687742391,0.018009718335546192
6.5333333333333155,0.38442993,-0.35624492,0.23762901,-2.886652,0.46830487,1.1808518,0.5742779,0.03999969,0.04,-1.8946490542642134,3.7528063710262045,-8.893302319688187,-0.007639551451668149,0.06498302448961576,0.018658130539478724
6.549999999999982,0.3847738,-0.35586447,0.23784143,-2.887124,0.4687222,1.1805038,0.5740892,0.039999694,0.04,-1.892632364515143,3.69383860132293,-8.88083725981178,-0.008159779854284377,0.06033115738145949,0.019732227239573605
6.566666666666649,0.385104,-0.35549903,0.23804542,-2.8875778,0.46912304,1.1801699,0.57390803,0.039999694,0.04,-1.9241574730075583,3.702561731169928,-8.904269004897433,-0.006347795327063189,0.059394014414148974,0.021720063374031054
6.583333333333315,0.3854208,-0.3551485,0.23824121,-2.8880126,0.46950775,1.1798495,0.57373416,0.039999694,0.04,-1.8596879242751596,3.7284157459993503,-8.898540254806026,-0.005231548740778473,0.051950523426711734,0.018509081113686255
6.599999999999982,0.3857244,-0.35481253,0.2384289,-2.8884296,0.4698763,1.1795422,0.57356757,0.039999694,0.04,-1.839138175329288,3.733373507622942,-8.90356429124801,-0.005343006388000804,0.049826867937067545,0.02055147536967539
6.6166666666666485,0.38601506,-0.3544909,0.2386086,-2.8888288,0.47022924,1.1792482,0.5734079,0.039999694,0.04,-1.8614368228331648,3.7339974371858906,-8.907121107555447,-0.001592963494438473,0.04884471288783724,0.019086084108233942
6.633333333333315,0.38629296,-0.35418344,0.23878041,-2.8892107,0.4705667,1.178967,0.57325524,0.039999694,0.04,-1.8302702096890604,3.7508692892125017,-8.925516584537645,-0.0021480699773991072,0.04145466260664296,0.01792583220853614
6.649999999999982,0.38655838,-0.35388973,0.23894453,-2.8895755,0.4708889,1.1786984,0.5731095,0.039999694,0.04,-1.8060426533104745,3.7417223759378664,-8.911168674055526,-0.008427274596351755,0.043343800227615505,0.017104565177360368
6.666666666666648,0.38681158,-0.35360965,0.23910105,-2.8899236,0.47119632,1.1784425,0.5729705,0.039999694,0.04,-1.8085116741143752,3.7040355526340205,-8.882408506195782,-0.008690250726317525,0.03970809963948143,0.014773759227785413
6.683333333333315,0.38705286,-0.35334277,0.23925021,-2.8902543,0.4714892,1.1781983,0.5728381,0.039999694,0.04,-1.7675754452025996,3.718341159463062,-8.913266985421407,-0.009738724638502356,0.0420992264066159,0.010678915037442723
6.6999999999999815,0.38728237,-0.35308897,0.23939209,-2.890569,0.47176784,1.1779664,0.57271206,0.039999694,0.04,-1.8017917245201844,3.767582329721738,-8.951935845479102,-0.007327945067758998,0.03981757155761322,0.012406834727147199
6.716666666666648,0.38750035,-0.35284796,0.23952685,-2.8908682,0.47203252,1.1777458,0.5725924,0.039999694,0.04,-1.7834836406385117,3.7638985806501006,-8.909010542056558,-0.009108978994027832,0.03544073537514291,0.01388654916040877
6.733333333333315,0.38770697,-0.3526193,0.23965472,-2.8911521,0.4722835,1.1775367,0.5724789,0.039999697,0.04,-1.7371784214873962,3.7352501607385764,-8.887369663803524,-0.005958644227250785,0.029912786249411613,0.00801693153320373
6.749999999999981,0.38790286,-0.3524028,0.23977585,-2.8914213,0.4725213,1.1773386,0.57237136,0.039999697,0.04,-1.7764329905414706,3.732298253671905,-8.920356158546548,-0.0063674209974507075,0.027615794931530803,0.015786687217179674
6.766666666666648,0.388088,-0.35219806,0.23989041,-2.891676,0.47274613,1.1771513,0.57226974,0.039999694,0.04,-1.7663704194547867,3.7249129123085,-8.921695892376562,-0.005572252498065861,0.030025022191217908,0.015641839308094495
6.783333333333315,0.38826284,-0.35200483,0.23999853,-2.8919158,0.4729584,1.1769747,0.5721737,0.03999969,0.04,-1.7191436771457693,3.7439105050902604,-8.895907458482885,-0.00532301365710196,0.024656354084559618,0.012343712066582174
6.799999999999981,0.38842756,-0.35182267,0.24010049,-2.8921416,0.47315848,1.1768079,0.57208323,0.03999969,0.04,-1.7610728831221558,3.735180943842945,-8.937613814259578,-0.00819210226950613,0.02512880951332302,0.013608831207740172
6.816666666666648,0.38858253,-0.3516514,0.24019644,-2.892354,0.47334668,1.1766511,0.57199824,0.039999686,0.04,-1.7381124368077234,3.7412865310728205,-8.900776710284054,-0.010471291416049591,0.02066899703799495,0.011037948654921862
6.833333333333314,0.38872793,-0.3514906,0.24028651,-2.8925545,0.47352338,1.1765041,0.5719185,0.03999969,0.04,-1.7448861018023367,3.719068268048765,-8.956969117675452,-0.0038938137554191277,0.018696519679756433,0.00788915259491435
6.849999999999981,0.38886425,-0.35133988,0.24037094,-2.8927417,0.47368896,1.1763661,0.5718435,0.03999969,0.04,-1.7337494162289158,3.718995029067618,-8.9133830719021,-0.011620928739325331,0.017661795606459706,0.012244633408447359
6.866666666666648,0.3889917,-0.35119894,0.24044994,-2.8929167,0.4738439,1.1762371,0.5717734,0.03999969,0.04,-1.7274373336403088,3.697141400228454,-8.91558932878865,-0.0017543596233713843,0.00818140664584004,0.010156834727978575
6.883333333333314,0.38911068,-0.3510674,0.24052376,-2.8930805,0.4739886,1.1761168,0.57170796,0.03999969,0.04,-1.7274819555212035,3.7381385146359243,-8.938686100169418,-0.006448037678142527,0.010179533123425533,0.011282266721218159
6.899999999999981,0.3892215,-0.35094485,0.24059254,-2.8932323,0.47412336,1.1760045,0.57164717,0.039999694,0.04,-1.718395071903841,3.737223134913266,-8.900786978918886,-0.0018334485086758197,0.007295014893044362,0.013168270814191373
6.916666666666647,0.38932452,-0.3508309,0.24065648,-2.8933747,0.47424874,1.1758999,0.57159036,0.039999694,0.04,-1.7053410257156323,3.716717736737023,-8.892310369935982,-0.0018858617590723546,0.008059764676610235,0.017300442722486705
6.933333333333314,0.38942015,-0.35072517,0.24071583,-2.8935056,0.4743651,1.1758027,0.57153773,0.039999686,0.04,-1.7419530954322524,3.7278035159110248,-8.881588515132615,-0.002403726699150961,0.007895316844901731,0.009637879008321443
6.949999999999981,0.38950863,-0.35062718,0.24077086,-2.8936262,0.47447273,1.175713,0.5714891,0.039999686,0.04,-1.690620376733296,3.8037114288145384,-8.871582045860546,-0.006500820560372784,0.0065019006349652155,0.013039609071931371
6.966666666666647,0.38959044,-0.35053673,0.2408217,-2.8937387,0.47457242,1.1756302,0.57144415,0.03999969,0.04,-1.7097362696813276,3.7442989256350394,-8.882554887769322,-0.0032989644750780586,0.010970926657434496,0.003428859881641229
6.983333333333314,0.38966587,-0.3504532,0.24086861,-2.893843,0.47466442,1.1755534,0.5714025,0.03999969,0.04,-1.7095234884443513,3.740836635137098,-8.930680072044185,-0.007595499637601331,0.010381184922460767,0.006163454752572953
6.9999999999999805,0.38973537,-0.3503764,0.2409119,-2.8939393,0.47474918,1.1754827,0.5713641,0.03999969,0.04,-1.7041986087966472,3.747365897840152,-8.900240071544344,-0.0026296030766041643,0.004915156809666117,0.00853885523131401
7.016666666666647,0.38979936,-0.3503056,0.24095173,-2.894028,0.47482732,1.1754177,0.57132876,0.03999969,0.04,-1.6947983595930551,3.7318475408559024,-8.907545428482477,-0.002422660476381643,0.002332142901887226,0.010185370268056451
7.033333333333314,0.38985816,-0.35024047,0.24098843,-2.894109,0.47489914,1.1753575,0.5712962,0.03999969,0.04,-1.6713222829010048,3.737437515515529,-8.923133786131563,-0.006517360876424183,-0.004031038818966056,0.008150644752825396
7.04999999999998,0.3899122,-0.35018057,0.24102224,-2.8941827,0.47496524,1.1753023,0.57126635,0.03999969,0.04,-1.672414804143365,3.741253553612957,-8.934766518944208,-0.0017052602897107388,0.00010738131108519418,0.006857942524809237
7.066666666666647,0.38996178,-0.35012546,0.2410533,-2.8942497,0.47502604,1.1752515,0.5712389,0.03999969,0.04,-1.666426326037361,3.748782090146671,-8.943262297266635,-0.004850801616530086,0.007221715348718119,0.0036629889086451754
7.0833333333333135,0.39000732,-0.3500748,0.24108191,-2.8943145,0.475082,1.175205,0.57121354,0.039999686,0.04,-1.6569877655349805,3.7045847470254802,-8.927381906117057,-0.0023502808579446985,0.005557741418450704,0.011364567773353611
7.09999999999998,0.3900492,-0.35002807,0.24110822,-2.8943725,0.4751335,1.1751621,0.57119036,0.03999969,0.04,-1.6319148229192704,3.757114749509766,-8.889522335692778,-0.005425965875339499,-0.004398096707322125,0.0065000837693098895
7.116666666666647,0.39008772,-0.34998518,0.24113245,-2.894424,0.47518083,1.1751223,0.571169,0.039999694,0.04,-1.6269525806793421,3.7574190614335143,-8.928585079889784,0.0007634147689761594,-2.9274831637457092e-05,-6.584376328324789e-05
7.133333333333313,0.39012316,-0.3499458,0.24115473,-2.8944736,0.47522444,1.1750853,0.5711493,0.039999697,0.04,-1.662293094645893,3.734211800016915,-8.881335583728553,-0.005515957844965107,-0.0013509915048274613,0.0017751995726409244
7.14999999999998,0.3901557,-0.34990957,0.24117526,-2.8945172,0.47526455,1.1750522,0.57113105,0.039999694,0.04,-1.69914055794035,3.748070512434071,-8.893665436570801,-0.00409980002314811,3.184193141411227e-05,0.005472490086957393
7.1666666666666465,0.39018553,-0.34987622,0.24119411,-2.8945591,0.47530147,1.1750221,0.5711142,0.039999694,0.04,-1.678252602492241,3.7591309125678434,-8.890518609114778,-0.007433120082672657,-0.00381163921184045,0.005549497972265261
7.183333333333313,0.39021307,-0.3498456,0.24121143,-2.8945959,0.47533542,1.1749929,0.57109904,0.039999694,0.04,-1.6525854263984265,3.7240604891864604,-8.929084050901974,-0.010430591191738794,-0.004506958846732963,0.0034013130490601275
7.19999999999998,0.39023829,-0.34981745,0.24122737,-2.8946307,0.47536662,1.1749674,0.57108486,0.039999697,0.04,-1.6438962305169988,3.7224568469046138,-8.92413022499599,-0.0006593950911134269,-0.004222539425576521,0.004721420559551441
7.216666666666646,0.39026147,-0.3497915,0.24124211,-2.894665,0.47539544,1.1749432,0.5710718,0.039999697,0.04,-1.6716749840811225,3.7552552957951324,-8.923728449057903,-0.00014178368515716406,-0.003416049336117776,0.007918893286529264
7.233333333333313,0.3902828,-0.34976763,0.24125566,-2.894693,0.47542197,1.1749215,0.57106,0.03999969,0.03999999,-1.6938891509613643,3.734929141930896,-8.91991430352278,0.0020397331646194224,-0.005326348070757747,0.004831409187154043
7.24999999999998,0.3903024,-0.34974572,0.24126811,-2.89472,0.47544628,1.1749005,0.57104886,0.03999969,0.04,-1.6361887085885207,3.752383149171834,-8.922560272930143,0.0036777925662013363,-0.009786802069377385,0.01007190587840812
7.266666666666646,0.39032042,-0.34972557,0.2412796,-2.8947468,0.47546864,1.1748827,0.5710388,0.039999694,0.04,-1.6720896069961533,3.766477259156622,-8.891418813039932,0.002103175069918645,-0.005969988114962673,0.008235433676340742
7.283333333333313,0.39033696,-0.34970704,0.24129014,-2.8947713,0.47548944,1.1748649,0.57102954,0.039999697,0.04,-1.6376051962581821,3.767014755895885,-8.931162298340487,-0.00546725749047469,-0.006409365323895664,0.004758461807641576
7.299999999999979,0.39035222,-0.34968993,0.24129985,-2.8947911,0.47550842,1.1748495,0.5710206,0.039999697,0.04,-1.6701175418846927,3.7488047025771816,-8.924781659912979,-0.0066562824288231345,-0.008363894836206592,0.0002534776217303943
7.316666666666646,0.3903663,-0.34967422,0.24130876,-2.8948104,0.47552574,1.1748354,0.5710131,0.0399997,0.04,-1.623565821875995,3.7330284125325996,-8.89502480728068,-0.004717884601264633,-0.0118049250936051,0.002182430064329129
7.333333333333313,0.39037916,-0.34965983,0.24131696,-2.8948295,0.47554183,1.1748215,0.57100576,0.0399997,0.04,-1.6507586560957637,3.7594004949387387,-8.898864009529202,0.0017658633845292519,-0.005019002643794423,0.0020577615377053854
7.349999999999979,0.39039096,-0.34964654,0.24132457,-2.8948486,0.47555682,1.1748086,0.57099867,0.03999969,0.03999999,-1.6406015638000877,3.8193835268065914,-8.911814248829392,-0.0006387386905493864,-0.0020738830563231613,0.00317847954513881
7.366666666666646,0.39040184,-0.3496343,0.24133153,-2.8948636,0.47557023,1.1747983,0.570993,0.039999697,0.04,-1.6538199911389713,3.7548468323804984,-8.921346224706918,0.0009815474606319036,-0.010610653253181248,0.005506468241543961
7.383333333333312,0.39041182,-0.34962305,0.24133791,-2.8948758,0.47558257,1.174788,0.5709875,0.03999969,0.039999995,-1.6315083486959572,3.763257409586385,-8.873969434750501,-0.007116527216165427,-0.01101365253570953,0.0062227800357394615
7.399999999999979,0.390421,-0.3496127,0.24134375,-2.8948877,0.47559392,1.1747779,0.57098216,0.039999694,0.04,-1.653036871702396,3.7719307006529927,-8.903676778183373,-0.002607836759663912,-0.006209607694902915,0.004767884073516231
7.416666666666646,0.39042947,-0.3496032,0.24134912,-2.8948991,0.47560436,1.1747683,0.57097703,0.039999697,0.04,-1.6498716118003973,3.7772232545962985,-8.93277293157488,-0.0034116837545908967,-0.008706337445428173,0.005204581838325572
7.433333333333312,0.39043716,-0.34959447,0.2413541,-2.8949106,0.47561422,1.1747609,0.5709727,0.03999969,0.04,-1.6097689464807852,3.7487264401053264,-8.900526051151783,-0.003218178805507308,-0.007745933506905474,0.004007733363427183
7.449999999999979,0.39044428,-0.3495865,0.24135868,-2.894922,0.47562337,1.1747545,0.5709691,0.039999694,0.04,-1.5365947289325081,3.7348753232428162,-8.836432270614125,0.0035873063669171696,-0.0008839130485681066,-0.001597492316904857
7.4666666666666455,0.39044428,-0.3495865,0.24135868,-2.894922,0.47562337,1.1747545,0.5709691,0.039999694,0.04,-1.6189255191250567,3.706726601513874,-8.93458752025202,-0.0021380314040909294,0.0047195220652538755,0.0004995044807590343
7.483333333333312,0.39044428,-0.3495865,0.24135868,-2.894922,0.47562337,1.1747545,0.5709691,0.039999694,0.04,-1.6313516785795545,3.757799229288531,-8.911636520763585,0.0008976426145151736,0.001761909486684216,0.002049467787239934
7.499999999999979,0.39044428,-0.3495865,0.24135868,-2.894922,0.47562337,1.1747545,0.5709691,0.039999694,0.04,-1.6508553628909601,3.764919447319215,-8.926120193186055,-0.002069242813746138,0.002505070829092647,0.007832662407276309
7.516666666666645,0.39044428,-0.3495865,0.24135868,-2.894922,0.47562337,1.1747545,0.5709691,0.039999694,0.04,-1.6638051211449432,3.74745500179173,-8.909008571047927,-0.000770959106896363,-0.00400858480440213,0.0006350873962569403
7.533333333333312,0.39044428,-0.3495865,0.24135868,-2.894922,0.47562337,1.1747545,0.5709691,0.039999694,0.04,-1.63505877858557,3.754725417030118,-8.923921217151413,-0.003736908522421401,-0.0029391827130371886,0.0013680537796315992
7.5499999999999785,0.39044428,-0.3495865,0.24135868,-2.894922,0.47562337,1.1747545,0.5709691,0.039999694,0.04,-1.6354764067052983,3.7388761625407776,-8.936148801662746,0.002748051603705986,0.0065061368748558605,0.0020853752722592217
7.566666666666645,0.39044428,-0.3495865,0.24135868,-2.894922,0.47562337,1.1747545,0.5709691,0.039999694,0.04,-1.6315280718267418,3.754441323783049,-8.921202358185363,-0.007161983659854225,-0.0021138400990574143,-0.0004437538446705076
7.583333333333312,0.39044428,-0.3495865,0.24135868,-2.894922,0.47562337,1.1747545,0.5709691,0.039999694,0.04,-1.6385937949494502,3.7709786862524295,-8.894978286150511,-0.0011641770708828514,-0.002638813573434988,0.0006895771797849985
7.599999999999978,0.39044428,-0.3495865,0.24135868,-2.894922,0.47562337,1.1747545,0.5709691,0.039999694,0.04,-1.6145637740783936,3.73330066282159,-8.906740242288883,0.0017788189260020918,0.0034080603500518726,0.0035418906507273524
7.616666666666645,0.39044428,-0.3495865,0.24135868,-2.894922,0.47562337,1.1747545,0.5709691,0.039999694,0.04,-1.6191400029621938,3.7544953277288835,-8.886597963251047,0.0005287427426336792,-0.0034686480203124496,0.0012128469041571828
7.6333333333333115,0.39044428,-0.3495865,0.24135868,-2.894922,0.47562337,1.1747545,0.5709691,0.039999694,0.04,-1.6564366928875014,3.7548417354904013,-8.94876010203536,0.005272201338952582,0.0008101157616847565,-0.00014637321659561025
7.649999999999978,0.39044428,-0.3495865,0.24135868,-2.894922,0.47562337,1.1747545,0.5709691,0.039999694,0.04,-1.6321699144729682,3.740250817804088,-8.901950649466036,0.00407648170571709,-0.0037744478246412127,0.006114406082532073
7.666666666666645,0.39044428,-0.3495865,0.24135868,-2.894922,0.47562337,1.1747545,0.5709691,0.039999694,0.04,-1.6715232264278994,3.787477313858181,-8.906845425280174,-0.0034248720369952756,-0.002167829636653301,-0.0010805235104599585
7.683333333333311,0.39044428,-0.3495865,0.24135868,-2.894922,0.47562337,1.1747545,0.5709691,0.039999694,0.04,-1.628045926580148,3.711590304344767,-8.890650082258338,-0.00040355603976287426,0.005161220266887996,0.0018610124281729216
7.699999999999978,0.39044428,-0.3495865,0.24135868,-2.894922,0.47562337,1.1747545,0.5709691,0.039999694,0.04,-1.680076047371691,3.7687833325989106,-8.897573910602853,0.00308515370119295,-0.003646087551674411,0.0019426475486240629
7.716666666666645,0.39044428,-0.3495865,0.24135868,-2.894922,0.47562337,1.1747545,0.5709691,0.039999694,0.04,-1.6659322554189537,3.7079182333368745,-8.887281886984473,0.0006857111181686888,-0.00012300684906077573,-0.0006970952898872059
7.733333333333311,0.39044428,-0.3495865,0.24135868,-2.894922,0.47562337,1.1747545,0.5709691,0.039999694,0.04,-1.6825156703965831,3.7842707289678863,-8.873945179238248,0.00013616275217007387,0.0015215943746424549,-0.0036163278605240434
7.749999999999978,0.39044428,-0.3495865,0.24135868,-2.894922,0.47562337,1.1747545,0.5709691,0.039999694,0.04,-1.6365830090765303,3.7716271153114262,-8.955387386770505,-0.00031856523452564834,0.0013256642177183367,-0.0022526669737687457
7.766666666666644,0.39044428,-0.3495865,0.24135868,-2.894922,0.47562337,1.1747545,0.5709691,0.039999694,0.04,-1.6411063877294378,3.7417865386226192,-8.858852855738252,0.0021013939939382013,-0.0017969472822811168,-0.0012026115445420997
7.783333333333311,0.39044428,-0.3495865,0.24135868,-2.894922,0.47562337,1.1747545,0.5709691,0.039999694,0.04,-1.6649292662067363,3.7607587813802374,-8.874036739624593,-0.0018013436525275677,-0.0021043103290930036,-0.001999171129663182
7.799999999999978,0.39044428,-0.3495865,0.24135868,-2.894922,0.47562337,1.1747545,0.5709691,0.039999694,0.04,-1.6253548767853183,3.7376387986136552,-8.917016989631891,-0.0009296036590467395,-0.00222036472635847,-0.003836326927003876
7.816666666666644,0.39044428,-0.3495865,0.24135868,-2.894922,0.47562337,1.1747545,0.5709691,0.039999694,0.04,-1.6300310503857582,3.724575950671248,-8.9316946922921,0.0022034505196059056,-0.0009338889631828082,-0.0005565551194384762
7.833333333333311,0.39044428,-0.3495865,0.24135868,-2.894922,0.47562337,1.1747545,0.5709691,0.039999694,0.04,-1.6593616989160842,3.7661962186853475,-8.906862741576987,9.606434893991115e-05,-0.0015953172498263733,0.0021534235637661954
7.849999999999977,0.39044428,-0.3495865,0.24135868,-2.894922,0.47562337,1.1747545,0.5709691,0.039999694,0.04,-1.669509781539095,3.740517274823887,-8.925541723953378,-0.0024293589097758718,0.001398101833276286,-0.0020855040257333085
7.866666666666644,0.39044428,-0.3495865,0.24135868,-2.894922,0.47562337,1.1747545,0.5709691,0.039999694,0.04,-1.6595418400418425,3.7569132044453495,-8.904911106173714,0.0019883029507472977,0.001695641402143222,0.00338098964925696
7.883333333333311,0.39044428,-0.3495865,0.24135868,-2.894922,0.47562337,1.1747545,0.5709691,0.039999694,0.04,-1.6395102654696243,3.7430491397544134,-8.898286204919433,0.004052894655235217,0.005087410079768865,0.003296561652095805
7.899999999999977,0.39044428,-0.3495865,0.24135868,-2.894922,0.47562337,1.1747545,0.5709691,0.039999694,0.04,-1.6131872586908742,3.7835004062968194,-8.911192877472706,0.0020017546342879482,-0.003544273143392717,0.002610753215541755
7.916666666666644,0.39044428,-0.3495865,0.24135868,-2.894922,0.47562337,1.1747545,0.5709691,0.039999694,0.04,-1.6397787762973188,3.7685863190981466,-8.88498943030744,-0.0022640597161672407,0.00025122134125791454,-0.0007523612262313656
7.9333333333333105,0.39044428,-0.3495865,0.24135868,-2.894922,0.47562337,1.1747545,0.5709691,0.039999694,0.04,-1.6339690968076641,3.7690658935309043,-8.903818181817384,-0.004138930858398042,0.0005891402773640471,-0.002384406571787195
7.949999999999977,0.39044428,-0.3495865,0.24135868,-2.894922,0.47562337,1.1747545,0.5709691,0.039999694,0.04,-1.6540055265322184,3.732519651705286,-8.90386159849899,-0.0022932012414640206,0.0033012243016068313,-0.0037311470767294034
7.966666666666644,0.39044428,-0.3495865,0.24135868,-2.894922,0.47562337,1.1747545,0.5709691,0.039999694,0.04,-1.6256097924799255,3.775680485188207,-8.882214742144523,-0.0038488022432591256,0.004088770497134411,-0.0004337874867160697
7.98333333333331,0.39044428,-0.3495865,0.24135868,-2.894922,0.47562337,1.1747545,0.5709691,0.039999694,0.04,-1.6507724192272069,3.7426094526783027,-8.935308898216096,0.0017362644206863267,-0.0028280457247068943,0.006282848687548799
7.999999999999977,0.39044428,-0.3495865,0.24135868,-2.894922,0.47562337,1.1747545,0.5709691,0.039999694,0.04,-1.6354301853891995,3.7731047659927266,-8.949659064997462,0.0033492432415410957,-1.5847965414262218e-05,0.0019383024814443746
8.016666666666644,0.39044428,-0.3495865,0.24135868,-2.894922,0.47562337,1.1747545,0.5709691,0.039999694,0.04,-1.6244107716040446,3.7732085859831574,-8.930771488152002,0.0027256671867000133,0.004297244556892608,0.000874737277097937
8.033333333333312,0.39044428,-0.3495865,0.24135868,-2.894922,0.47562337,1.1747545,0.5709691,0.039999694,0.04,-1.6500885339481475,3.729669876183108,-8.915255719136711,0.0020912333091953027,-0.0009551774810898633,0.004223608392488049
8.04999999999998,0.39044428,-0.3495865,0.24135868,-2.894922,0.47562337,1.1747545,0.5709691,0.039999694,0.04,-1.6331577775804202,3.7353359912001878,-8.926091693851124,0.001884318395273539,-0.00028290845199876725,0.0005195648176333302
