rsonawane2002/My_IMU/logs_2/traj_511/clean_511.csv
time,j1,j2,j3,j4,j5,j6,j7,gripper1,gripper2,imu_ax,imu_ay,imu_az,imu_gx,imu_gy,imu_gz,quat_x,quat_y,quat_z,quat_w
2874.0333333423173,0.00016700293,-0.785875,4.0107683e-05,-2.3551247,9.29385e-05,1.570997,0.786,0.04,0.04,0.0,-0.0,0.0,2.875329272945135e-08,-0.0011641195053377316,4.421952117202833e-08,0.9999995971961153,0.00020320632366974898,0.0008736418299892524,3.263050917662294e-05
2874.050000008984,0.00016701432,-0.78576016,4.0117062e-05,-2.3552213,9.297592e-05,1.5709941,0.786,0.04,0.04,-0.29199846013587827,-4.905514077827326e-05,0.020128404820307644,-1.1225449388991877e-06,-0.00223902306156888,9.415048054057434e-08,0.99999968505982,0.0002032020541678394,0.0007665025185636479,3.260483445396935e-05
2874.066666675651,0.00016708506,-0.7856543,4.0142797e-05,-2.35531,9.302372e-05,1.5709913,0.786,0.04,0.04,0.02332872447818879,-9.287070083637211e-05,-0.0016704590326988011,-8.71659835174488e-06,-0.003229921505977711,2.013676023242259e-07,0.9999997558552104,0.0002031619415679092,0.0006677972520048486,3.258182295217743e-05
2874.083333342318,0.0001673147,-0.78555703,4.0213035e-05,-2.355391,9.310428e-05,1.5709884,0.786,0.04,0.04,0.022460744453933756,-0.0002528860310899194,-0.0015249586989174446,-2.943997744876295e-05,-0.004144867318776928,4.225572603403198e-07,0.9999998122811058,0.0002030262591710864,0.0005771982048892967,3.256261041888672e-05
2874.100000008985,0.00016784726,-0.7854677,4.036842e-05,-2.3554654,9.325058e-05,1.5709856,0.786,0.04,0.04,0.020113710466973522,-0.00048462465448000113,-0.0015656595222290903,-6.88210200888666e-05,-0.004990931837470817,8.050049170353194e-07,0.9999998569559114,0.00020270866657859265,0.0004939007127286209,3.254902967362171e-05
2874.1166666756517,0.00016886691,-0.7853859,4.0660594e-05,-2.355533,9.350422e-05,1.5709827,0.7859981,0.04,0.04,0.02012252935739145,-0.0007803275041166511,-0.0012452722914835235,-0.00013262962294694576,-0.005773007471856006,1.396057737302918e-06,0.9999998919434766,0.0002011451320202134,0.0004178451983401974,3.2543222464700256e-05
2874.1333333423186,0.00017059348,-0.7853114,4.1151645e-05,-2.3555982,9.391275e-05,1.570983,0.7859962,0.04,0.04,0.012709203870509,-0.0011319120748373517,-0.0008012989627825817,-0.0002170266591680504,-0.006495522789926129,2.2534256945061586e-06,0.999999919048945,0.00019915766598230526,0.00034810775432852787,3.254718091038642e-05
2874.1500000089854,0.00017327881,-0.7852436,4.191207e-05,-2.3556573,9.4541676e-05,1.5709836,0.7859943,0.04,0.039999995,0.017992210571216027,-0.0015426500131860159,-0.0008638657365445113,-0.00033601780955658624,-0.007168104281483768,4.17181633426717e-06,0.9999999395531478,0.00019659526200942307,0.000284926791223634,3.2568809105457564e-05
2874.1666666756523,0.00017720368,-0.78518236,4.3021166e-05,-2.3557146,9.542915e-05,1.5709845,0.7859905,0.04,0.04,0.01063217336951805,-0.001974569202290805,-0.002743933521398567,-0.000493764981719644,-0.0077892656880994985,4.208700494725726e-06,0.9999999554054668,0.00019233595025960185,0.00022612676847789378,3.259802447187092e-05
2874.183333342319,0.00018267396,-0.78512734,4.4564713e-05,-2.355766,9.6656055e-05,1.5709853,0.78598475,0.04,0.04,0.01657798324756765,-0.0024748306117675914,-0.0009723490300928006,-0.0006862652544380221,-0.008379813547577176,5.951323798061915e-06,0.9999999671183613,0.00018619635704055488,0.00017328719815132802,3.2645671969164635e-05
2874.200000008986,0.00019001811,-0.7850786,4.6634806e-05,-2.3558166,9.831891e-05,1.5709863,0.7859771,0.04,0.03999999,0.008577781090823855,-0.003017913924589804,-0.0030480556185041863,-0.0009175393711452756,-0.008927442137798306,1.0622775221108628e-05,0.9999999759240156,0.00017797985807603133,0.00012411328762815865,3.272659722002407e-05
2874.216666675653,0.000199585,-0.7850358,4.9329763e-05,-2.3558662,0.000100458885,1.5709872,0.7859676,0.04,0.039999995,0.008210542340414406,-0.00355031150350687,-0.0029652175409067283,-0.0011914199599731242,-0.00945295896098111,1.2534854606774615e-05,0.9999999823638905,0.00016747727211107916,7.839641755879155e-05,3.282656919092296e-05
2874.23333334232,0.00021174054,-0.7849991,5.2752293e-05,-2.3559124,0.000103149665,1.5709916,0.78595614,0.039999995,0.04,0.0134890453037384,-0.004131836523693731,0.000614791230124645,-0.0015113012666635687,-0.009961082421193168,1.4191102160323427e-05,0.9999999867617877,0.0001544693313064229,3.911680984887069e-05,3.294730807526738e-05
2874.2500000089867,0.00022686564,-0.78496844,5.7009358e-05,-2.3559563,0.000106492706,1.5709964,0.7859419,0.03999999,0.039999995,0.010885673160476728,-0.004754152337334413,-0.002119204446326961,-0.0018809669542130144,-0.010425535905958093,1.7994818679509348e-05,0.9999999898823639,0.0001382807240724441,4.24790514464448e-06,3.3100884951141445e-05
2874.2666666756536,0.00024535452,-0.78494364,6.221178e-05,-2.356,0.00011057125,1.5710012,0.7859247,0.039999988,0.039999995,0.006862432462084733,-0.0053822304795244245,-0.0032109431513660525,-0.002299396928136301,-0.010864255323794031,2.1487903556889946e-05,0.9999999920342503,0.00011858585925778629,-2.758121385578118e-05,3.3289185515581324e-05
2874.2833333423205,0.00026761257,-0.7849248,6.847334e-05,-2.3560436,0.00011547658,1.5710096,0.7859037,0.039999984,0.03999999,0.007759415419594795,-0.006033163829325674,-0.0006302227695709206,-0.0027687318161662266,-0.011293095853712715,2.64018323389082e-05,0.9999999934594339,9.475448872729093e-05,-5.458241150211316e-05,3.3518345448422194e-05
2874.3000000089874,0.0002940547,-0.78491193,7.591065e-05,-2.356088,0.000121298275,1.5710182,0.78587866,0.03999998,0.03999999,0.00541097840953686,-0.006695081884740154,-0.0036154387819564704,-0.0032885235447842388,-0.011694981369533725,3.103927126630473e-05,0.9999999941126163,6.63889388606041e-05,-7.890146744451419e-05,3.3791045182811643e-05
2874.3166666756542,0.00032510384,-0.7849052,8.464243e-05,-2.3561351,0.00012812969,1.5710304,0.7858493,0.039999977,0.039999988,0.003057133949591062,-0.007372065578290193,-0.0021030514613773477,-0.0038601317942395987,-0.012091648973302239,3.714201665924532e-05,0.9999999938914472,3.3086988489497715e-05,-9.979333909465085e-05,3.411225885033966e-05
2874.333333342321,0.00036118898,-0.7849049,9.47893e-05,-2.3561847,0.00013606391,1.5710428,0.78581524,0.039999973,0.039999984,0.0031394990363420305,-0.008056624672148354,-0.004545597793170764,-0.004484815039969459,-0.012477043958169043,4.387096633096945e-05,0.999999992364127,-5.557516859459482e-06,-0.00011853954402341426,3.448530742536379e-05
2874.350000008988,0.0004027445,-0.784911,0.000106473264,-2.3562353,0.000145196,1.5710589,0.785776,0.03999997,0.03999998,0.006598553010395136,-0.008752289871683135,-0.0012936896326198877,-0.005163750461019153,-0.012863114051233988,5.123582183890515e-05,0.9999999893286874,-5.007303368859981e-05,-0.00013272611144605738,3.4915552140943176e-05
2874.366666675655,0.0004502086,-0.78492355,0.00011981737,-2.3562865,0.00015562083,1.5710751,0.7857312,0.039999966,0.03999998,0.006002651926517721,-0.009450716258122818,-0.0039200758649160505,-0.005896632536752598,-0.013230574786024312,5.838791180679827e-05,0.9999999839171075,-0.00010093075032800848,-0.0001439623891478579,3.54062008325413e-05
2874.3833333423217,0.000504022,-0.7849428,0.00013494551,-2.3563437,0.00016743594,1.5710951,0.7856803,0.03999995,0.039999966,-0.0015426777267624203,-0.01015485649792083,-0.0036239316032027347,-0.006683646561491591,-0.01359416359616131,6.706668139335717e-05,0.9999999750768191,-0.00015863273071102838,-0.0001529338564857827,3.5961833042993294e-05
2874.4000000089886,0.0005646274,-0.78496903,0.00015198207,-2.356402,0.00018073732,1.5711182,0.785623,0.03999994,0.039999954,0.007066907655062238,-0.010862891512074124,-0.0020790065137443747,-0.007525184580888876,-0.0139607293762822,7.641321104210144e-05,0.9999999619548141,-0.00022359347906228578,-0.0001573457684639313,3.6587370580868835e-05
2874.4166666756555,0.00063246815,-0.7850021,0.0001710516,-2.3564641,0.0001956212,1.5711423,0.7855589,0.039999932,0.03999995,0.0009887317966361664,-0.011567599752566063,-0.005005357684928491,-0.008421284927565598,-0.014310916171874018,8.557946436793637e-05,0.9999999426222161,-0.00029631674920709136,-0.0001598803695332862,3.72855978576933e-05
2874.4333333423224,0.0007079872,-0.7850425,0.00019227859,-2.3565302,0.00021218476,1.57117,0.78548753,0.039999932,0.039999954,0.0027502020846670305,-0.012275665400024232,-0.003216436776920517,-0.009372201583731882,-0.014669760770725276,9.543689339973241e-05,0.9999999154985123,-0.00037724659153876917,-0.00015886877397268507,3.806166161491018e-05
2874.4500000089893,0.0007916268,-0.7850905,0.00021578737,-2.3566027,0.00023052492,1.5712014,0.78540856,0.039999936,0.039999958,-0.0013681124199527162,-0.012979532120337449,-0.004355601459904435,-0.010377869073199238,-0.015021563269478129,0.00010684889791405831,0.9999998781931877,-0.0004668562190170344,-0.0001553839150232647,3.891939621226225e-05
2874.466666675656,0.00088382815,-0.7851463,0.00024170175,-2.3566768,0.0002507375,1.5712364,0.78532153,0.039999936,0.039999958,0.006883308369287633,-0.013684700225911756,-0.002619105658951959,-0.011437912321396806,-0.01537890610780248,0.00011894381202671566,0.999999828423764,-0.0005656187174210418,-0.00014710126894534943,3.9863840493086744e-05
2874.483333342323,0.0009850293,-0.78521013,0.0002701451,-2.3567579,0.00027291765,1.5712743,0.78522605,0.03999994,0.039999966,-0.0019181010497915096,-0.01437787655834728,-0.005471171043613943,-0.012552124564776827,-0.01572138848698155,0.00013087038384054523,0.9999997626706271,-0.0006740044903499244,-0.0001367627141907197,4.0897392947382435e-05
2874.50000000899,0.0010956664,-0.7852822,0.00030123975,-2.356846,0.0002971609,1.5713156,0.7851215,0.039999943,0.039999973,-0.001976334673714497,-0.015071304323797108,-0.005330218073118509,-0.013720326922663341,-0.016074437755223075,0.00014351622866060065,0.9999996773235716,-0.0007925724396611783,-0.00012415970522432446,4.2024374393203806e-05
2874.516666675657,0.0012161712,-0.7853626,0.0003351073,-2.356937,0.00032356213,1.5713607,0.7850078,0.039999947,0.039999977,0.0059266083766607025,-0.01576241405462287,-0.003191502967903048,-0.014940888364034167,-0.016436659731486437,0.00015771040763055987,0.999999568645217,-0.0009216410329217498,-0.00010684854241375964,4.325014738829315e-05
2874.5333333423237,0.001346972,-0.78545177,0.00037186794,-2.3570352,0.0003522137,1.5714096,0.78488445,0.039999954,0.039999988,-0.0016792282732325248,-0.016436869390586053,-0.005489119280510657,-0.016214909983435468,-0.01678510903688757,0.00017172738412109972,0.999999431650226,-0.0010616744501888793,-8.694528500992312e-05,4.457694607494914e-05
2874.5500000089905,0.001488493,-0.78554994,0.00041164094,-2.35714,0.00038320836,1.5714624,0.78475094,0.03999996,0.04,-0.000164956840187358,-0.017110364440597492,-0.005222735902155051,-0.01754178721747246,-0.01714307219971784,0.00018644396843317426,0.9999992609419824,-0.0012132245177585627,-6.391359374162714e-05,4.6008813435950146e-05
2874.5666666756574,0.001641153,-0.7856572,0.00045454415,-2.3572524,0.00041664985,1.5715195,0.7846069,0.03999997,0.04,-0.001138005229850414,-0.01778209260064766,-0.005355251244654191,-0.01891983231148553,-0.0175033782537273,0.00020362683362085956,0.9999990504724434,-0.0013767201393406615,-3.787280135963292e-05,4.755544418005099e-05
2874.5833333423243,0.0018053672,-0.78577393,0.0005006938,-2.3573723,0.00045263927,1.5715808,0.78445196,0.039999973,0.04,-0.0012545551655529508,-0.018445329976044672,-0.00573109881372158,-0.02034866421781506,-0.017870501520526463,0.00022199987060729856,0.9999987935299013,-0.0015525582753913028,-8.852848616863849e-06,4.922570713270778e-05
2874.600000008991,0.001981543,-0.78590035,0.00055020466,-2.3575,0.00049125537,1.5716466,0.7842857,0.039999973,0.039999995,-0.0012204283238004265,-0.019081062988367103,-0.0057528240165583,-0.021828139450131182,-0.018243990738098667,0.00024019850855545822,0.9999984825000235,-0.0017412206576318389,2.3354738477779724e-05,5.1017916116240224e-05
2874.616666675658,0.002170084,-0.7860369,0.00060319045,-2.3576362,0.0005325691,1.5717174,0.7841078,0.039999973,0.04,-0.001422396338113252,-0.019704686899727798,-0.005861513902849502,-0.023356793101074955,-0.018622264643898732,0.00025746631371367746,0.9999981089879748,-0.0019431271545868839,5.895841849792553e-05,5.29267474704101e-05
2874.633333342325,0.0023713869,-0.7861836,0.0006597626,-2.3577802,0.00057667523,1.5717928,0.7839179,0.039999973,0.04,-0.0007292025207661368,-0.02033479779668562,-0.0059293962176187875,-0.02493416270383226,-0.019003659966061723,0.0002761903080601893,0.9999976637695351,-0.002158663350822703,9.801761280240319e-05,5.4959595927998734e-05
2874.650000008992,0.0025858416,-0.78634083,0.00072003086,-2.3579323,0.00062365073,1.571873,0.7837156,0.039999973,0.04,-0.0006778305097210335,-0.020940710042051842,-0.006289284423255381,-0.02656007109628348,-0.019390300157076067,0.0002947884884705494,0.9999971365594057,-0.0023882705904862923,0.00014062153664706086,5.7115314843817675e-05
2874.6666666756587,0.0028138333,-0.7865087,0.00078410294,-2.3580933,0.0006735964,1.5719582,0.78350055,0.039999973,0.04,-0.0016811611750711108,-0.02155557023258304,-0.00630778594936654,-0.028232947859599785,-0.01978111714814407,0.0003155691486995014,0.9999965161534099,-0.0026323568177158627,0.0001866805630166565,5.9405342289969194e-05
2874.6833333423256,0.0030557378,-0.7866876,0.00085208536,-2.3582644,0.0007265764,1.5720489,0.78327245,0.039999973,0.04,-0.0034778266614576836,-0.0221273424346944,-0.006973491862960479,-0.029952045024271557,-0.02017662476860313,0.00033540376591433734,0.9999957904639352,-0.0028912947294166417,0.00023589644070560952,6.18228623861615e-05
2874.7000000089924,0.003311927,-0.78687775,0.0009240822,-2.3584464,0.0007826728,1.5721445,0.783031,0.03999997,0.04,-0.004351588842266274,-0.02270346555331721,-0.007721129525339876,-0.03171714642437812,-0.020580458517389072,0.0003559121293880761,0.9999949464529282,-0.0031654542719314026,0.0002877920778747096,6.43706258741782e-05
2874.7166666756593,0.0035827633,-0.7870792,0.0010001954,-2.3586364,0.0008419642,1.572246,0.7827756,0.039999966,0.04,0.0005344671237583754,-0.02327676857954604,-0.005924220994768525,-0.03352717374144747,-0.02099862963620624,0.00037709354967785554,0.9999939687701086,-0.0034553499776699887,0.000344214952296384,6.705226010114278e-05
2874.733333342326,0.0038686027,-0.78729266,0.0010805252,-2.3588362,0.00090454606,1.5723529,0.78250605,0.03999997,0.04,-0.0016985663485735714,-0.023835244187729154,-0.0073363875686460744,-0.03538027899330698,-0.021414173581051237,0.0004003814876512319,0.9999928421087877,-0.0037612823252803373,0.0004044793031539578,6.987812155037024e-05
2874.750000008993,0.0041697947,-0.7875178,0.0011651694,-2.3590474,0.00097049575,1.5724657,0.7822221,0.039999966,0.039999995,-0.004758375416291649,-0.024371447899130018,-0.007679124524662129,-0.037276463019162445,-0.02183198734358898,0.00042418173326757517,0.9999915499789783,-0.004083606883272999,0.0004677801475862184,7.285051081136078e-05
2874.76666667566,0.004486679,-0.7877551,0.0012542249,-2.3592687,0.0010398492,1.572584,0.7819233,0.039999966,0.04,-0.001883524348689214,-0.024870423520025088,-0.007513555838101205,-0.039214343074447086,-0.02226294484531141,0.0004454682859348254,0.9999900736878483,-0.004422734875307978,0.0005349516291211813,7.595228192847631e-05
2874.783333342327,0.0048195915,-0.78800505,0.0013477849,-2.359501,0.0011127166,1.5727086,0.7816095,0.03999997,0.04,-0.0027319028787164967,-0.025408637035943295,-0.007832780963634711,-0.04119310777825119,-0.02269943739072766,0.00047048962024239796,0.9999883939285247,-0.004778953720209116,0.0006060827665186565,7.920397613800767e-05
2874.8000000089937,0.0051688584,-0.7882677,0.0014459407,-2.359744,0.0011891624,1.5728394,0.7812802,0.039999966,0.04,-0.002806492870899291,-0.02590168645769768,-0.007833679299840135,-0.04321196363135802,-0.023139456969169837,0.0004951964440549532,0.9999864895403838,-0.0051526650381632285,0.0006811433726137553,8.260393566874909e-05
2874.8166666756606,0.005534795,-0.788543,0.0015487825,-2.3599987,0.0012692531,1.5729761,0.7809353,0.03999996,0.04,-0.003636704686593717,-0.026377200288810014,-0.008295677805492119,-0.04526979055197629,-0.023583852365859012,0.0005204228449690726,0.9999843385784963,-0.005544174572169389,0.0007598052033531474,8.61515732949438e-05
2874.8333333423275,0.0059177154,-0.7888314,0.0016563975,-2.3602648,0.0013530569,1.5731195,0.78057444,0.03999996,0.04,-0.0029591313609467207,-0.026852752130281272,-0.008037599387256122,-0.047365730957222976,-0.02403762110031766,0.0005461394258248894,0.9999819169977406,-0.005953786407503111,0.0008426340547914041,8.984869127466663e-05
2874.8500000089944,0.006317923,-0.78913313,0.0017688709,-2.360543,0.0014406303,1.5732697,0.78019726,0.03999996,0.04,-0.003951004986380013,-0.027298434915839533,-0.008412153121284405,-0.04949901254669184,-0.024495890189176465,0.0005715709916007897,0.9999791992390825,-0.0063818874953155465,0.0009294208499589855,9.36912160909672e-05
2874.8666666756612,0.0067357095,-0.7894485,0.0018862857,-2.3608325,0.0015320486,1.573426,0.7798035,0.03999996,0.04,-0.002173639801950067,-0.02774438812977436,-0.008762914337356875,-0.05166790163175433,-0.024959498300811143,0.0005982684196381887,0.9999761582237239,-0.006828769781076345,0.001020463103077184,9.768548587518226e-05
2874.883333342328,0.0071713645,-0.78977746,0.002008723,-2.3611343,0.0016273644,1.5735888,0.77939284,0.03999996,0.04,-0.004127227931016719,-0.028162150504425915,-0.008955551606093515,-0.0538718546234541,-0.025427098720691675,0.0006246117395199103,0.9999727655018602,-0.00729478096157635,0.001115372865657892,0.00010182659268065276
2874.900000008995,0.0076251673,-0.7901204,0.0021362612,-2.3614492,0.0017266277,1.5737588,0.7789651,0.03999996,0.04,-0.004707057786146329,-0.02856282682138847,-0.009116764835059854,-0.056109480813084214,-0.025903149508596603,0.0006506943240392219,0.9999689913116193,-0.007780143632037462,0.0012142985914000985,0.00010610946436512977
2874.916666675662,0.008097388,-0.79047745,0.002268976,-2.361776,0.0018299456,1.5739356,0.77852,0.03999996,0.04,-0.002740877716589374,-0.02899923530374788,-0.008934694710482916,-0.058380439784369624,-0.026385796925153304,0.0006811019857118723,0.9999648028882776,-0.00828519541712492,0.0013176866971299323,0.00011055892690741217
2874.9333333423288,0.008588295,-0.790849,0.0024069424,-2.3621159,0.0019373464,1.5741194,0.7780573,0.039999966,0.04,-0.0038417683978053674,-0.029360502111392024,-0.009474346854654314,-0.06068283397114796,-0.02687036661758522,0.0007093994721452182,0.9999601670597897,-0.0088101817397084,0.0014253875661186498,0.00011515970178099978
2874.9500000089956,0.009098135,-0.79123485,0.002550232,-2.3624687,0.002048877,1.5743104,0.7775766,0.039999966,0.04,-0.0043557848174335945,-0.029709295850150613,-0.009482587875520032,-0.06301631577332101,-0.02736049929293917,0.0007373215759380056,0.9999550482002592,-0.009355424477999339,0.0015372813514044554,0.00011990704940289118
2874.9666666756625,0.00962716,-0.7916353,0.0026989141,-2.3628352,0.0021646086,1.5745087,0.77707803,0.039999973,0.04,-0.004947959908396804,-0.0300768475029297,-0.009768643307062064,-0.06537951991123875,-0.027856559142212464,0.0007671678588742218,0.9999494104574401,-0.009921069528774057,0.001653277935779431,0.00012480901493436134
2874.9833333423294,0.010175612,-0.7920506,0.0028530562,-2.3632145,0.0022845971,1.5747142,0.77656114,0.039999973,0.04,-0.0033535261763528723,-0.030424236485603398,-0.009713109609221782,-0.06777219186157483,-0.028359882117304714,0.0007972847778312765,0.9999432134632229,-0.010507436214711327,0.0017739130457328984,0.00012986740711793158
2875.0000000089963,0.01074372,-0.79248077,0.0030127245,-2.363607,0.0024088796,1.5749269,0.7760257,0.039999966,0.04,-0.0038801739257632306,-0.03073302052575,-0.00994111411629639,-0.07019285294247399,-0.028865289765774363,0.0008260867705771734,0.9999364166732122,-0.011114776242115574,0.0018989773278768934,0.00013507380300248903
2875.016666675663,0.01133171,-0.7929262,0.0031779802,-2.364013,0.0025374952,1.575147,0.77547157,0.03999997,0.04,-0.004136344827854188,-0.03102921696121301,-0.01019222022859978,-0.07264036673102087,-0.02937606207845384,0.0008560126180101558,0.999928977344089,-0.011743306770252869,0.002028619018064303,0.00014042287452446675
2875.03333334233,0.011939798,-0.793387,0.0033488853,-2.3644333,0.0026705014,1.5753747,0.7748984,0.039999973,0.04,-0.005241886242668414,-0.03132416701205551,-0.010651214684243016,-0.07511391471761467,-0.02989041853577471,0.0008862037206667202,0.9999208509866547,-0.012393300374400713,0.0021625392770011653,0.00014591720166023
2875.050000008997,0.012568188,-0.7938633,0.0035254976,-2.364868,0.0028079497,1.5756099,0.77430624,0.039999966,0.04,-0.005130929127372674,-0.03160065718001322,-0.01079298187622868,-0.07761180869936077,-0.030411145725030495,0.0009166139834182203,0.9999119923484863,-0.013064873574193133,0.0023007968395082432,0.0001515588155044729
2875.066666675664,0.013217082,-0.79435515,0.0037078739,-2.3653164,0.0029498609,1.5758529,0.7736947,0.039999977,0.04,-0.004197967671881742,-0.03185519421594618,-0.010513717118110222,-0.0801343646481012,-0.03093756511052971,0.000946545162154199,0.9999023511463307,-0.013758319864521999,0.0024437782841564832,0.00015733481200884511
2875.0833333423307,0.013886672,-0.7948628,0.003896069,-2.3657787,0.0030962995,1.5761036,0.7730637,0.039999973,0.04,-0.003957195516468559,-0.03211898869604664,-0.010729103448481325,-0.0826795313320135,-0.031468937206966724,0.0009774272313894088,0.9998918775106732,-0.01447377752901117,0.0025916018692968075,0.00016325431840082672
2875.1000000089975,0.014577145,-0.7953864,0.0040901336,-2.3662558,0.0032473023,1.5763621,0.77241313,0.03999997,0.04,-0.005434541204052401,-0.03233852920756369,-0.011217319336198628,-0.08524708960811989,-0.031999679880981444,0.0010084271594125302,0.999880520082137,-0.015211438349717088,0.002743909021371385,0.0001693129950137905
2875.1166666756644,0.015288675,-0.7959261,0.0042901165,-2.3667474,0.0034028995,1.5766284,0.77174264,0.039999973,0.04,-0.004828333119122341,-0.032547172122543086,-0.01142004801903962,-0.0878355942845358,-0.032537357269519396,0.00103966349640729,0.9998682231768594,-0.01597154934816355,0.0029008775866524138,0.00017550440654016855
2875.1333333423313,0.01602143,-0.79648197,0.0044960678,-2.3672528,0.003563128,1.5769026,0.7710521,0.03999998,0.04,-0.0035958967271820796,-0.03276144621352298,-0.011102249822081411,-0.09044404649388124,-0.03307916600035036,0.0010709875380948489,0.9998549295086263,-0.016754264370616372,0.0030629237682134602,0.00018182598670375534
2875.150000008998,0.016775576,-0.79705405,0.004708031,-2.367773,0.0037280517,1.5771847,0.77034134,0.039999977,0.04,-0.005180127916215582,-0.03296045903593836,-0.01165476040316804,-0.09307120647955153,-0.033620824003780345,0.001103056916154697,0.9998405812782694,-0.017559791112295896,0.0032295994536974478,0.00018828859061381016
2875.166666675665,0.017551264,-0.7976426,0.004926051,-2.3683083,0.0038976623,1.577475,0.76960987,0.03999998,0.04,-0.005235814826698437,-0.033099498700751157,-0.011724362091181106,-0.09571570086632683,-0.03416811680631826,0.0011337446303964025,0.9998251150432316,-0.018388420098277902,0.0034010824451268093,0.00019486733853603172
2875.183333342332,0.018348644,-0.79824746,0.0051501677,-2.3688583,0.0040720063,1.5777735,0.76885873,0.039999988,0.04,-0.004987242886267396,-0.03327792876902484,-0.011650448046296447,-0.09837567179171658,-0.03471770421806563,0.0011652867713172876,0.9998084788137203,-0.019239725803781364,0.003577431091356915,0.00020156878889125596
2875.200000008999,0.019167848,-0.7988694,0.0053804214,-2.3694234,0.004251143,1.57808,0.7680867,0.039999977,0.04,-0.004675174750734534,-0.033424044813510495,-0.012348623665814351,-0.10105514177242647,-0.03526989997559021,0.0011974587816787011,0.9997905973538912,-0.020114404307636804,0.003758823116748114,0.0002084007567213779
2875.2166666756657,0.020009017,-0.7995076,0.005616848,-2.3700042,0.0044350494,1.5783947,0.7672942,0.03999998,0.04,-0.00674663183219959,-0.03351530195247476,-0.012458362690481728,-0.10374814069269428,-0.03582279617547342,0.0012281747672693612,0.9997714137124996,-0.02101225862069397,0.003944482482011319,0.00021533442890531987
2875.2333333423326,0.020872261,-0.8001627,0.005859481,-2.3706,0.0046237367,1.5787176,0.7664808,0.039999988,0.04,-0.004918863081648794,-0.033616159743231344,-0.012248601648745527,-0.10645678346194799,-0.03638406725035451,0.0012503336413861605,0.9997508519663015,-0.02193364565692493,0.004135182890978744,0.0002223585147411223
2875.2500000089995,0.021757707,-0.80083466,0.0061083552,-2.3712113,0.0048172823,1.579049,0.7656465,0.03999999,0.04,-0.005593443424434241,-0.03375713206236822,-0.012550752639373108,-0.10917762004886347,-0.036946409268149336,0.0012812254198189751,0.9997288445287318,-0.02287856831859223,0.004330803778753433,0.00022949415706313464
2875.2666666756663,0.022665458,-0.8015234,0.0063634985,-2.3718376,0.0050157113,1.579389,0.76479113,0.03999999,0.04,-0.00496898492352571,-0.033849071016455595,-0.012263389491495857,-0.1119108269842451,-0.03751118101137899,0.0013136191378348878,0.9997053166532668,-0.023847197779162665,0.004531552476831549,0.0002367391453762512
2875.283333342333,0.023595612,-0.80222917,0.0066249426,-2.3724794,0.00521903,1.5797371,0.7639147,0.04,0.04,-0.0056424639007124355,-0.03388605979436493,-0.013111970955392849,-0.11465540995736023,-0.03807658762456613,0.0013450550831697466,0.9996801973425854,-0.024839552165557405,0.004737099848509131,0.00024407853118934165
2875.300000009,0.024548272,-0.8029521,0.006892711,-2.373137,0.005427278,1.5800935,0.7630171,0.04,0.04,-0.005875298059265788,-0.033956083019676814,-0.013226781536235244,-0.11741048875118693,-0.03864566039586459,0.001377152108736594,0.9996534098466948,-0.025855736766945345,0.004947504116449092,0.0002515176577919944
2875.316666675667,0.02552352,-0.8036922,0.00716683,-2.37381,0.005640467,1.5804588,0.7620982,0.04,0.04,-0.005348428227103241,-0.03400614846899436,-0.012888515491060737,-0.12017505356088726,-0.03921806974670918,0.0014091484409835923,0.9996248729915037,-0.026895880107705692,0.005163121534592485,0.00025904820194606556
2875.333333342334,0.026521437,-0.80444974,0.007447322,-2.3744984,0.0058586076,1.5808325,0.76115793,0.04,0.04,-0.004831819546469163,-0.03402457208495843,-0.01330553104814669,-0.1229481571282662,-0.03978880607683977,0.0014399997783940532,0.999594507126744,-0.027960018724757698,0.005384010288449749,0.00026666114598403173
2875.3500000090007,0.027542092,-0.8052245,0.007734207,-2.375202,0.0060817148,1.5812143,0.7601963,0.04,0.04,-0.005179652259901246,-0.03402475504913349,-0.013597245087071386,-0.1257289842398869,-0.04035914769909462,0.0014714305835560881,0.9995622326777446,-0.029048179807997943,0.005609900705264562,0.0002743505088338469
2875.3666666756676,0.028585553,-0.80601645,0.008027504,-2.3759212,0.0063098,1.5816047,0.7592132,0.04,0.04,-0.00587576005390833,-0.03402528917430883,-0.013584345986683566,-0.12851669428267387,-0.04093120372644178,0.0015018222377142197,0.9995279641457209,-0.03016047848037475,0.005840791332414165,0.0002821084128991492
2875.3833333423345,0.029651886,-0.80682564,0.008327233,-2.3766568,0.0065428736,1.582004,0.7582086,0.04,0.04,-0.006650341042058194,-0.034012333199153616,-0.013750615669105848,-0.13131046866135668,-0.041504687033292645,0.0015319975515854772,0.9994916172824073,-0.03129693795922791,0.006076561457459376,0.00028992659038920744
2875.4000000090014,0.03074113,-0.80765235,0.008633402,-2.3774083,0.0067809476,1.5824115,0.7571823,0.04,0.04,-0.006112151208559347,-0.03395185574576465,-0.014297592425394079,-0.13410904977143745,-0.04208034000459658,0.0015621075617133478,0.9994531035955119,-0.03245762646051026,0.006317239364508089,0.00029779969880777343
2875.4166666756682,0.03185334,-0.8084967,0.008946026,-2.3781753,0.0070240386,1.5828276,0.7561344,0.04,0.04,-0.00516886458694632,-0.03394124386131847,-0.014201689892479052,-0.13691165040743122,-0.04265882407760492,0.0015926913564614804,0.9994123318847211,-0.03364256325614728,0.006563181084419212,0.0003057259445198639
2875.433333342335,0.03298856,-0.80935836,0.009265115,-2.3789585,0.0072721345,1.5832525,0.7550648,0.04,0.04,-0.006666073919658899,-0.03387061682198281,-0.014102912772995246,-0.13971717625193297,-0.04323534288789013,0.0016213747339573984,0.9993692125713068,-0.03485178305010851,0.006814087072363086,0.00031368806890221695
2875.450000009002,0.034146793,-0.81023765,0.009590677,-2.3797574,0.007525274,1.5836859,0.7539736,0.04,0.04,-0.0056975956836513575,-0.033786748160179875,-0.014672895637302119,-0.1425249916180325,-0.043813706522685174,0.0016521349146118858,0.99932365508239,-0.036085217844757315,0.007070074829536788,0.00032169515622455715
2875.466666675669,0.0353281,-0.81113446,0.00992272,-2.380572,0.007783436,1.5841279,0.7528605,0.04,0.04,-0.0057530888607049135,-0.033733314472655235,-0.01448511563295618,-0.14533504615991583,-0.04439239284904947,0.001680141667445666,0.9992755574220349,-0.03734306114838795,0.007331262034139842,0.0003297270628516211
2875.4833333423358,0.03653247,-0.8120487,0.010261248,-2.3814032,0.008046637,1.5845786,0.7517258,0.04,0.04,-0.007149009663254269,-0.03358984224406392,-0.014876691902565575,-0.14814466122515846,-0.04496966503457815,0.0017093791800502234,0.9992248340658519,-0.03862510827898365,0.007597229738512326,0.0003377821898663373
2875.5000000090026,0.037759922,-0.8129806,0.01060627,-2.38225,0.0083148815,1.585038,0.75056934,0.04,0.04,-0.00568497603692375,-0.033514127832017654,-0.014962520754191466,-0.15095493379943614,-0.04554948938249531,0.0017383010044484046,0.999171380548394,-0.039931448682338916,0.007868423288552176,0.00034585271182062036
2875.5166666756695,0.03901047,-0.81392986,0.010957782,-2.3831122,0.008588177,1.5855061,0.74939114,0.04,0.04,-0.005224768389933132,-0.033423385372427505,-0.014525560904687929,-0.15376385890163558,-0.046128456927401036,0.001766759298504235,0.9991150960640205,-0.04126206729041382,0.008145019762605997,0.00035393921965390753
2875.5333333423364,0.04028411,-0.8148967,0.011315785,-2.3839905,0.008866492,1.5859829,0.74819124,0.04,0.04,-0.0066811834910529555,-0.03322664465886943,-0.01531431966379504,-0.15657099275070424,-0.04670431773659829,0.0017930429065926862,0.9990558844121366,-0.042616911834101705,0.008426600316039447,0.0003620142564650997
2875.5500000090033,0.04158081,-0.81588113,0.011680276,-2.3848846,0.0091498485,1.5864681,0.7469694,0.04,0.04,-0.006029786963934747,-0.03307299343892206,-0.015518849854179173,-0.1593756004497534,-0.04727991385019416,0.0018205163147109286,0.9989936380589611,-0.04399606693288954,0.008713222791345695,0.00037008208063979826
2875.56666667567,0.042900585,-0.81688297,0.012051247,-2.3857949,0.009438244,1.5869617,0.745726,0.04,0.04,-0.007048399315401355,-0.03291959024566138,-0.01569366348475043,-0.16217599046380746,-0.04785508300657916,0.001847605744770501,0.998928262949212,-0.04539933219537191,0.009004617175492046,0.0003781362284254982
2875.583333342337,0.04424339,-0.8179025,0.012428698,-2.3867207,0.009731672,1.5874643,0.7444608,0.04,0.04,-0.005391035837543079,-0.0327690793769056,-0.015345557131007936,-0.16497252114754218,-0.04843337592127553,0.0018742341959666585,0.9988596433163818,-0.046826759748512886,0.009301526738677738,0.0003861679106463957
2875.600000009004,0.04560923,-0.81893945,0.012812615,-2.3876624,0.010030112,1.5879754,0.743174,0.04,0.04,-0.006736993678924108,-0.0325592064089511,-0.01589623075211044,-0.1677639054321306,-0.04900539252636771,0.0018994174784280442,0.9987876803769231,-0.048278259427913514,0.00960332392027028,0.00039416186873820195
2875.616666675671,0.046998043,-0.81999373,0.013202996,-2.3886201,0.010333538,1.5884953,0.74186563,0.04,0.04,-0.006732815042087559,-0.032346104214810156,-0.01575263044626407,-0.17054936018784284,-0.049578901339303864,0.0019177682260127712,0.9987122665353813,-0.04975375158697405,0.009910155982638974,0.000402098474483248
2875.6333333423377,0.048409797,-0.82106555,0.013599829,-2.3895938,0.010641965,1.5890237,0.74053556,0.04,0.04,-0.006668029016743127,-0.03213862717765942,-0.01618450667364435,-0.17332860638443773,-0.050150038163015234,0.0019421213230198658,0.9986332896484854,-0.0512532498181421,0.010221991280935252,0.0004099794823144308
2875.6500000090045,0.049844444,-0.8221546,0.014003094,-2.3905833,0.010955393,1.5895606,0.73918396,0.04,0.04,-0.006672774067495446,-0.03192200818100677,-0.01615950069255856,-0.17610011196102204,-0.05072067316887075,0.0019668266514973366,0.9985506445651983,-0.052776610989173814,0.010538738540658281,0.00041780485413625806
2875.6666666756714,0.05130193,-0.82326114,0.014412783,-2.3915887,0.011273825,1.5901059,0.7378108,0.04,0.04,-0.0068500491003486985,-0.031674891287383766,-0.016674127895210944,-0.17886373254588359,-0.05129103040950915,0.001991715462929162,0.9984642182097214,-0.054323809646372526,0.010860366119259566,0.00042556798546706257
2875.6833333423383,0.05278222,-0.8243849,0.014828877,-2.3926098,0.011597211,1.5906599,0.7364162,0.04,0.04,-0.006697235662445067,-0.031451954038135,-0.016299055491475478,-0.1816179049018963,-0.05186007656518297,0.0020137794593064716,0.9983739001762004,-0.05589470726400423,0.011187021269373367,0.0004332458331807456
2875.700000009005,0.054285232,-0.825526,0.01525136,-2.3936465,0.01192557,1.5912223,0.7350001,0.04,0.04,-0.006355792370804636,-0.031200762092103984,-0.016562341386561208,-0.18436275412549863,-0.0524276507721335,0.002037539675304425,0.9982795711070636,-0.05748932408416459,0.011518731886537747,0.0004408427942425783
2875.716666675672,0.055810902,-0.82668424,0.015680214,-2.3946986,0.012258878,1.5917932,0.733563,0.04,0.04,-0.006537720344490516,-0.03092845083369905,-0.01665458888180371,-0.1870965175704123,-0.05299323806993156,0.002059930530593817,0.9981811352047141,-0.059107266325390095,0.011855436425562122,0.00044834822110137207
2875.733333342339,0.057359155,-0.82785946,0.016115414,-2.395766,0.012597109,1.5923728,0.7321039,0.04,0.04,-0.006295171342607375,-0.030661799901526843,-0.016434570412160454,-0.18982099602086355,-0.05355455375199224,0.002080620830060196,0.9980784409669259,-0.06074902696741081,0.012197282339345921,0.00045574453136546205
2875.750000009006,0.058929898,-0.8290519,0.016556935,-2.396849,0.012940247,1.5929606,0.7306238,0.04,0.04,-0.006660403843250506,-0.030310884578614583,-0.017177244510779843,-0.1925296453930994,-0.054113292851373326,0.002101600361488775,0.9979714059933343,-0.06241398688653126,0.012544029178965445,0.0004630254556136589
2875.7666666756727,0.06052305,-0.8302613,0.017004762,-2.397947,0.013288267,1.5935565,0.72912276,0.04,0.04,-0.006667822671202472,-0.030033280431045195,-0.017155891563769288,-0.195226850494149,-0.054669175585388,0.0021211245529842784,0.9978599153760421,-0.06410204433962627,0.012895585701470423,0.00047017721622862177
2875.7833333423396,0.062138535,-0.8314878,0.017458862,-2.3990612,0.013641174,1.594161,0.727601,0.04,0.04,-0.007598532041175332,-0.02971802972266957,-0.017371963292478476,-0.19791189435484718,-0.05522338053994329,0.002141590943183544,0.9977438572814061,-0.0658130241320334,0.013251920192068854,0.0004772033534495169
2875.8000000090065,0.06377623,-0.8327312,0.01791921,-2.4001906,0.013998949,1.594774,0.72605807,0.04,0.04,-0.006658842992601777,-0.029413255748811373,-0.017206666895908107,-0.20058380972568712,-0.05577690788857337,0.002162216983646447,0.9976230963624457,-0.06754704263463424,0.013613239481213861,0.0004840933259486979
2875.8166666756733,0.06543603,-0.8339913,0.018385777,-2.4013352,0.014361534,1.5953953,0.72449434,0.04,0.04,-0.007011446542759536,-0.029034249146309143,-0.017315544924700887,-0.2032402283644722,-0.0563266897245166,0.00217889443578052,0.997497527166007,-0.06930382240955239,0.013979363034838418,0.000490822031176022
2875.83333334234,0.067117885,-0.83526814,0.018858526,-2.402495,0.014728895,1.5960248,0.7229099,0.04,0.04,-0.006674151030838793,-0.028745783321719454,-0.017581332597371713,-0.20588155175639666,-0.056872815033736215,0.002194933149369721,0.9973670304632861,-0.07108324352719839,0.014350318858650167,0.0004973762705684278
2875.850000009007,0.06882163,-0.83656174,0.019337434,-2.4036698,0.01510105,1.5966623,0.72130483,0.04,0.04,-0.007141313255143444,-0.02835196162579018,-0.01783507546408991,-0.20850677624884575,-0.0574158659247891,0.0022126853581634007,0.9972314888115549,-0.07288517880362601,0.014725985807446154,0.0005037613047121464
2875.866666675674,0.07054713,-0.8378718,0.01982247,-2.4048598,0.015477956,1.5973079,0.7196791,0.04,0.04,-0.00710901368032868,-0.027980976044660044,-0.017718928649523846,-0.21111513042009544,-0.05795675047592817,0.0022290072068904196,0.9970907836466563,-0.07470948956656379,0.015106332352298198,0.0005099592752502548
2875.883333342341,0.07229429,-0.83919823,0.020313581,-2.4060643,0.015859555,1.597962,0.71803313,0.04,0.04,-0.006287823615780397,-0.027632847145989126,-0.01736904570810438,-0.2137055142625367,-0.05849550937140216,0.0022406791842373153,0.9969448000377138,-0.07655589676158554,0.015491744161577928,0.0005159569985257746
2875.9000000090077,0.07406298,-0.8405413,0.020810748,-2.407284,0.016245846,1.5986239,0.7163668,0.04,0.04,-0.007563702158797092,-0.027203135872400086,-0.01848500996031177,-0.21627878774969825,-0.05902721374513323,0.0022514274696654527,0.9967934221549096,-0.07842432894227198,0.01588162345535307,0.0005217423510603732
2875.9166666756746,0.07585306,-0.84190047,0.021313928,-2.4085186,0.016636794,1.5992938,0.71468043,0.04,0.04,-0.0072550765043644105,-0.026847943173459454,-0.017869821907812167,-0.21883313585471972,-0.05955721852181005,0.002264874342128024,0.9966365355747931,-0.08031454353216927,0.016276117434114012,0.0005273101215408424
2875.9333333423415,0.077664405,-0.8432757,0.02182308,-2.4097676,0.0170324,1.5999715,0.71297395,0.04,0.04,-0.007024129562793746,-0.026478849375546898,-0.01818035385297012,-0.22136845989424914,-0.06008512905602099,0.002279398581083048,0.9964740178761666,-0.08222643644613424,0.016675164650529952,0.000532664037390014
2875.9500000090084,0.07949686,-0.8446669,0.022338167,-2.4110312,0.017432615,1.6006572,0.7112476,0.04,0.04,-0.007192314368076325,-0.026057301708273806,-0.018049744188486372,-0.22388365611927025,-0.060609058311278885,0.0022931012681451993,0.9963057566432225,-0.08415975811850092,0.01707879322709399,0.0005377870558167323
2875.9666666756752,0.08135026,-0.84607387,0.022859143,-2.4123094,0.017837409,1.6013508,0.70950145,0.04,0.04,-0.0074184845406666255,-0.025610849967697136,-0.01821181436056918,-0.2263785346540565,-0.061130677922691265,0.0023054430870396714,0.9961316323251797,-0.08611437475036009,0.01748688232689535,0.0005426684190703668
2875.983333342342,0.08322449,-0.8474969,0.023385972,-2.4136019,0.018246738,1.6020521,0.70773566,0.04,0.04,-0.006788694736759027,-0.025216118821227984,-0.018504188459500526,-0.22885180026414645,-0.06164792964897515,0.002316897904257039,0.9959515270003296,-0.08809006338278759,0.017899638843384847,0.0005472916996691515
2876.000000009009,0.085119344,-0.8489359,0.023918603,-2.4149086,0.018660586,1.6027611,0.70595044,0.04,0.04,-0.007038667590975045,-0.02473418429024543,-0.01853780928482429,-0.23130350560242136,-0.06215961045111902,0.0023283210570048916,0.9957653303518388,-0.09008657553939746,0.0183169716623963,0.0005516574995680321
2876.016666675676,0.08703468,-0.85039014,0.024456987,-2.4162292,0.019078879,1.603478,0.704146,0.04,0.04,-0.006974278754112717,-0.024341001123570627,-0.018113495552873893,-0.233732807687292,-0.06266713621475026,0.0023374286778052,0.9955729318690115,-0.09210367111728472,0.01873878991029577,0.0005557419881090873
2876.0333333423428,0.088970326,-0.8518597,0.025001079,-2.4175642,0.019501625,1.6042022,0.70232236,0.04,0.04,-0.007914331113068052,-0.02384781853820017,-0.01874359495352973,-0.2361400278629066,-0.06316979096851087,0.0023473995469532292,0.9953742154926427,-0.09414123504821448,0.019164704518570067,0.0005595504614030899
2876.0500000090096,0.09092612,-0.8533448,0.025550839,-2.4189136,0.01992876,1.6049337,0.7004797,0.04,0.04,-0.00813169885267584,-0.023348468950895596,-0.019101379529495865,-0.23852332019429165,-0.06367121362487346,0.002356079098439934,0.9951690712601977,-0.09619901120678546,0.019594714072710632,0.0005630544919390319
2876.0666666756765,0.09290188,-0.8548449,0.026106209,-2.4202764,0.020360244,1.605673,0.6986183,0.04,0.04,-0.006621346585422572,-0.022997362283655454,-0.018257433130930423,-0.2408825774580931,-0.06417162673214757,0.002364548753336866,0.9949573838989981,-0.09827671224271567,0.02002926385659818,0.0005662552311791572
2876.0833333423434,0.09489742,-0.8563601,0.02666714,-2.4216523,0.020796055,1.6064198,0.69673836,0.04,0.04,-0.006266571790281006,-0.022549740043081856,-0.018281939875364195,-0.24321771821584368,-0.06466421006492294,0.0023727085462332403,0.9947390399666676,-0.10037410079361027,0.020468471403522776,0.0005691524138427841
2876.1000000090103,0.0969126,-0.8578901,0.02723358,-2.4230425,0.02123615,1.6071743,0.69483984,0.04,0.04,-0.008509985941129727,-0.02201292463545612,-0.018844499173709117,-0.24552811391832813,-0.06514994940058912,0.0023797174872114274,0.9945139297158955,-0.10249106483279706,0.020911679981114664,0.0005717262051115206
2876.116666675677,0.09894716,-0.8594347,0.02780547,-2.4244456,0.021680456,1.6079359,0.69292307,0.04,0.04,-0.006641374298910208,-0.021513377757167995,-0.018499059242649274,-0.24781234828766696,-0.06563276536528527,0.002384817726853051,0.9942819492239873,-0.10462724877050286,0.021359186122694617,0.0005739601379038943
2876.133333342344,0.101000935,-0.8609941,0.028382767,-2.4258626,0.022128906,1.6087046,0.69098824,0.04,0.04,-0.008136504745359652,-0.020932937947951147,-0.01922935554288241,-0.2500701767027206,-0.06611156997947558,0.0023812451979826413,0.9940429986309641,-0.10678241555174293,0.02181057159388413,0.0005758198016932879
2876.150000009011,0.10307376,-0.8625678,0.028965402,-2.4272919,0.022581505,1.6094805,0.6890354,0.04,0.04,-0.006142452066182358,-0.02065055368807578,-0.018316688676200954,-0.2523022400676221,-0.06658607996068804,0.0023852724704774633,0.9937969488600416,-0.10895640042707318,0.022266430509933332,0.0005773342132089136
2876.166666675678,0.10516538,-0.8641558,0.029553328,-2.4287343,0.02303821,1.6102632,0.6870649,0.04,0.04,-0.007539810820889059,-0.019978413423979435,-0.01909061510134702,-0.2545069073548446,-0.06705312256929227,0.002389976078379489,0.9935437165146752,-0.11114885859199879,0.02272619554656282,0.0005784841241198925
2876.1833333423447,0.10727558,-0.865758,0.03014648,-2.4301896,0.02349898,1.6110529,0.6850768,0.04,0.04,-0.007395015326894239,-0.01950271422984373,-0.018876481380392107,-0.25668405130549155,-0.06751647253607859,0.0023933916321724064,0.9932831924545874,-0.11335956694135534,0.02318992502788844,0.000579264440908461
2876.2000000090115,0.109404184,-0.8673741,0.030744806,-2.4316576,0.023963772,1.6118493,0.68307143,0.04,0.04,-0.007269972339130071,-0.019023846719373738,-0.01886752558049043,-0.25883289572494633,-0.0679739507684696,0.0023977010874810384,0.993015283147385,-0.11558819126337148,0.023657587833886436,0.0005796672000781065
2876.2166666756784,0.11155095,-0.8690042,0.031348236,-2.433138,0.02443253,1.6126525,0.6810489,0.04,0.04,-0.006912783594548166,-0.0184794687574652,-0.018855086377023156,-0.2609537692326678,-0.06842820278160433,0.0023998413469196074,0.9927398786303775,-0.11783452010081466,0.024129302061724662,0.0005796822994937844
2876.2333333423453,0.113715686,-0.8706479,0.031956725,-2.4346313,0.024905195,1.6134627,0.67900944,0.04,0.04,-0.00848102071331347,-0.017933884994822402,-0.01899742070414767,-0.2630453605384808,-0.06887481582803677,0.0024012299795580297,0.9924568885264201,-0.12009829943561892,0.024604619897325864,0.0005792830374330961
2876.250000009012,0.11589817,-0.8723052,0.03257019,-2.4361362,0.025381735,1.6142795,0.67695326,0.04,0.04,-0.005790379510073329,-0.017523986169590278,-0.01852894539400296,-0.26510743694439376,-0.06931909469865583,0.002403170426769255,0.9921662032867696,-0.12237921416122136,0.025084225122154417,0.0005784866633159364
2876.266666675679,0.11809817,-0.8739755,0.033188567,-2.4376533,0.025862077,1.615103,0.6748806,0.04,0.04,-0.007711462608872566,-0.016919047647465102,-0.01858147716633507,-0.26713936149701173,-0.06975414666058513,0.002402386744382125,0.9918677475320427,-0.12467695485449838,0.025567461587581303,0.0005772710707038514
2876.283333342346,0.120315455,-0.8756591,0.033811815,-2.4391825,0.026346201,1.6159328,0.6727917,0.04,0.04,-0.007579552224656894,-0.016358506952279805,-0.019077802565714563,-0.2691415964454694,-0.07018468370478659,0.0024027916217469088,0.9915614265716978,-0.12699125768889724,0.02605429831166978,0.0005756259013088666
2876.300000009013,0.122549795,-0.8773557,0.034439847,-2.4407234,0.026834033,1.616769,0.6706867,0.04,0.04,-0.007118966611407984,-0.01582850839241534,-0.018785128480347524,-0.2711127495157919,-0.07060953671924003,0.0024017333678171444,0.991247145352709,-0.12932184734662358,0.026544823917184563,0.0005735435185308468
2876.3166666756797,0.124800935,-0.8790649,0.035072606,-2.442276,0.027325526,1.6176114,0.668566,0.04,0.04,-0.007547909891503224,-0.015286373128284292,-0.018657149190981492,-0.27305294207945596,-0.07102942586340234,0.00240026832969532,0.9909248299417747,-0.13166835407693003,0.027038858735560698,0.0005710147245264516
2876.3333333423466,0.12706868,-0.8807869,0.035710026,-2.4438393,0.027820649,1.6184599,0.66642946,0.04,0.04,-0.005903904066428822,-0.014855688895656916,-0.018572022987894954,-0.2749619748117642,-0.07144446355017586,0.0023991783591333186,0.9905943596925738,-0.1340306512943576,0.02753681873019815,0.0005680432116411027
2876.3500000090135,0.12935273,-0.8825212,0.03635202,-2.4454143,0.028319336,1.6193147,0.6642777,0.04,0.04,-0.008005603522498461,-0.014132564235330713,-0.01869108991321422,-0.27683772228592285,-0.07185085973727069,0.0023971871182120325,0.9902556948757094,-0.1364082334833218,0.028038077865869003,0.0005646182540506855
2876.3666666756803,0.13165286,-0.88426775,0.036998548,-2.447,0.028821532,1.6201755,0.6621108,0.04,0.04,-0.006568255348615715,-0.0137122589215527,-0.018382083065704435,-0.27868260783274235,-0.07225247393655317,0.0023946367692658753,0.9899087368311666,-0.13880084978782956,0.02854299268081548,0.0005607248197181058
2876.383333342347,0.13396883,-0.8860262,0.03764951,-2.4485972,0.029327124,1.621042,0.65992916,0.04,0.04,-0.008300142761097362,-0.01297562289732379,-0.01880366621189733,-0.280493960374895,-0.07264874230785741,0.002381963531740118,0.9895534330562115,-0.14120814460038517,0.029050878144915512,0.0005563310096328858
2876.400000009014,0.13630034,-0.8877965,0.038304858,-2.4502056,0.029836105,1.6219146,0.65773255,0.04,0.04,-0.007870742240956297,-0.012481065667954705,-0.018455079229218185,-0.2822732083222779,-0.07304136751785666,0.0023768996645581533,0.9891896726413403,-0.14362999521359998,0.02956200144962172,0.0005514389828781922
2876.416666675681,0.13864721,-0.8895785,0.038964495,-2.4518237,0.030348415,1.6227927,0.65552145,0.04,0.04,-0.0058309478649487545,-0.012057997668971088,-0.01825151039243078,-0.28401802878405524,-0.07342816284209484,0.002373082519727454,0.9888173816997043,-0.14606601321594823,0.030076689458006144,0.0005460613394757344
2876.433333342348,0.14100914,-0.891372,0.03962837,-2.4534523,0.030864015,1.6236767,0.6532962,0.04,0.04,-0.007181237373754534,-0.01143016101590455,-0.01821149968728175,-0.2857287251125477,-0.07380621484203517,0.0023692956645817477,0.9884365054718952,-0.14851582001975944,0.030594673587718245,0.0005401874001499505
2876.4500000090147,0.14338584,-0.8931766,0.0402964,-2.4550917,0.03138286,1.624566,0.65105706,0.04,0.04,-0.008250125338693515,-0.010775183932335008,-0.018445087327911835,-0.28740530982253487,-0.07417748071353597,0.002365023037432055,0.9880470036851835,-0.15097902571903912,0.031115387569938844,0.0005338146056914633
2876.4666666756816,0.14577708,-0.89499223,0.04096851,-2.4567406,0.03190486,1.6254609,0.64880425,0.04,0.04,-0.006195688860155535,-0.010359912144528027,-0.017779153058783415,-0.2890478340494789,-0.07454626510237303,0.0023600597798665857,0.9876487775703702,-0.15345538611072115,0.03163951610370505,0.0005269327151670415
2876.4833333423485,0.14818256,-0.8968187,0.041644637,-2.4584005,0.03242997,1.6263609,0.6465379,0.04,0.04,-0.009092678298094903,-0.009546325258841248,-0.018603282609186422,-0.29065540586993066,-0.07490493865056107,0.0023542210545936804,0.9872417963383014,-0.15594458319142646,0.0321660168660525,0.000519514147014056
2876.5000000090154,0.15060203,-0.8986558,0.04232469,-2.4600687,0.03295812,1.6272665,0.6442582,0.04,0.04,-0.004639876821754818,-0.009363692956809722,-0.017096807338257136,-0.2922277467190637,-0.07526414751035045,0.0023493529124165476,0.9868259424904792,-0.15844635766818663,0.032696318677638836,0.000511580289596755
2876.5166666756822,0.15303521,-0.9005034,0.04300859,-2.4617465,0.033489272,1.6281772,0.6419658,0.04,0.04,-0.007038403428683004,-0.008555838441326458,-0.017961721302905964,-0.2937637545229973,-0.0756097959961612,0.0023428127015471395,0.986401224609677,-0.16096015470489408,0.033229498201819405,0.0005031253933241525
2876.533333342349,0.15548183,-0.9023612,0.04369627,-2.4634337,0.03402333,1.6290927,0.6396606,0.04,0.04,-0.007496183110844434,-0.007965915828817005,-0.017848110457974187,-0.29526490512576753,-0.07594946366340365,0.0023360497742694296,0.9859675668835161,-0.1634858288534209,0.03376531755472367,0.0004941136891940182
2876.550000009016,0.15794161,-0.904229,0.044387642,-2.4651303,0.034560252,1.6300133,0.6373431,0.04,0.04,-0.007280532347797575,-0.007450199469100083,-0.017442797017963585,-0.296729559943292,-0.0762835609321054,0.002329396253397561,0.9855249388888739,-0.1660228983371315,0.03430389563467191,0.00048456176633087197
2876.566666675683,0.16041426,-0.9061066,0.04508262,-2.4668355,0.035099994,1.6309388,0.6350135,0.04,0.04,-0.006325761777792316,-0.006917477326451316,-0.017331263512532225,-0.29815823213085946,-0.07661123607891242,0.002323235203743477,0.9850732823378292,-0.1685710674659193,0.03484535134175635,0.0004744759693069802
2876.5833333423498,0.16289951,-0.9079938,0.04578114,-2.4685493,0.03564248,1.6318688,0.63267195,0.04,0.04,-0.006655237683750315,-0.006328445816833339,-0.017264611979439515,-0.29955056537905755,-0.07693125792750402,0.0023167561931720197,0.9846125472568356,-0.171130065991737,0.03538950630427157,0.0004638336011346224
2876.6000000090166,0.1653971,-0.90989035,0.04648312,-2.4702716,0.03618763,1.6328037,0.6303188,0.04,0.04,-0.006895332816525546,-0.005799700142239406,-0.01702965589505112,-0.3009054466780564,-0.07724506303737201,0.0023084498306866416,0.9841427056323908,-0.1736994885801975,0.03593630126046403,0.0004526248475884254
2876.6166666756835,0.16790663,-0.9117958,0.047188472,-2.4720023,0.036735393,1.6337427,0.6279544,0.04,0.04,-0.007226233776758129,-0.005084703249896849,-0.01704433997820054,-0.3022232321328403,-0.07755066997913775,0.0023007833842234038,0.9836637478215337,-0.17627892196531678,0.03648531956328702,0.00044085009358808407
2876.6333333423504,0.17042787,-0.91371036,0.047897108,-2.4737413,0.03728573,1.6346861,0.62557906,0.04,0.04,-0.006927698606373767,-0.004571520679658159,-0.016966283668184978,-0.30350423407048877,-0.07785240422236206,0.0022943360252006793,0.9831756313981174,-0.17886802305831528,0.03703679959138144,0.0004285185542741093
2876.6500000090173,0.17296052,-0.9156335,0.048608944,-2.4754882,0.03783853,1.6356338,0.62319285,0.04,0.04,-0.006724590528217611,-0.004017975090092607,-0.016522778788563564,-0.3047478183182856,-0.07814845221640845,0.00228633437136469,0.9826783174657924,-0.18146651061962576,0.03759065281620928,0.0004156043646229485
2876.666666675684,0.17550431,-0.9175651,0.049323913,-2.4772427,0.038393747,1.6365856,0.620796,0.04,0.04,-0.006552116399638486,-0.003507362333066144,-0.016494414165513227,-0.30595370693746293,-0.07843741434654905,0.002279165378503204,0.9821717738256959,-0.1840740751548154,0.03814681987901466,0.00040210583649981927
2876.683333342351,0.17805895,-0.91950494,0.050041918,-2.4790046,0.038951334,1.6375415,0.61838925,0.04,0.04,-0.006365859787105244,-0.0029864905433163447,-0.016129861951896807,-0.3071203593954421,-0.07871941216604497,0.0022703663573945196,0.9816560113579259,-0.18669017072546096,0.03870536064016272,0.00038804260175639976
2876.700000009018,0.18062408,-0.9214528,0.05076288,-2.4807734,0.03951117,1.6385015,0.6159724,0.04,0.04,-0.005788702881437402,-0.002377208329934488,-0.015845766646815918,-0.30824975785031206,-0.07899558675468471,0.002254741913622727,0.9811309748964713,-0.18931461440647612,0.03926636552027674,0.000373376023789681
2876.716666675685,0.18319942,-0.9234083,0.051486712,-2.482549,0.040073242,1.6394653,0.61354595,0.04,0.04,-0.005915619513641168,-0.001878325444082396,-0.015642952729955084,-0.3093406982193522,-0.07926041164311029,0.0022470295834854347,0.9805966739652409,-0.19194696045601367,0.039829626156630556,0.0003581343712232338
2876.7333333423517,0.18578474,-0.92537147,0.052213322,-2.4843318,0.040637463,1.6404328,0.6111102,0.04,0.04,-0.007240780955020121,-0.0012208676332392532,-0.01593078279034099,-0.3103926955066764,-0.07951736796218739,0.002238263279702519,0.9800531113273525,-0.19458686449505347,0.04039472708648538,0.0003422969005381881
2876.7500000090185,0.18837963,-0.92734176,0.05294263,-2.4861214,0.04120378,1.6414039,0.6086654,0.04,0.04,-0.006546669848628284,-0.0006717231924191491,-0.015380271107101606,-0.3114064195141938,-0.07976945674202968,0.0022293481500474596,0.9795002818621228,-0.19723394346268167,0.040961728331615876,0.0003258684837502693
2876.7666666756854,0.19098376,-0.9293193,0.053674545,-2.4879177,0.04177214,1.6423787,0.6062119,0.04,0.04,-0.006404446164998134,-8.315693283966752e-05,-0.015254835184252968,-0.3123810768512917,-0.08001487590682288,0.002221290777862893,0.9789381877551039,-0.19988778348423902,0.04153074976645855,0.0003088565147851769
2876.7833333423523,0.1935969,-0.9313036,0.05440899,-2.4897203,0.04234245,1.6433564,0.60375,0.04,0.04,-0.006828643095180276,0.0004497141125991977,-0.015309226191750902,-0.3133173489240023,-0.08025146261180269,0.0022131740947131523,0.9783668422964567,-0.20254806529256358,0.042101286446784535,0.0002912398074620128
2876.800000009019,0.19621871,-0.93329453,0.05514587,-2.4915287,0.042914648,1.6443375,0.6012798,0.04,0.04,-0.005581358188022634,0.0008816315146431553,-0.01461000047622285,-0.31421446777108797,-0.0804859193370678,0.002205464715100122,0.9777862144522748,-0.20521449694132746,0.0426738154996694,0.00027302547190158946
2876.816666675686,0.19884887,-0.9352917,0.0558851,-2.4933424,0.043488663,1.6453218,0.59880173,0.04,0.04,-0.005172919231566375,0.0013770402282953231,-0.01421520218396477,-0.31507178844207284,-0.08070999253585535,0.002198198447943056,0.9771963251189608,-0.20788664898191947,0.04324833778961198,0.00025421939754899153
2876.833333342353,0.20148706,-0.93729514,0.05662657,-2.4951615,0.044064447,1.6463094,0.59631616,0.04,0.04,-0.005608625422093283,0.0019901680409661893,-0.014182133167639499,-0.315889375071937,-0.08092419968914072,0.0021904095985298758,0.9765972009155721,-0.21056411038577091,0.043824735422638914,0.00023483282206969533
2876.85000000902,0.20413299,-0.9393043,0.057370216,-2.4969869,0.044641893,1.6472996,0.5938233,0.04,0.04,-0.007612457574301956,0.0027000433409585245,-0.014383295968856125,-0.3166676961468743,-0.08113010901855057,0.0021809916460190093,0.9759888905184476,-0.21324654454088293,0.044402147217298786,0.00021482187077608697
2876.8666666756867,0.20678636,-0.94131917,0.058115937,-2.4988165,0.045220986,1.6482924,0.59132344,0.04,0.04,-0.004365923735538679,0.0029222305211129562,-0.013724408920934295,-0.3174068660164403,-0.08133369510767685,0.0021746924259959874,0.9753713613606889,-0.2159336536677278,0.04498140642353983,0.0001942350705258943
2876.8833333423536,0.20944679,-0.9433395,0.05886366,-2.500651,0.045801606,1.6492879,0.58881676,0.04,0.04,-0.0053706559663524445,0.0036053119081669305,-0.01344666077005563,-0.3181052880844285,-0.08152627292838939,0.002167749726920541,0.9747446519450654,-0.21862504995673793,0.045562277107666437,0.0001730337293000857
2876.9000000090205,0.21211398,-0.94536483,0.059613258,-2.5024908,0.046383716,1.6502861,0.5863039,0.04,0.04,-0.0072297887532712934,0.004232859699249136,-0.01338373342392174,-0.318763345152825,-0.08170958865784211,0.0021610643716753267,0.9741088567437055,-0.22132021271614022,0.04614407634737942,0.00015124417515520656
2876.9166666756873,0.21478759,-0.9473951,0.06036468,-2.5043342,0.04696722,1.6512867,0.5837849,0.04,0.04,-0.0039318707873547964,0.004476306224587834,-0.012614878062344737,-0.3193819365366189,-0.08188904941680034,0.0021554150696242377,0.9734639330219856,-0.2240189205609528,0.046727697703581095,0.00012885416350957691
2876.933333342354,0.21746732,-0.9494299,0.061117806,-2.5061827,0.047552053,1.6522897,0.5812601,0.04,0.04,-0.0068664969016696276,0.005266573396689456,-0.012883675715680276,-0.3199603487430944,-0.08205690247060617,0.0021491863555461455,0.9728099740333506,-0.22672075284417134,0.04731219129328159,0.00010585854756759195
2876.950000009021,0.22015285,-0.95146936,0.06187255,-2.508035,0.048138168,1.6532946,0.57872975,0.04,0.04,-0.005006153111053457,0.005695363067309556,-0.012699268533356012,-0.320498709673874,-0.0822210601864406,0.002144191541188424,0.9721469947912993,-0.22942538915588107,0.04789785548641667,8.227223297004988e-05
2876.966666675688,0.22284383,-0.95351285,0.062628835,-2.509891,0.048725467,1.6543016,0.57619417,0.04,0.04,-0.005372180025831064,0.006130207049831471,-0.011925216897368252,-0.3209960753207985,-0.08237757195480425,0.0021390253430930567,0.9714750437928491,-0.23213244800680152,0.048484662487677764,5.8081902911500045e-05
2876.983333342355,0.22553992,-0.9555602,0.06338655,-2.5117505,0.049313866,1.6553105,0.57365376,0.04,0.04,-0.004899874659614056,0.006665659773041899,-0.011814060252279823,-0.32145287734373473,-0.08252505859750697,0.0021340356594052035,0.9707941850934111,-0.23484151333986736,0.049072524825612314,3.329115073719036e-05
2877.0000000090217,0.22824086,-0.95761114,0.0641456,-2.5136137,0.04990332,1.6563214,0.5711088,0.04,0.04,-0.005952397979513968,0.007160322496374549,-0.011509998285674783,-0.3218693666488625,-0.08266511216932174,0.0021306384249431057,0.9701044827858143,-0.23755222574532536,0.049661176583843746,7.913159521680638e-06
2877.0166666756886,0.23094624,-0.95966554,0.064905934,-2.5154796,0.050493754,1.6573337,0.5685599,0.04,0.04,-0.0042064348044768,0.00759513249093402,-0.011236030480232806,-0.32224590551217963,-0.08279831938358857,0.0021285833901300497,0.9694060099992537,-0.24026410227951706,0.050250856780322845,-1.8055139077324895e-05
2877.0333333423555,0.23365577,-0.9617232,0.065667406,-2.5173488,0.051085077,1.6583478,0.566007,0.04,0.04,-0.005506768882890256,0.008207976992780086,-0.010955695624703665,-0.32258204961335446,-0.0829227331848619,0.0021233761139464874,0.9686988168673786,-0.24297687616893218,0.05084130069372442,-4.4617244244953266e-05
2877.0500000090224,0.23636915,-0.9637837,0.06642995,-2.51922,0.051677216,1.6593634,0.5634505,0.04,0.04,-0.00402135889567834,0.008440268132953177,-0.010372474232722695,-0.3228782979542102,-0.08304125094507296,0.0021182916124946743,0.9679829444629799,-0.2456902372765105,0.05143268790604354,-7.176733840975946e-05
2877.0666666756892,0.23908599,-0.9658467,0.0671935,-2.5210938,0.052270137,1.6603801,0.5608907,0.04,0.04,-0.004774559982578808,0.009039036694136193,-0.010292441697723476,-0.3231331553719494,-0.08314920292984321,0.0021149228958335237,0.9672584877256206,-0.24840378914122735,0.052024663016954124,-9.95037600369146e-05
2877.083333342356,0.24180596,-0.9679122,0.0679579,-2.5229702,0.052863717,1.6613982,0.5583278,0.04,0.04,-0.005260030645648506,0.009653710992646447,-0.010000428723522248,-0.3233479798696315,-0.0832485285785147,0.002113800034964232,0.9665255314115152,-0.25111714493863974,0.05261711040626179,-0.00012782820346619896
2877.100000009023,0.24452873,-0.9699798,0.0687231,-2.5248477,0.053457916,1.6624172,0.5557623,0.04,0.04,-0.003167765972533765,0.009841163149942878,-0.009408778764896653,-0.32352200295129263,-0.08334172212464291,0.0021140654497918757,0.9657841345946241,-0.2538299278855981,0.05321041734129754,-0.0001567203561412346
2877.11666667569,0.247254,-0.97204936,0.06948897,-2.5267277,0.054052655,1.6634371,0.55319446,0.04,0.04,-0.005505952572071315,0.010552194548901772,-0.009491501111069667,-0.3236559863813356,-0.08342317103800873,0.0021146014661780205,0.9650344207108135,-0.25654176151317687,0.053803873254807975,-0.00018618765157263134
2877.1333333423568,0.24998145,-0.97412056,0.07025546,-2.5286086,0.05464789,1.6644578,0.5506247,0.04,0.04,-0.003301437110891925,0.01072372588103998,-0.008837942320583103,-0.32374936437516144,-0.0835004383014574,0.002116124679795911,0.9642764529596353,-0.259252267172571,0.05439795482806039,-0.00021620358578755165
2877.1500000090236,0.25271064,-0.97619325,0.07102247,-2.5304902,0.055243492,1.6654793,0.5480531,0.04,0.04,-0.0030010221553800065,0.011232905341684862,-0.008322930967419317,-0.32380278722627476,-0.08356583715841617,0.0021177538396312742,0.963510285964393,-0.2619611897356065,0.05499275407924058,-0.00024680336214392604
2877.1666666756905,0.25544134,-0.9782669,0.071789876,-2.5323734,0.055839404,1.6665014,0.54548025,0.04,0.04,-0.005303413077695218,0.011844521582438094,-0.008342278659467794,-0.3238143023646962,-0.08362360329515142,0.002115267829509118,0.9627361110592366,-0.26466798609182696,0.05558741169053231,-0.00027796075434598206
2877.1833333423574,0.25817326,-0.9803415,0.0725576,-2.534258,0.056435548,1.667524,0.5429063,0.04,0.04,-0.004496635556905382,0.012179247581006747,-0.008047859881910036,-0.3237872759188707,-0.08367428821970697,0.002115449534514896,0.9619539722900287,-0.2673724555809202,0.056182108233689396,-0.00030968771623585606
2877.2000000090243,0.26090592,-0.9824165,0.07332554,-2.5361426,0.057031877,1.6685468,0.5403315,0.04,0.04,-0.003419634815715611,0.012551529745852275,-0.007342063620274786,-0.3237189926707348,-0.0837179604824386,0.0021178409327845815,0.9611639778890289,-0.27007419427799556,0.05677693423445138,-0.00034195404204367215
2877.216666675691,0.26363897,-0.98449194,0.07409361,-2.5380278,0.057628278,1.6695698,0.53775626,0.04,0.04,-0.003827437604053685,0.013105702257132368,-0.007163926832953749,-0.3236104498290677,-0.08375314526567924,0.002119919203998781,0.9603662585568653,-0.27277277814704975,0.05737177410082469,-0.0003747852086231705
2877.233333342358,0.26637214,-0.98656744,0.07486169,-2.539913,0.058224715,1.6705929,0.53518087,0.04,0.04,-0.0034118584769426974,0.013405374717978535,-0.006768420684122312,-0.32346242626611643,-0.08378019409768134,0.0021239427838591757,0.9595609079915864,-0.27546791832039647,0.05796657012605968,-0.0004081401846422215
2877.250000009025,0.2691052,-0.98864293,0.07562976,-2.5417984,0.058821112,1.6716158,0.5326057,0.04,0.04,-0.003931341076279793,0.013771511054577745,-0.006705218006830549,-0.32327446411274774,-0.08379820164552547,0.0021292670671425595,0.9587480482914021,-0.2781592710912595,0.05856111675039143,-0.0004420501706854406
2877.266666675692,0.27183768,-0.990718,0.07639767,-2.5436835,0.05941737,1.6726385,0.5300311,0.04,0.04,-0.0035208122423524557,0.014260520187264758,-0.006106635455305209,-0.32304614248526564,-0.08380904363212943,0.0021361547815507073,0.9579278137576084,-0.28084642912881896,0.059155387143240194,-0.0004764945891932715
2877.2833333423587,0.2745693,-0.99279237,0.0771653,-2.5455675,0.06001347,1.673661,0.5274573,0.04,0.04,-0.0020976620288770675,0.014397956732009609,-0.005411277108802182,-0.3227787445224858,-0.08381223693739262,0.0021448614736355107,0.9571002943890922,-0.283529076352917,0.05974970958414137,-0.0005114170369885054
2877.3000000090256,0.2772998,-0.9948658,0.07793257,-2.5474505,0.06060931,1.6746827,0.52488446,0.04,0.04,-0.002927251171858103,0.014892754354683957,-0.005460337499951784,-0.3224713105926801,-0.08380579385182378,0.0021529148870498074,0.9562656054642243,-0.2862069903380262,0.060343611476148196,-0.0005468471496527298
2877.3166666756924,0.28002867,-0.99693817,0.0786994,-2.5493324,0.06120478,1.675704,0.52231324,0.04,0.04,-0.002443835100685021,0.01534344724883896,-0.004872275920719815,-0.3221230172690004,-0.08379025170612181,0.0021615929112940996,0.9554239285721886,-0.2888795977990926,0.0609373041343997,-0.0005827966641050581
2877.3333333423593,0.28275573,-0.99900913,0.07946575,-2.551213,0.061799858,1.6767246,0.5197437,0.04,0.04,-0.002929801968032386,0.015576737333489188,-0.004637736063584086,-0.3217359042721374,-0.08376412399083707,0.0021703942658454142,0.9545753582872476,-0.29154674426595084,0.06153046224462898,-0.0006192533080066345
2877.350000009026,0.28548056,-1.0010784,0.08023145,-2.5530925,0.062394444,1.6777444,0.5171763,0.04,0.04,-0.0031910884836561237,0.016091839288479015,-0.004169347137938928,-0.3213088109007364,-0.08373155894663048,0.0021801648219350184,0.9537200799196024,-0.2942079516057536,0.062122940779457014,-0.0006562004310605088
2877.366666675693,0.28820282,-1.0031457,0.08099645,-2.55497,0.062988445,1.6787633,0.5146112,0.04,0.04,-0.0021655496715844436,0.016342037949818033,-0.00374565602314636,-0.3208424499930588,-0.08369219111169893,0.0021893827926133536,0.9528581948282242,-0.2968629681992569,0.06271489066590737,-0.0006936493263599188
2877.38333334236,0.2909222,-1.0052109,0.08176062,-2.556845,0.06358183,1.6797808,0.5120489,0.04,0.04,-0.0012406095754702307,0.01659911071119624,-0.0033735485716945846,-0.320337096768455,-0.08364187680655785,0.002201695869661728,0.9519898608372335,-0.2995113901614122,0.06330637295214243,-0.0007315533660104867
2877.400000009027,0.2936383,-1.0072736,0.0825239,-2.558718,0.064174525,1.6807973,0.50948954,0.04,0.04,-0.002738092293097516,0.017096966384083645,-0.002977494461786634,-0.3197928376245067,-0.08358244401749387,0.002213802440512995,0.9511152346497799,-0.302152931809796,0.06389697508285101,-0.0007699292829185597
2877.4166666756937,0.2963508,-1.0093336,0.08328614,-2.560589,0.06476642,1.6818125,0.5069337,0.04,0.04,-0.002916629423177497,0.01754543458445945,-0.0027862748904095014,-0.3192096189745642,-0.0835150431481341,0.002226140702986816,0.950234518801839,-0.3047871283053003,0.06448652259603559,-0.0008087646856927075
2877.4333333423606,0.29905954,-1.0113906,0.08404731,-2.5624573,0.06535745,1.682826,0.5043815,0.04,0.04,-0.0018042345026003659,0.01754310573689466,-0.002288041183418077,-0.3185888314559566,-0.08344058036861157,0.0022410314621893607,0.9493478002686198,-0.30741384049298803,0.0650750764637353,-0.0008480694097040218
2877.4500000090275,0.301764,-1.0134444,0.08480728,-2.5643222,0.06594756,1.6838382,0.5018332,0.04,0.04,-0.0007670422431216295,0.017856754504103067,-0.0015523249671689499,-0.31792895862678117,-0.0833586809901309,0.0022570337466557774,0.9484552289756032,-0.31003266548881103,0.06566305493857821,-0.0008877921335403542
2877.4666666756943,0.30446398,-1.015495,0.085566,-2.5661843,0.066536695,1.6848485,0.49928924,0.04,0.04,-0.002065651230465093,0.018314285036663547,-0.0017470199519031837,-0.31723090625729655,-0.08326523128998897,0.0022724319291121398,0.94755700291053,-0.312643292153187,0.0662498074964757,-0.0009279620200208404
2877.483333342361,0.3071591,-1.0175416,0.08632335,-2.5680432,0.06712474,1.6858573,0.49674985,0.04,0.04,-0.0019181178277705158,0.018531018832274038,-0.0008992496892124002,-0.3164945359581255,-0.08316355580194476,0.0022895587410343074,0.946653274493518,-0.315245411512969,0.0668353969911558,-0.0009685658230890281
2877.500000009028,0.30984896,-1.0195845,0.0870792,-2.5698986,0.067711666,1.6868639,0.4942153,0.04,0.04,-0.0012707714536652759,0.018961955034846323,-0.0008201917146455351,-0.3157201056293073,-0.08305503614022726,0.002308615241258187,0.9457442199529184,-0.3178386797648877,0.0674197660374311,-0.0010095634784346896
2877.516666675695,0.31253335,-1.0216229,0.087833494,-2.5717502,0.06829737,1.6878684,0.491686,0.04,0.04,-0.0015075045052270752,0.01903839961341358,-0.0001746051938034121,-0.31490801316925,-0.08293703185987007,0.002327894178979585,0.9448300095080858,-0.3204228208508554,0.06800267988519267,-0.0010509706765303992
2877.533333342362,0.31521183,-1.023657,0.08858614,-2.5735974,0.068881795,1.6888709,0.48916215,0.04,0.04,-0.0002823829500231412,0.01930451992994686,0.00035108119891269496,-0.3140580305840114,-0.08281355342897481,0.0023491744642689105,0.9439107876825154,-0.32299749404736783,0.0685846163726535,-0.0010927637942076721
2877.5500000090287,0.31788412,-1.0256864,0.08933708,-2.5754404,0.06946488,1.6898712,0.48664415,0.04,0.04,-0.0007418358535460357,0.01959068255933949,0.0005459086709680427,-0.3131709996880663,-0.08267823734648028,0.002369120230251369,0.9429867511412401,-0.3255623921670926,0.06916522150479301,-0.0011349505372433729
2877.5666666756956,0.32055,-1.027711,0.09008618,-2.5772793,0.07004654,1.6908689,0.48413223,0.04,0.04,-0.001384324277209359,0.01999510311573305,0.0005705397254640587,-0.31224682855646185,-0.08253199310502476,0.002391577959144353,0.9420580786739513,-0.3281172723577368,0.06974414273396358,-0.0011775143170036125
2877.5833333423625,0.323209,-1.0297303,0.09083331,-2.5791132,0.0706267,1.6918639,0.4816268,0.04,0.04,-0.00021083597427917766,0.020128679096759194,0.0014956607637395258,-0.31128499345345717,-0.08238087620266685,0.002413519854845725,0.9411249730859654,-0.33066172106130187,0.07032156026423934,-0.0012204182569159159
2877.6000000090294,0.32586074,-1.0317442,0.09157848,-2.5809426,0.07120528,1.6928566,0.47912803,0.04,0.04,-0.0009308724163492599,0.02044305186977291,0.0017921253577135587,-0.31028717989325044,-0.08222142075043157,0.0024374413094173236,0.9401876004707608,-0.33319550341365617,0.07089735853787608,-0.001263716069905606
2877.6166666756963,0.32850513,-1.0337523,0.09232151,-2.5827663,0.07178224,1.6938462,0.4766363,0.04,0.04,0.0005496726717790779,0.020400234945316953,0.0022124258419298215,-0.30925297797913676,-0.08205301179427572,0.002462175424418969,0.9392461183333628,-0.3357183800415328,0.07147159870074955,-0.0013073167782509474
2877.633333342363,0.33114174,-1.0357544,0.093062356,-2.5845847,0.07235753,1.6948332,0.4741519,0.04,0.04,-0.0002795410071421145,0.020744838627906326,0.002592623300246011,-0.3081828149641565,-0.08187199906824735,0.0024923675084854782,0.938300745643285,-0.33822999831869466,0.07204410542895955,-0.0013512348174422445
2877.65000000903,0.3337701,-1.0377505,0.093800925,-2.5863972,0.07293106,1.6958166,0.47167513,0.04,0.04,0.0006348627261898443,0.02116136163214377,0.0027742771568028957,-0.30707632510487465,-0.08168320156939385,0.002522189237882874,0.9373516848635816,-0.3407300386227736,0.07261482162707512,-0.0013954725350389615
2877.666666675697,0.33639017,-1.0397401,0.09453714,-2.5882044,0.07350271,1.696797,0.46920633,0.04,0.04,-0.000794565291362126,0.021249743439866187,0.003141444496435053,-0.3059340936315691,-0.08148808422910112,0.0025486603506594888,0.9363991255209173,-0.34321828992616105,0.07318339603153011,-0.0014400448309183594
2877.6833333423638,0.33900154,-1.0417234,0.09527088,-2.5900056,0.07407251,1.6977744,0.4667457,0.04,0.04,0.0007041941228136395,0.021361494057525743,0.0037041928585446193,-0.30475623232583404,-0.08128446229694128,0.0025783950223047317,0.9354432202733098,-0.3456944740209651,0.07375030447556717,-0.0014848790622450899
2877.7000000090306,0.3416037,-1.0436999,0.09600207,-2.591801,0.0746403,1.6987486,0.46429363,0.04,0.04,0.00019294694522109523,0.02181893285316816,0.004169244087570689,-0.30354291411812806,-0.08107118139517591,0.0026070225926435944,0.9344842364741132,-0.34815818620770966,0.07431519489507137,-0.001530021457091537
2877.7166666756975,0.34419647,-1.0456691,0.09673063,-2.5935893,0.075206004,1.6997191,0.46185046,0.04,0.04,0.0012938194885458998,0.02174258610634361,0.004582957036969315,-0.30229556806437907,-0.0808505429511897,0.0026372472481552695,0.9335223478463708,-0.3506092110184359,0.07487806890896088,-0.0015754418092627394
2877.7333333423644,0.3467796,-1.047631,0.09745648,-2.595371,0.07576963,1.700686,0.45941624,0.04,0.04,0.0009661528391324836,0.021894743951966777,0.004835115960810654,-0.3010141850770412,-0.0806194600977336,0.0026683770799889386,0.9325577012278149,-0.35304742299914493,0.07543886913410969,-0.001621116320075715
2877.7500000090313,0.34935287,-1.0495855,0.098179534,-2.5971456,0.07633107,1.701649,0.45699158,0.04,0.04,0.0014938863336366737,0.0220510862223966,0.005138041045327224,-0.29969721874468325,-0.08038043924465194,0.002699787859558017,0.9315905469667828,-0.3554724289909259,0.07599753950442728,-0.0016670389001451722
2877.766666675698,0.35191578,-1.0515318,0.09889968,-2.5989132,0.07689029,1.7026081,0.45457658,0.04,0.04,0.0006020342520507427,0.022340648341778735,0.005772295959916018,-0.298346622001463,-0.08013182121439402,0.0027327855212717217,0.9306211101658756,-0.35788397746172534,0.07655372625691834,-0.0017131800808318168
2877.783333342365,0.3544681,-1.05347,0.099616855,-2.6006734,0.077447176,1.7035633,0.4521715,0.04,0.04,0.001458126350062372,0.022402716221214813,0.0060956129901645895,-0.2969624852023841,-0.07987707414859248,0.0027658077536563755,0.9296495569681414,-0.3602818640851704,0.07710761047516286,-0.0017595587696199381
2877.800000009032,0.35700953,-1.0554003,0.100330964,-2.6024258,0.0780017,1.7045146,0.4497767,0.04,0.04,0.002485845535615816,0.02250984263245659,0.006479694934113933,-0.2955447739017908,-0.07961177219222104,0.0028014558836433404,0.9286760846467687,-0.3626657844143896,0.07765949082517608,-0.0018061298451684145
2877.816666675699,0.35953978,-1.0573218,0.10104191,-2.6041708,0.07855377,1.7054616,0.44739243,0.04,0.04,0.0008477692783781521,0.0228263252001093,0.0067240660472589475,-0.2940938446860031,-0.07933549741529647,0.0028358011206304767,0.9277009500058778,-0.3650355175562705,0.07820859940280038,-0.0018529058448501143
2877.8333333423657,0.36205855,-1.0592346,0.10174964,-2.605908,0.0791033,1.7064043,0.445019,0.04,0.04,0.00175769083348154,0.02288820042884998,0.007148090904285365,-0.2926102494998898,-0.07905489970177176,0.0028701448675586966,0.9267243432258413,-0.36739080591355705,0.07875517640957126,-0.0018998925015817586
2877.8500000090326,0.36456552,-1.0611385,0.102454044,-2.607637,0.079650275,1.7073429,0.44265667,0.04,0.04,0.0020695741184795224,0.022944967297655605,0.00768984123867833,-0.2910940725823816,-0.07876510447430243,0.0029072437291566486,0.9257464682528341,-0.36973140164132434,0.07929928264777336,-0.0019470308920578724
2877.8666666756994,0.36706042,-1.0630331,0.10315505,-2.609358,0.08019462,1.7082767,0.44030574,0.04,0.04,0.0011495037549824616,0.02325115199595107,0.007762261023447348,-0.28954616721637677,-0.07846566212907491,0.002944154849783144,0.9247675827491877,-0.3720570561999796,0.07984038735839998,-0.0019943356012260397
2877.8833333423663,0.369543,-1.0649186,0.10385259,-2.6110704,0.08073626,1.709206,0.43796644,0.04,0.04,0.003146643871465571,0.023162779636520803,0.00818837530960348,-0.28796699871927933,-0.07816119991256598,0.002983221321891806,0.9237878208580784,-0.37436759431638506,0.08037908567058524,-0.0020417998937119998
2877.900000009033,0.37201288,-1.066794,0.10454657,-2.6127744,0.08127516,1.7101305,0.43563908,0.04,0.04,0.0012769134619672329,0.02336095164452434,0.008751716596822057,-0.28635603119293085,-0.07784464623343684,0.0030237424511887073,0.9228074863502745,-0.3766627315087133,0.08091454936094133,-0.0020893850766120848
2877.9166666757,0.3744698,-1.0686601,0.10523693,-2.6144693,0.081811234,1.7110502,0.4333238,0.04,0.04,0.0034122355117460756,0.023471753643700133,0.008887633748655421,-0.28471414819091806,-0.07752417462155288,0.003064745241278654,0.9218266991750498,-0.37894229866375445,0.081447552042175,-0.0021371096835041663
2877.933333342367,0.3769135,-1.0705161,0.10592355,-2.6161547,0.082344405,1.7119648,0.43102103,0.04,0.04,0.003440181844793777,0.023406813708370944,0.009485754823723713,-0.2830414036761181,-0.07719303909356412,0.003105821630518875,0.9208457130465469,-0.38120603253389346,0.08197779947469253,-0.002184929484382863
2877.950000009034,0.37934372,-1.0723616,0.10660638,-2.6178312,0.08287462,1.7128744,0.428731,0.04,0.04,0.0018142598317671954,0.02369475029354584,0.009639876772427058,-0.2813384919432441,-0.07685167320028224,0.003148489904098547,0.9198647824448125,-0.3834537397515269,0.0825047017080783,-0.002232864614600696
2877.9666666757007,0.3817602,-1.0741966,0.107285306,-2.6194978,0.08340186,1.713779,0.42645398,0.04,0.04,0.004078861381451304,0.023436935287202143,0.01029016513178771,-0.2796055136250407,-0.07650601407445604,0.0031917714795730856,0.9188840628907142,-0.3856852040219742,0.0830289115339705,-0.002280836133168485
2877.9833333423676,0.38416258,-1.0760208,0.10796033,-2.6211548,0.08392605,1.7146783,0.42419007,0.04,0.04,0.002939807554591667,0.023785657083541523,0.010430872139932656,-0.27784301426647406,-0.07614754147393452,0.0032351934309276346,0.9179037947187759,-0.38790025074537293,0.08354995716498081,-0.002328898941135006
2878.0000000090345,0.3865506,-1.0778346,0.10863128,-2.622802,0.084447056,1.7155724,0.4219398,0.04,0.04,0.00366699800604664,0.023945182057472092,0.010695103043989462,-0.2760508027139539,-0.07578518810264244,0.0032787436708208786,0.916924215755304,-0.3900985645671845,0.08406808076629622,-0.0023770318496667536
2878.0166666757013,0.38892403,-1.079637,0.10929813,-2.6244395,0.0849649,1.7164608,0.4197031,0.04,0.04,0.00277502714187694,0.023946171280275763,0.011053504949243287,-0.2742292356608534,-0.07541615892733192,0.003315176345619921,0.9159455301324811,-0.39228009496541894,0.08458268902095348,-0.002425209730057045
2878.033333342368,0.39128262,-1.0814282,0.10996082,-2.6260657,0.085479505,1.7173437,0.4174805,0.04,0.04,0.005414871622289041,0.023601243284809836,0.011656785453095786,-0.2723823661941198,-0.07502859312810589,0.0033725176360545964,0.9149679156134423,-0.3944445749809981,0.08509449434231006,-0.0024733982047349303
2878.050000009035,0.39362615,-1.0832076,0.11061929,-2.6276832,0.085990794,1.7182208,0.4152723,0.04,0.04,0.0007786379203400529,0.024362364467089836,0.011392706463819735,-0.2705058524479003,-0.07463528063981806,0.0034213291185872484,0.9139917381822235,-0.3965917644305476,0.08560208041192857,-0.002521656132918199
2878.066666675702,0.3959543,-1.0849755,0.11127337,-2.6292894,0.08649874,1.7190922,0.41307846,0.04,0.04,0.005269694411236259,0.02387108441535002,0.012250546310177413,-0.268600806239808,-0.0742479949952147,0.003466089460316138,0.9130170452563776,-0.39872159288503034,0.08610669065129851,-0.0025698761875946508
2878.083333342369,0.3982667,-1.0867319,0.11192308,-2.6308842,0.08700326,1.7199576,0.41089937,0.04,0.04,0.005702721856137849,0.024058117535541435,0.012332556376914994,-0.26666810990863965,-0.07384959012948913,0.0035098645944623766,0.9120440911769235,-0.4008337798086189,0.08660832668255944,-0.0026181029090257195
2878.1000000090357,0.40056327,-1.0884763,0.11256834,-2.6324677,0.08750434,1.7208172,0.40873525,0.04,0.04,0.004930803765490488,0.02384518132168001,0.012892918589146873,-0.2647099374382133,-0.07343506661814596,0.0035584821074957813,0.9110730708394889,-0.40292823675746675,0.08710675356418648,-0.002666289206147727
2878.1166666757026,0.40284365,-1.0902079,0.113209054,-2.6340406,0.0880019,1.7216709,0.40658632,0.04,0.04,0.00335508932076678,0.024143055066250252,0.01325115992714121,-0.26272459299963474,-0.0730119805173074,0.003604216670932088,0.9101042885244351,-0.40500473392219616,0.08760126309330153,-0.002714445523671336
2878.1333333423695,0.40510774,-1.0919275,0.11384516,-2.635602,0.08849587,1.7225182,0.40445283,0.03999999,0.04,0.0052219501874617436,0.024118993326549543,0.013096758141084575,-0.26071361718945396,-0.07258490124060187,0.003653261458618745,0.9091378770922104,-0.4070631639432176,0.08809239046447448,-0.0027625602365497636
2878.1500000090364,0.40735522,-1.0936345,0.1144766,-2.637152,0.0889862,1.7233593,0.40233502,0.039999973,0.04,0.004774385786521229,0.024097035123293864,0.013687481665680679,-0.2586763311635259,-0.07214903168495437,0.0037002477852278795,0.9081740812003936,-0.40910333640315133,0.08857990054348763,-0.0028106225887929927
2878.1666666757033,0.40958565,-1.0953285,0.1151033,-2.6386902,0.08947278,1.7241942,0.40023312,0.039999947,0.04,0.004878146619247126,0.024261085655852277,0.014183105296217136,-0.2566136440527158,-0.07170638408879453,0.003748235464295764,0.9072131627032763,-0.4111250015668542,0.08906367717633874,-0.0028586556983674818
2878.18333334237,0.411799,-1.0970097,0.11572518,-2.6402173,0.08995557,1.7250228,0.39814726,0.039999932,0.04,0.004353526815847886,0.024302444808355084,0.01418591808192149,-0.2545273633232398,-0.07125539772022843,0.0037967006104501315,0.9062552854038446,-0.41312811728925364,0.08954366429868026,-0.0029066418077130693
2878.200000009037,0.41399506,-1.0986774,0.116342165,-2.6417322,0.09043457,1.725845,0.3960778,0.03999991,0.04,0.005365611767693679,0.023989189887951845,0.01477583566950047,-0.25241654447173534,-0.07079884026818123,0.003846725503858367,0.9053006810314672,-0.4151124816813416,0.09001986097619621,-0.002954506074767916
2878.216666675704,0.41617355,-1.1003321,0.11695423,-2.6432352,0.090909705,1.7266604,0.394025,0.0399999,0.04,0.005275407372540286,0.024302352221916568,0.014550841954141802,-0.25028227627208743,-0.07033460435985182,0.0038977505871922308,0.9043495640592784,-0.4170779446418267,0.09049221122674543,-0.003002296860183215
2878.2333333423708,0.41833425,-1.1019733,0.11756128,-2.6447258,0.091380954,1.7274691,0.39198887,0.039999872,0.04,0.005697344896260503,0.024057092627183252,0.015201879431370191,-0.2481247161170977,-0.06986266877814637,0.003948772454536356,0.9034021086907704,-0.4190244337811255,0.0909607149075377,-0.0030499591777737286
2878.2500000090376,0.4204769,-1.1036009,0.118163265,-2.6462035,0.091848224,1.7282712,0.3899698,0.039999858,0.04,0.0066732558620996585,0.02393427007255644,0.015622109190960298,-0.24594475568207103,-0.06938248854461032,0.004002896496160976,0.9024585203481253,-0.42095174470598834,0.09142567046338225,-0.003097492595294792
2878.2666666757045,0.42260128,-1.105214,0.11876014,-2.6476688,0.09231151,1.7290665,0.38796788,0.039999846,0.04,0.0049275559980355155,0.024087032944508646,0.01586228828467373,-0.24374206914685653,-0.0688916121162005,0.004054521198382777,0.9015190755178915,-0.4228597678915854,0.09188624938130556,-0.003144892792675605
2878.2833333423714,0.42470717,-1.1068137,0.119351804,-2.6491215,0.09277073,1.7298548,0.3859834,0.039999824,0.04,0.006314867395795787,0.02421659450828617,0.015763478344144044,-0.24151772421796894,-0.06839854413427847,0.004108084508218715,0.9005839354873685,-0.42474833366626863,0.09234304734128279,-0.003192146227400352
2878.3000000090383,0.42679444,-1.1083989,0.11993821,-2.6505613,0.09322589,1.7306362,0.38401648,0.03999981,0.04,0.005914067369228171,0.023912935918313227,0.016355365214459905,-0.23927036756388131,-0.06790314419810067,0.004152977152833456,0.8996532982240227,-0.4266174011222445,0.0927957086288759,-0.003239215090768061
2878.316666675705,0.42886284,-1.1099701,0.12051932,-2.6519883,0.093676895,1.7314106,0.38206738,0.03999979,0.04,0.006250263539531176,0.02406124234235474,0.016376112750948746,-0.23700353550240927,-0.06739614935274346,0.0042068480803932225,0.8987273752701117,-0.4284667976701374,0.09324435449100046,-0.0032861208057380505
2878.333333342372,0.4309121,-1.1115266,0.121095054,-2.6534019,0.094123706,1.7321777,0.3801362,0.03999977,0.04,0.0065128365202893335,0.02394699221849317,0.016815107066348034,-0.2347161525547132,-0.06688131768736347,0.004258670802509808,0.8978063661202608,-0.4302964425956467,0.09368880720822742,-0.0033328437351829968
2878.350000009039,0.43294215,-1.1130685,0.12166542,-2.654802,0.09456632,1.7329375,0.37822315,0.039999757,0.04,0.006508797335702532,0.023839394123559288,0.016851751567081852,-0.23240904234436588,-0.06636011172856018,0.00431284987363038,0.8968904561840443,-0.4321062592189623,0.09412900825368563,-0.0033793719755812477
2878.366666675706,0.43495268,-1.1145954,0.12223032,-2.656189,0.09500471,1.73369,0.37632847,0.039999735,0.04,0.006456845883162643,0.023821219848574327,0.01735023852329487,-0.23008199873491297,-0.06583300490216393,0.00436762321566319,0.8959798733977056,-0.43389607015839066,0.09456495921382267,-0.0034256760244743213
2878.3833333423727,0.4369436,-1.1161075,0.12278964,-2.6575623,0.09543875,1.7344354,0.37445235,0.03999971,0.04,0.006957183823042001,0.023744723850838145,0.01758623018810468,-0.2277355934330778,-0.06530073455653475,0.004419140153026781,0.895074787755417,-0.4356657925474451,0.09499678171163826,-0.0034717420746418755
2878.4000000090396,0.43891463,-1.1176046,0.123343416,-2.6589217,0.09586842,1.7351731,0.37259477,0.039999694,0.04,0.007165118909790991,0.023843728895200922,0.01747812817856076,-0.22537152503480354,-0.06476059036165699,0.004473862384296732,0.8941753664725172,-0.43741541341572804,0.09542429741669148,-0.0035176075133912564
2878.4166666757064,0.4408657,-1.1190865,0.12389153,-2.6602678,0.096293755,1.7359031,0.37075618,0.039999682,0.04,0.006084084531976508,0.023815228940904376,0.017727053227933887,-0.22298871299722128,-0.064213669090524,0.0045278800015207885,0.8932818881349025,-0.43914473147969796,0.09584715310788994,-0.003563198686589983
2878.4333333423733,0.44279644,-1.1205534,0.12443399,-2.6616,0.09671467,1.7366256,0.36893672,0.039999664,0.04,0.007220086707704354,0.023810491917430898,0.018005406702703564,-0.22058888333744744,-0.06366418016118364,0.004583426672652716,0.8923945300811974,-0.440853598343616,0.09626570483838204,-0.003608542727182704
2878.45000000904,0.44470692,-1.1220051,0.124970704,-2.6629183,0.09713113,1.7373406,0.36713648,0.03999964,0.04,0.007708870428002612,0.02344060513522761,0.0182947948439538,-0.21817271106798053,-0.06310825513475268,0.004636867308787963,0.8915133925814214,-0.44254205932384993,0.09668013140952311,-0.003653596585255344
2878.466666675707,0.4465968,-1.1234413,0.12550166,-2.6642222,0.09754311,1.7380477,0.36535555,0.039999627,0.04,0.007644760180491872,0.023528565474240093,0.01844617111297353,-0.21574080474466856,-0.06254241774797378,0.00469301444321038,0.8906386964791431,-0.4442100176339476,0.09709013641688526,-0.0036983750663774555
2878.483333342374,0.44846597,-1.1248603,0.12602681,-2.6655114,0.09795058,1.7387474,0.36359417,0.0399996,0.04,0.007073678561098085,0.022856126149517486,0.019562964133434946,-0.2132924750138074,-0.061972709143577984,0.00474735203911383,0.8897706610203778,-0.4458574203000421,0.09749524509696567,-0.00374282436587993
2878.500000009041,0.45031425,-1.1262633,0.12654607,-2.666786,0.09835342,1.7394394,0.3618524,0.039999582,0.04,0.007861018950183762,0.023250968204169276,0.019153923715697907,-0.21082858732439794,-0.06139965279590552,0.004802502889473485,0.8889094153490098,-0.44748418507273224,0.09789593545977276,-0.0037869821930035866
2878.5166666757077,0.45214155,-1.1276506,0.12705946,-2.6680462,0.09875172,1.7401237,0.36013046,0.03999957,0.04,0.007801680092556218,0.023206874507075703,0.019037099426255644,-0.20835011484117288,-0.0608211156616031,0.004857751233506569,0.888055129768868,-0.44909023776812285,0.09829226658137057,-0.0038308175193531337
2878.5333333423746,0.4539477,-1.1290224,0.12756686,-2.6692917,0.09914536,1.7407999,0.3584285,0.039999556,0.04,0.008460456894066049,0.023307395604921233,0.019001583098576802,-0.2058571735244131,-0.060234132974929584,0.0049121644727629955,0.8872079944349349,-0.45067548935922164,0.09868418076505013,-0.0038743216564349385
2878.5500000090415,0.45573246,-1.1303782,0.1280683,-2.6705227,0.09953437,1.7414682,0.35674658,0.039999545,0.04,0.008009481005633035,0.023150907986657643,0.019393130598499564,-0.20335051278987537,-0.059642372934133686,0.004965601802709021,0.886368172005357,-0.45223990450908624,0.09907161869991753,-0.0039174983947056295
2878.5666666757083,0.45749572,-1.1317176,0.1285637,-2.671739,0.09991869,1.7421283,0.35508493,0.03999952,0.04,0.007241680706293607,0.02312863227558193,0.019622536742680552,-0.20083073423239228,-0.059045489649657,0.005017063548981741,0.8855359067460346,-0.45378339086067954,0.09945404872124988,-0.003960332740243503
2878.583333342375,0.4592375,-1.1330408,0.12905303,-2.6729405,0.100298315,1.7427804,0.35344356,0.0399995,0.04,0.008763537409550715,0.022744078575498428,0.01978157469378905,-0.19829933166290423,-0.05844547125285769,0.005071405239700913,0.8847112341066078,-0.4553060040284885,0.0998321222471738,-0.004002787628443047
2878.600000009042,0.46095753,-1.1343471,0.12953626,-2.6741269,0.10067316,1.7434244,0.3518227,0.039999485,0.04,0.00787712996090928,0.022742957172827705,0.020083075607424394,-0.19575517610785756,-0.0578381923757748,0.0051240330458285945,0.883894408055699,-0.4568076428011811,0.10020524813240358,-0.004044889741078543
2878.616666675709,0.4626557,-1.1356369,0.13001335,-2.6752982,0.101043254,1.7440603,0.3502224,0.039999466,0.04,0.008421109690770479,0.022718668543619813,0.020101381066872648,-0.19319989547146166,-0.05722831596982353,0.0051776086578686,0.883085553824332,-0.45828826145788687,0.10057372256955126,-0.004086608029099318
2878.633333342376,0.464332,-1.1369101,0.13048424,-2.6764543,0.101408556,1.7446878,0.3486428,0.03999945,0.04,0.00857791658264162,0.022513044284300232,0.020146254926101115,-0.19063357706022338,-0.056612905037712095,0.005229494389421489,0.8822848002743485,-0.4597478952277568,0.10093742776865214,-0.004127918839861259
2878.6500000090427,0.46598607,-1.1381665,0.13094896,-2.6775954,0.10176903,1.7453072,0.34708405,0.039999437,0.04,0.008291183783537548,0.022634492033357656,0.02050643549207365,-0.18805714313754318,-0.055994612865859994,0.005283566625839262,0.8814923816218091,-0.46118634873331277,0.1012963646423393,-0.00416886015502621
2878.6666666757096,0.46761802,-1.1394061,0.13140745,-2.678722,0.10212471,1.7459183,0.34554613,0.03999942,0.04,0.007143740654824704,0.022551363444245354,0.020331411310625658,-0.18547211122530138,-0.05537033416215595,0.005336631579754704,0.8807084149870779,-0.46260375482523935,0.10165006059813987,-0.0042093910406998435
2878.6833333423765,0.4692277,-1.1406286,0.13185965,-2.6798332,0.102475494,1.7465209,0.34402925,0.039999403,0.04,0.008334893585115744,0.02235255442299966,0.020612855270063513,-0.1828775190118191,-0.05474783354344838,0.005389591887019297,0.8799330444049389,-0.4640000359422477,0.10199875331738541,-0.004249509565557941
2878.7000000090434,0.47081497,-1.1418341,0.13230556,-2.680929,0.1028214,1.7471153,0.34253332,0.03999939,0.04,0.009023878511227323,0.022093438251480357,0.02083461542889964,-0.18027452817497566,-0.05412219543576972,0.005443729652392603,0.8791663400300674,-0.4653752393845599,0.10234273695402099,-0.004289209561187207
2878.7166666757103,0.47237977,-1.1430229,0.13274519,-2.6820092,0.10316239,1.7477013,0.34105873,0.039999377,0.04,0.00912080529982262,0.022048653085704473,0.02080250069982359,-0.17766358452876935,-0.05349021721585394,0.00549797082868279,0.878408498188475,-0.46672923484243745,0.10268201326113491,-0.004328487761403074
2878.733333342377,0.47392207,-1.1441942,0.13317847,-2.6830733,0.103498474,1.7482787,0.33960533,0.03999936,0.04,0.009815023038117765,0.021636355427390175,0.021065668302833185,-0.17504735729965543,-0.052852285500773186,0.005555663855100326,0.8776595755023614,-0.4680621676481775,0.1030165202018761,-0.004367300195843534
2878.750000009044,0.47544178,-1.1453484,0.13360539,-2.684121,0.103829615,1.7488477,0.33817327,0.03999935,0.04,0.010565233796633322,0.02146362178689909,0.021172580864536883,-0.17242270901696016,-0.052211065576446336,0.005608730557013775,0.8769196837346677,-0.4693739962989637,0.10334655397009268,-0.004405639515166145
2878.766666675711,0.47693866,-1.1464854,0.13402593,-2.685153,0.10415585,1.7494081,0.33676264,0.039999332,0.04,0.00881186163557146,0.0218264727371853,0.021094035741830996,-0.16979107612414804,-0.05156428513412155,0.005657919217377912,0.8761890635664903,-0.47066461825558614,0.10367158351742582,-0.004443509850283461
2878.783333342378,0.47841287,-1.1476053,0.13444005,-2.6861696,0.10447707,1.7499601,0.3353735,0.03999931,0.04,0.008912329522381413,0.02159581504873609,0.021155992886146002,-0.16715447266484518,-0.050917828079925606,0.005706525646979217,0.8754677776041162,-0.47193413091766667,0.10399167128770208,-0.004480932345726235
2878.8000000090447,0.47986415,-1.1487079,0.13484775,-2.6871705,0.104793325,1.7505035,0.33400586,0.039999295,0.04,0.009273425944744673,0.021453457593612058,0.02137319670967308,-0.16451355432229098,-0.05026612367805562,0.005756493773720853,0.8747559635403279,-0.47318249029485704,0.10430687383461752,-0.004517875589166087
2878.8166666757115,0.48129255,-1.1497929,0.13524902,-2.6881554,0.105104566,1.7510383,0.3326598,0.03999928,0.04,0.00941580298450262,0.02124154209046658,0.021380782455704406,-0.16186857888265235,-0.04961240893539879,0.005805165509342493,0.8740537158338461,-0.4744097677571849,0.10461707300687621,-0.00455435276346141
2878.8333333423784,0.48269793,-1.1508605,0.13564387,-2.6891248,0.105410784,1.7515645,0.33133537,0.039999265,0.04,0.008745920783592709,0.02131510473554199,0.021415626571796853,-0.15921981208831673,-0.04895677109938091,0.005852826248516536,0.8733611754060824,-0.4756159456652885,0.10492215187749854,-0.004590377720273739
2878.8500000090453,0.48408037,-1.1519105,0.13603218,-2.6900787,0.10571199,1.752082,0.33003262,0.039999258,0.04,0.008525456225183525,0.021171677207887374,0.02146146098416235,-0.15656928566620576,-0.04829903257600249,0.005903590668012711,0.8726784616105235,-0.47680105762239283,0.10522193353790699,-0.004625883029438545
2878.866666675712,0.48543972,-1.1529433,0.13641411,-2.691016,0.10600817,1.752591,0.32875162,0.039999247,0.04,0.0111463447587834,0.02057142398216305,0.021693074308382077,-0.1539162494191929,-0.04764239626819178,0.005952965586094705,0.872005568617133,-0.4779651278154912,0.1055173010291182,-0.004660909413642251
2878.883333342379,0.486776,-1.1539584,0.13678952,-2.6919377,0.10629934,1.7530915,0.32749236,0.03999923,0.04,0.008754836150637324,0.02090277234471083,0.021575432536558026,-0.15126143654804106,-0.04697957617801603,0.005999798347096987,0.8713426822422544,-0.47910819071489336,0.105807489175192,-0.004695415553128364
2878.900000009046,0.4880891,-1.1549559,0.13715844,-2.6928434,0.106585465,1.7535832,0.32625484,0.039999217,0.04,0.009377413575051285,0.02062260913078262,0.02172476002363366,-0.1486064875257594,-0.04631642163028227,0.006046822530959801,0.8706898832544636,-0.4802302879141656,0.10609255550313296,-0.004729422271380434
2878.916666675713,0.48937923,-1.1559359,0.13752088,-2.6937332,0.10686654,1.7540661,0.32503915,0.0399992,0.04,0.00968043684772546,0.02047191050380537,0.021457754198184187,-0.1459513827170537,-0.04565301310712401,0.0060940366307243275,0.8700472145542318,-0.48133151249886735,0.10637261906546448,-0.004762922960607974
2878.9333333423797,0.49064612,-1.1568985,0.13787682,-2.6946073,0.10714256,1.7545406,0.32384518,0.039999187,0.04,0.00944549728931765,0.020439662886928556,0.02175969316671189,-0.1432967799279246,-0.04498756476711195,0.006141320884307279,0.8694147804194731,-0.48241185565532096,0.10664773910697568,-0.004795920633160797
2878.9500000090466,0.49188986,-1.1578432,0.13822626,-2.6954653,0.10741353,1.7550063,0.3226731,0.039999176,0.04,0.00936726898408402,0.02016237120721076,0.021812308049362628,-0.14064325873105013,-0.04432061599539444,0.006188061828172126,0.8687926994833798,-0.48347134567178657,0.1069176782335075,-0.004828386878650512
2878.9666666757134,0.49311048,-1.1587706,0.13856918,-2.6963072,0.10767947,1.7554632,0.3215229,0.03999917,0.04,0.010211529464210223,0.020025625758546273,0.02159640940100349,-0.13799253131877598,-0.04365426778829784,0.00623491343412228,0.8681809875482982,-0.4845100746416452,0.10718273106392791,-0.004860307818118166
2878.9833333423803,0.49430797,-1.1596804,0.1389056,-2.697133,0.10794036,1.7559115,0.3203944,0.039999153,0.04,0.009750198814129085,0.019907047752132367,0.021678453510010076,-0.13534403900920858,-0.04298682530119094,0.006279769103969542,0.8675796998785144,-0.4855281501907005,0.1074427798689069,-0.0048917057500434
2879.000000009047,0.4954824,-1.1605723,0.13923551,-2.6979432,0.10819624,1.7563511,0.31928766,0.039999142,0.04,0.009075017660342688,0.019683398244618733,0.021797175903226496,-0.1326989213413574,-0.0423175944320547,0.006325494314856666,0.866988928164078,-0.4865256381838181,0.10769758768890833,-0.004922543724706869
2879.016666675714,0.49663353,-1.1614469,0.13955894,-2.6987374,0.108447075,1.7567823,0.3182027,0.039999135,0.04,0.01013315439357676,0.019685271229785695,0.02182248714602819,-0.13005767099203658,-0.041651359943050775,0.0063722372981677745,0.8664087405778684,-0.4875024852606927,0.10794762763056381,-0.004952858149919696
2879.033333342381,0.49776173,-1.1623039,0.13987587,-2.6995158,0.10869285,1.7572047,0.3171395,0.039999116,0.04,0.009233818956855266,0.019474838383337634,0.021535669846317607,-0.1274209069576791,-0.04098362823785487,0.006413697571425044,0.8658391684282964,-0.48845890957838817,0.10819242760125763,-0.004982637718600552
2879.050000009048,0.49886692,-1.1631435,0.14018634,-2.7002783,0.10893358,1.7576185,0.31609812,0.039999105,0.04,0.010075543973742107,0.019184934768023965,0.02170601084302559,-0.12478980680504659,-0.04031887009413399,0.006458422692402448,0.8652802540094583,-0.48939490982884354,0.10843240030867003,-0.0050118677402709874
2879.0666666757147,0.49994898,-1.1639656,0.14049035,-2.7010248,0.109169304,1.7580237,0.31507832,0.039999098,0.04,0.009878299705623483,0.019181343645524596,0.021675801050258237,-0.12216507349398148,-0.03965054634990825,0.006501993716297984,0.8647320456813737,-0.4903106009152198,0.1086673664039479,-0.00504056352929596
2879.0833333423816,0.50100803,-1.1647702,0.14078791,-2.7017553,0.10940003,1.7584202,0.31408024,0.039999083,0.04,0.01001167037153472,0.018983959494500713,0.021562444742118103,-0.11954859898332318,-0.038980381238527935,0.006548918244612775,0.8641946055969721,-0.49120601729137053,0.10889738523394331,-0.005068700331820691
2879.1000000090485,0.5020443,-1.1655575,0.14107904,-2.70247,0.10962575,1.7588083,0.31310368,0.039999068,0.04,0.009710026641340797,0.01868459233573816,0.02151634437359551,-0.1169388884863101,-0.0383148031563386,0.006591204575636993,0.8636678869095678,-0.4920813940136564,0.10912245742089338,-0.005096280326284582
2879.1166666757154,0.50305766,-1.1663274,0.14136373,-2.7031693,0.109846465,1.7591876,0.31214857,0.039999064,0.04,0.009185931518840285,0.018870094501566292,0.021462318534892777,-0.11433704409908295,-0.03764911200902318,0.0066332877797651724,0.8631520056705749,-0.4929367280786483,0.10934234643136874,-0.00512332849455139
2879.1333333423822,0.5040482,-1.1670798,0.14164202,-2.703853,0.11006225,1.7595583,0.31121507,0.039999057,0.04,0.009692574227027073,0.018426199492815876,0.021413871155484543,-0.11174454812094758,-0.03698679840124473,0.006677088586816548,0.8626469822342081,-0.49377209065132804,0.10955722764471539,-0.005149796776042263
2879.150000009049,0.505016,-1.1678151,0.14191392,-2.7045205,0.1102731,1.7599207,0.31030294,0.039999045,0.04,0.010479903305360416,0.018183713487240905,0.021497979293838565,-0.1091624639523594,-0.03632610542955343,0.0067190443656162165,0.8621527703532268,-0.4945876249849863,0.10976745451062994,-0.005175684903822701
2879.166666675716,0.5059612,-1.1685333,0.14217944,-2.7051725,0.110479,1.7602745,0.30941212,0.039999034,0.04,0.009623688541871012,0.018277510389286267,0.021191290973199273,-0.10659069716583214,-0.03566657730681263,0.006758977620569198,0.8616694187015548,-0.49538344761732866,0.10997273325391667,-0.005201023164450226
2879.183333342383,0.50688386,-1.1692344,0.1424387,-2.7058089,0.110679984,1.7606201,0.30854258,0.039999023,0.04,0.010123432203923421,0.017715924056249666,0.0212984826805096,-0.10403073044136796,-0.03500937255199026,0.006798359037184721,0.8611968839282897,-0.49615971462449965,0.11017329816090381,-0.005225807907631001
2879.2000000090497,0.50778395,-1.1699184,0.14269158,-2.7064295,0.11087608,1.7609571,0.3076942,0.039999016,0.04,0.010097899131866761,0.017887926101456397,0.021160397556774235,-0.1014825162361192,-0.034353320507456805,0.006836697864315799,0.8607352392220359,-0.49691645431331993,0.11036903011382292,-0.0052500081711303135
