rsonawane2002/My_IMU/logs_2/traj_350/imu_400hz_350.csv
time,j1,j2,j3,j4,j5,j6,j7,gripper1,gripper2,imu_ax,imu_ay,imu_az,imu_gx,imu_gy,imu_gz
0.0,0.00016700293,-0.785875,4.0107683e-05,-2.3551247,9.29385e-05,1.570997,0.786,0.04,0.04,-9.497756,0.0070287538692355,0.10639997,-7.1225253e-07,-0.0011641272576525,5.1418425e-07
0.0025,0.00016700476,-0.785857774,4.0109227550000007e-05,-2.35513919,9.29439459e-05,1.570996565,0.786,0.04,0.04,-9.548238350000046,0.006070101808290038,0.09180771837498672,-6.856104104999758e-07,-0.0013250710966531915,5.721972525000528e-07
0.005,0.00016700659,-0.785840548,4.0110772100000004e-05,-2.3551536800000004,9.294939180000002e-05,1.57099613,0.786,0.04,0.04,-9.598720700000092,0.0051114497473445765,0.07721546674997345,-6.589682909999515e-07,-0.0014860149356538828,6.302102550001056e-07
0.0075,0.00016700842,-0.7858233219999999,4.011231665000001e-05,-2.3551681700000002,9.295483770000002e-05,1.570995695,0.786,0.04,0.04,-9.64920305000014,0.004152797686399114,0.06262321512496019,-6.323261714999273e-07,-0.0016469587746545742,6.882232575001584e-07
0.01,0.00016701025000000002,-0.785806096,4.0113861200000006e-05,-2.35518266,9.296028360000002e-05,1.5709952600000001,0.786,0.04,0.04,-9.699685400000185,0.0031941456254536526,0.04803096349994691,-6.056840519999031e-07,-0.0018079026136552656,7.462362600002111e-07
0.0125,0.00016701208000000003,-0.78578887,4.011540575000001e-05,-2.3551971500000004,9.296572950000003e-05,1.570994825,0.786,0.04,0.04,-9.75016775000023,0.00223549356450819,0.033438711874933635,-5.790419324998789e-07,-0.001968846452655957,8.042492625002638e-07
0.015,0.00016701391,-0.785771644,4.0116950300000014e-05,-2.3552116400000003,9.297117540000003e-05,1.57099439,0.786,0.04,0.04,-9.800650100000276,0.0012768415035627288,0.01884646024992037,-5.523998129998546e-07,-0.0021297902916566484,8.622622650003166e-07
0.0175,0.00016701898150000007,-0.7857548569999999,4.011963500000004e-05,-2.3552257350000003,9.297675370000003e-05,1.57099396,0.786,0.04,0.04,-9.834201449999998,0.0006429535569623746,0.00904392922499858,-6.330539400018799e-07,-0.0022861055214898366,8.912326149998147e-07
0.02,0.00016703053600000009,-0.7857389479999999,4.012460000000004e-05,-2.3552390400000003,9.298259680000004e-05,1.5709935400000001,0.786,0.04,0.04,-9.833890799999999,0.0006585938390345138,0.008820839399998377,-9.283005600021483e-07,-0.00243316353298827,8.621176599997882e-07
0.0225,0.0001670420905000001,-0.785723039,4.012956500000004e-05,-2.3552523450000002,9.298843990000005e-05,1.57099312,0.786,0.04,0.04,-9.833580149999998,0.000674234121106653,0.008597749574998174,-1.2235471800024166e-06,-0.0025802215444867037,8.330027049997617e-07
0.025,0.0001670536450000001,-0.7857071299999999,4.013453000000005e-05,-2.35526565,9.299428300000005e-05,1.5709927,0.786,0.04,0.04,-9.833269499999997,0.0006898744031787923,0.008374659749997971,-1.5187938000026852e-06,-0.0027272795559851377,8.038877499997352e-07
0.0275,0.0001670651995000001,-0.7856912209999999,4.013949500000005e-05,-2.355278955,9.300012610000005e-05,1.57099228,0.786,0.04,0.04,-9.832958849999997,0.0007055146852509315,0.008151569924997768,-1.8140404200029536e-06,-0.0028743375674835712,7.747727949997087e-07
0.03,0.00016707675400000013,-0.7856753119999998,4.014446000000005e-05,-2.35529226,9.300596920000006e-05,1.57099186,0.786,0.04,0.04,-9.832648199999996,0.0007211549673230707,0.007928480099997566,-2.109287040003222e-06,-0.0030213955789820048,7.456578399996822e-07
0.0325,0.00016708830850000012,-0.7856594029999998,4.014942500000006e-05,-2.355305565,9.301181230000007e-05,1.57099144,0.786,0.04,0.04,-9.832337549999997,0.0007367952493952099,0.007705390274997363,-2.4045336600034908e-06,-0.0031684535904804387,7.165428849996558e-07
0.035,0.00016711724900000046,-0.7856443449999998,4.016054830000018e-05,-2.3553181,9.30189070000001e-05,1.57099101,0.786,0.04,0.04,-9.832045799999996,0.000759857136290811,0.007493373099997371,-2.9890814800092856e-06,-0.0033061742084117343,5.798329899975741e-07
0.0375,0.0001671548825000005,-0.7856297124999998,4.01747507500002e-05,-2.35533025,9.302662750000011e-05,1.570990575,0.786,0.04,0.04,-9.831763499999996,0.0007866298255979402,0.007286892249997183,-3.7182799000099475e-06,-0.003439226129559715,3.893256249974011e-07
0.04,0.00016719251600000055,-0.7856150799999998,4.018895320000021e-05,-2.3553424,9.30343480000001e-05,1.57099014,0.786,0.04,0.04,-9.831481199999995,0.0008134025149050696,0.007080411399996996,-4.447478320010612e-06,-0.0035722780507076958,1.9881825999722763e-07
0.0425,0.00016723014950000058,-0.7856004474999998,4.020315565000022e-05,-2.35535455,9.304206850000011e-05,1.5709897050000001,0.786,0.04,0.04,-9.831198899999995,0.000840175204212199,0.006873930549996807,-5.176676740011275e-06,-0.003705329971855677,8.310894997054248e-09
0.045,0.0001672677830000006,-0.7855858149999998,4.021735810000023e-05,-2.3553667000000003,9.304978900000012e-05,1.57098927,0.786,0.04,0.04,-9.830916599999995,0.0008669478935193283,0.0066674496999966195,-5.905875160011937e-06,-0.0038383818930036577,-1.821964700031187e-07
0.0475,0.00016730541650000064,-0.7855711824999998,4.0231560550000245e-05,-2.35537885,9.305750950000013e-05,1.570988835,0.786,0.04,0.04,-9.830634299999994,0.0008937205828264576,0.006460968849996432,-6.635073580012601e-06,-0.003971433814151639,-3.727038350032921e-07
0.05,0.0001673430500000016,-0.7855565499999998,4.0245763000000575e-05,-2.355391,9.306523000000021e-05,1.5709884,0.786,0.04,0.04,-9.830351999999994,0.0009204932721337866,0.006254487999996936,-7.364272000024719e-06,-0.004104485735299353,-5.63211200007652e-07
0.0525,0.00016743043250000165,-0.7855430319999998,4.0277582050000605e-05,-2.35540216,9.307702000000022e-05,1.57098798,0.786,0.04,0.04,-9.830018699999993,0.0009582368773414758,0.006086061144996783,-8.723129800025953e-06,-0.00422285867389517,-9.838561400080338e-07
0.055,0.00016751781500000173,-0.7855295139999997,4.0309401100000635e-05,-2.3554133200000003,9.308881000000023e-05,1.57098756,0.786,0.04,0.04,-9.829685399999994,0.0009959804825491652,0.00591763428999663,-1.008198760002719e-05,-0.0043412316124909886,-1.4045010800084167e-06
0.0575,0.00016760519750000182,-0.7855159959999998,4.0341220150000665e-05,-2.3554244800000004,9.310060000000024e-05,1.57098714,0.786,0.04,0.04,-9.829352099999992,0.0010337240877568545,0.0057492074349964764,-1.1440845400028427e-05,-0.004459604551086806,-1.8251460200087996e-06
0.06,0.0001676925800000019,-0.7855024779999997,4.037303920000069e-05,-2.35543564,9.311239000000026e-05,1.57098672,0.786,0.04,0.04,-9.829018799999993,0.0010714676929645438,0.005580780579996324,-1.279970320002966e-05,-0.004577977489682624,-2.2457909600091814e-06
0.0625,0.000167779962500002,-0.7854889599999997,4.040485825000072e-05,-2.3554468,9.312418000000027e-05,1.5709863,0.786,0.04,0.04,-9.828685499999992,0.0011092112981722331,0.005412353724996171,-1.4158561000030897e-05,-0.0046963504282784415,-2.6664359000095645e-06
0.065,0.00016786734500000205,-0.7854754419999997,4.043667730000075e-05,-2.3554579600000003,9.313597000000028e-05,1.57098588,0.786,0.04,0.04,-9.828352199999992,0.0011469549033799227,0.005243926869996017,-1.5517418800032137e-05,-0.004814723366874259,-3.087080840009947e-06
0.0675,0.0001679813890000041,-0.7854622534999998,4.0477933250001474e-05,-2.3554687800000003,9.315006200000046e-05,1.57098545,0.786000005,0.04,0.04,-9.828035199999993,0.001188443740830978,0.005076146604995911,-1.7106212550050313e-05,-0.004928240552547125,-3.60490721001749e-06
0.07,0.00016814875600000426,-0.7854497239999997,4.053806300000153e-05,-2.3554789200000004,9.316875800000048e-05,1.570985,0.78600002,0.04,0.04,-9.827750799999993,0.0012374230427679475,0.00490965951999576,-1.915487820005218e-05,-0.0050320462323751435,-4.317096440018139e-06
0.0725,0.00016831612300000442,-0.7854371944999997,4.059819275000158e-05,-2.35548906,9.318745400000049e-05,1.57098455,0.786000035,0.04,0.04,-9.827466399999992,0.0012864023447049168,0.004743172434995609,-2.120354385005403e-05,-0.005135851912203163,-5.029285670018783e-06
0.075,0.00016848349000000455,-0.7854246649999996,4.065832250000164e-05,-2.3554992,9.320615000000051e-05,1.5709841,0.7860000500000001,0.04,0.04,-9.827181999999992,0.0013353816466418864,0.004576685349995458,-2.3252209500055894e-05,-0.005239657592031182,-5.741474900019432e-06
0.0775,0.00016865085700000471,-0.7854121354999997,4.0718452250001695e-05,-2.3555093400000002,9.322484600000052e-05,1.57098365,0.786000065,0.04,0.04,-9.826897599999992,0.001384360948578856,0.004410198264995306,-2.530087515005776e-05,-0.0053434632718592015,-6.4536641300200804e-06
0.08,0.00016881822400000487,-0.7853996059999997,4.077858200000175e-05,-2.3555194800000003,9.324354200000055e-05,1.5709832,0.78600008,0.04,0.04,-9.826613199999992,0.0014333402505158255,0.004243711179995154,-2.7349540800059626e-05,-0.005447268951687221,-7.165853360020729e-06
0.0825,0.00016898559100000503,-0.7853870764999996,4.08387117500018e-05,-2.35552962,9.326223800000056e-05,1.57098275,0.786000095,0.04,0.04,-9.826328799999992,0.001482319552452795,0.004077224094995002,-2.939820645006149e-05,-0.005551074631515241,-7.878042590021377e-06
0.085,0.00016923038600001136,-0.7853751399999995,4.092622020000405e-05,-2.35553952,9.328757450000114e-05,1.5709823,0.78600029,0.04,0.04,-9.826018299999987,0.001536210998894995,0.003926880229994306,-3.199730250011503e-05,-0.0056449275463854665,-8.820805200042344e-06
0.08750000000000001,0.0001695138950000155,-0.7853634999999993,4.1027418000005525e-05,-2.3555493000000003,9.331623125000156e-05,1.57098185,0.786000575,0.04,0.04,-9.825694749999982,0.001592558517589475,0.0037846079749922355,-3.4871613750156856e-05,-0.0057338040787774745,-9.87885450005774e-06
0.09,0.0001697974040000196,-0.7853518599999992,4.112861580000699e-05,-2.355559080000001,9.334488800000197e-05,1.5709814,0.78600086,0.04,0.04,-9.825371199999978,0.0016489060362839547,0.003642335719990166,-3.7745925000198676e-05,-0.005822680611169482,-1.0936903800073132e-05
0.0925,0.00017008091300002373,-0.785340219999999,4.1229813600008465e-05,-2.355568860000001,9.337354475000239e-05,1.57098095,0.786001145,0.04,0.04,-9.825047649999973,0.0017052535549784348,0.0035000634649880956,-4.06202362502405e-05,-0.005911557143561491,-1.1994953100088531e-05
0.095,0.00017036442200002786,-0.7853285799999988,4.133101140000994e-05,-2.355578640000001,9.340220150000281e-05,1.5709805,0.78600143,0.04,0.04,-9.824724099999969,0.0017616010736729148,0.0033577912099860253,-4.3494547500282335e-05,-0.006000433675953499,-1.3053002400103928e-05
0.0975,0.00017064793100003199,-0.7853169399999986,4.143220920001141e-05,-2.3555884200000015,9.343085825000323e-05,1.57098005,0.786001715,0.04,0.04,-9.824400549999964,0.001817948592367395,0.003215518954983955,-4.636885875032416e-05,-0.006089310208345508,-1.4111051700119325e-05
0.1,0.00017093144000005617,-0.7853052999999987,4.1533407000019967e-05,-2.3555982000000015,9.345951500000559e-05,1.5709796,0.786002,0.04,0.04,-9.824076999999974,0.0018742961110633748,0.0030732466999820454,-4.924317000062933e-05,-0.006178186740735915,-1.5169101000170297e-05
0.10250000000000001,0.00017137248050005057,-0.7852944549999987,4.169025555001797e-05,-2.355607020000001,9.350335925000503e-05,1.570979105,0.786002285,0.04,0.03999999925,-9.823863699999976,0.0019424233643881624,0.002932239064983841,-5.418565050056641e-05,-0.006254485389226443,-1.650653850015327e-05
0.105,0.00017181352100004494,-0.7852836099999989,4.1847104100015975e-05,-2.355615840000001,9.354720350000448e-05,1.57097861,0.78600257,0.04,0.0399999985,-9.823650399999979,0.0020105506177129496,0.002791231429985637,-5.912813100050345e-05,-0.006330784037716972,-1.7843976000136235e-05
0.1075,0.00017225456150003933,-0.785272764999999,4.200395265001398e-05,-2.355624660000001,9.359104775000391e-05,1.570978115,0.786002855,0.04,0.03999999775,-9.823437099999982,0.0020786778710377373,0.002650223794987432,-6.407061150044052e-05,-0.0064070826862075,-1.9181413500119207e-05
0.11,0.0001726956020000337,-0.7852619199999992,4.2160801200011984e-05,-2.3556334800000007,9.363489200000335e-05,1.57097762,0.78600314,0.04,0.039999997,-9.823223799999983,0.002146805124362525,0.0025092161599892275,-6.90130920003776e-05,-0.006483381334698029,-2.0518851000102176e-05
0.1125,0.0001731366425000281,-0.7852510749999992,4.231764975000999e-05,-2.3556423000000004,9.36787362500028e-05,1.570977125,0.786003425,0.04,0.03999999625,-9.823010499999986,0.002214932377687312,0.0023682085249910226,-7.395557250031466e-05,-0.006559679983188558,-2.1856288500085152e-05
0.115,0.0001735776830000225,-0.7852402299999994,4.247449830000799e-05,-2.3556511200000005,9.372258050000224e-05,1.57097663,0.78600371,0.04,0.0399999955,-9.822797199999988,0.0022830596310121,0.002227200889992818,-7.889805300025173e-05,-0.0066359786316790865,-2.319372600006812e-05
0.11750000000000001,0.00017408663150002756,-0.7852296124999996,4.2655335150009786e-05,-2.3556598650000002,9.377164550000255e-05,1.5709759650000001,0.78600409,0.04,0.03999999525,-9.822545049999984,0.002351395110602609,0.0020930737249948545,-8.410795050024558e-05,-0.006707029719839554,-2.4789411050090293e-05
0.12,0.00017473139600002814,-0.7852194499999995,4.288414860000999e-05,-2.3556684600000004,9.383115200000261e-05,1.57097496,0.78600466,0.04,0.039999996,-9.822215199999984,0.002420147042724481,0.0019727074999947455,-8.985268200025078e-05,-0.0067675856873419035,-2.6901591200092203e-05
0.1225,0.00017537616050002875,-0.7852092874999995,4.31129620500102e-05,-2.355677055,9.389065850000265e-05,1.570973955,0.78600523,0.04,0.03999999675,-9.821885349999985,0.0024888989748463536,0.001852341274994636,-9.559741350025601e-05,-0.006828141654844254,-2.9013771350094127e-05
0.125,0.00017602092500002933,-0.7851991249999996,4.334177550001041e-05,-2.3556856500000003,9.395016500000271e-05,1.57097295,0.7860058,0.04,0.0399999975,-9.821555499999985,0.0025576509069682265,0.0017319750499945265,-0.00010134214500026123,-0.006888697622346604,-3.112595150009605e-05
0.1275,0.0001766656895000299,-0.7851889624999996,4.357058895001062e-05,-2.355694245,9.400967150000277e-05,1.570971945,0.78600637,0.04,0.03999999825,-9.821225649999985,0.002626402839090099,0.0016116088249944168,-0.00010708687650026646,-0.006949253589848954,-3.323813165009797e-05
0.13,0.0001773104540000305,-0.7851787999999995,4.3799402400010826e-05,-2.35570284,9.406917800000282e-05,1.57097094,0.78600694,0.04,0.039999999,-9.820895799999985,0.0026951547712119714,0.001491242599994307,-0.00011283160800027169,-0.007009809557351304,-3.535031180009989e-05
0.1325,0.00017795521850003107,-0.7851686374999995,4.4028215850011035e-05,-2.3557114350000004,9.412868450000287e-05,1.570969935,0.78600751,0.04,0.03999999975,-9.820565949999985,0.0027639067033338443,0.0013708763749941976,-0.00011857633950027693,-0.007070365524853654,-3.746249195010182e-05
0.135,0.00017876931300004413,-0.7851588309999996,4.431680200001564e-05,-2.35571943,9.420347450000405e-05,1.5709689199999999,0.78600812,0.04,0.04,-9.82031559999999,0.002842759154741071,0.0012544932959943815,-0.00012568645700038276,-0.007123538106682301,-3.967772680011133e-05
0.1375,0.00017966807250004496,-0.7851492024999995,4.4635274500015934e-05,-2.355727125,9.428590625000413e-05,1.5709678999999999,0.78600875,0.04,0.04,-9.82010499999999,0.002926661865789872,0.0011401017899942774,-0.00013347926750038985,-0.0071730189956749,-4.1944489000113395e-05
0.14,0.00018056683200004577,-0.7851395739999996,4.495374700001622e-05,-2.3557348200000003,9.436833800000421e-05,1.5709668799999998,0.78600938,0.04,0.04,-9.819894399999988,0.0030105645768386735,0.0010257102839941732,-0.00014127207800039695,-0.0072224998846675,-4.421125120011546e-05
0.14250000000000002,0.0001814655915000466,-0.7851299454999995,4.5272219500016514e-05,-2.355742515,9.445076975000428e-05,1.5709658599999998,0.78601001,0.04,0.04,-9.81968379999999,0.0030944672878874748,0.0009113187779940691,-0.00014906488850040405,-0.0072719807736601,-4.647801340011752e-05
0.145,0.0001823643510000474,-0.7851203169999995,4.55906920000168e-05,-2.35575021,9.453320150000436e-05,1.57096484,0.78601064,0.04,0.04,-9.819473199999988,0.003178369998936275,0.0007969272719939663,-0.00015685769900041104,-0.0073214616626527,-4.874477560011956e-05
0.1475,0.00018326311050004824,-0.7851106884999995,4.590916450001709e-05,-2.3557579050000004,9.461563325000442e-05,1.57096382,0.78601127,0.04,0.04,-9.819262599999988,0.003262272709985077,0.0006825357659938622,-0.00016465050950041816,-0.0073709425516453,-5.1011537800121626e-05
0.15,0.00018416187000006587,-0.7851010599999995,4.622763700002331e-05,-2.3557656000000002,9.469806500000597e-05,1.5709628,0.7860119,0.04,0.04,-9.819051999999981,0.003346175421033678,0.0005681442599936781,-0.00017244332000047522,-0.0074204234406370015,-5.327830000015739e-05
0.1525,0.00018536869050006695,-0.7850919009999995,4.66548389500237e-05,-2.3557731000000004,9.480732425000607e-05,1.5709616149999999,0.786012755,0.04,0.04,-9.818724249999981,0.0034264036454304606,0.0004522903274935727,-0.00018115175750048313,-0.007453437452206346,-5.616249250016001e-05
0.155,0.00018657551100006805,-0.7850827419999995,4.708204090002409e-05,-2.3557806,9.491658350000616e-05,1.57096043,0.78601361,0.04,0.04,-9.81839649999998,0.0035066318698272437,0.00033643639499346715,-0.00018986019500049107,-0.007486451463775691,-5.9046685000162634e-05
0.1575,0.00018778233150006915,-0.7850735829999995,4.7509242850024475e-05,-2.3557881000000003,9.502584275000626e-05,1.5709592449999998,0.786014465,0.04,0.04,-9.81806874999998,0.003586860094224027,0.00022058246249336173,-0.00019856863250049898,-0.007519465475345037,-6.193087750016526e-05
0.16,0.00018898915200007025,-0.7850644239999994,4.7936444800024866e-05,-2.3557956000000004,9.513510200000636e-05,1.57095806,0.7860153200000001,0.04,0.04,-9.81774099999998,0.00366708831862081,0.00010472852999325626,-0.00020727707000050692,-0.007552479486914382,-6.481507000016789e-05
0.1625,0.00019019597250007135,-0.7850552649999994,4.836364675002526e-05,-2.3558031000000006,9.524436125000646e-05,1.570956875,0.786016175,0.04,0.04,-9.81741324999998,0.0037473165430175932,-1.1125402506849207e-05,-0.00021598550750051484,-0.007585493498483727,-6.769926250017052e-05
0.165,0.00019140279300007245,-0.7850461059999995,4.879084870002564e-05,-2.3558106000000008,9.535362050000655e-05,1.57095569,0.78601703,0.04,0.04,-9.81708549999998,0.0038275447674143764,-0.00012697933500695462,-0.00022469394500052275,-0.007618507510053072,-7.058345500017314e-05
0.1675,0.00019273139950009581,-0.7850370649999995,4.926101900003389e-05,-2.3558180450000004,9.547316650000854e-05,1.57095437,0.78601798,0.03999999975,0.04,-9.816790699999986,0.003911774000158566,-0.00024187982050688584,-0.00023396400400063337,-0.007647020672449124,-7.368863800021616e-05
0.17,0.00019430357800009725,-0.7850282599999994,4.9817126000034395e-05,-2.3558253800000006,9.561328600000866e-05,1.57095278,0.7860191200000001,0.039999999,0.04,-9.816561799999986,0.004004005249595385,-0.00035487341200698865,-0.00024435730600064285,-0.007666532136501047,-7.72358020002194e-05
0.17250000000000001,0.00019587575650009868,-0.7850194549999994,5.03732330000349e-05,-2.3558327150000005,9.575340550000879e-05,1.57095119,0.78602026,0.03999999825,0.04,-9.816332899999987,0.004096236499032203,-0.0004678670035070915,-0.0002547506080006523,-0.00768604360055297,-8.078296600022263e-05
0.17500000000000002,0.0001974479350001001,-0.7850106499999994,5.092934000003541e-05,-2.3558400500000007,9.589352500000892e-05,1.5709496,0.7860214000000001,0.0399999975,0.04,-9.816103999999985,0.004188467748469022,-0.0005808605950071944,-0.00026514391000066176,-0.007705555064604893,-8.433013000022585e-05
0.1775,0.00019902011350010152,-0.7850018449999994,5.148544700003591e-05,-2.3558473850000006,9.603364450000905e-05,1.57094801,0.78602254,0.03999999675,0.04,-9.815875099999985,0.004280698997905841,-0.000693854186507296,-0.0002755372120006711,-0.007725066528656815,-8.787729400022904e-05
0.18,0.00020059229200010295,-0.7849930399999994,5.2041554000036416e-05,-2.3558547200000004,9.617376400000917e-05,1.57094642,0.78602368,0.039999996,0.04,-9.815646199999986,0.004372930247342659,-0.0008068477780073989,-0.00028593051400068055,-0.007744577992708738,-9.142445800023227e-05
0.1825,0.00020216447050010438,-0.7849842349999994,5.2597661000036923e-05,-2.3558620550000007,9.631388350000932e-05,1.57094483,0.7860248200000001,0.03999999525,0.04,-9.815417299999984,0.004465161496779478,-0.0009198413695075018,-0.00029632381600069,-0.007764089456760661,-9.49716220002355e-05
0.185,0.00020402033900013443,-0.7849756099999994,5.325383870004753e-05,-2.3558689500000005,9.647873140001193e-05,1.5709428699999999,0.7860262100000001,0.039999994500000004,0.04,-9.815180599999984,0.004555356642237332,-0.0010273753400070534,-0.0003078679350008156,-0.007775192614645205,-9.890160900027738e-05
0.1875,0.00020601805250013627,-0.7849670749999994,5.3960051750048174e-05,-2.3558756250000004,9.665594350001209e-05,1.5709407249999998,0.7860277250000001,0.039999993750000004,0.04,-9.814939999999984,0.004644533735706008,-0.0011321795000071488,-0.0003199874625008267,-0.007782091619447321,-0.00010302300750028114
0.19,0.00020801576600013808,-0.7849585399999994,5.466626480004882e-05,-2.3558823000000007,9.683315560001226e-05,1.57093858,0.7860292400000001,0.039999993000000005,0.04,-9.814699399999983,0.004733710829174684,-0.0012369836600072443,-0.0003321069900008377,-0.007788990624249438,-0.00010714440600028488
0.1925,0.0002100134795001399,-0.7849500049999993,5.537247785004946e-05,-2.3558889750000005,9.701036770001241e-05,1.570936435,0.7860307550000001,0.03999999225,0.04,-9.814458799999983,0.00482288792264336,-0.0013417878200073397,-0.00034422651750084875,-0.007795889629051553,-0.00011126580450028864
0.195,0.0002120111930001417,-0.7849414699999994,5.60786909000501e-05,-2.3558956500000003,9.718757980001258e-05,1.5709342899999998,0.7860322700000001,0.0399999915,0.04,-9.814218199999983,0.004912065016112036,-0.0014465919800074351,-0.00035634604500085976,-0.00780278863385367,-0.0001153872030002924
0.1975,0.00021400890650014355,-0.7849329349999994,5.678490395005075e-05,-2.3559023250000006,9.736479190001274e-05,1.5709321449999998,0.7860337850000001,0.03999999075,0.04,-9.813977599999982,0.005001242109580712,-0.0015513961400075306,-0.0003684655725008708,-0.007809687638655786,-0.00011950860150029615
0.2,0.0002160066200001809,-0.7849243999999993,5.7491117000063916e-05,-2.3559090000000005,9.7542004000016e-05,1.5709299999999997,0.7860353000000001,0.03999999,0.04,-9.813736999999978,0.005090419203050316,-0.0016562003000078053,-0.0003805851000010323,-0.007816586643456833,-0.00012363000000033394
0.2025,0.00021849254450018315,-0.7849159939999993,5.836950770006472e-05,-2.3559155250000003,9.776184040001621e-05,1.5709276449999998,0.7860372650000002,0.0399999897,0.03999999925,-9.813440899999978,0.005192332109443823,-0.001763470910007903,-0.00039477255000104524,-0.007808785606175071,-0.00012821912700033812
0.20500000000000002,0.0002209784690001854,-0.7849075879999994,5.924789840006551e-05,-2.3559220500000007,9.79816768000164e-05,1.57092529,0.7860392300000001,0.0399999894,0.0399999985,-9.813144799999977,0.005294245015837331,-0.0018707415200080006,-0.00040896000000105817,-0.007800984568893309,-0.0001328082540003423
0.20750000000000002,0.00022346439350018766,-0.7848991819999994,6.0126289100066315e-05,-2.3559285750000005,9.82015132000166e-05,1.5709229349999998,0.7860411950000001,0.0399999891,0.03999999775,-9.812848699999977,0.005396157922230839,-0.0019780121300080984,-0.0004231474500010711,-0.007793183531611546,-0.00013739738100034647
0.21,0.00022595031800018992,-0.7848907759999993,6.10046798000671e-05,-2.3559351000000004,9.84213496000168e-05,1.57092058,0.7860431600000002,0.0399999888,0.039999997,-9.812552599999977,0.005498070828624345,-0.002085282740008195,-0.00043733490000108386,-0.007785382494329784,-0.00014198650800035059
0.2125,0.00022843624250019217,-0.7848823699999994,6.18830705000679e-05,-2.3559416250000003,9.864118600001699e-05,1.5709182249999998,0.7860451250000001,0.0399999885,0.03999999625,-9.812256499999977,0.005599983735017853,-0.0021925533500082926,-0.0004515223500010968,-0.007777581457048021,-0.00014657563500035476
0.215,0.00023092216700019443,-0.7848739639999994,6.27614612000687e-05,-2.3559481500000006,9.886102240001719e-05,1.5709158699999999,0.7860470900000002,0.0399999882,0.0399999955,-9.811960399999975,0.005701896641411361,-0.0022998239600083904,-0.0004657098000011097,-0.0077697804197662595,-0.00015116476200035893
0.2175,0.00023359243950024045,-0.7848655794999994,6.370485495008493e-05,-2.3559546750000004,9.909694500002122e-05,1.570913345,0.7860491650000002,0.0399999876,0.03999999465,-9.81167814999998,0.005800811527304212,-0.0024101311750092088,-0.0004806382900012985,-0.007757119089363199,-0.00015595977750041198
0.22,0.00023663140800024324,-0.7848572379999994,6.47782548000859e-05,-2.3559612000000003,9.936504000002145e-05,1.5709104799999998,0.7860514600000001,0.0399999864,0.039999993600000006,-9.81142359999998,0.0058937303721978765,-0.0025265116000093148,-0.0004970488600013135,-0.007734737172720989,-0.00016116657000041673
0.2225,0.000239670376500246,-0.7848488964999993,6.585165465008688e-05,-2.3559677250000006,9.96331350000217e-05,1.5709076149999999,0.7860537550000002,0.0399999852,0.03999999255,-9.811169049999979,0.005986649217091542,-0.0026428920250094207,-0.0005134594300013283,-0.007712355256078778,-0.00016637336250042146
0.225,0.00024270934500024877,-0.7848405549999993,6.692505450008786e-05,-2.3559742500000005,9.990123000002195e-05,1.5709047499999997,0.7860560500000002,0.039999983999999995,0.0399999915,-9.81091449999998,0.0060795680619852065,-0.0027592724500095267,-0.0005298700000013433,-0.0076899733394365675,-0.0001715801550004262
0.2275,0.00024574831350025153,-0.7848322134999993,6.799845435008884e-05,-2.355980775000001,0.0001001693250000222,1.5709018849999998,0.7860583450000002,0.0399999828,0.03999999045,-9.810659949999978,0.006172486906878871,-0.0028756528750096327,-0.0005462805700013583,-0.007667591422794357,-0.00017678694750043096
0.23,0.0002487872820002543,-0.7848238719999993,6.907185420008982e-05,-2.3559873000000007,0.00010043742000002243,1.57089902,0.7860606400000002,0.0399999816,0.0399999894,-9.81040539999998,0.006265405751772536,-0.0029920333000097383,-0.0005626911400013732,-0.007645209506152147,-0.0001819937400004357
0.2325,0.00025182625050025706,-0.7848155304999992,7.014525405009079e-05,-2.3559938250000005,0.00010070551500002268,1.5708961549999998,0.7860629350000002,0.039999980399999996,0.03999998835,-9.81015084999998,0.0063583245966662,-0.0031084137250098447,-0.0005791017100013881,-0.007622827589509937,-0.00018720053250044044
0.23500000000000001,0.0002552783620003128,-0.7848071549999992,7.136430620011045e-05,-2.3560003300000005,0.00010100965300002755,1.5708928999999998,0.7860655800000003,0.0399999797,0.0399999876,-9.809915799999981,0.00646126884968011,-0.0032260036800101054,-0.0005965061250015305,-0.007591885188591409,-0.00019283289400049975
0.23750000000000002,0.00025893704500031613,-0.7847987624999992,7.265618450011163e-05,-2.3560068250000006,0.00010133181250002784,1.5708894499999997,0.7860684000000002,0.03999997925,0.039999987,-9.80969049999998,0.006569225806752229,-0.003344198400010213,-0.0006144074625015468,-0.007556662545536357,-0.00019867804000050506
0.24,0.00026259572800031944,-0.7847903699999993,7.39480628001128e-05,-2.3560133200000006,0.00010165397200002814,1.5708859999999998,0.7860712200000003,0.039999978799999995,0.0399999864,-9.80946519999998,0.006677182763824346,-0.003462393120010319,-0.0006323088000015629,-0.007521439902481305,-0.00020452318600051032
0.2425,0.00026625441100032275,-0.7847819774999992,7.523994110011396e-05,-2.3560198150000007,0.00010197613150002842,1.5708825499999997,0.7860740400000003,0.03999997835,0.0399999858,-9.80923989999998,0.006785139720896464,-0.0035805878400104268,-0.0006502101375015792,-0.007486217259426253,-0.00021036833200051565
0.245,0.0002699130940003261,-0.7847735849999993,7.653181940011515e-05,-2.3560263100000007,0.00010229829100002872,1.5708790999999998,0.7860768600000003,0.0399999779,0.039999985200000004,-9.80901459999998,0.006893096677968582,-0.0036987825600105343,-0.0006681114750015954,-0.007450994616371201,-0.00021621347800052096
0.2475,0.00027357177700032943,-0.7847651924999992,7.782369770011633e-05,-2.356032805000001,0.00010262045050002901,1.5708756499999996,0.7860796800000003,0.03999997745,0.0399999846,-9.80878929999998,0.007001053635040701,-0.003816977280010642,-0.0006860128125016118,-0.007415771973316149,-0.0002220586240005263
0.25,0.0002772304600003953,-0.7847567999999993,7.911557600013956e-05,-2.3560393000000004,0.00010294261000003476,1.5708721999999995,0.7860825000000004,0.039999977,0.039999984,-9.80856399999998,0.0071090105921115055,-0.003935172000011259,-0.0007039141500018374,-0.007380549330259907,-0.00022790377000060275
0.2525,0.00028157708350034,-0.7847482589999993,8.064996710012002e-05,-2.3560458100000004,0.0001033247314000299,1.5708681199999996,0.7860858150000003,0.0399999764,0.039999984,-9.808330599999982,0.007202526018962115,-0.004058964990009683,-0.0007241160465015802,-0.0073322479845917875,-0.00023453133700051837
0.255,0.00028592370700028464,-0.7847397179999994,8.218435820010048e-05,-2.3560523200000003,0.00010370685280002503,1.5708640399999998,0.7860891300000002,0.0399999758,0.039999984,-9.808097199999985,0.007296041445812724,-0.004182757980008106,-0.000744317943001323,-0.007283946638923667,-0.000241158904000434
0.2575,0.0002902703305002293,-0.7847311769999996,8.371874930008094e-05,-2.3560588300000003,0.00010408897420002016,1.5708599599999997,0.7860924450000002,0.0399999752,0.039999984,-9.807863799999987,0.007389556872663333,-0.00430655097000653,-0.0007645198395010657,-0.007235645293255547,-0.0002477864710003496
0.26,0.000294616954000174,-0.7847226359999997,8.52531404000614e-05,-2.3560653400000002,0.0001044710956000153,1.5708558799999999,0.7860957600000001,0.0399999746,0.039999984,-9.80763039999999,0.007483072299513943,-0.004430343960004954,-0.0007847217360008085,-0.0071873439475874275,-0.0002544140380002652
0.2625,0.00029896357750011865,-0.7847140949999998,8.678753150004188e-05,-2.35607185,0.00010485321700001043,1.5708517999999998,0.7860990750000001,0.039999974,0.039999984,-9.807396999999993,0.007576587726364552,-0.004554136950003378,-0.0008049236325005513,-0.007139042601919307,-0.00026104160500018086
0.265,0.00030331020100006327,-0.7847055539999999,8.832192260002234e-05,-2.35607836,0.00010523533840000557,1.57084772,0.78610239,0.0399999734,0.039999984,-9.807163599999996,0.007670103153215161,-0.004677929940001802,-0.0008251255290002941,-0.007090741256251187,-0.00026766917200009646
0.2675,0.00030790931250005576,-0.7846969304999999,8.994531780001966e-05,-2.356084915,0.0001056395312000049,1.570843385,0.7861058975,0.03999997285,0.0399999838,-9.806928649999998,0.007767170411535682,-0.004805895720001488,-0.0008459471370002409,-0.007038003997876522,-0.0002744777455000783
0.27,0.00031301340000013003,-0.7846881419999998,9.174672120004588e-05,-2.3560915600000003,0.00010608786680001142,1.57083854,0.7861097900000001,0.0399999724,0.0399999832,-9.806690599999994,0.007871341332795833,-0.004942207080003472,-0.000868008168000562,-0.0069763949140890106,-0.0002816483320001826
0.2725,0.0003181174875002043,-0.7846793534999996,9.35481246000721e-05,-2.3560982050000003,0.00010653620240001795,1.570833695,0.7861136825000001,0.039999971950000004,0.0399999826,-9.80645254999999,0.007975512254055983,-0.005078518440005455,-0.000890069199000883,-0.006914785830301499,-0.000288818918500287
0.275,0.00032322157500027857,-0.7846705649999995,9.534952800009831e-05,-2.3561048500000004,0.00010698453800002447,1.5708288499999998,0.7861175750000002,0.0399999715,0.039999981999999996,-9.806214499999987,0.008079683175316136,-0.0052148298000074395,-0.000912130230001204,-0.006853176746513988,-0.00029598950500039136
0.2775,0.00032832566250035283,-0.7846617764999994,9.715093140012452e-05,-2.3561114950000004,0.00010743287360003099,1.5708240049999997,0.7861214675000002,0.03999997105,0.0399999814,-9.805976449999983,0.008183854096576286,-0.005351141160009423,-0.0009341912610015251,-0.006791567662726476,-0.0003031600915004957
0.28,0.00033342975000042716,-0.7846529879999993,9.895233480015075e-05,-2.3561181400000004,0.00010788120920003752,1.5708191599999997,0.7861253600000003,0.039999970600000004,0.0399999808,-9.805738399999981,0.008288025017836436,-0.005487452520011407,-0.0009562522920018461,-0.006729958578938964,-0.00031033067800060004
0.28250000000000003,0.0003385338375005014,-0.7846441994999991,0.00010075373820017696,-2.3561247850000004,0.00010832954480004404,1.5708143149999996,0.7861292525000003,0.03999997015,0.0399999802,-9.805500349999978,0.008392195939096589,-0.005623763880013391,-0.000978313323002167,-0.0066683494951514525,-0.0003175012645007044
0.28500000000000003,0.0003441899640006151,-0.784635192999999,0.00010274971240021705,-2.3561317200000005,0.00010882605260005398,1.5708089499999995,0.7861335450000004,0.039999969600000004,0.0399999797,-9.805271099999977,0.008502220362436542,-0.005768106830015384,-0.0010017178300024965,-0.006598572852082251,-0.00032512843600081455
0.28750000000000003,0.00035012211000062056,-0.784626077499999,0.00010484297200021896,-2.3561388000000005,0.00010934664650005445,1.5708033249999995,0.7861380375000004,0.039999969,0.03999997925,-9.805046249999977,0.00861517153681504,-0.005916465575015519,-0.0010257940750025185,-0.006524712429374099,-0.0003329839000008217
0.29,0.0003560542560006258,-0.784616961999999,0.00010693623160022082,-2.3561458800000006,0.00010986724040005492,1.5707976999999995,0.7861425300000005,0.0399999684,0.039999978799999995,-9.804821399999977,0.008728122711193536,-0.006064824320015651,-0.00104987032000254,-0.006450852006665948,-0.0003408393640008287
0.2925,0.0003619864020006312,-0.784607846499999,0.00010902949120022272,-2.3561529600000006,0.00011038783430005539,1.5707920749999993,0.7861470225000005,0.0399999678,0.03999997835,-9.804596549999976,0.008841073885572034,-0.006213183065015786,-0.0010739465650025618,-0.006376991583957796,-0.00034869482800083584
0.295,0.00036791854800063663,-0.784598730999999,0.00011112275080022463,-2.3561600400000007,0.00011090842820005587,1.5707864499999993,0.7861515150000005,0.0399999672,0.0399999779,-9.804371699999976,0.008954025059950532,-0.006361541810015921,-0.0010980228100025838,-0.006303131161249644,-0.000356550292000843
0.2975,0.000373850694000642,-0.7845896154999991,0.00011321601040022653,-2.3561671200000007,0.00011142902210005634,1.5707808249999993,0.7861560075000005,0.0399999666,0.03999997745,-9.804146849999976,0.00906697623432903,-0.0065099005550160564,-0.0011220990550026057,-0.006229270738541491,-0.0003644057560008502
0.3,0.00037978284000074556,-0.784580499999999,0.00011530927000026304,-2.3561742000000008,0.00011194961600006538,1.5707751999999993,0.7861605000000006,0.039999966,0.039999977,-9.803921999999979,0.009179927408705296,-0.006658259300017629,-0.001146175300002845,-0.0061554103158320645,-0.0003722612200009476
0.3025,0.0003866144745007518,-0.784571019999999,0.00011771955400026523,-2.356181640000001,0.00011254864700006592,1.5707688249999991,0.7861657200000006,0.0399999651,0.039999977,-9.80373419999998,0.009272441407675766,-0.006819791360017776,-0.0011722434250028687,-0.006069873482910772,-0.0003809438170009555
0.305,0.000393446109000758,-0.784561539999999,0.00012012983800026743,-2.356189080000001,0.00011314767800006647,1.5707624499999993,0.7861709400000007,0.0399999642,0.039999977,-9.803546399999979,0.009364955406646235,-0.0069813234200179234,-0.0011983115500028925,-0.005984336649989479,-0.0003896264140009634
0.3075,0.00040027774350076425,-0.7845520599999989,0.00012254012200026962,-2.3561965200000006,0.00011374670900006701,1.5707560749999991,0.7861761600000007,0.0399999633,0.039999977,-9.80335859999998,0.009457469405616705,-0.0071428554800180705,-0.0012243796750029162,-0.005898799817068186,-0.0003983090110009713
0.31,0.00040710937800077045,-0.7845425799999989,0.00012495040600027181,-2.3562039600000007,0.00011434574000006756,1.5707496999999992,0.7861813800000006,0.0399999624,0.039999977,-9.803170799999979,0.009549983404587173,-0.0073043875400182175,-0.00125044780000294,-0.005813262984146893,-0.0004069916080009792
0.3125,0.0004139410125007767,-0.7845330999999989,0.000127360690000274,-2.3562114000000007,0.0001149447710000681,1.5707433249999991,0.7861866000000006,0.0399999615,0.039999977,-9.80298299999998,0.009642497403557642,-0.0074659196000183645,-0.0012765159250029637,-0.0057277261512256004,-0.0004156742050009871
0.315,0.0004207726470007829,-0.7845236199999989,0.0001297709740002762,-2.356218840000001,0.00011554380200006864,1.5707369499999992,0.7861918200000007,0.0399999606,0.039999977,-9.802795199999979,0.009735011402528112,-0.007627451660018512,-0.0013025840500029875,-0.005642189318304307,-0.000424356802000995
0.3175,0.00042792812050090136,-0.7845139649999988,0.00013229538850031795,-2.356226330000001,0.000116171133700079,1.570730254999999,0.7861972720000008,0.03999995935,0.03999997615,-9.802598549999976,0.0098351119086279,-0.007795953665021073,-0.0013293858750032654,-0.005552471731777991,-0.00043323348500107017
0.32,0.00043573127200090847,-0.7845039599999988,0.00013504806400032048,-2.356233920000001,0.00011685506680007962,1.5707229199999992,0.7862031880000008,0.0399999574,0.0399999736,-9.802384199999976,0.00995038542897846,-0.00797839556002124,-0.0013576551000032912,-0.005454392638045962,-0.0004424983400010786
0.3225,0.00044353442350091553,-0.7844939549999989,0.00013780073950032297,-2.356241510000001,0.00011753899990008024,1.5707155849999992,0.7862091040000008,0.03999995545,0.03999997105,-9.802169849999975,0.01006565894932902,-0.008160837455021407,-0.001385924325003317,-0.005356313544313932,-0.00045176319500108705
0.325,0.00045133757500092264,-0.7844839499999988,0.00014055341500032547,-2.356249100000001,0.00011822293300008086,1.5707082499999991,0.7862150200000008,0.0399999535,0.0399999685,-9.801955499999975,0.01018093246967958,-0.008343279350021573,-0.0014141935500033426,-0.005258234450581903,-0.0004610280500010955
0.3275,0.00045914072650092975,-0.7844739449999988,0.000143306090500328,-2.356256690000001,0.0001189068661000815,1.570700914999999,0.7862209360000008,0.03999995155,0.03999996595,-9.801741149999975,0.010296205990030139,-0.008525721245021739,-0.0014424627750033684,-0.005160155356849874,-0.0004702929050011039
0.33,0.00046694387800093687,-0.7844639399999987,0.00014605876600033048,-2.356264280000001,0.00011959079920008212,1.5706935799999993,0.7862268520000008,0.0399999496,0.0399999634,-9.801526799999975,0.010411479510380699,-0.008708163140021903,-0.001470732000003394,-0.005062076263117845,-0.0004795577600011123
0.3325,0.000474747029500944,-0.7844539349999988,0.000148811441500333,-2.356271870000001,0.00012027473230008274,1.5706862449999992,0.7862327680000007,0.03999994765,0.03999996085,-9.801312449999973,0.01052675303073126,-0.00889060503502207,-0.0014990012250034198,-0.004963997169385816,-0.0004888226150011208
0.335,0.0004832462120010783,-0.7844435499999987,0.00015180940200038034,-2.356279520000001,0.00012101937700009446,1.570678319999999,0.7862392220000008,0.0399999459,0.0399999594,-9.801092699999971,0.010624782927345146,-0.009084248100024284,-0.0015285938000036874,-0.00485746166667474,-0.000498655195001233
0.3375,0.0004920934100010863,-0.7844329749999988,0.00015493000500038317,-2.356287200000001,0.00012179437750009517,1.570670099999999,0.7862459450000009,0.03999994425,0.0399999585,-9.800870249999972,0.010714191012095402,-0.009283491750024466,-0.001558848050003715,-0.00474669795947645,-0.0005087716375012422
0.34,0.0005009406080010944,-0.7844223999999987,0.00015805060800038603,-2.356294880000001,0.00012256937800009588,1.570661879999999,0.7862526680000008,0.0399999426,0.0399999576,-9.800647799999972,0.01080359909684566,-0.009482735400024646,-0.0015891023000037426,-0.004635934252278159,-0.0005188880800012514
0.3425,0.0005097878060011025,-0.7844118249999987,0.00016117121100038887,-2.356302560000001,0.00012334437850009656,1.570653659999999,0.7862593910000009,0.03999994095,0.0399999567,-9.800425349999973,0.010893007181595917,-0.009681979050024828,-0.0016193565500037701,-0.004525170545079868,-0.0005290045225012606
0.34500000000000003,0.0005186350040011106,-0.7844012499999987,0.0001642918140003917,-2.356310240000001,0.00012411937900009727,1.570645439999999,0.7862661140000009,0.0399999393,0.0399999558,-9.800202899999972,0.010982415266346173,-0.009881222700025009,-0.0016496108000037977,-0.0044144068378815775,-0.0005391209650012699
0.34750000000000003,0.0005274822020011185,-0.7843906749999987,0.00016741241700039456,-2.356317920000001,0.00012489437950009797,1.570637219999999,0.7862728370000008,0.03999993765,0.039999954899999995,-9.799980449999973,0.01107182335109643,-0.01008046635002519,-0.0016798650500038253,-0.0043036431306832865,-0.0005492374075012791
0.35000000000000003,0.0005363294000012689,-0.7843800999999986,0.0001705330200004475,-2.356325600000001,0.00012566938000011112,1.570628999999999,0.786279560000001,0.039999936,0.039999954,-9.799757999999967,0.01116123143584986,-0.010279710000027704,-0.001710119300004129,-0.004192879423483209,-0.0005593538500013654
0.3525,0.0005462934410012777,-0.7843688499999986,0.00017404720200045064,-2.356334180000001,0.0001265419705001119,1.570619759999999,0.786287126000001,0.0399999351,0.03999995295,-9.799493099999967,0.011275562969982326,-0.010497281550027899,-0.0017425425050041578,-0.004068080848066877,-0.0005700756325013749
0.355,0.0005562574820012868,-0.7843575999999985,0.00017756138400045382,-2.356342760000001,0.0001274145610001127,1.570610519999999,0.786294692000001,0.039999934200000004,0.0399999519,-9.799228199999966,0.011389894504114794,-0.010714853100028097,-0.0017749657100041873,-0.003943282272650544,-0.0005807974150013847
0.3575,0.0005662215230012959,-0.7843463499999985,0.00018107556600045703,-2.356351340000001,0.00012828715150011347,1.5706012799999989,0.786302258000001,0.0399999333,0.03999995085,-9.798963299999967,0.011504226038247264,-0.010932424650028295,-0.0018073889150042168,-0.00381848369723421,-0.0005915191975013945
0.36,0.000576185564001305,-0.7843350999999985,0.00018458974800046021,-2.356359920000001,0.00012915974200011427,1.5705920399999989,0.7863098240000009,0.0399999324,0.0399999498,-9.798698399999966,0.011618557572379734,-0.011149996200028493,-0.0018398121200042463,-0.0036936851218178765,-0.0006022409800014042
0.3625,0.000586149605001314,-0.7843238499999985,0.00018810393000046342,-2.356368500000001,0.00013003233250011507,1.5705827999999988,0.786317390000001,0.0399999315,0.03999994875,-9.798433499999966,0.011732889106512202,-0.01136756775002869,-0.0018722353250042758,-0.0035688865464015428,-0.0006129627625014139
0.365,0.0005961136460013231,-0.7843125999999985,0.00019161811200046663,-2.356377080000001,0.00013090492300011586,1.5705735599999988,0.786324956000001,0.039999930600000004,0.0399999477,-9.798168599999965,0.011847220640644671,-0.011585139300028888,-0.0019046585300043052,-0.003444087970985209,-0.0006236845450014237
0.3675,0.0006064742550014912,-0.7843011034999984,0.00019527204400052588,-2.3563857350000013,0.00013181211700013054,1.5705639399999987,0.7863328215000011,0.03999992975,0.039999947,-9.797947199999983,0.011952107772242562,-0.011811336900032547,-0.001937765825004609,-0.0033159467973565195,-0.0006346981900015506
0.37,0.0006176280000015014,-0.7842891139999983,0.00019920547600052945,-2.356394540000001,0.00013278851800013143,1.5705535599999987,0.7863412860000011,0.039999929000000004,0.039999947,-9.797812799999983,0.012038106098782635,-0.01205478660003277,-0.0019722413000046405,-0.003181120427307132,-0.000646295560001561
0.3725,0.0006287817450015115,-0.7842771244999984,0.00020313890800053303,-2.3564033450000013,0.00013376491900013232,1.5705431799999987,0.7863497505000011,0.039999928250000004,0.039999947,-9.797678399999983,0.012124104425322708,-0.01229823630003299,-0.002006716775004672,-0.0030462940572577443,-0.0006578929300015716
0.375,0.0006399354900015217,-0.7842651349999984,0.0002070723400005366,-2.356412150000001,0.0001347413200001332,1.5705327999999987,0.7863582150000011,0.0399999275,0.039999947,-9.797543999999982,0.012210102751862783,-0.012541686000033213,-0.0020411922500047034,-0.0029114676872083562,-0.0006694903000015822
0.3775,0.0006510892350015318,-0.7842531454999984,0.00021100577200054019,-2.3564209550000013,0.0001357177210001341,1.5705224199999985,0.7863666795000012,0.03999992675,0.039999947,-9.797409599999982,0.012296101078402856,-0.012785135700033434,-0.0020756677250047344,-0.0027766413171589686,-0.0006810876700015928
0.38,0.0006622429800015419,-0.7842411559999983,0.00021493920400054376,-2.356429760000001,0.00013669412200013499,1.5705120399999986,0.7863751440000012,0.039999926,0.039999947,-9.797275199999982,0.012382099404942929,-0.013028585400033656,-0.002110143200004766,-0.002641814947109581,-0.0006926850400016032
0.3825,0.0006733967250015521,-0.7842291664999984,0.00021887263600054734,-2.3564385650000013,0.00013767052300013588,1.5705016599999986,0.7863836085000011,0.03999992525,0.039999947,-9.797140799999982,0.012468097731483002,-0.013272035100033877,-0.0021446186750047973,-0.002506988577060193,-0.0007042824100016138
0.385,0.0006853922300016262,-0.7842166279999984,0.00022310269600057342,-2.356447950000001,0.00013872046600014234,1.5704905099999986,0.7863927120000012,0.039999925,0.039999947,-9.796928799999968,0.012571578565999638,-0.01352910840003456,-0.0021805156200047945,-0.0023635683697454135,-0.0007162986200016011
0.3875,0.0006978086150014681,-0.7842038149999985,0.0002274810700005177,-2.356457625000001,0.0001398071800001285,1.5704789749999988,0.7864021350000011,0.039999925,0.039999947,-9.79667799999997,0.01268380065449907,-0.013792993500031202,-0.0022171233000043283,-0.0022158512438006338,-0.0007285242500014456
0.39,0.00071022500000131,-0.7841910019999987,0.00023185944400046194,-2.3564673000000007,0.00014089389400011464,1.570467439999999,0.786411558000001,0.039999925,0.039999947,-9.796427199999973,0.0127960227429985,-0.014056878600027842,-0.002253730980003862,-0.0020681341178558545,-0.0007407498800012899
0.3925,0.0007226413850011518,-0.7841781889999988,0.00023623781800040622,-2.356476975000001,0.0001419806080001008,1.5704559049999989,0.7864209810000009,0.039999925,0.039999947,-9.796176399999977,0.01290824483149793,-0.014320763700024481,-0.002290338660003396,-0.0019204169919110755,-0.0007529755100011342
0.395,0.0007350577700009937,-0.784165375999999,0.00024061619200035046,-2.356486650000001,0.00014306732200008697,1.570444369999999,0.7864304040000007,0.039999925,0.039999947,-9.79592559999998,0.013020466919997363,-0.014584648800021123,-0.00232694634000293,-0.0017726998659662963,-0.0007652011400009786
0.3975,0.0007474741550008357,-0.7841525629999991,0.0002449945660002947,-2.3564963250000006,0.00014415403600007314,1.5704328349999992,0.7864398270000006,0.039999925,0.039999947,-9.795674799999983,0.013132689008496793,-0.014848533900017762,-0.002363554020002464,-0.001624982740021517,-0.0007774267700008229
0.4,0.0007598905400007505,-0.7841397499999992,0.0002493729400002647,-2.3565060000000004,0.00014524075000006567,1.5704212999999994,0.7864492500000005,0.039999925,0.039999947,-9.795423999999993,0.013244911096994437,-0.015112419000016034,-0.0024001617000021114,-0.001477265614076176,-0.0007896524000007092
0.4025,0.0007736422745011382,-0.7841260324999989,0.0002542218760004014,-2.3565159600000007,0.0001464440755000996,1.570408549999999,0.7864596750000009,0.03999992575,0.039999947450000004,-9.795284499999989,0.013324360083795192,-0.015406189050024317,-0.002438848380003202,-0.001319257331475016,-0.0008026469600010756
0.405,0.0007873940090015259,-0.7841123149999984,0.00025907081200053807,-2.356525920000001,0.00014764740100013353,1.5703957999999987,0.7864701000000012,0.0399999265,0.0399999479,-9.795144999999986,0.013403809070595947,-0.0156999591000326,-0.002477535060004293,-0.001161249048873856,-0.000815641520001442
0.40750000000000003,0.0008011457435019138,-0.7840985974999981,0.0002639197480006748,-2.3565358800000014,0.00014885072650016747,1.5703830499999982,0.7864805250000014,0.03999992725,0.03999994835,-9.79500549999998,0.013483258057396702,-0.015993729150040884,-0.0025162217400053837,-0.0010032407662726958,-0.0008286360800018083
0.41000000000000003,0.0008148974780023015,-0.7840848799999978,0.0002687686840008115,-2.3565458400000017,0.0001500540520002014,1.5703702999999978,0.7864909500000018,0.039999928000000004,0.0399999488,-9.794865999999978,0.013562707044197457,-0.016287499200049165,-0.0025549084200064743,-0.0008452324836715357,-0.0008416306400021747
0.41250000000000003,0.0008286492125026892,-0.7840711624999973,0.00027361762000094824,-2.356555800000002,0.0001512573775002353,1.5703575499999975,0.7865013750000021,0.039999928750000004,0.03999994925,-9.794726499999973,0.013642156030998212,-0.01658126925005745,-0.0025935951000075654,-0.0006872242010703756,-0.0008546252000025411
0.41500000000000004,0.000842400947003077,-0.784057444999997,0.00027846655600108496,-2.3565657600000023,0.00015246070300026923,1.570344799999997,0.7865118000000024,0.0399999295,0.0399999497,-9.79458699999997,0.013721605017798967,-0.01687503930006573,-0.002632281780008656,-0.0005292159184692156,-0.0008676197600029075
0.4175,0.0008566219690036123,-0.7840433864999965,0.0002834808595012736,-2.3565760250000025,0.000153704981000316,1.5703316149999966,0.7865225795000028,0.0399999303,0.0399999505,-9.794407299999937,0.013810458360265444,-0.01717732805007609,-0.002671640940009699,-0.0003668331118707176,-0.0008809172700033129
0.42,0.0008717815660034192,-0.7840286459999967,0.00028882589800120555,-2.3565869000000026,0.00015503116400029913,1.5703175599999968,0.7865340680000026,0.039999931200000005,0.039999952,-9.79414719999994,0.013918120414042843,-0.017496654200072025,-0.002712345060009181,-0.00019570125728708145,-0.0008948206800031359
0.4225,0.0008869411630032262,-0.7840139054999968,0.0002941709365011375,-2.3565977750000022,0.00015635734700028222,1.570303504999997,0.7865455565000025,0.0399999321,0.0399999535,-9.793887099999944,0.014025782467820243,-0.01781598035006796,-0.0027530491800086625,-2.45694027034453e-05,-0.0009087240900029588
0.425,0.0009021007600030331,-0.783999164999997,0.00029951597500106945,-2.3566086500000023,0.00015768353000026534,1.570289449999997,0.7865570450000023,0.039999933,0.039999955000000004,-9.793626999999947,0.014133444521597642,-0.018135306500063893,-0.002793753300008144,0.00014656245188019086,-0.0009226275000027819
0.4275,0.0009172603570028401,-0.7839844244999973,0.0003048610135010014,-2.356619525000002,0.00015900971300024846,1.5702753949999975,0.7865685335000021,0.0399999339,0.0399999565,-9.79336689999995,0.014241106575375041,-0.018454632650059827,-0.002834457420007626,0.00031769430646382706,-0.0009365309100026048
0.43,0.0009324199540026471,-0.7839696839999974,0.00031020605200093334,-2.356630400000002,0.00016033589600023159,1.5702613399999976,0.786580022000002,0.0399999348,0.039999958,-9.793106799999954,0.01434876862915244,-0.01877395880005576,-0.002875161540007108,0.0004888261610474632,-0.0009504343200024278
0.4325,0.0009475795510024541,-0.7839549434999976,0.0003155510905008653,-2.3566412750000016,0.0001616620790002147,1.5702472849999978,0.7865915105000019,0.0399999357,0.0399999595,-9.792846699999957,0.01445643068292984,-0.019093284950051696,-0.00291586566000659,0.0006599580156310993,-0.0009643377300022508
0.435,0.0009637257750026332,-0.7839395469999975,0.0003212437930009284,-2.356652430000002,0.00016307443000023033,1.5702323599999977,0.7866037460000019,0.039999936,0.0399999606,-9.792668899999978,0.014540548156958289,-0.019438024900056566,-0.002957978110006776,0.0008378017461213251,-0.000978770960002326
0.4375,0.0009803653125026483,-0.7839238224999975,0.00032711032750093374,-2.356663725000002,0.00016452986500023166,1.5702169999999975,0.786616355000002,0.039999936,0.0399999615,-9.792532249999978,0.014612893341120614,-0.01979547175005689,-0.0030007947250068148,0.001019001414562465,-0.0009934691000023394
0.44,0.0009970048500026634,-0.7839080979999975,0.00033297686200093907,-2.3566750200000017,0.00016598530000023297,1.5702016399999976,0.786628964000002,0.039999936,0.0399999624,-9.792395599999978,0.01468523852528294,-0.020152918600057218,-0.0030436113400068537,0.001200201083003605,-0.0010081672400023528
0.4425,0.0010136443875026786,-0.7838923734999974,0.0003388433965009444,-2.356686315000002,0.0001674407350002343,1.5701862799999975,0.786641573000002,0.039999936,0.0399999633,-9.792258949999978,0.014757583709445266,-0.020510365450057542,-0.0030864279550068927,0.001381400751444745,-0.0010228653800023661
0.445,0.001030283925002694,-0.7838766489999974,0.00034470993100094974,-2.3566976100000017,0.00016889617000023563,1.5701709199999976,0.786654182000002,0.039999936,0.0399999642,-9.792122299999978,0.014829928893607593,-0.020867812300057867,-0.0031292445700069316,0.0015626004198858847,-0.0010375635200023795
0.4475,0.001046923462502709,-0.7838609244999974,0.0003505764655009551,-2.356708905000002,0.00017035160500023696,1.5701555599999975,0.786666791000002,0.039999936,0.0399999651,-9.791985649999978,0.014902274077769919,-0.021225259150058195,-0.0031720611850069706,0.0017438000883270247,-0.0010522616600023929
0.45,0.001063563000002978,-0.7838451999999972,0.00035644300000104996,-2.356720200000002,0.00017180704000026049,1.5701401999999973,0.7866794000000022,0.039999936,0.039999966,-9.791848999999958,0.01497461926193764,-0.021582706000061534,-0.003214877800007343,0.0019249997567703022,-0.0010669598000025173
0.4525,0.0010817541600029947,-0.7838283549999973,0.0003628562860010558,-2.356732425000002,0.00017339806450026194,1.5701233699999972,0.7866931700000023,0.03999993705,0.03999996705,-9.791595499999957,0.015079927118512396,-0.021958567000061876,-0.0032597306200073837,0.002119254658496279,-0.0010823356550025312
0.455,0.0010999453200030112,-0.7838115099999972,0.0003692695720010616,-2.3567446500000018,0.00017498908900026336,1.5701065399999972,0.7867069400000023,0.0399999381,0.0399999681,-9.791341999999958,0.015185234975087152,-0.022334428000062218,-0.003304583440007425,0.002313509560222256,-0.001097711510002545
0.4575,0.0011181364800030278,-0.7837946649999972,0.00037568285800106745,-2.356756875000002,0.00017658011350026482,1.570089709999997,0.7867207100000023,0.039999939150000004,0.03999996915,-9.791088499999956,0.015290542831661907,-0.02271028900006256,-0.0033494362600074656,0.0025077644619482327,-0.0011130873650025592
0.46,0.0011363276400030444,-0.7837778199999972,0.0003820961440010733,-2.356769100000002,0.00017817113800026627,1.5700728799999972,0.7867344800000023,0.0399999402,0.0399999702,-9.790834999999957,0.015395850688236663,-0.0230861500000629,-0.0033942890800075062,0.0027020193636742096,-0.0011284632200025731
0.4625,0.001154518800003061,-0.7837609749999971,0.0003885094300010791,-2.3567813250000023,0.00017976216250026772,1.5700560499999971,0.7867482500000024,0.039999941250000004,0.03999997125,-9.790581499999956,0.01550115854481142,-0.023462011000063242,-0.0034391419000075474,0.002896274265400186,-0.001143839075002587
0.465,0.0011727099600030775,-0.7837441299999971,0.00039492271600108494,-2.356793550000002,0.00018135318700026915,1.570039219999997,0.7867620200000023,0.0399999423,0.0399999723,-9.790327999999956,0.015606466401386174,-0.023837872000063584,-0.003483994720007588,0.003090529167126163,-0.0011592149300026012
0.4675,0.00119144200000337,-0.7837268749999969,0.00040152660000118803,-2.3568061250000025,0.00018299142650029469,1.5700219049999968,0.7867761970000026,0.039999943200000006,0.03999997335,-9.790112699999975,0.015697875991474465,-0.024226903600070647,-0.0035294978500079606,0.0032881065970633704,-0.001174907890002777
0.47000000000000003,0.001211255800003388,-0.7837087999999969,0.0004085116800011944,-2.3568194000000022,0.00018472409600029627,1.570003619999997,0.7867911880000026,0.0399999438,0.0399999744,-9.789973799999975,0.015761489048611056,-0.024642276400071026,-0.0035763016000080034,0.003492329083417961,-0.001191235060002792
0.47250000000000003,0.0012310696000034061,-0.7836907249999968,0.00041549676000120076,-2.3568326750000024,0.00018645676550029785,1.5699853349999968,0.7868061790000026,0.0399999444,0.03999997545,-9.789834899999976,0.01582510210574765,-0.025057649200071405,-0.003623105350008046,0.0036965515697725522,-0.0012075622300028066
0.47500000000000003,0.0012508834000034242,-0.7836726499999969,0.00042248184000120715,-2.3568459500000025,0.00018818943500029944,1.569967049999997,0.7868211700000026,0.039999945,0.0399999765,-9.789695999999974,0.015888715162884242,-0.025473022000071784,-0.0036699091000080885,0.003900774056127143,-0.0012238894000028216
0.47750000000000004,0.0012706972000034423,-0.7836545749999968,0.0004294669200012135,-2.3568592250000022,0.000189922104500301,1.5699487649999968,0.7868361610000026,0.0399999456,0.039999977549999996,-9.789557099999975,0.015952328220020837,-0.025888394800072163,-0.003716712850008131,0.004104996542481734,-0.0012402165700028365
0.48,0.0012905110000034597,-0.7836364999999968,0.0004364520000012197,-2.3568725000000024,0.00019165477400030255,1.569930479999997,0.7868511520000027,0.039999946200000004,0.0399999786,-9.789418199999975,0.016015941277157428,-0.026303767600072532,-0.0037635166000081727,0.00430921902883632,-0.001256543740002851
0.4825,0.0013103248000034778,-0.7836184249999968,0.0004434370800012261,-2.3568857750000025,0.00019338744350030413,1.5699121949999968,0.7868661430000027,0.0399999468,0.039999979649999996,-9.789279299999976,0.01607955433429402,-0.026719140400072908,-0.0038103203500082154,0.004513441515190911,-0.0012728709100028658
0.485,0.0013312674000037948,-0.7835994749999966,0.0004508199030013377,-2.3568997400000025,0.0001952187080003318,1.5698928599999966,0.7868819860000029,0.0399999477,0.039999981,-9.789114899999968,0.016166112571971994,-0.027160276200080106,-0.003858503960008623,0.004724321141876754,-0.0012897558800030284
0.4875,0.0013527744000038143,-0.7835800874999965,0.0004584015975013446,-2.3569140500000025,0.0001970992700003335,1.5698729999999965,0.7868982550000029,0.03999994875,0.039999982499999996,-9.788937749999969,0.016264143399911585,-0.027614293500080517,-0.003907377500008667,0.004938529338725589,-0.001306919750003044
0.49,0.0013742814000038339,-0.7835606999999966,0.0004659832920013515,-2.3569283600000026,0.00019897983200033522,1.5698531399999964,0.786914524000003,0.0399999498,0.039999983999999995,-9.788760599999968,0.016362174227851176,-0.02806831080008093,-0.0039562510400087125,0.005152737535574424,-0.0013240836200030595
0.4925,0.0013957884000038534,-0.7835413124999965,0.00047356498650135835,-2.3569426700000027,0.00020086039400033694,1.5698332799999966,0.7869307930000029,0.03999995085,0.0399999855,-9.788583449999969,0.016460205055790763,-0.028522328100081346,-0.004005124580008757,0.005366945732423259,-0.0013412474900030753
0.495,0.001417295400003873,-0.7835219249999965,0.0004811466810013653,-2.3569569800000023,0.00020274095600033863,1.5698134199999965,0.786947062000003,0.0399999519,0.039999987,-9.788406299999968,0.016558235883730354,-0.028976345400081756,-0.004053998120008801,0.005581153929272094,-0.0013584113600030908
0.4975,0.0014388024000038925,-0.7835025374999965,0.0004887283755013722,-2.3569712900000024,0.00020462151800034034,1.5697935599999964,0.7869633310000029,0.03999995295,0.0399999885,-9.788229149999967,0.01665626671166994,-0.02943036270008217,-0.0041028716600088454,0.005795362126120929,-0.0013755752300031066
0.5,0.0014603094000042328,-0.7834831499999962,0.000496310070001492,-2.3569856000000025,0.00020650208000037043,1.569773699999996,0.7869796000000032,0.039999954,0.03999999,-9.788051999999977,0.016754297539601958,-0.029884380000090492,-0.004151745200009242,0.0060095703229715025,-0.0013927391000032323
0.5025000000000001,0.0014835791400042546,-0.7834624724999962,0.0005045129295014997,-2.3570003300000026,0.00020853864200037233,1.5697522349999962,0.7869972100000032,0.0399999546,0.03999999,-9.787925624999977,0.01681069992483685,-0.030381870450090956,-0.0042025518950092895,0.006233336054760876,-0.001410508640003249
0.505,0.001506848880004275,-0.7834417949999962,0.000512715789001507,-2.3570150600000024,0.00021057520400037414,1.569730769999996,0.7870148200000032,0.0399999552,0.03999999,-9.787799249999978,0.01686710231007174,-0.0308793609000914,-0.004253358590009334,0.0064571017865502406,-0.0014282781800032647
0.5075000000000001,0.0015301186200042968,-0.7834211174999962,0.0005209186485015146,-2.3570297900000026,0.00021261176600037603,1.569709304999996,0.7870324300000032,0.0399999558,0.03999999,-9.787672874999977,0.016923504695306634,-0.03137685135009186,-0.004304165285009382,0.006680867518339614,-0.0014460477200032812
0.51,0.0015533883600043175,-0.7834004399999962,0.0005291215080015219,-2.3570445200000028,0.00021464832800037784,1.569687839999996,0.7870500400000033,0.0399999564,0.03999999,-9.787546499999976,0.016979907080541524,-0.031874341800092305,-0.004354971980009427,0.006904633250128978,-0.001463817260003297
0.5125,0.0015766581000043382,-0.7833797624999962,0.0005373243675015293,-2.3570592500000025,0.00021668489000037966,1.569666374999996,0.7870676500000033,0.039999957,0.03999999,-9.787420124999976,0.017036309465776413,-0.03237183225009275,-0.004405778675009472,0.007128398981918341,-0.0014815868000033127
0.515,0.0015999278400043598,-0.7833590849999962,0.0005455272270015369,-2.3570739800000027,0.00021872145200038158,1.569644909999996,0.7870852600000033,0.039999957600000004,0.03999999,-9.787293749999975,0.017092711851011307,-0.03286932270009321,-0.0044565853700095194,0.007352164713707716,-0.0014993563400033292
0.5175,0.0016238081800047253,-0.7833379349999958,0.0005539452525016658,-2.357089060000003,0.00022081198800041386,1.5696228899999956,0.7871033300000037,0.0399999581,0.03999999,-9.787127874999953,0.017153754644109093,-0.03337673365009926,-0.004508058360009941,0.007580289407677776,-0.0015174238900035133
0.52,0.0016489097200047488,-0.7833158399999959,0.000562793610001674,-2.357104840000003,0.0002230104720004159,1.5695997599999956,0.7871223200000036,0.0399999584,0.03999999,-9.786882999999953,0.017224078252924824,-0.03390398560009975,-0.00456086394000999,0.007817132026001867,-0.0015360874600035307
0.5225,0.001674011260004771,-0.7832937449999958,0.0005716419675016819,-2.357120620000003,0.00022520895600041784,1.5695766299999956,0.7871413100000036,0.039999958700000005,0.03999999,-9.786638124999953,0.01729440186174055,-0.03443123755010022,-0.004613669520010037,0.008053974644325947,-0.0015547510300035474
0.525,0.0016991128000047944,-0.7832716499999958,0.0005804903250016901,-2.357136400000003,0.00022740744000041991,1.5695534999999956,0.7871603000000037,0.039999959,0.03999999,-9.786393249999954,0.017364725470556282,-0.034958489500100706,-0.004666475100010086,0.008290817262650038,-0.0015734146000035648
0.5275,0.0017242143400048168,-0.7832495549999957,0.000589338682501698,-2.357152180000003,0.00022960592400042185,1.5695303699999956,0.7871792900000036,0.0399999593,0.03999999,-9.786148374999954,0.01743504907937201,-0.03548574145010118,-0.004719280680010133,0.008527659880974118,-0.0015920781700035813
0.53,0.00174931588000484,-0.7832274599999957,0.0005981870400017062,-2.357167960000003,0.00023180440800042392,1.5695072399999956,0.7871982800000037,0.0399999596,0.03999999,-9.785903499999952,0.01750537268818774,-0.03601299340010167,-0.004772086260010182,0.008764502499298207,-0.0016107417400035987
0.5325,0.0017744174200048624,-0.7832053649999957,0.0006070353975017141,-2.357183740000003,0.00023400289200042586,1.5694841099999957,0.7872172700000037,0.0399999599,0.03999999,-9.785658624999952,0.01757569629700347,-0.036540245350102134,-0.0048248918400102285,0.009001345117622288,-0.0016294053100036154
0.535,0.0018007855600055012,-0.7831822939999952,0.0006163300850019392,-2.3572002500000035,0.00023631086000048136,1.569459799999995,0.7872372200000042,0.03999996,0.039999991,-9.785452999999961,0.017656474746781153,-0.0370926134001151,-0.004878986600011152,0.009244705177893804,-0.0016488991000040561
0.5375,0.0018277870000058935,-0.7831587349999948,0.0006258479375020775,-2.3572171250000036,0.0002386735700005157,1.5694348999999947,0.7872576500000045,0.03999996,0.0399999925,-9.78526699999996,0.017742480617035247,-0.03765753950012331,-0.0049337259500119475,0.00949132395913618,-0.0016688080000043454
0.54,0.001854788440006287,-0.7831351759999945,0.0006353657900022161,-2.357234000000004,0.00024103628000055014,1.5694099999999942,0.7872780800000048,0.03999996,0.039999994,-9.785080999999957,0.017828486487289345,-0.03822246560013154,-0.004988465300012746,0.009737942740378563,-0.0016887169000046358
0.5425,0.0018817898800066795,-0.7831116169999942,0.0006448836425023544,-2.357250875000004,0.00024339899000058447,1.5693850999999939,0.7872985100000051,0.03999996,0.0399999955,-9.784894999999954,0.01791449235754344,-0.03878739170013975,-0.005043204650013541,0.009984561521620937,-0.001708625800004925
0.545,0.0019087913200070729,-0.7830880579999938,0.0006544014950024932,-2.3572677500000045,0.0002457617000006189,1.5693601999999935,0.7873189400000054,0.03999996,0.039999997,-9.784708999999951,0.018000498227797538,-0.03935231780014798,-0.005097944000014339,0.010231180302863322,-0.0017285347000052151
0.5475,0.0019357927600074654,-0.7830644989999935,0.0006639193475026315,-2.357284625000005,0.00024812441000065323,1.5693352999999932,0.7873393700000056,0.03999996,0.0399999985,-9.784522999999949,0.018086504098051633,-0.03991724390015619,-0.005152683350015135,0.010477799084105696,-0.0017484436000055044
0.55,0.0019627942000084316,-0.7830409399999927,0.000673437200002972,-2.3573015000000055,0.00025048712000073757,1.5693103999999922,0.7873598000000064,0.03999996,0.04,-9.784336999999963,0.018172509968292172,-0.04048217000017927,-0.0052074227000165,0.010724417865350897,-0.0017683525000060237
0.5525,0.001991762590008062,-0.783015823999993,0.0006836482100028417,-2.357319485000005,0.00025302124700070524,1.5692836699999926,0.7873816925000061,0.039999959700000004,0.04,-9.784206649999964,0.01821192586795584,-0.04109811950017142,-0.005264112155015777,0.010980716068368918,-0.0017890489300057598
0.555,0.002020730980007694,-0.7829907079999934,0.0006938592200027119,-2.357337470000005,0.000255555374000673,1.569256939999993,0.7874035850000058,0.0399999594,0.04,-9.784076299999965,0.018251341767619507,-0.04171406900016359,-0.005320801610015057,0.011237014271386951,-0.0018097453600054967
0.5575,0.0020496993700073246,-0.7829655919999937,0.0007040702300025818,-2.3573554550000044,0.00025808950100064074,1.5692302099999933,0.7874254775000056,0.0399999591,0.04,-9.783945949999968,0.018290757667283174,-0.04233001850015573,-0.005377491065014333,0.011493312474404972,-0.0018304417900052328
0.56,0.002078667760006956,-0.782940475999994,0.0007142812400024519,-2.3573734400000044,0.0002606236280006085,1.5692034799999937,0.7874473700000053,0.0399999588,0.04,-9.783815599999969,0.018330173566946845,-0.04294596800014791,-0.005434180520013613,0.011749610677423004,-0.0018511382200049698
0.5625,0.0021076361500065866,-0.7829153599999943,0.0007244922500023218,-2.357391425000004,0.0002631577550005762,1.569176749999994,0.787469262500005,0.0399999585,0.04,-9.78368524999997,0.018369589466610513,-0.04356191750014005,-0.00549086997501289,0.012005908880441025,-0.0018718346500047058
0.5650000000000001,0.002136604540006219,-0.7828902439999946,0.0007347032600021919,-2.357409410000004,0.00026569188200054397,1.5691500199999944,0.7874911550000047,0.039999958200000005,0.04,-9.783554899999972,0.01840900536627418,-0.04417786700013222,-0.00554755943001217,0.012262207083459058,-0.0018925310800044428
0.5675,0.0021662507200064006,-0.7828645949999945,0.000745153107002256,-2.3574277900000036,0.0002682847825005596,1.5691226749999942,0.7875135625000048,0.0399999578,0.04,-9.783406599999962,0.018461543601022486,-0.04480610200013478,-0.005604834630012067,0.012521651713232404,-0.0019135787500044904
0.5700000000000001,0.00219725248000643,-0.7828378799999944,0.0007560806280022663,-2.357446960000004,0.0002709952300005621,1.5690940999999943,0.7875370000000048,0.0399999572,0.04,-9.78322239999996,0.01854032650591572,-0.045458908000135384,-0.005663281320012121,0.012787389196510571,-0.0019353289000045106
0.5725,0.0022282542400064572,-0.7828111649999945,0.0007670081490022759,-2.3574661300000037,0.00027370567750056456,1.569065524999994,0.7875604375000049,0.0399999566,0.04,-9.783038199999961,0.018619109410808948,-0.046111714000135966,-0.005721728010012173,0.013053126679788727,-0.00195707905000453
0.5750000000000001,0.002259256000006486,-0.7827844499999944,0.0007779356700022862,-2.357485300000004,0.00027641612500056706,1.569036949999994,0.7875838750000049,0.039999955999999996,0.04,-9.782853999999961,0.018697892315702184,-0.046764520000136575,-0.005780174700012228,0.013318864163066895,-0.0019788292000045503
0.5775,0.0022902577600065134,-0.7827577349999945,0.0007888631910022958,-2.357504470000004,0.0002791265725005695,1.5690083749999941,0.7876073125000049,0.0399999554,0.04,-9.782669799999962,0.018776675220595413,-0.04741732600013715,-0.00583862139001228,0.013584601646345052,-0.0020005793500045698
0.58,0.002321259520006541,-0.7827310199999944,0.0007997907120023055,-2.3575236400000037,0.0002818370200005719,1.5689797999999942,0.7876307500000049,0.0399999548,0.04,-9.78248559999996,0.018855458125488642,-0.04807013200013773,-0.005897068080012332,0.013850339129623208,-0.0020223295000045887
0.5825,0.00235226128000657,-0.7827043049999943,0.0008107182330023157,-2.357542810000004,0.0002845474675005744,1.568951224999994,0.7876541875000049,0.0399999542,0.04,-9.78230139999996,0.018934241030381875,-0.04872293800013834,-0.005955514770012386,0.014116076612901375,-0.002044079650004609
0.585,0.002384662090007044,-0.782676489999994,0.0008221387660024828,-2.357562740000004,0.0002873815790006163,1.5689213499999937,0.7876786860000053,0.0399999536,0.0399999995,-9.782159299999973,0.018980690278119286,-0.04941268360015071,-0.006015246800012849,0.0143880086951543,-0.0020662245800047545
0.5875,0.002417762425007075,-0.7826481249999939,0.0008338058050024937,-2.357583050000004,0.000290277522500619,1.5688908249999935,0.7877037150000054,0.039999953,0.03999999875,-9.782038249999975,0.019010972697294223,-0.050120899000151375,-0.006075621500012905,0.01466303807689166,-0.0020885669000047756
0.59,0.0024508627600071044,-0.7826197599999939,0.0008454728440025041,-2.357603360000004,0.0002931734660006216,1.5688602999999934,0.7877287440000054,0.0399999524,0.039999998,-9.781917199999974,0.01904125511646916,-0.050829114400152,-0.006135996200012959,0.014938067458629009,-0.0021109092200047954
0.5925,0.002483963095007135,-0.7825913949999939,0.000857139883002515,-2.357623670000004,0.00029606940950062426,1.5688297749999935,0.7877537730000054,0.039999951799999996,0.03999999725,-9.781796149999973,0.019071537535644098,-0.05153732980015266,-0.006196370900013014,0.01521309684036637,-0.002133251540004816
0.595,0.0025170634300071644,-0.7825630299999938,0.0008688069220025253,-2.357643980000004,0.0002989653530006269,1.5687992499999934,0.7877788020000054,0.0399999512,0.0399999965,-9.781675099999974,0.019101819954819035,-0.052245545200153294,-0.006256745600013068,0.01548812622210372,-0.002155593860004836
0.5975,0.0025501637650071954,-0.7825346649999938,0.0008804739610025362,-2.357664290000004,0.00030186129650062955,1.5687687249999935,0.7878038310000054,0.0399999506,0.03999999575,-9.781554049999974,0.019132102373993973,-0.05295376060015396,-0.0063171203000131244,0.015763155603841082,-0.002177936180004857
0.6,0.002583264100007697,-0.7825062999999934,0.0008921410000027129,-2.3576846000000047,0.00030475724000067304,1.568738199999993,0.7878288600000057,0.03999995,0.039999995,-9.781432999999959,0.019162384793177226,-0.05366197600016279,-0.006377495000013573,0.01603818498558048,-0.0022002785000051696
0.6025,0.00261852740500773,-0.7824762099999933,0.0009045702040027246,-2.3577061100000045,0.00030784068950067594,1.568705724999993,0.7878555120000058,0.03999994955,0.03999999575,-9.781243249999958,0.019230771344170016,-0.05440778410016348,-0.006439678700013631,0.0163225988858071,-0.002223962675005192
0.605,0.002653790710007761,-0.7824461199999934,0.0009169994080027356,-2.357727620000005,0.00031092413900067866,1.568673249999993,0.7878821640000059,0.0399999491,0.0399999965,-9.781053499999958,0.019299157895162802,-0.055153592200164143,-0.006501862400013686,0.016607012786033708,-0.0022476468500052128
0.6075,0.0026890540150077942,-0.7824160299999934,0.0009294286120027471,-2.3577491300000046,0.0003140075885006815,1.5686407749999929,0.7879088160000058,0.03999994865,0.03999999725,-9.780863749999957,0.01936754444615559,-0.05589940030016484,-0.006564046100013744,0.016891426686260327,-0.0022713310250052346
0.61,0.0027243173200078253,-0.7823859399999933,0.0009418578160027581,-2.357770640000005,0.00031709103800068423,1.5686082999999929,0.7879354680000059,0.0399999482,0.039999998,-9.780673999999957,0.019435930997148375,-0.0566452084001655,-0.006626229800013799,0.017175840586486937,-0.002295015200005256
0.6125,0.002759580625007858,-0.7823558499999933,0.0009542870200027698,-2.3577921500000047,0.0003201744875006871,1.5685758249999928,0.787962120000006,0.03999994775,0.03999999875,-9.780484249999958,0.019504317548141165,-0.057391016500166196,-0.006688413500013857,0.017460254486713556,-0.0023186993750052777
0.615,0.0027948439300078893,-0.7823257599999932,0.0009667162240027808,-2.357813660000005,0.00032325793700068985,1.5685433499999928,0.7879887720000059,0.0399999473,0.0399999995,-9.780294499999957,0.019572704099133947,-0.05813682460016686,-0.006750597200013912,0.017744668386940162,-0.0023423835500052986
0.6175,0.0028308491450084222,-0.7822950734999928,0.0009794069070029685,-2.357835565000005,0.0003264057245007361,1.5685101849999923,0.7880159880000064,0.03999994665,0.04,-9.78012584999997,0.019623310677710514,-0.05890270050018108,-0.00681335792001436,0.018032274209028917,-0.002366404450005548
0.62,0.002868338180008456,-0.7822631939999928,0.0009926205480029803,-2.3578582600000053,0.000329682188000739,1.5684756399999922,0.7880443320000065,0.0399999456,0.04,-9.779999399999971,0.019638357311490533,-0.059708712000181796,-0.0068772726800144166,0.01832626387483547,-0.00239109880000557
0.6225,0.0029058272150084908,-0.7822313144999927,0.0010058341890029927,-2.357880955000005,0.0003329586515007421,1.568441094999992,0.7880726760000064,0.03999994455,0.04,-9.779872949999971,0.019653403945270553,-0.06051472350018255,-0.006941187440014476,0.01862025354064204,-0.002415793150005593
0.625,0.002943316250008524,-0.7821994349999928,0.0010190478300030044,-2.3579036500000052,0.000336235115000745,1.5684065499999922,0.7881010200000065,0.039999943499999996,0.04,-9.779746499999971,0.019668450579050572,-0.061320735000183264,-0.007005102200014533,0.018914243206448595,-0.002440487500005615
0.6275000000000001,0.002980805285008559,-0.7821675554999927,0.0010322614710030168,-2.357926345000005,0.00033951157850074803,1.568372004999992,0.7881293640000065,0.03999994245,0.04,-9.779620049999972,0.01968349721283059,-0.062126746500184016,-0.007069016960014592,0.019208232872255166,-0.002465181850005638
0.63,0.003018294320008592,-0.7821356759999927,0.0010454751120030285,-2.357949040000005,0.000342788042000751,1.568337459999992,0.7881577080000065,0.039999941399999996,0.04,-9.77949359999997,0.019698543846610607,-0.06293275800018473,-0.007132931720014649,0.019502222538061723,-0.00248987620000566
0.6325000000000001,0.0030557833550086274,-0.7821037964999926,0.001058688753003041,-2.357971735000005,0.00034606450550075403,1.5683029149999919,0.7881860520000066,0.03999994035,0.04,-9.77936714999997,0.019713590480390626,-0.06373876950018548,-0.007196846480014708,0.01979621220386829,-0.002514570550005683
0.635,0.003094797810009189,-0.7820707029999923,0.001072439950003239,-2.3579953700000056,0.0003494737140008029,1.5682669599999914,0.788215544000007,0.0399999396,0.04,-9.779203099999958,0.019759739749147794,-0.06457085900019524,-0.007261967660015183,0.02009601164616182,-0.002539874050005916
0.6375000000000001,0.0031345749750092263,-0.7820370024999922,0.001086459925003252,-2.3580194750000056,0.00035294929500080614,1.5682302999999913,0.788245610000007,0.039999939,0.04,-9.779020249999958,0.019821440335377413,-0.06541598750019602,-0.007327692050015245,0.020398715976695837,-0.00256548212500594
0.64,0.0031743521400092616,-0.7820033019999921,0.0011004799000032643,-2.3580435800000057,0.00035642487600080926,1.5681936399999914,0.788275676000007,0.0399999384,0.04,-9.778837399999958,0.019883140921607027,-0.06626111600019677,-0.007393416440015303,0.02070142030722984,-0.0025910902000059626
0.6425,0.003214129305009297,-0.7819696014999921,0.0011144998750032768,-2.3580676850000057,0.0003599004570008123,1.5681569799999913,0.788305742000007,0.039999937799999996,0.04,-9.778654549999956,0.019944841507836642,-0.06710624450019752,-0.0074591408300153615,0.021004124637763844,-0.002616698275005985
0.645,0.003253906470009334,-0.7819359009999921,0.00112851985000329,-2.358091790000006,0.0003633760380008156,1.5681203199999914,0.7883358080000071,0.0399999372,0.04,-9.778471699999956,0.02000654209406626,-0.06795137300019831,-0.007524865220015423,0.021306828968297862,-0.002642306350006009
0.6475,0.0032936836350093692,-0.781902200499992,0.0011425398250033024,-2.358115895000006,0.00036685161900081866,1.5680836599999912,0.7883658740000071,0.0399999366,0.04,-9.778288849999957,0.020068242680295875,-0.06879650150019906,-0.007590589610015481,0.021609533298831866,-0.002667914425006032
0.65,0.0033334608000099623,-0.7818684999999915,0.001156559800003511,-2.3581400000000063,0.0003703272000008705,1.5680469999999909,0.7883959400000076,0.039999936,0.04,-9.778105999999974,0.020129943266511362,-0.06964163000021432,-0.007656314000015952,0.021912237629367927,-0.0026935225000063027
0.6525,0.0033755868750099992,-0.7818329199999915,0.0011714075800035243,-2.358165605000006,0.00037400827050087376,1.5680081649999908,0.7884277865000076,0.0399999354,0.04,-9.777997849999974,0.020131897088140654,-0.07054798160021514,-0.007723767800016011,0.022223595436736254,-0.0027201755950063264
0.655,0.003417712950010039,-0.7817973399999915,0.0011862553600035383,-2.3581912100000064,0.0003776893410008772,1.5679693299999908,0.7884596330000077,0.0399999348,0.04,-9.777889699999974,0.020133850909769945,-0.07145433320021598,-0.007791221600016074,0.022534953244104594,-0.0027468286900063513
0.6575,0.003459839025010076,-0.7817617599999915,0.0012011031400035513,-2.3582168150000062,0.0003813704115008805,1.5679304949999906,0.7884914795000076,0.039999934200000004,0.04,-9.777781549999974,0.020135804731399237,-0.07236068480021679,-0.007858675400016134,0.02284631105147292,-0.002773481785006375
0.66,0.0035019651000101153,-0.7817261799999915,0.0012159509200035652,-2.358242420000006,0.0003850514820008839,1.5678916599999906,0.7885233260000076,0.0399999336,0.04,-9.777673399999975,0.02013775855302853,-0.07326703640021763,-0.007926129200016197,0.023157668858841265,-0.0028001348800064
0.6625,0.0035440911750101527,-0.7816905999999915,0.0012307987000035785,-2.3582680250000063,0.0003887325525008872,1.5678528249999906,0.7885551725000077,0.039999933,0.04,-9.777565249999974,0.020139712374657823,-0.07417338800021844,-0.007993583000016258,0.02346902666620959,-0.0028267879750064236
0.665,0.003586217250010192,-0.7816550199999914,0.0012456464800035924,-2.358293630000006,0.0003924136230008906,1.5678139899999906,0.7885870190000077,0.0399999324,0.04,-9.777457099999975,0.020141666196287114,-0.07507973960021928,-0.008061036800016321,0.023780384473577932,-0.0028534410700064485
0.6675,0.003629146185010814,-0.7816187914999909,0.0012607771900038115,-2.3583197250000065,0.000396164886500945,1.5677744199999901,0.7886194675000082,0.0399999319,0.04,-9.777334249999964,0.020159725472343216,-0.07600132330023118,-0.00812905117501679,0.024094236549067404,-0.0028804639900067413
0.67,0.003673680840010856,-0.7815812659999909,0.0012764737600038263,-2.3583468000000067,0.00040005653600094863,1.56773337999999,0.7886531200000082,0.039999931600000004,0.04,-9.777181999999964,0.020209995657217796,-0.07695337120023207,-0.008198186700016853,0.02441307716079374,-0.0029082265600067674
0.6725,0.003718215495010895,-0.7815437404999909,0.0012921703300038403,-2.3583738750000065,0.0004039481855009521,1.56769233999999,0.7886867725000083,0.0399999313,0.04,-9.777029749999963,0.020260265842092368,-0.07790541910023292,-0.008267322225016915,0.024731917772520064,-0.002935989130006792
0.675,0.003762750150010937,-0.7815062149999907,0.0013078669000038548,-2.3584009500000067,0.0004078398350009557,1.5676512999999899,0.7887204250000083,0.039999931,0.04,-9.776877499999962,0.020310536026966947,-0.0788574670002338,-0.00833645775001698,0.0250507583842464,-0.002963751700006818
0.6775,0.0038072848050109765,-0.7814686894999907,0.0013235634700038688,-2.358428025000007,0.0004117314845009592,1.56761025999999,0.7887540775000083,0.039999930700000005,0.04,-9.776725249999963,0.020360806211841522,-0.07980951490023465,-0.00840559327501704,0.025369598995972725,-0.0029915142700068426
0.68,0.003851819460011018,-0.7814311639999907,0.0013392600400038836,-2.3584551000000067,0.00041562313400096283,1.5675692199999898,0.7887877300000083,0.0399999304,0.04,-9.776572999999962,0.020411076396716098,-0.08076156280023554,-0.008474728800017105,0.02568843960769906,-0.0030192768400068683
0.6825,0.0038963541150110574,-0.7813936384999907,0.0013549566100038975,-2.358482175000007,0.00041951478350096626,1.5675281799999898,0.7888213825000083,0.039999930100000004,0.04,-9.776420749999962,0.020461346581590673,-0.08171361070023639,-0.008543864325017166,0.026007280219425385,-0.003047039410006893
0.685,0.0039425334500117135,-0.7813547869999902,0.0013712328400041288,-2.3585101000000073,0.0004235501780010236,1.567485629999989,0.7888562900000089,0.0399999295,0.04,-9.776307699999977,0.0204700179398029,-0.08271090440025419,-0.008614031250017617,0.026331422291777457,-0.0030755571900072014
0.6875,0.003989535125011755,-0.7813152724999901,0.0013877989000041435,-2.358538450000007,0.0004276574450010273,1.5674423249999891,0.7888918250000089,0.039999928750000004,0.04,-9.776214249999978,0.020457889884707217,-0.0837308210002551,-0.008684713875017678,0.02665821509443941,-0.003104452575007227
0.6900000000000001,0.004036536800011799,-0.78127575799999,0.0014043649600041588,-2.358566800000007,0.0004317647120010311,1.567399019999989,0.788927360000009,0.039999928000000004,0.04,-9.776120799999976,0.020445761829611536,-0.08475073760025605,-0.008755396500017745,0.026985007897101378,-0.003133347960007254
0.6925,0.004083538475011841,-0.7812362434999901,0.0014209310200041735,-2.358595150000007,0.00043587197900103476,1.567355714999989,0.7889628950000089,0.03999992725,0.04,-9.776027349999977,0.020433633774515854,-0.08577065420025695,-0.008826079125017807,0.027311800699763335,-0.0031622433450072796
0.6950000000000001,0.004130540150011885,-0.78119672899999,0.001437497080004189,-2.358623500000007,0.0004399792460010386,1.5673124099999889,0.788998430000009,0.0399999265,0.04,-9.775933899999977,0.020421505719420172,-0.0867905708002579,-0.008896761750017874,0.027638593502425302,-0.003191138730007307
0.6975,0.004177541825011927,-0.78115721449999,0.0014540631400042038,-2.358651850000007,0.00044408651300104226,1.567269104999989,0.789033965000009,0.03999992575,0.04,-9.775840449999977,0.020409377664324494,-0.0878104874002588,-0.008967444375017937,0.02796538630508726,-0.0032200341150073323
0.7000000000000001,0.004224543500012613,-0.7811176999999895,0.0014706292000044457,-2.3586802000000073,0.0004481937800011023,1.5672257999999883,0.7890695000000095,0.039999925,0.04,-9.775746999999951,0.020397249609241577,-0.08883040400027081,-0.009038127000018438,0.028292179107751447,-0.0032489295000076874
0.7025,0.004274069720012657,-0.7810761349999894,0.0014880849100044613,-2.3587099600000077,0.00045252174800110615,1.5671801849999882,0.7891069310000095,0.03999992425,0.04,-9.775551699999951,0.020435238350192435,-0.08989370690027175,-0.009110523750018503,0.028627690486695667,-0.003279113955007714
0.705,0.004323595940012701,-0.7810345699999893,0.0015055406200044767,-2.3587397200000075,0.00045684971600110997,1.5671345699999881,0.7891443620000096,0.0399999235,0.04,-9.77535639999995,0.020473227091143294,-0.0909570098002727,-0.009182920500018567,0.028963201865639884,-0.0033092984100077413
0.7075,0.004373122160012747,-0.7809930049999894,0.0015229963300044931,-2.3587694800000074,0.000461177684001114,1.5670889549999882,0.7891817930000096,0.03999992275,0.04,-9.77516109999995,0.020511215832094153,-0.0920203127002737,-0.009255317250018635,0.029298713244584117,-0.0033394828650077694
0.71,0.004422648380012792,-0.7809514399999893,0.0015404520400045085,-2.3587992400000077,0.0004655056520011178,1.5670433399999881,0.7892192240000097,0.039999922,0.04,-9.77496579999995,0.020549204573045012,-0.09308361560027463,-0.0093277140000187,0.029634224623528334,-0.003369667320007796
0.7125,0.004472174600012838,-0.7809098749999892,0.001557907750004525,-2.3588290000000076,0.00046983362000112185,1.566997724999988,0.7892566550000096,0.03999992125,0.04,-9.77477049999995,0.02058719331399587,-0.09414691850027562,-0.009400110750018767,0.029969736002472568,-0.003399851775007824
0.715,0.004521700820012881,-0.7808683099999892,0.0015753634600045403,-2.358858760000008,0.0004741615880011257,1.5669521099999881,0.7892940860000097,0.0399999205,0.04,-9.77457519999995,0.02062518205494673,-0.09521022140027657,-0.00947250750001883,0.030305247381416787,-0.003430036230007851
0.7175,0.0045720873000136015,-0.7808260374999886,0.001593122355004794,-2.3588890100000084,0.0004785647850011887,1.5669057149999874,0.7893321630000103,0.0399999195,0.0399999995,-9.774408749999973,0.020641970727585984,-0.09629706500029599,-0.009545415500019298,0.030643569305628896,-0.0034605377800081276
0.72,0.004624194300013648,-0.7807823499999885,0.0016114876200048103,-2.358920240000008,0.0004831184400011927,1.5668577599999873,0.7893715320000103,0.039999918,0.039999998,-9.774299999999972,0.02061635926365177,-0.097430990000297,-0.009619346000019364,0.030987512320370145,-0.0034916735200081553
0.7225,0.004676301300013697,-0.7807386624999886,0.0016298528850048274,-2.3589514700000085,0.000487672095001197,1.5668098049999875,0.7894109010000103,0.0399999165,0.0399999965,-9.774191249999971,0.02059074779971756,-0.09856491500029806,-0.009693276500019433,0.03133145533511141,-0.0035228092600081843
0.725,0.004728408300013743,-0.7806949749999885,0.0016482181500048437,-2.3589827000000083,0.000492225750001201,1.5667618499999874,0.7894502700000104,0.039999915,0.039999994999999997,-9.774082499999972,0.020565136335783347,-0.09969884000029906,-0.009767207000019498,0.03167539834985266,-0.003553945000008212
0.7275,0.0047805153000137915,-0.7806512874999885,0.001666583415004861,-2.359013930000008,0.0004967794050012052,1.5667138949999873,0.7894896390000105,0.0399999135,0.0399999935,-9.773973749999971,0.02053952487184913,-0.10083276500030013,-0.009841137500019567,0.03201934136459393,-0.003585080740008241
0.73,0.004832622300013838,-0.7806075999999884,0.0016849486800048772,-2.3590451600000084,0.0005013330600012093,1.5666659399999874,0.7895290080000105,0.039999912,0.039999992,-9.773864999999972,0.02051391340791492,-0.10196669000030113,-0.009915068000019633,0.03236328437933518,-0.0036162164800082686
0.7325,0.004884729300013887,-0.7805639124999884,0.0017033139450048944,-2.3590763900000082,0.0005058867150012136,1.5666179849999873,0.7895683770000106,0.0399999105,0.0399999905,-9.773756249999972,0.020488301943980707,-0.10310061500030218,-0.009988998500019702,0.03270722739407645,-0.0036473522200082976
0.735,0.004938593300014638,-0.7805188199999877,0.001722298430005159,-2.359108710000009,0.0005105940300012792,1.5665683999999866,0.7896090700000111,0.039999909199999996,0.0399999894,-9.773601399999952,0.020497211441404588,-0.10426627500031592,-0.010063888300020153,0.03305642530331482,-0.003679313360008656
0.7375,0.004993335800014689,-0.7804730249999877,0.001741592525005177,-2.3591415750000087,0.0005153781750012837,1.5665179999999865,0.7896504250000111,0.039999908,0.0399999885,-9.773423499999954,0.020523381419486796,-0.10544780250031702,-0.010139257750020223,0.033408250659798605,-0.0037116872000086862
0.74,0.005048078300014737,-0.7804272299999877,0.0017608866200051942,-2.3591744400000088,0.000520162320001288,1.5664675999999864,0.7896917800000112,0.0399999068,0.0399999876,-9.773245599999953,0.020549551397569005,-0.10662933000031807,-0.010214627200020289,0.03376007601628237,-0.003744061040008715
0.7425,0.005102820800014788,-0.7803814349999876,0.001780180715005212,-2.359207305000009,0.0005249464650012923,1.5664171999999863,0.7897331350000112,0.039999905599999996,0.039999986700000004,-9.773067699999952,0.020575721375651213,-0.10781085750031917,-0.01028999665002036,0.034111901372766165,-0.0037764348800087455
0.745,0.005157563300014837,-0.7803356399999876,0.0017994748100052292,-2.359240170000009,0.0005297306100012966,1.5663667999999864,0.7897744900000112,0.039999904399999994,0.0399999858,-9.772889799999952,0.02060189135373342,-0.10899238500032023,-0.010365366100020427,0.03446372672924993,-0.0038088087200087743
0.7475,0.005212305800014888,-0.7802898449999875,0.0018187689050052473,-2.3592730350000086,0.0005345147550013011,1.5663163999999863,0.7898158450000113,0.0399999032,0.0399999849,-9.772711899999951,0.02062806133181563,-0.11017391250032132,-0.010440735550020497,0.034815552085733725,-0.0038411825600088044
0.75,0.00526704830001567,-0.7802440499999869,0.001838063000005523,-2.359305900000009,0.0005392989000013695,1.5662659999999855,0.7898572000000119,0.039999902,0.039999984,-9.77253399999998,0.02065423130987879,-0.11135544000034103,-0.010516105000020986,0.035167377442219365,-0.003873556400009254
0.7525000000000001,0.005324480045015724,-0.7801960574999869,0.0018583048250055418,-2.3593402200000093,0.0005443180200013742,1.5662131549999856,0.7899005905000119,0.0399999017,0.0399999846,-9.77245974999998,0.02061058785765163,-0.1126053180003422,-0.010593024700021058,0.0355260558427362,-0.0039074717900092855
0.755,0.005381911790015775,-0.7801480649999868,0.0018785466500055598,-2.3593745400000095,0.0005493371400013785,1.5661603099999855,0.789943981000012,0.039999901399999996,0.039999985200000004,-9.772385499999979,0.020566944405424472,-0.1138551960003433,-0.010669944400021126,0.03588473424325302,-0.003941387180009316
0.7575000000000001,0.005439343535015829,-0.7801000724999868,0.0018987884750055787,-2.3594088600000096,0.0005543562600013833,1.5661074649999855,0.789987371500012,0.0399999011,0.0399999858,-9.77231124999998,0.02052330095319731,-0.11510507400034446,-0.010746864100021198,0.036243412643769866,-0.003975302570009347
0.76,0.005496775280015879,-0.7800520799999867,0.0019190303000055965,-2.3594431800000097,0.0005593753800013878,1.5660546199999854,0.790030762000012,0.039999900799999995,0.0399999864,-9.77223699999998,0.020479657500970153,-0.11635495200034558,-0.010823783800021268,0.03660209104428669,-0.004009217960009377
0.7625000000000001,0.005554207025015933,-0.7800040874999867,0.0019392721250056154,-2.3594775000000094,0.0005643945000013924,1.5660017749999853,0.7900741525000121,0.0399999005,0.039999987,-9.772162749999978,0.02043601404874299,-0.11760483000034674,-0.010900703500021338,0.03696076944480353,-0.0040431333500094094
0.765,0.005611638770015984,-0.7799560949999866,0.001959513950005633,-2.3595118200000096,0.0005694136200013969,1.5659489299999854,0.7901175430000121,0.0399999002,0.0399999876,-9.77208849999998,0.020392370596515833,-0.11885470800034785,-0.010977623200021408,0.037319447845320354,-0.004077048740009439
0.7675000000000001,0.005669984355016803,-0.779907349999986,0.001980077865005922,-2.3595466850000104,0.0005745126480014685,1.5658952349999846,0.7901616245000127,0.03999989975,0.039999988,-9.77199024999996,0.020357114076609145,-0.12012458650036577,-0.011055002000021864,0.03768078759322864,-0.004111361200009804
0.77,0.005730157620016856,-0.779857099999986,0.002001285960005941,-2.3595826400000104,0.0005797714920014732,1.5658398399999847,0.7902070880000128,0.039999899,0.039999988,-9.771843999999959,0.02033863142132234,-0.12143446600036693,-0.011133299000021933,0.03804745003591313,-0.0041464678000098345
0.7725,0.005790330885016909,-0.779806849999986,0.00202249405500596,-2.3596185950000104,0.0005850303360014778,1.5657844449999845,0.7902525515000128,0.03999989825,0.039999988,-9.771697749999959,0.02032014876603554,-0.1227443455003681,-0.011211596000022002,0.03841411247859762,-0.004181574400009866
0.775,0.005850504150016965,-0.7797565999999858,0.0020437021500059795,-2.3596545500000103,0.0005902891800014827,1.5657290499999845,0.7902980150000128,0.0399998975,0.039999988,-9.771551499999958,0.02030166611074874,-0.12405422500036932,-0.011289893000022075,0.03878077492128213,-0.004216681000009899
0.7775,0.0059106774150170195,-0.7797063499999858,0.0020649102450059987,-2.3596905050000103,0.0005955480240014873,1.5656736549999843,0.7903434785000129,0.03999989675,0.039999988,-9.771405249999958,0.02028318345546194,-0.12536410450037047,-0.011368190000022146,0.03914743736396662,-0.00425178760000993
0.78,0.005970850680017075,-0.7796560999999858,0.0020861183400060182,-2.3597264600000103,0.0006008068680014922,1.5656182599999844,0.7903889420000129,0.039999896,0.039999988,-9.77125899999996,0.020264700800175135,-0.12667398400037172,-0.011446487000022218,0.039514099806651125,-0.004286894200009963
0.7825,0.006031023945017129,-0.7796058499999857,0.0021073264350060373,-2.3597624150000103,0.000606065712001497,1.5655628649999842,0.790434405500013,0.03999989525,0.039999988,-9.77111274999996,0.020246218144888334,-0.12798386350037286,-0.011524784000022287,0.03988076224933562,-0.0043220008000099935
0.785,0.006093058970017983,-0.779554089999985,0.002129190770006338,-2.3597994800000106,0.0006114873200015715,1.5655057699999835,0.7904812740000136,0.0399998955,0.0399999887,-9.770955299999954,0.02024400327354834,-0.12932966900038947,-0.011604069000022784,0.04025182351480644,-0.004358021630010418
0.7875,0.0061560248750180385,-0.779501574999985,0.002151383225006358,-2.3598371000000107,0.0006169903100015765,1.5654478249999835,0.7905288450000136,0.03999989625,0.03999998975,-9.770792249999953,0.020249922294171323,-0.1306934375003907,-0.011683848000022855,0.04062508419166758,-0.00439449957501045
0.79,0.006218990780018097,-0.7794490599999849,0.0021735756800063785,-2.3598747200000108,0.0006224933000015816,1.5653898799999835,0.7905764160000137,0.039999897,0.0399999908,-9.770629199999954,0.020255841314794302,-0.13205720600039195,-0.01176362700002293,0.04099834486852874,-0.004430977520010484
0.7925,0.006281956685018153,-0.7793965449999849,0.0021957681350063983,-2.359912340000011,0.0006279962900015865,1.5653319349999835,0.7906239870000137,0.03999989775,0.03999999185,-9.770466149999955,0.02026176033541728,-0.13342097450039317,-0.011843406000023,0.041371605545389885,-0.0044674554650105175
0.795,0.006344922590018212,-0.7793440299999849,0.002217960590006419,-2.359949960000011,0.0006334992800015916,1.5652739899999832,0.7906715580000138,0.0399998985,0.0399999929,-9.770303099999953,0.020267679356040263,-0.13478474300039445,-0.011923185000023075,0.04174486622225104,-0.0045039334100105514
0.7975,0.006407888495018268,-0.7792915149999848,0.0022401530450064386,-2.359987580000011,0.0006390022700015966,1.5652160449999832,0.7907191290000138,0.03999989925,0.03999999395,-9.770140049999954,0.020273598376663243,-0.13614851150039564,-0.012002964000023146,0.04211812689911218,-0.004540411355010584
0.8,0.006470854400019154,-0.779238999999984,0.0022623455000067507,-2.3600252000000115,0.000644505260001674,1.5651580999999826,0.7907667000000145,0.0399999,0.039999995,-9.769976999999976,0.020279517397264895,-0.1375122800004202,-0.0120827430000236,0.04249138757597544,-0.004576889300011028
0.8025,0.006536662670019212,-0.779184138999984,0.0022855398350067713,-2.3600644250000116,0.0006502567460016791,1.5650975449999824,0.7908164250000146,0.0399999,0.03999999575,-9.769890149999975,0.0202121618203622,-0.1389561020004215,-0.012163827150023673,0.04287186227749957,-0.004614777395011062
0.805,0.006602470940019273,-0.779129277999984,0.002308734170006793,-2.3601036500000117,0.0006560082320016845,1.5650369899999823,0.7908661500000146,0.0399999,0.0399999965,-9.769803299999975,0.020144806243459504,-0.14039992400042287,-0.012244911300023748,0.04325233697902371,-0.004652665490011097
0.8075,0.006668279210019332,-0.7790744169999839,0.0023319285050068137,-2.3601428750000113,0.0006617597180016896,1.5649764349999822,0.7909158750000146,0.0399999,0.03999999725,-9.769716449999976,0.02007745066655681,-0.14184374600042415,-0.01232599545002382,0.04363281168054784,-0.004690553585011131
0.81,0.006734087480019394,-0.7790195559999838,0.002355122840006835,-2.3601821000000114,0.000667511204001695,1.5649158799999823,0.7909656000000147,0.0399999,0.039999998,-9.769629599999975,0.02001009508965411,-0.1432875680004255,-0.012407079600023895,0.044013286382071984,-0.004728441680011166
0.8125,0.006799895750019452,-0.7789646949999838,0.002378317175006856,-2.3602213250000115,0.0006732626900017001,1.5648553249999821,0.7910153250000147,0.0399999,0.03999999875,-9.769542749999975,0.019942739512751415,-0.14473139000042679,-0.012488163750023967,0.04439376108359611,-0.0047663297750112
0.8150000000000001,0.006865704020019513,-0.7789098339999837,0.0024015115100068773,-2.3602605500000116,0.0006790141760017054,1.564794769999982,0.7910650500000147,0.0399999,0.0399999995,-9.769455899999976,0.019875383935848718,-0.14617521200042813,-0.012569247900024044,0.04477423578512026,-0.0048042178700112344
0.8175,0.006932475960020432,-0.778854183999983,0.002425045485007201,-2.360300340000012,0.0006848499065017857,1.5647333149999811,0.7911154950000154,0.0399998995,0.03999999975,-9.76934109999995,0.019827709160742616,-0.14763558550044417,-0.012650789250024523,0.04515686873358073,-0.004842590570011701
0.8200000000000001,0.007001175240020496,-0.7787969559999829,0.0024492587400072236,-2.360341260000012,0.0006908541260017912,1.5646700599999812,0.7911673800000154,0.039999898,0.039999999,-9.76917039999995,0.01981939598917708,-0.14912906200044557,-0.012733245000024599,0.04554381817590811,-0.004881932480011737
0.8225,0.007069874520020556,-0.7787397279999829,0.002473471995007245,-2.360382180000012,0.0006968583455017966,1.564606804999981,0.7912192650000155,0.0399998965,0.03999999825,-9.768999699999949,0.01981108281761154,-0.1506225385004469,-0.012815700750024674,0.04593076761823547,-0.004921274390011773
0.8250000000000001,0.0071385738000206206,-0.7786824999999828,0.002497685250007268,-2.360423100000012,0.0007028625650018022,1.564543549999981,0.7912711500000156,0.039999895,0.0399999975,-9.768828999999949,0.019802769646046003,-0.1521160150004483,-0.01289815650002475,0.04631771706056285,-0.004960616300011809
0.8275,0.007207273080020682,-0.7786252719999828,0.0025218985050072893,-2.360464020000012,0.0007088667845018075,1.564480294999981,0.7913230350000156,0.0399998935,0.03999999675,-9.768658299999949,0.019794456474480467,-0.1536094915004496,-0.012980612250024823,0.04670466650289021,-0.004999958210011844
0.8300000000000001,0.007275972360020746,-0.7785680439999827,0.002546111760007312,-2.360504940000012,0.0007148710040018132,1.5644170399999808,0.7913749200000156,0.039999892,0.039999996,-9.768487599999949,0.01978614330291493,-0.155102968000451,-0.013063068000024899,0.04709161594521759,-0.005039300120011881
0.8325,0.007344671640020807,-0.7785108159999826,0.0025703250150073335,-2.360545860000012,0.0007208752235018185,1.564353784999981,0.7914268050000157,0.0399998905,0.03999999525,-9.768316899999949,0.01977783013134939,-0.15659644450045235,-0.013145523750024972,0.047478565387544955,-0.005078642030011916
0.835,0.0074153297600211086,-0.7784519859999824,0.00259522871000744,-2.3605879200000124,0.0007270506730018449,1.5642887599999806,0.7914801700000159,0.0399998897,0.0399999955,-9.768203999999974,0.019718266837273728,-0.15814344100046374,-0.013228771200024646,0.04786990173172621,-0.005119074730012075
0.8375,0.0074869673000201985,-0.7783923549999832,0.0026204776250071194,-2.360630550000012,0.0007333117375017653,1.5642228499999815,0.7915342750000153,0.039999889250000004,0.03999999625,-9.768119999999977,0.019633078481977956,-0.15971719750044372,-0.013312414500023583,0.04826343152683143,-0.005160052825011554
