rsonawane2002/My_IMU/logs_2/traj_502/imu_502.csv
time,j1,j2,j3,j4,j5,j6,j7,gripper1,gripper2,imu_ax,imu_ay,imu_az,imu_gx,imu_gy,imu_gz
2774.583333341051,0.00016700293,-0.785875,4.0107683e-05,-2.3551247,9.29385e-05,1.570997,0.786,0.04,0.04,-9.539818,-0.044907957315444946,0.05822852,2.0931397e-07,-0.0011641273740679026,7.510788e-07
2774.600000007718,0.00016700964,-0.78576016,4.0117466e-05,-2.3552213,9.2976195e-05,1.5709941,0.786,0.04,0.04,-9.834488,0.0006541649927385151,0.009065657,-1.8309426e-07,-0.0022376852575689554,1.0019061e-06
2774.6166666743848,0.00016704344,-0.7856541,4.014649e-05,-2.35531,9.302615e-05,1.5709913,0.786,0.04,0.04,-9.832008,0.0006981787155382335,0.0076973033,-8.273369e-07,-0.0032164030708372593,1.5001182e-06
2774.6333333410516,0.00016715053,-0.7855565,4.0227496e-05,-2.355391,9.311348e-05,1.5709884,0.786,0.04,0.04,-9.830248,0.0008051238837651908,0.0063032047,-1.7667439e-06,-0.004102733451873064,2.0619295e-06
2774.6500000077185,0.00016739794,-0.7854663,4.0407544e-05,-2.3554654,9.327562e-05,1.5709856,0.786,0.04,0.04,-9.828068,0.0009580752812325954,0.0051720687,-3.415873e-06,-0.004890755284577608,2.7202461e-06
2774.6666666743854,0.00016787145,-0.7853827,4.074652e-05,-2.3555336,9.356823e-05,1.5709827,0.786,0.04,0.039999995,-9.825676,0.0011540562845766544,0.004242996,-5.736407e-06,-0.005580801051110029,4.273161e-06
2774.6833333410523,0.00016867396,-0.78530484,4.1316063e-05,-2.355599,9.404436e-05,1.5709798,0.7860019,0.04,0.03999999,-9.823754,0.0013885515509173274,0.0032385602,-8.243767e-06,-0.00617188448086381,5.9529825e-06
2774.700000007719,0.00016992341,-0.7852322,4.2198306e-05,-2.355658,9.474648e-05,1.5709769,0.7860038,0.04,0.039999995,-9.821982,0.0016474565491080284,0.002404553,-1.9639732e-05,-0.006676534190773964,6.2924373e-06
2774.716666674386,0.00017175113,-0.78516376,4.3484284e-05,-2.355716,9.5754614e-05,1.5709739,0.78600574,0.04,0.039999995,-9.819628,0.001943195704370737,0.0016546017,-3.064298e-05,-0.0070731970481574535,7.666112e-06
2774.733333341053,0.00017430054,-0.7850988,4.5273588e-05,-2.3557708,9.713626e-05,1.5709705,0.78600955,0.04,0.04,-9.817769,0.0022365956101566553,0.0009938572,-4.0363e-05,-0.0073819831013679504,8.529811e-06
2774.75000000772,0.00017772538,-0.78503644,4.7672787e-05,-2.355822,9.898208e-05,1.5709639,0.78601336,0.04,0.04,-9.815884,0.002613838529214263,0.00027817674,-5.7382716e-05,-0.00759461335837841,1.048425e-05
2774.7666666743867,0.00018218895,-0.7849761,5.0795006e-05,-2.3558729,0.00010137873,1.5709571,0.7860191,0.04,0.04,-9.813735,0.002979057375341654,-0.00031071936,-7.180034e-05,-0.007715500425547361,1.27196345e-05
2774.7833333410535,0.00018786258,-0.7849173,5.4758806e-05,-2.3559234,0.00010443536,1.57095,0.7860267,0.04,0.03999999,-9.811916,0.0033720149658620358,-0.0009574804,-9.172073e-05,-0.007743844762444496,1.6785505e-05
2774.8000000077204,0.00019492528,-0.78485876,5.9688326e-05,-2.355974,0.000108217595,1.5709395,0.78603566,0.04,0.039999995,-9.80998,0.0037086601369082928,-0.0015898659,-0.00011665025,-0.007673929911106825,1.8788933e-05
2774.8166666743873,0.0002035617,-0.7848,6.5711574e-05,-2.3560247,0.00011282267,1.5709287,0.78604645,0.04,0.04,-9.808152,0.004170828033238649,-0.002237034,-0.00014218158,-0.007521631196141243,2.1161612e-05
2774.833333341054,0.000213962,-0.78474057,7.295986e-05,-2.3560758,0.000118349635,1.5709144,0.78605956,0.039999995,0.04,-9.806193,0.004595335107296705,-0.0029766713,-0.0001706803,-0.0072700511664152145,2.3308517e-05
2774.850000007721,0.00022632036,-0.78467953,8.15678e-05,-2.3561308,0.00012491191,1.5708992,0.7860748,0.03999999,0.04,-9.804202,0.005041141994297504,-0.0036726915,-0.0002025186,-0.006927426904439926,2.6919355e-05
2774.866666674388,0.00024083526,-0.78461623,9.1672766e-05,-2.3561885,0.00013261335,1.570881,0.7860926,0.039999988,0.039999995,-9.802763,0.005417956504970789,-0.0045380495,-0.00023663849,-0.006500245071947575,3.1118543e-05
2774.883333341055,0.00025770784,-0.78454983,0.00010341397,-2.3562472,0.00014155985,1.5708591,0.78611344,0.039999988,0.039999995,-9.800902,0.005940890870988369,-0.005416759,-0.00027274436,-0.005988147109746933,3.5625755e-05
2774.9000000077217,0.0002771418,-0.7844799,0.00011693236,-2.356312,0.0001518579,1.5708352,0.78613734,0.039999984,0.039999995,-9.798838,0.006389240734279156,-0.006416144,-0.00031322593,-0.005381660535931587,3.9563383e-05
2774.9166666743886,0.0002993424,-0.78440577,0.00013237013,-2.3563783,0.00016361664,1.5708083,0.78616476,0.03999998,0.03999999,-9.797594,0.006769787985831499,-0.00758496,-0.00035604136,-0.004696001764386892,4.4634857e-05
2774.9333333410555,0.00032451653,-0.78432673,0.00014987048,-2.3564517,0.00017694422,1.5707777,0.7861959,0.039999977,0.039999988,-9.795276,0.007324633188545704,-0.008792058,-0.0004029338,-0.003909750375896692,4.9949034e-05
2774.9500000077223,0.0003528716,-0.78424215,0.00016957696,-2.3565319,0.00019194979,1.5707431,0.7862309,0.039999973,0.039999984,-9.793904,0.007794991601258516,-0.0101501355,-0.0004528683,-0.0030512649100273848,5.5486584e-05
2774.966666674389,0.00038461565,-0.78415143,0.00019163353,-2.3566148,0.00020874225,1.5707043,0.78627,0.039999966,0.03999998,-9.792398,0.008265460841357708,-0.011694232,-0.000506415,-0.0021164079662412405,6.0346414e-05
2774.983333341056,0.00041995637,-0.78405404,0.00021618401,-2.356705,0.00022743193,1.5706612,0.7863135,0.039999958,0.039999973,-9.790617,0.00862259604036808,-0.013465241,-0.00056245713,-0.0010846034856513143,6.6197535e-05
2775.000000007723,0.0004591012,-0.78394943,0.00024337198,-2.3568025,0.0002481274,1.5706133,0.78636163,0.03999995,0.039999966,-9.788814,0.009209778159856796,-0.0152758155,-0.0006212282,2.3443399186362512e-05,7.213828e-05
2775.01666667439,0.0005022567,-0.783837,0.00027334064,-2.3569076,0.00027093702,1.57056,0.7864148,0.039999943,0.03999996,-9.787263,0.009677687659859657,-0.017330766,-0.00068319216,0.0012092806864529848,7.725659e-05
2775.0333333410567,0.00054962875,-0.78371567,0.00030623234,-2.357021,0.0002959698,1.5705023,0.78647316,0.039999936,0.039999954,-9.785682,0.010150990448892117,-0.019602958,-0.00074879656,0.002471757587045431,8.3205436e-05
2775.0500000077236,0.0006014212,-0.7835859,0.0003421885,-2.3571432,0.00032333276,1.5704392,0.78653693,0.039999932,0.03999995,-9.784591,0.01047474518418312,-0.02224334,-0.0008176406,0.0038098928052932024,8.9056564e-05
2775.0666666743905,0.0006578373,-0.7834464,0.00038134938,-2.3572774,0.00035313197,1.5703703,0.7866064,0.03999993,0.03999995,-9.782624,0.011074886657297611,-0.024862744,-0.0008892949,0.005228102207183838,9.387654e-05
2775.0833333410574,0.0007190775,-0.78329647,0.00042385422,-2.3574197,0.0003854743,1.5702958,0.7866817,0.039999925,0.039999947,-9.781534,0.011535221710801125,-0.027872803,-0.0009638575,0.006704612635076046,9.9295205e-05
2775.1000000077242,0.0007853406,-0.783136,0.00046984063,-2.3575714,0.00042046388,1.570215,0.7867632,0.039999925,0.039999947,-9.779941,0.01199599914252758,-0.031175457,-0.0010411367,0.008259578607976437,0.00010437456
2775.116666674391,0.00085682335,-0.7829644,0.000519445,-2.3577356,0.0004582032,1.5701282,0.7868512,0.039999925,0.03999995,-9.778802,0.01227433793246746,-0.034801155,-0.0011214738,0.009891084395349026,0.00010815061
2775.133333341058,0.00093371957,-0.7827813,0.00057280133,-2.3579097,0.0004987957,1.5700346,0.7869459,0.039999932,0.039999958,-9.777246,0.012894470244646072,-0.038525224,-0.0012049088,0.011583547107875347,0.00011223763
2775.150000007725,0.001016221,-0.7825861,0.0006300425,-2.358096,0.0005423413,1.5699346,0.7870473,0.039999936,0.039999966,-9.775643,0.01332845725119114,-0.04263513,-0.0012912075,0.0133514991030097,0.0001147995
2775.1666666743918,0.0011045166,-0.7823783,0.00069129944,-2.3582935,0.0005889406,1.5698276,0.787156,0.039999936,0.039999966,-9.7748785,0.013586355373263359,-0.047171623,-0.0013798327,0.015185962431132793,0.00011744362
2775.1833333410586,0.0011987924,-0.7821575,0.00075670116,-2.3585048,0.0006386902,1.5697132,0.7872719,0.039999932,0.039999966,-9.77297,0.014197029173374176,-0.051795285,-0.0014713464,0.01708880066871643,0.00011832142
2775.2000000077255,0.0012992315,-0.7819231,0.00082637434,-2.3587282,0.00069168734,1.5695914,0.7873954,0.03999993,0.039999966,-9.771824,0.014620383270084858,-0.05686316,-0.0015651895,0.019050810486078262,0.000118148884
2775.2166666743924,0.001406014,-0.7816748,0.0009004439,-2.3589652,0.0007480271,1.5694621,0.7875267,0.039999932,0.03999997,-9.770413,0.015041830018162727,-0.062273063,-0.0016613505,0.02108049765229225,0.00011764707
2775.2333333410593,0.0015193163,-0.7814118,0.0009790324,-2.3592167,0.0008078017,1.5693245,0.7876661,0.039999936,0.039999977,-9.769803,0.015231710858643055,-0.06816049,-0.0017603441,0.02317081019282341,0.00011495859
2775.250000007726,0.0016393131,-0.781134,0.00106226,-2.3594818,0.0008711032,1.5691789,0.78781354,0.03999994,0.03999998,-9.768089,0.015846464782953262,-0.0741712,-0.0018616081,0.02531682886183262,0.0001116217
2775.266666674393,0.0017661739,-0.78084105,0.0011502448,-2.3597612,0.0009380206,1.5690252,0.7879696,0.039999936,0.03999998,-9.766822,0.01623418740928173,-0.080673516,-0.0019645283,0.027524275705218315,0.00010577713
2775.28333334106,0.0019000662,-0.78053254,0.0012431028,-2.3600554,0.0010086426,1.568863,0.7881343,0.03999994,0.039999984,-9.765576,0.016622299328446388,-0.08754021,-0.002070437,0.029791682958602905,9.8948e-05
2775.300000007727,0.0020411524,-0.78020775,0.0013409466,-2.3603656,0.0010830545,1.568692,0.7883077,0.039999943,0.03999999,-9.765017,0.016760922968387604,-0.09494942,-0.0021784608,0.032118380069732666,8.925461e-05
2775.3166666743937,0.0021895936,-0.7798665,0.0014438881,-2.3606918,0.0011613407,1.5685121,0.78849036,0.039999943,0.039999995,-9.763324,0.017358137294650078,-0.102479175,-0.0022882647,0.034495044499635696,7.735599e-05
2775.3333333410606,0.0023455457,-0.7795084,0.0015520345,-2.361034,0.0012435908,1.5683231,0.78868216,0.039999947,0.04,-9.76222,0.017718007788062096,-0.110566914,-0.0024006036,0.036924876272678375,6.388677e-05
2775.3500000077274,0.0025091618,-0.77913314,0.0016654927,-2.3613923,0.0013298832,1.568125,0.78888327,0.039999943,0.039999995,-9.761127,0.018060488626360893,-0.11906919,-0.002514313,0.03940613940358162,4.781023e-05
2775.3666666743943,0.0026805913,-0.77874047,0.0017843664,-2.3617675,0.001420288,1.5679171,0.7890939,0.039999947,0.04,-9.760673,0.018137704581022263,-0.12815136,-0.0026295716,0.041941553354263306,2.8102488e-05
2775.383333341061,0.0028599794,-0.7783296,0.0019087562,-2.36216,0.0015148919,1.5677,0.7893144,0.039999943,0.04,-9.758899,0.018720008432865143,-0.13734369,-0.0027457841,0.04452497512102127,6.1347982e-06
2775.400000007728,0.0030474695,-0.7779008,0.0020387606,-2.36257,0.0016137605,1.5674729,0.7895448,0.039999943,0.04,-9.757863,0.019022934138774872,-0.14718093,-0.0028642262,0.047156739979982376,-1.9830351e-05
2775.416666674395,0.003243199,-0.7774533,0.0021744766,-2.3629973,0.001716967,1.5672358,0.78978544,0.039999936,0.04,-9.757533,0.019057055935263634,-0.15758637,-0.0029837072,0.049835484474897385,-4.9293056e-05
2775.433333341062,0.0034473022,-0.77698684,0.0023159962,-2.3634431,0.0018245726,1.5669886,0.7900363,0.03999993,0.039999995,-9.755714,0.019600167870521545,-0.16814977,-0.0031052507,0.05256052687764168,-8.237645e-05
2775.4500000077287,0.0036599103,-0.77650106,0.0024634104,-2.3639073,0.0019366584,1.5667312,0.7902976,0.03999992,0.039999995,-9.754702,0.019863326102495193,-0.17934617,-0.0032276332,0.055328771471977234,-0.000120250865
2775.4666666743956,0.003881151,-0.7759958,0.0026168083,-2.3643897,0.0020532927,1.5664634,0.7905695,0.039999917,0.03999999,-9.753703,0.0201324000954628,-0.19102378,-0.0033510716,0.05813906341791153,-0.00016061157
2775.4833333410625,0.004111147,-0.7754709,0.0027762745,-2.3648915,0.00217454,1.5661848,0.790852,0.03999991,0.039999988,-9.753401,0.020085083320736885,-0.20334762,-0.003475477,0.06099293380975723,-0.00020625214
2775.5000000077293,0.0043500187,-0.77492577,0.0029418927,-2.3654122,0.0023004632,1.5658954,0.79114544,0.039999906,0.039999984,-9.751625,0.02059629186987877,-0.21579695,-0.0036001715,0.06388548016548157,-0.00025569537
2775.516666674396,0.0045978827,-0.7743603,0.0031137427,-2.3659523,0.0024311228,1.5655951,0.79144996,0.039999906,0.039999988,-9.750574,0.020797520875930786,-0.22894557,-0.0037258968,0.06681742519140244,-0.0003109664
2775.533333341063,0.0048548505,-0.7737742,0.003291903,-2.3665125,0.0025665795,1.565284,0.79176563,0.0399999,0.039999984,-9.749555,0.02098614163696766,-0.24259035,-0.0038523003,0.06978622078895569,-0.0003714265
2775.55000000773,0.005121031,-0.77316725,0.00347645,-2.3670924,0.0027068898,1.5649617,0.7920927,0.039999895,0.039999984,-9.749375,0.02086794748902321,-0.25692132,-0.0039792308,0.07279111444950104,-0.0004373528
2775.566666674397,0.0053965305,-0.77253926,0.0036674552,-2.3676925,0.0028521086,1.5646282,0.7924311,0.03999989,0.03999998,-9.747476,0.02131812646985054,-0.27140954,-0.0041068974,0.07583196461200714,-0.00050816464
2775.5833333410637,0.005681449,-0.77188957,0.003864989,-2.3683128,0.0030022883,1.5642835,0.7927813,0.03999989,0.039999984,-9.746405,0.021445948630571365,-0.28658974,-0.0042349063,0.07890806347131729,-0.0005858685
2775.6000000077306,0.0059758844,-0.7712185,0.004069119,-2.3689542,0.0031574813,1.5639273,0.79314286,0.03999989,0.039999988,-9.745352,0.021558381617069244,-0.3023312,-0.004363731,0.08201570063829422,-0.0006698448
2775.6166666743975,0.0062799286,-0.7705256,0.004279911,-2.3696165,0.0033177373,1.5635592,0.7935164,0.039999887,0.039999988,-9.745188,0.021342815831303596,-0.31875527,-0.004491294,0.08515334129333496,-0.0007603699
2775.6333333410644,0.0065936735,-0.7698106,0.004497426,-2.3702993,0.0034831036,1.5631795,0.7939019,0.039999887,0.03999999,-9.743202,0.021715562790632248,-0.33534375,-0.0046197777,0.08832086622714996,-0.0008578028
2775.6500000077313,0.006917206,-0.76907355,0.004721726,-2.3710032,0.003653626,1.5627879,0.79429936,0.03999989,0.04,-9.742029,0.021762747317552567,-0.35267818,-0.0047481605,0.09151890873908997,-0.0009623887
2775.666666674398,0.0072506093,-0.768314,0.004952867,-2.3717287,0.003829349,1.5623844,0.79470885,0.03999989,0.04,-9.741755,0.021467916667461395,-0.37073714,-0.004876147,0.09474574774503708,-0.0010743727
2775.683333341065,0.007593961,-0.76753193,0.005190906,-2.3724759,0.0040103267,1.5619689,0.79513055,0.039999895,0.04,-9.739697,0.021779431030154228,-0.3889625,-0.005003274,0.09799811244010925,-0.0011925198
2775.700000007732,0.007947336,-0.76672703,0.0054358924,-2.373245,0.0041965838,1.5615413,0.79556465,0.039999884,0.039999995,-9.738507,0.02174006588757038,-0.4079411,-0.0051300405,0.10127536207437515,-0.0013202218
2775.7166666743988,0.0083108125,-0.7658992,0.0056878794,-2.374036,0.0043881433,1.5611014,0.7960111,0.03999988,0.04,-9.7372875,0.02166987583041191,-0.42748737,-0.0052563655,0.10457544028759003,-0.0014570875
2775.7333333410656,0.0086844545,-0.76504815,0.005946914,-2.3748493,0.004585057,1.5606494,0.79647,0.03999988,0.04,-9.736919,0.02126142382621765,-0.4477839,-0.0053817965,0.10789800435304642,-0.001601759
2775.7500000077325,0.009068325,-0.7641741,0.00621304,-2.3756845,0.0047873715,1.5601851,0.79694146,0.039999876,0.04,-9.734701,0.021461496129631996,-0.4682828,-0.005506365,0.11124170571565628,-0.0017543639
2775.7666666743994,0.00946249,-0.76327646,0.0064863013,-2.3765426,0.0049951035,1.5597081,0.7974255,0.039999872,0.04,-9.73328,0.02130049653351307,-0.4894957,-0.0056301015,0.11460813879966736,-0.0019170372
2775.7833333410663,0.009867005,-0.7623552,0.0067667374,-2.3774226,0.005208279,1.5592189,0.79792225,0.03999987,0.04,-9.7319355,0.021111028268933296,-0.51132584,-0.0057521146,0.11798971146345139,-0.0020891083
2775.800000007733,0.010281922,-0.76141036,0.0070543867,-2.3783255,0.005426934,1.5587168,0.79843193,0.039999865,0.04,-9.7312975,0.020560456439852715,-0.5339276,-0.0058731576,0.1213933452963829,-0.0022709554
2775.8166666744,0.010707296,-0.7604418,0.0073492844,-2.3792505,0.005651097,1.5582019,0.79895437,0.039999858,0.039999995,-9.728903,0.020623739808797836,-0.55669254,-0.005993478,0.12481003254652023,-0.002462851
2775.833333341067,0.011143174,-0.7594493,0.007651463,-2.3801985,0.0058807926,1.5576745,0.7994897,0.039999854,0.039999995,-9.727211,0.020326027646660805,-0.5802332,-0.0061117187,0.12824517488479614,-0.0026651581
2775.850000007734,0.011589599,-0.7584328,0.007960954,-2.3811696,0.006116045,1.5571344,0.800038,0.039999854,0.04,-9.725552,0.019984636455774307,-0.604389,-0.0062284814,0.13169534504413605,-0.002877918
2775.8666666744007,0.012046614,-0.75739205,0.008277784,-2.3821633,0.006356875,1.5565816,0.80059934,0.03999985,0.039999995,-9.724773,0.019274339079856873,-0.6293026,-0.006343604,0.13515745103359222,-0.0031007698
2775.8833333410676,0.012514256,-0.7563273,0.008601979,-2.3831801,0.006603301,1.556016,0.8011737,0.039999846,0.039999995,-9.721997,0.019175641238689423,-0.6544278,-0.006456957,0.13863293826580048,-0.0033357495
2775.9000000077344,0.012992557,-0.75523823,0.008933568,-2.3842208,0.0068553407,1.5554373,0.8017611,0.03999984,0.03999999,-9.720054,0.018707964569330215,-0.68031436,-0.0065682484,0.14212042093276978,-0.0035821928
2775.9166666744013,0.013481549,-0.75412494,0.00927257,-2.385285,0.0071130116,1.5548458,0.80236155,0.039999835,0.03999999,-9.719121,0.017858276143670082,-0.7070128,-0.0066770515,0.14561374485492706,-0.003840234
2775.933333341068,0.013981262,-0.7529872,0.009619004,-2.386372,0.0073763267,1.5542413,0.80297524,0.039999828,0.039999988,-9.716092,0.017628531903028488,-0.73389095,-0.0067833066,0.1491163671016693,-0.0041103186
2775.950000007735,0.014491718,-0.7518249,0.009972886,-2.3874826,0.0076453,1.5536238,0.8036021,0.03999982,0.039999984,-9.713904,0.01701602339744568,-0.7615691,-0.0068874112,0.1526261866092682,-0.0043926244
2775.966666674402,0.0150129385,-0.7506383,0.010334229,-2.3886163,0.007919943,1.5529933,0.80424213,0.039999817,0.03999998,-9.711608,0.016353972256183624,-0.78984535,-0.0069888667,0.15614286065101624,-0.0046866075
2775.983333341069,0.015544941,-0.7494271,0.010703046,-2.3897734,0.008200261,1.5523497,0.80489546,0.03999981,0.039999977,-9.710118,0.015293927863240242,-0.81891114,-0.0070877695,0.15966704487800598,-0.0049942518
2776.0000000077357,0.016087744,-0.7481915,0.011079348,-2.3909533,0.008486267,1.5516931,0.805562,0.0399998,0.039999973,-9.706623,0.014851663261651993,-0.84816605,-0.0071837287,0.1631966084241867,-0.0053149606
2776.0166666744026,0.016641352,-0.74693114,0.011463143,-2.3921568,0.008777966,1.5510234,0.8062418,0.039999794,0.03999997,-9.703928,0.014018750749528408,-0.8781957,-0.007276734,0.16673171520233154,-0.0056489427
2776.0333333410695,0.017205779,-0.7456462,0.011854437,-2.393384,0.0090753585,1.5503405,0.80693483,0.039999783,0.03999996,-9.701211,0.013123909942805767,-0.9088494,-0.0073666517,0.17026785016059875,-0.00599647
2776.0500000077363,0.017781036,-0.74433666,0.012253235,-2.3946347,0.009378447,1.5496448,0.80764127,0.039999776,0.039999958,-9.699253,0.0118368836119771,-0.9402806,-0.00745284,0.17380525171756744,-0.0063576763
2776.066666674403,0.018367112,-0.7430026,0.01265954,-2.3959093,0.009687241,1.5489359,0.8083613,0.03999977,0.03999995,-9.695311,0.011154836043715477,-0.97190946,-0.007536345,0.17734289169311523,-0.006732013
2776.08333334107,0.018964015,-0.7416439,0.0130733475,-2.397207,0.010001732,1.5482141,0.80909467,0.039999764,0.03999995,-9.69213,0.01006032433360815,-1.0043207,-0.0076176804,0.1808798760175705,-0.0071216165
2776.100000007737,0.019571738,-0.74026054,0.013494658,-2.3985276,0.010321919,1.5474789,0.8098414,0.03999976,0.03999995,-9.688793,0.008905860595405102,-1.0373368,-0.007695956,0.18441608548164368,-0.0075254375
2776.116666674404,0.02019027,-0.7388527,0.013923464,-2.3998725,0.010647798,1.5467303,0.8106006,0.039999753,0.039999947,-9.686138,0.007350236177444458,-1.0711278,-0.007770407,0.1879519671201706,-0.007944041
2776.1333333410707,0.020819614,-0.7374202,0.014359762,-2.4012406,0.010979363,1.5459692,0.8113732,0.039999753,0.03999995,-9.681676,0.006380192935466766,-1.105096,-0.007837361,0.19147942960262299,-0.0083772065
2776.1500000077376,0.021459745,-0.7359632,0.014803541,-2.4026325,0.011316611,1.545195,0.8121592,0.039999753,0.039999954,-9.677811,0.005003985017538071,-1.139887,-0.007901182,0.19500550627708435,-0.008825463
2776.1666666744045,0.022110658,-0.73448175,0.015254788,-2.4040477,0.011659529,1.5444075,0.81295836,0.039999753,0.039999954,-9.674785,0.0032293610274791718,-1.1754396,-0.007961388,0.1985238641500473,-0.009289006
2776.1833333410714,0.022772325,-0.7329756,0.015713496,-2.4054863,0.012008111,1.5436071,0.81377065,0.03999975,0.039999954,-9.6696825,0.0020298268646001816,-1.211171,-0.0080169905,0.20203539729118347,-0.009766987
2776.2000000077383,0.023444733,-0.7314451,0.01617965,-2.406948,0.012362344,1.5427938,0.81459624,0.039999742,0.03999995,-9.665319,0.0004126299172639847,-1.2477065,-0.008067859,0.20553892850875854,-0.010261273
2776.216666674405,0.024127856,-0.7298904,0.016653227,-2.4084327,0.0127222175,1.5419675,0.8154349,0.039999735,0.039999947,-9.660769,-0.0012900140136480331,-1.2847965,-0.008114584,0.20903293788433075,-0.010771181
2776.233333341072,0.024821665,-0.72831124,0.017134218,-2.4099405,0.01308771,1.5411283,0.8162867,0.039999727,0.039999943,-9.656794,-0.003392612561583519,-1.3226457,-0.008156303,0.21252311766147614,-0.011297191
2776.250000007739,0.025526132,-0.72670823,0.017622592,-2.4114718,0.013458814,1.5402763,0.8171516,0.039999727,0.039999943,-9.6509495,-0.004948468878865242,-1.3607004,-0.008193182,0.21600064635276794,-0.011838209
2776.2666666744058,0.026241224,-0.7250808,0.018118339,-2.413026,0.013835508,1.5394114,0.8180295,0.039999723,0.039999943,-9.645772,-0.0069200340658426285,-1.3994685,-0.0082253525,0.21946720778942108,-0.012396129
2776.2833333410726,0.026966907,-0.72342926,0.018621422,-2.414603,0.0142177725,1.5385337,0.8189205,0.03999972,0.039999943,-9.640346,-0.008982768282294273,-1.4388536,-0.008252315,0.22292135655879974,-0.012970228
2776.3000000077395,0.027703134,-0.7217538,0.019131819,-2.4162028,0.01460559,1.5376434,0.81982434,0.039999716,0.039999943,-9.635555,-0.011450152844190598,-1.4789618,-0.008274223,0.22636272013187408,-0.013560647
2776.3166666744064,0.028449884,-0.72005457,0.019649506,-2.4178257,0.014998942,1.5367402,0.8207411,0.039999716,0.039999943,-9.62876,-0.013395065441727638,-1.5192482,-0.008290528,0.22979195415973663,-0.01416679
2776.3333333410733,0.029207101,-0.7183314,0.020174455,-2.4194713,0.015397796,1.5358245,0.8216707,0.039999712,0.039999943,-9.622699,-0.015761440619826317,-1.5602574,-0.008301423,0.23320284485816956,-0.014790027
2776.35000000774,0.029974747,-0.71658456,0.020706624,-2.42114,0.015802138,1.5348961,0.82261306,0.039999712,0.039999947,-9.616275,-0.018230419605970383,-1.6018516,-0.008306641,0.23660022020339966,-0.015429982
2776.366666674407,0.030752763,-0.7148141,0.02124599,-2.4228315,0.016211936,1.5339551,0.8235682,0.03999971,0.039999943,-9.610549,-0.021098965778946877,-1.6441474,-0.008306039,0.23997804522514343,-0.016086463
2776.383333341074,0.0315411,-0.7130201,0.02179251,-2.424545,0.016627165,1.5330019,0.824536,0.0399997,0.03999994,-9.60286,-0.023477859795093536,-1.6866177,-0.0082999095,0.24333523213863373,-0.016758697
2776.400000007741,0.03233972,-0.7112028,0.022346158,-2.4262812,0.017047796,1.5320361,0.8255165,0.039999697,0.03999994,-9.595613,-0.026276899501681328,-1.7298316,-0.008287605,0.24667681753635406,-0.01744859
2776.4166666744077,0.033148564,-0.7093624,0.022906885,-2.4280396,0.017473796,1.5310578,0.82650936,0.039999694,0.039999936,-9.589014,-0.029476433992385864,-1.7737176,-0.008269551,0.2499975860118866,-0.018154427
2776.4333333410746,0.033967555,-0.70749867,0.023474652,-2.4298193,0.017905142,1.5300673,0.8275147,0.039999694,0.03999994,-9.580429,-0.03221869468688965,-1.8177654,-0.008244403,0.2532978653907776,-0.0188777
2776.4500000077414,0.03479665,-0.70561206,0.024049427,-2.4316213,0.018341796,1.5290645,0.8285325,0.039999694,0.03999994,-9.572315,-0.03536181524395943,-1.8625343,-0.008213454,0.2565784454345703,-0.019616917
2776.4666666744083,0.035635788,-0.7037027,0.024631152,-2.433445,0.018783728,1.5280498,0.8295626,0.03999969,0.03999994,-9.564027,-0.03864193707704544,-1.9077924,-0.008176231,0.2598353624343872,-0.020373765
2776.483333341075,0.036484893,-0.70177066,0.025219796,-2.4352903,0.019230906,1.5270228,0.8306049,0.039999686,0.039999936,-9.556122,-0.04231204092502594,-1.9537377,-0.008132095,0.26307231187820435,-0.02114639
2776.500000007742,0.037343904,-0.6998163,0.025815306,-2.4371564,0.019683288,1.5259839,0.8316594,0.03999969,0.039999943,-9.546356,-0.04556068032979965,-1.9998062,-0.008081258,0.2662838399410248,-0.021936571
2776.516666674409,0.03821275,-0.6978396,0.026417632,-2.4390445,0.020140834,1.5249329,0.83272606,0.039999686,0.039999943,-9.536955,-0.04921858385205269,-2.0465503,-0.00802376,0.26947566866874695,-0.022743601
2776.533333341076,0.039091375,-0.69584066,0.027026726,-2.4409542,0.020603515,1.5238702,0.8338044,0.039999686,0.039999947,-9.52739,-0.05299896374344826,-2.093763,-0.007960113,0.27263832092285156,-0.023566972
2776.5500000077427,0.03997968,-0.69381964,0.027642537,-2.4428844,0.021071287,1.5227963,0.8348947,0.039999686,0.03999995,-9.518276,-0.05719166621565819,-2.1416717,-0.007888057,0.27577322721481323,-0.024406869
2776.5666666744096,0.040877603,-0.6917769,0.02826501,-2.444836,0.021544114,1.5217105,0.83599687,0.039999682,0.039999947,-9.507097,-0.060985807329416275,-2.1896865,-0.007809154,0.27888599038124084,-0.025262339
2776.5833333410765,0.041785065,-0.6897125,0.028894095,-2.4468074,0.022021942,1.5206134,0.83711094,0.03999968,0.039999947,-9.496506,-0.06519025564193726,-2.2383137,-0.007723486,0.2819678783416748,-0.026134936
2776.6000000077433,0.04270197,-0.68762666,0.02952973,-2.4487996,0.02250474,1.5195049,0.83823663,0.03999968,0.039999947,-9.485366,-0.06954355537891388,-2.2873971,-0.0076314127,0.2850262522697449,-0.027023876
2776.61666667441,0.04362825,-0.6855197,0.030171864,-2.4508126,0.022992468,1.5183849,0.83937347,0.03999968,0.03999995,-9.474731,-0.07427265495061874,-2.337097,-0.0075320047,0.28805476427078247,-0.027928004
2776.633333341077,0.044563826,-0.6833914,0.030820431,-2.452846,0.023485074,1.5172539,0.8405219,0.039999675,0.03999995,-9.462313,-0.07867178320884705,-2.3868918,-0.0074238647,0.29105105996131897,-0.02884876
2776.650000007744,0.045508604,-0.68124235,0.031475388,-2.4548988,0.023982506,1.5161116,0.84168154,0.039999675,0.03999995,-9.450207,-0.08345542103052139,-2.4373202,-0.007308913,0.294015109539032,-0.029784491
2776.666666674411,0.046462506,-0.6790724,0.03213666,-2.4569714,0.024484718,1.5149585,0.8428523,0.039999675,0.039999954,-9.438274,-0.08863826096057892,-2.4882746,-0.0071861167,0.29695165157318115,-0.030736724
2776.6833333410777,0.047425427,-0.676882,0.032804176,-2.4590633,0.024991672,1.5137943,0.84403414,0.039999682,0.03999996,-9.424691,-0.09349789470434189,-2.5393825,-0.0070551513,0.2998552620410919,-0.031703483
2776.7000000077446,0.048397277,-0.6746716,0.033477876,-2.4611747,0.02550331,1.5126194,0.84522694,0.03999969,0.039999973,-9.411317,-0.0987575352191925,-2.591002,-0.00691664,0.30272719264030457,-0.032686353
2776.7166666744115,0.04937796,-0.6724411,0.034157697,-2.463305,0.026019583,1.5114337,0.8464306,0.039999694,0.039999977,-9.397616,-0.10416586697101593,-2.643016,-0.006770234,0.3055651783943176,-0.03368325
2776.7333333410784,0.050367385,-0.6701909,0.03484358,-2.4654539,0.02654044,1.5102376,0.847645,0.039999697,0.03999998,-9.384065,-0.10996231436729431,-2.6955671,-0.006616134,0.30837205052375793,-0.034695275
2776.7500000077453,0.05136545,-0.6679208,0.03553545,-2.467622,0.027065825,1.5090307,0.84887,0.0399997,0.039999988,-9.368819,-0.11549218744039536,-2.7481997,-0.0064540724,0.3111456632614136,-0.035722554
2776.766666674412,0.05237206,-0.6656314,0.036233246,-2.4698083,0.027595693,1.5078137,0.85010535,0.039999697,0.03999999,-9.353941,-0.121404729783535,-2.8013597,-0.0062839217,0.3138783872127533,-0.036765713
2776.783333341079,0.0533871,-0.66332275,0.036936875,-2.4720132,0.028129993,1.5065867,0.851351,0.0399997,0.039999984,-9.338434,-0.12744717299938202,-2.8548687,-0.0061052926,0.3165796995162964,-0.037817314
2776.800000007746,0.054410476,-0.6609954,0.037646275,-2.4742358,0.028668659,1.5053495,0.8526069,0.039999705,0.04,-9.323274,-0.1339515894651413,-2.908868,-0.0059182807,0.31924131512641907,-0.038893066
2776.8166666744128,0.055442084,-0.6586496,0.03836138,-2.4764767,0.029211652,1.5041022,0.8538729,0.039999705,0.04,-9.306287,-0.140123188495636,-2.9628882,-0.0057234303,0.32186949253082275,-0.039975423
2776.8333333410797,0.056481816,-0.65628475,0.03908212,-2.478735,0.029758912,1.5028454,0.85514873,0.03999971,0.04,-9.289632,-0.1467132270336151,-3.0173805,-0.0055202944,0.3244565725326538,-0.041070685
2776.8500000077465,0.05752956,-0.6539021,0.039808407,-2.4810107,0.030310387,1.5015788,0.8564345,0.03999971,0.04,-9.272442,-0.15348568558692932,-3.0722682,-0.0053083794,0.327004998922348,-0.04217892
2776.8666666744134,0.05858521,-0.65150166,0.04054017,-2.483304,0.030866016,1.5003027,0.85773,0.039999705,0.04,-9.255309,-0.1606147140264511,-3.1274812,-0.005088536,0.32951614260673523,-0.043300886
2776.8833333410803,0.05964866,-0.6490837,0.04127731,-2.485614,0.031425722,1.4990172,0.859035,0.0399997,0.04,-9.236719,-0.16755974292755127,-3.182775,-0.004860535,0.33198437094688416,-0.04443552
2776.900000007747,0.06071977,-0.64664817,0.042019792,-2.4879398,0.03198947,1.4977224,0.86034936,0.03999969,0.04,-9.218096,-0.1748627871274948,-3.2384727,-0.0046243416,0.33441483974456787,-0.045582313
2776.916666674414,0.06179846,-0.6441957,0.042767506,-2.4902823,0.032557156,1.4964186,0.861673,0.03999968,0.04,-9.199453,-0.18252839148044586,-3.2945602,-0.0043792883,0.33680781722068787,-0.046742175
2776.933333341081,0.062884584,-0.64172643,0.043520354,-2.4926412,0.033128694,1.4951056,0.86300576,0.03999967,0.04,-9.179427,-0.19002459943294525,-3.3506606,-0.0041259374,0.33915916085243225,-0.047912337
2776.950000007748,0.063978046,-0.6392405,0.044278298,-2.4950159,0.033704095,1.4937837,0.86434746,0.039999664,0.04,-9.159459,-0.19786642491817474,-3.407132,-0.0038644536,0.34146684408187866,-0.04909142
2776.9666666744147,0.06507871,-0.63673806,0.045041233,-2.4974065,0.03428329,1.4924536,0.8656979,0.039999656,0.04,-9.138944,-0.2059134840965271,-3.4638503,-0.0035941533,0.3437318801879883,-0.050281152
2776.9833333410816,0.06618644,-0.6342198,0.04580905,-2.4998121,0.034866173,1.4911147,0.8670571,0.03999965,0.04,-9.118458,-0.21429584920406342,-3.520929,-0.0033152788,0.34595391154289246,-0.05148145
2777.0000000077484,0.06730115,-0.6316857,0.0465817,-2.5022326,0.0354527,1.4897671,0.86842495,0.039999645,0.04,-9.096461,-0.2225571721792221,-3.5779529,-0.0030284747,0.3481336534023285,-0.052690607
2777.0166666744153,0.068422705,-0.6291362,0.047359075,-2.5046678,0.036042802,1.4884114,0.8698009,0.039999645,0.04,-9.074453,-0.2311716079711914,-3.6353076,-0.002733914,0.3502683937549591,-0.053909034
2777.033333341082,0.06955097,-0.6265716,0.048141103,-2.5071175,0.036636423,1.487048,0.8711853,0.03999964,0.04,-9.051926,-0.23997926712036133,-3.6928477,-0.0024296443,0.3523620367050171,-0.055136908
2777.050000007749,0.07068581,-0.6239919,0.048927687,-2.5095813,0.03723348,1.4856765,0.8725776,0.039999634,0.04,-9.02936,-0.24909666180610657,-3.750661,-0.0021180043,0.35441160202026367,-0.05637381
2777.066666674416,0.07182712,-0.62139785,0.049718738,-2.5120592,0.03783393,1.4842974,0.8739777,0.039999627,0.04,-9.005438,-0.2581484913825989,-3.8084598,-0.0017974272,0.3564148545265198,-0.057617
2777.083333341083,0.07297474,-0.6187894,0.05051417,-2.5145512,0.03843768,1.4829106,0.8753855,0.03999962,0.04,-8.981412,-0.2675286531448364,-3.8664808,-0.001468237,0.3583734929561615,-0.058868196
2777.1000000077497,0.07412857,-0.61616695,0.05131389,-2.5170565,0.039044667,1.4815164,0.876801,0.03999961,0.04,-8.956913,-0.2770991325378418,-3.9246624,-0.0011305601,0.3602849543094635,-0.060126256
2777.1166666744166,0.075288475,-0.6135309,0.052117802,-2.5195744,0.039654814,1.4801149,0.87822396,0.039999604,0.04,-8.932247,-0.28696566820144653,-3.9830496,-0.00078540354,0.36214983463287354,-0.06139045
2777.1333333410835,0.0764543,-0.61088127,0.05292582,-2.5221052,0.040268052,1.4787064,0.87965405,0.0399996,0.04,-8.906256,-0.2968220114707947,-4.0413785,-0.00043228728,0.36397019028663635,-0.06265994
2777.1500000077504,0.077625915,-0.60821867,0.053737845,-2.524649,0.040884305,1.4772905,0.8810911,0.039999597,0.04,-8.880165,-0.30699262022972107,-4.0999036,-7.062175e-05,0.3657432794570923,-0.0639362
2777.1666666744172,0.07880321,-0.60554326,0.05455379,-2.527204,0.041503508,1.4758677,0.8825354,0.039999586,0.04,-8.853951,-0.3174193799495697,-4.1585736,0.00029966925,0.3674654960632324,-0.06521643
2777.183333341084,0.07998602,-0.60285556,0.055373553,-2.5297713,0.0421256,1.474438,0.88398623,0.03999958,0.04,-8.826368,-0.3278897702693939,-4.217182,0.00067643204,0.36914318799972534,-0.06650098
2777.200000007751,0.081174225,-0.6001558,0.05619704,-2.5323508,0.042750515,1.4730024,0.88544375,0.039999574,0.04,-8.798743,-0.3386171758174896,-4.275904,0.0010615475,0.3707706034183502,-0.06778751
2777.216666674418,0.082367666,-0.5974441,0.05702416,-2.534941,0.043378167,1.4715607,0.88690746,0.039999567,0.04,-8.770603,-0.34957513213157654,-4.334748,0.0014542565,0.3723507225513458,-0.06907995
2777.2333333410847,0.08356621,-0.59472096,0.057854798,-2.537543,0.044008456,1.4701118,0.88837814,0.03999956,0.04,-8.742076,-0.3607584834098816,-4.393629,0.0018554856,0.3738851845264435,-0.07037355
2777.2500000077516,0.0847697,-0.59198654,0.05868887,-2.5401547,0.04464134,1.4686582,0.8898546,0.039999552,0.04,-8.712735,-0.37202221155166626,-4.4524207,0.0022607923,0.37536031007766724,-0.07166952
2777.2666666744185,0.085978046,-0.5892414,0.059526276,-2.542777,0.04527673,1.4671978,0.891337,0.039999552,0.04,-8.682749,-0.38355809450149536,-4.5113378,0.0026747172,0.37679773569107056,-0.072968
2777.2833333410854,0.08719111,-0.58648556,0.06036693,-2.5454097,0.045914557,1.4657329,0.89282507,0.039999545,0.04,-8.652501,-0.395274817943573,-4.5701756,0.0030959616,0.3781799376010895,-0.07426699
2777.3000000077523,0.088408716,-0.5837196,0.06121071,-2.5480516,0.046554733,1.464261,0.8943186,0.039999533,0.04,-8.621912,-0.40723779797554016,-4.6291323,0.0035242543,0.37951594591140747,-0.0755672
2777.316666674419,0.08963068,-0.58094364,0.06205753,-2.5507035,0.04719719,1.462785,0.8958169,0.039999526,0.04,-8.590319,-0.4192970395088196,-4.687874,0.003960443,0.38079580664634705,-0.076865934
2777.333333341086,0.0908569,-0.57815844,0.06290727,-2.5533645,0.04784184,1.4613043,0.8973206,0.03999952,0.04,-8.558476,-0.43159347772598267,-4.746729,0.0044056154,0.382027804851532,-0.078164995
2777.350000007753,0.09208723,-0.57536376,0.06375984,-2.5560336,0.048488628,1.4598172,0.89882934,0.039999507,0.04,-8.526022,-0.4440724551677704,-4.805458,0.0048566656,0.3832123577594757,-0.07946208
2777.36666667442,0.09332152,-0.5725602,0.064615145,-2.5587115,0.04913747,1.458326,0.900343,0.039999504,0.04,-8.493202,-0.4567638039588928,-4.864151,0.0053146104,0.38434237241744995,-0.08075628
2777.3833333410867,0.094559595,-0.5697483,0.06547306,-2.5613976,0.049788263,1.4568307,0.9018611,0.039999492,0.04,-8.459608,-0.46962103247642517,-4.922753,0.0057780896,0.38542187213897705,-0.082049586
2777.4000000077535,0.09580135,-0.5669281,0.06633353,-2.564092,0.05044097,1.4553313,0.90338415,0.039999485,0.04,-8.425579,-0.48266229033470154,-4.981254,0.0062490203,0.38645419478416443,-0.08333864
2777.4166666744204,0.09704663,-0.56410015,0.06719641,-2.5667942,0.05109549,1.4538276,0.9049112,0.039999478,0.04,-8.391312,-0.49590742588043213,-5.0397224,0.0067233928,0.3874317407608032,-0.08462451
2777.4333333410873,0.098295264,-0.56126463,0.068061605,-2.5695035,0.051751725,1.4523197,0.90644234,0.039999466,0.04,-8.356173,-0.5093334913253784,-5.0979805,0.0072048334,0.3883569836616516,-0.085907325
2777.450000007754,0.0995471,-0.5584219,0.06892902,-2.5722191,0.0524096,1.4508079,0.9079773,0.039999463,0.04,-8.320644,-0.5229368209838867,-5.1561513,0.007692419,0.38922953605651855,-0.087184355
2777.466666674421,0.10080201,-0.5555724,0.06979854,-2.574941,0.05306907,1.4492924,0.90951604,0.039999455,0.04,-8.284503,-0.5367125868797302,-5.214172,0.008185977,0.39005276560783386,-0.088454515
2777.483333341088,0.10205982,-0.55271643,0.070670046,-2.577669,0.053730033,1.4477735,0.91105807,0.039999444,0.04,-8.248,-0.5506672859191895,-5.27206,0.008684539,0.39082515239715576,-0.089720316
2777.500000007755,0.10332038,-0.5498544,0.071543485,-2.580403,0.054392394,1.446251,0.9126035,0.039999437,0.04,-8.210833,-0.5648238658905029,-5.329739,0.00918949,0.3915459215641022,-0.09097927
2777.5166666744217,0.10458356,-0.54698664,0.07241868,-2.5831428,0.055056106,1.4447253,0.91415226,0.039999433,0.04,-8.17333,-0.5791311860084534,-5.3872647,0.009699085,0.39221203327178955,-0.09222896
2777.5333333410886,0.105849214,-0.54411346,0.07329556,-2.5858884,0.055721067,1.4431965,0.9157037,0.039999418,0.04,-8.135244,-0.5936266183853149,-5.4445987,0.010212531,0.392826110124588,-0.09347253
2777.5500000077554,0.10711715,-0.54123515,0.07417401,-2.588638,0.05638719,1.4416655,0.91725814,0.039999414,0.04,-8.096825,-0.6082333326339722,-5.501763,0.010732104,0.39338335394859314,-0.094705954
2777.5666666744223,0.10838722,-0.5383521,0.075053945,-2.5913923,0.0570544,1.4401318,0.918815,0.0399994,0.04,-8.0576315,-0.6231032013893127,-5.5586843,0.011254501,0.3938930630683899,-0.095930986
2777.583333341089,0.10965928,-0.5354646,0.07593523,-2.5941513,0.057722602,1.4385957,0.9203744,0.039999396,0.04,-8.018119,-0.6381113529205322,-5.6153827,0.011781903,0.39434921741485596,-0.09714807
2777.600000007756,0.110933185,-0.5325732,0.07681778,-2.5969136,0.05839174,1.4370575,0.92193586,0.03999939,0.04,-7.9781466,-0.653257429599762,-5.6718516,0.012312702,0.39475029706954956,-0.098353915
2777.616666674423,0.112208806,-0.52967817,0.07770148,-2.5996802,0.05906172,1.435517,0.9234994,0.039999366,0.04,-7.9375653,-0.6685088872909546,-5.7280574,0.012847758,0.39510276913642883,-0.09954894
2777.63333334109,0.11348593,-0.5267797,0.07858619,-2.6024487,0.05973249,1.4339751,0.9250648,0.03999936,0.04,-7.8967385,-0.6840381026268005,-5.7840147,0.013385775,0.39539673924446106,-0.100731075
2777.6500000077567,0.11476444,-0.52387834,0.079471834,-2.605221,0.060403924,1.4324317,0.9266318,0.03999934,0.04,-7.855131,-0.6996909976005554,-5.8397007,0.013926886,0.39564594626426697,-0.101905
2777.6666666744236,0.11604413,-0.52097434,0.08035831,-2.6079955,0.061075963,1.4308864,0.9282003,0.039999325,0.04,-7.8133154,-0.7153159379959106,-5.895098,0.014471162,0.39583921432495117,-0.10305634
2777.6833333410905,0.1173249,-0.51806813,0.08124549,-2.610772,0.061748512,1.4293404,0.9297699,0.0399993,0.04,-7.770995,-0.7313986420631409,-5.9501896,0.015017315,0.3959783613681793,-0.1042059
2777.7000000077574,0.11860657,-0.5151601,0.08213327,-2.61355,0.062421497,1.4277934,0.93134063,0.039999276,0.04,-7.7281847,-0.7474334239959717,-6.005001,0.0155668985,0.3960687220096588,-0.10533557
2777.7166666744242,0.11988897,-0.5122505,0.08302157,-2.6163301,0.06309481,1.4262447,0.9329122,0.03999926,0.039999995,-7.684955,-0.7636416554450989,-6.059473,0.01611793,0.3961074948310852,-0.10645098
2777.733333341091,0.12117196,-0.5093395,0.083910264,-2.6191113,0.06376838,1.4246957,0.9344844,0.03999925,0.039999995,-7.641287,-0.779888927936554,-6.113582,0.01667118,0.3960874676704407,-0.10755118
2777.750000007758,0.12245538,-0.50642806,0.084799215,-2.6218934,0.06444214,1.4231465,0.9360572,0.03999924,0.03999999,-7.597268,-0.7964717745780945,-6.1674533,0.017225543,0.3960171341896057,-0.10863466
2777.766666674425,0.12373908,-0.50351614,0.08568833,-2.6246758,0.065116,1.4215971,0.9376302,0.039999224,0.039999988,-7.552798,-0.8130844235420227,-6.220909,0.01778103,0.39589571952819824,-0.10970305
2777.7833333410917,0.1250229,-0.5006039,0.08657751,-2.6274583,0.065789856,1.4200476,0.93920326,0.039999217,0.03999999,-7.507846,-0.8298215866088867,-6.2740226,0.018338028,0.3957241475582123,-0.1107545
2777.8000000077586,0.1263067,-0.49769205,0.08746665,-2.630241,0.066463664,1.4184983,0.9407762,0.0399992,0.039999984,-7.462428,-0.846575915813446,-6.3267527,0.018895341,0.3954988121986389,-0.11178882
2777.8166666744255,0.12759027,-0.49478078,0.088355616,-2.633023,0.0671373,1.4169492,0.94234896,0.03999919,0.039999988,-7.4168987,-0.8636730909347534,-6.3791494,0.019452827,0.39522090554237366,-0.112804435
2777.8333333410924,0.12887351,-0.49187052,0.08924432,-2.635804,0.06781074,1.4154005,0.94392097,0.03999918,0.039999984,-7.3707876,-0.8807698488235474,-6.4311395,0.020010399,0.3948925733566284,-0.11380109
2777.8500000077593,0.13015619,-0.48896158,0.090132646,-2.6385834,0.06848383,1.4138522,0.9454923,0.039999165,0.039999973,-7.324324,-0.8979753255844116,-6.4827185,0.020569142,0.3945118486881256,-0.114777595
2777.866666674426,0.13143829,-0.4860543,0.09102049,-2.641361,0.06915655,1.4123055,0.947063,0.03999915,0.039999973,-7.2772655,-0.9151608347892761,-6.533856,0.02112642,0.3940790891647339,-0.115736835
2777.883333341093,0.13271956,-0.48314917,0.091907725,-2.6441371,0.06982877,1.4107597,0.9486325,0.039999142,0.039999973,-7.2302065,-0.9327319860458374,-6.5846853,0.021682931,0.3936006724834442,-0.11667559
2777.90000000776,0.13399978,-0.48024637,0.09279426,-2.646911,0.07050045,1.409215,0.9502006,0.039999124,0.039999966,-7.1827197,-0.9502474665641785,-6.635033,0.022238676,0.39306870102882385,-0.117593706
2777.916666674427,0.13527893,-0.47734636,0.09367999,-2.6496818,0.07117146,1.4076718,0.95176744,0.039999112,0.03999996,-7.1346154,-0.9676991701126099,-6.684904,0.022792794,0.3924843966960907,-0.11848984
2777.9333333410937,0.13655676,-0.47444952,0.094564795,-2.65245,0.07184174,1.4061303,0.9533326,0.0399991,0.039999966,-7.0865703,-0.985578179359436,-6.7344294,0.023344995,0.39185261726379395,-0.11936573
2777.9500000077605,0.13783315,-0.47155604,0.095448546,-2.6552153,0.07251121,1.4045901,0.95489585,0.039999086,0.039999958,-7.0380597,-1.0033541917800903,-6.7834725,0.02389502,0.391169935464859,-0.12021834
2777.9666666744274,0.13910797,-0.4686665,0.09633119,-2.6579766,0.073179774,1.4030526,0.95645696,0.039999068,0.039999954,-6.989259,-1.021242618560791,-6.832063,0.02444297,0.3904319703578949,-0.121049784
2777.9833333410943,0.14038096,-0.4657811,0.09721256,-2.660734,0.073847376,1.4015167,0.958016,0.039999057,0.03999995,-6.939779,-1.0390186309814453,-6.880138,0.024988942,0.38964903354644775,-0.12185639
2778.000000007761,0.1416521,-0.46290016,0.098092586,-2.6634867,0.07451387,1.3999836,0.9595725,0.03999905,0.039999966,-6.8906384,-1.057222843170166,-6.9278436,0.025530959,0.3888131380081177,-0.122641906
2778.016666674428,0.1429211,-0.46002415,0.09897115,-2.6662352,0.07517927,1.3984534,0.9611264,0.039999038,0.039999958,-6.8408327,-1.075303316116333,-6.97504,0.026070222,0.3879323899745941,-0.12340065
2778.033333341095,0.14418788,-0.4571534,0.09984818,-2.6689782,0.07584343,1.396925,0.96267754,0.039999027,0.039999966,-6.7908735,-1.0934768915176392,-7.0217586,0.026605774,0.3870008587837219,-0.12413855
2778.050000007762,0.14545237,-0.4542882,0.10072353,-2.671716,0.07650628,1.3954,0.9642256,0.039999016,0.039999966,-6.7402263,-1.1114957332611084,-7.0678706,0.027137397,0.38602083921432495,-0.12484935
2778.0666666744287,0.14671427,-0.45142904,0.10159708,-2.6744487,0.07716777,1.3938785,0.9657708,0.03999901,0.03999996,-6.6900473,-1.1299439668655396,-7.1136785,0.027665589,0.38499322533607483,-0.12553331
2778.0833333410956,0.14797351,-0.4485761,0.102468766,-2.6771753,0.077827804,1.3923603,0.9673124,0.03999899,0.03999996,-6.6393747,-1.148282527923584,-7.1589303,0.028186994,0.3839157223701477,-0.1261948
2778.1000000077624,0.14922993,-0.44572976,0.103338465,-2.6798954,0.0784863,1.3908458,0.9688504,0.039998986,0.039999958,-6.588353,-1.1666392087936401,-7.203659,0.028705025,0.3827919065952301,-0.12682752
2778.1166666744293,0.15048333,-0.4428904,0.10420603,-2.6826093,0.07914316,1.3893347,0.97038454,0.039998967,0.03999996,-6.536744,-1.1848740577697754,-7.2477937,0.02921817,0.381622314453125,-0.12743756
2778.133333341096,0.1517336,-0.44005835,0.105071396,-2.6853168,0.07979831,1.3878272,0.9719147,0.039998956,0.03999996,-6.4857817,-1.2034895420074463,-7.291586,0.02972595,0.3804015815258026,-0.12801844
2778.150000007763,0.1529806,-0.43723395,0.10593444,-2.6880164,0.08045168,1.3863239,0.9734409,0.039998945,0.039999958,-6.43423,-1.2219579219818115,-7.3347683,0.030228062,0.3791309595108032,-0.128571
2778.16666667443,0.15422413,-0.4344176,0.10679508,-2.6907084,0.08110319,1.384825,0.97496295,0.039998926,0.039999958,-6.381978,-1.2402719259262085,-7.377357,0.030723913,0.3778168559074402,-0.12909919
2778.183333341097,0.15546411,-0.4316097,0.10765321,-2.693392,0.08175277,1.3833308,0.9764808,0.039998915,0.03999995,-6.3303933,-1.25898015499115,-7.419586,0.031212077,0.376458078622818,-0.12959689
2778.2000000077637,0.15670036,-0.42881033,0.10850871,-2.6960678,0.082400344,1.3818411,0.9779934,0.0399989,0.03999995,-6.278208,-1.277541995048523,-7.461181,0.031692754,0.37505677342414856,-0.13006903
2778.2166666744306,0.15793273,-0.42602003,0.1093615,-2.6987352,0.08304581,1.3803557,0.9795016,0.03999888,0.039999954,-6.2259994,-1.2960978746414185,-7.502265,0.032168794,0.3736075460910797,-0.1305138
2778.2333333410975,0.15916103,-0.42323908,0.11021146,-2.7013927,0.08368911,1.3788744,0.98100436,0.039998874,0.039999947,-6.173209,-1.3144091367721558,-7.5427127,0.03263543,0.3721100389957428,-0.13092516
2778.2500000077644,0.16038519,-0.42046776,0.1110585,-2.7040412,0.08433018,1.3773998,0.982502,0.039998855,0.039999943,-6.1209865,-1.3332133293151855,-7.582744,0.03309675,0.3705693483352661,-0.13131155
2778.2666666744312,0.16160499,-0.41770652,0.111902475,-2.7066803,0.08496891,1.37593,0.98399484,0.039998833,0.03999994,-6.0683327,-1.3517783880233765,-7.6222606,0.033549797,0.36899012327194214,-0.13166955
2778.283333341098,0.16282034,-0.4149556,0.112743355,-2.7093096,0.08560522,1.3744643,0.98548204,0.039998833,0.039999947,-6.0156193,-1.3703060150146484,-7.661146,0.033991363,0.3673643469810486,-0.13199623
2778.300000007765,0.16403107,-0.41221538,0.11358099,-2.7119286,0.08623905,1.373006,0.98696345,0.03999881,0.03999994,-5.9623513,-1.388627052307129,-7.6993856,0.03442525,0.36568883061408997,-0.1322934
2778.316666674432,0.16523704,-0.40948617,0.114415295,-2.714537,0.08687033,1.3715519,0.98843837,0.03999879,0.039999936,-5.909847,-1.4073991775512695,-7.737338,0.034850117,0.36397889256477356,-0.13256367
2778.3333333410988,0.16643818,-0.40676817,0.115246184,-2.717135,0.08749898,1.3701054,0.98990715,0.03999878,0.039999932,-5.8568735,-1.4258681535720825,-7.774543,0.035268877,0.36222028732299805,-0.13279915
2778.3500000077656,0.16763425,-0.40406182,0.11607354,-2.7197218,0.088124916,1.368665,0.9913699,0.039998766,0.03999994,-5.803847,-1.444381594657898,-7.8113213,0.035678595,0.3604251742362976,-0.13300872
2778.3666666744325,0.16882512,-0.40136743,0.11689731,-2.722297,0.08874808,1.36723,0.9928261,0.039998747,0.03999994,-5.7502794,-1.4625824689865112,-7.847364,0.036077842,0.35858842730522156,-0.1331881
2778.3833333410994,0.17001066,-0.39868543,0.11771732,-2.7248602,0.08936842,1.3658024,0.9942758,0.039998733,0.039999932,-5.6976624,-1.481208086013794,-7.8830423,0.036467392,0.35670727491378784,-0.13333398
2778.4000000077663,0.17119072,-0.396016,0.118533544,-2.727412,0.089985825,1.3643816,0.99571866,0.03999873,0.03999994,-5.644501,-1.4995836019515991,-7.9181004,0.03684614,0.35479068756103516,-0.13345078
2778.416666674433,0.17236519,-0.39335948,0.11934585,-2.7299507,0.09060024,1.362967,0.9971546,0.03999871,0.039999947,-5.5908823,-1.5176879167556763,-7.9524946,0.0372148,0.3528331220149994,-0.13353962
2778.4333333411,0.17353393,-0.390716,0.12015415,-2.7324777,0.09121159,1.3615592,0.9985837,0.03999869,0.03999994,-5.5382357,-1.5361887216567993,-7.9865065,0.03757307,0.35083651542663574,-0.13359588
2778.450000007767,0.17469683,-0.38808608,0.120958365,-2.7349918,0.0918198,1.3601587,1.0000055,0.039998688,0.03999994,-5.485283,-1.5543994903564453,-8.019913,0.037918717,0.34879395365715027,-0.13361767
2778.466666674434,0.17585374,-0.38547,0.12175838,-2.7374923,0.092424825,1.3587656,1.0014195,0.03999867,0.039999936,-5.4321647,-1.5725864171981812,-8.052736,0.038253885,0.3467150628566742,-0.1336112
2778.4833333411007,0.1770045,-0.38286805,0.12255412,-2.739979,0.09302657,1.3573799,1.0028259,0.03999865,0.039999936,-5.378543,-1.5904499292373657,-8.084894,0.03857851,0.3446001708507538,-0.1335747
2778.5000000077675,0.178149,-0.3802805,0.12334547,-2.7424524,0.09362498,1.356002,1.0042244,0.039998636,0.03999994,-5.3261065,-1.6087433099746704,-8.116719,0.038892694,0.34244805574417114,-0.13350783
2778.5166666744344,0.1792871,-0.37770766,0.12413237,-2.7449117,0.09421997,1.3546317,1.0056151,0.039998624,0.039999932,-5.2732344,-1.626686692237854,-8.147895,0.03919496,0.34025874733924866,-0.1334065
2778.5333333411013,0.18041869,-0.37514982,0.12491471,-2.747357,0.094811454,1.3532697,1.006998,0.039998602,0.039999932,-5.2204266,-1.6446051597595215,-8.178516,0.0394849,0.3380313217639923,-0.13327727
2778.550000007768,0.18154359,-0.37260726,0.12569243,-2.749787,0.095399395,1.351916,1.0083728,0.039998583,0.039999932,-5.167138,-1.6621606349945068,-8.208479,0.039761666,0.33576810359954834,-0.13311623
2778.566666674435,0.18266174,-0.37008032,0.1264654,-2.7522027,0.095983736,1.3505706,1.0097388,0.03999857,0.039999932,-5.1150293,-1.6801506280899048,-8.238121,0.040024836,0.333473265171051,-0.13292423
2778.583333341102,0.183773,-0.3675693,0.12723354,-2.7546034,0.09656441,1.3492333,1.0110961,0.039998565,0.039999936,-5.062573,-1.6977897882461548,-8.267101,0.04027691,0.3311416804790497,-0.13270037
2778.600000007769,0.18487722,-0.36507437,0.12799677,-2.7569885,0.09714135,1.3479043,1.0124452,0.03999854,0.03999993,-5.0102158,-1.7153531312942505,-8.295532,0.04051722,0.32877424359321594,-0.13244647
2778.6166666744357,0.18597427,-0.36259574,0.12875499,-2.759358,0.09771448,1.3465847,1.0137851,0.03999852,0.039999925,-4.9573364,-1.7325503826141357,-8.32329,0.04074234,0.3263723850250244,-0.13216095
2778.6333333411026,0.18706402,-0.36013398,0.12950818,-2.7617114,0.0982837,1.3452736,1.0151163,0.039998505,0.03999993,-4.9058547,-1.7501815557479858,-8.350808,0.040956274,0.3239390552043915,-0.13184598
2778.6500000077694,0.18814644,-0.3576891,0.13025618,-2.764049,0.098849036,1.3439716,1.016438,0.039998494,0.039999925,-4.853934,-1.767433762550354,-8.37761,0.041154783,0.32147249579429626,-0.13149871
2778.6666666744363,0.18922134,-0.35526153,0.13099903,-2.7663698,0.099410385,1.3426789,1.0177507,0.03999848,0.03999993,-4.8015604,-1.784341812133789,-8.403783,0.041342374,0.318973183631897,-0.13112196
2778.683333341103,0.1902886,-0.35285142,0.13173652,-2.7686744,0.09996765,1.3413954,1.0190538,0.03999846,0.039999932,-4.750578,-1.801664113998413,-8.429677,0.041515034,0.3164447844028473,-0.13071556
2778.70000000777,0.1913481,-0.35045898,0.13246861,-2.7709613,0.10052082,1.3401214,1.0203477,0.03999846,0.03999994,-4.69929,-1.8185694217681885,-8.454933,0.041674383,0.31388190388679504,-0.13027543
2778.716666674437,0.1923998,-0.34808442,0.13319522,-2.7732317,0.10106981,1.3388568,1.0216315,0.039998442,0.03999994,-4.6479993,-1.8354229927062988,-8.479638,0.041818593,0.31129318475723267,-0.1298092
2778.733333341104,0.19344349,-0.34572837,0.13391632,-2.7754846,0.10161459,1.3376019,1.0229053,0.039998427,0.039999932,-4.596506,-1.851837158203125,-8.503731,0.04195055,0.3086695969104767,-0.1293089
2778.7500000077707,0.1944791,-0.34339064,0.13463175,-2.7777197,0.10215509,1.336357,1.0241694,0.039998412,0.039999936,-4.546414,-1.8686890602111816,-8.527543,0.042068496,0.3060184717178345,-0.12878036
2778.7666666744376,0.19550656,-0.34107175,0.13534153,-2.7799368,0.102691256,1.335122,1.0254234,0.039998386,0.03999993,-4.4959364,-1.8851428031921387,-8.550745,0.04217181,0.3033387362957001,-0.12822321
2778.7833333411045,0.19652574,-0.3387718,0.1360455,-2.7821357,0.10322297,1.333897,1.026667,0.039998375,0.039999936,-4.445651,-1.9014787673950195,-8.573412,0.042261504,0.30063337087631226,-0.12763672
2778.8000000077714,0.1975365,-0.3364911,0.13674363,-2.7843163,0.10375023,1.3326821,1.0279003,0.039998364,0.03999994,-4.395027,-1.9174020290374756,-8.595461,0.04233721,0.297898530960083,-0.12702031
2778.8166666744382,0.19853878,-0.3342298,0.13743588,-2.786478,0.10427302,1.3314776,1.029123,0.039998345,0.039999932,-4.346016,-1.9337130784988403,-8.617289,0.042397514,0.2951371371746063,-0.1263738
2778.833333341105,0.19953246,-0.3319882,0.13812207,-2.7886217,0.10479126,1.3302836,1.0303351,0.039998326,0.039999932,-4.2965508,-1.9496502876281738,-8.638483,0.042445373,0.2923513948917389,-0.12570012
2778.850000007772,0.20051739,-0.3297665,0.1388022,-2.7907455,0.1053049,1.3291,1.0315366,0.039998315,0.039999932,-4.247504,-1.9654163122177124,-8.65922,0.042477936,0.2895369529724121,-0.124996305
2778.866666674439,0.2014935,-0.32756492,0.13947622,-2.7928505,0.10581384,1.3279271,1.0327271,0.039998297,0.039999932,-4.1978755,-1.9807980060577393,-8.679282,0.042495396,0.28670036792755127,-0.12426689
2778.8833333411058,0.20246075,-0.32538372,0.14014408,-2.794936,0.106318094,1.3267652,1.0339067,0.03999828,0.03999993,-4.1501236,-1.9965406656265259,-8.699214,0.042498827,0.2838380038738251,-0.123507485
2778.9000000077726,0.203419,-0.32322305,0.14080566,-2.797002,0.106817566,1.3256142,1.0350752,0.039998263,0.03999993,-4.101909,-2.011899948120117,-8.718499,0.042487554,0.2809527516365051,-0.122721545
2778.9166666744395,0.20436816,-0.32108313,0.14146097,-2.7990487,0.10731224,1.3244743,1.0362325,0.039998244,0.039999925,-4.0533934,-2.0268211364746094,-8.737205,0.042461704,0.27804288268089294,-0.12190731
2778.9333333411064,0.20530817,-0.31896415,0.14210986,-2.8010743,0.10780206,1.3233455,1.0373785,0.039998233,0.039999925,-4.006574,-2.042123794555664,-8.755727,0.042421907,0.2751104533672333,-0.121065386
2778.9500000077733,0.20623896,-0.31686637,0.14275232,-2.8030806,0.108287014,1.322228,1.0385131,0.039998222,0.039999925,-3.9593055,-2.057020425796509,-8.773637,0.042366996,0.272160142660141,-0.12019781
2778.96666667444,0.20716031,-0.31478986,0.14338826,-2.8050666,0.10876701,1.3211218,1.0396361,0.039998207,0.039999932,-3.912583,-2.0717642307281494,-8.791124,0.04229796,0.2691849172115326,-0.11930548
2778.983333341107,0.20807226,-0.312735,0.14401767,-2.8070319,0.109242,1.3200271,1.0407475,0.0399982,0.039999932,-3.8653994,-2.0860486030578613,-8.808028,0.042214185,0.2661895453929901,-0.11838435
2779.000000007774,0.2089747,-0.31070176,0.14464046,-2.808976,0.10971196,1.3189439,1.0418472,0.039998177,0.039999936,-3.8200378,-2.1007471084594727,-8.824778,0.042116355,0.2631743252277374,-0.117440686
2779.016666674441,0.20986757,-0.3086904,0.1452566,-2.810899,0.11017686,1.3178725,1.0429351,0.039998163,0.039999932,-3.7742798,-2.1149823665618896,-8.840949,0.04200449,0.2601427733898163,-0.11646985
2779.0333333411077,0.21075074,-0.30670118,0.145866,-2.8128011,0.11063665,1.3168129,1.044011,0.03999815,0.03999993,-3.7289832,-2.1290621757507324,-8.856713,0.04187785,0.2570933699607849,-0.11547355
2779.0500000077745,0.21162419,-0.30473423,0.14646856,-2.8146825,0.11109132,1.3157649,1.0450749,0.039998136,0.03999993,-3.6833477,-2.142730474472046,-8.871897,0.041737914,0.25402599573135376,-0.114454836
2779.0666666744414,0.2124878,-0.30278966,0.14706436,-2.8165417,0.11154079,1.3147289,1.0461268,0.03999812,0.03999994,-3.6396704,-2.1567394733428955,-8.886994,0.04158334,0.25093820691108704,-0.11341317
2779.0833333411083,0.2133415,-0.30086756,0.14765325,-2.8183796,0.111985035,1.3137046,1.0471662,0.03999811,0.039999936,-3.595477,-2.1703040599823,-8.901505,0.041414585,0.24783828854560852,-0.11234552
2779.100000007775,0.21418525,-0.29896826,0.1482353,-2.8201954,0.11242401,1.3126929,1.0481939,0.039998088,0.039999936,-3.5518749,-2.1837196350097656,-8.915656,0.041233286,0.24471993744373322,-0.11125673
2779.116666674442,0.21501896,-0.2970917,0.14881037,-2.82199,0.11285767,1.3116931,1.0492091,0.039998073,0.039999932,-3.5078173,-2.1967029571533203,-8.929234,0.041035894,0.24159161746501923,-0.11014439
2779.133333341109,0.21584266,-0.29523817,0.14937833,-2.8237627,0.11328604,1.3107055,1.0502117,0.03999806,0.039999925,-3.4658632,-2.2100086212158203,-8.942776,0.040825874,0.2384447157382965,-0.10900808
2779.150000007776,0.21665615,-0.29340786,0.14993925,-2.8255131,0.11370904,1.3097303,1.0512017,0.039998047,0.039999932,-3.4235363,-2.2229154109954834,-8.955762,0.040602848,0.23528334498405457,-0.10785263
2779.1666666744427,0.21745941,-0.2916008,0.15049317,-2.8272414,0.11412669,1.3087676,1.0521792,0.039998032,0.039999932,-3.3808467,-2.235365629196167,-8.968215,0.040366735,0.2321106195449829,-0.10667537
2779.1833333411096,0.21825235,-0.28981715,0.1510399,-2.828947,0.11453891,1.3078171,1.053144,0.039998014,0.039999932,-3.340179,-2.248161792755127,-8.98064,0.040116817,0.22892600297927856,-0.10547782
2779.2000000077765,0.21903498,-0.28805694,0.15157944,-2.8306303,0.1149457,1.3068792,1.0540962,0.039998006,0.03999993,-3.299177,-2.2604966163635254,-8.992528,0.039854504,0.22573013603687286,-0.10425789
2779.2166666744433,0.2198072,-0.2863203,0.15211178,-2.8322911,0.11534698,1.3059539,1.0550356,0.039997987,0.03999993,-3.2586617,-2.2726964950561523,-9.004081,0.03957923,0.22252357006072998,-0.103021026
2779.23333334111,0.220569,-0.28460744,0.1526369,-2.833929,0.1157428,1.3050412,1.0559622,0.039997973,0.039999925,-3.217871,-2.2844350337982178,-9.01514,0.039291155,0.21930724382400513,-0.101763695
2779.250000007777,0.22132032,-0.28291848,0.15315475,-2.8355446,0.116133116,1.304141,1.0568761,0.03999796,0.03999993,-3.1790745,-2.2965099811553955,-9.02616,0.038990173,0.21608169376850128,-0.10048832
2779.266666674444,0.22206116,-0.28125352,0.1536653,-2.8371372,0.116517864,1.3032535,1.0577767,0.039997954,0.039999932,-3.1400568,-2.3081414699554443,-9.036712,0.038676437,0.2128458470106125,-0.099194065
2779.283333341111,0.22279142,-0.2796126,0.15416853,-2.8387065,0.11689709,1.3023791,1.0586644,0.03999793,0.039999936,-3.1014876,-2.319611072540283,-9.0469265,0.03835187,0.2096017301082611,-0.09788334
2779.3000000077777,0.22351104,-0.2779957,0.15466432,-2.8402522,0.11727073,1.3015176,1.0595391,0.039997924,0.039999936,-3.0625587,-2.3306362628936768,-9.056654,0.038015623,0.20635466277599335,-0.09655426
2779.3166666744446,0.22422002,-0.27640295,0.1551528,-2.8417747,0.11763876,1.3006688,1.0604007,0.03999791,0.03999994,-3.0256858,-2.34197998046875,-9.06641,0.03766778,0.20310424268245697,-0.09521137
2779.3333333411115,0.22491832,-0.2748345,0.15563385,-2.8432746,0.118001185,1.299833,1.0612493,0.039997894,0.039999932,-2.9886298,-2.3528826236724854,-9.075691,0.037308667,0.19984692335128784,-0.0938511
2779.3500000077784,0.2256059,-0.2732904,0.15610749,-2.8447514,0.11835797,1.2990102,1.0620848,0.03999789,0.039999936,-2.9521322,-2.363607406616211,-9.084701,0.03693798,0.19658342003822327,-0.09247533
2779.3666666744452,0.22628272,-0.27177075,0.15657367,-2.8462045,0.118709125,1.2982004,1.062907,0.039997872,0.039999936,-2.9153326,-2.373927354812622,-9.093239,0.036555376,0.19331452250480652,-0.09108608
2779.383333341112,0.2269488,-0.27027547,0.15703237,-2.847634,0.119054615,1.2974036,1.0637159,0.03999786,0.039999943,-2.880508,-2.3845248222351074,-9.101815,0.036163084,0.19004571437835693,-0.08968303
2779.400000007779,0.2276041,-0.26880476,0.1574836,-2.849041,0.11939446,1.2966197,1.0645114,0.03999785,0.03999994,-2.845519,-2.394695281982422,-9.10996,0.03576068,0.18677407503128052,-0.088265456
2779.416666674446,0.22824855,-0.2673585,0.15792733,-2.8504248,0.11972862,1.2958488,1.0652939,0.039997846,0.03999994,-2.8103087,-2.4044461250305176,-9.117669,0.035348896,0.18349845707416534,-0.086833656
2779.4333333411128,0.22888215,-0.26593676,0.15836357,-2.8517847,0.1200571,1.2950913,1.0660632,0.039997824,0.039999936,-2.777174,-2.414511203765869,-9.12546,0.034925926,0.18022000789642334,-0.085391864
2779.4500000077796,0.22950491,-0.2645397,0.15879232,-2.8531208,0.12037988,1.2943466,1.0668191,0.039997812,0.03999994,-2.7436905,-2.4241364002227783,-9.132806,0.034493368,0.1769435703754425,-0.0839379
2779.4666666744465,0.23011683,-0.26316726,0.15921351,-2.8544333,0.12069697,1.2936151,1.0675616,0.0399978,0.03999994,-2.7107944,-2.433586359024048,-9.139892,0.03405174,0.1736677885055542,-0.08247289
2779.4833333411134,0.23071784,-0.26181942,0.15962715,-2.8557222,0.12100838,1.292897,1.0682911,0.039997783,0.039999932,-2.6776016,-2.442627191543579,-9.146574,0.03360195,0.17039702832698822,-0.08099855
2779.5000000077803,0.23130798,-0.26049623,0.16003338,-2.8569882,0.12131408,1.2921913,1.069007,0.039997783,0.03999994,-2.6465938,-2.45192289352417,-9.153363,0.033141922,0.16712751984596252,-0.07951334
2779.516666674447,0.23188719,-0.25919774,0.160432,-2.8582304,0.12161408,1.291499,1.0697097,0.03999777,0.039999936,-2.6153615,-2.4608311653137207,-9.159737,0.032674674,0.16385717689990997,-0.07801848
2779.533333341114,0.23245552,-0.25792387,0.16082303,-2.8594487,0.12190836,1.29082,1.070399,0.039997753,0.039999943,-2.5845783,-2.4695634841918945,-9.16589,0.03219923,0.16059325635433197,-0.076518655
2779.550000007781,0.23301302,-0.25667456,0.16120662,-2.8606436,0.12219696,1.2901541,1.071075,0.03999774,0.039999943,-2.5536032,-2.47786808013916,-9.171657,0.031715713,0.1573353409767151,-0.0750094
2779.566666674448,0.23355958,-0.25544992,0.16158268,-2.8618155,0.122479886,1.2895014,1.0717378,0.039997723,0.039999936,-2.5247104,-2.486461877822876,-9.177534,0.03122615,0.15408337116241455,-0.07349326
2779.5833333411147,0.2340953,-0.2542498,0.16195121,-2.862964,0.1227571,1.2888616,1.0723871,0.03999772,0.039999936,-2.4956546,-2.4946296215057373,-9.183057,0.030727869,0.1508370041847229,-0.07196974
2779.6000000077815,0.23462017,-0.25307426,0.16231224,-2.864088,0.12302867,1.2882352,1.0730231,0.039997716,0.039999936,-2.4671102,-2.5026323795318604,-9.188356,0.030224117,0.14759676158428192,-0.07044024
2779.6166666744484,0.23513415,-0.25192323,0.16266581,-2.865189,0.12329457,1.2876215,1.073646,0.0399977,0.039999936,-2.4382484,-2.5102577209472656,-9.19328,0.02971476,0.14436951279640198,-0.06890876
2779.6333333411153,0.23563734,-0.25079674,0.16301183,-2.8662665,0.123554826,1.2870209,1.0742556,0.039997697,0.039999943,-2.4115767,-2.5181074142456055,-9.198353,0.029198352,0.14114931225776672,-0.067371726
2779.650000007782,0.23612975,-0.24969444,0.16335045,-2.8673208,0.123809434,1.2864333,1.0748522,0.039997682,0.03999994,-2.3846228,-2.5255777835845947,-9.203059,0.02867706,0.13794079422950745,-0.06583225
2779.666666674449,0.23661134,-0.24861662,0.16368161,-2.8683524,0.1240584,1.2858588,1.0754355,0.03999767,0.039999943,-2.357537,-2.5326714515686035,-9.20745,0.028149616,0.1347426176071167,-0.06428948
2779.683333341116,0.23708221,-0.24756305,0.16400534,-2.8693607,0.12430179,1.2852972,1.0760056,0.039997667,0.039999943,-2.3325243,-2.539982557296753,-9.211986,0.02761746,0.13155409693717957,-0.062743194
2779.700000007783,0.2375424,-0.24653362,0.16432169,-2.8703456,0.12453959,1.2847484,1.0765629,0.03999766,0.039999943,-2.3072326,-2.546938896179199,-9.216171,0.027081799,0.1283789873123169,-0.061196428
2779.7166666744497,0.23799182,-0.24552837,0.16463065,-2.871307,0.12477179,1.2842125,1.0771072,0.039997652,0.039999947,-2.2824783,-2.553722381591797,-9.220191,0.026540728,0.12521885335445404,-0.059649408
2779.7333333411166,0.23843062,-0.2445471,0.1649323,-2.8722456,0.12499846,1.2836894,1.0776383,0.039997645,0.039999947,-2.2574978,-2.5601162910461426,-9.223866,0.025995832,0.12207609415054321,-0.05810305
2779.7500000077835,0.2388588,-0.24358973,0.16522662,-2.8731608,0.12521964,1.2831789,1.0781565,0.039997634,0.039999947,-2.2346168,-2.5667591094970703,-9.227738,0.025448788,0.1189483255147934,-0.056558453
2779.7666666744503,0.23927645,-0.24265613,0.16551365,-2.8740537,0.1254353,1.2826811,1.0786618,0.039997626,0.03999995,-2.2114828,-2.573019504547119,-9.231271,0.024898473,0.11583833396434784,-0.055015393
2779.783333341117,0.23968358,-0.24174622,0.16579342,-2.874924,0.12564552,1.2821957,1.0791544,0.03999762,0.039999947,-2.1889472,-2.57910418510437,-9.23468,0.024345705,0.11274556070566177,-0.05347367
2779.800000007784,0.24008028,-0.24085984,0.16606602,-2.8757715,0.12585023,1.2817233,1.0796342,0.03999761,0.03999995,-2.1662252,-2.5848450660705566,-9.237769,0.023791255,0.10966996848583221,-0.051935956
2779.816666674451,0.24046655,-0.23999688,0.16633143,-2.8765967,0.12604953,1.2812631,1.0801013,0.0399976,0.039999947,-2.1454725,-2.590798854827881,-9.241062,0.023234103,0.10661530494689941,-0.050401285
2779.833333341118,0.24084246,-0.23915723,0.1665897,-2.8774,0.1262435,1.2808152,1.0805558,0.039997596,0.03999995,-2.124503,-2.596388816833496,-9.244032,0.022676755,0.10358142852783203,-0.04887136
2779.8500000077847,0.24120808,-0.23834066,0.1668409,-2.8781812,0.12643212,1.28038,1.080998,0.039997596,0.03999995,-2.1041298,-2.601813316345215,-9.246893,0.02211808,0.10056757181882858,-0.047346152
2779.8666666744516,0.24156356,-0.23754708,0.16708507,-2.87894,0.1266154,1.2799569,1.0814276,0.039997593,0.03999995,-2.0835614,-2.6069090366363525,-9.249476,0.021557696,0.09757612645626068,-0.045827612
2779.8833333411185,0.24190885,-0.23677629,0.16732222,-2.8796775,0.12679346,1.2795458,1.0818449,0.03999758,0.039999947,-2.0648503,-2.6122124195098877,-9.252219,0.020998199,0.09461025893688202,-0.044316754
2779.9000000077854,0.24224408,-0.2360281,0.16755247,-2.8803937,0.12696625,1.2791469,1.0822499,0.03999757,0.039999954,-2.0460627,-2.617173910140991,-9.254709,0.020438833,0.09166598320007324,-0.04281398
2779.9166666744522,0.24256937,-0.23530239,0.1677759,-2.8810883,0.12713389,1.2787598,1.0826428,0.039997566,0.039999954,-2.0271142,-2.621779680252075,-9.256952,0.019880222,0.08874598145484924,-0.041317705
2779.933333341119,0.24288474,-0.23459888,0.16799246,-2.8817613,0.1272964,1.2783847,1.0830238,0.039997555,0.039999958,-2.0099452,-2.626622200012207,-9.259344,0.01932297,0.0858534649014473,-0.03983247
2779.950000007786,0.24319029,-0.23391743,0.16820227,-2.8824131,0.12745374,1.2780212,1.0833926,0.039997544,0.039999954,-1.9926461,-2.631098985671997,-9.2615,0.018765943,0.08298870176076889,-0.03835597
2779.966666674453,0.24348609,-0.2332578,0.16840534,-2.8830438,0.12760606,1.2776694,1.0837497,0.03999754,0.039999954,-1.9758409,-2.635429859161377,-9.263545,0.018212488,0.08015362173318863,-0.036889948
2779.9833333411198,0.24377227,-0.2326198,0.16860186,-2.8836539,0.12775344,1.2773292,1.0840949,0.03999754,0.039999954,-1.9588484,-2.6394505500793457,-9.265335,0.017661478,0.07734998315572739,-0.035436053
2780.0000000077866,0.24404888,-0.23200315,0.1687918,-2.8842442,0.12789586,1.2770003,1.0844289,0.03999754,0.039999954,-1.9437405,-2.6436567306518555,-9.26734,0.017113695,0.07457630336284637,-0.033994082
2780.0166666744535,0.24431604,-0.23140769,0.16897523,-2.8848138,0.12803337,1.2766825,1.0847514,0.039997533,0.039999954,-1.9285152,-2.647547721862793,-9.269115,0.016566813,0.0718313679099083,-0.032565553
2780.0333333411204,0.2445739,-0.23083313,0.16915229,-2.8853629,0.12816603,1.2763761,1.0850624,0.03999752,0.03999995,-1.9136508,-2.6512937545776367,-9.270766,0.016024264,0.06912042945623398,-0.03115108
2780.0500000077873,0.24482253,-0.23027919,0.16932298,-2.885893,0.12829396,1.2760808,1.0853624,0.03999752,0.03999995,-1.8986347,-2.6547417640686035,-9.272198,0.015486853,0.06644714623689651,-0.029750593
2780.066666674454,0.2450621,-0.22974564,0.16948739,-2.8864036,0.12841718,1.2757962,1.0856514,0.039997518,0.039999954,-1.8855101,-2.6583666801452637,-9.273858,0.014952218,0.06380490958690643,-0.028366366
2780.083333341121,0.24529257,-0.22923225,0.16964567,-2.886894,0.12853579,1.2755224,1.0859296,0.039997514,0.039999954,-1.872087,-2.6616907119750977,-9.275256,0.014422953,0.06119954213500023,-0.026997985
2780.100000007788,0.24551424,-0.22873871,0.16979785,-2.8873665,0.12864974,1.2752591,1.0861969,0.03999751,0.039999954,-1.8590724,-2.664883613586426,-9.27657,0.013898184,0.05863528698682785,-0.025648206
2780.116666674455,0.24572718,-0.22826467,0.16994403,-2.88782,0.12875918,1.275006,1.0864536,0.039997503,0.039999954,-1.8461435,-2.667780876159668,-9.277724,0.013379655,0.05610478296875954,-0.024314566
2780.1333333411217,0.2459315,-0.22780994,0.17008433,-2.8882554,0.12886414,1.2747632,1.0867,0.039997496,0.039999947,-1.8346575,-2.6708431243896484,-9.279016,0.012867998,0.05361464247107506,-0.022999255
2780.1500000077885,0.2461273,-0.22737414,0.17021874,-2.888672,0.12896478,1.2745306,1.086936,0.039997492,0.03999995,-1.8231338,-2.673631191253662,-9.2801485,0.012360885,0.051163122057914734,-0.021703074
2780.1666666744554,0.24631481,-0.22695693,0.1703475,-2.8890717,0.12906113,1.2743081,1.0871621,0.039997485,0.03999995,-1.8113444,-2.676154851913452,-9.281051,0.011862087,0.04875732585787773,-0.02042903
2780.1833333411223,0.24649416,-0.22655801,0.17047064,-2.8894534,0.12915325,1.2740949,1.0873783,0.039997485,0.03999995,-1.8012675,-2.6788265705108643,-9.282178,0.011369177,0.046391960233449936,-0.019174106
2780.200000007789,0.24666545,-0.22617704,0.17058824,-2.8898177,0.1292412,1.2738916,1.0875847,0.039997485,0.03999995,-1.7909148,-2.681238889694214,-9.283063,0.010884592,0.04407116398215294,-0.017940782
2780.216666674456,0.24682882,-0.2258137,0.17070048,-2.8901653,0.12932509,1.2736976,1.0877815,0.039997485,0.03999995,-1.7810081,-2.683528423309326,-9.283919,0.010407582,0.04179723188281059,-0.016730653
2780.233333341123,0.24698448,-0.22546756,0.1708074,-2.8904965,0.12940505,1.273513,1.0879692,0.039997485,0.03999995,-1.7710248,-2.6855673789978027,-9.284598,0.009939798,0.03956982493400574,-0.01554398
2780.25000000779,0.24713255,-0.22513834,0.17090912,-2.8908117,0.12948109,1.2733372,1.0881476,0.039997477,0.039999947,-1.7624584,-2.6877570152282715,-9.285454,0.009479823,0.03739031031727791,-0.01438214
2780.2666666744567,0.24727319,-0.22482562,0.17100576,-2.8911107,0.12955329,1.2731705,1.088317,0.03999747,0.03999995,-1.75375,-2.6896884441375732,-9.286125,0.009029241,0.03525916859507561,-0.013245414
2780.2833333411236,0.24740657,-0.22452898,0.1710975,-2.8913944,0.12962173,1.273012,1.0884778,0.039997473,0.03999996,-1.7454013,-2.691516399383545,-9.286752,0.008588814,0.033180367201566696,-0.012135496
2780.3000000077905,0.24753293,-0.2242481,0.17118435,-2.8916628,0.12968661,1.2728617,1.0886301,0.039997473,0.03999996,-1.7369744,-2.693110466003418,-9.2872095,0.008157899,0.03115217387676239,-0.011050374
2780.3166666744573,0.2476524,-0.22398254,0.17126653,-2.891917,0.12974791,1.2727199,1.0887741,0.039997473,0.03999996,-1.7298245,-2.694830894470215,-9.287825,0.007738025,0.029176626354455948,-0.009992984
2780.333333341124,0.24776515,-0.22373186,0.1713441,-2.892157,0.1298058,1.2725861,1.0889101,0.039997473,0.03999996,-1.7226077,-2.696336507797241,-9.288318,0.007327548,0.02725449576973915,-0.00896302
2780.350000007791,0.24787146,-0.22349562,0.17141724,-2.8923836,0.12986036,1.2724599,1.0890384,0.039997473,0.03999996,-1.7156665,-2.6977462768554688,-9.288747,0.006928672,0.025389166548848152,-0.007963086
2780.366666674458,0.24797149,-0.2232734,0.17148605,-2.892596,0.12991168,1.2723413,1.089159,0.039997473,0.03999996,-1.708712,-2.6989452838897705,-9.289041,0.0065399595,0.023577455431222916,-0.006991394
2780.383333341125,0.24806532,-0.22306469,0.17155069,-2.8927956,0.12995987,1.2722298,1.0892723,0.039997473,0.03999996,-1.7027825,-2.7002694606781006,-9.289463,0.0061637377,0.02182736061513424,-0.0060515655
2780.4000000077917,0.24815328,-0.22286916,0.1716113,-2.8929827,0.13000497,1.2721254,1.0893785,0.039997473,0.03999996,-1.6968396,-2.7013802528381348,-9.289769,0.005799987,0.02013491466641426,-0.005142672
2780.4166666744586,0.24823554,-0.22268629,0.17166802,-2.893158,0.13004717,1.2720276,1.0894778,0.039997473,0.03999996,-1.6907717,-2.702319383621216,-9.289934,0.005448439,0.01850380375981331,-0.0042660986
2780.4333333411255,0.24831225,-0.22251558,0.17172104,-2.8933213,0.13008656,1.2719363,1.0895698,0.039997473,0.03999996,-1.6858071,-2.703350305557251,-9.290255,0.005109941,0.01693289913237095,-0.0034215928
2780.4500000077924,0.2483837,-0.22235651,0.17177038,-2.893474,0.13012329,1.2718512,1.0896567,0.039997473,0.03999996,-1.6806158,-2.7041993141174316,-9.29042,0.0047877445,0.015427322126924992,-0.0026114946
2780.4666666744592,0.24845009,-0.22220868,0.17181623,-2.8936155,0.13015743,1.271772,1.089737,0.039997473,0.03999996,-1.6758641,-2.704981565475464,-9.290598,0.00447353,0.013982242904603481,-0.0018353385
2780.483333341126,0.24851167,-0.22207147,0.17185879,-2.8937466,0.1301891,1.2716987,1.0898112,0.039997477,0.03999996,-1.6708107,-2.7056009769439697,-9.290611,0.004175957,0.012607735581696033,-0.0010953975
2780.500000007793,0.24856864,-0.2219444,0.17189834,-2.8938684,0.13021845,1.2716308,1.0898801,0.039997473,0.039999958,-1.6667536,-2.7063052654266357,-9.290769,0.0038944895,0.011300681158900261,-0.00039229268
2780.51666667446,0.24862124,-0.22182694,0.17193493,-2.8939812,0.1302456,1.2715678,1.0899451,0.039997473,0.039999958,-1.6626621,-2.7068583965301514,-9.290844,0.0036266248,0.010060020722448826,0.00027523946
2780.5333333411268,0.24866973,-0.22171856,0.17196873,-2.8940854,0.1302706,1.2715096,1.0900027,0.039997473,0.039999958,-1.6586931,-2.7073588371276855,-9.290854,0.003367737,0.008889958262443542,0.0009046287
2780.5500000077936,0.24871437,-0.22161874,0.17199981,-2.894181,0.13029368,1.2714562,1.0900563,0.03999747,0.039999958,-1.654707,-2.707705497741699,-9.290799,0.003135284,0.0077903433702886105,0.0014958166
2780.5666666744605,0.24875538,-0.22152685,0.1720285,-2.8942692,0.1303149,1.2714071,1.0901061,0.03999747,0.039999958,-1.651335,-2.7081220149993896,-9.290826,0.002915914,0.0067669604904949665,0.002046705
2780.5833333411274,0.24879307,-0.22144236,0.17205487,-2.8943512,0.13033444,1.2713618,1.0901521,0.039997466,0.039999958,-1.64793,-2.7084338665008545,-9.290769,0.0027099182,0.005817998666316271,0.0025572134
2780.6000000077943,0.2488276,-0.22136448,0.17207916,-2.8944268,0.1303524,1.2713202,1.0901943,0.03999747,0.03999996,-1.6448073,-2.708678722381592,-9.29072,0.002518931,0.004939503036439419,0.0030290284
2780.616666674461,0.24885927,-0.2212929,0.1721015,-2.894495,0.13036889,1.2712816,1.0902327,0.039997466,0.03999996,-1.6416279,-2.708872079849243,-9.290618,0.0023435974,0.0041303569450974464,0.0034626117
2780.633333341128,0.24888836,-0.22122706,0.17212208,-2.8945563,0.1303841,1.2712463,1.0902686,0.039997466,0.03999996,-1.638902,-2.709130048751831,-9.290541,0.0021848925,0.0033905378077179193,0.0038602687
2780.650000007795,0.24891503,-0.2211665,0.17214102,-2.894616,0.13039808,1.2712139,1.0903021,0.039997462,0.039999958,-1.636218,-2.709334135055542,-9.29045,0.0020370304,0.002717404393479228,0.0042237705
2780.666666674462,0.24893948,-0.22111088,0.17215845,-2.8946686,0.13041091,1.2711841,1.0903327,0.039997462,0.03999996,-1.6341211,-2.709465503692627,-9.290449,0.0018967742,0.0020840931683778763,0.0045615807
2780.6833333411287,0.24896194,-0.22105972,0.17217451,-2.8947177,0.13042276,1.2711565,1.0903605,0.039997462,0.039999958,-1.631868,-2.70967960357666,-9.290366,0.0017696556,0.0015115175629034638,0.0048699453
2780.7000000077956,0.24898253,-0.22101265,0.17218927,-2.8947628,0.13043362,1.2711313,1.0903865,0.03999746,0.03999996,-1.6299804,-2.70983624458313,-9.290333,0.0016541546,0.0009812663774937391,0.0051533845
2780.7166666744624,0.24900143,-0.22096935,0.17220289,-2.8948061,0.13044363,1.2711079,1.0904096,0.039997455,0.039999958,-1.6281543,-2.709972620010376,-9.290288,0.001545924,0.0004941048100590706,0.005414397
2780.7333333411293,0.24901873,-0.2209295,0.1722154,-2.8948436,0.1304528,1.2710866,1.0904317,0.039997455,0.039999958,-1.626595,-2.71006178855896,-9.290273,0.0014487272,3.6824425478698686e-05,0.0056571327
2780.750000007796,0.24903458,-0.22089288,0.17222688,-2.89488,0.13046132,1.2710669,1.0904516,0.039997455,0.039999958,-1.6248597,-2.7102301120758057,-9.290193,0.001357038,-0.0003719781234394759,0.005876733
2780.766666674463,0.24904916,-0.22085918,0.17223744,-2.8949103,0.13046905,1.2710488,1.0904701,0.039997455,0.039999958,-1.623694,-2.710322141647339,-9.290214,0.0012733134,-0.000757560133934021,0.006080692
2780.78333334113,0.24906255,-0.2208282,0.17224719,-2.8949397,0.13047622,1.2710322,1.0904872,0.039997455,0.039999958,-1.6220115,-2.7104456424713135,-9.290087,0.0011972392,-0.0010976431658491492,0.0062646116
2780.800000007797,0.24907486,-0.22079971,0.17225619,-2.8949685,0.13048284,1.2710168,1.0905026,0.039997455,0.039999958,-1.6209415,-2.710517406463623,-9.290084,0.0011257323,-0.001416620216332376,0.0064351587
2780.8166666744637,0.24908614,-0.22077352,0.17226443,-2.8949912,0.13048889,1.2710027,1.090517,0.039997455,0.039999958,-1.620136,-2.7106096744537354,-9.290123,0.0010607326,-0.001718978863209486,0.0065946872
2780.8333333411306,0.24909648,-0.22074941,0.17227206,-2.895013,0.13049446,1.2709898,1.0905305,0.039997455,0.039999958,-1.6186739,-2.7107152938842773,-9.289981,0.0010018158,-0.001979964319616556,0.006736523
2780.8500000077975,0.24910598,-0.22072726,0.17227904,-2.8950346,0.13049956,1.270978,1.0905427,0.039997455,0.039999958,-1.6179105,-2.710782289505005,-9.289998,0.000946049,-0.002224273281171918,0.00686815
2780.8666666744643,0.24911468,-0.2207069,0.17228547,-2.8950558,0.1305043,1.2709666,1.0905536,0.039997455,0.039999958,-1.6171638,-2.710824728012085,-9.290002,0.0008949962,-0.0024542363826185465,0.0069905724
2780.883333341131,0.2491227,-0.22068812,0.17229138,-2.8950734,0.13050863,1.2709565,1.0905641,0.039997455,0.039999958,-1.6165974,-2.710880756378174,-9.290023,0.0008482044,-0.002674566814675927,0.0071054734
2780.900000007798,0.24913,-0.22067088,0.17229682,-2.8950882,0.13051257,1.2709473,1.0905739,0.039997455,0.039999958,-1.6156366,-2.7109644412994385,-9.289957,0.0008044034,-0.0028678395319730043,0.0072085434
2780.916666674465,0.24913673,-0.220655,0.17230181,-2.8951023,0.13051622,1.2709389,1.0905827,0.039997455,0.039999958,-1.6147779,-2.7110166549682617,-9.289892,0.0007642295,-0.003038314636796713,0.0073012696
2780.933333341132,0.24914284,-0.22064039,0.17230643,-2.895116,0.1305196,1.270931,1.0905907,0.039997455,0.039999958,-1.6142902,-2.7110705375671387,-9.289904,0.00072780583,-0.0031976569443941116,0.0073870816
2780.9500000077987,0.24914847,-0.22062697,0.17231074,-2.8951297,0.13052271,1.2709235,1.0905979,0.039997455,0.039999958,-1.6138464,-2.7111048698425293,-9.289913,0.00069441716,-0.00334837194532156,0.0074668475
2780.9666666744656,0.24915364,-0.22061463,0.17231467,-2.8951433,0.13052556,1.2709165,1.0906047,0.039997455,0.039999958,-1.6134362,-2.71114444732666,-9.289912,0.0006640312,-0.003492099931463599,0.007541914
2780.9833333411325,0.24915843,-0.22060327,0.17231826,-2.8951566,0.13052818,1.2709104,1.090611,0.039997455,0.039999958,-1.6130289,-2.7111659049987793,-9.289925,0.000634456,-0.0036295675672590733,0.007612417
2781.0000000077994,0.2491628,-0.22059284,0.17232162,-2.895165,0.13053061,1.2709049,1.090617,0.039997455,0.039999958,-1.5396937,-2.6450018882751465,-9.252733,0.0,-0.0,0.0
2781.0166666744663,0.2491628,-0.22059284,0.17232162,-2.895165,0.13053061,1.2709049,1.090617,0.039997455,0.039999958,-1.6105216,-2.7107887268066406,-9.2894535,0.0,-0.0,0.0
2781.033333341133,0.2491628,-0.22059284,0.17232162,-2.895165,0.13053061,1.2709049,1.090617,0.039997455,0.039999958,-1.6105216,-2.7107887268066406,-9.2894535,0.0,-0.0,0.0
2781.0500000078,0.2491628,-0.22059284,0.17232162,-2.895165,0.13053061,1.2709049,1.090617,0.039997455,0.039999958,-1.6105216,-2.7107887268066406,-9.2894535,0.0,-0.0,0.0
2781.066666674467,0.2491628,-0.22059284,0.17232162,-2.895165,0.13053061,1.2709049,1.090617,0.039997455,0.039999958,-1.6105216,-2.7107887268066406,-9.2894535,0.0,-0.0,0.0
2781.0833333411338,0.2491628,-0.22059284,0.17232162,-2.895165,0.13053061,1.2709049,1.090617,0.039997455,0.039999958,-1.6105216,-2.7107887268066406,-9.2894535,0.0,-0.0,0.0
2781.1000000078006,0.2491628,-0.22059284,0.17232162,-2.895165,0.13053061,1.2709049,1.090617,0.039997455,0.039999958,-1.6105216,-2.7107887268066406,-9.2894535,0.0,-0.0,0.0
2781.1166666744675,0.2491628,-0.22059284,0.17232162,-2.895165,0.13053061,1.2709049,1.090617,0.039997455,0.039999958,-1.6105216,-2.7107887268066406,-9.2894535,0.0,-0.0,0.0
2781.1333333411344,0.2491628,-0.22059284,0.17232162,-2.895165,0.13053061,1.2709049,1.090617,0.039997455,0.039999958,-1.6105216,-2.7107887268066406,-9.2894535,0.0,-0.0,0.0
2781.1500000078013,0.2491628,-0.22059284,0.17232162,-2.895165,0.13053061,1.2709049,1.090617,0.039997455,0.039999958,-1.6105216,-2.7107887268066406,-9.2894535,0.0,-0.0,0.0
2781.166666674468,0.2491628,-0.22059284,0.17232162,-2.895165,0.13053061,1.2709049,1.090617,0.039997455,0.039999958,-1.6105216,-2.7107887268066406,-9.2894535,0.0,-0.0,0.0
2781.183333341135,0.2491628,-0.22059284,0.17232162,-2.895165,0.13053061,1.2709049,1.090617,0.039997455,0.039999958,-1.6105216,-2.7107887268066406,-9.2894535,0.0,-0.0,0.0
2781.200000007802,0.2491628,-0.22059284,0.17232162,-2.895165,0.13053061,1.2709049,1.090617,0.039997455,0.039999958,-1.6105216,-2.7107887268066406,-9.2894535,0.0,-0.0,0.0
2781.216666674469,0.2491628,-0.22059284,0.17232162,-2.895165,0.13053061,1.2709049,1.090617,0.039997455,0.039999958,-1.6105216,-2.7107887268066406,-9.2894535,0.0,-0.0,0.0
2781.2333333411357,0.2491628,-0.22059284,0.17232162,-2.895165,0.13053061,1.2709049,1.090617,0.039997455,0.039999958,-1.6105216,-2.7107887268066406,-9.2894535,0.0,-0.0,0.0
2781.2500000078026,0.2491628,-0.22059284,0.17232162,-2.895165,0.13053061,1.2709049,1.090617,0.039997455,0.039999958,-1.6105216,-2.7107887268066406,-9.2894535,0.0,-0.0,0.0
2781.2666666744694,0.2491628,-0.22059284,0.17232162,-2.895165,0.13053061,1.2709049,1.090617,0.039997455,0.039999958,-1.6105216,-2.7107887268066406,-9.2894535,0.0,-0.0,0.0
2781.2833333411363,0.2491628,-0.22059284,0.17232162,-2.895165,0.13053061,1.2709049,1.090617,0.039997455,0.039999958,-1.6105216,-2.7107887268066406,-9.2894535,0.0,-0.0,0.0
2781.300000007803,0.2491628,-0.22059284,0.17232162,-2.895165,0.13053061,1.2709049,1.090617,0.039997455,0.039999958,-1.6105216,-2.7107887268066406,-9.2894535,0.0,-0.0,0.0
2781.31666667447,0.2491628,-0.22059284,0.17232162,-2.895165,0.13053061,1.2709049,1.090617,0.039997455,0.039999958,-1.6105216,-2.7107887268066406,-9.2894535,0.0,-0.0,0.0
2781.333333341137,0.2491628,-0.22059284,0.17232162,-2.895165,0.13053061,1.2709049,1.090617,0.039997455,0.039999958,-1.6105216,-2.7107887268066406,-9.2894535,0.0,-0.0,0.0
2781.350000007804,0.2491628,-0.22059284,0.17232162,-2.895165,0.13053061,1.2709049,1.090617,0.039997455,0.039999958,-1.6105216,-2.7107887268066406,-9.2894535,0.0,-0.0,0.0
2781.3666666744707,0.2491628,-0.22059284,0.17232162,-2.895165,0.13053061,1.2709049,1.090617,0.039997455,0.039999958,-1.6105216,-2.7107887268066406,-9.2894535,0.0,-0.0,0.0
2781.3833333411376,0.2491628,-0.22059284,0.17232162,-2.895165,0.13053061,1.2709049,1.090617,0.039997455,0.039999958,-1.6105216,-2.7107887268066406,-9.2894535,0.0,-0.0,0.0
2781.4000000078045,0.2491628,-0.22059284,0.17232162,-2.895165,0.13053061,1.2709049,1.090617,0.039997455,0.039999958,-1.6105216,-2.7107887268066406,-9.2894535,0.0,-0.0,0.0
2781.4166666744713,0.2491628,-0.22059284,0.17232162,-2.895165,0.13053061,1.2709049,1.090617,0.039997455,0.039999958,-1.6105216,-2.7107887268066406,-9.2894535,0.0,-0.0,0.0
2781.433333341138,0.2491628,-0.22059284,0.17232162,-2.895165,0.13053061,1.2709049,1.090617,0.039997455,0.039999958,-1.6105216,-2.7107887268066406,-9.2894535,0.0,-0.0,0.0
2781.450000007805,0.2491628,-0.22059284,0.17232162,-2.895165,0.13053061,1.2709049,1.090617,0.039997455,0.039999958,-1.6105216,-2.7107887268066406,-9.2894535,0.0,-0.0,0.0
2781.466666674472,0.2491628,-0.22059284,0.17232162,-2.895165,0.13053061,1.2709049,1.090617,0.039997455,0.039999958,-1.6105216,-2.7107887268066406,-9.2894535,0.0,-0.0,0.0
2781.483333341139,0.2491628,-0.22059284,0.17232162,-2.895165,0.13053061,1.2709049,1.090617,0.039997455,0.039999958,-1.6105216,-2.7107887268066406,-9.2894535,0.0,-0.0,0.0
2781.5000000078057,0.2491628,-0.22059284,0.17232162,-2.895165,0.13053061,1.2709049,1.090617,0.039997455,0.039999958,-1.6105216,-2.7107887268066406,-9.2894535,0.0,-0.0,0.0
2781.5166666744726,0.2491628,-0.22059284,0.17232162,-2.895165,0.13053061,1.2709049,1.090617,0.039997455,0.039999958,-1.6105216,-2.7107887268066406,-9.2894535,0.0,-0.0,0.0
2781.5333333411395,0.2491628,-0.22059284,0.17232162,-2.895165,0.13053061,1.2709049,1.090617,0.039997455,0.039999958,-1.6105216,-2.7107887268066406,-9.2894535,0.0,-0.0,0.0
2781.5500000078064,0.2491628,-0.22059284,0.17232162,-2.895165,0.13053061,1.2709049,1.090617,0.039997455,0.039999958,-1.6105216,-2.7107887268066406,-9.2894535,0.0,-0.0,0.0
2781.5666666744733,0.2491628,-0.22059284,0.17232162,-2.895165,0.13053061,1.2709049,1.090617,0.039997455,0.039999958,-1.6105216,-2.7107887268066406,-9.2894535,0.0,-0.0,0.0
2781.58333334114,0.2491628,-0.22059284,0.17232162,-2.895165,0.13053061,1.2709049,1.090617,0.039997455,0.039999958,-1.6105216,-2.7107887268066406,-9.2894535,0.0,-0.0,0.0
2781.600000007807,0.2491628,-0.22059284,0.17232162,-2.895165,0.13053061,1.2709049,1.090617,0.039997455,0.039999958,-1.6105216,-2.7107887268066406,-9.2894535,0.0,-0.0,0.0
2781.616666674474,0.2491628,-0.22059284,0.17232162,-2.895165,0.13053061,1.2709049,1.090617,0.039997455,0.039999958,-1.6105216,-2.7107887268066406,-9.2894535,0.0,-0.0,0.0
2781.6333333411408,0.2491628,-0.22059284,0.17232162,-2.895165,0.13053061,1.2709049,1.090617,0.039997455,0.039999958,-1.6105216,-2.7107887268066406,-9.2894535,0.0,-0.0,0.0
2781.6500000078076,0.2491628,-0.22059284,0.17232162,-2.895165,0.13053061,1.2709049,1.090617,0.039997455,0.039999958,-1.6105216,-2.7107887268066406,-9.2894535,0.0,-0.0,0.0
2781.6666666744745,0.2491628,-0.22059284,0.17232162,-2.895165,0.13053061,1.2709049,1.090617,0.039997455,0.039999958,-1.6105216,-2.7107887268066406,-9.2894535,0.0,-0.0,0.0
2781.6833333411414,0.2491628,-0.22059284,0.17232162,-2.895165,0.13053061,1.2709049,1.090617,0.039997455,0.039999958,-1.6105216,-2.7107887268066406,-9.2894535,0.0,-0.0,0.0
2781.7000000078083,0.2491628,-0.22059284,0.17232162,-2.895165,0.13053061,1.2709049,1.090617,0.039997455,0.039999958,-1.6105216,-2.7107887268066406,-9.2894535,0.0,-0.0,0.0
2781.716666674475,0.2491628,-0.22059284,0.17232162,-2.895165,0.13053061,1.2709049,1.090617,0.039997455,0.039999958,-1.6105216,-2.7107887268066406,-9.2894535,0.0,-0.0,0.0
2781.733333341142,0.2491628,-0.22059284,0.17232162,-2.895165,0.13053061,1.2709049,1.090617,0.039997455,0.039999958,-1.6105216,-2.7107887268066406,-9.2894535,0.0,-0.0,0.0
2781.750000007809,0.2491628,-0.22059284,0.17232162,-2.895165,0.13053061,1.2709049,1.090617,0.039997455,0.039999958,-1.6105216,-2.7107887268066406,-9.2894535,0.0,-0.0,0.0
2781.766666674476,0.2491628,-0.22059284,0.17232162,-2.895165,0.13053061,1.2709049,1.090617,0.039997455,0.039999958,-1.6105216,-2.7107887268066406,-9.2894535,0.0,-0.0,0.0
2781.7833333411427,0.2491628,-0.22059284,0.17232162,-2.895165,0.13053061,1.2709049,1.090617,0.039997455,0.039999958,-1.6105216,-2.7107887268066406,-9.2894535,0.0,-0.0,0.0
2781.8000000078096,0.2491628,-0.22059284,0.17232162,-2.895165,0.13053061,1.2709049,1.090617,0.039997455,0.039999958,-1.6105216,-2.7107887268066406,-9.2894535,0.0,-0.0,0.0
2781.8166666744764,0.2491628,-0.22059284,0.17232162,-2.895165,0.13053061,1.2709049,1.090617,0.039997455,0.039999958,-1.6105216,-2.7107887268066406,-9.2894535,0.0,-0.0,0.0
2781.8333333411433,0.2491628,-0.22059284,0.17232162,-2.895165,0.13053061,1.2709049,1.090617,0.039997455,0.039999958,-1.6105216,-2.7107887268066406,-9.2894535,0.0,-0.0,0.0
2781.85000000781,0.2491628,-0.22059284,0.17232162,-2.895165,0.13053061,1.2709049,1.090617,0.039997455,0.039999958,-1.6105216,-2.7107887268066406,-9.2894535,0.0,-0.0,0.0
2781.866666674477,0.2491628,-0.22059284,0.17232162,-2.895165,0.13053061,1.2709049,1.090617,0.039997455,0.039999958,-1.6105216,-2.7107887268066406,-9.2894535,0.0,-0.0,0.0
2781.883333341144,0.2491628,-0.22059284,0.17232162,-2.895165,0.13053061,1.2709049,1.090617,0.039997455,0.039999958,-1.6105216,-2.7107887268066406,-9.2894535,0.0,-0.0,0.0
2781.900000007811,0.2491628,-0.22059284,0.17232162,-2.895165,0.13053061,1.2709049,1.090617,0.039997455,0.039999958,-1.6105216,-2.7107887268066406,-9.2894535,0.0,-0.0,0.0
2781.9166666744777,0.2491628,-0.22059284,0.17232162,-2.895165,0.13053061,1.2709049,1.090617,0.039997455,0.039999958,-1.6105216,-2.7107887268066406,-9.2894535,0.0,-0.0,0.0
2781.9333333411446,0.2491628,-0.22059284,0.17232162,-2.895165,0.13053061,1.2709049,1.090617,0.039997455,0.039999958,-1.6105216,-2.7107887268066406,-9.2894535,0.0,-0.0,0.0
2781.9500000078115,0.2491628,-0.22059284,0.17232162,-2.895165,0.13053061,1.2709049,1.090617,0.039997455,0.039999958,-1.6105216,-2.7107887268066406,-9.2894535,0.0,-0.0,0.0
2781.9666666744783,0.2491628,-0.22059284,0.17232162,-2.895165,0.13053061,1.2709049,1.090617,0.039997455,0.039999958,-1.6105216,-2.7107887268066406,-9.2894535,0.0,-0.0,0.0
2781.983333341145,0.2491628,-0.22059284,0.17232162,-2.895165,0.13053061,1.2709049,1.090617,0.039997455,0.039999958,-1.6105216,-2.7107887268066406,-9.2894535,0.0,-0.0,0.0
2782.000000007812,0.2491628,-0.22059284,0.17232162,-2.895165,0.13053061,1.2709049,1.090617,0.039997455,0.039999958,-1.6105216,-2.7107887268066406,-9.2894535,0.0,-0.0,0.0
2782.016666674479,0.2491628,-0.22059284,0.17232162,-2.895165,0.13053061,1.2709049,1.090617,0.039997455,0.039999958,-1.6105216,-2.7107887268066406,-9.2894535,0.0,-0.0,0.0
2782.033333341146,0.2491628,-0.22059284,0.17232162,-2.895165,0.13053061,1.2709049,1.090617,0.039997455,0.039999958,-1.6105216,-2.7107887268066406,-9.2894535,0.0,-0.0,0.0
2782.0500000078127,0.2491628,-0.22059284,0.17232162,-2.895165,0.13053061,1.2709049,1.090617,0.039997455,0.039999958,-1.6105216,-2.7107887268066406,-9.2894535,0.0,-0.0,0.0
2782.0666666744796,0.2491628,-0.22059284,0.17232162,-2.895165,0.13053061,1.2709049,1.090617,0.039997455,0.039999958,-1.6105216,-2.7107887268066406,-9.2894535,0.0,-0.0,0.0
2782.0833333411465,0.2491628,-0.22059284,0.17232162,-2.895165,0.13053061,1.2709049,1.090617,0.039997455,0.039999958,-1.6105216,-2.7107887268066406,-9.2894535,0.0,-0.0,0.0
2782.1000000078134,0.2491628,-0.22059284,0.17232162,-2.895165,0.13053061,1.2709049,1.090617,0.039997455,0.039999958,-1.6105216,-2.7107887268066406,-9.2894535,0.0,-0.0,0.0
2782.1166666744803,0.2491628,-0.22059284,0.17232162,-2.895165,0.13053061,1.2709049,1.090617,0.039997455,0.039999958,-1.6105216,-2.7107887268066406,-9.2894535,0.0,-0.0,0.0
2782.133333341147,0.2491628,-0.22059284,0.17232162,-2.895165,0.13053061,1.2709049,1.090617,0.039997455,0.039999958,-1.6105216,-2.7107887268066406,-9.2894535,0.0,-0.0,0.0
2782.150000007814,0.2491628,-0.22059284,0.17232162,-2.895165,0.13053061,1.2709049,1.090617,0.039997455,0.039999958,-1.6105216,-2.7107887268066406,-9.2894535,0.0,-0.0,0.0
2782.166666674481,0.2491628,-0.22059284,0.17232162,-2.895165,0.13053061,1.2709049,1.090617,0.039997455,0.039999958,-1.6105216,-2.7107887268066406,-9.2894535,0.0,-0.0,0.0
2782.1833333411478,0.2491628,-0.22059284,0.17232162,-2.895165,0.13053061,1.2709049,1.090617,0.039997455,0.039999958,-1.6105216,-2.7107887268066406,-9.2894535,0.0,-0.0,0.0
2782.2000000078147,0.2491628,-0.22059284,0.17232162,-2.895165,0.13053061,1.2709049,1.090617,0.039997455,0.039999958,-1.6105216,-2.7107887268066406,-9.2894535,0.0,-0.0,0.0
2782.2166666744815,0.2491628,-0.22059284,0.17232162,-2.895165,0.13053061,1.2709049,1.090617,0.039997455,0.039999958,-1.6105216,-2.7107887268066406,-9.2894535,0.0,-0.0,0.0
2782.2333333411484,0.2491628,-0.22059284,0.17232162,-2.895165,0.13053061,1.2709049,1.090617,0.039997455,0.039999958,-1.6105216,-2.7107887268066406,-9.2894535,0.0,-0.0,0.0
2782.2500000078153,0.2491628,-0.22059284,0.17232162,-2.895165,0.13053061,1.2709049,1.090617,0.039997455,0.039999958,-1.6105216,-2.7107887268066406,-9.2894535,0.0,-0.0,0.0
2782.266666674482,0.2491628,-0.22059284,0.17232162,-2.895165,0.13053061,1.2709049,1.090617,0.039997455,0.039999958,-1.6105216,-2.7107887268066406,-9.2894535,0.0,-0.0,0.0
2782.283333341149,0.2491628,-0.22059284,0.17232162,-2.895165,0.13053061,1.2709049,1.090617,0.039997455,0.039999958,-1.6105216,-2.7107887268066406,-9.2894535,0.0,-0.0,0.0
2782.300000007816,0.2491628,-0.22059284,0.17232162,-2.895165,0.13053061,1.2709049,1.090617,0.039997455,0.039999958,-1.6105216,-2.7107887268066406,-9.2894535,0.0,-0.0,0.0
2782.316666674483,0.2491628,-0.22059284,0.17232162,-2.895165,0.13053061,1.2709049,1.090617,0.039997455,0.039999958,-1.6105216,-2.7107887268066406,-9.2894535,0.0,-0.0,0.0
2782.3333333411497,0.2491628,-0.22059284,0.17232162,-2.895165,0.13053061,1.2709049,1.090617,0.039997455,0.039999958,-1.6105216,-2.7107887268066406,-9.2894535,0.0,-0.0,0.0
2782.3500000078166,0.2491628,-0.22059284,0.17232162,-2.895165,0.13053061,1.2709049,1.090617,0.039997455,0.039999958,-1.6105216,-2.7107887268066406,-9.2894535,0.0,-0.0,0.0
2782.3666666744834,0.2491628,-0.22059284,0.17232162,-2.895165,0.13053061,1.2709049,1.090617,0.039997455,0.039999958,-1.6105216,-2.7107887268066406,-9.2894535,0.0,-0.0,0.0
2782.3833333411503,0.2491628,-0.22059284,0.17232162,-2.895165,0.13053061,1.2709049,1.090617,0.039997455,0.039999958,-1.6105216,-2.7107887268066406,-9.2894535,0.0,-0.0,0.0
2782.400000007817,0.2491628,-0.22059284,0.17232162,-2.895165,0.13053061,1.2709049,1.090617,0.039997455,0.039999958,-1.6105216,-2.7107887268066406,-9.2894535,0.0,-0.0,0.0
2782.416666674484,0.2491628,-0.22059284,0.17232162,-2.895165,0.13053061,1.2709049,1.090617,0.039997455,0.039999958,-1.6105216,-2.7107887268066406,-9.2894535,0.0,-0.0,0.0
2782.433333341151,0.2491628,-0.22059284,0.17232162,-2.895165,0.13053061,1.2709049,1.090617,0.039997455,0.039999958,-1.6105216,-2.7107887268066406,-9.2894535,0.0,-0.0,0.0
2782.450000007818,0.2491628,-0.22059284,0.17232162,-2.895165,0.13053061,1.2709049,1.090617,0.039997455,0.039999958,-1.6105216,-2.7107887268066406,-9.2894535,0.0,-0.0,0.0
2782.4666666744847,0.2491628,-0.22059284,0.17232162,-2.895165,0.13053061,1.2709049,1.090617,0.039997455,0.039999958,-1.6105216,-2.7107887268066406,-9.2894535,0.0,-0.0,0.0
2782.4833333411516,0.2491628,-0.22059284,0.17232162,-2.895165,0.13053061,1.2709049,1.090617,0.039997455,0.039999958,-1.6105216,-2.7107887268066406,-9.2894535,0.0,-0.0,0.0
2782.5000000078185,0.2491628,-0.22059284,0.17232162,-2.895165,0.13053061,1.2709049,1.090617,0.039997455,0.039999958,-1.6105216,-2.7107887268066406,-9.2894535,0.0,-0.0,0.0
2782.5166666744854,0.2491628,-0.22059284,0.17232162,-2.895165,0.13053061,1.2709049,1.090617,0.039997455,0.039999958,-1.6105216,-2.7107887268066406,-9.2894535,0.0,-0.0,0.0
2782.5333333411522,0.2491628,-0.22059284,0.17232162,-2.895165,0.13053061,1.2709049,1.090617,0.039997455,0.039999958,-1.6105216,-2.7107887268066406,-9.2894535,0.0,-0.0,0.0
2782.550000007819,0.2491628,-0.22059284,0.17232162,-2.895165,0.13053061,1.2709049,1.090617,0.039997455,0.039999958,-1.6105216,-2.7107887268066406,-9.2894535,0.0,-0.0,0.0
2782.566666674486,0.2491628,-0.22059284,0.17232162,-2.895165,0.13053061,1.2709049,1.090617,0.039997455,0.039999958,-1.6105216,-2.7107887268066406,-9.2894535,0.0,-0.0,0.0
2782.583333341153,0.2491628,-0.22059284,0.17232162,-2.895165,0.13053061,1.2709049,1.090617,0.039997455,0.039999958,-1.6105216,-2.7107887268066406,-9.2894535,0.0,-0.0,0.0
2782.6000000078197,0.2491628,-0.22059284,0.17232162,-2.895165,0.13053061,1.2709049,1.090617,0.039997455,0.039999958,-1.6105216,-2.7107887268066406,-9.2894535,0.0,-0.0,0.0
