rsonawane2002/My_IMU/logs_2/traj_368/clean_368.csv
time,j1,j2,j3,j4,j5,j6,j7,gripper1,gripper2,imu_ax,imu_ay,imu_az,imu_gx,imu_gy,imu_gz,quat_x,quat_y,quat_z,quat_w
1293.8833333324853,0.00016700293,-0.785875,4.0107683e-05,-2.3551247,9.29385e-05,1.570997,0.786,0.04,0.04,0.0,-0.0,0.0,2.875329272945135e-08,-0.0011641195053377316,4.421952117202833e-08,0.9999995971961153,0.00020320632366974898,0.0008736418299892524,3.263050917662294e-05
1293.899999999152,0.00016700538,-0.78576016,4.0106203e-05,-2.3552213,9.297085e-05,1.5709941,0.786,0.04,0.04,-0.29199845948260084,-2.2536556056339295e-05,0.020128411297726245,-8.524576804717704e-08,-0.00223782764186102,2.428256148006261e-07,0.9999996850580876,0.00020321037124098216,0.000766502518423601,3.260613316579503e-05
1293.9166666658186,0.00016700401,-0.7856543,4.004622e-05,-2.35531,9.2978466e-05,1.5709913,0.786,0.04,0.04,0.023328728965998913,9.165443005682158e-05,-0.0016704139129908313,-5.35671773532839e-07,-0.0032271418748384554,1.3736843214048376e-06,0.9999997558396588,0.0002032366386701747,0.0006677972508135488,3.2593298878655967e-05
1293.9333333324853,0.00016699044,-0.78555703,3.9831953e-05,-2.355391,9.293491e-05,1.5709884,0.786,0.04,0.039999995,0.022460756791864434,0.00023389307335133758,-0.0015248391787237026,-2.4075796715013182e-06,-0.004138049881720824,5.058205662592396e-06,0.9999998122191502,0.0002033232110717034,0.0005771981984217248,3.261250840036828e-05
1293.949999999152,0.0001669515,-0.7854678,3.9326616e-05,-2.3554652,9.276603e-05,1.5709856,0.786,0.04,0.04,0.020650725919879598,0.0004655131151743439,-0.001526568046372745,-5.899560975648647e-06,-0.0049725163522448,9.752570282947577e-06,0.9999998566976531,0.00020352509977466683,0.0004940795133661036,3.267478031210126e-05
1293.9666666658186,0.00016686895,-0.78538615,3.8355378e-05,-2.3555322,9.241401e-05,1.5709827,0.7859981,0.04,0.04,0.02052775806378193,0.0007353568662494191,-0.0011381482518446617,-1.2514757782405661e-05,-0.005736519329507097,1.7935068732337405e-05,0.9999998913687144,0.0002029595819489439,0.00041832201010460226,3.281255365037624e-05
1293.9833333324852,0.00016672036,-0.78531176,3.67098e-05,-2.355597,9.1805894e-05,1.5709797,0.7859962,0.04,0.04,0.011650033154975148,0.0010615431861270275,-0.003287128744999812,-1.4615318348060744e-05,-0.006429518196983004,3.121916751856926e-05,0.9999999186381431,0.0002026654136291433,0.00034721363785034434,3.30624671350458e-05
1293.999999999152,0.00016647966,-0.7852444,3.4151526e-05,-2.3556552,9.085945e-05,1.5709767,0.7859943,0.04,0.039999995,0.01912289215717511,0.001432704193217785,-0.0010302014789242975,-2.173277497100344e-05,-0.00708013086056981,4.911792535073775e-05,0.9999999388551027,0.0002027397976603098,0.00028295975718807136,3.346850494220458e-05
1294.0166666658185,0.00016611775,-0.78518367,3.04154e-05,-2.355709,8.944978e-05,1.5709734,0.7859905,0.04,0.04,0.01449555307406758,0.0018715883829065693,-0.002119440927961236,-3.560128309070061e-05,-0.0076642835470349694,7.039487940291135e-05,0.9999999538659845,0.00020233744406026618,0.0002239808714884244,3.4061073896050166e-05
1294.0333333324852,0.00016560196,-0.7851296,2.5212057e-05,-2.3557596,8.747959e-05,1.5709667,0.78598475,0.04,0.04,0.011995425756894385,0.0023225737060448464,-0.00479515240354722,-4.8775955538032034e-05,-0.008197245641233806,9.789958491416263e-05,0.9999999649054441,0.0002015769878392885,0.0001683398169033033,3.489319202154985e-05
1294.0499999991519,0.00016489749,-0.7850819,1.8231116e-05,-2.3558073,8.481924e-05,1.5709599,0.7859773,0.039999995,0.04,0.011876300497237757,0.002823942881990618,-0.002437157206847118,-6.244228944827807e-05,-0.008695922094989969,0.00013039996434338893,0.9999999723416142,0.0002006750463719413,0.0001172584763578081,3.601036490518506e-05
1294.0666666658185,0.00016396688,-0.7850405,9.143315e-06,-2.3558505,8.135037e-05,1.5709528,0.78596777,0.039999988,0.039999988,0.01450461259360214,0.003342353416649764,-0.0017952716745206487,-7.982869626075347e-05,-0.00914921050145713,0.00017079618749793902,0.9999999768318852,0.00019958790461973783,7.139249411188782e-05,3.7470108018296224e-05
1294.0833333324852,0.000162771,-0.78500557,-2.396785e-06,-2.355893,7.694376e-05,1.5709423,0.7859563,0.039999984,0.03999998,0.007341068778865534,0.003890555204919856,-0.005857012802756856,-0.00010015863266447174,-0.00955059677924412,0.0002176520010138745,0.9999999791391051,0.00019854668050014413,2.7463598936410275e-05,3.9328814461620265e-05
1294.0999999991518,0.00016126876,-0.7849768,-1.6748962e-05,-2.3559325,7.146122e-05,1.5709311,0.78594226,0.039999977,0.039999973,0.011423063994309146,0.004463297429330251,-0.0027356954663604327,-0.00012632129645523816,-0.009931063564889146,0.0002703829020607645,0.9999999795850714,0.00019734147452463578,-1.2322835830544896e-05,4.1645490900105015e-05
1294.1166666658185,0.00015941769,-0.78495437,-3.428548e-05,-2.3559687,6.476123e-05,1.5709167,0.7859251,0.03999997,0.03999996,0.011703387900396933,0.005055493000211635,-0.004519636501454372,-0.00015664003926207665,-0.010269140969357491,0.00033093804758794636,0.9999999786312505,0.00019588662725854918,-4.886088118106161e-05,4.448080646734915e-05
1294.133333332485,0.00015717381,-0.7849387,-5.5389024e-05,-2.356004,5.6696907e-05,1.5708989,0.7859041,0.039999966,0.039999958,0.008009468896919003,0.005665374098283941,-0.005878136725168126,-0.00019089317943412547,-0.010572686717727516,0.00039779983670489884,0.9999999765754368,0.00019398174593413268,-8.322341376963874e-05,4.789646590991576e-05
1294.1499999991518,0.00015449223,-0.7849296,-8.045129e-05,-2.356039,4.7119207e-05,1.5708797,0.78587925,0.039999966,0.039999958,0.007200176732435892,0.006288074896772505,-0.004674936114423822,-0.00022756845869912929,-0.010851953777935117,0.00047199862858180233,0.9999999736632522,0.00019175791398630426,-0.00011490379937222262,5.195685038306054e-05
1294.1666666658184,0.0001513271,-0.7849272,-0.00010987137,-2.3560739,3.5875622e-05,1.5708569,0.78585005,0.03999997,0.03999996,0.0067177912332905265,0.006923209219228477,-0.006374305082768039,-0.0002682419910715636,-0.011100162369767397,0.0005536783669778813,0.9999999700080574,0.00018914053054882495,-0.00014488550712892493,5.672683694171032e-05
1294.183333332485,0.00014763168,-0.7849317,-0.0001440545,-2.3561082,2.2812079e-05,1.5708303,0.7858163,0.03999997,0.039999958,0.007244353458113473,0.007567465686081623,-0.0065455045667572875,-0.0003126371140706973,-0.01132874547883701,0.0006438160307413553,0.9999999657463827,0.00018620663645538838,-0.0001730791270733949,6.227308899033527e-05
1294.1999999991517,0.00014335894,-0.7849434,-0.00018341055,-2.3561425,7.771014e-06,1.5707998,0.7857773,0.039999973,0.03999996,0.006658961851924161,0.008219818428023853,-0.006982896379326142,-0.0003616333615081475,-0.011535376184988082,0.00074079181473709,0.9999999610136004,0.00018273698133164113,-0.00019966344714992228,6.866222336016351e-05
1294.2166666658184,0.00013846118,-0.7849625,-0.00022835324,-2.3561769,-9.405037e-06,1.5707653,0.7857327,0.039999973,0.03999996,0.0068834168171383325,0.008877141221768954,-0.007206634312906246,-0.00041397619655302465,-0.011721473309642204,0.0008455387769619135,0.9999999559154971,0.00017878216351908355,-0.00022457884637561815,7.596238297435958e-05
1294.233333332485,0.00013289048,-0.78498906,-0.00027929875,-2.3562112,-2.8874076e-05,1.5707259,0.78568214,0.039999977,0.03999996,0.006787137737829241,0.00953774660003748,-0.007807558226935463,-0.00047010533562548244,-0.011885816407251677,0.0009589758795473173,0.9999999504780249,0.00017430430405173492,-0.00024812331923073613,8.42423638345174e-05
1294.2499999991517,0.00012659868,-0.7850235,-0.00033666493,-2.3562455,-5.079672e-05,1.5706813,0.7856252,0.03999998,0.039999966,0.007029383164947056,0.01020214701701147,-0.008366100448609082,-0.0005302300320333517,-0.012031816245537274,0.0010794291539672298,0.9999999447504725,0.00016926613217153232,-0.0002703564330110636,9.357044290789039e-05
1294.2666666658183,0.000119537544,-0.7850661,-0.00040087043,-2.3562803,-7.5332406e-05,1.5706317,0.78556156,0.039999977,0.039999958,0.00662146723451329,0.01086621228863222,-0.00857233341591268,-0.0005943293415395421,-0.01215931336564058,0.0012086436799416426,0.9999999387851767,0.00016366043327192833,-0.0002912483415162915,0.00010401590751416755
1294.283333332485,0.0001116588,-0.78511727,-0.00047233363,-2.3563156,-0.00010264121,1.5705768,0.7854907,0.03999998,0.03999996,0.006900359028572112,0.011530167211409445,-0.009042975126516417,-0.0006624355153690351,-0.012267827809791312,0.0013449170689978506,0.9999999326242232,0.00015742021591931736,-0.00031079898421195975,0.00011564781050828638
1294.2999999991516,0.00010291427,-0.78517675,-0.0005514721,-2.3563511,-0.00013288141,1.5705156,0.78541213,0.03999998,0.039999958,0.006840229905691331,0.012191291138755191,-0.009459159224300961,-0.0007348930002548386,-0.012357202684131941,0.001489967026478914,0.9999999261666574,0.00015047809168081857,-0.00032939571676410376,0.00012853593056044493
1294.3166666658183,9.325598e-05,-0.7852451,-0.00063870236,-2.356388,-0.00016621301,1.5704485,0.7853256,0.039999984,0.03999996,0.005478860229302107,0.012850734226530752,-0.010122999438499924,-0.0008106860505407293,-0.012431207292182164,0.0016420791851912665,0.9999999193172552,0.00014285529471145736,-0.0003472470778680988,0.00014274913196206664
1294.333333332485,8.263619e-05,-0.7853227,-0.00073443836,-2.3564289,-0.0002027942,1.5703751,0.78523064,0.039999984,0.039999958,0.0017057016723054375,0.013503064187431156,-0.011665549565331723,-0.0008909838754256579,-0.0124897008817089,0.0018028780355537964,0.999999911603207,0.0001345120007355502,-0.0003655450607892656,0.0001583569022249692
1294.3499999991516,7.100746e-05,-0.78541,-0.0008390916,-2.3564713,-0.00024278082,1.5702946,0.7851269,0.039999988,0.03999996,0.0055798695118403074,0.0141535209151119,-0.011475522303605601,-0.0009752481809233412,-0.012546469470058878,0.0019708722400563886,0.9999999032604301,0.00012543763295551686,-0.0003833656816210802,0.0001754288601326941
1294.3666666658182,5.832275e-05,-0.785507,-0.00095307035,-2.3565142,-0.00028633,1.5702072,0.7850139,0.039999988,0.039999958,0.007767603367114795,0.014800317438944197,-0.01092398576256759,-0.001064086765757013,-0.012589971684327208,0.002146547236825266,0.9999998945045192,0.00011553082255506128,-0.0003999935386003378,0.00019403285453853988
1294.3833333324849,4.4535478e-05,-0.78561413,-0.0010767786,-2.3565586,-0.00033359532,1.5701125,0.7848912,0.03999999,0.03999996,0.00631832478357186,0.015435355904321307,-0.011881804239100013,-0.0011566676295270174,-0.012614732677363055,0.0023301242075778657,0.9999998850392691,0.00010474741078413036,-0.00041599471585566315,0.00021423777665292894
1294.3999999991515,2.9599512e-05,-0.7857318,-0.0012106178,-2.3566082,-0.00038473052,1.5700101,0.7847585,0.039999995,0.03999997,0.00028126190876331947,0.016060314050626953,-0.014047070541756135,-0.0012529217350261456,-0.012626060909990699,0.002520562265878213,0.9999998739761158,9.313031627228774e-05,-0.0004331571891910202,0.0002361129946169635
1294.4166666658182,1.3469235e-05,-0.78586006,-0.0013549834,-2.3566587,-0.0004398861,1.5698994,0.7846153,0.03999999,0.039999977,0.007438797838510425,0.016687279309245122,-0.012606897480149648,-0.0013537008875462511,-0.012639503002427246,0.0027162390228276673,0.99999986195622,8.054333511440831e-05,-0.00044960318532684287,0.0002597254078053112
1294.4333333324848,-3.9007305e-06,-0.78599936,-0.0015102667,-2.356711,-0.0004992108,1.5697803,0.7844612,0.039999995,0.03999997,0.006598260164847325,0.017299330374995456,-0.01334998091253592,-0.0014577702779768349,-0.012638521909823182,0.0029256121408870123,0.9999998487104902,6.699616703537978e-05,-0.00046560070225316294,0.00028514294045055435
1294.4499999991515,-2.2554466e-05,-0.7861501,-0.0016768535,-2.3567686,-0.0005628527,1.5696527,0.78429604,0.04,0.03999998,0.0005299754910925714,0.017893688863904467,-0.015394347294317434,-0.0015658588206475445,-0.012623502997769449,0.003138465599137029,0.9999998332130408,5.252410163556872e-05,-0.0004829078365484756,0.0003124342022352044
1294.4666666658181,-4.2535925e-05,-0.78631264,-0.0018551251,-2.3568275,-0.0006309579,1.5695162,0.78411937,0.04,0.03999998,0.008124991518188018,0.018498288062436617,-0.013860426596457032,-0.0016783653856606816,-0.012613586497206605,0.0033604430248845396,0.9999998162860582,3.7074229443976884e-05,-0.0004993189252190804,0.00034166352241294594
1294.4833333324848,-6.388838e-05,-0.7864871,-0.0020454556,-2.3568912,-0.00070366723,1.5693704,0.7839307,0.04,0.039999984,0.002017245728858086,0.01906884346293226,-0.015897440380108208,-0.0017951771064862263,-0.012585161748281233,0.0035901448983125398,0.9999997967198861,2.055741178955707e-05,-0.00051680057615622,0.0003729004473997879
1294.4999999991514,-8.665414e-05,-0.78667367,-0.0022482155,-2.356957,-0.0007811235,1.5692152,0.78372973,0.04,0.039999973,0.006614966317508575,0.019651200978101375,-0.014924646263447805,-0.0019159159760171046,-0.012558716861069191,0.003830596061161903,0.999999774908913,2.9449321897522387e-06,-0.0005340113265581242,0.00040620851048896644
1294.516666665818,-0.00011087505,-0.78687286,-0.002463766,-2.3570259,-0.00086346443,1.5690504,0.783516,0.04,0.03999997,0.005531556022431161,0.02020696331523795,-0.015758063041637627,-0.0020405326305136338,-0.012519166237644002,0.004076011106408215,0.9999997504246583,-1.582727425495525e-05,-0.0005512189820491238,0.00044165343024844686
1294.5333333324847,-0.00013659227,-0.78708506,-0.0026924643,-2.3570993,-0.00095082266,1.5688753,0.7832893,0.04,0.039999943,0.003213625171971657,0.020747802488770457,-0.01723770251558232,-0.0021685090409445107,-0.012470805410488246,0.0043340656833268315,0.9999997224013174,-3.570678247473559e-05,-0.0005693768055025196,0.0004793040446399746
1294.5499999991514,-0.00016384575,-0.7873105,-0.002934661,-2.3571746,-0.0010433369,1.5686901,0.7830492,0.039999988,0.03999993,0.007984243239955724,0.02129997168381385,-0.01603745793785638,-0.0023010428637939995,-0.01242242324460352,0.004594482716874679,0.9999996913468978,-5.679051452580452e-05,-0.0005869345703159957,0.0005192193725552264
1294.566666665818,-0.00019267511,-0.7875495,-0.0031906979,-2.3572557,-0.0011411372,1.568494,0.7827954,0.039999984,0.039999917,0.001651913513778247,0.021804005619728995,-0.018497189832622496,-0.0024374018444852322,-0.012358088834675596,0.004862566603394441,0.9999996556440717,-7.909458023276887e-05,-0.0006059779059697393,0.0005614682208494322
1294.5833333324847,-0.0002231189,-0.78780234,-0.0034609127,-2.3573394,-0.0012443513,1.5682871,0.78252757,0.039999977,0.039999913,0.007190469631113139,0.022331202269117948,-0.017176030744292525,-0.002577378690234602,-0.012297579621803827,0.005136444548763636,0.9999996158713255,-0.0001026616573167168,-0.0006247776917176463,0.0006061110638001349
1294.5999999991514,-0.00025521521,-0.78806895,-0.003745636,-2.3574286,-0.001353106,1.5680693,0.78224534,0.039999977,0.03999991,0.0021652913336334123,0.022816753232919335,-0.018619122781760034,-0.0027213505274007958,-0.012224538947931173,0.005418312890109647,0.9999995705691261,-0.0001275128887792224,-0.0006449128133893332,0.0006532147346515603
1294.616666665818,-0.00028900095,-0.7883499,-0.0040451884,-2.3575242,-0.0014675239,1.5678402,0.78194845,0.039999977,0.039999906,0.0010613629187528062,0.02329084168705902,-0.019669793634879973,-0.002869454903876462,-0.012154938211798534,0.005707349281524616,0.9999995189260925,-0.00015367288252577974,-0.0006667402048489771,0.0007028440281870622
1294.6333333324847,-0.00032451245,-0.78864545,-0.004359887,-2.3576214,-0.0015877249,1.5675994,0.78163654,0.039999984,0.039999906,0.009210053743857749,0.023792416335564406,-0.01793222277468587,-0.003021195078013598,-0.012089960227270075,0.0060033196135932726,0.9999994618833024,-0.0001811916970797459,-0.0006879643322900553,0.0007550548007777137
1294.6499999991513,-0.00036178512,-0.78895605,-0.0046900413,-2.3577254,-0.0017138282,1.5673468,0.78130925,0.039999988,0.039999906,0.0012297199954325322,0.024220573121372033,-0.020584304026294298,-0.0031768215486420483,-0.012008626578910287,0.006306511932928129,0.9999993972642016,-0.0002101335695538548,-0.0007108791122431752,0.0008099172823680541
1294.666666665818,-0.00040085352,-0.7892818,-0.0050359494,-2.3578312,-0.0018459476,1.5670824,0.78096634,0.039999995,0.039999913,0.009354617603141158,0.024694662151600842,-0.018518390807398255,-0.003336097397817466,-0.011933663329987554,0.006616686869499824,0.9999993261212718,-0.00024049645292128992,-0.0007330697135833414,0.0008674832870963959
1294.6833333324846,-0.00044175124,-0.78962314,-0.0053979047,-2.3579433,-0.0019841967,1.5668055,0.78060764,0.04,0.03999991,0.002330450917242821,0.025091637179233683,-0.02126342865182984,-0.0034989516523168847,-0.011841023352289981,0.0069337513917106745,0.9999992461354709,-0.00027226293296404326,-0.0007568001814420634,0.0009278226503951433
1294.6999999991513,-0.00048451143,-0.78998,-0.0057761963,-2.358058,-0.002128683,1.5665163,0.7802327,0.039999995,0.039999906,0.008304931120606263,0.025540629133396706,-0.019455770165732744,-0.003666324042760582,-0.01175159204900993,0.007257160942660757,0.9999991579234342,-0.00030552578247480653,-0.0007802217016935013,0.0009909896643259901
1294.716666665818,-0.0005291659,-0.7903527,-0.006171102,-2.3581786,-0.0022795135,1.5662146,0.7798413,0.04,0.039999906,0.002914831258560291,0.02591274843849311,-0.021354248664540165,-0.0038372845505293234,-0.01164949453481175,0.0075887417436290815,0.9999990594403868,-0.0003403337030791611,-0.0008049424474378723,0.0010570520179405615
1294.7333333324846,-0.00057574565,-0.7907417,-0.0065828953,-2.358306,-0.0024367925,1.5658997,0.77943313,0.04,0.039999906,0.001926365854232337,0.02629034802928351,-0.022385708757277634,-0.004011953407859453,-0.011548450018460589,0.007926026318295813,0.9999989494050194,-0.0003767053763953321,-0.0008314082523230457,0.001126073814004278
1294.7499999991512,-0.00062428124,-0.791147,-0.007011839,-2.3584356,-0.0026006193,1.5655719,0.779008,0.04,0.039999902,0.009264436067302206,0.026706033774505714,-0.02045960548939796,-0.004190504167000123,-0.011452665723481446,0.008270373796037211,0.9999988287522266,-0.000414653850259211,-0.000857382710500817,0.0011981031872445064
1294.7666666658179,-0.0006748021,-0.79156893,-0.0074581876,-2.358572,-0.0027710937,1.5652307,0.7785656,0.04,0.0399999,0.0021456877794534535,0.02701629969824003,-0.022839057266610396,-0.0043728216929898485,-0.01134091567616715,0.00862127737175057,0.9999986946640295,-0.0004542123909719184,-0.0008850399773258385,0.0012732107365345255
1294.7833333324845,-0.00072733645,-0.7920079,-0.007922195,-2.3587148,-0.0029483093,1.5648757,0.77810574,0.04,0.039999895,0.002804490055985376,0.027361428413944823,-0.02336347661595628,-0.004559029294925323,-0.011234242874541108,0.00897939500594788,0.9999985461003669,-0.0004954079241846792,-0.0009142891575846641,0.0013514597579871862
1294.7999999991512,-0.000781912,-0.79246396,-0.008404097,-2.3588607,-0.0031323596,1.5645074,0.7776281,0.04,0.039999895,0.00856182052515475,0.02772791647628007,-0.021570269007953335,-0.004748964032547518,-0.011131173873184932,0.009344932320585444,0.9999983836917716,-0.0005382964806894279,-0.0009432213520927975,0.0014328936541376015
1294.8166666658178,-0.00083855604,-0.79293734,-0.008904129,-2.3590124,-0.0033233345,1.5641253,0.7771327,0.04,0.03999989,0.004266828342247564,0.028012289025793058,-0.023212146531292888,-0.004942924391906741,-0.011013755598560916,0.009716030287621283,0.9999982050914265,-0.0005828287630854394,-0.0009731760605623026,0.0015175812708486777
1294.8333333324845,-0.00089729397,-0.7934283,-0.009422523,-2.359171,-0.0035213188,1.563729,0.77661896,0.04,0.039999887,0.0022936197906942013,0.02829213580325205,-0.024274813263502892,-0.00514126366778863,-0.010895611181941215,0.010094383024252323,0.9999980082350897,-0.0006291657894274357,-0.0010048665067464518,0.0016055900991288178
1294.8499999991511,-0.00095815095,-0.79393697,-0.009959495,-2.359335,-0.0037263967,1.5633185,0.7760868,0.04,0.039999887,0.004748327685444309,0.028591833711593892,-0.023845545693013115,-0.0053430321369205,-0.0107817113270674,0.010479917254182604,0.9999977924978645,-0.0006772884081065392,-0.001037575610129135,0.0016969727939403195
1294.8666666658178,-0.0010211514,-0.7944634,-0.010515252,-2.3595028,-0.0039386502,1.5628937,0.775536,0.04,0.039999876,0.0076134880208300615,0.028885563534854913,-0.02310418239126477,-0.005548367055571504,-0.010665846137570156,0.010871532397420263,0.9999975574710995,-0.0007272395561853122,-0.0010703774874335598,0.0017917774687041443
1294.8833333324844,-0.001086319,-0.79500794,-0.011090004,-2.3596773,-0.0041581555,1.5624545,0.7749665,0.04,0.039999876,0.0029683471976404974,0.02909605655294252,-0.024888017252089334,-0.005757816082745535,-0.010539514353735166,0.011269575421510292,0.9999973002065069,-0.0007789868388279795,-0.0011047005087404512,0.0018900783022091502
1294.899999999151,-0.0011536756,-0.79557073,-0.011683949,-2.359859,-0.004384989,1.5620005,0.77437794,0.04,0.03999987,0.002178743476233258,0.029325853669318752,-0.025306451264928143,-0.005971227730714179,-0.010415502181134895,0.011674632061849665,0.999997018773812,-0.0008326156430100302,-0.00114078066702497,0.0019919372854366383
1294.9166666658177,-0.0012232431,-0.79615206,-0.012297271,-2.3600454,-0.0046192226,1.5615317,0.77377015,0.04,0.03999987,0.0063940167316811625,0.0295812727367277,-0.024659497635859395,-0.006188669526719474,-0.01029700381991138,0.01208644327186874,0.9999967128935687,-0.000888179316244852,-0.00117739364327738,0.0020973992868669124
1294.9333333324844,-0.0012950419,-0.79675174,-0.012930154,-2.3602371,-0.004860923,1.561048,0.773143,0.04,0.03999986,0.00534721918843406,0.029785894744721597,-0.02473734979617781,-0.006409842984112662,-0.010172316742612753,0.012504995310895325,0.9999963805840818,-0.0009456796077172669,-0.0012148050904208986,0.002206526094984701
1294.949999999151,-0.0013690924,-0.7973707,-0.013582773,-2.3604348,-0.005110162,1.5605495,0.77249634,0.04,0.039999854,0.004986918688798525,0.02996804515873301,-0.02570872962415205,-0.006634917634951845,-0.010043173746702695,0.01292981481811026,0.9999960201179703,-0.0010051255248557012,-0.001252982513231073,0.002319376149078741
1294.9666666658177,-0.0014454137,-0.79800844,-0.014255298,-2.3606396,-0.0053670024,1.5600355,0.77182996,0.04,0.039999858,0.002236890382123491,0.03011923058795253,-0.026499431385218486,-0.0068643769442196245,-0.009910923876482805,0.01336073648405728,0.9999956281295125,-0.0010665895867215131,-0.0012930255096790708,0.0024360200217829323
1294.9833333324843,-0.0015240243,-0.7986652,-0.014947887,-2.3608496,-0.005631501,1.5595059,0.7711436,0.04,0.039999846,0.005573755384036261,0.030314153280398826,-0.025829022243617494,-0.007097655381898348,-0.00978341462025134,0.013799472683359727,0.9999952038939582,-0.0011301391648789046,-0.0013338878772286118,0.002556504973609241
1294.999999999151,-0.0016049406,-0.79934114,-0.015660686,-2.3610656,-0.005903719,1.5589613,0.7704375,0.03999999,0.03999983,0.004509766673299609,0.030448559238755585,-0.02600907159624466,-0.007334546247445076,-0.009652524143529705,0.014243757104144621,0.9999947453680564,-0.001195646264681216,-0.0013756860040476837,0.002680886850289354
1295.0166666658176,-0.0016881799,-0.8000365,-0.016393857,-2.3612878,-0.006183713,1.558401,0.76971143,0.04,0.039999835,0.004181720206108963,0.030588310192218235,-0.02670632285137753,-0.007576539564550455,-0.009517918370656422,0.014694985463017595,0.999994250096148,-0.0012631284461945608,-0.0014186250890905595,0.002809231928417029
1295.0333333324843,-0.0017737579,-0.80075127,-0.017147511,-2.3615162,-0.0064715347,1.557825,0.76896465,0.04,0.039999828,0.004043759678107328,0.030673928372029757,-0.026864071897003683,-0.007824028974332653,-0.009384212317489898,0.015153446193192848,0.9999937152548695,-0.001332976927199908,-0.0014627601664195988,0.0029415907210120513
1295.049999999151,-0.0018616895,-0.8014856,-0.0179218,-2.361751,-0.0067672324,1.5572332,0.7681976,0.04,0.039999824,0.0036647297312786264,0.03079260453613189,-0.02710711988334058,-0.008073279279250285,-0.009250404594011823,0.015617354621309545,0.9999931386933787,-0.0014049163062478962,-0.001508147790880495,0.003078029658457523
1295.0666666658176,-0.0019519884,-0.80223966,-0.018716846,-2.361992,-0.0070708585,1.5566255,0.7674097,0.04,0.03999982,0.004483298660318269,0.03089280805374031,-0.027252805554467407,-0.008327270927669633,-0.009115943700588436,0.016088136017779288,0.9999925178828183,-0.0014792158235217823,-0.0015545746551322008,0.003218601648286499
1295.0833333324842,-0.0020446684,-0.8030136,-0.01953276,-2.362239,-0.0073824516,1.556002,0.7666013,0.04,0.039999828,0.004236601327956002,0.030953177386404407,-0.02735553590189621,-0.008584293597679163,-0.008979940878202114,0.016565469977383368,0.9999918507222649,-0.0015556454780548128,-0.0016019479056601726,0.0033633642552393624
1295.099999999151,-0.002139742,-0.80380744,-0.020369658,-2.3624923,-0.007702058,1.5553626,0.76577216,0.04,0.039999817,0.0035785993618420164,0.031009710314480743,-0.027679557545812195,-0.00884656030658973,-0.008841998309328816,0.01704982109108141,0.9999911338618996,-0.0016343639630611807,-0.0016505309059647677,0.0035123780771723445
1295.1166666658175,-0.0022372205,-0.80462146,-0.021227637,-2.3627524,-0.008029713,1.5547068,0.7649221,0.04,0.039999813,0.0033307928311465673,0.031031248687390933,-0.02833135764410688,-0.009112730067161685,-0.008703299966238733,0.01754075346850838,0.9999903641776262,-0.001715418685392099,-0.0017004380545904399,0.003665706078621725
1295.1333333324842,-0.0023371147,-0.80545545,-0.022106804,-2.3630183,-0.008365458,1.5540351,0.76405096,0.04,0.03999981,0.0046778643616685045,0.03111276503055399,-0.027597418294611487,-0.009382983701168551,-0.008567076011569447,0.018037274564142777,0.9999895396202749,-0.00179884624262956,-0.0017511280911248078,0.003823395432622768
1295.1499999991509,-0.0024394344,-0.8063098,-0.023007238,-2.3632908,-0.008709325,1.5533469,0.7631588,0.04,0.039999805,0.0032386236334724927,0.03107732575720057,-0.028684485452301622,-0.009657182914578448,-0.008426668443010203,0.01854083319212676,0.9999886562409666,-0.0018846477383984356,-0.001803102515376482,0.003985512966643939
1295.1666666658175,-0.0025441907,-0.8071845,-0.023929017,-2.3635697,-0.009061346,1.5526423,0.7622455,0.04,0.0399998,0.0034864157992586797,0.031081006759859503,-0.028541831453887667,-0.009935995462778964,-0.008286157076225771,0.019050680424191377,0.9999877110361092,-0.001972876718161738,-0.0018562068663394418,0.004152111545634989
1295.1833333324842,-0.002651391,-0.8080794,-0.024872227,-2.3638556,-0.009421546,1.5519218,0.761311,0.04,0.0399998,0.002531496910695985,0.03106634149523807,-0.02849605100465613,-0.01021879245027913,-0.008147199850154767,0.019567870853039175,0.9999867004564008,-0.002063529816746043,-0.001910554748781881,0.004323255205036704
1295.1999999991508,-0.0027610427,-0.8089947,-0.02583693,-2.3641477,-0.009789954,1.5511844,0.76035523,0.04,0.039999787,0.0034990971658155345,0.031040302035199863,-0.029089049992969684,-0.010506428710995191,-0.008008191748126024,0.02009095204821836,0.9999856208730974,-0.002156668660690118,-0.001966169961505915,0.0044990002241001945
1295.2166666658175,-0.0028731525,-0.8099304,-0.026823197,-2.3644464,-0.010166596,1.5504311,0.75937814,0.04,0.03999978,0.0028900360238948153,0.031010194797902874,-0.028580278979650764,-0.010798416808801795,-0.007870187920783443,0.02062052631223709,0.9999844692500107,-0.0022523261572801392,-0.0020227483340913206,0.0046793989819963345
1295.233333332484,-0.0029877273,-0.81088674,-0.027831072,-2.3647513,-0.010551491,1.5496607,0.7583796,0.04,0.03999978,0.003462117772268236,0.030935422058633866,-0.029614495464103108,-0.011094727509312369,-0.007730519859288888,0.02115660429261819,0.9999832411615301,-0.002350574284334444,-0.002080551363061249,0.004864514635652892
1295.2499999991508,-0.0031047724,-0.8118637,-0.02886061,-2.365063,-0.010944654,1.5488741,0.75735956,0.04,0.039999772,0.0027820229080433023,0.030868286552835494,-0.029073228597176204,-0.011395449486908758,-0.007591386880110511,0.02169911094192754,0.9999819332999896,-0.002451424586732334,-0.002139304149164529,0.005054400940574408
1295.2666666658174,-0.0032242925,-0.8128614,-0.02991185,-2.3653805,-0.011346108,1.5480707,0.7563181,0.04,0.039999772,0.0036433980566519253,0.03080054740910998,-0.029517860208705393,-0.011700313985043537,-0.007452305733025362,0.022248115451696915,0.999980541625593,-0.0025548903954315293,-0.0021990296367721345,0.005249111725760578
1295.283333332484,-0.0033462907,-0.81387955,-0.030984834,-2.365705,-0.011755868,1.5472509,0.755255,0.04,0.039999764,0.0018746497206567625,0.030679358159674264,-0.029467809632222064,-0.012010203252234175,-0.007310730496845941,0.022804323792462406,0.9999790610967132,-0.0026610841928063644,-0.002259988152297808,0.005448711095885164
1295.2999999991507,-0.0034707712,-0.8149184,-0.032079592,-2.3660367,-0.012173937,1.5464143,0.7541704,0.04,0.039999757,0.001358084551017491,0.03053897459235344,-0.030118704347548153,-0.012323973456645404,-0.007170842236808077,0.023366819673323182,0.9999774868623288,-0.0027699429120556516,-0.0023224404814307705,0.0056532694058741735
1295.3166666658174,-0.003597736,-0.8159779,-0.03319614,-2.3663747,-0.012600326,1.5455612,0.75306404,0.04,0.039999753,0.002456183221610786,0.030446916827867043,-0.02960853086189097,-0.012642679539223517,-0.007033804454225731,0.023934694037116414,0.9999758151516009,-0.0028816676898577626,-0.0023858713174150646,0.005862825366080473
1295.333333332484,-0.003727187,-0.817058,-0.034334503,-2.366719,-0.013035043,1.5446912,0.7519363,0.04,0.03999975,0.0026102081913892405,0.03032206658324932,-0.029994015071443947,-0.012964965851712092,-0.006897028111229303,0.024509436099123136,0.9999740417343675,-0.002996045501407182,-0.002450363075557211,0.0060774410392006924
1295.3499999991507,-0.0038591248,-0.818159,-0.03549468,-2.3670702,-0.013478094,1.5438048,0.7507869,0.04,0.039999753,0.0015130927926598758,0.030131468294410102,-0.03010210311036321,-0.013293191391472108,-0.006760234013577705,0.025090991825010008,0.9999721610722965,-0.0031132977951094177,-0.0025159656116427328,0.0062971719272253155
1295.3666666658173,-0.0039935512,-0.81928056,-0.03667668,-2.3674278,-0.013929476,1.5429013,0.74961597,0.04,0.039999746,0.0017734135891789293,0.02997484661172445,-0.030340083104474225,-0.013625468184202627,-0.0066249344956219244,0.02567817396610127,0.9999701679876035,-0.003233368043893519,-0.002582819391219584,0.006522078650923103
1295.383333332484,-0.004130465,-0.82042307,-0.037880506,-2.3677924,-0.014389194,1.5419817,0.74842346,0.04,0.039999742,0.0014103011476640503,0.029809913303038837,-0.030095324164758352,-0.013962825511331968,-0.006491078450719556,0.0262724301048078,0.9999680582050958,-0.0033563246308001998,-0.0026505275056397212,0.006752211374404234
1295.3999999991506,-0.004269865,-0.8215862,-0.03910614,-2.368163,-0.014857244,1.5410448,0.7472093,0.04,0.039999735,0.001754755775285055,0.029612889241610596,-0.030611982706507668,-0.014305221390464931,-0.006357253052495487,0.02687288424580776,0.9999658251765314,-0.003482241020680332,-0.002719467391320186,0.006987630041734966
1295.4166666658173,-0.004411749,-0.82277006,-0.040353578,-2.3685405,-0.015333616,1.5400916,0.74597347,0.04,0.03999974,0.0011965039135475308,0.029409478582519133,-0.030264412401170837,-0.014652164352123916,-0.006224518611230988,0.027479847517764316,0.9999634640018424,-0.0036111935891763544,-0.0027893305973889252,0.0072283868958335626
1295.433333332484,-0.004556115,-0.82397455,-0.0416228,-2.3689244,-0.015818307,1.5391217,0.7447161,0.04,0.039999723,0.0011803610690863664,0.029206271157769526,-0.030461370066947602,-0.015003299390896466,-0.006091585051719792,0.028092635593542588,0.9999609688729307,-0.0037431392372318925,-0.002860226404833686,0.007474539736560123
1295.4499999991506,-0.0047029606,-0.8251997,-0.042913765,-2.3693147,-0.016311305,1.5381354,0.7434372,0.04,0.039999723,0.0011348963614876695,0.028967432060132692,-0.03041454154149026,-0.015359567196165325,-0.00595990546007652,0.02871111875772218,0.9999583341767885,-0.00387816423536096,-0.002931994729049201,0.007726134832797713
1295.4666666658172,-0.004852281,-0.82644546,-0.044226464,-2.3697116,-0.016812602,1.5371323,0.7421369,0.04,0.03999972,0.00030924318965563913,0.0287251805638572,-0.030809272404086485,-0.0157202413303354,-0.005828349556973103,0.029336348456195968,0.9999555530201611,-0.004016203124106897,-0.003004982467496412,0.007983243512482783
1295.4833333324839,-0.0050040716,-0.82771194,-0.045560837,-2.3701153,-0.017322173,1.5361125,0.74081504,0.04,0.03999972,0.0003839467667798857,0.028443403815048285,-0.03082921308399378,-0.01608681184783086,-0.0056998580349021805,0.029967935087588313,0.9999526191457618,-0.004157441955265514,-0.0030789682282104437,0.008245913810453049
1295.4999999991505,-0.005158328,-0.82899874,-0.046916872,-2.370526,-0.017840017,1.5350765,0.73947173,0.04,0.039999716,-0.0009745566222019164,0.028198633202644596,-0.03070345408318076,-0.01645784104998481,-0.005572137767070433,0.030605022619008604,0.9999495250536659,-0.00430187606198373,-0.003154267918829498,0.008514211718740521
1295.5166666658172,-0.005315045,-0.8303061,-0.048294496,-2.370943,-0.018366098,1.5340238,0.738107,0.04,0.03999971,0.0005781274726945895,0.0279370891551875,-0.03081162001778992,-0.01683317750287018,-0.005448904854416174,0.03124859719865039,0.9999462654179039,-0.004449540091355935,-0.0032304520798151133,0.00878817666653407
1295.5333333324838,-0.005474215,-0.831634,-0.04969366,-2.371366,-0.01890041,1.5329547,0.73672086,0.04,0.039999705,0.0008313381477220716,0.027694972629484227,-0.030510647989290263,-0.01721382078951908,-0.005326767289268904,0.03189779567310619,0.9999428341144216,-0.004600525358577424,-0.0033072396156347684,0.009067846258512322
1295.5499999991505,-0.0056358315,-0.8329825,-0.051114295,-2.3717957,-0.01944292,1.5318692,0.73531365,0.04,0.03999971,-0.00048409684381134355,0.02732378760744031,-0.031054016634768367,-0.017598521616949872,-0.005202184850061922,0.03255304613294388,0.9999392234726844,-0.004754707796904734,-0.003384975841042955,0.009353291033989918
1295.5666666658171,-0.0057998863,-0.8343511,-0.052556347,-2.3722315,-0.019993605,1.5307676,0.73388505,0.04,0.0399997,-0.00026816711251598235,0.027075169465404225,-0.030413209131707752,-0.01798947247049873,-0.005080027835479173,0.03321380368992385,0.9999354259471753,-0.004912327341143599,-0.0034634667025794015,0.009644551536212383
1295.5833333324838,-0.005966372,-0.8357397,-0.05401974,-2.3726742,-0.020552445,1.5296493,0.7324352,0.04,0.039999705,-0.0021051355690637763,0.026674440550253364,-0.03110186603960674,-0.0183843380802267,-0.0049576871059775485,0.03388101159729018,0.9999314311632295,-0.0050733848775255,-0.003543472619468201,0.009941707073497985
1295.5999999991504,-0.0061352784,-0.8371488,-0.055504404,-2.3731236,-0.021119406,1.5285149,0.73096454,0.04,0.0399997,-0.0010426114881445514,0.02637577592589646,-0.031029803115179,-0.01878369845995849,-0.004843167464062159,0.034553576972894545,0.9999272347857772,-0.0052377792971185335,-0.00362423571949018,0.01024478975643278
1295.616666665817,-0.0063065975,-0.8385779,-0.057010233,-2.3735795,-0.021694457,1.5273644,0.7294727,0.04,0.039999697,-0.0014031952951576443,0.026032548289509072,-0.03071333602864268,-0.019188752712265972,-0.0047300464994294855,0.03523170438274966,0.9999228273988507,-0.005405742554667239,-0.0037058883287272855,0.010553842230009294
1295.6333333324837,-0.006480316,-0.8400273,-0.058537167,-2.3740416,-0.02227757,1.5261976,0.7279602,0.04,0.039999686,-0.0011016337214453387,0.025716174655418533,-0.030990458006807664,-0.019598241118011964,-0.004618477050344072,0.03591461244718651,0.9999182022959872,-0.005577084480426737,-0.00378832793479612,0.010868919786152476
1295.6499999991504,-0.0066564283,-0.84149647,-0.06008513,-2.3745096,-0.022868698,1.525015,0.72642684,0.04,0.039999682,-0.0010965990771438783,0.02541746693341118,-0.030333935976867288,-0.020013807991399096,-0.004507796046308535,0.03660376943348276,0.9999133510922721,-0.005752025815550504,-0.0038712983472372654,0.011190065037637467
1295.666666665817,-0.0068349186,-0.8429854,-0.061653987,-2.3749835,-0.023467809,1.5238163,0.72487265,0.04,0.039999682,-0.0015393695280474518,0.024986662147878647,-0.030617339134808574,-0.0204337529144471,-0.004398144605776186,0.03729874280157552,0.9999082642489858,-0.005930613613565913,-0.003955021824675456,0.01151732221973506
1295.6833333324837,-0.0070157778,-0.84449434,-0.06324364,-2.3754642,-0.024074864,1.5226015,0.72329795,0.04,0.039999686,-0.002684124872764926,0.024536592535237545,-0.03124692285656483,-0.02085850489815258,-0.004288674651658761,0.0379990957300486,0.9999029320297759,-0.006112804912743722,-0.00403975004801278,0.01185076174369712
1295.6999999991504,-0.0071989913,-0.8460229,-0.06485401,-2.3759515,-0.024689825,1.5213711,0.7217028,0.04,0.03999968,-0.0031059429376423253,0.024196827811581723,-0.03055368118609625,-0.021288728606165444,-0.004184754923784131,0.03870404123120771,0.9998973458917135,-0.006298654859996217,-0.0041253168846321275,0.012190421906687784
1295.716666665817,-0.0073845475,-0.847571,-0.06648498,-2.3764448,-0.025312645,1.5201252,0.72008723,0.04,0.039999675,-0.0022191325369291803,0.023856812007869155,-0.03040812587609132,-0.02172401743654065,-0.004083687820610221,0.03941325871374776,0.9998914974492025,-0.006488249879179398,-0.00421143621754032,0.012536337075980866
1295.7333333324837,-0.007572431,-0.8491384,-0.06813641,-2.3769443,-0.025943287,1.5188636,0.71845126,0.04,0.039999675,-0.0031377345797611866,0.023398124352760896,-0.030406404394534015,-0.022163928014096876,-0.003983196158696481,0.0401281151254249,0.9998853757534509,-0.0066816735265659765,-0.004298357861392429,0.012888549684124308
1295.7499999991503,-0.007762629,-0.8507252,-0.06980817,-2.3774495,-0.026581695,1.517586,0.7167952,0.04,0.039999675,-0.0024835659832689316,0.022999316017530136,-0.030668654966392594,-0.022608442494884307,-0.0038874068276661677,0.04084821858630804,0.9998789722112132,-0.006878876803210648,-0.004385915372092278,0.01324710270674202
1295.766666665817,-0.007955128,-0.8523312,-0.07150018,-2.3779614,-0.027227825,1.5162932,0.71511906,0.04,0.039999664,-0.004263917956315311,0.022552515563108166,-0.03047813533751942,-0.023058309173081104,-0.003792849304209589,0.041571982875434496,0.9998722750632695,-0.007079964477174632,-0.004474296481635188,0.013612065743228884
1295.7833333324836,-0.008149909,-0.8539564,-0.073212296,-2.3784792,-0.027881626,1.5149851,0.7134232,0.04,0.039999668,-0.0034044920980358384,0.022167734863905164,-0.03020211430309061,-0.023512623410922667,-0.0037035727694545856,0.04230113532361997,0.9998652764970336,-0.007284860801521348,-0.004563186347486932,0.01398345411445483
1295.7999999991503,-0.008346958,-0.8556003,-0.074944325,-2.3790028,-0.02854305,1.5136619,0.71170735,0.04,0.039999664,-0.0036063014434706275,0.021705793048967803,-0.02984622111996682,-0.023972934903769186,-0.0036149492708857367,0.0430347095216679,0.99985796483121,-0.007493802806319804,-0.0046525932251924905,0.014361283346959831
1295.816666665817,-0.008546266,-0.8572631,-0.07669618,-2.3795328,-0.029212033,1.5123233,0.70997196,0.04,0.039999656,-0.004918799430764231,0.021209468608758553,-0.030472643345058614,-0.024437123394566176,-0.0035291843257051064,0.04377276268505127,0.9998503276877854,-0.007706694733440869,-0.004742883874195881,0.01474564788232474
1295.8333333324836,-0.008747804,-0.85894454,-0.07846768,-2.3800688,-0.02988853,1.5109698,0.70821714,0.04,0.03999966,-0.004431535825499822,0.020783320983783216,-0.0298555449674609,-0.02490627032271983,-0.0034487354964484324,0.0445142724742258,0.9998423561791896,-0.007923595038079786,-0.004833681528817296,0.015136543680676823
1295.8499999991502,-0.008951559,-0.86064464,-0.08025868,-2.3806107,-0.03057248,1.5096014,0.70644283,0.04,0.03999966,-0.004651786115905665,0.0203151216447095,-0.02991687889020156,-0.025380607542141623,-0.003371971980296054,0.04526057354008313,0.9998340381694273,-0.00814465055766435,-0.0049249632528459535,0.015534011782797038
1295.8666666658169,-0.009157518,-0.8623631,-0.08206904,-2.3811576,-0.03126382,1.5082183,0.70464945,0.04,0.03999965,-0.003505701638184533,0.019988207216906084,-0.029266957214324485,-0.025858955485554044,-0.0032977419129495422,0.04601069108709215,0.9998253661711727,-0.0083697407777757,-0.005016263906481723,0.015938058113020823
1295.8833333324835,-0.009365657,-0.8640997,-0.083898604,-2.381711,-0.031962495,1.5068203,0.702837,0.04,0.039999653,-0.0064276544500918575,0.01931564303568334,-0.02990019958026835,-0.02634271108031082,-0.0032223375082138517,0.04676433811663993,0.9998163217427823,-0.008599021488065127,-0.005108510930812282,0.016348783509810744
1295.8999999991502,-0.009575956,-0.8658545,-0.08574723,-2.3822703,-0.03266844,1.5054076,0.70100564,0.04,0.039999653,-0.005695602036004388,0.01889850818764527,-0.029752690094242418,-0.02683091875549605,-0.0031556390464153594,0.0475220837883934,0.999806894927955,-0.008832515045682792,-0.0052013249991049075,0.0167662085977293
1295.9166666658168,-0.0097884005,-0.86762714,-0.087614745,-2.3828347,-0.03338159,1.5039803,0.6991557,0.04,0.039999656,-0.00466625517925312,0.018547196119458875,-0.02902739225405515,-0.027323464619877336,-0.003093703105524523,0.04828291746186635,0.9997970768712757,-0.009070166763485751,-0.005294298528045766,0.01719033326119065
1295.9333333324835,-0.010002972,-0.8694176,-0.08950092,-2.3834047,-0.034101877,1.5025395,0.69728726,0.04,0.039999653,-0.005743362712817834,0.017943811221937667,-0.0285324842704604,-0.027821508924582627,-0.003031846223179188,0.04904640012022258,0.9997868563626235,-0.009312076204532648,-0.005387230324858346,0.01762114725921028
1295.9499999991501,-0.010219645,-0.8712256,-0.09140562,-2.3839808,-0.03482924,1.5010847,0.6954004,0.04,0.03999965,-0.006840840709498863,0.017411382495280403,-0.028936414606839378,-0.028324521458382768,-0.002971546168023184,0.04981402387046256,0.9997762162274288,-0.009558339647672621,-0.005480659749427595,0.01805873688428763
1295.9666666658168,-0.010438398,-0.87305117,-0.093328685,-2.3845625,-0.035563607,1.4996148,0.69349533,0.04,0.039999645,-0.006893635658911101,0.016867145416352147,-0.029633135028794833,-0.028831624998874844,-0.002915653079693256,0.050583949337984095,0.9997651408594197,-0.009809002028186992,-0.005574888931215397,0.018503167700701206
1295.9833333324834,-0.010659218,-0.87489396,-0.09526989,-2.385149,-0.03630491,1.4981322,0.69157237,0.04,0.03999964,-0.005178196799149326,0.016603793697120284,-0.027418900021847215,-0.02934255129045464,-0.0028693866348084296,0.05135639494884854,0.999753628760167,-0.010063977690645376,-0.005668471004907327,0.01895432853959506
1295.99999999915,-0.010882075,-0.87675387,-0.09722906,-2.3857415,-0.03705307,1.4966354,0.6896315,0.04,0.03999964,-0.007933921275560252,0.015812992108732438,-0.02888247268770794,-0.029859246451416993,-0.0028171218151587657,0.05213198113395335,0.9997416552935584,-0.010323445150410055,-0.0057627443860546225,0.019412365344365724
1296.0166666658167,-0.01110695,-0.87863076,-0.09920602,-2.3863394,-0.03780802,1.4951252,0.6876731,0.04,0.03999965,-0.0072520434411638135,0.015403540276867633,-0.028132532600078086,-0.03037941152288627,-0.0027742690123216673,0.052909856161672535,0.9997292113198589,-0.010587370637493024,-0.005857150666271101,0.01987725843343831
1296.0333333324834,-0.01133382,-0.8805243,-0.101200566,-2.3869424,-0.038569678,1.493601,0.6856972,0.04,0.039999634,-0.007165531821895499,0.014895140862800083,-0.028131273695297665,-0.03090440977056269,-0.002734277727289458,0.05368955099151942,0.9997162814027813,-0.01085582453183469,-0.005951842329233013,0.020349037933442282
1296.04999999915,-0.011562661,-0.88243425,-0.103212506,-2.3875508,-0.03933798,1.492064,0.6837043,0.04,0.039999638,-0.007979962410464836,0.014382173966415168,-0.02732829580072149,-0.031433311924072616,-0.0027005398837226524,0.05447167406581737,0.9997028550876165,-0.011128706454944404,-0.0060465295107562,0.020827695580244818
1296.0666666658167,-0.011793454,-0.8843607,-0.105241634,-2.388165,-0.04011284,1.4905131,0.6816942,0.04,0.039999638,-0.008945483797906384,0.013691014387320899,-0.028315205940732113,-0.0319676316585238,-0.002670402442270972,0.05525497472422686,0.9996889094404969,-0.011406298408163738,-0.006141892544104975,0.021313325744012537
1296.0833333324833,-0.012026171,-0.8863031,-0.10728773,-2.3887837,-0.040894184,1.4889497,0.67966735,0.04,0.039999634,-0.007140095078583819,0.013425466254912699,-0.026591473778325714,-0.03250473670391271,-0.002647778576839094,0.05604001065634451,0.9996744411320201,-0.01168845895929314,-0.006236812343960667,0.0218058213861908
1296.09999999915,-0.012260789,-0.8882615,-0.10935057,-2.3894074,-0.041681938,1.4873736,0.6776238,0.04,0.039999645,-0.00828675148900615,0.012777640812772217,-0.026786541282475262,-0.0330464913876764,-0.0026274464032129546,0.056825900753682365,0.9996594315985108,-0.011975319429551157,-0.006331616436848143,0.022305227503861408
1296.1166666658166,-0.0124972835,-0.8902357,-0.11142997,-2.3900359,-0.042476002,1.485785,0.67556393,0.04,0.03999964,-0.008117012441588578,0.012276397539409678,-0.026583848312466962,-0.033591969125620375,-0.002608678293016739,0.05761383674148835,0.9996438677855501,-0.012266832833410764,-0.006426130177874125,0.022811559830925865
1296.1333333324833,-0.0127356285,-0.8922255,-0.113525696,-2.3906693,-0.043276314,1.4841837,0.6734878,0.04,0.039999627,-0.009071165329488373,0.01166080297481109,-0.02666970304878724,-0.034141742982284465,-0.00259284816970054,0.058402098158016884,0.999627730513154,-0.012563126594530512,-0.006520711338737863,0.023324848615325706
1296.14999999915,-0.012975802,-0.8942304,-0.11563755,-2.3913076,-0.044082765,1.4825699,0.67139566,0.04,0.039999634,-0.009164365990876888,0.011160655466152525,-0.026070647929876678,-0.0346949932816735,-0.002582814154032026,0.05919107145730795,0.9996110056233006,-0.012864180839242295,-0.0066152436949224085,0.023845100942661072
1296.1666666658166,-0.013217772,-0.89625055,-0.11776529,-2.391951,-0.044895288,1.480944,0.66928786,0.04,0.039999638,-0.010017152402164164,0.010521950607800257,-0.02607908303908779,-0.035251811607407174,-0.0025780682204012972,0.05998099293169444,0.9995936769759135,-0.013170015716798643,-0.0067097895604469335,0.02437232774781043
1296.1833333324832,-0.013461518,-0.8982854,-0.11990868,-2.3925989,-0.04571379,1.4793061,0.6671645,0.04,0.03999964,-0.009046002405743714,0.010111546644162028,-0.025368986910390134,-0.03581249029307865,-0.002579573604226393,0.06077000924586435,0.9995757315375572,-0.01348068859645927,-0.0068040249282337074,0.024906489132325516
1296.19999999915,-0.013707009,-0.9003349,-0.122067496,-2.3932512,-0.04653818,1.4776564,0.66502595,0.04,0.03999964,-0.009613395218877052,0.009515720319483445,-0.025219335055881587,-0.03637633931240111,-0.0025857135965937916,0.06156001324314326,0.9995571537333465,-0.013796177456226503,-0.0068979524757057775,0.025447596344850623
1296.2166666658165,-0.013954222,-0.90239906,-0.124241516,-2.393909,-0.04736838,1.4759953,0.66287225,0.04,0.039999638,-0.01123185374327651,0.008820911034251866,-0.025161422689579105,-0.036944269837191124,-0.002594541813168247,0.06234952453116046,0.9995379233974038,-0.014116627496569098,-0.006991777485333879,0.02599568360564008
1296.2333333324832,-0.01420313,-0.9044773,-0.12643048,-2.3945708,-0.048204295,1.4743228,0.6607037,0.04,0.03999965,-0.009646748763003643,0.008477872567844158,-0.024390162267251547,-0.037514986083766674,-0.002609315998541653,0.0631387546986612,0.9995180292525179,-0.014441995257351858,-0.007085119670312041,0.026550688341484257
1296.2499999991498,-0.0144537045,-0.90656954,-0.12863421,-2.3952372,-0.049045824,1.4726391,0.6585204,0.04,0.03999967,-0.010603326389313494,0.00787971647908392,-0.024310495723489645,-0.03808872274079941,-0.0026291592508989603,0.06392584742903554,0.9994974512463186,-0.014772402301391721,-0.007178093832799907,0.027112654818118257
1296.2666666658165,-0.014705916,-0.9086758,-0.13085243,-2.395908,-0.049892884,1.4709442,0.6563233,0.04,0.03999967,-0.010773330577640294,0.007258044924074447,-0.024267870215566312,-0.03866484992680261,-0.002651812301169537,0.06471324552129513,0.99947617855241,-0.015107511673612677,-0.007270682745226889,0.027681560102731064
1296.2833333324832,-0.014959735,-0.91079515,-0.13308483,-2.3965826,-0.050745375,1.4692384,0.65411156,0.04,0.03999968,-0.010093714438275114,0.006844583830911688,-0.023117669953531816,-0.039246357845044114,-0.0026819049716734072,0.06549881821279185,0.9994541897849477,-0.015447890998483364,-0.007362638883881246,0.028257330618413574
1296.2999999991498,-0.015215136,-0.9129279,-0.13533121,-2.397262,-0.05160319,1.467522,0.6518863,0.04,0.039999686,-0.012269262851294371,0.00601848423653073,-0.023537547420726668,-0.039828475773424646,-0.002713971074513738,0.06628281822197199,0.9994314682439083,-0.01579317480120506,-0.00745438516176913,0.028840042569045477
1296.3166666658165,-0.015472088,-0.9150742,-0.13759132,-2.3979452,-0.05246624,1.4657952,0.6496472,0.04,0.039999675,-0.0099335656090771,0.005736403032211013,-0.023002783897263512,-0.04041439116100129,-0.0027533605312786424,0.06706343808986354,0.9994080019632675,-0.016143616838520964,-0.0075450576679767425,0.02942959992842948
1296.333333332483,-0.015730562,-0.91723293,-0.13986489,-2.3986332,-0.053334456,1.4640578,0.6473946,0.04,0.03999968,-0.013493769173233972,0.004877670417019475,-0.022745723737505052,-0.0410019505211902,-0.0027931160851576986,0.06784346573705535,0.9993837614713144,-0.016499236631710837,-0.007635904183753073,0.03002607975267896
1296.3499999991498,-0.015990525,-0.91940427,-0.14215167,-2.3993244,-0.054207712,1.4623106,0.6451293,0.04,0.039999682,-0.0101103358794985,0.004716525783282632,-0.021766802834966015,-0.04159099051012642,-0.0028449477153603686,0.06862041922330796,0.9993587491844105,-0.016859730046294055,-0.007725542822606406,0.030629331031424345
1296.3666666658164,-0.016251964,-0.92158794,-0.14445142,-2.4000201,-0.055085912,1.460553,0.64285105,0.04,0.039999686,-0.012995640259116925,0.0038366467660366776,-0.022256189900837775,-0.04218437659241625,-0.0028962572539420056,0.0693963937975682,0.9993329304638959,-0.017225447028822314,-0.007814969200662892,0.031239467368890383
1296.383333332483,-0.016514832,-0.92378366,-0.1467639,-2.4007192,-0.05596896,1.4587861,0.6405604,0.04,0.03999968,-0.011209756310992525,0.003591773859734637,-0.0210127332933574,-0.042779090776849674,-0.0029566898190670488,0.07016785368619155,0.999306301560687,-0.017596188821785177,-0.007903304773678697,0.031856358450137505
1296.3999999991497,-0.016779097,-0.9259913,-0.14908881,-2.401422,-0.05685675,1.4570096,0.63825697,0.04,0.03999969,-0.01230755736445488,0.0028407769843974418,-0.021192368004063766,-0.04337705049638818,-0.0030173549876945788,0.07093561062970266,0.9992788343409655,-0.017972326814196853,-0.00799092489703359,0.032480021957115114
1296.4166666658164,-0.01704474,-0.9282105,-0.15142585,-2.4021282,-0.057749193,1.4552238,0.6359415,0.04,0.039999694,-0.011841223321873429,0.0023985056339548283,-0.02040105484926169,-0.0439743005641757,-0.0030855084843569164,0.07170120785492107,0.9992505198105844,-0.018353633281887504,-0.008077515005534731,0.033110369296735526
1296.433333332483,-0.017311728,-0.9304411,-0.15377478,-2.4028387,-0.05864616,1.4534287,0.63361436,0.04,0.03999969,-0.013733165873297537,0.0015913211448309594,-0.02059588846730076,-0.04457378909347884,-0.0031557370160360115,0.07246292593519196,0.9992213320410809,-0.018740124915965394,-0.00816366512901232,0.03374747225857427
1296.4499999991497,-0.01758002,-0.9326825,-0.1561353,-2.4035518,-0.059547562,1.451625,0.6312758,0.04,0.039999682,-0.011432397166544206,0.0014397781795794096,-0.01923743262148836,-0.04517472316549084,-0.0032349935944254032,0.07321890950811852,0.9991912660904771,-0.019131762158561192,-0.00824849570678937,0.0343911582211595
1296.4666666658163,-0.01784959,-0.93493485,-0.15850717,-2.404269,-0.0604533,1.4498125,0.6289259,0.04,0.039999694,-0.013839546108918022,0.0005482606122847455,-0.01961896500047855,-0.045777360107385257,-0.0033150220474335024,0.07397222203290439,0.9991602931402094,-0.019528672160378367,-0.008332653139233257,0.03504149636194729
1296.483333332483,-0.018120406,-0.9371977,-0.16089015,-2.4049895,-0.06136326,1.4479916,0.62656504,0.04,0.039999694,-0.013097515655635661,0.00020968927619269273,-0.018890511020841494,-0.04638090199442296,-0.0034022235838772896,0.07472148882895333,0.99912839878284,-0.019930839911070513,-0.008415843598706268,0.03569843053412553
1296.4999999991496,-0.01839244,-0.9394708,-0.16328391,-2.405713,-0.06227733,1.4461627,0.6241936,0.04,0.039999697,-0.012827606847931605,-0.00031159600115127084,-0.018252916447802914,-0.04698528550741142,-0.003494652181841848,0.07546390737122208,0.9990955713056356,-0.02033817756351791,-0.00849777833692427,0.03636187143419581
1296.5166666658163,-0.018665656,-0.941754,-0.16568819,-2.40644,-0.06319544,1.4443253,0.6218118,0.04,0.039999697,-0.013728227461617948,-0.0009720136721513839,-0.018402982940735058,-0.047591344779114114,-0.0035893148938154623,0.07620235929697416,0.9990617857378771,-0.02075077059436389,-0.00857893319368349,0.03703182014487747
1296.533333332483,-0.01894002,-0.9440468,-0.16810264,-2.40717,-0.06411742,1.4424802,0.6194197,0.04,0.0399997,-0.013531182349790782,-0.001502220680349442,-0.017468368793061018,-0.04819787966429526,-0.0036914341006296786,0.07693503551843417,0.9990270258822367,-0.02116873738613399,-0.008658980072083586,0.03770819776230357
1296.5499999991496,-0.019215513,-0.94634914,-0.1705271,-2.407903,-0.0650432,1.4406276,0.61701775,0.04,0.039999694,-0.01329417074245054,-0.0018193627363161102,-0.017064755177331747,-0.04880393526379137,-0.0037996098637697318,0.07766278707657756,0.9989912784883854,-0.021591936886338304,-0.008737719015146044,0.03839096289558321
1296.5666666658162,-0.019492086,-0.9486605,-0.17296115,-2.4086387,-0.06597267,1.4387677,0.61460626,0.04,0.0399997,-0.013755554951488946,-0.002526627489579658,-0.016431158035679072,-0.04941028411052592,-0.0039113049526523225,0.07838261142373008,0.9989545256380689,-0.022020415809278132,-0.008815276273809769,0.0390800191789061
1296.5833333324829,-0.019769713,-0.95098114,-0.17540462,-2.4093773,-0.06690573,1.4369006,0.6121854,0.04,0.0399997,-0.013566033695200375,-0.0029253037276522065,-0.016419545527024404,-0.05001690720037974,-0.004027233066118602,0.0790975869029765,0.9989167495146107,-0.022454202795098913,-0.00889141291747119,0.039775357852970025
1296.5999999991495,-0.020048356,-0.9533102,-0.17785716,-2.4101186,-0.067842245,1.4350266,0.6097557,0.04,0.039999705,-0.013949622902997838,-0.0034922306466123043,-0.01551297287017972,-0.05062309762585232,-0.00414627501685956,0.07980462466930882,0.9988779338881847,-0.02289321199635676,-0.00896631816961384,0.04047689679610599
1296.6166666658162,-0.020327985,-0.95564747,-0.18031844,-2.4108624,-0.0687821,1.4331459,0.60731727,0.04,0.039999705,-0.014131855961840856,-0.004058852328236995,-0.01518925921319969,-0.05122934187744643,-0.004270586391126985,0.0805067541594982,0.9988380596538436,-0.023337509700723146,-0.009039994237653969,0.04118458124221227
1296.6333333324828,-0.02060857,-0.95799315,-0.18278825,-2.4116092,-0.06972521,1.4312584,0.6048704,0.04,0.039999705,-0.014404421603497752,-0.0045795327037523315,-0.01515151013593563,-0.05183512732094672,-0.004400178923518933,0.08120072313043582,0.9987971078382168,-0.02378712609898526,-0.00911238382840738,0.04189838262902526
1296.6499999991495,-0.020890072,-0.9603467,-0.18526626,-2.4123583,-0.07067144,1.4293648,0.6024153,0.04,0.03999971,-0.014006128113908112,-0.004991110168511836,-0.01420770974249752,-0.05243963582233291,-0.004534973103363676,0.08188593896896146,0.9987550657752712,-0.024242036757780448,-0.009183259253288664,0.04261818850625829
1296.6666666658161,-0.02117246,-0.96270764,-0.1877521,-2.41311,-0.07162069,1.4274652,0.59995246,0.04,0.039999712,-0.014769234495792816,-0.005622375213898412,-0.01367005456421877,-0.05304283963570053,-0.004673890899912492,0.08256458921002903,0.9987119148038698,-0.024702231924509672,-0.009252837350187722,0.04334392653771224
1296.6833333324828,-0.0214557,-0.9650758,-0.19024557,-2.4138637,-0.072572835,1.4255599,0.59748214,0.04,0.039999705,-0.013756853437407734,-0.005850153006625725,-0.013066714075449237,-0.05364484331913266,-0.0048183164388243965,0.08323407683122314,0.9986676447213884,-0.025167615252788947,-0.009320712777336137,0.044075512957253093
1296.6999999991494,-0.021739746,-0.9674509,-0.1927463,-2.4146194,-0.07352774,1.423649,0.59500444,0.04,0.039999716,-0.014331012330437432,-0.006540607133848075,-0.012741339011357322,-0.054245789305872746,-0.004966247591986786,0.08389621237800762,0.9986222328376246,-0.0256383439196293,-0.009387034556224425,0.04481288861137954
1296.716666665816,-0.022024577,-0.9698327,-0.195254,-2.4153774,-0.07448533,1.4217325,0.59252006,0.04,0.03999973,-0.014585756907070646,-0.00699337171532477,-0.012341757462308589,-0.05484434497227944,-0.005117092386438676,0.08454928365851236,0.9985756677472726,-0.02611419006119576,-0.009451882276499488,0.04555597416330179
1296.7333333324827,-0.022310162,-0.9722209,-0.19776842,-2.416138,-0.07544549,1.4198112,0.59002876,0.04,0.039999712,-0.015463482642563697,-0.007550328637706549,-0.011701899952731853,-0.05544201785956207,-0.0052737462501846605,0.08519396611925795,0.998527923640977,-0.026595420590570695,-0.009515307808070828,0.046304732265369804
1296.7499999991494,-0.022596454,-0.9746152,-0.2002892,-2.4169,-0.07640803,1.4178851,0.5875313,0.04,0.039999727,-0.013747485231396794,-0.007826559007984013,-0.011080465655510796,-0.05603606233966042,-0.005435878251617454,0.08582998178452908,0.9984789992726026,-0.027081748890213014,-0.009576831476543353,0.047059018131481944
1296.766666665816,-0.022883426,-0.9770154,-0.20281608,-2.4176638,-0.077372886,1.415954,0.5850278,0.04,0.03999973,-0.014785785954396502,-0.008410439852857277,-0.01088645324976989,-0.05662874067474061,-0.005600087435477158,0.0864543487412221,0.9984288692994313,-0.027573299801404744,-0.009636812084850309,0.04781880320921916
1296.7833333324827,-0.023171041,-0.97942096,-0.2053487,-2.4184291,-0.07833999,1.4140185,0.5825185,0.04,0.039999723,-0.014226318718257858,-0.008728937597934916,-0.010004563704280045,-0.05721841301526598,-0.005768628827937938,0.08707119515497243,0.998377525908255,-0.028070036734499964,-0.009694974828643517,0.04858390949797449
1296.7999999991493,-0.02345926,-0.98183185,-0.2078868,-2.4191966,-0.079309165,1.412079,0.5800038,0.04,0.03999973,-0.015372927553336524,-0.009402888688220257,-0.009686960188093341,-0.05780512104566815,-0.0059418003275422265,0.08767737186859095,0.9983249471846877,-0.028571952353203534,-0.009751529375218957,0.04935434167589637
1296.816666665816,-0.023748055,-0.9842478,-0.21043007,-2.4199655,-0.080280274,1.4101353,0.57748395,0.04,0.03999973,-0.01444503607808123,-0.009722285934421482,-0.009290301358511055,-0.058388600917392064,-0.006118680748526312,0.0882715173472783,0.998271121438406,-0.02907899694889946,-0.009806281256016012,0.050129999865162186
1296.8333333324827,-0.024037383,-0.98666835,-0.21297818,-2.4207356,-0.08125327,1.4081879,0.57495934,0.04,0.03999973,-0.014305163924421826,-0.010041510945496546,-0.008437123048909978,-0.0589687030453277,-0.0063002447002465795,0.08885727999655986,0.998216040483228,-0.029591103945820058,-0.009859108358891233,0.05091071666772801
1296.8499999991493,-0.024327219,-0.9890931,-0.21553081,-2.421507,-0.08222799,1.4062374,0.57243013,0.04,0.03999974,-0.01439722122720255,-0.010482789985005736,-0.007613513578186293,-0.05954536062735516,-0.006484422770271003,0.08942960965176501,0.9981596907694789,-0.03010830698254782,-0.009909873075416659,0.05169638274823464
1296.866666665816,-0.024617516,-0.99152195,-0.21808763,-2.4222796,-0.08320431,1.4042833,0.5698968,0.04,0.039999742,-0.015023825252469258,-0.0111510662882508,-0.007741670109673304,-0.06011818791559323,-0.006670049038223644,0.08999410534503975,0.9981020510401707,-0.030630543062025943,-0.00995900275134651,0.052486987009435986
1296.8833333324826,-0.02490824,-0.9939546,-0.22064838,-2.4230537,-0.084182136,1.4023265,0.5673596,0.04,0.03999975,-0.014956176356384354,-0.011428460076590152,-0.006822091399394381,-0.06068686517368724,-0.006861617367642611,0.09054532223360698,0.9980431130895202,-0.031157789045204703,-0.01000619058025839,0.05328238683153396
1296.8999999991493,-0.025199361,-0.9963905,-0.22321272,-2.423829,-0.08516134,1.4003669,0.56481886,0.04,0.03999975,-0.0149573073652709,-0.011858186545748994,-0.006272384116201568,-0.06125122565771368,-0.0070559408291487324,0.09108452551802418,0.9979828622115179,-0.03169001444062206,-0.010051572465421241,0.05408248892046432
1296.916666665816,-0.025490845,-0.99882966,-0.22578032,-2.4246047,-0.08614177,1.3984047,0.562275,0.04,0.039999753,-0.013395910437319358,-0.012025290873873828,-0.005746423799501965,-0.061810781720843894,-0.007255084347088603,0.09161270033042962,0.9979212986890335,-0.03222705499606225,-0.010094642525758405,0.054887127282732366
1296.9333333324826,-0.025782645,-1.001272,-0.22835095,-2.4253814,-0.08712334,1.3964403,0.55972797,0.04,0.039999757,-0.014822781630918769,-0.012668571883633906,-0.005500917045275777,-0.06236689676875737,-0.007454783989962466,0.09212853663036247,0.9978583953164464,-0.03276911308849231,-0.010135698506611147,0.05569628120138101
1296.9499999991492,-0.026074732,-1.0037165,-0.23092423,-2.4261591,-0.08810592,1.3944737,0.55717826,0.04,0.03999976,-0.015092558612672669,-0.013074924342915129,-0.004616546131475108,-0.06291657177263332,-0.007657159457778714,0.09263359522431752,0.9977941406949017,-0.033316054217093646,-0.010175034312139432,0.056509839878318015
1296.9666666658159,-0.026367074,-1.0061636,-0.23349983,-2.4269376,-0.08908938,1.3925054,0.5546263,0.04,0.039999764,-0.014165831620527314,-0.01339896982236466,-0.004261339402944486,-0.06346087126454147,-0.007864757603802175,0.09312265838627366,0.9977285351603612,-0.03386779145082433,-0.010212085646451078,0.05732762105436447
1296.9833333324825,-0.026659628,-1.0086123,-0.23607747,-2.4277163,-0.090073615,1.3905356,0.5520722,0.04,0.03999977,-0.014166159190498462,-0.013582060679590002,-0.0032793358275884366,-0.06399953312714496,-0.00807386046066709,0.0936011063003805,0.9976615647176995,-0.034424286123543056,-0.010247081860419036,0.058149532442332855
1296.9999999991492,-0.026952364,-1.0110629,-0.23865679,-2.428496,-0.091058515,1.3885646,0.5495167,0.04,0.03999976,-0.014809345655386608,-0.014278160990732758,-0.003179003952680226,-0.06453271540440533,-0.008285384431417603,0.0940656647836349,0.9975932212624888,-0.0349854378557945,-0.010280021028486023,0.05897546266731006
1297.0166666658158,-0.02724524,-1.0135145,-0.24123752,-2.4292765,-0.092043914,1.3865924,0.5469596,0.04,0.039999772,-0.015381841626416204,-0.014680997640420523,-0.0025156096640777115,-0.06505976893757312,-0.008500423573901711,0.09451763225495506,0.997523479632351,-0.035551369845458446,-0.010311292951044469,0.059805392080948455
1297.0333333324825,-0.027538227,-1.0159675,-0.24381931,-2.4300568,-0.09302975,1.3846191,0.54440135,0.04,0.039999776,-0.013174103378199575,-0.014644774433636432,-0.002125305533762223,-0.06557972634237588,-0.008721470181081173,0.09495468509855196,0.9974523518249588,-0.03612192119678876,-0.010340145538397969,0.06063904714089851
1297.0499999991491,-0.027831284,-1.0184213,-0.24640183,-2.4308376,-0.09401586,1.3826455,0.5418424,0.04,0.03999978,-0.014360956068526498,-0.015250670197347604,-0.0012756612186581862,-0.06609282556790788,-0.008943302191300503,0.09537962061919489,0.9973798246497023,-0.03669703446803137,-0.010366807166761033,0.061476356041558856
1297.0666666658158,-0.028124373,-1.0208753,-0.24898484,-2.4316185,-0.09500212,1.3806713,0.53928316,0.04,0.03999978,-0.014046282553081824,-0.015439419842211421,-0.0008398092511407995,-0.0665991107252181,-0.009167105082911353,0.09578837968036509,0.9973058892852741,-0.03727655800837072,-0.01039145613956198,0.06231724527975114
1297.0833333324824,-0.028417464,-1.0233296,-0.25156796,-2.4323993,-0.09598843,1.378697,0.53672373,0.04,0.03999978,-0.013741451755877598,-0.015794303232935514,-0.00020035327367162736,-0.0670987335140514,-0.009394964861261235,0.09618344910737199,0.9972305422213007,-0.03786054969090731,-0.010413796028772387,0.06316151748006042
1297.099999999149,-0.028710524,-1.0257838,-0.25415084,-2.4331799,-0.09697466,1.3767229,0.5341645,0.04,0.03999979,-0.013476644530729942,-0.016091649470967306,0.00033124773344272995,-0.06759100841714033,-0.009622116732118352,0.09656459629890592,0.9971537791786251,-0.03844892170613756,-0.010433831771521499,0.06400903251873613
1297.1166666658157,-0.029003503,-1.0282375,-0.25673324,-2.4339604,-0.097960696,1.3747495,0.53160554,0.04,0.039999798,-0.013845355850605756,-0.01640843395306346,0.001108272874172922,-0.06807562291007563,-0.009851978359732422,0.09693140292116836,0.9970755890354823,-0.039041706927615855,-0.01045155521097017,0.0648596936733149
1297.1333333324824,-0.029296372,-1.0306902,-0.25931478,-2.4347405,-0.09894641,1.3727765,0.5290474,0.04,0.039999805,-0.013402303433851515,-0.01671239390292345,0.001406175922802344,-0.06855142410235653,-0.01008193251829273,0.09728315041091581,0.9969959694954156,-0.03963872499857794,-0.01046715766769098,0.06571336926944944
1297.149999999149,-0.029589102,-1.0331421,-0.26189518,-2.4355202,-0.09993167,1.3708044,0.5264906,0.04,0.039999805,-0.013013217415647205,-0.016941406388149005,0.0019570985477224134,-0.06901932023377737,-0.01031434043744027,0.0976195993803727,0.9969149251260105,-0.04023982118503239,-0.01048029314114234,0.06656990542034101
1297.1666666658157,-0.02988165,-1.0355926,-0.26447406,-2.4362998,-0.100916386,1.3688335,0.5239352,0.04,0.039999794,-0.013972409861717772,-0.017495300396608293,0.0025830173069452123,-0.06947966235676468,-0.010547778673570166,0.09794128914595811,0.9968324392127745,-0.0408451060188696,-0.010491372238623418,0.067429196613695
1297.1833333324823,-0.03017398,-1.0380416,-0.26705125,-2.4370787,-0.10190041,1.3668641,0.52138156,0.04,0.039999805,-0.012667689633860668,-0.01742355781867988,0.003059631120161388,-0.06993047713603578,-0.010783583130254765,0.09824713112100289,0.996748519532581,-0.04145438373559199,-0.01049993242119343,0.06829109969725518
1297.199999999149,-0.030466057,-1.0404886,-0.26962635,-2.4378567,-0.10288362,1.3648958,0.51882994,0.04,0.03999981,-0.012624633366509208,-0.017776296137633762,0.0034628322676311107,-0.07037280307013971,-0.01101806103827166,0.0985380584242609,0.9966631575669954,-0.042067626128828944,-0.010506275273658118,0.06915550130210497
1297.2166666658156,-0.030757846,-1.0429332,-0.27219903,-2.4386337,-0.103865914,1.3629298,0.5162807,0.04,0.039999813,-0.012423851571319311,-0.017913748030251586,0.004642617742744992,-0.07080589353560432,-0.011254831836634921,0.09881240514453996,0.996576364473779,-0.04268471323384458,-0.010510068132157118,0.07002216432121729
1297.2333333324823,-0.031049313,-1.0453752,-0.27476892,-2.4394102,-0.10484715,1.3609656,0.5137341,0.04,0.03999981,-0.013272259847552093,-0.018596839414958266,0.0045400848612597855,-0.07123001747184446,-0.011489778302683482,0.0990714100607733,0.9964881204621998,-0.04330569261792462,-0.010511897240183804,0.07089106277244071
1297.249999999149,-0.031340417,-1.0478145,-0.27733576,-2.440186,-0.10582723,1.3590038,0.5111906,0.04,0.039999817,-0.01266558698540532,-0.01864048475220259,0.005261233177122904,-0.07164358586730991,-0.011728323266546783,0.09931468376685809,0.9963984373873018,-0.043930365130708623,-0.010511430642241552,0.07176201514366257
1297.2666666658156,-0.031631127,-1.0502505,-0.27989927,-2.44096,-0.106806025,1.3570445,0.5086504,0.04,0.039999835,-0.010952735670222147,-0.018420614305353356,0.006000325546728913,-0.07204725059922555,-0.011968167447449246,0.09954149490047948,0.9963073297948781,-0.044558580687395044,-0.010508279095785913,0.07263479575637365
1297.2833333324822,-0.031921405,-1.0526834,-0.28245914,-2.4417331,-0.10778343,1.355088,0.5061139,0.04,0.03999983,-0.012514336660740533,-0.019142144820538665,0.0062386541439862775,-0.07244186548401488,-0.012204767363726582,0.09975277477064647,0.9962147824467874,-0.04519037203909954,-0.010502854173195809,0.0735093705841935
1297.299999999149,-0.032211225,-1.055112,-0.28501502,-2.4425054,-0.10875927,1.3531348,0.5035813,0.04,0.03999983,-0.012520487011369319,-0.019335842666301506,0.007273860530798704,-0.0728257998892206,-0.012442388630303253,0.09994734120394613,0.9961207971749747,-0.04582562755473904,-0.010495349129261889,0.07438559632994934
1297.3166666658155,-0.032500528,-1.0575367,-0.28756654,-2.443277,-0.10973347,1.3511847,0.501053,0.04,0.039999854,-0.012497903961738999,-0.019759123499385467,0.007293819278553215,-0.07319899754862355,-0.01268142867885981,0.10012460888863652,0.9960253751278226,-0.0464643084058835,-0.01048578383949771,0.07526332761122524
1297.3333333324822,-0.03278929,-1.0599571,-0.2901135,-2.444047,-0.11070594,1.3492383,0.49852923,0.04,0.039999858,-0.011377452853045256,-0.019552423030694266,0.008025019073465423,-0.07356078324592716,-0.012922871810993553,0.10028441774332184,0.9959285313829174,-0.0471062475882267,-0.01047382997754181,0.07614237126084049
1297.3499999991488,-0.033077493,-1.0623729,-0.29265544,-2.444815,-0.11167652,1.3472956,0.49601033,0.04,0.039999858,-0.010199778256003711,-0.0196297774185894,0.008720802204376099,-0.07391134667076674,-0.013163625681195099,0.10042809971713869,0.995830284261048,-0.04775133186040818,-0.010459225135982643,0.07702246337057836
1297.3666666658155,-0.033365082,-1.0647839,-0.29519218,-2.4455814,-0.11264508,1.3453568,0.49349654,0.04,0.039999865,-0.011212717730102462,-0.020092516039260655,0.008824560025411099,-0.07425112425462718,-0.013401621790428198,0.10055530711366298,0.9957306177416304,-0.048399557614011386,-0.010442377900158716,0.07790363572022539
1297.3833333324822,-0.03365203,-1.0671896,-0.29772344,-2.4463463,-0.1136115,1.343422,0.4909882,0.04,0.039999872,-0.010981124117215302,-0.02018815936012386,0.009537566752171323,-0.07457873009163252,-0.01363900395816775,0.10066487275975537,0.9956295404955113,-0.04905076932679184,-0.010423372893747994,0.078785743752691
1297.3999999991488,-0.033938292,-1.06959,-0.3002489,-2.4471095,-0.11457571,1.341492,0.48848566,0.04,0.03999988,-0.010474577707197952,-0.020287674450442106,0.010168763414009074,-0.07489463251963968,-0.013876206519759321,0.10075721166767199,0.9955270735154935,-0.049704850872567805,-0.010401835701750578,0.0796685352661065
1297.4166666658155,-0.034223862,-1.0719844,-0.30276814,-2.4478705,-0.11553756,1.3395665,0.48598927,0.04,0.039999876,-0.010080669582279711,-0.02044881854565972,0.010549138112248002,-0.07519858299703924,-0.014111584063859303,0.10083207634353868,0.995423222416361,-0.05036166462698953,-0.010378087711104086,0.08055188579845349
1297.433333332482,-0.03450867,-1.0743726,-0.30528095,-2.4486294,-0.116496935,1.3376458,0.48349926,0.04,0.039999902,-0.00989855892832292,-0.02056409165306916,0.011196945787550483,-0.07549095760552958,-0.01434505186704696,0.10088911225710001,0.9953179957589567,-0.051021139758009114,-0.010352033143629067,0.08143565574096102
1297.4499999991488,-0.034792703,-1.0767545,-0.30778697,-2.4493868,-0.11745374,1.3357304,0.48101592,0.04,0.039999876,-0.010768717777498438,-0.021032563158457362,0.011743247443263272,-0.07577100810681762,-0.014578609791844443,0.10093063402657351,0.9952113965408166,-0.05168324119133553,-0.010323931463864351,0.08231971340064996
1297.4666666658154,-0.035075907,-1.0791296,-0.3102859,-2.4501414,-0.11840783,1.3338203,0.47853953,0.04,0.0399999,-0.00853416549988495,-0.02065032335709649,0.012155409268232997,-0.07603726697248295,-0.014813554999554807,0.10095237749145625,0.9951034540433406,-0.05234777276702389,-0.010293295345452405,0.08320381306332517
1297.483333332482,-0.03535826,-1.081498,-0.31277746,-2.4508939,-0.119359106,1.331916,0.4760705,0.04,0.039999906,-0.00925796331876505,-0.021051187166493124,0.012551764434221013,-0.07629152533841511,-0.015042898253496764,0.1009575343497855,0.9949941751359632,-0.0530146284222299,-0.010260266826270978,0.08408785609950445
1297.4999999991487,-0.035639744,-1.0838591,-0.31526136,-2.4516442,-0.12030745,1.3300173,0.47360903,0.04,0.039999906,-0.009492289394708031,-0.02123400370984685,0.01309574672093694,-0.07653288065942221,-0.015269468716335013,0.10094613097296924,0.9948835629534876,-0.05368373295338024,-0.010225224151010865,0.08497174690581367
1297.5166666658154,-0.035920303,-1.0862126,-0.31773728,-2.4523926,-0.12125275,1.3281248,0.47115543,0.04,0.039999902,-0.009566457981979859,-0.021512887304864226,0.013562017215251743,-0.07676118894536565,-0.015495504986758599,0.10091685929923318,0.9947716289129162,-0.05435502146709726,-0.010188197908402247,0.08585533515533086
1297.533333332482,-0.03619992,-1.0885581,-0.32020488,-2.4531376,-0.1221949,1.3262386,0.46871,0.04,0.03999994,-0.007434309793374894,-0.020958950085020467,0.014483858781633163,-0.07697462551396259,-0.015722758339868526,0.10086646685168074,0.9946584174986485,-0.05502822446650553,-0.0101486621329955,0.08673829412697923
1297.5499999991487,-0.036478546,-1.0908957,-0.322664,-2.4538808,-0.12313375,1.324359,0.46627304,0.04,0.03999993,-0.009171770380378419,-0.021739239189549897,0.014394171379128462,-0.07717603675954496,-0.01594391207218547,0.10080242642935494,0.9945439114025763,-0.055703381809266705,-0.010107142628250534,0.08762070083586317
1297.5666666658153,-0.036756158,-1.0932249,-0.32511428,-2.4546208,-0.12406923,1.3224859,0.46384487,0.04,0.039999936,-0.007445642200987201,-0.021353750159802676,0.01485392424220855,-0.07736251724634181,-0.01616592692182288,0.10071225137245025,0.9944281469959775,-0.05638024977096558,-0.010063406769866494,0.08850229229853057
1297.583333332482,-0.03703272,-1.0955454,-0.32755536,-2.4553585,-0.12500122,1.3206197,0.46142575,0.04,0.03999993,-0.00833087762974749,-0.021841847752945842,0.015475741742798643,-0.0775357960249097,-0.01638364667149947,0.10061909237333312,0.9943111316918061,-0.05705880847621228,-0.010017780139269928,0.08938293936829265
1297.5999999991486,-0.037308197,-1.097857,-0.32998708,-2.4560928,-0.1259296,1.318761,0.45901594,0.04,0.03999994,-0.006661662754425812,-0.021325466020472028,0.016270582566757508,-0.07769423603819967,-0.0166010589342315,0.10049963214194241,0.9941929041387281,-0.05773883002567857,-0.009969661451598832,0.09026241032682535
1297.6166666658153,-0.037582558,-1.1001594,-0.33240902,-2.4568245,-0.12685423,1.3169099,0.45661578,0.04,0.039999973,-0.007540204294542718,-0.02190062759214184,0.016565507834165327,-0.07783972310532886,-0.016812536752155008,0.10035031390645613,0.9940734712063245,-0.0584202711087042,-0.009919497183976765,0.0911406020553462
1297.633333332482,-0.037855767,-1.1024524,-0.33482096,-2.4575527,-0.12777498,1.3150663,0.45422557,0.04,0.03999996,-0.006025419351662897,-0.02158480828678422,0.016839509748622916,-0.07796991726472623,-0.017021365269424923,0.10019923874864203,0.9939528643925515,-0.0591029181657659,-0.009867040838550925,0.092017334971315
1297.6499999991486,-0.038127806,-1.1047354,-0.33722267,-2.458278,-0.12869188,1.3132305,0.45184547,0.04,0.039999984,-0.0071828459338396655,-0.021847564081656223,0.017342304616563275,-0.07808665534972138,-0.017224602503520592,0.10002474388216467,0.9938310870573471,-0.05978674030195643,-0.009812856187982498,0.0928925397215081
1297.6666666658152,-0.038398642,-1.1070088,-0.3396137,-2.459,-0.12960471,1.3114028,0.44947582,0.04,0.04,-0.006062183990795944,-0.02200337439855482,0.017550057027038157,-0.07818842858211235,-0.017427633407268453,0.09983264885494322,0.9937081751806746,-0.06047163086964337,-0.009756460970485638,0.0937659634856417
1297.6833333324819,-0.03866822,-1.1092718,-0.34199393,-2.4597192,-0.13051343,1.3095837,0.44711697,0.04,0.04,-0.0063201355794850755,-0.021874023061463355,0.01850989307258244,-0.07827439305200792,-0.01762557694059251,0.0996245849198398,0.9935841516822682,-0.06115737821423325,-0.009698142775130416,0.09463749068155822
1297.6999999991485,-0.03893652,-1.111524,-0.34436294,-2.460435,-0.1314179,1.3077731,0.4447691,0.04,0.04,-0.005780705197322433,-0.02196193994368767,0.018799277031977812,-0.078345726256615,-0.017820827878436307,0.09940082238105002,0.9934590410458474,-0.061843896895294945,-0.009637946836332952,0.0955069430033729
1297.7166666658152,-0.039203517,-1.1137656,-0.3467206,-2.461147,-0.13231799,1.3059709,0.4424326,0.04,0.04,-0.0051542018948858015,-0.02193316767287179,0.01867649987283837,-0.07840200178178557,-0.018012304671057106,0.09915549813226979,0.9933328633177712,-0.06253101116541764,-0.00957584870921729,0.09637426221272433
1297.7333333324818,-0.03946918,-1.1159962,-0.34906664,-2.4618556,-0.13321364,1.3041776,0.44010773,0.04,0.04,-0.004941997552987409,-0.021859114345051944,0.019405515259396378,-0.07844316314188422,-0.018199544975337642,0.09889658843131306,0.9932056526672122,-0.06321856859139638,-0.009511788737186003,0.09723924089672546
1297.7499999991485,-0.03973347,-1.1182156,-0.35140064,-2.4625607,-0.13410473,1.3023934,0.43779466,0.04,0.04,-0.004786927939037788,-0.022047936859775907,0.019825194831590842,-0.07846989078170827,-0.01838256901837465,0.09861383422712096,0.9930774327028675,-0.06390652369185598,-0.009445934128027767,0.098101698325528
1297.7666666658151,-0.03999636,-1.1204233,-0.3537225,-2.4632626,-0.13499114,1.3006186,0.4354937,0.04,0.04,-0.005311656569584322,-0.022177674740814224,0.02024264251471175,-0.07848048326350099,-0.018562699828338317,0.09831633612572703,0.9929482176035229,-0.06459472980842233,-0.00937848979884938,0.09896161866126117
1297.7833333324818,-0.040257815,-1.1226186,-0.35603186,-2.46396,-0.13587278,1.2988533,0.4332051,0.04,0.04,-0.003447426037439527,-0.02158953170279254,0.021000095841372524,-0.07847446848122176,-0.018740583526792087,0.09800448550639318,0.9928180618886058,-0.06528293100883883,-0.0093093054794044,0.09981869433196851
1297.7999999991484,-0.040517814,-1.1248022,-0.35832825,-2.4646533,-0.1367495,1.297098,0.4309291,0.04,0.04,-0.002998076711091535,-0.02193750837626851,0.02111070437560425,-0.07845413377911592,-0.018914018979482167,0.09767391478172684,0.9926870054253426,-0.06597112319518122,-0.009237845150309239,0.10067264961751404
1297.816666665815,-0.040776342,-1.126973,-0.36061177,-2.4653435,-0.13762124,1.2953525,0.4286659,0.04,0.04,-0.0051696706487636135,-0.022292012370378478,0.021386349216256928,-0.0784181474926107,-0.019077537294673957,0.09732860075739679,0.992555021544177,-0.06665920307108944,-0.009165457326106375,0.10152376197407754
1297.8333333324817,-0.041033335,-1.1291316,-0.3628821,-2.4660292,-0.13848796,1.2936171,0.4264161,0.04,0.04,-0.0022288740912923544,-0.02147810008485962,0.021722706744686793,-0.07836447375906733,-0.019245251354382792,0.09696357337605505,0.9924222038791709,-0.06734676799322306,-0.009090969750153695,0.10237156029619748
1297.8499999991484,-0.041288793,-1.131277,-0.36513865,-2.4667108,-0.13934949,1.291892,0.42417964,0.04,0.04,-0.002994453930815766,-0.02209171203286231,0.02228655814455749,-0.07829721195784868,-0.019403329431987484,0.09658413379757631,0.9922885614114356,-0.06803393302629619,-0.00901506434136151,0.10321590702947837
1297.866666665815,-0.04154268,-1.1334096,-0.36738154,-2.467388,-0.14020571,1.2901777,0.42195687,0.04,0.04,-0.0017911858364527689,-0.021506089971568,0.022488257359987163,-0.07821312204976846,-0.01955913854104467,0.09618628985609542,0.9921541369517191,-0.06872041451715866,-0.008937137311576361,0.1040567188357083
1297.8833333324817,-0.041794956,-1.135529,-0.36961037,-2.4680612,-0.14105663,1.2884738,0.41974798,0.04,0.04,-0.002842543269165887,-0.022026369692673686,0.02260660644921586,-0.07811445379204492,-0.019704482640814425,0.09577488941690304,0.992018942252929,-0.0694062176954026,-0.008857949076694498,0.10489390780571069
1297.8999999991483,-0.0420456,-1.1376346,-0.3718248,-2.4687302,-0.141902,1.286781,0.41755328,0.04,0.04,-0.0020241866582892953,-0.02185651164809399,0.02341859016208314,-0.07799868462057968,-0.01984828008096673,0.09534390390105298,0.9918830230393806,-0.07009112795492875,-0.008777380213990554,0.10572729063418038
1297.916666665815,-0.042294584,-1.1397265,-0.3740248,-2.4693947,-0.14274181,1.2850991,0.41537288,0.04,0.04,-0.0013561691863506198,-0.021521423402642847,0.023471384067730305,-0.07786698171733535,-0.019987834623068884,0.09489558918704655,0.9917464127080735,-0.0707750162905533,-0.008695244807381717,0.106556757962501
1297.9333333324817,-0.04254188,-1.1418045,-0.37620997,-2.4700546,-0.143576,1.2834285,0.41320723,0.04,0.04,-0.0011019592568439762,-0.02162658902265524,0.023779195026152333,-0.07771890337099654,-0.020121572400752047,0.09443152567236063,0.9916091582605168,-0.0714576822566795,-0.00861168275898016,0.10738210195573382
1297.9499999991483,-0.042787462,-1.1438681,-0.37838015,-2.47071,-0.14440446,1.2817698,0.4110564,0.04,0.04,-0.0008942731893002431,-0.021435453061247056,0.024445755137458836,-0.0775551394441453,-0.020249708095144994,0.09395162611077985,0.9914712945830558,-0.0721390345182922,-0.008526624712754645,0.10820318104185109
1297.966666665815,-0.0430313,-1.1459174,-0.38053513,-2.471361,-0.14522706,1.2801226,0.40892074,0.04,0.04,-0.0006208984438593745,-0.02149389682642444,0.024419526655272694,-0.07737557948571587,-0.02037080548443075,0.09345651908258336,0.9913328527597296,-0.0728189061252089,-0.00844017854988038,0.10901993091187598
1297.9833333324816,-0.043273386,-1.1479518,-0.38267455,-2.472007,-0.14604372,1.2784872,0.40680036,0.04,0.04,-0.000274794124455191,-0.021440385769089243,0.024815794146493264,-0.07718009264607172,-0.0204863268118671,0.09294373818835819,0.9911938695396626,-0.07349719635145044,-0.00835258306045255,0.10983218777610103
1297.9999999991483,-0.043513656,-1.1499711,-0.38479823,-2.4726481,-0.14685437,1.2768639,0.40469554,0.04,0.04,0.0003320791114092003,-0.021157594069981522,0.025350937164891896,-0.07696784156493414,-0.020598281750357286,0.09241500552675995,0.9910543957359051,-0.07417370947327348,-0.008263677399337076,0.11063976297585838
1298.016666665815,-0.043752134,-1.1519755,-0.386906,-2.4732847,-0.1476589,1.2752529,0.40260655,0.04,0.04,0.0001025367632800922,-0.02136018947798135,0.025309419994890003,-0.07674029383246062,-0.020702148921437596,0.09187114521562298,0.9909144576218483,-0.07484834509854854,-0.008173556120118452,0.11144261255174381
1298.0333333324816,-0.04398877,-1.1539646,-0.38899752,-2.4739158,-0.14845732,1.273654,0.40053356,0.04,0.04,0.0015403577107830912,-0.020882742616334937,0.02542491377113265,-0.07649643432309687,-0.020800967578270824,0.09131116930233488,0.9907741157794048,-0.07552090805872637,-0.00808214138520459,0.11224046925308755
1298.0499999991482,-0.04422353,-1.1559385,-0.39107266,-2.4745429,-0.1492495,1.2720674,0.3984768,0.04,0.04,-0.00015646820359371816,-0.02158124934734107,0.025655590575890397,-0.07623707389884207,-0.020892553344397338,0.09073668727930957,0.9906333701349874,-0.07619142999234249,-0.007989975812060245,0.11303341212774977
1298.0666666658149,-0.044456404,-1.1578963,-0.39313123,-2.4751644,-0.15003528,1.270494,0.39643654,0.04,0.04,0.0019006755453521151,-0.02059041157755903,0.026712083896118788,-0.07596030091744918,-0.020980565190073422,0.09014567537714283,0.9904923059001135,-0.07685951756794482,-0.007896507242664679,0.11382113900881961
1298.0833333324815,-0.044687353,-1.1598382,-0.39517292,-2.475781,-0.15081468,1.2689332,0.39441302,0.04,0.04,0.0015496858736252506,-0.02094921882222489,0.026254352446275497,-0.0756687544286612,-0.021061289133783592,0.08953990789594515,0.9903509468887773,-0.07752513905121423,-0.007802149133101119,0.11460358319222289
1298.0999999991482,-0.04491637,-1.1617643,-0.39719766,-2.4763927,-0.15158756,1.2673856,0.39240628,0.04,0.04,0.0016162147514320324,-0.020877654910178567,0.026692900735258984,-0.07536107006637546,-0.02113707078446915,0.08892107758156906,0.9902093240645315,-0.07818824560250145,-0.007706755499306846,0.1153806686795501
1298.1166666658148,-0.045143418,-1.1636735,-0.3992051,-2.476999,-0.15235382,1.2658502,0.3904167,0.04,0.04,0.002194609117833757,-0.0207949328225987,0.026485361236472382,-0.0750375164448194,-0.021204409608093236,0.08828651597466343,0.9900674737223203,-0.0788485814262953,-0.007611047909577255,0.11615235957087386
1298.1333333324815,-0.045368496,-1.1655664,-0.4011951,-2.4775999,-0.15311347,1.2643294,0.3884444,0.04,0.04,0.0033152014179860245,-0.02002220763676066,0.02805255263502726,-0.07469722118834754,-0.02127225997681939,0.08763619915713991,0.9899254991791029,-0.07950594429720972,-0.007513662754622434,0.11691815842042151
1298.1499999991481,-0.045591563,-1.1674422,-0.40316746,-2.4781957,-0.15386634,1.2628214,0.3864896,0.04,0.04,0.00202879441926207,-0.020815987043065753,0.027115286996926002,-0.07434352267600725,-0.021324766884327537,0.08697491785437214,0.9897833701067575,-0.08016032974618463,-0.007416186710903442,0.11767838361296991
1298.1666666658148,-0.045812596,-1.169301,-0.40512186,-2.4787858,-0.15461242,1.2613279,0.38455242,0.04,0.04,0.0039020197820871516,-0.01995780796586466,0.028259075024716918,-0.07397268771842509,-0.02137877648350675,0.08629660115998909,0.9896411952962111,-0.08081151725166517,-0.007317452046877261,0.1184325046079498
1298.1833333324814,-0.046031587,-1.1711432,-0.40705845,-2.4793706,-0.15535161,1.2598468,0.3826331,0.04,0.04,0.0030637360502572264,-0.020465640226707826,0.0266736167639392,-0.07358743830314005,-0.021421686152914038,0.08560564014912977,0.9894989391692203,-0.08145948632270159,-0.0072184885639289716,0.11918093343266675
1298.199999999148,-0.046248507,-1.1729679,-0.4089766,-2.4799502,-0.15608382,1.2583809,0.38073185,0.04,0.04,0.003747467347636757,-0.020045090093390172,0.02905485765211102,-0.07318552832849085,-0.021462042593964184,0.08490081156713317,0.9893567241331185,-0.08210399888246497,-0.0071185061697939984,0.11992302802215805
1298.2166666658147,-0.046463337,-1.1747749,-0.41087663,-2.4805236,-0.156809,1.2569287,0.37884888,0.04,0.04,0.004663250734560087,-0.01945806462245736,0.02812483174722269,-0.07276891364401741,-0.021493122440389437,0.08418331893856176,0.989214561932101,-0.08274479179878351,-0.007017934493804213,0.12065901742968908
1298.2333333324814,-0.046676047,-1.1765643,-0.41275793,-2.4810917,-0.1575271,1.25549,0.3769843,0.04,0.04,0.003812163371974542,-0.020261631053353213,0.027878908957290616,-0.07233859133372728,-0.02151733773061408,0.08345184534593537,0.9890724731399324,-0.0833820061455529,-0.006917300499734949,0.12138877576529487
1298.249999999148,-0.046886623,-1.178336,-0.41462046,-2.4816542,-0.15823802,1.2540661,0.37513822,0.04,0.04,0.004941776953248933,-0.019510648132803343,0.029041766178505846,-0.07189122409678017,-0.021540439415643972,0.08270678987614358,0.9889305413053611,-0.0840153869935229,-0.006815865119098188,0.12211201089365557
1298.2666666658147,-0.04709505,-1.1800898,-0.4164641,-2.4822106,-0.15894172,1.2526568,0.373311,0.04,0.04,0.005377220455304865,-0.019331214083384562,0.028822781603832226,-0.07142956205529662,-0.021553245712832916,0.08195047072783236,0.9887888118730507,-0.08464469875313178,-0.006713812635961627,0.12282868234887784
1298.2833333324813,-0.047301307,-1.1818255,-0.41828862,-2.4827614,-0.15963814,1.2512623,0.37150273,0.04,0.04,0.005250030512726767,-0.01934522919925241,0.02910710943131445,-0.07095420704568511,-0.021557996238647015,0.08118083869958345,0.9886473225004436,-0.08526989340761283,-0.006611316071229051,0.12353868823475728
1298.299999999148,-0.04750538,-1.1835426,-0.42009392,-2.4833066,-0.16032718,1.2498825,0.36971352,0.04,0.04,0.004885038317858914,-0.019430715703927515,0.02924204690480936,-0.07046423572948599,-0.02155662236995646,0.080400752028859,0.9885060957566895,-0.08589087545061819,-0.006508821235073373,0.12424206780443948
1298.3166666658146,-0.047707237,-1.1852415,-0.42187977,-2.4838455,-0.16100885,1.2485173,0.3679435,0.04,0.04,0.00671352961103544,-0.018803052343840942,0.029074361953784766,-0.06995910014713726,-0.021551398246491438,0.07960678883049939,0.9883652105636228,-0.0865074646454718,-0.006405783284235695,0.12493852507794961
1298.3333333324813,-0.04790688,-1.1869215,-0.423646,-2.4843786,-0.16168301,1.2471671,0.36619285,0.04,0.04,0.005740333685988475,-0.019085495288173604,0.029610075614916465,-0.06944043151898979,-0.021537667281764566,0.0788026687134163,0.9882246890046384,-0.08711958095826297,-0.006302701647679968,0.12562809640873643
1298.349999999148,-0.048104282,-1.188583,-0.42539263,-2.484906,-0.16234967,1.2458321,0.36446178,0.04,0.04,0.006146268130047261,-0.01882705922132688,0.029459921408248047,-0.06890724827391448,-0.021519466825268244,0.07798603776935803,0.9880845792168247,-0.08772707221671891,-0.0061994041856800386,0.12631069828773675
1298.3666666658146,-0.048299424,-1.190226,-0.4271193,-2.4854274,-0.1630087,1.2445121,0.36275038,0.04,0.04,0.006732982135426724,-0.018801992592654138,0.02946795031169014,-0.06836014159067003,-0.02149428048313201,0.07715896979041682,0.9879449259862112,-0.08832987564385465,-0.006095949946072938,0.126986202719412
1298.3833333324812,-0.048492316,-1.1918497,-0.42882597,-2.4859424,-0.16366006,1.2432073,0.3610588,0.04,0.04,0.0073686324909783,-0.018291039105733375,0.02989225533210904,-0.06779890985445672,-0.021462264676546654,0.07632057975912086,0.9878057896982498,-0.08892774536410245,-0.005992351441024912,0.12765449332977535
1298.399999999148,-0.048682913,-1.1934541,-0.43051246,-2.4864514,-0.16430378,1.2419181,0.35938716,0.04,0.04,0.006929884489048632,-0.018376852985335645,0.0300918256869509,-0.06722511338633437,-0.021422724721376123,0.0754723845280182,0.9876672070334236,-0.08952063575132307,-0.00588884652691748,0.12831549170718864
1298.4166666658145,-0.04887121,-1.1950393,-0.4321787,-2.4869545,-0.16493976,1.2406443,0.35773566,0.04,0.04,0.007152235833784992,-0.01825315475577627,0.03005017426424006,-0.0666370905537211,-0.021379187857837358,0.07461366245008635,0.9875292178443672,-0.09010839485317741,-0.0057854807098841245,0.1289691796268845
1298.4333333324812,-0.049057197,-1.1966052,-0.43382457,-2.4874516,-0.16556795,1.2393863,0.35610434,0.04,0.04,0.007522088451916709,-0.018114746867126108,0.030141183266074734,-0.06603648593933194,-0.02133008241813434,0.0737445735966435,0.9873918671339137,-0.09069097099083212,-0.005682131512626762,0.12961543843237586
1298.4499999991478,-0.04924085,-1.1981518,-0.43544996,-2.487942,-0.1661883,1.2381437,0.3544934,0.04,0.04,0.008594181191501349,-0.017638710716627592,0.029900881502087362,-0.06542255239191827,-0.02127406057344996,0.07286562144755465,0.9872552111243662,-0.09126813593378863,-0.0055787524873441175,0.13025418608106104
1298.4666666658145,-0.049422164,-1.1996787,-0.4370547,-2.4884262,-0.16680077,1.2369167,0.35290292,0.04,0.04,0.007990185295203567,-0.01778186942261728,0.03027803591458822,-0.06479686051409153,-0.021210705144602965,0.07197741038669889,0.9871192798124424,-0.09183984913970049,-0.005475739736890224,0.13088539187738224
1298.4833333324812,-0.049601123,-1.201186,-0.43863866,-2.4889042,-0.16740532,1.2357059,0.351333,0.04,0.04,0.008480779796027349,-0.017517389191001875,0.03055787717805014,-0.0641583373845575,-0.021143369176629803,0.07108003862302756,0.9869841349582492,-0.09240599323713607,-0.005372753462734938,0.13150887146806337
1298.4999999991478,-0.04977772,-1.2026732,-0.44020164,-2.4893758,-0.16800189,1.234511,0.34978375,0.04,0.04,0.008779961625937638,-0.01738930284587159,0.030597219127748154,-0.06350824812615609,-0.021067119588618247,0.07017421513401986,0.9868498185167907,-0.0929664380506334,-0.005270084876241478,0.1321245749092589
1298.5166666658145,-0.049951945,-1.2041397,-0.44174388,-2.4898415,-0.16859046,1.2333319,0.34825528,0.04,0.04,0.007764153107236993,-0.017373000231613034,0.03065528401864359,-0.062846273122735,-0.020985549749647225,0.06926049148611785,0.9867163293058853,-0.09352106791463825,-0.0051684385831421275,0.13273274870896598
1298.533333332481,-0.050123774,-1.205587,-0.44326502,-2.4903004,-0.16917104,1.2321689,0.3467477,0.04,0.04,0.00995114343187442,-0.01688606846750318,0.030160346693819395,-0.0621720184743735,-0.020904712934238068,0.06833654556145233,0.9865837677079884,-0.0940698077059593,-0.005066644321965959,0.13333292799825705
1298.5499999991478,-0.050293207,-1.2070146,-0.44476488,-2.4907532,-0.16974355,1.2310225,0.3452609,0.04,0.04,0.009342829894931626,-0.016996513277800496,0.030773183579957397,-0.06148737137396716,-0.02081251641351268,0.06740635486621395,0.9864521602355757,-0.09461268598820881,-0.004965026540559248,0.13392506758674605
1298.5666666658144,-0.050460227,-1.2084213,-0.44624352,-2.4911993,-0.1703079,1.2298917,0.34379515,0.04,0.04,0.009450055622028941,-0.016759903216456706,0.03047235530816428,-0.06079043153479376,-0.020713676069300427,0.06646816929248468,0.9863215257692808,-0.09514942723656024,-0.0048643161776827605,0.13450937784718198
1298.583333332481,-0.05062483,-1.209808,-0.44770086,-2.491639,-0.17086414,1.2287775,0.34235063,0.04,0.04,0.009858980868693301,-0.016459624152043162,0.03090142043259414,-0.06008250655875576,-0.020612687244227733,0.06552244925064904,0.9861919411786078,-0.09567990997608215,-0.004763896482738704,0.13508558498833248
1298.5999999991477,-0.050787017,-1.2111746,-0.44913682,-2.492072,-0.17141218,1.2276797,0.34092736,0.04,0.04,0.010027197643602825,-0.016427423479414838,0.030525229480504734,-0.05936464562901146,-0.020504853938921083,0.06457119495185351,0.9860634303571267,-0.09620409833893995,-0.0046639119494451195,0.13565371613212546
1298.6166666658144,-0.05094677,-1.2125205,-0.4505514,-2.4924989,-0.1719521,1.2265984,0.33952537,0.04,0.04,0.009848441849236167,-0.016170196616605015,0.030884851385959422,-0.05863761314189538,-0.020388745113813847,0.06361263144733498,0.9859360318667711,-0.09672186593800702,-0.004564711074767072,0.1362137479444689
1298.633333332481,-0.051104084,-1.213846,-0.4519444,-2.4929194,-0.17248371,1.2255336,0.33814472,0.04,0.04,0.009975119051763848,-0.016312254919825797,0.030786407965144313,-0.05790030573939086,-0.020270419960035334,0.06264829639461955,0.9858097746869616,-0.09723321592402245,-0.004466198929100816,0.1367656496341093
1298.6499999991477,-0.051258944,-1.215151,-0.4533158,-2.4933338,-0.17300712,1.224485,0.3367854,0.04,0.04,0.010001414981797296,-0.016200769034602214,0.030511903985697142,-0.05715274020435129,-0.02014708306635605,0.06167710559741551,0.9856846900845126,-0.09773810946769354,-0.004368664373374954,0.13730938956339514
1298.6666666658143,-0.051411346,-1.2164354,-0.45466548,-2.4937415,-0.17352226,1.2234534,0.33544758,0.039999995,0.04,0.011000488865020586,-0.015590616779781463,0.030971372145716103,-0.05639515634198469,-0.020020342468981482,0.06070089017971843,0.9855608576478513,-0.09823631618232236,-0.004271602364774937,0.13784475132770108
1298.683333332481,-0.05156132,-1.2176994,-0.45599356,-2.4941423,-0.17402907,1.2224381,0.3341313,0.03999999,0.04,0.011311136762426344,-0.015399570515772787,0.030438186124981392,-0.0556289788087363,-0.019886634827879508,0.059720522926865166,0.9854382937591536,-0.0987277287287265,-0.004175196175021175,0.138371863144266
1298.6999999991476,-0.051708814,-1.2189426,-0.4572999,-2.4945364,-0.17452762,1.2214392,0.3328365,0.039999988,0.04,0.011076438771784325,-0.015369248295038496,0.03059765468453879,-0.05485540109379867,-0.019746940667017203,0.05873320721183725,0.98531703360524,-0.09921236059643812,-0.004079682603436667,0.13889062956912518
1298.7166666658143,-0.051853843,-1.2201651,-0.4585844,-2.4949236,-0.1750179,1.2204571,0.3315633,0.03999998,0.04,0.011622112232601012,-0.015010015379224306,0.03069700726100466,-0.0540726895258336,-0.019604017869114726,0.05774041652418349,0.9851971328681133,-0.09969006376336115,-0.003984886895350294,0.1394009370547326
1298.733333332481,-0.051996402,-1.2213668,-0.45984718,-2.4953046,-0.17549983,1.2194917,0.33031175,0.039999973,0.04,0.01072178508656485,-0.015250111174869296,0.03077827938273714,-0.05328345203212221,-0.0194540852074912,0.05674447870324345,0.9850785955143307,-0.10016081797767995,-0.0038911587380004754,0.13990293093867337
1298.7499999991476,-0.05213649,-1.2225479,-0.4610881,-2.4956791,-0.17597343,1.218543,0.32908174,0.039999973,0.04,0.011390101273156539,-0.015039638257774435,0.030466968805720196,-0.05248583011597438,-0.01930208879783331,0.05574440203169611,0.9849614623290367,-0.10062464511344614,-0.0037983138614950335,0.14039647906642203
1298.7666666658142,-0.0522741,-1.2237083,-0.46230718,-2.4960468,-0.1764387,1.2176112,0.3278734,0.039999966,0.04,0.012052873248258322,-0.014484324388086556,0.030567768644695903,-0.051680804213912676,-0.019143562043397108,0.05474107534278851,0.9848457880188218,-0.10108132555603842,-0.0037062337770837283,0.14088152212625246
1298.7833333324809,-0.052409235,-1.2248474,-0.46350446,-2.4964085,-0.17689563,1.2166959,0.3266867,0.039999954,0.04,0.0105939628116003,-0.014984711988441646,0.03057185195918244,-0.05086921042292969,-0.018981072765075338,0.05373457684290241,0.9847315554142478,-0.10153093956542543,-0.003615726683671605,0.1413582632991332
1298.7999999991475,-0.05254189,-1.2259662,-0.46467966,-2.4967635,-0.17734423,1.2157974,0.32552174,0.03999995,0.04,0.012268287015881896,-0.014466022542347634,0.030308409789703283,-0.05004971406448304,-0.018818417199098582,0.05272445949248828,0.9846188527025201,-0.10197337039719725,-0.0035260166594263216,0.14182635100405788
1298.8166666658142,-0.052672066,-1.2270639,-0.4658331,-2.497112,-0.1777845,1.2149158,0.32437846,0.03999995,0.04,0.01157240675486726,-0.014235417809438378,0.03051408352274798,-0.04922460747415819,-0.018649549770639186,0.05171250202423053,0.9845076801670176,-0.10240850653256915,-0.0034375614981940104,0.14228601003918911
1298.8333333324808,-0.05279978,-1.228141,-0.46696466,-2.4974537,-0.1782164,1.2140505,0.32325694,0.039999947,0.04,0.012550458020443855,-0.013969246101064314,0.029964693484785254,-0.04839364464656757,-0.018478025343643532,0.050699647814319466,0.9843980825799434,-0.10283626928531889,-0.00335011567361874,0.14273714813383975
1298.8499999991475,-0.052925017,-1.2291974,-0.46807444,-2.4977887,-0.17863996,1.2132022,0.322157,0.03999994,0.04,0.012398347785436137,-0.01375543369558363,0.030228544054178297,-0.04755786438444899,-0.018302663044986428,0.049683805385848046,0.9842900855570479,-0.1032566846880602,-0.0032635867807092227,0.14317972462138134
1298.8666666658141,-0.053047784,-1.2302328,-0.46916237,-2.4981167,-0.17905517,1.2123705,0.32107872,0.039999932,0.04,0.012612613016793617,-0.013584178888648157,0.030068548935124895,-0.046717448150641515,-0.018121155022386218,0.04866667281089572,0.984183718982316,-0.10366962858931367,-0.003178244362473337,0.1436137673103228
1298.8833333324808,-0.053168084,-1.2312475,-0.4702285,-2.498438,-0.17946209,1.2115555,0.32002196,0.039999932,0.04,0.012833380815036044,-0.013328353355890332,0.02994887849196992,-0.04587262593654685,-0.01793730380664807,0.04764781388516481,0.9840790136441507,-0.10407511512870238,-0.00309394768430371,0.14403920578727653
1298.8999999991474,-0.053285908,-1.2322416,-0.4712728,-2.4987524,-0.17986067,1.2107573,0.31898683,0.03999992,0.04,0.012712231334988111,-0.013353052406495092,0.029935568971684035,-0.045024739851024356,-0.01774753260755487,0.046629815704315174,0.9839759944096081,-0.1044730851873181,-0.003010720093533006,0.14445605719935933
1298.916666665814,-0.053401284,-1.2332149,-0.4722954,-2.4990606,-0.18025094,1.2099755,0.31797326,0.039999913,0.04,0.01191443336689968,-0.013488112355319881,0.02968710431093813,-0.04417290474390052,-0.017553771089105066,0.04561139569070684,0.9838746517708975,-0.10486356981326057,-0.0029290779067554992,0.14486449472293325
1298.9333333324807,-0.053514205,-1.2341677,-0.47329628,-2.499363,-0.18063293,1.2092106,0.31698123,0.039999917,0.04,0.012038497297228723,-0.013396214772076753,0.02976171302009889,-0.04331681177567681,-0.017360188779628367,0.04459305750943592,0.9837750245964222,-0.10524656693501958,-0.0028487107071016892,0.145264400236289
1298.9499999991474,-0.05362467,-1.2350997,-0.47427547,-2.4996583,-0.18100663,1.2084618,0.31601062,0.039999913,0.04,0.012976038552259261,-0.01287217333253432,0.029183323651998938,-0.04245725706001956,-0.01716350372113936,0.043574179085437384,0.9836771319245288,-0.10562197164607275,-0.0027698732540814854,0.1456558513637058
