rsonawane2002/My_IMU/logs_2/traj_368/imu_400hz_368.csv
time,j1,j2,j3,j4,j5,j6,j7,gripper1,gripper2,imu_ax,imu_ay,imu_az,imu_gx,imu_gy,imu_gz
0.0,0.00016700293,-0.785875,4.0107683e-05,-2.3551247,9.29385e-05,1.570997,0.786,0.04,0.04,-9.496011,-0.0527460910379886,0.06691318,-3.7317513e-08,-0.0011641273740679,6.8498366e-07
0.0025,0.0001670032975,-0.7858577740000002,4.0107461e-05,-2.35513919,9.294335249999994e-05,1.570996565,0.786,0.04,0.04,-9.546757799999353,-0.04474049778374321,0.0582429169001104,-6.621360404963207e-08,-0.001325190812347259,7.549419259991092e-07
0.005,0.00016700366499999999,-0.7858405480000005,4.010723900000001e-05,-2.35515368,9.294820499999988e-05,1.57099613,0.786,0.04,0.04,-9.597504599998707,-0.03673490452949783,0.0495726538002208,-9.510969509926415e-08,-0.0014862542506266184,8.249001919982185e-07
0.0075,0.00016700403249999998,-0.7858233220000007,4.010701700000001e-05,-2.35516817,9.295305749999981e-05,1.5709956950000001,0.786,0.04,0.04,-9.648251399998061,-0.028729311275252443,0.04090239070033119,-1.240057861488962e-07,-0.0016473176889059775,8.948584579973276e-07
0.01,0.00016700439999999998,-0.785806096000001,4.0106795000000013e-05,-2.3551826599999997,9.295790999999976e-05,1.5709952600000001,0.786,0.04,0.04,-9.698998199997416,-0.02072371802100706,0.03223212760044159,-1.529018771985283e-07,-0.0018083811271853369,9.64816723996437e-07
0.0125,0.00016700476749999997,-0.7857888700000011,4.010657300000001e-05,-2.355197149999999,9.29627624999997e-05,1.570994825,0.786,0.04,0.04,-9.749744999996768,-0.012718124766761672,0.02356186450055199,-1.8179796824816037e-07,-0.0019694445654646958,1.034774989995546e-06
0.015,0.00016700513499999997,-0.7857716440000013,4.010635100000002e-05,-2.355211639999999,9.296761499999964e-05,1.57099439,0.786,0.04,0.04,-9.800491799996122,-0.004712531512516285,0.01489160140066239,-2.1069405929779243e-07,-0.002130508003744055,1.1047332559946554e-06
0.0175,0.00016700531150000002,-0.7857548670000014,4.010320385000076e-05,-2.355225734999999,9.297123079999991e-05,1.57099396,0.786,0.04,0.04,-9.834234750000022,0.0006201173615420099,0.009030039900020652,-2.5559335049349516e-07,-0.002287345030332424,1.2280209149805505e-06
0.02,0.000167005106,-0.7857389880000014,4.0094206400000755e-05,-2.355239039999999,9.29723731999999e-05,1.5709935400000001,0.786,0.04,0.04,-9.833970000000022,0.0006068774731840679,0.00878588160002043,-3.3249904199356505e-07,-0.0024357292335355843,1.4579673599807595e-06
0.0225,0.0001670049005,-0.7857231090000013,4.008520895000074e-05,-2.355252344999999,9.29735155999999e-05,1.57099312,0.786,0.04,0.04,-9.833705250000023,0.0005936375848261258,0.008541723300020208,-4.09404733493635e-07,-0.002584113436738744,1.6879138049809686e-06
0.025,0.00016700469500000002,-0.7857072300000013,4.0076211500000734e-05,-2.355265649999999,9.297465799999991e-05,1.5709927000000001,0.786,0.04,0.04,-9.833440500000021,0.0005803976964681838,0.008297565000019986,-4.86310424993705e-07,-0.002732497639941904,1.917860249981178e-06
0.0275,0.0001670044895,-0.7856913510000013,4.006721405000073e-05,-2.355278954999999,9.297580039999991e-05,1.57099228,0.786,0.04,0.04,-9.833175750000022,0.0005671578081102418,0.008053406700019763,-5.632161164937749e-07,-0.0028808818431450642,2.1478066949813867e-06
0.03,0.000167004284,-0.7856754720000013,4.005821660000072e-05,-2.355292259999999,9.297694279999991e-05,1.5709918600000001,0.786,0.04,0.04,-9.832911000000022,0.0005539179197522997,0.007809248400019541,-6.401218079938448e-07,-0.003029266046348224,2.377753139981596e-06
0.0325,0.00016700407850000001,-0.7856595930000013,4.004921915000071e-05,-2.3553055649999988,9.29780851999999e-05,1.57099144,0.786,0.04,0.04,-9.832646250000021,0.0005406780313943577,0.007565090100019319,-7.170274994939149e-07,-0.003177650249551384,2.6076995849818054e-06
0.035,0.00016700265300000015,-0.7856445730000011,4.002479330000251e-05,-2.355318099999999,9.297411040000051e-05,1.57099101,0.786,0.04,0.0399999995,-9.832367400000022,0.0005210650677344733,0.007342285930016591,-9.353218969773967e-07,-0.003318212064903682,3.0900125199524067e-06
0.0375,0.00016700061750000016,-0.7856299825000012,3.9992653250002485e-05,-2.355330249999999,9.29675770000005e-05,1.570990575,0.786,0.04,0.03999999875,-9.832081500000022,0.0004982655664224876,0.007130158825016399,-1.2243106474776589e-06,-0.003454862686329161,3.6985086999529584e-06
0.04,0.00016699858200000016,-0.7856153920000011,3.9960513200002457e-05,-2.355342399999999,9.29610436000005e-05,1.5709901400000001,0.786,0.04,0.039999998,-9.831795600000023,0.00047546606511050186,0.006918031720016206,-1.513299397977922e-06,-0.0035915133077546405,4.307004879953513e-06
0.0425,0.00016699654650000016,-0.7856008015000011,3.992837315000242e-05,-2.355354549999999,9.295451020000048e-05,1.5709897050000001,0.786,0.04,0.03999999725,-9.831509700000023,0.00045266656379851607,0.0067059046150160125,-1.8022881484781851e-06,-0.0037281639291801196,4.915501059954066e-06
0.045,0.00016699451100000016,-0.7855862110000011,3.989623310000239e-05,-2.355366699999999,9.294797680000048e-05,1.57098927,0.786,0.04,0.0399999965,-9.831223800000021,0.0004298670624865304,0.00649377751001582,-2.091276898978447e-06,-0.0038648145506055987,5.523997239954619e-06
0.0475,0.00016699247550000016,-0.7855716205000011,3.9864093050002365e-05,-2.3553788499999992,9.294144340000048e-05,1.570988835,0.786,0.04,0.03999999575,-9.830937900000022,0.0004070675611745446,0.006281650405015627,-2.38026564947871e-06,-0.004001465172031079,6.132493419955173e-06
0.05,0.00016699044000000014,-0.7855570300000011,3.983195300000234e-05,-2.355390999999999,9.293491000000047e-05,1.5709884,0.786,0.04,0.039999995,-9.830652000000022,0.0003842680598625588,0.006069523300015434,-2.669254399978974e-06,-0.004138115793456558,6.740989599955726e-06
0.0525,0.0001669845990000004,-0.785543645500001,3.975615245000544e-05,-2.355402129999999,9.290957800000182e-05,1.5709879800000002,0.786,0.04,0.03999999575,-9.830418000000018,0.00034812118974771717,0.005853256555015539,-3.2005053649618293e-06,-0.004263266338957733,7.496231859945735e-06
0.055,0.0001669787580000004,-0.785530261000001,3.968035190000538e-05,-2.3554132599999993,9.28842460000018e-05,1.57098756,0.786,0.04,0.0399999965,-9.830184000000017,0.0003119743196319043,0.005636989810015342,-3.731756329962313e-06,-0.004388416884458072,8.251474119946422e-06
0.0575,0.00016697291700000042,-0.7855168765000009,3.9604551350005306e-05,-2.355424389999999,9.285891400000177e-05,1.57098714,0.786,0.04,0.03999999725,-9.829950000000016,0.00027582744951609137,0.005420723065015145,-4.263007294962797e-06,-0.004513567429958411,9.006716379947111e-06
0.06,0.0001669670760000004,-0.7855034920000009,3.952875080000524e-05,-2.355435519999999,9.283358200000175e-05,1.57098672,0.786,0.04,0.039999998,-9.829716000000015,0.00023968057940027855,0.005204456320014949,-4.794258259963279e-06,-0.00463871797545875,9.761958639947795e-06
0.0625,0.0001669612350000004,-0.7854901075000009,3.945295025000517e-05,-2.3554466499999993,9.280825000000174e-05,1.5709863,0.786,0.04,0.03999999875,-9.829482000000015,0.00020353370928446565,0.004988189575014752,-5.325509224963763e-06,-0.0047638685209590885,1.0517200899948484e-05
0.065,0.0001669553940000004,-0.7854767230000009,3.9377149700005104e-05,-2.355457779999999,9.27829180000017e-05,1.57098588,0.786,0.04,0.0399999995,-9.829248000000016,0.00016738683916865275,0.004771922830014555,-5.856760189964246e-06,-0.004889019066459427,1.1272443159949172e-05
0.0675,0.00016694737250000081,-0.7854637175000009,3.9278054100009675e-05,-2.355468549999999,9.27484290000035e-05,1.570985455,0.785999905,0.04,0.04,-9.829009150000015,0.00012904041214192294,0.004563408895012814,-6.543866774933688e-06,-0.00501065994612109,1.2200814799915376e-05
0.07,0.0001669349900000008,-0.7854514700000008,3.913236840000954e-05,-2.355478599999999,9.269562600000345e-05,1.57098502,0.78599962,0.04,0.04,-9.828760600000015,8.629487129203903e-05,0.004370400580012639,-7.542684599934597e-06,-0.0051252814941032945,1.3475445199916536e-05
0.0725,0.00016692260750000078,-0.7854392225000009,3.898668270000941e-05,-2.355488649999999,9.26428230000034e-05,1.570984585,0.7859993350000001,0.04,0.04,-9.828512050000015,4.354933044215534e-05,0.004177392265012464,-8.541502424935501e-06,-0.005239903042085498,1.475007559991769e-05
0.075,0.0001669102250000008,-0.7854269750000008,3.884099700000928e-05,-2.355498699999999,9.259002000000337e-05,1.5709841500000001,0.78599905,0.04,0.04,-9.828263500000014,8.037895922714344e-07,0.003984383950012288,-9.54032024993641e-06,-0.005354524590067702,1.602470599991885e-05
0.0775,0.00016689784250000078,-0.7854147275000007,3.869531130000914e-05,-2.3555087499999994,9.253721700000332e-05,1.5709837150000001,0.7859987650000001,0.04,0.04,-9.828014950000014,-4.194175125761247e-05,0.003791375635012112,-1.053913807493732e-05,-0.005469146138049907,1.729933639992001e-05
0.08,0.00016688546000000076,-0.7854024800000008,3.854962560000901e-05,-2.355518799999999,9.248441400000327e-05,1.57098328,0.78599848,0.04,0.04,-9.827766400000014,-8.46872921074964e-05,0.0035983673200119365,-1.153795589993823e-05,-0.005583767686032111,1.857396679992117e-05
0.0825,0.00016687307750000075,-0.7853902325000007,3.840393990000888e-05,-2.3555288499999993,9.243161100000322e-05,1.570982845,0.785998195,0.04,0.04,-9.827517850000014,-0.00012743283295738034,0.0034053590050117607,-1.253677372493914e-05,-0.005698389234014316,1.984859719992233e-05
0.085,0.00016685409100000134,-0.7853787110000007,3.819082020001482e-05,-2.355538679999999,9.235319840000548e-05,1.5709824000000001,0.7859979100000001,0.04,0.04,-9.827280400000014,-0.0001749555929533341,0.003213226210011506,-1.3083689599980734e-05,-0.005805892357596471,2.1629003599877953e-05
0.08750000000000001,0.0001668318025000013,-0.7853675525000007,3.7943983500014596e-05,-2.355548399999999,9.22619810000054e-05,1.5709819500000002,0.785997625,0.04,0.04,-9.827048500000013,-0.00022486696252297454,0.003021531175011332,-1.3404654499981026e-05,-0.00590983626897763,2.3662297999879806e-05
0.09,0.0001668095140000013,-0.7853563940000007,3.7697146800014366e-05,-2.3555581199999995,9.217076360000531e-05,1.5709815,0.7859973400000001,0.04,0.04,-9.826816600000013,-0.00027477833209261474,0.0028298361400111586,-1.3725619399981317e-05,-0.006013780180358789,2.5695592399881645e-05
0.0925,0.00016678722550000127,-0.7853452355000007,3.7450310100014144e-05,-2.3555678399999995,9.207954620000523e-05,1.57098105,0.7859970550000001,0.04,0.04,-9.826584700000014,-0.0003246897016622552,0.002638141105010984,-1.4046584299981609e-05,-0.006117724091739949,2.7728886799883495e-05
0.095,0.00016676493700000126,-0.7853340770000007,3.720347340001392e-05,-2.3555775599999995,9.198832880000514e-05,1.5709806000000002,0.78599677,0.04,0.04,-9.826352800000013,-0.0003746010712318956,0.0024464460700108093,-1.4367549199981902e-05,-0.006221668003121109,2.9762181199885348e-05
0.0975,0.00016674264850000123,-0.7853229185000007,3.695663670001369e-05,-2.3555872799999995,9.189711140000506e-05,1.57098015,0.7859964850000001,0.04,0.04,-9.826120900000014,-0.000424512440801536,0.002254751035010635,-1.4688514099982194e-05,-0.006325611914502268,3.17954755998872e-05
0.1,0.00016672036000000122,-0.7853117600000006,3.670980000001347e-05,-2.3555969999999995,9.180589400000497e-05,1.5709797,0.7859962,0.04,0.04,-9.825889000000013,-0.00047442381037117643,0.0020630560000104606,-1.5009478999982485e-05,-0.0064295558258834285,3.382876999988905e-05
0.10250000000000001,0.00016668425500000194,-0.7853016560000006,3.632605890002059e-05,-2.3556057299999993,9.166392740000761e-05,1.5709792500000002,0.7859959150000001,0.04,0.03999999925,-9.825793300000004,-0.000534173299089509,0.0018732747625101833,-1.608319489994239e-05,-0.006527140806423829,3.655214944985387e-05
0.105,0.0001666481500000019,-0.7852915520000006,3.594231780002024e-05,-2.3556144599999995,9.152196080000749e-05,1.5709788,0.7859956300000001,0.04,0.0399999985,-9.825697600000005,-0.0005939227878083781,0.0016834935250100115,-1.715691079994336e-05,-0.006624725786963882,3.927552889985634e-05
0.1075,0.00016661204500000186,-0.7852814480000005,3.555857670001989e-05,-2.3556231899999998,9.137999420000736e-05,1.57097835,0.785995345,0.04,0.03999999775,-9.825601900000004,-0.0006536722765272475,0.0014937122875098388,-1.8230626699944337e-05,-0.006722310767503936,4.199890834985882e-05
0.11,0.00016657594000000182,-0.7852713440000005,3.517483560001954e-05,-2.3556319199999995,9.123802760000722e-05,1.5709779,0.7859950600000001,0.04,0.039999997,-9.825506200000005,-0.0007134217652461169,0.001303931050009666,-1.9304342599945314e-05,-0.00681989574804399,4.47222877998613e-05
0.1125,0.0001665398350000018,-0.7852612400000005,3.479109450001919e-05,-2.35564065,9.10960610000071e-05,1.57097745,0.785994775,0.04,0.03999999625,-9.825410500000004,-0.0007731712539649862,0.001114149812509493,-2.0378058499946292e-05,-0.006917480728584044,4.744566724986378e-05
0.115,0.00016650373000000177,-0.7852511360000004,3.440735340001884e-05,-2.3556493799999996,9.095409440000697e-05,1.5709769999999998,0.7859944900000001,0.04,0.0399999955,-9.825314800000005,-0.0008329207426838556,0.0009243685750093204,-2.145177439994727e-05,-0.007015065709124097,5.016904669986625e-05
0.11750000000000001,0.00016646156450000237,-0.7852413635000004,3.396471970002446e-05,-2.35565789,9.078896650000923e-05,1.570976535,0.7859941100000001,0.04,0.03999999525,-9.82517570000001,-0.0008942556829395991,0.0007404003045075233,-2.2862962949908935e-05,-0.007109328731890575,5.306025614985914e-05
0.12,0.00016640727800000158,-0.7852322540000002,3.340430080001631e-05,-2.35566596,9.057751600000615e-05,1.57097604,0.7859935400000001,0.04,0.039999996,-9.824949800000006,-0.0009587615262697826,0.0005680579680050162,-2.494909679993928e-05,-0.00719694783910845,5.6287125599906084e-05
0.1225,0.0001663529915000008,-0.7852231445000001,3.284388190000816e-05,-2.35567403,9.036606550000308e-05,1.570975545,0.78599297,0.04,0.03999999675,-9.824723900000004,-0.0010232673695999663,0.0003957156315025081,-2.703523064996964e-05,-0.007284566946326325,5.951399504995304e-05
0.125,0.000166298705,-0.785214035,3.2283462999999996e-05,-2.3556821,9.0154615e-05,1.57097505,0.7859924,0.04,0.0399999975,-9.824498,-0.00108777321293015,0.00022337329500000003,-2.91213645e-05,-0.0073721860535442,6.27408645e-05
0.1275,0.0001662444184999992,-0.7852049254999999,3.172304409999184e-05,-2.3556901700000004,8.994316449999692e-05,1.5709745549999998,0.7859918300000001,0.04,0.03999999825,-9.824272099999996,-0.0011522790562603338,5.1030958497492074e-05,-3.120749835003036e-05,-0.007459805160762075,6.596773395004697e-05
0.13,0.00016619013199999842,-0.7851958159999998,3.1162625199983687e-05,-2.35569824,8.973171399999385e-05,1.57097406,0.78599126,0.04,0.039999999,-9.824046199999994,-0.0012167848995905174,-0.00012131137800501599,-3.329363220006072e-05,-0.0075474242679799495,6.919460340009392e-05
0.1325,0.00016613584549999763,-0.7851867064999996,3.060220629997553e-05,-2.3557063100000004,8.952026349999077e-05,1.5709735649999998,0.78599069,0.04,0.03999999975,-9.82382029999999,-0.0012812907429207011,-0.00029365371450752395,-3.537976605009108e-05,-0.007635043375197825,7.242147285014088e-05
0.135,0.0001660661709999969,-0.7851782629999997,2.9895065699968765e-05,-2.3557140600000004,8.925276099998817e-05,1.57097273,0.785989925,0.04,0.04,-9.823654899999996,-0.0013506415882176225,-0.0004706241140071752,-3.739660810007933e-05,-0.007717549847442059,7.626762240016632e-05
0.1375,0.0001659888024999979,-0.7851701524999998,2.91145642499787e-05,-2.35572165,8.895723249999194e-05,1.570971725,0.7859890625,0.04,0.04,-9.823519749999997,-0.0014224149344973837,-0.0006499085450048926,-3.9378804250054095e-05,-0.007797500002200032,8.042341200011341e-05
0.14,0.00016591143399999887,-0.7851620419999998,2.833406279998864e-05,-2.35572924,8.866170399999569e-05,1.57097072,0.7859882,0.04,0.04,-9.823384599999999,-0.0014941882807771448,-0.00082919297600261,-4.136100040002886e-05,-0.007877450156958003,8.45792016000605e-05
0.14250000000000002,0.00016583406549999986,-0.7851539315,2.7553561349998574e-05,-2.35573683,8.836617549999946e-05,1.570969715,0.7859873375,0.04,0.04,-9.82324945,-0.001565961627056906,-0.0010084774070003273,-4.334319655000362e-05,-0.007957400311715976,8.873499120000758e-05
0.145,0.00016575669700000085,-0.7851458210000001,2.6773059900008523e-05,-2.3557444199999997,8.807064700000322e-05,1.57096871,0.7859864750000001,0.04,0.04,-9.823114300000002,-0.0016377349733366665,-0.0011877618379980428,-4.532539269997836e-05,-0.008037350466473947,9.289078079995463e-05
0.1475,0.00016567932850000182,-0.7851377105000001,2.599255845001846e-05,-2.35575201,8.777511850000699e-05,1.5709677050000002,0.7859856125,0.04,0.04,-9.822979150000004,-0.0017095083196164277,-0.00136704626899576,-4.7307588849953125e-05,-0.00811730062123192,9.704657039990171e-05
0.15,0.0001656019600000028,-0.7851296000000003,2.5212057000028397e-05,-2.3557595999999994,8.747959000001074e-05,1.5709667,0.78598475,0.04,0.04,-9.822844000000005,-0.001781281665896189,-0.0015463306999934773,-4.928978499992789e-05,-0.00819725077598989,0.0001012023599998488
0.1525,0.0001654962895000052,-0.7851224450000004,2.416491585005143e-05,-2.3557667549999994,8.708053750001959e-05,1.57096568,0.7859836325,0.03999999925,0.04,-9.822708250000007,-0.0018532165384349771,-0.001695495694992674,-5.134741824989894e-05,-0.008272043475877481,0.00010610384999975927
0.155,0.00016539061900000654,-0.7851152900000005,2.3117774700064762e-05,-2.3557739099999995,8.668148500002467e-05,1.57096466,0.785982515,0.0399999985,0.04,-9.822572500000009,-0.0019251514109737712,-0.0018446606899907747,-5.340505149987275e-05,-0.008346836175764883,0.00011100533999969685
0.1575,0.00016528494850000786,-0.7851081350000005,2.2070633550078096e-05,-2.3557810649999995,8.628243250002977e-05,1.5709636400000002,0.7859813975000001,0.03999999775,0.04,-9.82243675000001,-0.0019970862835125653,-0.001993825684988876,-5.5462684749846545e-05,-0.008421628875652287,0.00011590682999963445
0.16,0.00016517927800000921,-0.7851009800000006,2.1023492400091426e-05,-2.355788219999999,8.588338000003485e-05,1.5709626200000002,0.7859802800000001,0.039999997,0.04,-9.822301000000012,-0.0020690211560513596,-0.0021429906799869764,-5.752031799982035e-05,-0.00849642157553969,0.00012080831999957205
0.1625,0.00016507360750001057,-0.7850938250000007,1.997635125010476e-05,-2.355795374999999,8.548432750003993e-05,1.5709616000000002,0.7859791625000001,0.03999999625,0.04,-9.822165250000014,-0.0021409560285901535,-0.002292155674985077,-5.957795124979415e-05,-0.008571214275427091,0.00012570980999950963
0.165,0.00016496793700001192,-0.7850866700000008,1.892921010011809e-05,-2.355802529999999,8.508527500004501e-05,1.5709605800000002,0.7859780450000001,0.0399999955,0.04,-9.822029500000015,-0.002212890901128948,-0.002441320669983178,-6.163558449976795e-05,-0.008646006975314495,0.00013061129999944723
0.1675,0.00016485095950001625,-0.7850798300000007,1.7776725950158687e-05,-2.3558094599999992,8.464579650006058e-05,1.5709595450000002,0.7859768235000002,0.03999999465,0.0399999994,-9.821903550000012,-0.002287537965448479,-0.002598087399979981,-6.387960449969538e-05,-0.008718528319142266,0.00013590638099929194
0.17,0.00016471136800001423,-0.7850736200000006,1.641355580013885e-05,-2.3558159399999994,8.412546600005301e-05,1.57095848,0.7859753940000002,0.039999993600000006,0.039999997600000003,-9.821797200000011,-0.0023676094133324443,-0.002770057599982483,-6.649639799973345e-05,-0.008786506950848295,0.00014198864399938047
0.17250000000000001,0.00016457177650001218,-0.7850674100000006,1.5050385650119013e-05,-2.3558224199999995,8.360513550004543e-05,1.570957415,0.7859739645000001,0.03999999255,0.0399999958,-9.82169085000001,-0.0024476808612164096,-0.002942027799984986,-6.911319149977154e-05,-0.008854485582554325,0.00014807090699946898
0.17500000000000002,0.00016443218500001016,-0.7850612000000005,1.3687215500099175e-05,-2.3558288999999992,8.308480500003785e-05,1.5709563500000001,0.7859725350000001,0.039999991500000005,0.039999994000000004,-9.821584500000007,-0.002527752309100375,-0.0031139979999874885,-7.172998499980961e-05,-0.008922464214260354,0.0001541531699995575
0.1775,0.0001642925935000081,-0.7850549900000003,1.2324045350079353e-05,-2.3558353799999994,8.25644745000303e-05,1.5709552850000001,0.7859711055,0.03999999045,0.0399999922,-9.821478150000006,-0.002607823756984339,-0.003285968199989989,-7.434677849984767e-05,-0.008990442845966383,0.00016023543299964596
0.18,0.0001641530020000061,-0.7850487800000003,1.0960875200059514e-05,-2.3558418599999995,8.204414400002271e-05,1.57095422,0.785969676,0.0399999894,0.0399999904,-9.821371800000005,-0.0026878952048683042,-0.003457938399992492,-7.696357199988576e-05,-0.009058421477672413,0.00016631769599973446
0.1825,0.00016401341050000404,-0.7850425700000002,9.597705050039676e-06,-2.3558483399999997,8.152381350001514e-05,1.570953155,0.7859682465,0.03999998835,0.0399999886,-9.821265450000004,-0.0027679666527522695,-0.003629908599994995,-7.958036549992383e-05,-0.009126400109378442,0.00017239995899982297
0.185,0.00016384729200000423,-0.7850370070000001,7.989305000040936e-06,-2.3558547499999998,8.090970900001563e-05,1.5709517499999999,0.785966623,0.0399999876,0.0399999872,-9.821125100000003,-0.0028462463524173403,-0.003789646169996367,-8.249233249992765e-05,-0.009189202170817555,0.0001791243059998334
0.1875,0.00016366791000000408,-0.7850317675000001,6.258290000039359e-06,-2.3558611249999997,8.024871750001503e-05,1.570950175,0.7859649025000001,0.039999987,0.039999986,-9.820967750000003,-0.0029236301779728656,-0.003943267424996507,-8.555188624993043e-05,-0.00924941594712293,0.0001861696949998398
0.19,0.0001634885280000039,-0.7850265280000002,4.527275000037783e-06,-2.3558674999999996,7.958772600001443e-05,1.5709486,0.785963182,0.0399999864,0.0399999848,-9.820810400000003,-0.003001014003528391,-0.004096888679996647,-8.861143999993321e-05,-0.009309629723428305,0.00019321508399984622
0.1925,0.00016330914600000374,-0.7850212885000002,2.7962600000362077e-06,-2.355873875,7.892673450001383e-05,1.570947025,0.7859614615,0.0399999858,0.0399999836,-9.820653050000002,-0.003078397829083916,-0.004250509934996787,-9.1670993749936e-05,-0.00936984349973368,0.00020026047299985262
0.195,0.0001631297640000036,-0.7850160490000001,1.0652450000346311e-06,-2.35588025,7.826574300001322e-05,1.57094545,0.7859597410000001,0.039999985200000004,0.0399999824,-9.820495700000002,-0.003155781654639442,-0.0044041311899969265,-9.473054749993879e-05,-0.009430057276039055,0.00020730586199985905
0.1975,0.00016295038200000344,-0.7850108095000001,-6.657699999669446e-07,-2.3558866249999997,7.760475150001262e-05,1.570943875,0.7859580205000001,0.0399999846,0.0399999812,-9.820338350000004,-0.003233165480194967,-0.004557752444997067,-9.779010124994157e-05,-0.009490271052344429,0.00021435125099986547
0.2,0.00016277100000000326,-0.7850055700000002,-2.3967849999685203e-06,-2.355893,7.694376000001202e-05,1.5709423,0.7859563,0.039999984,0.03999998,-9.820181000000003,-0.0033105493057504925,-0.0047113736999972065,-0.00010084965499994436,-0.009550484828649805,0.00022139663999987187
0.2025,0.0001625456640000039,-0.7850012545000001,-4.54961154996281e-06,-2.355898925,7.61213790000142e-05,1.57094062,0.7859541940000001,0.03999998295,0.03999997895,-9.8201348,-0.003399906924458516,-0.004860087044997431,-0.000104786351749932,-0.009607554692773978,0.00022932218399986307
0.20500000000000002,0.00016232032800000368,-0.7849969390000001,-6.7024380999647695e-06,-2.35590485,7.529899800001345e-05,1.57093894,0.785952088,0.0399999819,0.0399999779,-9.8200886,-0.0034892645431667574,-0.005008800389997566,-0.00010872304849993558,-0.009664624556898095,0.0002372477279998703
0.20750000000000002,0.0001620949920000035,-0.7849926235000001,-8.85526464996673e-06,-2.355910775,7.447661700001271e-05,1.57093726,0.7859499820000001,0.03999998085,0.03999997685,-9.8200424,-0.0035786221618749987,-0.005157513734997702,-0.00011265974524993916,-0.009721694421022213,0.00024517327199987754
0.21,0.0001618696560000033,-0.7849883080000001,-1.1008091199968666e-05,-2.3559167,7.365423600001197e-05,1.57093558,0.785947876,0.0399999798,0.0399999758,-9.8199962,-0.003667979780583239,-0.005306227079997836,-0.0001165964419999427,-0.009778764285146329,0.00025309881599988463
0.2125,0.00016164432000000307,-0.7849839925000001,-1.3160917749970626e-05,-2.3559226250000003,7.283185500001121e-05,1.5709339,0.7859457700000001,0.03999997875,0.03999997475,-9.81995,-0.0037573373992914804,-0.005454940424997971,-0.00012053313874994629,-0.009835834149270447,0.0002610243599998919
0.215,0.00016141898400000288,-0.784979677,-1.5313744299972587e-05,-2.3559285500000002,7.200947400001047e-05,1.57093222,0.785943664,0.0399999777,0.039999973700000004,-9.8199038,-0.0038466950179997217,-0.005603653769998107,-0.00012446983549994987,-0.009892904013394564,0.00026894990399989907
0.2175,0.00016117620650000328,-0.7849756785,-1.76257878999689e-05,-2.3559343100000003,7.112622050001188e-05,1.5709303799999998,0.7859414020000001,0.03999997665,0.03999997235,-9.819833350000001,-0.003932859469204157,-0.005751915669998258,-0.00012861492299994607,-0.009947854978963116,0.0002772649389998925
0.22,0.00016089854600000303,-0.7849723140000001,-2.0256265599971294e-05,-2.35593974,7.012122200001097e-05,1.5709282199999999,0.785938828,0.0399999756,0.0399999704,-9.8197144,-0.004012637585400629,-0.005899274679998392,-0.00013317679199995023,-0.009998568147420306,0.0002863589559999008
0.2225,0.00016062088550000277,-0.7849689495000001,-2.2886743299973686e-05,-2.35594517,6.911622350001005e-05,1.57092606,0.785936254,0.03999997455,0.03999996845,-9.819595450000001,-0.004092415701597102,-0.006046633689998526,-0.00013773866099995436,-0.010049281315877498,0.000295452972999909
0.225,0.00016034322500000254,-0.784965585,-2.5517220999976084e-05,-2.3559506,6.811122500000914e-05,1.5709239,0.7859336800000001,0.0399999735,0.039999966500000005,-9.8194765,-0.0041721938177935744,-0.00619399269999866,-0.00014230052999995852,-0.01009999448433469,0.0003045469899999173
0.2275,0.00016006556450000228,-0.7849622205000001,-2.8147698699978476e-05,-2.35595603,6.710622650000822e-05,1.57092174,0.785931106,0.039999972450000004,0.03999996455,-9.819357550000001,-0.004251971933990047,-0.006341351709998794,-0.00014686239899996267,-0.01015070765279188,0.00031364100699992557
0.23,0.00015978790400000202,-0.784958856,-3.077817639998087e-05,-2.35596146,6.610122800000731e-05,1.57091958,0.785928532,0.0399999714,0.0399999626,-9.8192386,-0.00433175005018652,-0.0064887107199989285,-0.00015142426799996683,-0.010201420821249071,0.00032273502399993387
0.2325,0.00015951024350000176,-0.7849554915,-3.3408654099983266e-05,-2.35596689,6.509622950000639e-05,1.57091742,0.7859259580000001,0.039999970350000004,0.03999996065,-9.819119650000001,-0.004411528166382993,-0.006636069729999063,-0.00015598613699997099,-0.010252133989706263,0.0003318290409999421
0.23500000000000001,0.00015919330200000185,-0.784952803,-3.639583439998274e-05,-2.35597223,6.39547977000066e-05,1.5709149199999999,0.785923,0.039999969600000004,0.0399999598,-9.8190142,-0.004500101925804694,-0.006782593129999204,-0.00016094373699997188,-0.010299388505518132,0.00034155102699994524
0.23750000000000002,0.00015885672000000154,-0.7849504525000001,-3.9561365999985625e-05,-2.355977525,6.27451492500055e-05,1.57091225,0.7859198500000001,0.039999969,0.0399999595,-9.818915500000001,-0.004593073506839128,-0.006928698724999337,-0.0001660992024999766,-0.010344913695007294,0.0003515869974999544
0.24,0.00015852013800000123,-0.784948102,-4.2726897599988474e-05,-2.35598282,6.153550080000441e-05,1.57090958,0.7859167,0.0399999684,0.039999959200000004,-9.8188168,-0.0046860450878735615,-0.007074804319999468,-0.00017125466799998123,-0.010390438884496454,0.0003616229679999634
0.2425,0.00015818355600000092,-0.7849457515,-4.589242919999136e-05,-2.355988115,6.0325852350003304e-05,1.57090691,0.7859135500000001,0.0399999678,0.0399999589,-9.8187181,-0.004779016668907996,-0.007220909914999601,-0.00017641013349998591,-0.010435964073985615,0.0003716589384999726
0.245,0.00015784697400000061,-0.784943401,-4.905796079999424e-05,-2.35599341,5.91162039000022e-05,1.57090424,0.7859104,0.0399999672,0.0399999586,-9.8186194,-0.004871988249942431,-0.007367015509999734,-0.0001815655989999906,-0.010481489263474777,0.0003816949089999817
0.2475,0.0001575103920000003,-0.7849410505,-5.222349239999712e-05,-2.355998705,5.79065554500011e-05,1.57090157,0.7859072500000001,0.0399999666,0.0399999583,-9.8185207,-0.004964959830976865,-0.007513121104999867,-0.00018672106449999531,-0.010527014452963938,0.00039173087949999087
0.25,0.00015717381,-0.7849387,-5.5389024e-05,-2.356004,5.6696907e-05,1.5708989,0.7859041,0.039999966,0.039999958,-9.818422,-0.0050579314120113,-0.0076592267,-0.00019187653,-0.0105725396424531,0.00040176685
0.2525,0.00015677157299999963,-0.784937335,-5.914836390000342e-05,-2.35600925,5.526025199999869e-05,1.57089602,0.7859003725,0.039999966,0.039999958,-9.8183485,-0.005137790762819338,-0.007784182445000114,-0.00019739880550000502,-0.010614428343251303,0.0004128991570000101
0.255,0.00015636933599999926,-0.78493597,-6.290770380000684e-05,-2.3560145,5.382359699999739e-05,1.57089314,0.785896645,0.039999966,0.039999958,-9.818275,-0.005217650113627376,-0.007909138190000227,-0.00020292108100001006,-0.010656317044049506,0.00042403146400002027
0.2575,0.0001559670989999989,-0.784934605,-6.666704370001026e-05,-2.35601975,5.2386941999996076e-05,1.57089026,0.7858929175,0.039999966,0.039999958,-9.8182015,-0.0052975094644354135,-0.008034093935000342,-0.00020844335650001508,-0.01069820574484771,0.0004351637710000304
0.26,0.00015556486199999852,-0.78493324,-7.042638360001368e-05,-2.356025,5.0950286999994766e-05,1.57088738,0.78588919,0.039999966,0.039999958,-9.818128,-0.005377368815243451,-0.008159049680000455,-0.0002139656320000201,-0.010740094445645913,0.00044629607800004056
0.2625,0.00015516262499999816,-0.784931875,-7.418572350001711e-05,-2.35603025,4.951363199999346e-05,1.5708845,0.7858854625,0.039999966,0.039999958,-9.8180545,-0.005457228166051489,-0.00828400542500057,-0.00021948790750002514,-0.010781983146444116,0.0004574283850000507
0.265,0.00015476038799999781,-0.78493051,-7.794506340002053e-05,-2.3560355,4.807697699999215e-05,1.57088162,0.785881735,0.039999966,0.039999958,-9.817981,-0.005537087516859527,-0.008408961170000683,-0.00022501018300003016,-0.010823871847242319,0.0004685606920000608
0.2675,0.00015433397349999697,-0.78492948,-8.192229400002812e-05,-2.356040745,4.655702774998925e-05,1.5708785600000001,0.78587779,0.0399999662,0.0399999581,-9.81791585,-0.005621841223910973,-0.00854190805000095,-0.00023073336500003904,-0.010864201281219937,0.00048006550200007807
0.27,0.00015385920399999653,-0.78492912,-8.633530600003214e-05,-2.35604598,4.487048999998772e-05,1.57087514,0.78587341,0.0399999668,0.0399999584,-9.8178674,-0.005716383643448969,-0.008690837200001085,-0.00023685836000004461,-0.01090141218155647,0.0004923153180000893
0.2725,0.0001533844344999961,-0.78492876,-9.074831800003615e-05,-2.356051215,4.318395224998618e-05,1.57087172,0.78586903,0.0399999674,0.039999958700000005,-9.81781895,-0.005810926062986965,-0.008839766350001221,-0.0002429833550000502,-0.010938623081893004,0.0005045651340001004
0.275,0.00015290966499999567,-0.7849284,-9.516133000004017e-05,-2.35605645,4.149741449998465e-05,1.5708682999999999,0.7858646499999999,0.039999968000000004,0.039999959,-9.8177705,-0.005905468482524961,-0.008988695500001356,-0.00024910835000005574,-0.010975833982229538,0.0005168149500001116
0.2775,0.00015243489549999524,-0.78492804,-9.95743420000442e-05,-2.3560616850000002,3.981087674998311e-05,1.57086488,0.7858602699999999,0.0399999686,0.0399999593,-9.817722049999999,-0.006000010902062957,-0.009137624650001492,-0.00025523334500006134,-0.011013044882566072,0.0005290647660001227
0.28,0.0001519601259999948,-0.78492768,-0.00010398735400004821,-2.3560669200000004,3.812433899998157e-05,1.57086146,0.7858558899999999,0.0399999692,0.0399999596,-9.8176736,-0.006094553321600953,-0.009286553800001627,-0.0002613583400000669,-0.011050255782902606,0.0005413145820001338
0.28250000000000003,0.00015148535649999438,-0.7849273200000001,-0.00010840036600005224,-2.356072155,3.643780124998004e-05,1.5708580399999998,0.7858515099999999,0.0399999698,0.0399999599,-9.817625149999998,-0.006189095741138949,-0.009435482950001763,-0.0002674833350000725,-0.01108746668323914,0.000553564398000145
0.28500000000000003,0.00015095755799999293,-0.7849276500000001,-0.00011328968300006535,-2.35607733,3.456926769997502e-05,1.5708542399999998,0.7858466749999999,0.03999997,0.0399999598,-9.817576399999998,-0.006271767150611628,-0.009566999100001566,-0.0002739836360000853,-0.011122731398791467,0.0005666575870001722
0.28750000000000003,0.00015040324499999242,-0.7849283250000001,-0.00011841715250007003,-2.356082475,3.260973624997324e-05,1.57085025,0.7858416125,0.03999997,0.0399999595,-9.817527499999999,-0.006348503055051973,-0.009689808750001676,-0.00028067159000009134,-0.011157023021951743,0.0005801724625001845
0.29,0.00014984893199999195,-0.784929,-0.00012354462200007458,-2.3560876200000003,3.06502047999715e-05,1.57084626,0.78583655,0.03999997,0.039999959200000004,-9.8174786,-0.006425238959492316,-0.009812618400001786,-0.0002873595440000973,-0.011191314645112018,0.0005936873380001966
0.2925,0.00014929461899999144,-0.784929675,-0.00012867209150007925,-2.356092765,2.8690673349969717e-05,1.5708422699999998,0.7858314874999999,0.03999997,0.0399999589,-9.817429699999998,-0.006501974863932661,-0.009935428050001898,-0.00029404749800010337,-0.011225606268272294,0.0006072022135002089
0.295,0.00014874030599999093,-0.78493035,-0.0001337995610000839,-2.35609791,2.6731141899967934e-05,1.5708382799999998,0.7858264249999999,0.03999997,0.0399999586,-9.817380799999999,-0.006578710768373006,-0.010058237700002009,-0.0003007354520001095,-0.011259897891432571,0.0006207170890002212
0.2975,0.00014818599299999043,-0.784931025,-0.00013892703050008857,-2.356103055,2.477161044996615e-05,1.5708342899999999,0.7858213624999999,0.03999997,0.0399999583,-9.8173319,-0.006655446672813351,-0.010181047350002121,-0.00030742340600011555,-0.011294189514592847,0.0006342319645002336
0.3,0.00014763167999998835,-0.7849317,-0.00014405450000010736,-2.3561082,2.281207899995897e-05,1.5708303,0.7858162999999999,0.03999997,0.039999958,-9.817283,-0.0067321825772540264,-0.010303857000002517,-0.00031411136000013425,-0.011328481137753064,0.0006477468400002644
0.3025,0.000146990768999979,-0.7849334550000001,-0.00014995790750019325,-2.3561133450000002,2.0555919249926137e-05,1.5708257249999997,0.7858104499999998,0.039999970450000005,0.0399999583,-9.817238149999998,-0.006827076198536207,-0.010442278050004531,-0.0003214935980002417,-0.011359465541319034,0.0006622822090004759
0.305,0.0001463498579999697,-0.7849352100000001,-0.00015586131500027917,-2.35611849,1.8299759499893304e-05,1.5708211499999998,0.7858045999999997,0.0399999709,0.0399999586,-9.817193299999998,-0.006921969819818388,-0.010580699100006545,-0.00032887583600034915,-0.011390449944885006,0.0006768175780006874
0.3075,0.00014570894699996036,-0.7849369650000001,-0.0001617647225003651,-2.3561236350000003,1.604359974986047e-05,1.5708165749999996,0.7857987499999997,0.03999997135,0.0399999589,-9.817148449999998,-0.007016863441100569,-0.01071912015000856,-0.00033625807400045657,-0.011421434348450976,0.0006913529470008989
0.31,0.00014506803599995103,-0.7849387200000001,-0.000167668130000451,-2.35612878,1.3787439999827638e-05,1.5708119999999997,0.7857928999999996,0.0399999718,0.039999959200000004,-9.817103599999996,-0.00711175706238275,-0.010857541200010576,-0.000343640312000564,-0.011452418752016948,0.0007058883160011105
0.3125,0.0001444271249999417,-0.7849404750000001,-0.0001735715375005369,-2.3561339250000004,1.1531280249794805e-05,1.5708074249999997,0.7857870499999995,0.03999997225,0.0399999595,-9.817058749999996,-0.00720665068366493,-0.01099596225001259,-0.0003510225500006714,-0.011483403155582918,0.000720423685001322
0.315,0.00014378621399993238,-0.7849422300000002,-0.00017947494500062283,-2.3561390700000002,9.275120499761972e-06,1.5708028499999995,0.7857811999999994,0.039999972700000004,0.0399999598,-9.817013899999996,-0.007301544304947111,-0.011134383300014605,-0.0003584047880007788,-0.01151438755914889,0.0007349590540015335
0.3175,0.00014311405199991846,-0.7849443550000003,-0.00018565768450074804,-2.3561442200000005,6.9122114497141225e-06,1.5707980749999995,0.7857750699999992,0.039999973,0.03999996,-9.816967799999995,-0.007389241410427459,-0.011266414900013233,-0.00036595597000087536,-0.011544348718601513,0.0007498816000017417
0.32,0.00014237938799992783,-0.7849472200000003,-0.0001923990880006622,-2.35614938,4.335803799746925e-06,1.5707928999999996,0.7857683799999994,0.039999973,0.03999996,-9.816919199999996,-0.0074625454843116005,-0.011385667600011714,-0.0003738450400007749,-0.011572263389828502,0.0007655785000015418
0.3225,0.0001416447239999372,-0.7849500850000002,-0.00019914049150057637,-2.3561545400000004,1.7593961497797285e-06,1.5707877249999995,0.7857616899999994,0.039999973,0.03999996,-9.816870599999996,-0.007535849558195742,-0.011504920300010196,-0.0003817341100006745,-0.011600178061055491,0.0007812754000013421
0.325,0.00014091005999994653,-0.7849529500000002,-0.00020588189500049054,-2.3561597,-8.170115001874693e-07,1.5707825499999997,0.7857549999999995,0.039999973,0.03999996,-9.816821999999997,-0.0076091536320798845,-0.011624173000008679,-0.00038962318000057404,-0.01162809273228248,0.0007969723000011422
0.3275,0.0001401753959999559,-0.7849558150000001,-0.0002126232985004047,-2.3561648600000002,-3.3934191501546646e-06,1.5707773749999996,0.7857483099999996,0.039999973,0.03999996,-9.816773399999997,-0.007682457705964026,-0.01174342570000716,-0.0003975122500004736,-0.011656007403509472,0.0008126692000009424
0.33,0.00013944073199996526,-0.7849586800000001,-0.00021936470200031887,-2.35617002,-5.969826800121862e-06,1.5707721999999997,0.7857416199999997,0.039999973,0.03999996,-9.816724799999998,-0.007755761779848168,-0.011862678400005641,-0.00040540132000037315,-0.011683922074736461,0.0008283661000007425
0.3325,0.0001387060679999746,-0.7849615450000001,-0.00022610610550023304,-2.35617518,-8.54623445008906e-06,1.5707670249999997,0.7857349299999997,0.039999973,0.03999996,-9.816676199999998,-0.00782906585373231,-0.011981931100004123,-0.0004132903900002727,-0.01171183674596345,0.0008440630000005427
0.335,0.00013790410999997416,-0.7849651560000002,-0.00023344779100023638,-2.35618033,-1.1351940900090329e-05,1.5707613599999997,0.7857276439999997,0.0399999734,0.03999996,-9.8166295,-0.007906449493023156,-0.01210464670000385,-0.0004215621220002618,-0.011737564764917642,0.0008606256360005257
0.3375,0.00013706850499997338,-0.7849691400000002,-0.00024108961750024334,-2.356185475,-1.4272296750092987e-05,1.5707554499999998,0.7857200599999997,0.039999974,0.03999996,-9.81658375,-0.00798587291501708,-0.012229093750003963,-0.0004300251850002695,-0.011762199457735585,0.0008776211400005412
0.34,0.00013623289999997263,-0.7849731240000002,-0.0002487314440002503,-2.35619062,-1.7192652600095648e-05,1.5707495399999998,0.7857124759999997,0.0399999746,0.03999996,-9.816538,-0.008065296337011002,-0.012353540800004077,-0.00043848824800027717,-0.011786834150553527,0.0008946166440005566
0.3425,0.00013539729499997187,-0.7849771080000002,-0.00025637327050025724,-2.3561957650000003,-2.0113008450098303e-05,1.5707436299999997,0.7857048919999997,0.0399999752,0.03999996,-9.816492249999998,-0.008144719759004923,-0.01247798785000419,-0.0004469513110002849,-0.011811468843371468,0.0009116121480005721
0.34500000000000003,0.00013456168999997111,-0.7849810920000001,-0.0002640150970002642,-2.35620091,-2.3033364300100965e-05,1.5707377199999997,0.7856973079999997,0.0399999758,0.03999996,-9.816446499999998,-0.008224143180998846,-0.012602434900004303,-0.00045541437400029256,-0.011836103536189411,0.0009286076520005875
0.34750000000000003,0.00013372608499997033,-0.7849850760000001,-0.00027165692350027116,-2.3562060550000004,-2.595372015010362e-05,1.5707318099999998,0.7856897239999997,0.0399999764,0.03999996,-9.816400749999998,-0.008303566602992769,-0.012726881950004416,-0.0004638774370003003,-0.011860738229007354,0.0009456031560006031
0.35000000000000003,0.00013289047999996565,-0.7849890600000002,-0.0002792987500003132,-2.3562112,-2.8874076000119675e-05,1.5707258999999998,0.7856821399999997,0.039999977,0.03999996,-9.816354999999998,-0.008382990024987087,-0.01285132900000486,-0.00047234050000032995,-0.011885372921825196,0.0009625986600006566
0.3525,0.0001319467099999648,-0.7849942260000002,-0.0002879036770003208,-2.3562163450000004,-3.21624726001226e-05,1.5707192099999998,0.7856735989999997,0.03999997745,0.0399999609,-9.816322299999998,-0.008473332272845817,-0.01298490895000498,-0.00048140826100033805,-0.011907265335322182,0.0009806412060006727
0.355,0.00013100293999996395,-0.7849993920000002,-0.00029650860400032866,-2.3562214900000003,-3.545086920012559e-05,1.5707125199999998,0.7856650579999997,0.0399999779,0.0399999618,-9.816289599999998,-0.00856367452070455,-0.013118488900005101,-0.0004904760220003463,-0.011929157748819166,0.0009986837520006891
0.3575,0.0001300591699999631,-0.7850045580000002,-0.0003051135310003365,-2.3562266350000005,-3.873926580012858e-05,1.5707058299999996,0.7856565169999997,0.03999997835,0.0399999627,-9.816256899999999,-0.008654016768563283,-0.013252068850005223,-0.0004995437830003546,-0.011951050162316151,0.0010167262980007054
0.36,0.00012911539999996223,-0.7850097240000002,-0.0003137184580003443,-2.3562317800000003,-4.202766240013158e-05,1.5706991399999997,0.7856479759999997,0.039999978799999995,0.0399999636,-9.816224199999999,-0.008744359016422015,-0.013385648800005345,-0.0005086115440003628,-0.011972942575813137,0.0010347688440007219
0.3625,0.00012817162999996138,-0.7850148900000002,-0.00032232338500035214,-2.356236925,-4.531605900013457e-05,1.5706924499999997,0.7856394349999997,0.03999997925,0.0399999645,-9.816191499999999,-0.008834701264280747,-0.013519228750005467,-0.0005176793050003712,-0.011994834989310121,0.0010528113900007384
0.365,0.0001272278599999605,-0.7850200560000002,-0.00033092831200036,-2.3562420700000004,-4.860445560013757e-05,1.5706857599999997,0.7856308939999996,0.0399999797,0.0399999654,-9.816158799999998,-0.008925043512139479,-0.013652808700005589,-0.0005267470660003794,-0.012016727402807107,0.0010708539360007549
0.3675,0.00012624562319995473,-0.7850256300000003,-0.0003398752050004117,-2.35624724,-5.202350430015731e-05,1.5706788199999997,0.7856220179999996,0.03999997985,0.0399999656,-9.816120349999997,-0.00900628226809469,-0.013777949300004628,-0.0005360151080004133,-0.012037697527558339,0.0010893329250008272
0.37,0.00012518645279995376,-0.7850320200000003,-0.0003495060300004204,-2.3562524600000003,-5.5703857200160665e-05,1.5706713799999996,0.7856124719999996,0.039999979399999996,0.0399999644,-9.816070399999997,-0.00906931404024633,-0.013886211200004727,-0.0005456837120004221,-0.012056823074818415,0.0011086848000008448
0.3725,0.0001241272823999528,-0.7850384100000003,-0.0003591368550004292,-2.35625768,-5.938421010016401e-05,1.5706639399999998,0.7856029259999996,0.03999997895,0.0399999632,-9.816020449999998,-0.009132345812397974,-0.013994473100004824,-0.0005553523160004309,-0.012075948622078492,0.0011280366750008625
0.375,0.00012306811199995184,-0.7850448000000003,-0.00036876768000043794,-2.3562629000000004,-6.306456300016736e-05,1.5706564999999997,0.7855933799999996,0.0399999785,0.039999962,-9.815970499999997,-0.009195377584549616,-0.014102735000004923,-0.0005650209200004397,-0.01209507416933857,0.00114738855000088
0.3775,0.00012200894159995087,-0.7850511900000002,-0.00037839850500044674,-2.35626812,-6.674491590017071e-05,1.5706490599999996,0.7855838339999995,0.039999978049999996,0.0399999608,-9.815920549999998,-0.00925840935670126,-0.014210996900005022,-0.0005746895240004485,-0.012114199716598648,0.0011667404250008976
0.38,0.0001209497711999499,-0.7850575800000003,-0.0003880293300004555,-2.35627334,-7.042526880017406e-05,1.5706416199999997,0.7855742879999995,0.0399999776,0.0399999596,-9.815870599999997,-0.0093214411288529,-0.014319258800005119,-0.0005843581280004573,-0.012133325263858723,0.0011860923000009153
0.3825,0.00011989060079994894,-0.7850639700000003,-0.00039766015500046427,-2.3562785600000002,-7.41056217001774e-05,1.5706341799999997,0.7855647419999995,0.03999997715,0.0399999584,-9.815820649999997,-0.009384472901004543,-0.014427520700005218,-0.0005940267320004661,-0.012152450811118801,0.001205444175000933
0.385,0.00011874966959994195,-0.7850712170000004,-0.0004080167500005265,-2.35628383,-7.806328640020119e-05,1.5706262099999997,0.7855544739999994,0.039999977299999996,0.039999958200000005,-9.815785199999999,-0.009462450444702467,-0.01455061410000641,-0.0006041005400005047,-0.012169673852623299,0.0012254989500010023
0.3875,0.00011756785799994088,-0.7850788925000004,-0.00041873623000053626,-2.356289125,-8.215960700020493e-05,1.5706179749999996,0.7855438449999994,0.03999997775,0.0399999585,-9.815756999999998,-0.0095479008741719,-0.014681123250006528,-0.000614376950000514,-0.012185945641250214,0.001245905175001021
0.39,0.0001163860463999398,-0.7850865680000004,-0.000429455710000546,-2.3562944200000002,-8.625592760020865e-05,1.5706097399999996,0.7855332159999995,0.0399999782,0.0399999588,-9.815728799999999,-0.009633351303641333,-0.014811632400006648,-0.0006246533600005235,-0.012202217429877128,0.0012663114000010395
0.3925,0.00011520423479993872,-0.7850942435000003,-0.00044017519000055577,-2.356299715,-9.035224820021238e-05,1.5706015049999995,0.7855225869999994,0.03999997865,0.0399999591,-9.8157006,-0.009718801733110766,-0.014942141550006767,-0.0006349297700005328,-0.012218489218504044,0.001286717625001058
0.395,0.00011402242319993765,-0.7851019190000004,-0.0004508946700005655,-2.3563050100000003,-9.444856880021612e-05,1.5705932699999996,0.7855119579999994,0.0399999791,0.0399999594,-9.815672399999999,-0.009804252162580199,-0.015072650700006884,-0.0006452061800005422,-0.01223476100713096,0.0013071238500010766
0.3975,0.00011284061159993657,-0.7851095945000004,-0.0004616141500005753,-2.356310305,-9.854488940021984e-05,1.5705850349999995,0.7855013289999995,0.039999979549999995,0.039999959700000004,-9.8156442,-0.009889702592049632,-0.015203159850007003,-0.0006554825900005515,-0.012251032795757873,0.0013275300750010951
0.4,0.00011165879999992841,-0.7851172700000004,-0.00047233363000064786,-2.3563156000000003,-0.00010264121000024756,1.5705767999999996,0.7854906999999993,0.03999998,0.03999996,-9.815615999999999,-0.009975153021517337,-0.015333669000005736,-0.0006657590000005969,-0.01226730458438463,0.0013479363000011852
0.4025,0.00011034712049992721,-0.7851261920000004,-0.0004842044005006587,-2.3563209250000003,-0.0001071772400002517,1.5705676199999994,0.7854789144999993,0.03999998,0.039999959700000004,-9.815570099999999,-0.010028961347419011,-0.015438772800005832,-0.0006766945850006068,-0.012280686851591548,0.001369652805001205
0.405,0.00010903544099992602,-0.7851351140000005,-0.0004960751710006695,-2.35632625,-0.00011171327000025583,1.5705584399999994,0.7854671289999994,0.03999998,0.0399999594,-9.815524199999997,-0.010082769673320684,-0.015543876600005927,-0.0006876301700006168,-0.012294069118798465,0.0013913693100012247
0.40750000000000003,0.00010772376149992483,-0.7851440360000005,-0.0005079459415006804,-2.356331575,-0.00011624930000025995,1.5705492599999995,0.7854553434999993,0.03999998,0.0399999591,-9.815478299999997,-0.010136577999222358,-0.015648980400006025,-0.0006985657550006267,-0.012307451386005383,0.0014130858150012446
0.41000000000000003,0.00010641208199992364,-0.7851529580000005,-0.0005198167120006911,-2.3563369,-0.00012078533000026408,1.5705400799999996,0.7854435579999993,0.03999998,0.0399999588,-9.815432399999997,-0.010190386325124033,-0.01575408420000612,-0.0007095013400006367,-0.0123208336532123,0.0014348023200012642
0.41250000000000003,0.00010510040249992244,-0.7851618800000005,-0.0005316874825007019,-2.356342225,-0.00012532136000026822,1.5705308999999994,0.7854317724999993,0.03999998,0.0399999585,-9.815386499999997,-0.010244194651025707,-0.015859188000006214,-0.0007204369250006467,-0.012334215920419216,0.001456518825001284
0.41500000000000004,0.00010378872299992125,-0.7851708020000006,-0.0005435582530007128,-2.35634755,-0.00012985739000027235,1.5705217199999995,0.7854199869999993,0.03999998,0.039999958200000005,-9.815340599999997,-0.01029800297692738,-0.01596429180000631,-0.0007313725100006566,-0.012347598187626133,0.0014782353300013037
0.4175,0.00010243135549991832,-0.7851801675000005,-0.0005558336130007378,-2.3563529450000003,-0.0001345479900002819,1.5705122449999995,0.7854078034999993,0.0399999802,0.0399999581,-9.815300549999998,-0.010360302589838175,-0.016076865800007188,-0.0007424767600006452,-0.012360219843686175,0.0015003034050012837
0.42,0.00010098261199993676,-0.7851904200000004,-0.0005689181520005712,-2.3563584800000004,-0.00013954773000021822,1.5705021799999996,0.7853948239999994,0.0399999808,0.0399999584,-9.815272199999999,-0.010439584776762581,-0.016204380200005565,-0.0007539183400004994,-0.012371320277452885,0.0015230746200009938
0.4225,9.95338684999552e-05,-0.7852006725000004,-0.0005820026910004045,-2.356364015,-0.00014454747000015457,1.5704921149999997,0.7853818444999996,0.0399999814,0.039999958700000005,-9.81524385,-0.010518866963686986,-0.016331894600003942,-0.0007653599200003537,-0.012382420711219594,0.001545845835000704
0.425,9.808512499997365e-05,-0.7852109250000002,-0.0005950872300002379,-2.35636955,-0.00014954721000009092,1.5704820499999999,0.7853688649999997,0.039999982,0.039999959,-9.815215499999999,-0.010598149150611393,-0.01645940900000232,-0.0007768015000002082,-0.012393521144986302,0.001568617050000414
0.4275,9.663638149999211e-05,-0.7852211775000001,-0.0006081717690000713,-2.356375085,-0.00015454695000002727,1.570471985,0.7853558854999999,0.0399999826,0.0399999593,-9.81518715,-0.010677431337535797,-0.016586923400000696,-0.0007882430800000625,-0.01240462157875301,0.001591388265000124
0.43,9.518763800001055e-05,-0.78523143,-0.0006212563079999047,-2.35638062,-0.0001595466899999636,1.57046192,0.785342906,0.0399999832,0.0399999596,-9.8151588,-0.010756713524460204,-0.016714437799999073,-0.0007996846599999167,-0.012415722012519718,0.0016141594799998341
0.4325,9.3738894500029e-05,-0.7852416824999998,-0.0006343408469997381,-2.356386155,-0.00016454642999989995,1.5704518550000002,0.7853299265000002,0.0399999838,0.0399999599,-9.81513045,-0.010835995711384609,-0.016841952199997446,-0.000811126239999771,-0.012426822446286427,0.0016369306949995442
0.435,9.219400100002319e-05,-0.7852528599999998,-0.000648275959999791,-2.35639209,-0.00016987112899992016,1.5704411600000001,0.7853161040000002,0.039999984,0.0399999598,-9.8151001,-0.01089134812354977,-0.01695226959999852,-0.0008230227969998236,-0.012436358164995753,0.0016605653499996496
0.4375,9.06010325e-05,-0.7852645,-0.00066263636,-2.356398225,-0.0001753583075,1.57043015,0.7853018599999999,0.039999984,0.0399999595,-9.81506875,-0.010934735648334,-0.0170539885,-0.0008351468425,-0.012445111526176299,0.001684631725
0.44,8.900806399997681e-05,-0.7852761400000002,-0.000676996760000209,-2.35640436,-0.00018084548600007987,1.5704191399999998,0.7852876159999997,0.039999984,0.039999959200000004,-9.8150374,-0.010978123173118231,-0.01715570740000148,-0.0008472708880001764,-0.012453864887356846,0.0017086981000003503
0.4425,8.741509549995364e-05,-0.7852877800000003,-0.0006913571600004179,-2.356410495,-0.0001863326645001597,1.5704081299999997,0.7852733719999996,0.039999984,0.0399999589,-9.81500605,-0.011021510697902463,-0.01725742630000296,-0.000859394933500353,-0.012462618248537394,0.0017327644750007004
0.445,8.582212699993045e-05,-0.7852994200000005,-0.0007057175600006269,-2.3564166300000005,-0.00019181984300023955,1.5703971199999995,0.7852591279999993,0.039999984,0.0399999586,-9.814974699999999,-0.011064898222686694,-0.01735914520000444,-0.0008715189790005294,-0.012471371609717941,0.0017568308500010507
0.4475,8.422915849990727e-05,-0.7853110600000007,-0.0007200779600008359,-2.3564227650000005,-0.0001973070215003194,1.5703861099999992,0.7852448839999991,0.039999984,0.0399999583,-9.814943349999998,-0.011108285747470926,-0.01746086410000592,-0.0008836430245007058,-0.012480124970898489,0.0017808972250014008
0.45,8.263618999987308e-05,-0.785322700000001,-0.0007344383600011422,-2.3564289000000005,-0.00020279420000043644,1.570375099999999,0.7852306399999989,0.039999984,0.039999958,-9.814912000000003,-0.01115167327225716,-0.017562583000009162,-0.0008957670700009262,-0.012488878332079019,0.0018049636000018294
0.4525,8.089188049987148e-05,-0.7853357950000011,-0.0007501363460011565,-2.3564352600000005,-0.0002087921930004419,1.5703630249999991,0.7852150789999989,0.0399999846,0.0399999583,-9.814949650000003,-0.011222608899702816,-0.01768853035000928,-0.0009084950845009378,-0.012497384846211051,0.0018301049500018523
0.455,7.91475709998699e-05,-0.785348890000001,-0.0007658343320011709,-2.3564416200000005,-0.00021479018600044735,1.570350949999999,0.7851995179999988,0.039999985200000004,0.0399999586,-9.814987300000002,-0.01129354452714847,-0.017814477700009393,-0.0009212230990009494,-0.012505891360343083,0.001855246300001875
0.4575,7.740326149986831e-05,-0.785361985000001,-0.0007815323180011851,-2.3564479800000004,-0.0002207881790004528,1.5703388749999991,0.7851839569999988,0.0399999858,0.0399999589,-9.815024950000003,-0.011364480154594125,-0.01794042505000951,-0.0009339511135009609,-0.012514397874475117,0.0018803876500018979
0.46,7.565895199986673e-05,-0.785375080000001,-0.0007972303040011994,-2.3564543400000004,-0.0002267861720004583,1.570326799999999,0.7851683959999988,0.0399999864,0.039999959200000004,-9.815062600000003,-0.01143541578203978,-0.018066372400009623,-0.0009466791280009724,-0.01252290438860715,0.0019055290000019208
0.4625,7.391464249986513e-05,-0.785388175000001,-0.0008129282900012137,-2.3564607000000004,-0.00023278416500046374,1.5703147249999991,0.7851528349999988,0.039999987,0.0399999595,-9.815100250000002,-0.011506351409485435,-0.018192319750009737,-0.000959407142500984,-0.012531410902739182,0.0019306703500019437
0.465,7.217033299986355e-05,-0.785401270000001,-0.000828626276001228,-2.3564670600000004,-0.0002387821580004692,1.570302649999999,0.7851372739999988,0.0399999876,0.0399999598,-9.815137900000003,-0.011577287036931089,-0.018318267100009854,-0.0009721351570009956,-0.012539917416871214,0.0019558117000019666
0.4675,7.037322449984943e-05,-0.7854148500000012,-0.000844790537501353,-2.356473445,-0.00024495827900051695,1.570290229999999,0.7851212499999987,0.039999988,0.0399999599,-9.815152749999998,-0.011635690974074252,-0.018434881100007752,-0.000985094175001062,-0.01254776022397029,0.00198133566000208
0.47000000000000003,6.847051799984769e-05,-0.7854294000000012,-0.0008618873500013686,-2.3564798800000006,-0.0002514906560005229,1.570277119999999,0.7851042999999986,0.039999988,0.0399999596,-9.815121999999997,-0.011669031530621328,-0.01853282840000784,-0.0009985152000010742,-0.01255427561700392,0.0020076248400021043
0.47250000000000003,6.656781149984596e-05,-0.7854439500000012,-0.0008789841625013842,-2.3564863150000006,-0.00025802303300052887,1.570264009999999,0.7850873499999986,0.039999988,0.0399999593,-9.815091249999998,-0.011702372087168404,-0.01863077570000793,-0.0010119362250010865,-0.012560791010037552,0.0020339140200021284
0.47500000000000003,6.466510499984423e-05,-0.7854585000000012,-0.0008960809750013997,-2.3564927500000006,-0.0002645554100005348,1.570250899999999,0.7850703999999986,0.039999988,0.039999959,-9.815060499999998,-0.011735712643715479,-0.01872872300000802,-0.0010253572500010988,-0.012567306403071183,0.002060203200002152
0.47750000000000004,6.276239849984249e-05,-0.7854730500000012,-0.0009131777875014152,-2.3564991850000006,-0.00027108778700054073,1.5702377899999989,0.7850534499999986,0.039999988,0.039999958700000005,-9.815029749999997,-0.011769053200262555,-0.01882667030000811,-0.0010387782750011108,-0.012573821796104813,0.002086492380002176
0.48,6.0859691999840806e-05,-0.7854876000000012,-0.0009302746000014304,-2.3565056200000005,-0.00027762016400054656,1.5702246799999988,0.7850364999999986,0.039999988,0.0399999584,-9.814998999999998,-0.011802393756809628,-0.018924617600008197,-0.0010521993000011229,-0.012580337189138445,0.0021127815600021993
0.4825,5.895698549983907e-05,-0.7855021500000012,-0.000947371412501446,-2.3565120550000005,-0.0002841525410005525,1.570211569999999,0.7850195499999986,0.039999988,0.0399999581,-9.814968249999998,-0.011835734313356704,-0.019022564900008285,-0.0010656203250011351,-0.012586852582172075,0.0021390707400022234
0.485,5.69440227998232e-05,-0.7855177130000013,-0.0009654411750015863,-2.3565186400000004,-0.0002910565320006061,1.5701977299999987,0.7850016299999985,0.0399999882,0.039999958200000005,-9.814933799999997,-0.011887526698415715,-0.019140542300010943,-0.001079420750001196,-0.012591496948153067,0.0021661463200023483
0.4875,5.4875931999821325e-05,-0.7855337825000014,-0.0009839974125016033,-2.3565253000000004,-0.00029814633000061256,1.5701835249999987,0.7849832249999984,0.0399999885,0.0399999585,-9.814897499999997,-0.011948544997727172,-0.01926853475001106,-0.0010934108750012086,-0.012595205800608095,0.002193615100002373
0.49,5.280784119981944e-05,-0.7855498520000014,-0.00100255365000162,-2.3565319600000008,-0.00030523612800061896,1.5701693199999989,0.7849648199999985,0.0399999888,0.0399999588,-9.814861199999998,-0.012009563297038627,-0.019396527200011175,-0.0011074010000012215,-0.012598914653063124,0.002221083880002398
0.4925,5.073975039981756e-05,-0.7855659215000014,-0.001021109887501637,-2.3565386200000007,-0.0003123259260006254,1.5701551149999988,0.7849464149999984,0.0399999891,0.0399999591,-9.814824899999998,-0.012070581596350083,-0.019524519650011292,-0.0011213911250012342,-0.012602623505518152,0.0022485526600024234
0.495,4.867165959981567e-05,-0.7855819910000015,-0.0010396661250016538,-2.3565452800000006,-0.0003194157240006319,1.5701409099999988,0.7849280099999983,0.0399999894,0.0399999594,-9.814788599999998,-0.01213159989566154,-0.01965251210001141,-0.001135381250001247,-0.01260633235797318,0.002276021440002448
0.4975,4.6603568799813796e-05,-0.7855980605000015,-0.0010582223625016708,-2.3565519400000006,-0.00032650552200063834,1.5701267049999987,0.7849096049999984,0.0399999897,0.039999959700000004,-9.814752299999997,-0.012192618194972995,-0.019780504550011527,-0.0011493713750012598,-0.012610041210428208,0.0023034902200024733
0.5,4.453547799979624e-05,-0.7856141300000016,-0.0010767786000018258,-2.356558600000001,-0.0003335953200006976,1.5701124999999987,0.7848911999999982,0.03999999,0.03999996,-9.814715999999999,-0.012253636494280788,-0.019908497000008758,-0.0011633615000013232,-0.012613750062883053,0.002330959000002591
0.5025000000000001,4.229508309979415e-05,-0.7856317805000016,-0.0010968544800018447,-2.3565660400000006,-0.0003412656000007047,1.5700971399999986,0.7848712949999982,0.03999999075,0.0399999615,-9.814688399999998,-0.012274382263423912,-0.02000479700000885,-0.0011779092350013367,-0.012615425884723804,0.0023594470000026175
0.505,4.005468819979216e-05,-0.7856494310000016,-0.0011169303600018624,-2.3565734800000007,-0.00034893588000071155,1.5700817799999987,0.7848513899999982,0.0399999915,0.039999963,-9.814660799999999,-0.012295128032567035,-0.020101097000008936,-0.0011924569700013496,-0.012617101706564555,0.0023879350000026427
0.5075000000000001,3.781429329979007e-05,-0.7856670815000016,-0.0011370062400018813,-2.3565809200000007,-0.0003566061600007187,1.5700664199999985,0.7848314849999981,0.03999999225,0.0399999645,-9.814633199999998,-0.01231587380171016,-0.020197397000009023,-0.0012070047050013633,-0.012618777528405307,0.0024164230000026693
0.51,3.557389839978808e-05,-0.7856847320000017,-0.001157082120001899,-2.356588360000001,-0.00036427644000072555,1.5700510599999986,0.7848115799999982,0.039999993000000005,0.039999966000000005,-9.814605599999998,-0.012336619570853283,-0.02029369700000911,-0.0012215524400013761,-0.01262045335024606,0.002444911000002695
0.5125,3.333350349978609e-05,-0.7857023825000017,-0.0011771580000019168,-2.356595800000001,-0.0003719467200007323,1.5700356999999985,0.7847916749999981,0.039999993750000004,0.039999967500000004,-9.814577999999997,-0.012357365339996406,-0.020389997000009194,-0.001236100175001389,-0.012622129172086811,0.0024733990000027203
0.515,3.1093108599784e-05,-0.7857200330000017,-0.0011972338800019357,-2.356603240000001,-0.0003796170000007395,1.5700203399999986,0.7847717699999981,0.039999994500000004,0.039999969,-9.814550399999998,-0.01237811110913953,-0.020486297000009285,-0.0012506479100014025,-0.012623804993927562,0.002501887000002747
0.5175,2.8792998149764578e-05,-0.7857382130000019,-0.001217836080002107,-2.356610725000001,-0.000387488299000805,1.5700045649999983,0.7847513399999979,0.039999994750000004,0.039999970350000004,-9.814547800000005,-0.012409420590852828,-0.02059139695001194,-0.0012654254850014825,-0.012625594343990196,0.0025306362700028484
0.52,2.6373456599762323e-05,-0.7857574520000019,-0.0012394909200021272,-2.356618300000001,-0.0003957616360008127,1.5699879599999984,0.7847298599999979,0.039999994000000004,0.0399999714,-9.814595200000005,-0.012461857497697251,-0.020714096800012054,-0.0012806627400014968,-0.0126276107504965,0.0025599080800028755
0.5225,2.3953915049760172e-05,-0.7857766910000019,-0.0012611457600021465,-2.356625875000001,-0.00040403497300082005,1.5699713549999983,0.7847083799999979,0.039999993250000004,0.039999972450000004,-9.814642600000004,-0.012514294404541673,-0.020836796650012163,-0.0012958999950015103,-0.0126296271570028,0.0025891798900029017
0.525,2.1534373499757917e-05,-0.7857959300000019,-0.0012828006000021666,-2.356633450000001,-0.00041230831000082775,1.5699547499999984,0.7846868999999979,0.0399999925,0.0399999735,-9.814690000000004,-0.012566731311386097,-0.020959496500012276,-0.0013111372500015245,-0.012631643563509102,0.002618451700002929
0.5275,1.9114831949755767e-05,-0.7858151690000019,-0.0013044554400021859,-2.356641025000001,-0.00042058164700083513,1.5699381449999983,0.7846654199999978,0.03999999175,0.03999997455,-9.814737400000004,-0.012619168218230519,-0.021082196350012385,-0.001326374505001538,-0.012633659970015405,0.002647723510002955
0.53,1.6695290399753508e-05,-0.7858344080000019,-0.001326110280002206,-2.356648600000001,-0.00042885498400084283,1.5699215399999982,0.7846439399999978,0.039999991,0.0399999756,-9.814784800000005,-0.012671605125074942,-0.0212048962000125,-0.0013416117600015523,-0.012635676376521706,0.002676995320002982
0.5325,1.4275748849751361e-05,-0.7858536470000019,-0.0013477651200022253,-2.356656175000001,-0.0004371283210008502,1.5699049349999983,0.7846224599999978,0.03999999025,0.03999997665,-9.814832200000005,-0.012724042031919364,-0.02132759605001261,-0.0013568490150015658,-0.012637692783028008,0.0027062671300030084
0.535,1.1732238449729824e-05,-0.7858739900000021,-0.0013705117300024153,-2.3566639300000007,-0.0004458185700009227,1.5698874899999982,0.7845998899999976,0.0399999905,0.0399999763,-9.814822099999995,-0.012742009758949336,-0.021433770000010153,-0.0013724204200016318,-0.012638252042233842,0.002736904910003248
0.5375,9.12674362472751e-06,-0.7858948850000022,-0.001393804225002436,-2.356671775000001,-0.00045471727500093065,1.5698696249999982,0.7845767749999976,0.03999999125,0.03999997525,-9.814783249999996,-0.012742742896080078,-0.02153168100001024,-0.001388158900001646,-0.012638082727789783,0.002768225675003276
0.54,6.52124879972508e-06,-0.7859157800000022,-0.0014170967200024577,-2.356679620000001,-0.0004636159800009389,1.5698517599999982,0.7845536599999976,0.039999992,0.0399999742,-9.814744399999995,-0.012743476033210818,-0.02162959200001033,-0.0014038973800016607,-0.012637913413345723,0.002799546440003305
0.5425,3.915753974722766e-06,-0.7859366750000022,-0.0014403892150024783,-2.3566874650000007,-0.00047251468500094686,1.569833894999998,0.7845305449999975,0.039999992750000005,0.03999997315,-9.814705549999996,-0.012744209170341558,-0.021727503000010417,-0.0014196358600016745,-0.012637744098901662,0.002830867205003333
0.545,1.3102591497203354e-06,-0.7859575700000022,-0.0014636817100025,-2.3566953100000005,-0.0004814133900009551,1.569816029999998,0.7845074299999975,0.039999993500000004,0.0399999721,-9.814666699999995,-0.0127449423074723,-0.02182541400001051,-0.0014353743400016892,-0.012637574784457602,0.002862187970003362
0.5475,-1.2952356752819788e-06,-0.7859784650000022,-0.0014869742050025209,-2.356703155000001,-0.0004903120950009631,1.569798164999998,0.7844843149999975,0.039999994250000004,0.03999997105,-9.814627849999995,-0.01274567544460304,-0.021923325000010596,-0.0014511128200017033,-0.012637405470013541,0.0028935087350033897
0.55,-3.900730500305428e-06,-0.7859993600000025,-0.0015102667000027276,-2.3567110000000007,-0.000499210800001042,1.569780299999998,0.7844611999999973,0.039999995,0.03999997,-9.814588999999996,-0.012746408581738306,-0.022021236000013548,-0.0014668513000017844,-0.012637236155569252,0.0029248295000034743
0.5525,-6.698790825307914e-06,-0.7860219710000025,-0.0015352547200027497,-2.3567196400000006,-0.0005087570850010506,1.5697611599999979,0.7844364259999972,0.03999999575,0.0399999715,-9.814562149999997,-0.012788594141607143,-0.022145352150013658,-0.0014831990950017991,-0.012634966056793625,0.0029566587350035025
0.555,-9.496851150310523e-06,-0.7860445820000025,-0.0015602427400027731,-2.356728280000001,-0.0005183033700010594,1.5697420199999979,0.7844116519999972,0.0399999965,0.039999973,-9.814535299999998,-0.012830779701475982,-0.022269468300013775,-0.0014995468900018143,-0.012632695958017998,0.0029884879700035325
0.5575,-1.229491147531301e-05,-0.7860671930000025,-0.0015852307600027953,-2.356736920000001,-0.0005278496550010679,1.5697228799999978,0.7843868779999972,0.03999999725,0.0399999745,-9.814508449999996,-0.01287296526134482,-0.022393584450013885,-0.0015158946850018287,-0.01263042585924237,0.003020317205003561
0.56,-1.5092971800315618e-05,-0.7860898040000025,-0.0016102187800028187,-2.356745560000001,-0.0005373959400010768,1.5697037399999978,0.7843621039999972,0.039999998,0.039999976,-9.814481599999997,-0.012915150821213658,-0.022517700600014002,-0.001532242480001844,-0.012628155760466744,0.0030521464400035904
0.5625,-1.7891032125318104e-05,-0.7861124150000025,-0.0016352068000028408,-2.356754200000001,-0.0005469422250010853,1.5696845999999978,0.7843373299999972,0.03999999875,0.0399999775,-9.814454749999998,-0.012957336381082497,-0.022641816750014112,-0.0015485902750018584,-0.012625885661691117,0.0030839756750036186
0.5650000000000001,-2.0689092450320712e-05,-0.7861350260000025,-0.001660194820002864,-2.356762840000001,-0.0005564885100010941,1.5696654599999977,0.7843125559999972,0.0399999995,0.039999979,-9.814427899999997,-0.012999521940951336,-0.022765932900014225,-0.0015649380700018737,-0.01262361556291549,0.003115804910003648
0.5675,-2.355353895035983e-05,-0.7861582270000029,-0.0016857670800032103,-2.3567715450000013,-0.0005662579600012264,1.5696458749999975,0.7842872064999968,0.04,0.03999998,-9.814425850000006,-0.013023970276115918,-0.02287988430001124,-0.0015815114400020438,-0.012621605163439875,0.0031480908500039857
0.5700000000000001,-2.6550757800403515e-05,-0.7861826080000033,-0.0017125078200036002,-2.3567803800000013,-0.0005764737400013754,1.5696253999999972,0.7842607059999964,0.04,0.03999998,-9.814473400000006,-0.013012944161890376,-0.022973506200012605,-0.001598535960002292,-0.01262011416256402,0.00318129020000447
0.5725,-2.9547976650447066e-05,-0.7862069890000036,-0.0017392485600039886,-2.3567892150000014,-0.0005866895200015238,1.569604924999997,0.784234205499996,0.04,0.03999998,-9.814520950000007,-0.013001918047664835,-0.023067128100013965,-0.0016155604800025393,-0.012618623161688162,0.0032144895500049522
0.5750000000000001,-3.254519550049075e-05,-0.786231370000004,-0.0017659893000043785,-2.3567980500000014,-0.0005969053000016727,1.5695844499999967,0.7842077049999956,0.04,0.03999998,-9.814568500000007,-0.012990891933439296,-0.02316075000001533,-0.0016325850000027875,-0.012617132160812306,0.003247688900005436
0.5775,-3.5542414350534304e-05,-0.7862557510000043,-0.001792730040004767,-2.3568068850000015,-0.0006071210800018211,1.5695639749999963,0.7841812044999953,0.04,0.03999998,-9.814616050000009,-0.012979865819213754,-0.02325437190001669,-0.0016496095200030348,-0.012615641159936448,0.0032808882500059183
0.58,-3.853963320057786e-05,-0.7862801320000047,-0.0018194707800051556,-2.356815720000002,-0.0006173368600019696,1.569543499999996,0.7841547039999949,0.04,0.03999998,-9.814663600000008,-0.012968839704988215,-0.02334799380001805,-0.0016666340400032823,-0.012614150159060592,0.0033140876000064007
0.5825,-4.153685205062154e-05,-0.786304513000005,-0.0018462115200055453,-2.356824555000002,-0.0006275526400021184,1.5695230249999959,0.7841282034999945,0.04,0.03999998,-9.81471115000001,-0.012957813590762673,-0.023441615700019416,-0.0016836585600035305,-0.012612659158184734,0.0033472869500068845
0.585,-4.467117050065247e-05,-0.7863300860000053,-0.001874158150005816,-2.356833870000002,-0.0006382288330022218,1.5695016199999956,0.7841005029999942,0.04,0.039999980399999996,-9.81469499999999,-0.0129567518830307,-0.02354681510002261,-0.0017011166900036006,-0.012609308958052637,0.0033812507100069965
0.5875,-4.787403875061176e-05,-0.786356255000005,-0.001902707725005453,-2.356843425000002,-0.0006491352325020831,1.5694797499999957,0.7840722024999945,0.04,0.039999981,-9.81464699999999,-0.012960672378540749,-0.0236578032500212,-0.001718791625003376,-0.012605029158293308,0.00341559667500656
0.59,-5.1076907000570905e-05,-0.7863824240000047,-0.001931257300005089,-2.356852980000002,-0.000660041632001944,1.569457879999996,0.784043901999995,0.04,0.0399999816,-9.81459899999999,-0.0129645928740508,-0.023768791400019786,-0.0017364665600031505,-0.012600749358533976,0.003449942640006122
0.5925,-5.4279775250530194e-05,-0.7864085930000043,-0.001959806875004726,-2.3568625350000016,-0.0006709480315018054,1.5694360099999964,0.7840156014999953,0.04,0.0399999822,-9.814550999999991,-0.01296851336956085,-0.023879779550018375,-0.0017541414950029259,-0.012596469558774647,0.0034842886050056856
0.595,-5.748264350048935e-05,-0.786434762000004,-0.001988356450004362,-2.3568720900000018,-0.0006818544310016663,1.5694141399999966,0.7839873009999957,0.04,0.0399999828,-9.814502999999991,-0.012972433865070899,-0.023990767700016957,-0.0017718164300027004,-0.012592189759015316,0.0035186345700052475
0.5975,-6.068551175044864e-05,-0.7864609310000037,-0.002016906025003999,-2.3568816450000014,-0.0006927608305015277,1.569392269999997,0.783959000499996,0.04,0.0399999834,-9.814454999999992,-0.01297635436058095,-0.024101755850015547,-0.0017894913650024758,-0.012587909959255985,0.0035529805350048107
0.6,-6.388838000043477e-05,-0.7864871000000035,-0.0020454556000038724,-2.3568912000000015,-0.0007036672300014793,1.569370399999997,0.7839306999999961,0.04,0.039999984,-9.814407000000005,-0.012980274856092495,-0.024212744000016037,-0.0018071663000023273,-0.012583630159496694,0.0035873265000045777
0.6025,-6.730324400043797e-05,-0.7865150855000036,-0.002075869585003901,-2.3569010700000015,-0.0007152856705014901,1.5693471199999969,0.7839005544999961,0.04,0.039999982350000005,-9.814446150000004,-0.012995937978850784,-0.024338693900016153,-0.0018254449550023442,-0.012579647498204734,0.0036232829850046115
0.605,-7.0718108000441e-05,-0.7865430710000036,-0.0021062835700039278,-2.3569109400000015,-0.0007269041110015004,1.569323839999997,0.783870408999996,0.04,0.0399999807,-9.814485300000005,-0.013011601101609073,-0.024464643800016266,-0.0018437236100023605,-0.012575664836912775,0.003659239470004643
0.6075,-7.413297200044418e-05,-0.7865710565000036,-0.0021366975550039563,-2.3569208100000014,-0.0007385225515015113,1.569300559999997,0.783840263499996,0.04,0.03999997905,-9.814524450000004,-0.013027264224367363,-0.024590593700016383,-0.0018620022650023777,-0.012571682175620817,0.003695195955004677
0.61,-7.754783600044721e-05,-0.7865990420000036,-0.002167111540003983,-2.3569306800000014,-0.0007501409920015216,1.5692772799999968,0.783810117999996,0.04,0.039999977400000004,-9.814563600000005,-0.013042927347125652,-0.024716543600016495,-0.001880280920002394,-0.012567699514328859,0.0037311524400047086
0.6125,-8.09627000004504e-05,-0.7866270275000037,-0.0021975255250040117,-2.3569405500000014,-0.0007617594325015324,1.5692539999999968,0.783779972499996,0.04,0.03999997575,-9.814602750000004,-0.013058590469883941,-0.02484249350001661,-0.0018985595750024109,-0.012563716853036899,0.0037671089250047424
0.615,-8.437756400045343e-05,-0.7866550130000037,-0.0022279395100040385,-2.3569504200000013,-0.0007733778730015427,1.5692307199999969,0.783749826999996,0.04,0.0399999741,-9.814641900000005,-0.013074253592642231,-0.024968443400016724,-0.0019168382300024272,-0.01255973419174494,0.0038030654100047745
0.6175,-8.786518550048581e-05,-0.786683629500004,-0.0022589930250043236,-2.3569604450000012,-0.0007852405465016515,1.5692069599999967,0.7837190434999958,0.04,0.03999997285,-9.814656099999995,-0.01307402360252607,-0.025085304550013197,-0.0019353138000025231,-0.01255509559996342,0.0038392672950049063
0.62,-9.149832200048903e-05,-0.7867135080000041,-0.002291325600004352,-2.3569707800000015,-0.0007975916860016624,1.5691822399999966,0.7836869839999957,0.04,0.0399999724,-9.814620399999994,-0.013042007386680092,-0.025183988200013285,-0.00195418320000254,-0.01254914514720356,0.0038759599800049387
0.6225,-9.513145850049242e-05,-0.7867433865000041,-0.0023236581750043822,-2.3569811150000013,-0.000809942825501674,1.5691575199999965,0.7836549244999956,0.04,0.039999971950000004,-9.814584699999994,-0.013009991170834111,-0.025282671850013375,-0.0019730526000025575,-0.0125431946944437,0.003912652665004973
0.625,-9.876459500049564e-05,-0.7867732650000041,-0.002355990750004411,-2.3569914500000015,-0.000822293965001685,1.5691327999999967,0.7836228649999957,0.04,0.0399999715,-9.814548999999994,-0.012977974954988133,-0.025381355500013462,-0.0019919220000025745,-0.012537244241683839,0.003949345350005006
0.6275000000000001,-0.00010239773150049904,-0.7868031435000041,-0.0023883233250044412,-2.3570017850000013,-0.0008346451045016965,1.5691080799999966,0.7835908054999956,0.04,0.03999997105,-9.814513299999994,-0.012945958739142152,-0.025480039150013557,-0.002010791400002592,-0.012531293788923977,0.00398603803500504
0.63,-0.00010603086800050227,-0.7868330220000042,-0.00242065590000447,-2.3570121200000016,-0.0008469962440017074,1.5690833599999967,0.7835587459999955,0.04,0.039999970600000004,-9.814477599999995,-0.012913942523296175,-0.025578722800013644,-0.002029660800002609,-0.012525343336164117,0.0040227307200050725
0.6325000000000001,-0.00010966400450050565,-0.7868629005000042,-0.0024529884750045,-2.3570224550000014,-0.000859347383501719,1.5690586399999966,0.7835266864999956,0.04,0.03999997015,-9.814441899999995,-0.012881926307450194,-0.025677406450013734,-0.0020485302000026262,-0.012519392883404257,0.004059423405005106
0.635,-0.00011344677200054032,-0.7868940800000045,-0.002486635830004805,-2.3570332400000016,-0.0008722002530018354,1.5690328899999963,0.7834933299999952,0.04,0.0399999673,-9.81442945,-0.012870844639837594,-0.025796604500018132,-0.0020677408500027147,-0.012512560188769272,0.004097373420005403
0.6375000000000001,-0.00011730435500054391,-0.7869259100000044,-0.002520940575004837,-2.3570442500000013,-0.0008853039875018476,1.5690066249999963,0.7834593249999952,0.04,0.03999996325,-9.814428625,-0.012870230246335114,-0.025926059750018254,-0.002087122125002733,-0.012505286373197,0.00413595210000544
0.64,-0.00012116193800054734,-0.7869577400000045,-0.0025552453200048675,-2.3570552600000014,-0.0008984077220018593,1.5689803599999963,0.7834253199999952,0.04,0.039999959200000004,-9.814427799999999,-0.012869615852832634,-0.02605551500001837,-0.00210650340000275,-0.012498012557624729,0.0041745307800054735
0.6425,-0.00012501952100055076,-0.7869895700000046,-0.0025895500650048977,-2.3570662700000016,-0.0009115114565018709,1.5689540949999963,0.7833913149999951,0.04,0.03999995515,-9.814426975,-0.012869001459330152,-0.026184970250018483,-0.002125884675002767,-0.012490738742052457,0.004213109460005508
0.645,-0.00012887710400055438,-0.7870214000000045,-0.00262385481000493,-2.3570772800000013,-0.0009246151910018831,1.5689278299999962,0.7833573099999951,0.04,0.0399999511,-9.81442615,-0.012868387065827672,-0.026314425500018605,-0.002145265950002785,-0.012483464926480186,0.0042516881400055445
0.6475,-0.00013273468700055778,-0.7870532300000046,-0.00265815955500496,-2.3570882900000014,-0.0009377189255018948,1.5689015649999962,0.783323304999995,0.04,0.039999947050000005,-9.814425325,-0.012867772672325192,-0.026443880750018717,-0.0021646472250028024,-0.012476191110907914,0.004290266820005578
0.65,-0.00013659227000059493,-0.7870850600000049,-0.002692464300005287,-2.3570993000000016,-0.0009508226600020195,1.568875299999996,0.7832892999999947,0.04,0.039999943,-9.814424500000001,-0.012867158278815828,-0.026573336000013038,-0.002184028500002922,-0.012468917295335644,0.004328845500005666
0.6525,-0.00014068029200059855,-0.787118876000005,-0.002728793805005319,-2.3571105950000013,-0.0009646997960020318,1.5688475199999958,0.7832532849999947,0.0399999982,0.03999994105,-9.814437025000002,-0.01281925207003241,-0.026662920350013115,-0.0022041080850029398,-0.012461661081760033,0.004367776650005701
0.655,-0.00014476831400060238,-0.787152692000005,-0.002765123310005353,-2.3571218900000015,-0.0009785769320020449,1.568819739999996,0.7832172699999946,0.0399999964,0.0399999391,-9.81444955,-0.01277134586124899,-0.0267525047000132,-0.002224187670002959,-0.01245440486818442,0.004406707800005736
0.6575,-0.000148856336000606,-0.787186508000005,-0.0028014528150053855,-2.3571331850000017,-0.0009924540680020571,1.5687919599999958,0.7831812549999947,0.0399999946,0.039999937150000005,-9.814462075000002,-0.012723439652465572,-0.02684208905001328,-0.0022442672550029765,-0.01244714865460881,0.004445638950005771
0.66,-0.0001529443580006098,-0.7872203240000051,-0.0028377823200054194,-2.3571444800000014,-0.00100633120400207,1.5687641799999958,0.7831452399999946,0.0399999928,0.0399999352,-9.814474600000002,-0.012675533443682153,-0.026931673400013362,-0.002264346840002995,-0.012439892441033197,0.004484570100005807
0.6625,-0.00015703238000061345,-0.787254140000005,-0.0028741118250054515,-2.3571557750000016,-0.0010202083400020824,1.5687363999999957,0.7831092249999946,0.039999991,0.03999993325,-9.814487125000001,-0.012627627234898735,-0.027021257750013444,-0.002284426425003013,-0.012432636227457586,0.004523501250005842
0.665,-0.00016112040200061726,-0.7872879560000051,-0.0029104413300054853,-2.357167070000002,-0.0010340854760020953,1.5687086199999958,0.7830732099999945,0.0399999892,0.0399999313,-9.814499650000002,-0.012579721026115315,-0.02711084210001353,-0.002304506010003032,-0.012425380013881973,0.004562432400005878
0.6675,-0.0001652872180006568,-0.7873224500000054,-0.0029474628450058328,-2.357178655000002,-0.001048226915002228,1.5686802949999956,0.7830365099999942,0.0399999878,0.039999929350000005,-9.814496399999994,-0.012543650856239687,-0.027214396300019972,-0.0023247781000031373,-0.012417319929225717,0.004601742425006085
0.67,-0.00016961162200066082,-0.7873583000000055,-0.002985868380005869,-2.357190820000002,-0.0010628969600022418,1.5686508799999954,0.7829984399999942,0.0399999872,0.0399999274,-9.814461599999994,-0.012531252764163484,-0.027345890200020095,-0.0023454352000031567,-0.012407652102409262,0.0046418102000061225
0.6725,-0.00017393602600066467,-0.7873941500000056,-0.0030242739150059027,-2.357202985000002,-0.0010775670050022549,1.5686214649999954,0.7829603699999942,0.0399999866,0.03999992545,-9.814426799999994,-0.012518854672087285,-0.02747738410002021,-0.002366092300003175,-0.012397984275592808,0.004681877975006158
0.675,-0.0001782604300006687,-0.7874300000000055,-0.0030626794500059388,-2.357215150000002,-0.0010922370500022684,1.5685920499999955,0.7829222999999941,0.039999986,0.0399999235,-9.814391999999994,-0.012506456580011082,-0.027608878000020334,-0.0023867494000031943,-0.012388316448776355,0.004721945750006196
0.6775,-0.00018258483400067254,-0.7874658500000056,-0.0031010849850059727,-2.357227315000002,-0.0011069070950022815,1.5685626349999955,0.7828842299999941,0.0399999854,0.039999921550000005,-9.814357199999995,-0.01249405848793488,-0.02774037190002045,-0.0024074065000032124,-0.012378648621959901,0.004762013525006231
0.68,-0.00018690923800067656,-0.7875017000000056,-0.0031394905200060087,-2.357239480000002,-0.0011215771400022953,1.5685332199999955,0.7828461599999941,0.0399999848,0.0399999196,-9.814322399999995,-0.01248166039585868,-0.027871865800020573,-0.002428063600003232,-0.012368980795143448,0.004802081300006269
0.6825,-0.00019123364200068042,-0.7875375500000057,-0.0031778960550060426,-2.357251645000002,-0.0011362471850023081,1.5685038049999955,0.7828080899999941,0.039999984200000005,0.03999991765,-9.814287599999995,-0.012469262303782478,-0.02800335970002069,-0.0024487207000032504,-0.012359312968326994,0.004842149075006305
0.685,-0.00019571948900072277,-0.787574784000006,-0.003217719380006415,-2.357264070000002,-0.0011514586100024504,1.5684733099999952,0.7827686169999937,0.0399999833,0.039999916600000004,-9.814296100000004,-0.012419718876470219,-0.028109142000014707,-0.002469749830003358,-0.01235002502798882,0.00488279630000648
0.6875,-0.00020028605750072682,-0.7876127100000061,-0.003258251600006451,-2.357276625000002,-0.001166940725002464,1.5684422749999951,0.7827284424999936,0.03999998225,0.039999916,-9.814326250000004,-0.012351602781553108,-0.02820206850001479,-0.0024909649750033767,-0.012340927030889652,0.004923733250006516
0.6900000000000001,-0.00020485262600073107,-0.7876506360000061,-0.003298783820006489,-2.357289180000002,-0.0011824228400024786,1.568411239999995,0.7826882679999936,0.0399999812,0.0399999154,-9.814356400000005,-0.012283486686635996,-0.028294995000014877,-0.0025121801200033963,-0.012331829033790483,0.004964670200006554
0.6925,-0.00020941919450073515,-0.7876885620000061,-0.0033393160400065247,-2.357301735000002,-0.0011979049550024923,1.568380204999995,0.7826480934999935,0.03999998015,0.0399999148,-9.814386550000005,-0.012215370591718885,-0.02838792150001496,-0.0025333952650034154,-0.012322731036691315,0.00500560715000659
0.6950000000000001,-0.0002139857630007394,-0.7877264880000062,-0.0033798482600065627,-2.357314290000002,-0.0012133870700025068,1.568349169999995,0.7826079189999935,0.0399999791,0.0399999142,-9.814416700000004,-0.012147254496801771,-0.028480848000015047,-0.002554610410003435,-0.012313633039592146,0.005046544100006629
0.6975,-0.00021855233150074345,-0.7877644140000062,-0.0034203804800065985,-2.357326845000002,-0.0012288691850025205,1.568318134999995,0.7825677444999934,0.03999997805,0.0399999136,-9.814446850000005,-0.01207913840188466,-0.02857377450001513,-0.0025758255550034537,-0.012304535042492978,0.005087481050006665
0.7000000000000001,-0.0002231189000007883,-0.7878023400000066,-0.003460912700006993,-2.357339400000002,-0.001244351300002671,1.5682870999999947,0.7825275699999931,0.039999977,0.039999913,-9.814476999999997,-0.01201102230697381,-0.028666701000021527,-0.002597040700003573,-0.012295437045393504,0.005128418000006897
0.7025,-0.00022793334650079256,-0.7878423315000066,-0.0035036211950070307,-2.357352780000002,-0.0012606645050026856,1.5682544299999948,0.7824852354999929,0.039999977,0.039999912549999996,-9.814450149999995,-0.011981161218131624,-0.028798185750021646,-0.0026188629850035926,-0.012284466670824194,0.005170539875006934
0.705,-0.00023274779300079686,-0.7878823230000066,-0.003546329690007069,-2.357366160000002,-0.0012769777100027,1.5682217599999946,0.7824429009999929,0.039999977,0.0399999121,-9.814423299999996,-0.011951300129289438,-0.02892967050002176,-0.0026406852700036117,-0.012273496296254884,0.005212661750006972
0.7075,-0.00023756223950080135,-0.7879223145000067,-0.0035890381850071087,-2.357379540000002,-0.0012932909150027152,1.5681890899999946,0.7824005664999929,0.039999977,0.03999991165,-9.814396449999997,-0.01192143904044725,-0.029061155250021883,-0.002662507555003632,-0.012262525921685573,0.005254783625007011
0.71,-0.00024237668600080562,-0.7879623060000067,-0.0036317466800071464,-2.3573929200000023,-0.0013096041200027298,1.5681564199999947,0.7823582319999929,0.039999977,0.0399999112,-9.814369599999996,-0.011891577951605064,-0.029192640000022002,-0.0026843298400036518,-0.012251555547116265,0.005296905500007048
0.7125,-0.00024719113250081014,-0.7880022975000067,-0.0036744551750071863,-2.3574063000000023,-0.001325917325002745,1.5681237499999945,0.7823158974999929,0.039999977,0.03999991075,-9.814342749999996,-0.011861716862762876,-0.029324124750022124,-0.0027061521250036718,-0.012240585172546954,0.0053390273750070875
0.715,-0.0002520055790008144,-0.7880422890000067,-0.0037171636700072245,-2.3574196800000022,-0.0013422305300027594,1.5680910799999945,0.7822735629999928,0.039999977,0.0399999103,-9.814315899999997,-0.01183185577392069,-0.02945560950002224,-0.0027279744100036914,-0.012229614797977644,0.005381149250007125
0.7175,-0.000256904497000862,-0.7880829975000072,-0.0037606136200076428,-2.3574333800000025,-0.001358826895002919,1.5680578449999942,0.7822304954999925,0.039999977,0.0399999098,-9.814308550000007,-0.011782145779564624,-0.029576440800016927,-0.002750007220003819,-0.012218816578386343,0.0054236258100073455
0.72,-0.0002619723580008665,-0.7881251400000072,-0.0038055464800076824,-2.3574477200000024,-0.0013759895800029343,1.5680234799999941,0.7821859619999924,0.039999977,0.0399999092,-9.814340200000006,-0.011692737974211134,-0.029675965200017015,-0.002772461080003839,-0.012208362668750793,0.005466811740007384
0.7225,-0.0002670402190008712,-0.7881672825000072,-0.003850479340007724,-2.3574620600000022,-0.0013931522650029503,1.5679891149999943,0.7821414284999924,0.039999977,0.0399999086,-9.814371850000006,-0.01160333016885764,-0.029775489600017108,-0.0027949149400038602,-0.012197908759115243,0.005509997670007424
0.725,-0.0002721080800008757,-0.7882094250000073,-0.0038954122000077643,-2.3574764000000026,-0.0014103149500029656,1.5679547499999942,0.7820968949999924,0.039999977,0.039999908,-9.814403500000006,-0.011513922363504151,-0.029875014000017196,-0.0028173688000038798,-0.012187454849479694,0.005553183600007462
0.7275,-0.0002771759410008804,-0.7882515675000074,-0.0039403450600078065,-2.3574907400000025,-0.0014274776350029815,1.567920384999994,0.7820523614999922,0.039999977,0.0399999074,-9.814435150000005,-0.011424514558150658,-0.029974538400017292,-0.002839822660003901,-0.012177000939844144,0.005596369530007503
0.73,-0.0002822438020008849,-0.7882937100000074,-0.003985277920007846,-2.3575050800000024,-0.0014446403200029968,1.567886019999994,0.7820078279999922,0.039999977,0.0399999068,-9.814466800000005,-0.011335106752797168,-0.03007406280001738,-0.002862276520003921,-0.012166547030208596,0.005639555460007541
0.7325,-0.00028731166300088965,-0.7883358525000075,-0.004030210780007888,-2.3575194200000023,-0.0014618030050030128,1.567851654999994,0.7819632944999922,0.039999977,0.039999906200000004,-9.814498450000006,-0.011245698947443674,-0.030173587200017473,-0.002884730380003942,-0.012156093120573046,0.005682741390007582
0.735,-0.00029255210000089137,-0.7883794550000075,-0.004076658260007899,-2.3575339200000025,-0.001479544000003017,1.567816119999994,0.7819172589999922,0.0399999777,0.039999906,-9.814537900000007,-0.011184921953819284,-0.030299314600023233,-0.0029075630800038527,-0.012146096210925066,0.005726623930007402
0.7375,-0.00029787882500082363,-0.7884237875000069,-0.0041238630500073,-2.3575485000000023,-0.001497574150002788,1.5677799999999944,0.7818704724999928,0.03999997875,0.039999906,-9.814581250000007,-0.011138460366048115,-0.03043814350002147,-0.00293058520000356,-0.01213632780127069,0.00577085477500684
0.74,-0.00030320555000075574,-0.7884681200000063,-0.0041710678400066975,-2.357563080000002,-0.001515604300002558,1.567743879999995,0.7818236859999934,0.0399999798,0.039999906,-9.814624600000005,-0.011091998778276947,-0.0305769724000197,-0.0029536073200032665,-0.012126559391616314,0.005815085620006276
0.7425,-0.000308532275000688,-0.7885124525000057,-0.004218272630006097,-2.357577660000002,-0.0015336344500023289,1.5677077599999953,0.781776899499994,0.03999998085,0.039999906,-9.814667950000006,-0.011045537190505779,-0.030715801300017935,-0.002976629440002974,-0.012116790981961938,0.0058593164650057135
0.745,-0.0003138590000006201,-0.7885567850000051,-0.004265477420005495,-2.357592240000002,-0.001551664600002099,1.5676716399999957,0.7817301129999946,0.0399999819,0.039999906,-9.814711300000004,-0.010999075602734611,-0.030854630200016164,-0.00299965156000268,-0.012107022572307563,0.0059035473100051495
0.7475,-0.00031918572500055236,-0.7886011175000046,-0.004312682210004895,-2.3576068200000018,-0.0015696947500018698,1.5676355199999963,0.7816833264999952,0.03999998295,0.039999906,-9.814754650000005,-0.010952614014963441,-0.030993459100014397,-0.0030226736800023873,-0.012097254162653186,0.005947778155004587
0.75,-0.0003245124500005085,-0.7886454500000042,-0.004359887000004504,-2.3576214000000015,-0.0015877249000017205,1.5675993999999964,0.7816365399999956,0.039999984,0.039999906,-9.814797999999994,-0.010906152427186495,-0.03113228800000905,-0.0030456958000021467,-0.012087485752998587,0.0059920090000041195
0.7525000000000001,-0.00033010335050058997,-0.7886920400000049,-0.004409410145005226,-2.3576370000000018,-0.001606640395001996,1.567561509999996,0.7815874464999949,0.0399999846,0.039999906,-9.814740999999994,-0.010796162998292157,-0.0312317566000105,-0.003069300925002491,-0.01207525879144532,0.00603729910000478
0.755,-0.0003356942510006712,-0.7887386300000055,-0.0044589332900059455,-2.357652600000002,-0.001625555890002271,1.5675236199999953,0.7815383529999941,0.039999985200000004,0.039999906,-9.814683999999993,-0.010686173569397824,-0.03133122520001194,-0.0030929060500028338,-0.012063031829892051,0.006082589200005438
0.7575000000000001,-0.0003412851515007527,-0.7887852200000063,-0.004508456435006667,-2.357668200000002,-0.0016444713850025466,1.567485729999995,0.7814892594999934,0.0399999858,0.039999906,-9.814626999999993,-0.010576184140503486,-0.03143069380001339,-0.003116511175003178,-0.012050804868338783,0.006127879300006097
0.76,-0.00034687605200083395,-0.7888318100000069,-0.004557979580007387,-2.3576838000000024,-0.0016633868800028215,1.5674478399999943,0.7814401659999927,0.0399999864,0.039999906,-9.814569999999991,-0.010466194711609153,-0.03153016240001484,-0.003140116300003521,-0.012038577906785515,0.006173169400006755
0.7625000000000001,-0.00035246695250091544,-0.7888784000000076,-0.0046075027250081085,-2.3576994000000027,-0.0016823023750030973,1.5674099499999938,0.781391072499992,0.039999987,0.039999906,-9.814512999999991,-0.010356205282714815,-0.03162963100001629,-0.003163721425003865,-0.012026350945232247,0.006218459500007416
0.765,-0.00035805785300099666,-0.7889249900000084,-0.004657025870008828,-2.357715000000003,-0.001701217870003372,1.5673720599999932,0.7813419789999912,0.0399999876,0.039999906,-9.81445599999999,-0.010246215853820483,-0.031729099600017734,-0.003187326550004208,-0.01201412398367898,0.0062637496000080735
0.7675000000000001,-0.00036373854000110346,-0.7889723375000092,-0.0047073367050097705,-2.357730690000003,-0.0017204341700037316,1.5673335799999926,0.7812921044999903,0.03999998835,0.03999990635,-9.81443450000001,-0.010151034174474625,-0.03184174190002617,-0.0032111223950045524,-0.01200222345068835,0.006309392020008727
0.77,-0.00036959880000110866,-0.7890212000000093,-0.004759222920009816,-2.357746560000003,-0.0017402520800037491,1.5672939199999925,0.7812406679999903,0.0399999894,0.0399999074,-9.814484000000009,-0.010085467994200677,-0.0319807316000263,-0.003235299680004574,-0.011990975774822452,0.006355739080008768
0.7725,-0.00037545906000111386,-0.7890700625000093,-0.004811109135009862,-2.3577624300000033,-0.0017600699900037669,1.5672542599999923,0.7811892314999902,0.03999999045,0.03999990845,-9.814533500000008,-0.01001990181392673,-0.03211972130002642,-0.0032594769650045956,-0.011979728098956552,0.006402086140008809
0.775,-0.0003813193200011193,-0.7891189250000094,-0.00486299535000991,-2.357778300000003,-0.0017798879000037852,1.5672145999999925,0.7811377949999901,0.039999991500000005,0.0399999095,-9.81458300000001,-0.009954335633652778,-0.03225871100002655,-0.003283654250004618,-0.011968480423090651,0.006448433200008852
0.7775,-0.0003871795800011245,-0.7891677875000094,-0.004914881565009957,-2.357794170000003,-0.0017997058100038027,1.5671749399999924,0.7810863584999901,0.03999999255,0.03999991055,-9.814632500000009,-0.00988876945337883,-0.03239770070002667,-0.0033078315350046393,-0.01195723274722475,0.006494780260008893
0.78,-0.00039303984000113,-0.7892166500000094,-0.004966767780010005,-2.357810040000003,-0.0018195237200038213,1.5671352799999925,0.78103492199999,0.039999993600000006,0.0399999116,-9.81468200000001,-0.009823203273104878,-0.0325366904000268,-0.0033320088200046623,-0.01194598507135885,0.006541127320008937
0.7825,-0.0003989001000011352,-0.7892655125000095,-0.005018653995010051,-2.3578259100000034,-0.0018393416300038388,1.5670956199999924,0.78098348549999,0.03999999465,0.03999991265,-9.81473150000001,-0.00975763709283093,-0.03267568010002693,-0.0033561861050046835,-0.011934737395492952,0.0065874743800089786
0.785,-0.00040494329200119406,-0.78931593400001,-0.0050721449300105675,-2.3578424100000035,-0.0018597725100040364,1.567054709999992,0.7809304699999895,0.0399999955,0.0399999127,-9.814707699999987,-0.009649194590722051,-0.03278972840001977,-0.00338071883000481,-0.01192170670255743,0.006634495890009218
0.7875,-0.00041107795000119954,-0.78936713500001,-0.005126438225010616,-2.3578592250000034,-0.0018805098750040547,1.567013174999992,0.7808766649999894,0.03999999625,0.03999991225,-9.814647249999988,-0.00951931392771443,-0.03289130600001986,-0.003405429275004832,-0.011907784501087877,0.006681854625009261
0.79,-0.00041721260800120524,-0.7894183360000101,-0.0051807315200106665,-2.3578760400000034,-0.0019012472400040741,1.566971639999992,0.7808228599999895,0.039999997,0.039999911799999996,-9.814586799999988,-0.009389433264706804,-0.03299288360001996,-0.003430139720004855,-0.011893862299618325,0.006729213360009305
0.7925,-0.0004233472660012107,-0.7894695370000101,-0.005235024815010715,-2.3578928550000033,-0.0019219846050040925,1.566930104999992,0.7807690549999894,0.03999999775,0.03999991135,-9.814526349999987,-0.009259552601699183,-0.03309446120002005,-0.0034548501650048767,-0.011879940098148772,0.0067765720950093465
0.795,-0.0004294819240012164,-0.7895207380000102,-0.005289318110010766,-2.3579096700000033,-0.0019427219700041119,1.566888569999992,0.7807152499999893,0.0399999985,0.0399999109,-9.814465899999988,-0.009129671938691557,-0.033196038800020145,-0.0034795606100049,-0.011866017896679218,0.006823930830009391
0.7975,-0.00043561658200122185,-0.7895719390000102,-0.005343611405010814,-2.3579264850000032,-0.00196345933500413,1.566847034999992,0.7806614449999894,0.03999999925,0.03999991045,-9.814405449999988,-0.008999791275683936,-0.033297616400020234,-0.003504271055004922,-0.011852095695209666,0.0068712895650094325
0.8,-0.0004417512400012835,-0.7896231400000107,-0.005397904700011355,-2.3579433000000036,-0.0019841967000043368,1.5668054999999914,0.7806076399999888,0.04,0.03999991,-9.814345000000007,-0.008869910612685326,-0.033399194000028,-0.003528981500005086,-0.011838173493740212,0.0069186483000096685
0.8025,-0.00044816526850128917,-0.7896766690000108,-0.005454648440011405,-2.3579605050000034,-0.0020058696450043563,1.5667621199999913,0.7805513989999887,0.03999999925,0.0399999094,-9.814377700000007,-0.008785080164653824,-0.03353911640002812,-0.0035543961950051084,-0.011824740935114259,0.006966964155009712
0.805,-0.0004545792970012952,-0.7897301980000108,-0.005511392180011458,-2.3579777100000037,-0.0020275425900043763,1.5667187399999913,0.7804951579999887,0.0399999985,0.0399999088,-9.814410400000007,-0.00870024971662232,-0.03367903880002825,-0.003579810890005132,-0.011811308376488307,0.0070152800100097565
0.8075,-0.00046099332550130086,-0.7897837270000109,-0.005568135920011508,-2.3579949150000035,-0.0020492155350043955,1.5666753599999912,0.7804389169999886,0.03999999775,0.0399999082,-9.814443100000005,-0.00861541926859082,-0.03381896120002838,-0.0036052255850051547,-0.011797875817862355,0.0070635958650098
0.81,-0.0004674073540013068,-0.7898372560000109,-0.005624879660011561,-2.3580121200000037,-0.002070888480004416,1.5666319799999913,0.7803826759999886,0.039999997,0.0399999076,-9.814475800000006,-0.008530588820559317,-0.03395888360002851,-0.0036306402800051784,-0.011784443259236404,0.0071119117200098446
0.8125,-0.00047382138250131255,-0.789890785000011,-0.005681623400011612,-2.3580293250000035,-0.002092561425004435,1.5665885999999911,0.7803264349999885,0.03999999625,0.039999907,-9.814508500000006,-0.008445758372527815,-0.03409880600002863,-0.003656054975005201,-0.011771010700610452,0.007160227575009888
0.8150000000000001,-0.0004802354110013185,-0.789944314000011,-0.005738367140011664,-2.3580465300000037,-0.0021142343700044555,1.566545219999991,0.7802701939999884,0.0399999955,0.0399999064,-9.814541200000006,-0.008360927924496312,-0.03423872840002876,-0.0036814696700052246,-0.011757578141984498,0.007208543430009933
0.8175,-0.0004867441535013829,-0.7899986350000116,-0.005795941585012229,-2.358064030000004,-0.002136224525004671,1.5665012149999906,0.7802131299999879,0.03999999525,0.039999906,-9.81454819999999,-0.008252842724291288,-0.03436668410002148,-0.003707065060005359,-0.011743509629738079,0.007257261485010225
0.8200000000000001,-0.0004934423240013892,-0.7900545400000116,-0.005855177440012285,-2.3580821200000037,-0.002158849100004692,1.5664559599999905,0.7801544199999878,0.039999996,0.039999906,-9.81450379999999,-0.008098248019782359,-0.034470706400021575,-0.0037330218400053834,-0.0117281692102519,0.007306783940010271
0.8225,-0.0005001404945013951,-0.7901104450000117,-0.005914413295012338,-2.358100210000004,-0.0021814736750047125,1.5664107049999905,0.7800957099999878,0.03999999675,0.039999906,-9.81445939999999,-0.007943653315273436,-0.034574728700021665,-0.0037589786200054064,-0.01171282879076572,0.007356306395010314
0.8250000000000001,-0.0005068386650014013,-0.7901663500000117,-0.005973649150012392,-2.358118300000004,-0.0022040982500047333,1.5663654499999904,0.7800369999999877,0.0399999975,0.039999906,-9.81441499999999,-0.007789058610764507,-0.03467875100002176,-0.0037849354000054304,-0.01169748837127954,0.00740582885001036
0.8275,-0.0005135368355014073,-0.7902222550000118,-0.006032885005012445,-2.358136390000004,-0.0022267228250047533,1.5663201949999903,0.7799782899999876,0.03999999825,0.039999906,-9.81437059999999,-0.0076344639062555855,-0.03478277330002186,-0.0038108921800054534,-0.011682147951793362,0.007455351305010405
0.8300000000000001,-0.0005202350060014135,-0.7902781600000118,-0.006092120860012501,-2.358154480000004,-0.0022493474000047746,1.5662749399999905,0.7799195799999876,0.039999999,0.039999906,-9.81432619999999,-0.007479869201746656,-0.034886795600021954,-0.003836848960005478,-0.011666807532307182,0.007504873760010451
0.8325,-0.0005269331765014195,-0.7903340650000119,-0.006151356715012554,-2.358172570000004,-0.0022719719750047946,1.5662296849999904,0.7798608699999875,0.03999999975,0.039999906,-9.81428179999999,-0.007325274497237733,-0.03499081790002204,-0.003862805740005501,-0.011651467112821005,0.007554396215010495
0.835,-0.000533823875001487,-0.7903916000000124,-0.006212281330013145,-2.358191340000004,-0.002295241400005021,1.5661831099999899,0.7798004829999869,0.04,0.039999906,-9.814281700000004,-0.007184995710821351,-0.0351078843000263,-0.0038891411000056444,-0.011636234540489,0.007604480130010718
