rsonawane2002/My_IMU/logs_incomplete/traj_483/clean_483.csv
time,j1,j2,j3,j4,j5,j6,j7,gripper1,gripper2,imu_ax,imu_ay,imu_az,imu_gx,imu_gy,imu_gz,quat_x,quat_y,quat_z,quat_w
2564.6333333383777,0.00016700293,-0.785875,4.0107683e-05,-2.3551247,9.29385e-05,1.570997,0.786,0.04,0.04,0.0,-0.0,0.0,2.875329272945135e-08,-0.0011641195053377316,4.421952117202833e-08,0.9999995971961153,0.00020320632366974898,0.0008736418299892524,3.263050917662294e-05
2564.6500000050446,0.00016699922,-0.78576016,4.0119256e-05,-2.3552213,9.2983544e-05,1.5709941,0.786,0.04,0.04,-0.2919984599494274,-4.0638921399533887e-05,0.020128407646846647,5.086665793420587e-07,-0.0022383399161772424,4.43950086414574e-07,0.9999996850583452,0.00020320882853700674,0.0007665025175519482,3.2607865989210586e-05
2564.6666666717115,0.0001669504,-0.7856542,4.016232e-05,-2.35531,9.309136e-05,1.5709913,0.786,0.04,0.04,0.023196975453299018,-3.437872814912807e-05,-0.001602720971938254,5.06516528992375e-06,-0.003224383439589213,2.959719738439809e-06,0.9999997558818677,0.00020322235451293705,0.0006677376384207401,3.260867555584094e-05
2564.6833333383784,0.00016678325,-0.7855566,4.0289484e-05,-2.355391,9.336961e-05,1.5709884,0.786,0.04,0.04,0.022263115278309265,-9.592842318376397e-05,-0.0014234312964322982,1.6867220683814514e-05,-0.004130621244005029,9.536538762694859e-06,0.9999998123496002,0.00020326490014643895,0.0005769895535804911,3.2668025048882036e-05
2564.7000000050452,0.00016639297,-0.7854667,4.057616e-05,-2.3554645,9.3972594e-05,1.5709856,0.786,0.04,0.04,0.02140528075109671,-0.00018430110448824726,-0.0009704499841722836,3.981393939018925e-05,-0.0049565199751543864,2.192562114169569e-05,0.9999998568285943,0.0002033622102638041,0.0004938708149887665,3.283626488437832e-05
2564.716666671712,0.00016564672,-0.7853835,4.111832e-05,-2.3555312,9.5096846e-05,1.5709826,0.7860014,0.04,0.04,0.018822914487270914,-0.00029732255294401483,-0.001000600403533447,7.689404539280238e-05,-0.005705384186852901,4.169339704723195e-05,0.9999998914712652,0.00020423225687406934,0.0004174277018293504,3.317765501327941e-05
2564.733333338379,0.00016438623,-0.78530663,4.203015e-05,-2.3555903,9.6977645e-05,1.5709794,0.7860033,0.04,0.04,0.019811979977579774,-0.0004328480679940245,-0.00034929496794955384,0.00012525625777443854,-0.00638170298234572,7.026287669581401e-05,0.9999999178297748,0.00020549655459980691,0.00034780920913854435,3.3769270537695146e-05
2564.750000005046,0.00016243053,-0.7852353,4.3442506e-05,-2.3556457,9.9891615e-05,1.5709755,0.7860052,0.04,0.039999995,0.012423780422432529,-0.0005930861245032233,-0.0019084116581025157,0.00019184939274449834,-0.0069833954409416876,0.00010964096226208473,0.9999999380642751,0.00020693125756178,0.00028257151922793215,3.4702119194974434e-05
2564.7666666717128,0.00015957835,-0.7851687,4.5500907e-05,-2.3556952,0.000104124825,1.5709689,0.786009,0.04,0.039999995,0.014090200228378258,-0.0007558324752555805,-0.00229753365672547,0.00028218091918701685,-0.007533083275037367,0.00015940648182569437,0.9999999529429335,0.00020953916691115164,0.00022114831707468075,3.6067852107987346e-05
2564.7833333383796,0.00015561053,-0.7851062,4.836402e-05,-2.3557382,0.00011000143,1.5709618,0.78601414,0.04,0.039999995,0.015713952967044698,-0.0009431117832217519,0.00040557360270199183,0.0003904531630168867,-0.008032710589757642,0.00022136692427725377,0.9999999629806451,0.0002130758183695487,0.00016491047288761542,3.797288496928204e-05
2564.8000000050465,0.00015029176,-0.78504735,5.2202216e-05,-2.3557737,0.00011785989,1.5709513,0.78602016,0.04,0.04,0.01555088409523897,-0.0011363562113768854,-0.0013754765172846461,0.0005223265591474488,-0.008467024686470351,0.0002956459084073442,0.9999999692229691,0.00021738996717058943,0.0001124870382241152,4.05256633249711e-05
2564.8166666717134,0.00014337273,-0.78499174,5.7195677e-05,-2.355804,0.0001280757,1.5709398,0.78602844,0.04,0.04,0.012132876153558847,-0.001353528653984861,-0.0002857338727624281,0.0006820372943007667,-0.008847912004467547,0.0003837589163502802,0.999999972090576,0.0002232281900951133,6.375871662094894e-05,4.385029747077351e-05
2564.8333333383803,0.00013459158,-0.7849386,6.353386e-05,-2.3558292,0.00014104336,1.5709251,0.78603953,0.04,0.04,0.010228790512800678,-0.0015817681552723764,-0.0014605302181669444,0.000866092133821391,-0.009175329601466107,0.00048809292663383165,0.9999999720336711,0.0002309226750289471,1.7205506241578875e-05,4.807645785962218e-05
2564.850000005047,0.00012367607,-0.7848874,7.1414026e-05,-2.3558483,0.00015716227,1.5709066,0.7860529,0.04,0.04,0.011500795545504872,-0.0018118080324311782,-0.001186320665502727,0.0010747926793744733,-0.009461149772961221,0.0006067119593485275,0.9999999693433572,0.00024027152277623012,-2.717265996583217e-05,5.333410274575073e-05
2564.866666671714,0.00011034442,-0.7848377,8.104017e-05,-2.35586,0.00017684895,1.5708843,0.7860692,0.04,0.04,0.013065137667345184,-0.0020521673223418326,-0.0004127243818707882,0.0013125085966757492,-0.009702940380254096,0.0007409809560905895,0.999999964157986,0.0002517010366878621,-6.898846137909594e-05,5.9759577906709786e-05
2564.883333338381,9.430695e-05,-0.7847887,9.262205e-05,-2.3558643,0.00020053098,1.5708578,0.78608876,0.04,0.04,0.011925673053481134,-0.0022987705043072946,-0.0002592856413574651,0.0015789107369539237,-0.009897184682109842,0.0008913424683254165,0.9999999565709506,0.000265401006063523,-0.00010892746596028253,6.749229538053325e-05
2564.900000005048,7.5267264e-05,-0.7847402,0.00010637426,-2.3558617,0.00022864804,1.5708265,0.78611207,0.04,0.04,0.010804443053036294,-0.0025526207064836904,-0.0006364132055347582,0.0018750040180314244,-0.010048961968560225,0.001058160069082257,0.9999999465020069,0.00028171184236109193,-0.00014749645799178488,7.667604641792615e-05
2564.9166666717147,5.2923337e-05,-0.7846917,0.00012251551,-2.355852,0.0002616548,1.5707892,0.7861394,0.04,0.039999995,0.010229576134368479,-0.002816540696469103,-0.0013239077086613094,0.002200661456022993,-0.010158494271029573,0.0012425082905025576,0.9999999337074779,0.00030085593256056733,-0.00018553006612042345,8.74605186826016e-05
2564.9333333383815,2.6968784e-05,-0.78464246,0.00014126804,-2.3558347,0.00029998613,1.5707469,0.7861711,0.039999995,0.039999995,0.010183648488482078,-0.003065407193835433,-1.088124630399534e-05,0.002556000837393291,-0.010235643051283279,0.001442309928231526,0.9999999180239268,0.0003230268124716485,-0.00022273044980899897,9.998482225420744e-05
2564.9500000050484,-2.9065163e-06,-0.78459245,0.00016285652,-2.3558095,0.00034410102,1.5706975,0.7862077,0.03999999,0.039999995,0.010691540009322154,-0.0033310923083473692,-0.001165113973899956,0.002942755295364396,-0.010274102324903844,0.001659370626353393,0.9999998989422852,0.0003486272928730841,-0.0002597833032435627,0.00011439871142829096
2564.9666666717153,-3.7015503e-05,-0.784541,0.00018750754,-2.355776,0.00039447035,1.5706421,0.7862494,0.039999988,0.039999995,0.010268535739910156,-0.003605049325893574,-8.188343523229946e-05,0.003359612123130084,-0.01027854446005898,0.0018937640699331027,0.9999998760952191,0.00037782258989319016,-0.000296539874609101,0.00013085770862035018
2564.983333338382,-7.5672986e-05,-0.7844878,0.00021544906,-2.3557346,0.0004515617,1.5705794,0.7862967,0.03999998,0.039999988,0.009495986159802072,-0.0038763098987454445,-0.0007668243616087977,0.003807704998616001,-0.010247678616618367,0.0021464879610693034,0.9999998486891335,0.00041092709531768935,-0.0003337753443802904,0.00014951472121417983
2565.000000005049,-0.00011919493,-0.78443235,0.00024691026,-2.3556843,0.00051584153,1.5705087,0.78635,0.039999977,0.039999984,0.010023636533396107,-0.004147435062442967,-0.0007415428057599982,0.004286767618142893,-0.010186841632763913,0.0024167489956812374,0.9999998159415652,0.00044819547081083967,-0.00037169869445228317,0.0001705219524233801
2565.016666671716,-0.00016789783,-0.7843743,0.00028212045,-2.3556242,0.000587778,1.5704297,0.78640956,0.039999973,0.03999998,0.011069335125313273,-0.004419935912438862,-0.00034258732370950895,0.004796790532621668,-0.010095339957335301,0.0027045774004749758,0.9999997770573044,0.0004898525061302413,-0.00041022093696777733,0.00019403259143130485
2565.033333338383,-0.0002220982,-0.78431314,0.000321309,-2.355554,0.0006678392,1.570342,0.7864759,0.03999997,0.039999977,0.010833980814872746,-0.004692649679635425,-0.0002310692229556821,0.005338286842666524,-0.009973295901993365,0.0030099716369207247,0.9999997308899394,0.0005362420368010745,-0.0004496406035234051,0.00022019957867006786
2565.0500000050497,-0.0002821119,-0.7842484,0.0003647048,-2.3554747,0.0007564928,1.5702447,0.7865493,0.039999966,0.039999973,0.008827976265401993,-0.004965356327277237,-0.0009033123059554171,0.005910387914906071,-0.009819856277217731,0.00333288609234626,0.9999996757991467,0.0005875884242897366,-0.0004909715353685317,0.0002491754329548683
2565.0666666717166,-0.00034825338,-0.78418,0.00041253588,-2.355384,0.00085420377,1.5701376,0.7866303,0.03999996,0.03999997,0.011860555154807884,-0.005238121587688961,-0.0001557616887470914,0.006513288358790977,-0.009645214960528357,0.0036732640401421933,0.9999996107286092,0.0006441743453776617,-0.0005334395307949246,0.00028111262804343424
2565.0833333383835,-0.00042083583,-0.7841075,0.0004650292,-2.3552828,0.00096143474,1.5700203,0.7867191,0.039999954,0.039999966,0.01050431739151314,-0.005508976154139725,-0.0005216881268976792,0.007146913570987321,-0.009438678708583371,0.004030147048060227,0.9999995337551099,0.0007062525795111687,-0.000577700984874912,0.0003161620295443569
2565.1000000050503,-0.00050017046,-0.78403056,0.0005224102,-2.3551702,0.0010786471,1.5698919,0.7868162,0.039999947,0.039999958,0.010589141609362862,-0.005780408591029495,-0.0006921222459155274,0.007811145082397603,-0.009207805896227734,0.004405143676154905,0.9999994427767604,0.0007741046082112527,-0.0006241441836687779,0.0003544746281767002
2565.116666671717,-0.0005865657,-0.7839488,0.0005849027,-2.3550463,0.0012062961,1.5697525,0.786922,0.039999943,0.039999954,0.010598505793391055,-0.00604885357151043,-0.0003810795994763083,0.008505050379353334,-0.008952387182655685,0.004797264003230748,0.9999993356017906,0.0008480108629708326,-0.0006728297021670278,0.0003961991238923076
2565.133333338384,-0.00068032724,-0.783862,0.00065272825,-2.3549094,0.0013448353,1.5696008,0.7870367,0.039999943,0.039999954,0.012491076737353168,-0.006318204705938087,-0.0004358211361799036,0.009228492688859096,-0.008673722434180122,0.005206355403310909,0.9999992099559429,0.0009281605798421165,-0.0007236691912130464,0.00044148423506064555
2565.150000005051,-0.0007817578,-0.7837698,0.00072610663,-2.3547611,0.0014947125,1.5694368,0.78716093,0.03999994,0.03999995,0.009524946011918445,-0.006583430686059213,-0.001017901644173591,0.009981881399052605,-0.008370455021829952,0.005632225036907712,0.9999990622992757,0.0010148920615665432,-0.0007777069814998759,0.0004904758134062873
2565.166666671718,-0.000891157,-0.78367186,0.0008052547,-2.354599,0.0016563692,1.56926,0.78729486,0.03999994,0.039999954,0.013130911115633026,-0.006847120979003502,-4.3382293557492346e-05,0.010763679569255459,-0.008048322677663245,0.00607385182479386,0.9999988902907601,0.0011083917434439939,-0.0008340801347530691,0.0005433188016214662
2565.1833333383847,-0.0010088201,-0.7835678,0.000890387,-2.3544235,0.0018302443,1.56907,0.7874389,0.039999936,0.03999995,0.011708890989781118,-0.007110382476279483,-0.00037460697344116056,0.011574255875040731,-0.0076998935120430306,0.006532746350054595,0.999998689994024,0.0012089348230643483,-0.0008934756273795305,0.0006001567569115073
2565.2000000050516,-0.0011350391,-0.7834572,0.0009817149,-2.3542345,0.0020167686,1.568866,0.7875934,0.039999936,0.03999995,0.011492220345354909,-0.007368821825490235,-0.0005959724328041816,0.012412882779131123,-0.0073312230191465155,0.007007822703715617,0.9999984572894636,0.0013167353707504205,-0.0009563123453289641,0.0006611303611862943
2565.2166666717185,-0.0012701015,-0.78334,0.001079447,-2.3540313,0.002216367,1.5686477,0.78775877,0.039999936,0.039999954,0.011990818627216626,-0.007626002082917224,-0.000544725608819796,0.01327910551702969,-0.006944105668346865,0.0074979900023381734,0.9999981879022964,0.0014320650481880952,-0.00102262195661915,0.000726378795867414
2565.2333333383854,-0.0014142912,-0.78321606,0.0011837892,-2.3538144,0.0024294618,1.5684149,0.78793526,0.039999943,0.03999996,0.01151034577770993,-0.007882314318916235,-0.0008266595703965152,0.014172720762043605,-0.0065388249178162505,0.008004740496322816,0.9999978769990581,0.0015551348068397787,-0.0010926448944767904,0.0007960403530329108
2565.2500000050522,-0.0015678869,-0.78308487,0.0012949433,-2.3535821,0.0026564621,1.5681669,0.7881233,0.03999995,0.03999997,0.013053797644024812,-0.008132827799039967,-0.000377270493645554,0.015092653234890455,-0.006114858686921989,0.008526956654799578,0.9999975195189592,0.0016862121230485827,-0.0011663238107971377,0.0008702490295523386
2565.266666671719,-0.0017311623,-0.7829461,0.0014131083,-2.3533342,0.002897775,1.5679032,0.7883232,0.039999958,0.039999977,0.013420173755473996,-0.008384598002365764,-0.00025779987644636293,0.016038713740164145,-0.005672523440358863,0.009064396721317088,0.9999971098755704,0.0018255030541894255,-0.0012437505362057212,0.0009491384035092245
2565.283333338386,-0.0019043873,-0.7827995,0.0015384798,-2.3530703,0.0031537998,1.5676235,0.7885353,0.039999958,0.039999977,0.013381757529873362,-0.00863155554770693,-0.0002449322544784138,0.01701011259301185,-0.005211396952654761,0.009616788618854386,0.9999966418389251,0.001973212420515686,-0.0013251363256578958,0.0010328394524873072
2565.300000005053,-0.0020878257,-0.7826451,0.0016712497,-2.35279,0.0034249271,1.5673275,0.7887599,0.03999996,0.03999998,0.013804469250899842,-0.008876401057703823,-0.0004685849612329207,0.018006308895520826,-0.0047315006894677845,0.010183853819339107,0.9999961088624564,0.0021295720312811783,-0.0014104840790671442,0.0011214800811881142
2565.3166666717198,-0.0022817377,-0.7824826,0.001811606,-2.3524933,0.00371154,1.5670147,0.7889974,0.039999966,0.039999988,0.014067122154726164,-0.009116411161787545,-0.00040340117086756777,0.019026795824644668,-0.004233194770582479,0.010764489701864893,0.9999955035379243,0.002294842034652699,-0.0014999757963369816,0.0012151858210745106
2565.3333333383866,-0.0024863777,-0.7823116,0.0019597327,-2.3521802,0.0040140166,1.5666844,0.7892479,0.039999966,0.039999988,0.01257084792400942,-0.009355145764885185,-0.0009090727762561812,0.020070244903682945,-0.0037156692581391607,0.011360095792437457,0.9999948173367808,0.0024690724405924155,-0.0015944193272956811,0.0013140806179968167
2565.3500000050535,-0.002701994,-0.78213173,0.0021158115,-2.3518503,0.004332724,1.5663362,0.78951186,0.039999966,0.039999988,0.013275785878219537,-0.009592136393079664,-0.0006470368722810704,0.021137742816530317,-0.003187478048498237,0.011969493526353348,0.9999940415441697,0.0026526070844030947,-0.0016938184885042914,0.0014182844359881864
2565.3666666717204,-0.0029288307,-0.78194326,0.0022800188,-2.3515022,0.0046680234,1.5659698,0.7897897,0.039999966,0.03999999,0.015551281086678692,-0.009827455996209338,-0.00045522235381234566,0.022227358892403112,-0.002646811935153981,0.012591593580698425,0.9999931682888188,0.0028456379623775178,-0.001797551363798903,0.001527916676930506
2565.3833333383873,-0.003167127,-0.78174543,0.0024525279,-2.3511364,0.0050202673,1.5655851,0.7900815,0.03999996,0.039999988,0.013809662513519783,-0.010054260233361822,-0.00040027083967331123,0.02333797793598319,-0.0020878888242357313,0.013227790908127158,0.9999921869133437,0.003048298424201607,-0.001906367130657107,0.0016430926172056768
2565.400000005054,-0.0034171154,-0.7815384,0.0026335071,-2.3507519,0.0053898017,1.5651816,0.7903876,0.039999966,0.03999999,0.015877845236000887,-0.010285602802911692,-0.0003182498752529739,0.024469907006612873,-0.001515775884176021,0.013876952456271904,0.999991088168503,0.0032607451721181537,-0.0020198232119743105,0.0017639270643194128
2565.416666671721,-0.0036790231,-0.78132194,0.0028231225,-2.3503494,0.005776962,1.5647588,0.7907083,0.039999966,0.039999995,0.01378006297190204,-0.010508035289210661,-0.000924634752763609,0.02562256262160703,-0.0009263143760200668,0.014537881195822479,0.9999898592614043,0.0034832254247365896,-0.002138788791145474,0.0018905283663800017
2565.433333338388,-0.0039530722,-0.7810955,0.0030215348,-2.3499274,0.006182077,1.5643164,0.7910438,0.03999997,0.04,0.016006544919311416,-0.010732735921959585,-7.75781660911079e-05,0.026794268913040997,-0.00032655854093016287,0.015212008463221932,0.9999884898416695,0.0037158311234154486,-0.002262792019793577,0.002023006553320129
2565.450000005055,-0.0042394786,-0.78085923,0.003228901,-2.3494866,0.006605479,1.5638542,0.7913944,0.039999977,0.04,0.014849154901686035,-0.010959428837280238,-0.0006357245831756231,0.027985528720142525,0.00028788237865495087,0.015898097467489943,0.9999869666624499,0.003958744400185704,-0.0023922556075470815,0.0021614719786419555
2565.4666666717217,-0.0045384546,-0.7806128,0.0034453738,-2.3490255,0.0070474716,1.5633717,0.7917606,0.039999977,0.04,0.01675596753367703,-0.011171794088152276,-0.00026387956419959835,0.029195245896079327,0.0009150318889755427,0.016595928268249495,0.9999852767929515,0.004212260651984729,-0.0025269174305384947,0.0023060238124225315
2565.4833333383885,-0.0048502036,-0.78035605,0.0036711018,-2.3485453,0.0075083664,1.562868,0.79214233,0.039999973,0.04,0.014246462879197175,-0.011389481543854288,-0.0011859386676693617,0.030421441664201215,0.0015568853804852657,0.017305873621855455,0.9999834044383092,0.004476348849859764,-0.0026678561023408876,0.002456764693734022
2565.5000000050554,-0.005174926,-0.7800889,0.0039062304,-2.3480446,0.007988442,1.5623438,0.79253995,0.039999973,0.04,0.016855287157402365,-0.01158994798968506,-9.328350571990995e-05,0.031665197732486196,0.0022048890401284646,0.018025328883182527,0.9999813372707753,0.004751239336397009,-0.00281406502941057,0.0026137851729435835
2565.5166666717223,-0.005512816,-0.7798111,0.0041508996,-2.3475232,0.0084879855,1.5617985,0.79295367,0.03999997,0.04,0.0167037463822739,-0.011798734166104663,-0.0003417353126478062,0.03292504757582801,0.002869191245396887,0.018755637900723654,0.9999790591221811,0.00503704235701634,-0.0029659384284461635,0.0027771803416195033
2565.533333338389,-0.0058640614,-0.7795223,0.004405246,-2.3469815,0.009007269,1.5612314,0.79338384,0.03999997,0.04,0.015415567242715866,-0.011997085592959072,-0.0007301943611759398,0.03420021247647498,0.0035453738908540824,0.01949638294600571,0.9999765516354129,0.005333956516403891,-0.00312410954770642,0.0029470369463840762
2565.550000005056,-0.006228842,-0.7792226,0.004669404,-2.3464184,0.009546569,1.5606426,0.7938305,0.03999997,0.04,0.017498274354288412,-0.012214913393566312,-0.00022262003540607367,0.03548966033985745,0.00422923218292898,0.020247338889486946,0.999973800144468,0.005642021797600997,-0.0032879599633656395,0.0031234490465279264
2565.566666671723,-0.00660734,-0.77891195,0.0049434993,-2.3458345,0.010106172,1.5600319,0.794294,0.03999997,0.04,0.01614454694132128,-0.012420792736501842,-0.0006743247156659748,0.03679349968039627,0.004927133570487862,0.021010665616524093,0.9999707849722003,0.005961406222510171,-0.00345800446269525,0.003306515245382242
2565.58333333839,-0.0069997255,-0.77859026,0.0052276594,-2.345229,0.010686312,1.5593985,0.7947745,0.03999997,0.04,0.01746795906401033,-0.01261482689028752,-0.000738995457627567,0.03811044325123355,0.005634335303291223,0.02178172771171214,0.9999674879113081,0.006292203058193993,-0.0036341619993081587,0.0034963077074513928
2565.6000000050567,-0.0074061607,-0.7782571,0.0055220034,-2.3446019,0.011287213,1.5587424,0.79527235,0.03999997,0.04,0.0164979539595711,-0.012794420884026589,-0.0006489846564150525,0.039439663334300476,0.006352206338558868,0.022560530161186865,0.9999638872458508,0.006634628757592274,-0.0038168589947816427,0.0036928976197790563
2565.6166666717236,-0.007826809,-0.77791226,0.005826647,-2.343952,0.011909141,1.5580634,0.7957874,0.03999997,0.04,0.018747363522586546,-0.013010095219017845,-2.1363511559790993e-05,0.040779994907554545,0.00707702305941936,0.023349973298637056,0.9999599662435062,0.006988564700387365,-0.004005507931797569,0.0038963803616580074
2565.6333333383905,-0.008261822,-0.7775556,0.0061417026,-2.3432803,0.012552329,1.5573615,0.79632014,0.03999997,0.04,0.016463977919989325,-0.01319913195865774,-0.000400977556558324,0.042132227681182834,0.007816617594415182,0.02414868726051196,0.999955699732444,0.00735428428349098,-0.004200834374450624,0.00410683160527475
2565.6500000050573,-0.008711346,-0.7771871,0.0064672786,-2.342586,0.013216986,1.5566356,0.7968706,0.039999973,0.04,0.017807288797322407,-0.013391671957016689,-0.0008004336111921972,0.043494290530026264,0.008561805833226771,0.02495489910647983,0.999951066072146,0.007731778387071484,-0.004402877875677376,0.004324318508622749
2565.666666671724,-0.009175532,-0.7768068,0.0068034763,-2.3418684,0.013903312,1.5558865,0.797439,0.03999997,0.04,0.019169770136873154,-0.01355721213377372,9.960210936021952e-05,0.044866177192198854,0.00931567261438443,0.025768263995941648,0.9999460451114872,0.008121164203791172,-0.004610963641933726,0.004548908898115765
2565.683333338391,-0.009654508,-0.7764144,0.0071503962,-2.3411279,0.014611534,1.5551134,0.79802555,0.03999997,0.04,0.01794085623723074,-0.013765560694496519,-0.0005296153130052161,0.04624669788199517,0.0100823363885498,0.026590998748501758,0.9999406097427519,0.008522550145192792,-0.004825788324670145,0.00478067917369574
2565.700000005058,-0.010148412,-0.77600986,0.007508137,-2.3403647,0.015341821,1.5543162,0.7986304,0.03999997,0.04,0.017329483146677482,-0.013924102590320668,-0.000729685750022746,0.04763495130646509,0.010857713264426243,0.027419490579471375,0.9999347338991674,0.008935987411409805,-0.0050476612416510466,0.005019679967269551
2565.716666671725,-0.010657368,-0.775593,0.007876787,-2.3395777,0.016094375,1.5534945,0.7992537,0.03999997,0.04,0.019069887137801445,-0.014118225922538953,-0.000261704379966865,0.04903060951336943,0.011637322349412997,0.02825583638437662,0.9999283939746527,0.009361516137133078,-0.005276206839937928,0.0052659833144557125
2565.7333333383917,-0.011181501,-0.7751638,0.008256437,-2.3387673,0.016869385,1.5526485,0.79989564,0.039999973,0.04,0.01840040661058584,-0.014295136222070536,-0.0003126924573271239,0.05043273076254959,0.01242683527641223,0.02909975091209368,0.9999215626074475,0.009799241982531168,-0.005511527144431696,0.005519651962241471
2565.7500000050586,-0.011720921,-0.77472216,0.008647168,-2.337934,0.017666997,1.5517778,0.8005563,0.03999997,0.04,0.01714480397632112,-0.014450481631248999,-0.0008146565434241637,0.05184049742009242,0.013225840517663442,0.029948531773943386,0.9999142091671791,0.010249176058368704,-0.005754290343025612,0.005780729914756841
2565.7666666717255,-0.012275739,-0.77426773,0.009049064,-2.337077,0.018487398,1.550882,0.8012358,0.03999997,0.04,0.01837918101970093,-0.014649604104050029,-0.0005055578238044589,0.05325318516032308,0.014026978924106592,0.03080500236700499,0.9999063062222082,0.010711347895855676,-0.006004330962269944,0.006049282024247655
2565.7833333383924,-0.012846062,-0.77380073,0.009462197,-2.3361945,0.019330723,1.5499613,0.8019341,0.03999998,0.04,0.021097422088534046,-0.014808407362917886,0.00030642631692057165,0.0546701589558092,0.014833770376989436,0.031666539570096165,0.999897831432242,0.011185725617358916,-0.006260678923426255,0.006325356822389412
2565.8000000050592,-0.013431987,-0.77332115,0.00988664,-2.3352883,0.020197123,1.5490155,0.80265224,0.039999977,0.04,0.018569124455081187,-0.01496908783543121,-0.0005744917493721857,0.05609179475630773,0.015653886585841943,0.03253370614453181,0.9998887447978357,0.011672763265848537,-0.0065242451654454,0.00660899760698633
2565.816666671726,-0.014033605,-0.7728288,0.010322462,-2.3343587,0.021086738,1.5480447,0.80338943,0.039999973,0.04,0.017601168663960998,-0.015129292955568321,-0.0005719843255036494,0.05751287077249072,0.0164805879073274,0.033405413665145024,0.9998790181269919,0.012172074360489706,-0.0067953100494400325,0.006900251915489654
2565.833333338393,-0.014651006,-0.7723236,0.010769729,-2.3334043,0.021999698,1.5470482,0.8041458,0.039999977,0.04,0.019696135617275345,-0.01531005965425148,-0.0003007330590554247,0.058936982969528595,0.017310249460950174,0.03428361734882339,0.999868622196932,0.012683671392398631,-0.007073531221523798,0.007199165373622942
2565.85000000506,-0.015284277,-0.7718054,0.011228499,-2.332425,0.022936134,1.5460259,0.8049213,0.03999998,0.04,0.019487859075462133,-0.01546728969606271,-0.0003908275798991667,0.060362972711808696,0.018148088416348365,0.035165741093883235,0.9998575243995389,0.013207488238948172,-0.007359102518649078,0.0075057821819950995
2565.8666666717268,-0.015933495,-0.7712741,0.011698826,-2.331421,0.023896143,1.5449779,0.80571634,0.039999977,0.04,0.019827071359124204,-0.015605503716332146,-1.832393976552993e-05,0.06179127368907841,0.018991029733944086,0.03605141309552816,0.9998456912093726,0.013743663147941766,-0.007651862161614762,0.007820134192423868
2565.8833333383936,-0.016598728,-0.7707298,0.012180768,-2.3303924,0.024879849,1.543904,0.8065309,0.03999998,0.04,0.018641112326145404,-0.015781061449582877,-0.000649170530131471,0.06321936605804976,0.019841664554216973,0.03694277343136151,0.9998330851026438,0.014292180110550645,-0.007952303536935795,0.00814225953120203
2565.9000000050605,-0.01728004,-0.7701721,0.012674373,-2.3293393,0.025887355,1.5428039,0.8073652,0.039999984,0.04,0.01860892652572055,-0.01593624698971209,-0.00040346607754759845,0.06464753061789952,0.020694983591524503,0.037837837284802694,0.9998196692624353,0.014853079872089699,-0.008260563401753549,0.008472193727342675
2565.9166666717274,-0.0179775,-0.7696014,0.013179684,-2.3282602,0.02691874,1.5416777,0.8082194,0.039999984,0.04,0.021342473395380424,-0.01608517631295145,6.852039735605331e-05,0.066073623854598,0.02154967653799985,0.03873563805514716,0.99980541443788,0.015426390709010349,-0.008575795678139727,0.008809963613941601
2565.9333333383943,-0.018691167,-0.7690175,0.013696746,-2.3271565,0.027974084,1.5405257,0.8090934,0.039999984,0.04,0.018871709860412977,-0.016210620826465766,-0.0002865030075183128,0.06749747187278693,0.0224162624590376,0.039635958617022626,0.9997902796060382,0.01601204361555709,-0.00889867347415832,0.009155592549578116
2565.950000005061,-0.019421093,-0.7684203,0.014225594,-2.3260276,0.029053466,1.5393474,0.8099874,0.039999984,0.04,0.019765816147421233,-0.01636104550047021,-0.00011529176353608506,0.06891830837994088,0.02328530617004381,0.040540062542987164,0.9997742279279356,0.016610035469195063,-0.00922912629624174,0.009509107246225185
2565.966666671728,-0.02016732,-0.7678098,0.014766262,-2.3248737,0.030156966,1.538143,0.8109013,0.03999999,0.04,0.019529384424421536,-0.01651382174372648,-0.0001773253444081746,0.07033539895524242,0.024160130610432796,0.041447581066034904,0.9997572229575248,0.017220246284743747,-0.009567172449075779,0.009870535622772018
2565.983333338395,-0.02092989,-0.76718575,0.015318782,-2.3236945,0.031284656,1.5369121,0.81183517,0.039999988,0.04,0.0193880608048147,-0.01666331241657326,-0.0001976549330207078,0.07174857850975587,0.02503923025809395,0.04235742668696293,0.9997392221456766,0.017842700898147306,-0.009913130136675453,0.01023990132325683
2566.000000005062,-0.021708848,-0.7665483,0.015883178,-2.32249,0.032436572,1.5356547,0.8127892,0.039999988,0.04,0.019618440779511914,-0.016774263787782545,-0.00019012024574660558,0.07315705021560781,0.025920734925557132,0.04326852732995866,0.9997201868163259,0.018477397656723238,-0.010266870682911893,0.010617213106379801
2566.0166666717287,-0.02250421,-0.7658976,0.016459478,-2.32126,0.03361275,1.5343708,0.8137633,0.03999999,0.04,0.020212760545113007,-0.01693016055785701,-0.00016951045207491688,0.0745595074047701,0.02680731186464362,0.04417927007899271,0.999700080377915,0.019124225059677143,-0.010628205613179474,0.011002479434252786
2566.0333333383956,-0.023316018,-0.7652333,0.017047701,-2.3200047,0.034813255,1.5330602,0.8147575,0.039999995,0.04,0.019343456004561332,-0.01705574217739786,-0.00021626671453667257,0.07595620140695802,0.027696585944156277,0.04509601955556056,0.9996788579070662,0.01978312232716994,-0.010997572891106257,0.011395723545115507
2566.0500000050624,-0.024144288,-0.7645555,0.017647866,-2.3187237,0.03603811,1.5317228,0.81577194,0.04,0.04,0.02023649003888295,-0.017195119449252977,-0.00014632711022866118,0.07734607586066462,0.028588328947895016,0.04601248658171506,0.9996564800710447,0.020454064498025216,-0.011374756147332835,0.011796949608627184
2566.0666666717293,-0.024989039,-0.7638643,0.018259982,-2.317417,0.037287354,1.5303589,0.81680655,0.04,0.04,0.020340968515553115,-0.01732402710139941,0.00014646808086382634,0.0787282628276999,0.0294841531206085,0.04692922296106383,0.9996329072446567,0.021136977861669192,-0.011759598490237545,0.012206177281162963
2566.083333338396,-0.02585028,-0.7631596,0.018884059,-2.316085,0.038560968,1.5289685,0.8178613,0.04,0.04,0.01910250582095596,-0.017408406564010243,-0.00022777844030930083,0.080102061622191,0.030384265004100047,0.04784596836498798,0.9996080933309399,0.021831759215595225,-0.01215253871943402,0.012623384629637411
2566.100000005063,-0.026728027,-0.7624413,0.0195201,-2.3147278,0.039859,1.5275515,0.8189364,0.04,0.04,0.01980450858647398,-0.017547034530144764,0.00016433327558740274,0.08146752082424275,0.031285149298257736,0.04876534132638993,0.9995819961265785,0.02253841646197119,-0.012553362522146616,0.013048597333768508
2566.11666667173,-0.027622277,-0.7617095,0.020168116,-2.3133447,0.04118144,1.5261081,0.8200316,0.04,0.04,0.020331857417077437,-0.01767509986043206,0.00022023765571255183,0.08282301751535727,0.032189194598302294,0.049682645577470916,0.9995545777963494,0.02325673489164267,-0.012961912878651208,0.013481806372590407
2566.133333338397,-0.028533028,-0.76096433,0.0208281,-2.311936,0.042528242,1.5246383,0.8211469,0.04,0.04,0.020393734646417805,-0.017746799237851676,0.00020856184139717016,0.08416903287991288,0.03309788642745116,0.050595469265773144,0.9995257949791306,0.023986658528468617,-0.013378183754505802,0.013922987589097654
2566.1500000050637,-0.029460281,-0.7602055,0.021500051,-2.3105018,0.04389946,1.5231415,0.82228255,0.04,0.04,0.01919033619033339,-0.017903098386131897,-0.00018647565291907142,0.08550463639585432,0.034010551758196166,0.05151334825163546,0.9994955929429666,0.024728191188406346,-0.01380279675482568,0.014372162324507682
2566.1666666717306,-0.030404016,-0.75943327,0.02218396,-2.3090425,0.04529507,1.5216177,0.8234384,0.04,0.04,0.019417229753670995,-0.018012418514072592,-0.00039425692970329607,0.08682872783122483,0.034923291944241895,0.05243134053024673,0.9994639290918419,0.025481174310110117,-0.014235716067619664,0.014829315160093077
2566.1833333383975,-0.03136422,-0.75864756,0.022879822,-2.307557,0.046715032,1.5200675,0.82461447,0.04,0.04,0.020756469288141233,-0.018108515002760936,0.0005108269035769553,0.08814071649983216,0.03583365500371712,0.05334748735086047,0.9994307681996129,0.02624550637120413,-0.014676281591723074,0.015294434605144137
2566.2000000050643,-0.03234088,-0.75784856,0.023587622,-2.306047,0.048159312,1.518491,0.8258107,0.04,0.04,0.018995023100032427,-0.018176238661651162,9.246854881794775e-06,0.08944030754807315,0.03675109940358472,0.054262842752366286,0.99939605894218,0.027021079796833433,-0.015124965045845613,0.015767499795901654
2566.216666671731,-0.033333972,-0.7570361,0.024307335,-2.304511,0.0496279,1.5168879,0.82702696,0.04,0.04,0.020249886366929815,-0.01830641706432115,0.00018963523431558826,0.09072686037633193,0.03766801054883944,0.055176680600412684,0.9993597586918612,0.02780774949863621,-0.015581643209952731,0.01624851285636541
2566.233333338398,-0.034343455,-0.7562103,0.025038943,-2.3029497,0.051120747,1.5152581,0.8282635,0.04,0.04,0.02004763549887656,-0.018410501657028372,3.6979327600050738e-06,0.09200025736185037,0.03858716679288579,0.05608961391601362,0.9993218186761239,0.028605496482037286,-0.016046373790652182,0.016737448342891054
2566.250000005065,-0.03536931,-0.75537115,0.025782423,-2.301363,0.052637782,1.5136018,0.82952,0.04,0.04,0.019587125701781005,-0.018457143645974478,0.00017912578120782285,0.09325859557076505,0.03950813449246033,0.05699988973255571,0.9992821964068411,0.029414050008892207,-0.01651923995179078,0.01723427740895647
2566.266666671732,-0.03641149,-0.7545185,0.026537757,-2.2997508,0.054178968,1.5119193,0.8307964,0.04,0.04,0.019987842345248197,-0.018578029836613386,0.0005207696440079346,0.09450298219637657,0.040429392696432316,0.05790803643604465,0.9992408481399581,0.030233321216314314,-0.017000061160947353,0.01773898580225103
2566.2833333383987,-0.03746996,-0.75365233,0.027304908,-2.298113,0.055744268,1.5102105,0.8320928,0.04,0.04,0.019921973564418494,-0.01865975842314932,0.0005820910329745743,0.09573243870639662,0.0413523446674407,0.058814648096550876,0.9991977263005652,0.03106320593281901,-0.017488894892534655,0.018251562902773206
2566.3000000050656,-0.03854467,-0.7527726,0.028083844,-2.2964516,0.05733358,1.5084757,0.83340913,0.04,0.04,0.017177875954477173,-0.01867858759298513,-6.988467804447396e-06,0.09694646380555681,0.042277544432266764,0.05971752365826021,0.9991527705620853,0.03190359084626802,-0.01798654256378542,0.018771953969259514
2566.3166666717325,-0.039635584,-0.7518803,0.028874528,-2.2947638,0.05894684,1.5067146,0.83474535,0.04,0.04,0.022097204706028606,-0.018819816843573117,0.0003859456302546249,0.09814367186532064,0.04319630508799088,0.060617586243891755,0.9991059630146741,0.03275431609444652,-0.018491454217953198,0.019300144212178717
2566.3333333383994,-0.040742643,-0.75097436,0.029676922,-2.2930515,0.060583983,1.5049275,0.83610123,0.04,0.04,0.018339463507421883,-0.018842702368267183,0.0004700297593140945,0.09932428212719091,0.04412311588453546,0.06151534009306284,0.9990572376715501,0.03361518395093615,-0.019004847684500187,0.019836104167038918
2566.3500000050662,-0.04186578,-0.75005513,0.030490996,-2.2913144,0.062244896,1.5031143,0.8374769,0.04,0.04,0.019030206650105796,-0.01892965312658562,0.0003213521380995843,0.10048782826082384,0.04504744023710416,0.06240885649804895,0.9990065496642824,0.0344861184643194,-0.019526544744361687,0.0203797794756711
2566.366666671733,-0.043004945,-0.749123,0.03131669,-2.2895525,0.063929535,1.5012753,0.83887225,0.04,0.04,0.019496966710708108,-0.018999975738712843,0.000305960327073862,0.10163343477021697,0.04596887023013119,0.06329942477357006,0.9989538583967463,0.03536694775068409,-0.020056275927658213,0.02093116329704159
2566.3833333384,-0.044160057,-0.7481776,0.032153957,-2.287766,0.06563775,1.4994105,0.84028697,0.04,0.04,0.01880745415685503,-0.019016467014114358,0.0005015438894195867,0.10276060617738797,0.046891840313278,0.0641852091276428,0.9988991180721573,0.03625740392002481,-0.020594276031055455,0.021490192423595258
2566.400000005067,-0.045331053,-0.74721944,0.03300276,-2.2859547,0.067369446,1.4975201,0.8417216,0.04,0.04,0.019763339695977322,-0.019100256611955663,0.00041877826706393506,0.10387018285716176,0.04781251822368919,0.0650669420935536,0.9988422806835964,0.03715761913915746,-0.021140164116740474,0.02205681572254495
2566.4166666717338,-0.04651787,-0.74624836,0.033863045,-2.2841196,0.06912453,1.4956039,0.8431753,0.04,0.04,0.017955401735436638,-0.01912178523862454,6.434934685106697e-05,0.10495859699287073,0.04873398596882304,0.06594511458717005,0.9987833000353957,0.03806707688882332,-0.021694586697396347,0.02263099943825413
2566.4333333384006,-0.047720417,-0.74526423,0.03473475,-2.2822592,0.07090286,1.4936626,0.84464806,0.04,0.04,0.020366330807819466,-0.019181694922619508,0.0012040436643712127,0.10602888589704244,0.0496520697878443,0.06681801675181706,0.9987221507794611,0.038985620331725986,-0.02225662163400457,0.023212706503951668
2566.4500000050675,-0.048938625,-0.7442674,0.03561783,-2.2803745,0.07270439,1.4916958,0.8461401,0.04,0.04,0.019081949991717195,-0.019268417863885223,0.0003359013887038742,0.10708024016443607,0.05057320054436305,0.06768606408892816,0.9986587719180988,0.039913220349215406,-0.02282677862887175,0.02380189676933757
2566.4666666717344,-0.050172396,-0.7432578,0.0365122,-2.2784667,0.074528895,1.4897039,0.8476514,0.04,0.04,0.017182715264629778,-0.01916611994491821,0.0002605779640063588,0.10811090291492823,0.051492753069984756,0.06854973158206717,0.9985931056784112,0.040849815399536686,-0.023405475356709424,0.024398475294487403
2566.4833333384013,-0.05142165,-0.7422355,0.0374178,-2.2765346,0.076376334,1.4876869,0.8491815,0.04,0.04,0.019128670380474944,-0.019296726557824218,0.000683760897701724,0.10911979251587431,0.052408287162377304,0.0694073064839219,0.9985251296330118,0.041794945582819244,-0.02399220121446236,0.025002445800185732
2566.500000005068,-0.052686304,-0.74120057,0.038334575,-2.2745783,0.07824653,1.4856453,0.85073054,0.04,0.04,0.019100072976430127,-0.01927796126408657,0.0009431417618888105,0.1101088850585919,0.053322005424077654,0.07025928043359712,0.9984547982430174,0.042748637189929176,-0.02458672304108435,0.025613725500210016
2566.516666671735,-0.05396625,-0.74015313,0.03926245,-2.2725985,0.0801393,1.483579,0.8522983,0.04,0.04,0.01834836464125189,-0.01927382529135352,0.0006357835468095985,0.11107531339245301,0.054236155347518064,0.07110623481995988,0.9983820658174535,0.043710611654025955,-0.025189336534742524,0.02623223985565024
2566.533333338402,-0.055261392,-0.7390932,0.040201366,-2.2705953,0.08205455,1.4814879,0.8538847,0.04,0.04,0.017895538006262868,-0.019324727771734274,0.0003747088763272899,0.11202022917775761,0.05514887594329908,0.07194660820501583,0.9983068830139981,0.04468067199964847,-0.025800310642994064,0.02685793825408989
2566.550000005069,-0.05657162,-0.7380209,0.041151244,-2.2685685,0.083992094,1.4793725,0.85548943,0.04,0.04,0.018689999511645183,-0.01931849707833555,0.000917788354515281,0.1129430129784549,0.05605633776356157,0.07278069288397435,0.998229224541461,0.04565856000378068,-0.026419108566222836,0.02749075976215685
2566.5666666717357,-0.057896826,-0.7369364,0.042111985,-2.2665186,0.08595182,1.477233,0.8571126,0.04,0.04,0.018077950910644347,-0.019314375019004182,0.0007540193945221318,0.11384391442996171,0.05696385995201268,0.0736091445934191,0.9981490401468732,0.046644183066667545,-0.027045882420374284,0.02813066092401887
2566.5833333384026,-0.059236903,-0.7358396,0.04308353,-2.264446,0.08793352,1.4750698,0.858754,0.04,0.04,0.017297558488760245,-0.01927035521036846,0.0007931844257402787,0.11472174828925255,0.05786931799270807,0.07442936409426157,0.9980662857890141,0.04763732613675681,-0.02768081047318129,0.0287775443950661
2566.6000000050694,-0.060591742,-0.73473084,0.04406579,-2.26235,0.089937046,1.4728824,0.86041343,0.04,0.04,0.018744679116089458,-0.019315908751994793,0.0007262213572500897,0.11557606305675207,0.058771569513315344,0.07524421188137317,0.9979809332654378,0.04863773447839687,-0.02832353618027989,0.029431359494575003
2566.6166666717363,-0.061961222,-0.7336103,0.04505869,-2.2602313,0.09196225,1.4706715,0.86209095,0.04,0.04,0.018327714893340286,-0.019312082128601638,0.0008826647712734115,0.11640727855297306,0.0596713964625961,0.07605135831354427,0.9978929433485095,0.04964527613591335,-0.02897394362124652,0.030092038210633505
2566.633333338403,-0.06334523,-0.7324777,0.046062138,-2.2580907,0.094008885,1.4684371,0.8637861,0.04,0.04,0.016148638362922796,-0.01917952855821914,0.0004361513638251324,0.11721420070420485,0.06057142315462559,0.07685039426869471,0.9978022611380566,0.05065964511728038,-0.029632801682100033,0.03075947153060486
2566.65000000507,-0.06474364,-0.73133326,0.04707604,-2.2559276,0.09607682,1.4661795,0.865499,0.04,0.04,0.017921535088749607,-0.019213701606272948,0.0011559531587934657,0.11799747787940008,0.06146361648439387,0.07764264264554174,0.9977088633178761,0.05168073148037676,-0.030299401822667178,0.03143361735138719
2566.666666671737,-0.06615633,-0.7301771,0.04810031,-2.2537427,0.09816583,1.4638989,0.8672295,0.04,0.04,0.016659799593465863,-0.019137435714408624,0.0007202863857358466,0.11875611177040632,0.06235485582047717,0.07842723732654563,0.997612703245161,0.052708331442442836,-0.030974070777745128,0.032114374661375455
2566.683333338404,-0.06758312,-0.7290094,0.049134873,-2.2515361,0.10027579,1.461595,0.8689771,0.04,0.04,0.01673932907007014,-0.01922612649807587,0.00046758354088627385,0.11948971880822173,0.06323934615279664,0.0792052286919543,0.9975137519299728,0.05374202492509598,-0.031656894701617665,0.032801684185261644
2566.7000000050707,-0.06902396,-0.7278302,0.050179597,-2.2493076,0.10240646,1.4592688,0.8707419,0.04,0.04,0.01743213568494717,-0.019016900362146816,0.0011706431917835047,0.12019974109606522,0.06411893014804065,0.07997279388704587,0.9974119826994361,0.05478175023557918,-0.032347339643281445,0.03349546576342264
2566.7166666717376,-0.070478685,-0.72663975,0.0512344,-2.2470574,0.104557626,1.4569203,0.8725238,0.04,0.04,0.0174094280399828,-0.019014478748749508,0.0009762446085526122,0.12088468195967855,0.06499598880217211,0.08073212530540877,0.9973073621385719,0.05582731948462554,-0.03304534845056601,0.03419562500007717
2566.7333333384045,-0.07194714,-0.7254379,0.05229919,-2.2447863,0.10672911,1.4545494,0.8743226,0.04,0.04,0.015992078197291093,-0.018961469167749767,0.0008497352497638389,0.1215438263951411,0.06587132934650203,0.08148441230120261,0.9971998400187786,0.05687851281515773,-0.0337514269648494,0.03490207765011848
2566.7500000050713,-0.07342918,-0.7242249,0.053373866,-2.2424934,0.10892069,1.4521567,0.87613803,0.04,0.04,0.017657704598095236,-0.018943172936419783,0.0011738141784567446,0.12217680760574881,0.06673874898063324,0.08222651488145341,0.9970894126812706,0.057935005238607694,-0.034464889043131566,0.03561474006876612
2566.766666671738,-0.07492468,-0.723001,0.054458305,-2.2401798,0.111132115,1.4497421,0.8779698,0.04,0.04,0.01627592328552474,-0.018767067100967927,0.000811180515158938,0.12278477695866691,0.067607310381554,0.08296122864663963,0.9969760382860636,0.0589965502073678,-0.0351861167374839,0.03633350156523762
2566.783333338405,-0.07643345,-0.7217662,0.055552408,-2.237846,0.11336324,1.4473064,0.87981784,0.04,0.04,0.01577206041090129,-0.018757333459987202,0.001130500306167903,0.12336748405083223,0.06846800013654983,0.08368550406591577,0.9968596858252894,0.060062978788607266,-0.03591499377981097,0.03705831319880661
2566.800000005072,-0.077955395,-0.7205207,0.056656074,-2.235492,0.115613796,1.4448494,0.88168204,0.04,0.04,0.015592679464404569,-0.018605008401595402,0.0006992091561741631,0.12392468784950028,0.06932530391489305,0.0844014618550675,0.9967403196548189,0.061134106738381495,-0.03665166713508618,0.03778903893893475
2566.816666671739,-0.07949034,-0.7192644,0.057769183,-2.2331173,0.117883556,1.4423712,0.88356215,0.04,0.04,0.016704062575945144,-0.018559372416004916,0.0012336122713341169,0.1244551140090421,0.0701765702341595,0.085105532031436,0.9966179289219006,0.06220964110481317,-0.03739574876722714,0.0385256055003712
2566.8333333384057,-0.081038155,-0.7179977,0.058891628,-2.2307231,0.12017228,1.4398726,0.88545793,0.04,0.04,0.01539244156973929,-0.018381994760616194,0.0009459873386630235,0.12495971672006616,0.07102468282951262,0.08580182116245297,0.9964924819574006,0.06328937422592576,-0.03814735316735139,0.03926789985211371
2566.8500000050726,-0.08259864,-0.71672034,0.06002329,-2.2283092,0.122479744,1.4373535,0.8873695,0.04,0.04,0.015405799895784611,-0.01832777782764805,0.0012660711221412768,0.1254379111549304,0.07186508361828628,0.08648836669192819,0.9963639409573197,0.06437319880756756,-0.038906574762906515,0.040015832810257744
2566.8666666717395,-0.08417163,-0.7154328,0.06116406,-2.225876,0.124805756,1.434814,0.88929635,0.04,0.04,0.01494704479947373,-0.018270659517578836,0.0006779098234765968,0.12588872484807784,0.07270058569994708,0.087165466248068,0.9962322908189997,0.06546070957082273,-0.03967343419485447,0.04076931261621846
2566.8833333384064,-0.08575699,-0.7141353,0.062313825,-2.223424,0.12715001,1.4322544,0.8912382,0.04,0.04,0.015183378374583612,-0.018087749022291377,0.0008630294900724422,0.1263135743310346,0.0735290637702548,0.08783146175973114,0.9960975183030784,0.06655166161637818,-0.040447718048584685,0.041528212954686665
2566.9000000050733,-0.08735453,-0.7128277,0.06347243,-2.2209525,0.12951225,1.4296752,0.893195,0.04,0.04,0.015615876974317544,-0.01791415082014053,0.0012546816991365617,0.12671216867589535,0.07435204145217955,0.08848641576568107,0.9959596084453595,0.06764585762495408,-0.041229185971898855,0.04229244040777767
2566.91666667174,-0.08896409,-0.7115103,0.06463978,-2.218463,0.13189228,1.4270767,0.8951666,0.04,0.04,0.014123632759321936,-0.01783619980775808,0.0008596362126134238,0.12708410450291874,0.07516923174961304,0.08913073217856529,0.9958185218995925,0.06874315286281361,-0.042018135010979694,0.04306189390156538
2566.933333338407,-0.09058552,-0.71018326,0.06581577,-2.2159545,0.13428982,1.4244589,0.89715266,0.04,0.04,0.01542329118420227,-0.01771671711336964,0.001038530995600695,0.12742914630484584,0.07597904360313446,0.08976576169328249,0.995674263321292,0.06984320476007903,-0.04281417111008609,0.04383645583986231
2566.950000005074,-0.09221862,-0.7088465,0.06700023,-2.2134285,0.13670462,1.421822,0.89915305,0.04,0.04,0.013521363335788905,-0.01750144705221779,0.0007893744689901894,0.1277474365467361,0.07678361325369,0.09038916416692522,0.9955267871997915,0.07094583437529894,-0.043617823604265096,0.04461602869464131
2566.9666666717408,-0.09386323,-0.70750046,0.068193056,-2.2108843,0.13913637,1.4191666,0.9011674,0.04,0.04,0.014909234628879275,-0.01734006171617286,0.0011266608476168116,0.12803901633062845,0.07757815921804381,0.0909999276395646,0.995376115642801,0.07205070970759697,-0.0444283697326435,0.045400480188874354
2566.9833333384076,-0.09551914,-0.7061453,0.06939413,-2.208323,0.14158489,1.4164932,0.90319586,0.04,0.04,0.013711496194046546,-0.017236473532766805,0.0009908262526447942,0.12830450012781325,0.07836863749690248,0.09160225347087647,0.9952222089601294,0.07315780785347802,-0.04524599171271762,0.04618971938133907
2567.0000000050745,-0.09718619,-0.7047808,0.07060331,-2.2057447,0.14404991,1.4138019,0.9052379,0.04,0.04,0.013185928900760757,-0.017049826613683983,0.0010936537539585345,0.1285418768261251,0.07915118697827588,0.092190608114943,0.9950650552462647,0.07426674286720852,-0.04607085364501553,0.0469836479646226
2567.0166666717414,-0.0988642,-0.70340735,0.071820445,-2.203149,0.14653106,1.411093,0.9072934,0.04,0.04,0.014352096565994898,-0.016798725928801606,0.0012263609621809834,0.1287524815337572,0.07992513842534962,0.09276908680512341,0.9949046656804267,0.07537727978034946,-0.046902471394778475,0.04778211043157817
2567.0333333384083,-0.10055298,-0.7020251,0.073045425,-2.2005365,0.14902812,1.4083664,0.909362,0.04,0.04,0.013867089939134658,-0.016698085702011867,0.0008597643884833417,0.12893653967615362,0.08069384077268557,0.09333391929766134,0.9947410230723985,0.07648916807250385,-0.04774098602981601,0.04858500218539612
2567.050000005075,-0.10225237,-0.7006342,0.074278094,-2.1979077,0.15154083,1.4056228,0.91144365,0.04,0.04,0.01295756335348841,-0.016430390638558223,0.0009844862271402022,0.12909381564181074,0.08145472994217484,0.09388978176064056,0.9945741091247214,0.07760223875058563,-0.04858644773444463,0.04939221695988074
2567.066666671742,-0.1039621,-0.6992346,0.07551835,-2.195263,0.1540689,1.4028624,0.913538,0.04,0.04,0.012717410064233547,-0.016349077925845168,0.0010008964481222904,0.12922453154625457,0.082206751879649,0.09443270282266998,0.994403922120048,0.07871617559881994,-0.049438847499288924,0.05020362267111011
2567.083333338409,-0.10568207,-0.69782686,0.076766,-2.1926024,0.15661205,1.4000858,0.91564476,0.04,0.04,0.013029420654797619,-0.015996396870060492,0.0010230031330049627,0.12932877249095473,0.08295091335283855,0.09496131904954742,0.9942304688461068,0.07983080213842489,-0.05029778483713665,0.05101912081233402
2567.100000005076,-0.10741202,-0.6964109,0.07802097,-2.189926,0.15916994,1.3972927,0.9177638,0.04,0.04,0.01329652701023143,-0.015927248957114948,0.0009221260587111146,0.12940638776272553,0.08368682973786687,0.09547890169243259,0.9940537482161371,0.08094582992171705,-0.05116331189402677,0.05183853577955042
2567.1166666717427,-0.10915177,-0.69498694,0.07928305,-2.1872344,0.16174234,1.3944839,0.91989475,0.04,0.04,0.012242841362297696,-0.015608143399836738,0.0009281267490557354,0.12945804148583534,0.08441569506782252,0.09598527659907305,0.9938737541255322,0.0820610056074935,-0.052035439496860375,0.05266180072383148
2567.1333333384096,-0.11090113,-0.69355506,0.08055213,-2.1845284,0.1643289,1.3916597,0.92203754,0.04,0.04,0.011648749563741845,-0.015343386503480216,0.0009485973914369339,0.12948365016378635,0.08513619919128633,0.09647645838549676,0.9936904725896655,0.08317622491733832,-0.05291421908176435,0.053488743787780284
2567.1500000050764,-0.112659894,-0.6921155,0.08182808,-2.1818075,0.1669294,1.3888205,0.9241919,0.04,0.04,0.012400341306584295,-0.015229189468327076,0.0011067893032068454,0.12948245414289175,0.08584522901994932,0.09695797081607792,0.9935039262925701,0.08429119109690257,-0.05379925222212417,0.05431927839223633
2567.1666666717433,-0.114427865,-0.6906683,0.08311071,-2.1790726,0.16954352,1.3859664,0.9263574,0.04,0.04,0.011385584806955507,-0.014904846952007444,0.0008589460113173075,0.12945512463818146,0.08654798758737274,0.09742516027480447,0.9933141039114014,0.08540562595891286,-0.0546908139115796,0.055153285477337506
2567.18333333841,-0.11620485,-0.6892137,0.0843999,-2.1763244,0.17217089,1.3830976,0.92853385,0.04,0.04,0.01057995021471747,-0.014589146792193253,0.0005747628467167587,0.1294021239262212,0.08724021468935715,0.09787684636586433,0.9931209973883877,0.08651935696660594,-0.055589035792750756,0.05599057524272565
2567.200000005077,-0.11799065,-0.68775207,0.08569551,-2.1735623,0.17481124,1.3802143,0.9307213,0.04,0.04,0.01177998675125913,-0.01445799203099174,0.0005421769994962133,0.1293236538075972,0.08791920032154206,0.09831949809715052,0.9929246275808427,0.08763222362749425,-0.056493465168843765,0.05683102778203428
2567.216666671744,-0.119785026,-0.6862833,0.086997375,-2.1707861,0.17746429,1.3773175,0.9329196,0.04,0.04,0.012308229258994885,-0.014196188574977509,0.001487253362464358,0.1292184926198211,0.0885900859846493,0.09874548332161949,0.9927250208757498,0.08874408750972594,-0.05740352840886945,0.05767455925727255
2567.233333338411,-0.121587776,-0.6848076,0.08830535,-2.1679976,0.18012972,1.3744073,0.9351278,0.04,0.04,0.009945238147412994,-0.013862904854580749,0.0006769485424218402,0.12908631800139492,0.08925400102156157,0.09916010822565577,0.9925221744353572,0.08985438055518456,-0.05831992207387299,0.05852102390126219
2567.2500000050777,-0.12339869,-0.6833253,0.08961929,-2.1651964,0.18280722,1.3714837,0.9373458,0.04,0.04,0.01069770858177499,-0.013662669691055784,0.0005918042514041488,0.12893083571687897,0.08990502870232019,0.09956237441398867,0.9923161060821637,0.09096296505903514,-0.0592423378609864,0.0593702787795829
2567.2666666717446,-0.12521756,-0.6818364,0.09093904,-2.1623824,0.18549642,1.3685473,0.9395735,0.04,0.04,0.011294901837022309,-0.013353770174165391,0.0010370726901243188,0.12875044235531363,0.09054652126996382,0.09994832506282567,0.9921068462267664,0.09206967334407837,-0.06017034355202609,0.06022217761859056
2567.2833333384115,-0.12704419,-0.68034124,0.09226441,-2.1595566,0.18819708,1.3655987,0.9418107,0.04,0.04,0.009819235024677297,-0.012985060188921982,0.000770347767176105,0.1285457235745,0.09118138533360273,0.10032177883754906,0.9918943799291593,0.09317437213994155,-0.061104182508147656,0.06107662663644066
2567.3000000050783,-0.12887836,-0.6788399,0.093595274,-2.156719,0.1909088,1.3626376,0.9440574,0.04,0.04,0.010373639414273939,-0.012765193389130403,0.0005711545236763982,0.12831555794430638,0.09180361474401372,0.10068051246652196,0.9916787231597536,0.09427691468300983,-0.062043722005960325,0.061933431599909265
2567.316666671745,-0.13071984,-0.6773327,0.09493152,-2.15387,0.19363134,1.359665,0.94631284,0.04,0.04,0.00971803137481686,-0.012515457486772519,0.0007378300524552017,0.12806029111482545,0.0924148863236029,0.10102710038640471,0.9914599173546533,0.09537687966493429,-0.06298877780873835,0.06279249138747202
2567.333333338412,-0.13256839,-0.6758196,0.096272916,-2.151012,0.19636434,1.3566811,0.94857734,0.04,0.04,0.006815774566737431,-0.01202334179412623,0.0002050148431020915,0.1277816907220877,0.09301711154629536,0.10135969404728287,0.9912378863381068,0.09647443955086753,-0.06394019634131375,0.06365364477500655
2567.350000005079,-0.1344238,-0.67430073,0.097619355,-2.1481407,0.1991075,1.353686,0.95085,0.04,0.04,0.013038590620784163,-0.012079448397789294,0.0014166775192947512,0.12747649338462497,0.0936006080068267,0.10167750428930995,0.9910128280164845,0.09756881179886723,-0.06489592717338939,0.06451682189346711
2567.366666671746,-0.13628587,-0.6727763,0.098970644,-2.1452608,0.20186046,1.3506796,0.9531309,0.04,0.04,0.006092601941753983,-0.011411557112611659,-0.0002853744081043885,0.12714961056157387,0.0941812203297149,0.1019820255710187,0.9907845819001794,0.0986602034590581,-0.06585816359478239,0.06538179265075865
2567.3833333384127,-0.13815437,-0.6712468,0.100326605,-2.1423724,0.20462292,1.3476623,0.9554196,0.04,0.04,0.006830242037958456,-0.011148218718320946,-0.0005871619506603309,0.12679916137925962,0.09474124247311179,0.10227230997879697,0.9905531985008071,0.09974831357601303,-0.06682648635341792,0.06624843847381189
2567.4000000050796,-0.14002909,-0.66971207,0.1016871,-2.1394708,0.20739459,1.3446357,0.9577159,0.04,0.04,0.01397838553187647,-0.011123244722749392,0.002385152591433126,0.12642482505612665,0.09528174147655301,0.1025475623712964,0.9903189050571722,0.10083273569303346,-0.06779798069177696,0.06711676029979212
2567.4166666717465,-0.14190973,-0.66817266,0.10305198,-2.1365604,0.21017505,1.3415989,0.9600197,0.04,0.04,0.007778977665617859,-0.010647899810742323,-0.0003681113623921206,0.12602800588029156,0.0958274989866729,0.10280913795369806,0.9900815607143414,0.10191346855619925,-0.06877491913391334,0.06798645864010151
2567.4333333384134,-0.14379616,-0.6666283,0.10442108,-2.1336417,0.21296401,1.3385532,0.9623304,0.04,0.04,0.007057109537145223,-0.010115621243045325,0.0007434759080382491,0.12560818919871042,0.09635842922539735,0.10305450408731687,0.9898412080132795,0.10299028679845386,-0.06975696234491531,0.06885746109459731
2567.4500000050803,-0.14568819,-0.66507953,0.10579422,-2.1307151,0.21576108,1.3354988,0.9646479,0.04,0.04,0.006938059785088768,-0.009711737363454764,0.00022151797576253074,0.12516651415895738,0.09687506432172378,0.10328524273366445,0.989597868445163,0.10406309495828413,-0.07074401852405654,0.0697295839623419
2567.466666671747,-0.1475854,-0.6635264,0.10717124,-2.1277804,0.21856602,1.332436,0.9669719,0.04,0.04,0.007463596278611817,-0.009686324754812348,0.00034397600827684727,0.12470196054586159,0.09737725796512973,0.10350474911906464,0.9893515961246532,0.1051315530757287,-0.07173582589377873,0.07060274128406001
2567.483333338414,-0.14948778,-0.66196907,0.10855198,-2.1248379,0.22137839,1.3293647,0.96930206,0.04,0.04,0.007231896689896544,-0.009090142687623315,0.00012753109548402364,0.12421603674732964,0.09786681916330452,0.1037087028244091,0.9891024094223901,0.10619554308558901,-0.07273242765503068,0.07147673937012614
2567.500000005081,-0.151395,-0.66040784,0.109936245,-2.1218877,0.22419794,1.3262855,0.97163814,0.04,0.04,0.007412500484615947,-0.00886420331064064,0.00016312831805365136,0.12370815527043054,0.09834197211487465,0.10389634766991702,0.9888503619882886,0.10725483042236268,-0.07373346450723157,0.07235149727864462
2567.5166666717478,-0.15330678,-0.65884274,0.1113239,-2.11893,0.22702427,1.3231989,0.9739799,0.04,0.04,0.007152332079796153,-0.008524891163036452,0.0003662933104831012,0.12317957649072472,0.09880458903644809,0.10406965312533616,0.988595493737314,0.10830923030025078,-0.07473881214289568,0.07322684175568603
2567.5333333384146,-0.15522294,-0.65727407,0.11271479,-2.115965,0.22985704,1.3201052,0.97632706,0.04,0.04,0.007907245109883831,-0.008224011421315014,0.00032766680408968796,0.1226299351451409,0.0992543742686933,0.10422853639815569,0.988337866193261,0.10935854177142076,-0.07574807892791781,0.07410263240202701
2567.5500000050815,-0.15714327,-0.65570205,0.114108704,-2.1129947,0.23269588,1.317005,0.9786792,0.04,0.04,0.0042859053985822015,-0.007528872983703083,-0.00021246540866659558,0.12206021406297518,0.09969517082272328,0.10437321145934851,0.9880774381032064,0.1104026972296172,-0.07676206310703977,0.07497870646644059
2567.5666666717484,-0.15906756,-0.6541268,0.1155055,-2.1100202,0.23554055,1.3138987,0.9810362,0.04,0.04,0.0034006254492346955,-0.007229424259036499,-0.00041361834177688905,0.12147082767733863,0.10011721803250462,0.1045030463566361,0.9878142081770575,0.1114416493783145,-0.07778093950313116,0.075854956050241
2567.5833333384153,-0.1609955,-0.65254873,0.116905026,-2.1070385,0.23839062,1.3107861,0.9833975,0.04,0.04,0.008198400729098054,-0.007203779880590733,0.00013132224268019854,0.12085989759530871,0.10051662561342707,0.10461746471652786,0.9875483832439842,0.11247479489573389,-0.07880309630571537,0.07673124056072375
2567.600000005082,-0.16292688,-0.6509676,0.11830706,-2.10405,0.24124575,1.3076682,0.98576313,0.04,0.04,0.007833174397120501,-0.006678983255933857,0.0007541269650745974,0.12023141957342846,0.10090920425052567,0.1047184170662404,0.9872799881585571,0.11350218736913043,-0.0798283229487712,0.07760745646681644
2567.616666671749,-0.16486144,-0.64938384,0.11971146,-2.1010575,0.24410556,1.3045447,0.9881328,0.039999995,0.04,0.0034801790801175514,-0.006182168623375395,-0.0008200021100135402,0.1195841500882252,0.10129461572928869,0.1048035355314825,0.9870089390708139,0.11452376330904004,-0.08085804019127693,0.07848336873674072
2567.633333338416,-0.16679898,-0.6477976,0.12111805,-2.0980604,0.24696973,1.3014165,0.990506,0.039999988,0.04,0.0052867894322350395,-0.00582469507388883,5.6862506903065935e-05,0.11891682260776973,0.10165835920170926,0.1048732603189617,0.986735361151324,0.1155392546852867,-0.0818912235129941,0.07935890115090762
2567.650000005083,-0.16873926,-0.64620906,0.12252665,-2.0950594,0.24983793,1.298284,0.9928826,0.03999998,0.04,0.004174909739118604,-0.005422503764732078,-0.00022874094058877859,0.1182323236470025,0.1020088182474424,0.10492852609962466,0.9864592667666403,0.11654859494636914,-0.0829280341378798,0.08023391539913866
2567.6666666717497,-0.17068203,-0.6446186,0.123937145,-2.0920544,0.25270975,1.2951478,0.9952622,0.03999997,0.04,0.004949445064195146,-0.005098365072370159,-0.00010531233585187039,0.11752964025963233,0.10234393819176699,0.10496879650047758,0.9861807539328149,0.11755151198677657,-0.08396794617083196,0.0811082401361268
2567.6833333384166,-0.17262706,-0.6430265,0.1253493,-2.089046,0.25558499,1.2920077,0.9976446,0.03999996,0.04,0.0042885700638706226,-0.00477390243291409,-0.0006786642224199113,0.1168101636674279,0.1026652857892596,0.104999108965867,0.9858998343104789,0.1185479207996593,-0.08501112020910848,0.0819818066490381
2567.7000000050834,-0.17457415,-0.64143264,0.12676296,-2.0860338,0.25846314,1.2888643,1.0000294,0.03999996,0.04,0.004974111720912333,-0.004277424527351914,-0.000163119918972221,0.11607325244426228,0.10297078761111361,0.10501091368579013,0.9856165958881515,0.11953761812420165,-0.08605711494160426,0.08285443096764605
2567.7166666717503,-0.176523,-0.63983715,0.12817797,-2.08302,0.26134387,1.2857178,1.0024166,0.039999954,0.04,0.0018498202285943677,-0.0037909351911113998,-0.0006859079032750515,0.11531966488364342,0.10326470244846343,0.10500624611033785,0.9853309876439862,0.12052064578016781,-0.0871067653911492,0.08372592282172638
2567.733333338417,-0.17847337,-0.6382405,0.12959415,-2.0800035,0.26422685,1.2825695,1.0048053,0.03999995,0.04,0.004103418543754955,-0.003530350506855684,-5.491346657393592e-05,0.1145489524583658,0.10353666492732153,0.10498687281801133,0.985043194104102,0.12149655313902212,-0.08815876279258117,0.08459625208841413
2567.750000005084,-0.18042503,-0.6366428,0.13101126,-2.0769846,0.2671118,1.2794187,1.007196,0.039999943,0.04,0.003723405011912817,-0.0031498035647725686,-0.0007279110816105216,0.11376360424525137,0.10379743379281282,0.10495394599068093,0.984753190669003,0.12246548961438038,-0.0892134894257999,0.0854652597562363
2567.766666671751,-0.18237779,-0.63504416,0.13242923,-2.0739634,0.2699983,1.2762663,1.0095874,0.039999936,0.04,0.00401215795626797,-0.002764004764915784,-0.000171455139685861,0.11296211200927457,0.10404232210586048,0.10490488515160214,0.9844611207301306,0.12342693261819501,-0.09027035579549898,0.08633282654814865
2567.783333338418,-0.18433137,-0.63344485,0.1338478,-2.0709417,0.27288595,1.2731125,1.0119803,0.03999993,0.04,0.0014780717362050666,-0.002122560384554273,-0.000969537453721081,0.11214791449105743,0.10427666548239274,0.10484140127530706,0.984166898487155,0.12438131837345295,-0.09133009602700355,0.087198722017895
2567.8000000050847,-0.18628557,-0.6318452,0.13526687,-2.06792,0.27577448,1.2699579,1.0143739,0.03999992,0.04,0.0012040967499071797,-0.0018535578560519017,-0.0009612342763754,0.11131735593079432,0.1044894472254205,0.10476363766097019,0.9838706105265385,0.12532830793468566,-0.0923924602000805,0.08806287680141783
2567.8166666717516,-0.18824008,-0.63024503,0.13668619,-2.064898,0.2786634,1.2668025,1.0167679,0.039999917,0.04,0.0014687850739658614,-0.0013352295473029185,-0.0008091201117110813,0.11047173878083655,0.10468442426963323,0.10467022795207702,0.9835723275522166,0.12626771143011956,-0.09345729125220095,0.08892511588700042
2567.8333333384185,-0.19019471,-0.6286448,0.13810565,-2.061876,0.28155252,1.2636471,1.0191618,0.03999991,0.04,0.0016831735905054046,-0.0011209437618120432,-0.0008187852633900761,0.10961289286074452,0.10485961795727032,0.10456260660076971,0.9832721329377001,0.12719935746299674,-0.09452417733178707,0.08978538828169941
2567.8500000050853,-0.19214922,-0.6270448,0.13952504,-2.0588539,0.28444147,1.2604917,1.0215557,0.039999902,0.04,0.0023436775884011496,-0.0007374198082416017,-0.0008453659690266235,0.10874190589579008,0.10501886305521652,0.10443939548709971,0.9829701052484652,0.12812317205234636,-0.095592738321887,0.0906435510733629
2567.8666666717522,-0.19410332,-0.6254451,0.14094424,-2.0558317,0.28732973,1.2573371,1.0239491,0.0399999,0.04,0.002250504366463346,-0.00032618251379901153,-0.0007050744528225295,0.10785725552929908,0.10516288873781748,0.10430294813271399,0.9826663274076222,0.12903904870618377,-0.09666267641364104,0.09149939823174101
2567.883333338419,-0.19605678,-0.6238458,0.14236306,-2.0528097,0.29021704,1.2541835,1.0263417,0.03999989,0.04,0.0019776630433288034,8.7936236592423e-05,-0.0005813156362277638,0.1069611680428917,0.10529542719671006,0.10415236124228236,0.9823608701072273,0.12994674050759417,-0.09773388363948173,0.09235287490039244
2567.900000005086,-0.19800946,-0.62224746,0.14378129,-2.0497887,0.2931031,1.2510316,1.0287334,0.03999989,0.04,0.0016490818171011057,0.0005472968845621207,-0.0008646426442826538,0.10605324255388433,0.10541316743754568,0.10398691583878045,0.9820537715730383,0.13084641256719562,-0.0988061017238765,0.09320386429540817
2567.916666671753,-0.199961,-0.62064976,0.14519876,-2.0467694,0.29598752,1.2478812,1.0311234,0.039999884,0.04,0.00022587494155068555,0.0009436096077508616,-0.001138681452128587,0.10513283738262429,0.10551917626748139,0.10380820590222178,0.9817450659754865,0.13173766798084735,-0.09987988550642174,0.09405222346643236
2567.9333333384197,-0.20191124,-0.6190531,0.14661525,-2.0437539,0.29887,1.2447331,1.0335119,0.039999884,0.04,-0.0023468134735527,0.0016309100729416937,-0.0013889633741159813,0.10420360427468775,0.1056051422686031,0.1036137696133618,0.981434707210469,0.13262083241989858,-0.10095558449113483,0.09489784112932988
2567.9500000050866,-0.2038599,-0.61745787,0.14803064,-2.040739,0.30175012,1.2415873,1.0358987,0.039999876,0.04,0.002545402937226271,0.0015689604996704798,-0.0009681118954496526,0.10326270311878165,0.10566828993715977,0.10340542114395296,0.981122948104846,0.13349555036234673,-0.10203156536259665,0.09574057867575213
2567.9666666717535,-0.20580676,-0.615864,0.14944479,-2.0377278,0.30462754,1.2384444,1.0382831,0.03999987,0.04,-0.0016056835189459662,0.0022725812648477506,-0.00128793999105703,0.10231102712601921,0.10572043026134119,0.10318304973555369,0.9808097341215268,0.13436176760908838,-0.10310881376977378,0.09658029499028893
2567.9833333384204,-0.20775157,-0.6142719,0.15085751,-2.0347204,0.30750188,1.2353048,1.0406649,0.039999865,0.04,-0.0014775259587818113,0.0026168639234047664,-0.0015940328673025306,0.10135052361093375,0.10575232780725798,0.10294655684101678,0.9804951414490743,0.13521939667405275,-0.104187082604385,0.09741685776215399
2568.0000000050873,-0.20969409,-0.61268157,0.15226863,-2.0317154,0.31037283,1.2321692,1.0430442,0.039999865,0.04,0.0007662718335854635,0.002851550718926954,-0.0007379954659381127,0.10038132528004438,0.10576445624993178,0.10269547547458521,0.9801793190800663,0.1360684274286088,-0.10526530034592352,0.09825020126150041
2568.016666671754,-0.21163407,-0.61109346,0.15367794,-2.0287156,0.31323996,1.2290374,1.0454203,0.03999986,0.04,-0.003044661498519119,0.003576459577642188,-0.0019353407490596553,0.09940232272621218,0.10576512529615538,0.1024313398480419,0.9798622042504849,0.136908790804067,-0.10634458667290198,0.09908013205138069
2568.033333338421,-0.21357127,-0.6095076,0.15508527,-2.025719,0.31610307,1.22591,1.0477929,0.039999854,0.04,0.00027337528720750015,0.0035856800764566543,-0.001220791427147816,0.09841460791201746,0.10574253971326152,0.10215302069013454,0.9795440045347289,0.1377401981724655,-0.10742365371466443,0.09990665448341711
2568.050000005088,-0.21550547,-0.60792416,0.15649046,-2.0227265,0.31896165,1.222788,1.0501618,0.03999985,0.04,-0.0012143899410066439,0.004262992051712322,-0.0007894628586857522,0.09742017342523188,0.10570784713983472,0.10186023242259994,0.9792247646171762,0.13856275998037149,-0.10850238925950881,0.10072960553896611
2568.066666671755,-0.21743642,-0.60634345,0.15789336,-2.0197415,0.32181546,1.219671,1.0525267,0.03999985,0.04,-0.005480163874693744,0.0047553042029080395,-0.0023592613195067003,0.09641904594301744,0.1056597314318339,0.10155540275085176,0.9789043543660787,0.13937654093366447,-0.10958231633874935,0.10154880987156563
2568.0833333384217,-0.21936391,-0.60476553,0.1592938,-2.0167594,0.3246641,1.2165594,1.0548874,0.039999843,0.04,0.001291810287140649,0.004707594431424544,-0.0010290980745564227,0.09540984130113361,0.10558296665092412,0.10123562708211539,0.9785831378426317,0.14018115298174647,-0.11066097969882512,0.10236422349079409
2568.1000000050885,-0.22128776,-0.6031904,0.16069159,-2.0137827,0.3275072,1.213454,1.0572433,0.03999984,0.04,-0.0024409093542399063,0.005473648307208201,-0.0011352538842990256,0.09439558631375569,0.10549909671456618,0.1009036459456402,0.978261059532088,0.14097665491455263,-0.11173918059205776,0.10317576116935252
2568.1166666717554,-0.22320762,-0.60161865,0.16208658,-2.0108132,0.33034444,1.2103549,1.0595945,0.039999835,0.04,-0.004338497779032835,0.005804671019199459,-0.002018642587486852,0.09337509679916983,0.10539950322555765,0.10055659808675671,0.9779381013342865,0.1417631751068484,-0.11281737903984278,0.10398322522838131
2568.1333333384223,-0.22512335,-0.6000502,0.16347854,-2.007851,0.3331755,1.2072625,1.0619408,0.039999835,0.04,-0.004264237013495986,0.006299332640163913,-0.0017958828172570662,0.09234954593060951,0.10527699312247413,0.10019918042904205,0.9776143177097666,0.14254077165958878,-0.1138953523055272,0.10478655899854794
2568.150000005089,-0.22703461,-0.5984855,0.16486739,-2.0048962,0.336,1.2041775,1.0642815,0.039999828,0.04,-0.0044679786770362995,0.006536263218870353,-0.0018042372362137016,0.09131753608114394,0.10513288369454787,0.09982599285548681,0.9772898423084576,0.14330916010666644,-0.11497270865347348,0.10558562882852691
2568.166666671756,-0.22894125,-0.5969245,0.16625288,-2.001949,0.3388177,1.2011,1.0666165,0.039999817,0.04,-0.0045373942087589825,0.006966744292308258,-0.0016710636192796002,0.09028124190855827,0.10497032157052105,0.09944083274948907,0.9769647015114225,0.14406843798828814,-0.11604940914204194,0.10638041085695708
2568.183333338423,-0.23084304,-0.5953676,0.16763492,-1.9990083,0.34162804,1.1980305,1.0689455,0.03999982,0.04,-0.002077348157492054,0.00718306617166764,-0.0015009288895750927,0.08924020702897889,0.10478747490821878,0.09904195586221201,0.9766391324524548,0.14481832972525954,-0.11712425093041673,0.10717073379468467
2568.20000000509,-0.23273973,-0.59381497,0.1690133,-1.996074,0.34443092,1.1949689,1.0712681,0.039999813,0.04,-0.0021732369316129763,0.007385841166063223,-0.0016701186245970945,0.08819560048661795,0.10459405157941587,0.09863102528480124,0.9763131976562628,0.14555869555285988,-0.11819721330911331,0.10795658848404305
2568.2166666717567,-0.23463108,-0.5922666,0.17038788,-1.9931481,0.34722584,1.1919159,1.0735846,0.0399998,0.04,-0.005039346083623997,0.008056120708982428,-0.0019354027218865255,0.08714960311737188,0.10438919251447708,0.09820832774182726,0.9759868064790295,0.14628999488677777,-0.11926899402114031,0.1087377489194868
2568.2333333384236,-0.23651688,-0.59072286,0.17175835,-1.9902321,0.35001257,1.1888715,1.0758939,0.039999798,0.04,-0.006740298468566053,0.008639272206723003,-0.0023940711271430715,0.08609936281300161,0.1041641429226728,0.09777355181085484,0.9756599947671402,0.1470119527848024,-0.12033992034849349,0.10951421788928224
2568.2500000050904,-0.23839684,-0.58918375,0.17312467,-1.9873246,0.3527907,1.1858373,1.0781963,0.03999979,0.04,-0.0044534226826264955,0.008705548239285044,-0.0010711528728002406,0.08504725067128673,0.10391527534308743,0.0973247205953185,0.9753329720187143,0.14772464745842084,-0.12140855141590634,0.1102859277946123
2568.2666666717573,-0.2402709,-0.58764935,0.17448671,-1.9844257,0.35555997,1.1828122,1.0804914,0.039999787,0.04,-0.00473875196522755,0.009066912308602904,-0.0019475657077050457,0.08399195048748276,0.10365459613189204,0.09686470513282719,0.9750057566900593,0.14842797357827,-0.12247531719007404,0.1110527251348846
2568.283333338424,-0.24213865,-0.5861203,0.17584424,-1.9815371,0.35832003,1.1797976,1.0827788,0.03999978,0.04,-0.006471843447553027,0.009458377578602795,-0.0019923542056154986,0.08293534624451036,0.10337571812740314,0.0963928165688057,0.9746784092919217,0.1491219478527406,-0.12354005951318603,0.11181456445495859
2568.300000005091,-0.24399994,-0.58459663,0.17719717,-1.9786588,0.3610704,1.1767925,1.0850582,0.03999978,0.04,-0.00653240716919079,0.009754013674306838,-0.0028876354901230528,0.08187712274408308,0.10307965050566359,0.09590758182637289,0.974350963988549,0.14980645831370884,-0.12460318498278794,0.11257117887911369
2568.316666671758,-0.24585459,-0.5830783,0.1785453,-1.97579,0.3638109,1.1737988,1.0873296,0.039999772,0.04,-0.005192826908473336,0.010133069261675232,-0.001163997538355943,0.08081963145848373,0.10276051056014301,0.09541272735117261,0.9740235922039947,0.1504816786234863,-0.12566331665298813,0.11332271209450873
2568.333333338425,-0.24770232,-0.5815656,0.17988844,-1.9729322,0.36654118,1.1708165,1.089592,0.03999976,0.04,-0.007048477797422237,0.010542084409026486,-0.0017802745805539644,0.07976097150491435,0.102429954658941,0.09490679405389009,0.9736963361163424,0.15114727831317412,-0.12672092828055168,0.11406906516600214
2568.3500000050917,-0.24954294,-0.58005863,0.18122648,-1.9700857,0.3692609,1.1678458,1.091846,0.03999976,0.04,-0.00746254904671062,0.010871452026806061,-0.0019312983898123193,0.07870400950077022,0.10208297539197278,0.09438794252156187,0.973369174123509,0.1518037306601154,-0.12777607418625386,0.11481007398890651
2568.3666666717586,-0.25137624,-0.5785579,0.18255924,-1.9672506,0.37196976,1.1648867,1.0940909,0.039999753,0.04,-0.006954418399551798,0.01108140431126392,-0.0024482392207536563,0.07764589172357461,0.10171671615580866,0.0938581373861227,0.9730422449205572,0.152450757301173,-0.12882840601198667,0.11554565332660507
2568.3833333384255,-0.253202,-0.5770634,0.18388654,-1.9644274,0.37466744,1.1619394,1.0963271,0.039999753,0.04,-0.007855562116798609,0.011467375746876396,-0.0024121985882752384,0.07658954626668171,0.10133352672353059,0.09331777917653494,0.9727155342515148,0.15308863284183347,-0.12987809604782313,0.11627570721092538
2568.4000000050924,-0.25501993,-0.5755751,0.18520822,-1.9616162,0.37735364,1.1590056,1.0985534,0.039999742,0.04,-0.007746442847178514,0.011848363718497401,-0.0011373896530608718,0.0755326256071645,0.10092989245675758,0.09276661068235015,0.9723892337998312,0.15371711269679655,-0.1309242053001935,0.1170003406868989
2568.4166666717592,-0.25682995,-0.5740933,0.18652417,-1.9588174,0.38002807,1.1560844,1.1007698,0.03999974,0.04,-0.008275044899708206,0.012072630967219222,-0.002264486937564314,0.0744768134659932,0.10051300571846963,0.09220380937101313,0.9720633431358414,0.15433613922001846,-0.1319672830161611,0.11771936661213761
2568.433333338426,-0.25863162,-0.57261837,0.1878342,-1.9560312,0.38269013,1.1531757,1.1029758,0.03999973,0.04,-0.00822448009016874,0.012327345555490643,-0.0028439029807092453,0.07342450920507947,0.1000777753260376,0.09162988388114833,0.9717379671692568,0.15494565237195912,-0.13300714777485498,0.118432540349291
2568.450000005093,-0.26042494,-0.57115024,0.18913816,-1.953258,0.38533992,1.1502815,1.1051719,0.03999973,0.04,-0.00853239285905083,0.012736767425297613,-0.001194648408997523,0.0723770672452277,0.09962353476965641,0.09104755347653318,0.9714131517561788,0.1555461039865792,-0.13404302145148475,0.11914011301774047
2568.46666667176,-0.26220968,-0.5696892,0.19043592,-1.9504982,0.38797697,1.1474013,1.107357,0.039999727,0.04,-0.008903567143558888,0.012978469405677817,-0.002072504748618087,0.07132984498362863,0.09915622217417314,0.09045420983210865,0.9710889942106381,0.15613710250094986,-0.13507511703516978,0.11984190962895379
2568.4833333384267,-0.26398557,-0.56823516,0.19172727,-1.947752,0.39060077,1.1445351,1.1095315,0.039999727,0.04,-0.009434190888102378,0.01349549659548921,-0.0020916887741861956,0.07028641359007196,0.09867277494078006,0.08984840727228487,0.9707654901763149,0.15671897825823672,-0.1361035723831656,0.12053772239831681
2568.5000000050936,-0.26575246,-0.5667887,0.19301212,-1.9450197,0.39321125,1.1416833,1.1116953,0.03999972,0.04,-0.009278686080271825,0.013489638236141577,-0.002240944628462138,0.0692465422257899,0.09817109066531754,0.08923578637680846,0.9704427296108789,0.15729180080851968,-0.1371279404099676,0.12122757896914353
2568.5166666717605,-0.26751006,-0.5653498,0.19429033,-1.9423019,0.39580807,1.1388466,1.1138474,0.03999972,0.04,-0.009882551742945722,0.01373742090412522,-0.002090722546888024,0.06820889299926143,0.09765248896339287,0.08861272027248823,0.9701208266010046,0.15785525409436157,-0.13814809256304805,0.12191146406708274
2568.5333333384274,-0.2692582,-0.56391877,0.19556172,-1.9395987,0.39839086,1.1360252,1.1159878,0.039999716,0.04,-0.010071983565973497,0.01414097340549092,-0.002136769486749124,0.06717756422003994,0.09711849680799697,0.08798042604147246,0.969799827991388,0.1584095266405267,-0.13916388683985864,0.12258926583115456
2568.5500000050943,-0.2709967,-0.5624955,0.19682612,-1.9369105,0.40095946,1.1332194,1.1181165,0.039999705,0.04,-0.010528127444642266,0.01439624310272114,-0.0019640113311680807,0.06615087134205459,0.09656825585993956,0.08733905191769532,0.9694797533435805,0.1589547813719723,-0.1401752811944744,0.12326100712678335
2568.566666671761,-0.27272543,-0.5610803,0.19808343,-1.9342375,0.4035135,1.1304295,1.1202334,0.039999705,0.04,-0.010565448801447275,0.014725349235067409,-0.00187922824961273,0.06512826058854557,0.09600207667355758,0.08668823710311258,0.9691606766001387,0.15949114626727337,-0.14118201481472623,0.12392657458014035
2568.583333338428,-0.27444416,-0.55967337,0.1993335,-1.93158,0.4060526,1.1276556,1.1223376,0.03999971,0.04,-0.010773655785500935,0.01491973904431676,-0.002323570925866214,0.06410961368637756,0.09541898096112708,0.08602879361981057,0.9688427221021115,0.16001827661054502,-0.14218398075054922,0.12458590047950585
2568.600000005095,-0.27615255,-0.5582747,0.20057616,-1.928938,0.40857655,1.1248987,1.1244293,0.03999971,0.04,-0.010962582409046462,0.015090427135477924,-0.0015570048024882155,0.06309870503848569,0.09482143729862405,0.0853611330243988,0.9685259311429346,0.16053648983407523,-0.14318081988151088,0.12523900731610704
2568.616666671762,-0.2778506,-0.55688477,0.2018113,-1.9263126,0.41108522,1.122158,1.1265085,0.0399997,0.04,-0.011710175333812245,0.015289845289967463,-0.002647063242799952,0.06209238695749898,0.09420908532110497,0.08468488528498552,0.9682102939867491,0.16104585315183398,-0.14417289948854337,0.12588580084249834
2568.6333333384287,-0.27953804,-0.55550355,0.20303875,-1.9237036,0.4135781,1.119435,1.1285744,0.03999969,0.04,-0.011717606173355932,0.015732428757242456,-0.0017009738903395188,0.06109197375147869,0.09357932777041196,0.08399871270007772,0.9678959611499651,0.16154630962673808,-0.14515958088327352,0.1265262593826265
2568.6500000050955,-0.28121457,-0.55413085,0.20425835,-1.9211112,0.4160549,1.1167294,1.1306273,0.03999969,0.04,-0.01226664322238058,0.015926486019801622,-0.0016536532273514482,0.060098063412597755,0.09293559135631835,0.0833055302229761,0.9675829230262786,0.16203807972814127,-0.1461410418723196,0.1271603069609862
2568.6666666717624,-0.28288013,-0.5527673,0.20547009,-1.918536,0.41851553,1.1140414,1.1326665,0.039999694,0.04,-0.01222310743420607,0.015884007956884494,-0.002152580517233993,0.0591100783729787,0.09227588987117206,0.08260529650219796,0.9672712976900438,0.16252095013649415,-0.14711702673886273,0.1277879410400945
2568.6833333384293,-0.28453457,-0.5514129,0.20667371,-1.915978,0.42095965,1.1113714,1.134692,0.039999686,0.04,-0.012502937138014758,0.016338274675725684,-0.002065087325142656,0.05813075180477657,0.09160082769580408,0.08189591110393388,0.9669611097799468,0.16299514778822627,-0.14808744809518165,0.12840911839618271
2568.700000005096,-0.28617764,-0.5500678,0.20786917,-1.9134375,0.42338696,1.10872,1.136704,0.03999968,0.04,-0.012722020137756473,0.01639461764561534,-0.001706707882420666,0.05715775407836496,0.09091084468552486,0.08117930924521383,0.9666524166068531,0.16346092691024477,-0.14905199955631027,0.12902376629923684
2568.716666671763,-0.2878093,-0.54873204,0.20905624,-1.9109149,0.42579713,1.1060871,1.1387016,0.03999968,0.04,-0.013201531777751185,0.016987489081909946,-0.0017817074579706826,0.05619082560229679,0.0902073503408113,0.08045539365191699,0.9663452867982463,0.1639181158963957,-0.15001069645954312,0.12963189773938286
2568.73333333843,-0.28942925,-0.547406,0.2102349,-1.9084104,0.42819,1.1034732,1.1406848,0.039999675,0.04,-0.01321303552850317,0.016721490207183276,-0.0019456678294504925,0.0552316135761586,0.08948778378578057,0.07972460185044644,0.9660397964497027,0.164366799451195,-0.15096329586410476,0.13023344507243276
2568.750000005097,-0.2910372,-0.5460898,0.21140492,-1.9059242,0.43056527,1.1008784,1.1426532,0.03999967,0.04,-0.013283309349265693,0.01693552450476865,-0.0020082968114509825,0.05428060933477892,0.08875589874281498,0.07898766302558963,0.9657360358089314,0.164806832293464,-0.15190965489846567,0.1308284140317902
2568.7666666717637,-0.29263306,-0.5447834,0.21256623,-1.9034569,0.43292275,1.0983028,1.1446072,0.039999664,0.04,-0.014359141935882391,0.017197686616388097,-0.0018986389350716948,0.053339528012172316,0.0880110732873061,0.07824297533294215,0.9654339399253835,0.16523867457427302,-0.15285002137865453,0.13141673801168993
2568.7833333384306,-0.29421672,-0.543487,0.2137187,-1.9010084,0.4352621,1.0957472,1.1465461,0.039999664,0.04,-0.013813984790056466,0.01743570671936534,-0.0015816528392997853,0.0524060352870067,0.08724893743235008,0.07749233151783615,0.965133662939757,0.16566223125728066,-0.15378378887899666,0.13199842451092694
2568.8000000050974,-0.29578796,-0.5422009,0.21486218,-1.898579,0.43758318,1.0932117,1.1484697,0.039999656,0.039999995,-0.014204586732446955,0.017485384484666744,-0.0018674375477978344,0.051480914981914136,0.08647456357461264,0.07673568630905665,0.964835260084469,0.16607746993469386,-0.15471092456816826,0.13257346905428896
2568.8166666717643,-0.29734668,-0.54092485,0.21599662,-1.8961694,0.4398856,1.0906961,1.1503782,0.039999664,0.04,-0.015416459041350805,0.017879324213954106,-0.001702502245981563,0.05056605696339499,0.08568802030336113,0.07597242638991723,0.9645386569241863,0.16648480213212125,-0.1556318353596757,0.13314173568229562
2568.833333338431,-0.29889265,-0.5396595,0.21712184,-1.8937792,0.44216928,1.0882016,1.152271,0.03999966,0.04,-0.013957310109669052,0.017679300429968015,-0.0014209156773192788,0.04965780906909838,0.08488382362014568,0.0752038901002425,0.9642441040714489,0.16688397788297846,-0.15654535202608671,0.13370339729577177
2568.850000005098,-0.3004257,-0.5384046,0.21823768,-1.8914089,0.44443396,1.0857276,1.154148,0.039999656,0.04,-0.01536411663654036,0.018060424201660208,-0.0018518680680923438,0.048759169586759896,0.08407254722460589,0.07442919250025923,0.9639515138909666,0.1672751222573805,-0.1574522498674236,0.1342583381126793
2568.866666671765,-0.30194572,-0.5371601,0.21934412,-1.8890591,0.44667923,1.0832747,1.1560087,0.039999653,0.04,-0.015893438085612388,0.01828908946093777,-0.0012588745400110568,0.04787081849506902,0.08324596109151662,0.07364800119553985,0.9636609694852647,0.16765830761887238,-0.1583522343184219,0.1348065193655661
2568.883333338432,-0.30345258,-0.5359265,0.22044104,-1.8867295,0.44890502,1.080843,1.1578535,0.03999965,0.04,-0.015310064064522066,0.018232540352292048,-0.0017395758545646345,0.046992466662148166,0.08240561454030822,0.07286223210819946,0.9633725219964407,0.16803374252411152,-0.15924505376377046,0.1353479149722362
2568.9000000050987,-0.30494612,-0.53470397,0.2215282,-1.8844206,0.45111108,1.0784329,1.1596819,0.03999965,0.04,-0.01580952452950868,0.0185694897772537,-0.00143969120565135,0.046123880033767925,0.08155239675278132,0.07207170741296026,0.9630862195596748,0.16840152258541802,-0.1601305194057625,0.13588258769985032
2568.9166666717656,-0.30642617,-0.5334925,0.22260568,-1.8821323,0.4532971,1.0760448,1.1614939,0.03999965,0.04,-0.015548290447542357,0.018410252522721438,-0.0013009873472524802,0.045264351054074475,0.08068873687232514,0.07127586207482847,0.9628021667624986,0.16876164559926943,-0.16100834307775713,0.1364104398915992
2568.9333333384325,-0.30789262,-0.5322922,0.22367324,-1.8798654,0.45546302,1.0736785,1.1632891,0.039999645,0.04,-0.016790579116676696,0.01875226466412916,-0.0015637953550085015,0.04441436062161852,0.0798147909889077,0.07047626703256385,0.9625203110193553,0.16911420869448276,-0.16187893875430812,0.13693153209038908
2568.9500000050994,-0.30934533,-0.5311031,0.22473085,-1.8776199,0.4576086,1.0713345,1.1650674,0.039999645,0.04,-0.016604366763539602,0.018747416361569735,-0.00122066581362823,0.0435747003434377,0.07892735308854004,0.06967191169181126,0.9622407286452306,0.16945934450385,-0.16274196164057833,0.13744586067975112
2568.9666666717662,-0.31078407,-0.5299253,0.22577839,-1.8753958,0.4597336,1.0690129,1.1668286,0.03999964,0.04,-0.01671356971861826,0.018789360613991057,-0.0012765515988277798,0.042745605662775826,0.07802810029238735,0.06886262227894877,0.961963494169573,0.16979700012441834,-0.16359729509485052,0.13795339673767615
2568.983333338433,-0.3122087,-0.52875906,0.22681569,-1.8731933,0.46183783,1.066714,1.1685724,0.039999638,0.04,-0.016649853563066586,0.018930448532639144,-0.001199908937610239,0.041926849553700005,0.07711728691852518,0.06804920264496522,0.9616886776938577,0.1701272549391756,-0.1644446518167808,0.13845418307569507
2569.0000000051,-0.3136191,-0.52760446,0.22784272,-1.8710127,0.463921,1.0644386,1.170299,0.039999638,0.04,-0.017125250141569737,0.019009217255733235,-0.0008370515270916812,0.04111993929981407,0.07619807315353805,0.06723215570765939,0.9614162982038964,0.1704504286533469,-0.16528387403307684,0.13894816984913813
2569.016666671767,-0.3150153,-0.5264616,0.22885947,-1.868854,0.4659831,1.062186,1.172008,0.039999634,0.04,-0.01711222148381708,0.018988155000343454,-0.0012715497814674848,0.04032256303957356,0.07526885460277932,0.06641198813979285,0.9611463995954984,0.17076639313146028,-0.1661150686819328,0.13943536666957557
2569.0333333384337,-0.31639704,-0.52533054,0.22986573,-1.8667183,0.46802387,1.0599566,1.1736995,0.039999634,0.04,-0.018346524882506543,0.01926953222896044,-0.001274289453356836,0.0395364195147979,0.07433085494873304,0.06558830678827143,0.9608789176620308,0.1710754697030823,-0.1669385156137899,0.1399157648843706
2569.0500000051006,-0.31776422,-0.5242113,0.23086138,-1.864605,0.47004306,1.0577509,1.175373,0.039999634,0.04,-0.017711164972222804,0.019373813245232574,-0.0006162608997106744,0.03876036905999085,0.07337893396582923,0.06475997639948503,0.9606140052634878,0.17137758639317338,-0.1677535747247896,0.14038943671353843
2569.0666666717675,-0.31911665,-0.5231041,0.23184639,-1.8625145,0.47204053,1.0555685,1.1770285,0.039999634,0.04,-0.018266827132507046,0.019225256578164762,-0.0014895843562623412,0.037994732241070826,0.07241841533292619,0.06392935082014958,0.9603516260853757,0.17167284889987558,-0.16856068630362026,0.14085624678596054
2569.0833333384344,-0.3204543,-0.5220091,0.23282072,-1.8604468,0.47401598,1.0534103,1.1786659,0.039999627,0.04,-0.017939824696977524,0.01938765039625756,-0.0006348065001660075,0.037241242370693275,0.07144520713003191,0.06309533100415271,0.9600919276945,0.17196135830397954,-0.16935907337649572,0.1413162619487368
2569.1000000051013,-0.3217771,-0.5209263,0.2337842,-1.8584025,0.47596952,1.0512761,1.1802853,0.039999627,0.04,-0.018726394077006603,0.01945490419368867,-0.0009526568154338833,0.036498597232019675,0.07046612899741249,0.062259882850566335,0.9598347996086343,0.17224344663710797,-0.17014918912820431,0.1417695524075501
2569.116666671768,-0.32308474,-0.5198559,0.23473677,-1.8563812,0.47790077,1.0491662,1.1818861,0.039999623,0.04,-0.018177116757378542,0.019303224160005517,-0.0008372785642807301,0.03576477068335612,0.069475294116661,0.06142156372098566,0.9595804398269795,0.17251875690755394,-0.1709305229607825,0.14221608325673352
2569.133333338435,-0.32437736,-0.5187978,0.23567836,-1.8543833,0.47980952,1.0470808,1.1834682,0.039999623,0.04,-0.018991462818762628,0.019758095394184494,-0.0005854876105937379,0.03504418568794765,0.06847792721010496,0.06058154480918456,0.9593287858145,0.17278767444725188,-0.17170326087071186,0.14265584626348835
2569.150000005102,-0.32565475,-0.51775235,0.23660891,-1.8524091,0.4816958,1.0450197,1.1850321,0.039999615,0.04,-0.018831840833533064,0.019414800704709023,-0.0009423308555467358,0.03433420557044302,0.06747215640106252,0.059739019525435574,0.9590798556839931,0.1730504023933215,-0.17246730350081077,0.14308884609164949
2569.166666671769,-0.32691678,-0.51671916,0.23752831,-1.8504585,0.48355952,1.0429837,1.186577,0.03999962,0.04,-0.01915465643218539,0.01954441606415447,-0.00020491297618718818,0.03363342492400228,0.06645690605306087,0.05889528792531297,0.9588337257335418,0.17330671603155143,-0.17322251103687109,0.1435152613639941
2569.1833333384357,-0.32816342,-0.5156988,0.23843656,-1.8485316,0.4854005,1.0409727,1.1881026,0.03999962,0.04,-0.01888842178665584,0.019387417166422116,-0.0004922237437643417,0.03294539309235147,0.06543436953218403,0.058049575625878765,0.9585904878632375,0.17355669572622592,-0.1739685351241894,0.1439350503993314
2569.2000000051025,-0.32939443,-0.5146911,0.23933351,-1.8466291,0.48721838,1.0389867,1.1896089,0.039999615,0.04,-0.020057249429727975,0.019699911396064973,-0.0006682782613287586,0.03227000682912601,0.06440765632106371,0.0572010486340985,0.958350082727367,0.17380049318957222,-0.17470583756857577,0.1443481133336094
2569.2166666717694,-0.33060983,-0.5136964,0.2402191,-1.8447505,0.4890132,1.0370259,1.1910961,0.03999962,0.04,-0.01903300909957828,0.01950641960962174,-0.00045885527097944134,0.03160639798355615,0.06337106832636755,0.056351389003072724,0.9581126121826063,0.17403824624544867,-0.1754338388906897,0.14475454878001856
2569.2333333384363,-0.33180958,-0.51271427,0.24109332,-1.842896,0.4907848,1.0350903,1.192564,0.03999962,0.04,-0.019714994586061962,0.01964040055456029,-0.0002668084093659928,0.03095491834912561,0.06233051693953242,0.055501604376910714,0.9578780322366904,0.1742701153439949,-0.1761528272000362,0.1451543444950598
2569.250000005103,-0.3329935,-0.511745,0.24195608,-1.8410662,0.49253315,1.0331802,1.1940128,0.03999961,0.04,-0.020487141519653917,0.01955966169221446,-0.00023253117591437444,0.03031417751219332,0.06128270692687715,0.054650356438316124,0.9576463237616314,0.1744962772474649,-0.17686287147130184,0.14554756098105592
2569.26666667177,-0.33416164,-0.5107889,0.24280743,-1.8392608,0.494258,1.0312959,1.1954424,0.039999615,0.04,-0.019585245272368823,0.019445721859495668,-0.0003068988899013192,0.029684186297703065,0.06022586940884345,0.05379752245141139,0.9574176074502831,0.17471690264740253,-0.17756341143430818,0.14593410771058377
2569.283333338437,-0.33531377,-0.5098455,0.24364719,-1.8374801,0.4959593,1.0294374,1.1968529,0.03999962,0.04,-0.02057720749673031,0.01962161578751842,0.00030331466438493493,0.029064242518311304,0.05916550741803799,0.05294595146255965,0.9571918087985545,0.1749320869251388,-0.1782548199393702,0.14631413226804216
2569.300000005104,-0.3364499,-0.50891536,0.24447526,-1.8357246,0.49763694,1.0276046,1.1982441,0.039999615,0.04,-0.020840943507760556,0.019653608088027186,-0.0005000726317039295,0.02845354297864619,0.05809801323256864,0.05209332860443353,0.956968941037001,0.17514196928272652,-0.17893713377870624,0.1466875544869114
2569.3166666717707,-0.33756995,-0.50799847,0.24529171,-1.8339934,0.4992909,1.025798,1.1996146,0.039999615,0.04,-0.019643511165678973,0.019289469434796702,0.00017802986944648325,0.027853089541691557,0.057021288199813946,0.05124174506915595,0.9567492650937411,0.17534592424230105,-0.1796095488093899,0.1470546176448977
2569.3333333384376,-0.33867392,-0.50709486,0.2460964,-1.8322875,0.500921,1.0240173,1.2009658,0.03999962,0.04,-0.020919585476297797,0.019614535103279485,-0.00012090837111511377,0.02726720415856853,0.05594612976262308,0.0503888666388377,0.9565325758046771,0.17554479043745266,-0.18027265057278782,0.14741516010981315
2569.3500000051044,-0.33976164,-0.5062045,0.24688941,-1.8306065,0.50252724,1.0222627,1.2022972,0.039999615,0.04,-0.020412339886366482,0.01920003773819845,-1.8975061721882014e-05,0.02669035151967889,0.05486426913230087,0.04953659470958399,0.956318967655652,0.1757384056050961,-0.18092622918695717,0.14776922714014318
2569.3666666717713,-0.34083322,-0.5053275,0.24767059,-1.8289506,0.50410944,1.0205342,1.2036088,0.03999961,0.04,-0.020897868158753496,0.01953685630998181,-3.304582827379221e-05,0.026124957857424254,0.05377812187116729,0.04868459876663982,0.9561084282809682,0.17592694794307387,-0.18157030670801277,0.1481168662897302
2569.383333338438,-0.34188837,-0.5044639,0.24843992,-1.8273197,0.5056675,1.0188321,1.2049001,0.039999615,0.04,-0.02052453992122949,0.019233747580815752,0.00031076667159624094,0.025570106471510094,0.05268701501602013,0.047833610816065845,0.9559010651439932,0.17611030426615415,-0.18220455433137167,0.14845812463037553
2569.400000005105,-0.3429273,-0.50361377,0.24919741,-1.8257145,0.5072013,1.0171564,1.2061716,0.039999623,0.04,-0.021437550248570858,0.01951340672660673,0.00015358882246019334,0.025027217024376436,0.05159484431690345,0.04698382721365095,0.9556967803901951,0.1762888812026776,-0.18282929225319092,0.1487929575293152
2569.416666671772,-0.3439497,-0.50277686,0.24994299,-1.8241346,0.5087113,1.0155069,1.2074232,0.03999962,0.04,-0.021245447817808127,0.018870072590193576,0.0002517817734304373,0.024493571748285002,0.05049745548702251,0.04613557145041624,0.95549557929457,0.17646252525799733,-0.18344460897911077,0.1491215965734196
2569.433333338439,-0.3449557,-0.50195336,0.25067657,-1.8225797,0.51019657,1.0138838,1.2086546,0.039999615,0.04,-0.020847862422002095,0.019580661516394038,0.00044414921620550274,0.02397181272907818,0.049395369018057286,0.04528666254503735,0.9552975758721515,0.17663147158999035,-0.18405003864233868,0.14944379563066207
2569.4500000051057,-0.34594518,-0.5011432,0.2513983,-1.8210505,0.51165754,1.0122876,1.2098658,0.03999961,0.04,-0.021635504967587593,0.01897898645971674,0.000696418390155884,0.02346045698718103,0.04829154962866711,0.04444144341336137,0.9551027445241802,0.17679567699405033,-0.18464574861476318,0.1497597526610124
2569.4666666717726,-0.34691837,-0.50034654,0.25210795,-1.8195468,0.5130942,1.0107176,1.2110567,0.03999961,0.04,-0.02137863375208937,0.019396778601499243,0.0003116710799444533,0.02295957679220513,0.04718550037984524,0.043596626290651974,0.954911042288033,0.17695535824489228,-0.1852318540681508,0.15006952636454723
2569.4833333384395,-0.34787515,-0.4995635,0.25280565,-1.8180687,0.5145066,1.0091746,1.2122271,0.039999615,0.04,-0.02140763502307408,0.01890953336733947,0.0007131907980184593,0.02246891733565929,0.04607537099473359,0.042753379011813794,0.9547225599123442,0.1771104520478883,-0.18580800137712972,0.1503732289805915
2569.5000000051064,-0.34881526,-0.49879387,0.25349137,-1.8166157,0.51589465,1.0076584,1.2133777,0.039999615,0.04,-0.020845065886998526,0.01860715028951243,0.0008184019827828237,0.021989684625662982,0.04496545397125599,0.04191196074054297,0.9545373005777862,0.17726122385194487,-0.18637410636693477,0.1506708093829399
2569.5166666717732,-0.3497388,-0.4980379,0.25416502,-1.8151891,0.5172582,1.0061693,1.2145077,0.03999961,0.04,-0.022550875459392827,0.019013216841345937,0.0008587418326433394,0.021519325811863416,0.04385656844371682,0.04107256096427262,0.9543552177899726,0.17740768010619892,-0.18693047731477494,0.15096234619023788
2569.53333333844,-0.35064593,-0.49729547,0.25482664,-1.8137871,0.5185973,1.0047058,1.2156177,0.03999961,0.04,-0.020340910967187043,0.01875728647059982,-6.272098200810206e-05,0.021058321015728954,0.04274510302316221,0.04023470569285494,0.9541763640783475,0.17754985029361103,-0.18747708443293956,0.15124767670105035
2569.550000005107,-0.3515363,-0.49656653,0.25547627,-1.8124117,0.5199118,1.0032696,1.2167072,0.03999961,0.04,-0.022948250149346094,0.018613482055573893,0.0011064969268836933,0.020609200337500314,0.04163300249976525,0.03940081422548919,0.9540006783992225,0.1776879219532988,-0.18801404820661066,0.15152698004878137
2569.566666671774,-0.3524102,-0.49585116,0.2561139,-1.8110614,0.52120197,1.00186,1.2177765,0.039999604,0.04,-0.021048002759505025,0.018478548463973787,0.0008830799981263127,0.02016970353900737,0.040517706555655085,0.03856900423066943,0.953828255933431,0.1778218999715689,-0.1885409336573783,0.15180035049068447
2569.5833333384408,-0.35326755,-0.49514925,0.25673944,-1.8097368,0.5224675,1.0004771,1.2188256,0.03999961,0.04,-0.02199364278538951,0.018694047632084043,0.0008483906749123804,0.0197401554485871,0.03940421729438339,0.03774072778761515,0.9536590270824652,0.17795197383996753,-0.18905809686287858,0.15206771873468675
2569.6000000051076,-0.35410833,-0.49446097,0.25735292,-1.8084376,0.52370876,0.99912083,1.2198545,0.03999961,0.04,-0.021158845999291742,0.01818499234875759,0.0008920909403187238,0.019319994438363346,0.038290115947712866,0.03691527305736213,0.9534930500106352,0.17807814187952178,-0.18956521063969495,0.15232928110275254
2569.6166666717745,-0.35493255,-0.49378625,0.2579544,-1.8071638,0.5249256,0.9977914,1.2208631,0.03999961,0.04,-0.021620207500294697,0.0181983831225474,0.0010598700952879625,0.01890941435489122,0.03717785255294112,0.03609327315736427,0.9533303254720442,0.17820048755569076,-0.19006233934237773,0.1525850056001023
2569.6333333384414,-0.35574022,-0.49312502,0.2585439,-1.8059158,0.5261181,0.99648863,1.2218513,0.039999608,0.04,-0.02201027452297666,0.018018213902804003,0.000998550325626013,0.018507401643443704,0.03606755210536075,0.03527403691303651,0.9531708219942837,0.17831901122726096,-0.1905497030406728,0.15283496002153693
2569.6500000051083,-0.3565315,-0.4924773,0.25912142,-1.8046935,0.5272861,0.9952124,1.2228196,0.039999604,0.04,-0.021926941596817073,0.018287699218266784,0.0010335815745277088,0.018116343371601142,0.03495849541762676,0.0344580825398648,0.953014506889185,0.17843406358014405,-0.19102729379085212,0.15307908949292903
2569.666666671775,-0.35730624,-0.49184301,0.25968698,-1.8034964,0.5284297,0.99396294,1.2237676,0.03999961,0.04,-0.02153162040223755,0.017881703030198093,0.0013454494224740543,0.017732374370585197,0.03384920205831106,0.03364652910620841,0.9528614606106631,0.17854554916692034,-0.1914948376001183,0.15331748409134824
2569.683333338442,-0.3580646,-0.49122232,0.2602406,-1.8023245,0.5295491,0.9927399,1.2246954,0.03999961,0.04,-0.021376382924565007,0.01763271471678096,0.0009666767810223575,0.017357980548881928,0.03274410321439434,0.032839985663972907,0.9527116684301706,0.17865342912901938,-0.19195245375511938,0.15355026732256702
2569.700000005109,-0.35880652,-0.49061507,0.26078227,-1.8011781,0.53064424,0.99154335,1.2256033,0.039999608,0.04,-0.021720838872729686,0.01780078531856688,0.0011906446496734446,0.016993106152767085,0.031642513415225365,0.032036511947712135,0.9525650782131663,0.17875801789667417,-0.19240024856793148,0.15377739481924807
2569.716666671776,-0.3595321,-0.49002117,0.26131204,-1.8000572,0.5317153,0.9903732,1.2264911,0.039999608,0.04,-0.021944416119046295,0.017526567577302865,0.0012685900364184377,0.0166363635298757,0.03054288232477613,0.03123866590132516,0.9524216793766772,0.17885922744915903,-0.19283834439830755,0.15399900759199545
2569.7333333384427,-0.36024138,-0.4894406,0.26182985,-1.7989612,0.5327622,0.98922926,1.2273587,0.039999608,0.04,-0.02122101760595463,0.017544724449058968,0.0013007161282052593,0.016288250327469646,0.029445564572367813,0.03044434330760601,0.9522815162862146,0.17895709892987208,-0.19326654022808107,0.15421515784934844
2569.7500000051095,-0.3609344,-0.48887315,0.26233578,-1.7978907,0.53378516,0.9881115,1.2282066,0.039999608,0.04,-0.022179311923853362,0.01748447669862041,0.0013995228240304414,0.015949043292390927,0.028353545642346642,0.0296541784335922,0.9521444585172006,0.1790519635191569,-0.19368527169873068,0.15442583981286984
2569.7666666717764,-0.3616112,-0.4883191,0.26283005,-1.7968451,0.53478414,0.98701984,1.2290347,0.039999615,0.04,-0.02129713869898353,0.016880704699273608,0.0011926719725829926,0.01561731900960896,0.027261951137021727,0.02886934740682365,0.9520106412561788,0.1791435981596787,-0.19409417647136906,0.15463104744295014
2569.7833333384433,-0.3622718,-0.48777822,0.26331273,-1.7958243,0.53575915,0.9859543,1.2298429,0.03999962,0.04,-0.0213760471943214,0.016839618710912108,0.0014566607608124116,0.015294201439917936,0.026175704633564348,0.028089991079034753,0.9518800457259413,0.17923212231595284,-0.19449330479054766,0.1548308085316043
2569.80000000511,-0.36291644,-0.48725048,0.26378343,-1.7948284,0.53671056,0.9849147,1.2306317,0.03999962,0.04,-0.02133935504819995,0.017335651771188676,0.0015821997054521475,0.014980397543124864,0.02509502372472129,0.027316903250048624,0.9517525433846937,0.17931794659879746,-0.19488276766455054,0.1550254077748624
2569.816666671777,-0.3635451,-0.4867359,0.2642426,-1.7938572,0.5376384,0.983901,1.231401,0.039999615,0.04,-0.021179192167242178,0.016469104380845145,0.0014144332591170539,0.014671470752394966,0.024019152770637542,0.02654828783421148,0.9516282176133397,0.17940082518544848,-0.19526253809849223,0.15521475632224335
2569.833333338444,-0.36415786,-0.48623425,0.26469022,-1.7929107,0.5385428,0.982913,1.2321502,0.03999962,0.04,-0.02143212120375715,0.016575842341015612,0.0016120817930564968,0.014370997969210833,0.02294911721205247,0.02578550922929268,0.9515070579530903,0.1794806222933739,-0.195632781364965,0.15539896956558533
