rsonawane2002/My_IMU/logs_incomplete/traj_483/imu_483.csv
time,j1,j2,j3,j4,j5,j6,j7,gripper1,gripper2,imu_ax,imu_ay,imu_az,imu_gx,imu_gy,imu_gz
2564.6333333383777,0.00016700293,-0.785875,4.0107683e-05,-2.3551247,9.29385e-05,1.570997,0.786,0.04,0.04,-9.51096,0.0075804805383086205,0.11786017,-1.1506628e-07,-0.0011641273740679026,6.671e-07
2564.6500000050446,0.00016699922,-0.78576016,4.0119256e-05,-2.3552213,9.2983544e-05,1.5709941,0.786,0.04,0.04,-9.834519,0.0006398272817023098,0.009058972,3.6418888e-07,-0.0022383921314030886,1.351782e-06
2564.6666666717115,0.0001669504,-0.7856542,4.016232e-05,-2.35531,9.309136e-05,1.5709913,0.786,0.04,0.04,-9.832572,0.0006556163425557315,0.0075614513,4.8601855e-06,-0.0032243593595921993,4.261754e-06
2564.6833333383784,0.00016678325,-0.7855566,4.0289484e-05,-2.355391,9.336961e-05,1.5709884,0.786,0.04,0.04,-9.830594,0.0006889261421747506,0.0063290163,1.6610955e-05,-0.0041306400671601295,1.1193232e-05
2564.7000000050452,0.00016639297,-0.7854667,4.057616e-05,-2.3554645,9.3972594e-05,1.5709856,0.786,0.04,0.04,-9.829307,0.0007458835025317967,0.005022118,3.9512357e-05,-0.004956528078764677,2.389783e-05
2564.716666671712,0.00016564672,-0.7853835,4.111832e-05,-2.3555312,9.5096846e-05,1.5709826,0.7860014,0.04,0.04,-9.827855,0.0008107540779747069,0.0039311065,7.655466e-05,-0.005705398973077536,4.3945733e-05
2564.733333338379,0.00016438623,-0.78530663,4.203015e-05,-2.3555903,9.6977645e-05,1.5709794,0.7860033,0.04,0.04,-9.826345,0.0008938363753259182,0.0029990622,0.00012487845,-0.0063817319460213184,7.277969e-05
2564.750000005046,0.00016243053,-0.7852353,4.3442506e-05,-2.3556457,9.9891615e-05,1.5709755,0.7860052,0.04,0.039999995,-9.825311,0.0009982541669160128,0.002014048,0.0001914328,-0.006983364932239056,0.000112400565
2564.7666666717128,0.00015957835,-0.7851687,4.5500907e-05,-2.3556952,0.000104124825,1.5709689,0.786009,0.04,0.039999995,-9.824691,0.0011141292052343488,0.0011974396,0.00028171454,-0.007533034775406122,0.0001624007
2564.7833333383796,0.00015561053,-0.7851062,4.836402e-05,-2.3557382,0.00011000143,1.5709618,0.78601414,0.04,0.039999995,-9.823936,0.0012482046149671078,0.00044873566,0.00038992224,-0.008032633922994137,0.00022460922
2564.8000000050465,0.00015029176,-0.78504735,5.2202216e-05,-2.3557737,0.00011785989,1.5709513,0.78602016,0.04,0.04,-9.822892,0.0013829637318849564,-0.00026001967,0.00052171835,-0.008466970175504684,0.00029914817
2564.8166666717134,0.00014337273,-0.78499174,5.7195677e-05,-2.355804,0.0001280757,1.5709398,0.78602844,0.04,0.04,-9.8223,0.0015639635967090726,-0.0009342842,0.00068132294,-0.008847728371620178,0.00038753936
2564.8333333383803,0.00013459158,-0.7849386,6.353386e-05,-2.3558292,0.00014104336,1.5709251,0.78603953,0.04,0.04,-9.821838,0.0017707906663417816,-0.0015654892,0.00086524105,-0.009175164625048637,0.000492192
2564.850000005047,0.00012367607,-0.7848874,7.1414026e-05,-2.3558483,0.00015716227,1.5709066,0.7860529,0.04,0.04,-9.821535,0.0019805901683866978,-0.002132067,0.0010737662,-0.009460978209972382,0.00061118655
2564.866666671714,0.00011034442,-0.7848377,8.104017e-05,-2.35586,0.00017684895,1.5708843,0.7860692,0.04,0.04,-9.820992,0.0022033401764929295,-0.0026467876,0.0013112692,-0.009702721610665321,0.0007458898
2564.883333338381,9.430695e-05,-0.7847887,9.262205e-05,-2.3558643,0.00020053098,1.5708578,0.78608876,0.04,0.04,-9.820735,0.0024894122034311295,-0.0031994302,0.0015774062,-0.009896979667246342,0.00089675107
2564.900000005048,7.5267264e-05,-0.7847402,0.00010637426,-2.3558617,0.00022864804,1.5708265,0.78611207,0.04,0.04,-9.82043,0.002786856610327959,-0.0037245085,0.0018731792,-0.01004865299910307,0.0010641493
2564.9166666717147,5.2923337e-05,-0.7846917,0.00012251551,-2.355852,0.0002616548,1.5707892,0.7861394,0.04,0.039999995,-9.820194,0.003116845153272152,-0.0042190407,0.0021984617,-0.010158197022974491,0.0012491763
2564.9333333383815,2.6968784e-05,-0.78464246,0.00014126804,-2.3558347,0.00029998613,1.5707469,0.7861711,0.039999995,0.039999995,-9.819957,0.003445092821493745,-0.0046655256,0.0025533566,-0.010235248133540154,0.001449759
2564.9500000050484,-2.9065163e-06,-0.78459245,0.00016285652,-2.3558095,0.00034410102,1.5706975,0.7862077,0.03999999,0.039999995,-9.82,0.0038696108385920525,-0.005207316,0.0029395968,-0.010273625142872334,0.0016677107
2564.9666666717153,-3.7015503e-05,-0.784541,0.00018750754,-2.355776,0.00039447035,1.5706421,0.7862494,0.039999988,0.039999995,-9.819904,0.004307541064918041,-0.005674729,0.0033558644,-0.010278064757585526,0.0019031244
2564.983333338382,-7.5672986e-05,-0.7844878,0.00021544906,-2.3557346,0.0004515617,1.5705794,0.7862967,0.03999998,0.039999988,-9.819739,0.004760873503983021,-0.006198472,0.0038032793,-0.010247127152979374,0.0021569987
2565.000000005049,-0.00011919493,-0.78443235,0.00024691026,-2.3556843,0.00051584153,1.5705087,0.78635,0.039999977,0.039999984,-9.819966,0.005312157794833183,-0.0067283395,0.004281584,-0.01018616370856762,0.002428558
2565.016666671716,-0.00016789783,-0.7843743,0.00028212045,-2.3556242,0.000587778,1.5704297,0.78640956,0.039999973,0.03999998,-9.819983,0.005885091610252857,-0.007273771,0.0047907517,-0.010094582103192806,0.0027178358
2565.033333338383,-0.0002220982,-0.78431314,0.000321309,-2.355554,0.0006678392,1.570342,0.7864759,0.03999997,0.039999977,-9.820007,0.0065039098262786865,-0.007845529,0.005331304,-0.00997245591133833,0.0030248342
2565.0500000050497,-0.0002821119,-0.7842484,0.0003647048,-2.3554747,0.0007564928,1.5702447,0.7865493,0.039999966,0.039999973,-9.819891,0.0071373493410646915,-0.008468146,0.005902354,-0.00981895998120308,0.003349525
2565.0666666717166,-0.00034825338,-0.78418,0.00041253588,-2.355384,0.00085420377,1.5701376,0.7866303,0.03999996,0.03999997,-9.820293,0.007899748161435127,-0.009113088,0.0065041096,-0.00964414793998003,0.003691863
2565.0833333383835,-0.00042083583,-0.7841075,0.0004650292,-2.3552828,0.00096143474,1.5700203,0.7867191,0.039999954,0.039999966,-9.82028,0.008677469566464424,-0.009791982,0.0071364716,-0.009437641128897667,0.0040508853
2565.1000000050503,-0.00050017046,-0.78403056,0.0005224102,-2.3551702,0.0010786471,1.5698919,0.7868162,0.039999947,0.039999958,-9.820463,0.0095352903008461,-0.010511309,0.007799322,-0.009206609800457954,0.0044282232
2565.116666671717,-0.0005865657,-0.7839488,0.0005849027,-2.3550463,0.0012062961,1.5697525,0.786922,0.039999943,0.039999954,-9.8204565,0.010392244905233383,-0.011287036,0.008491733,-0.008951008319854736,0.0048228772
2565.133333338384,-0.00068032724,-0.783862,0.00065272825,-2.3549094,0.0013448353,1.5696008,0.7870367,0.039999943,0.039999954,-9.820819,0.011417848989367485,-0.012102824,0.009213563,-0.008672311902046204,0.0052347127
2565.150000005051,-0.0007817578,-0.7837698,0.00072610663,-2.3547611,0.0014947125,1.5694368,0.78716093,0.03999994,0.03999995,-9.820922,0.012459504418075085,-0.012959611,0.009965218,-0.008368868380784988,0.0056635453
2565.166666671718,-0.000891157,-0.78367186,0.0008052547,-2.354599,0.0016563692,1.56926,0.78729486,0.03999994,0.039999954,-9.821209,0.013574084267020226,-0.013894675,0.010745137,-0.008046570234000683,0.006108364
2565.1833333383847,-0.0010088201,-0.7835678,0.000890387,-2.3544235,0.0018302443,1.56907,0.7874389,0.039999936,0.03999995,-9.821129,0.014706511050462723,-0.01490764,0.011553719,-0.007698151282966137,0.006570659
2565.2000000050516,-0.0011350391,-0.7834572,0.0009817149,-2.3542345,0.0020167686,1.568866,0.7875934,0.039999936,0.03999995,-9.821518,0.016039881855249405,-0.015947307,0.012390214,-0.007329234387725592,0.007049373
2565.2166666717185,-0.0012701015,-0.78334,0.001079447,-2.3540313,0.002216367,1.5686477,0.78775877,0.039999936,0.039999954,-9.821741,0.0173815730959177,-0.01709042,0.013254151,-0.006941960658878088,0.007543438
2565.2333333383854,-0.0014142912,-0.78321606,0.0011837892,-2.3538144,0.0024294618,1.5684149,0.78793526,0.039999943,0.03999996,-9.821809,0.018752360716462135,-0.018309427,0.014145329,-0.006536660250276327,0.008054337
2565.2500000050522,-0.0015678869,-0.78308487,0.0012949433,-2.3535821,0.0026564621,1.5681669,0.7881233,0.03999995,0.03999997,-9.82224,0.020338116213679314,-0.019556021,0.015062693,-0.006112492643296719,0.008580958
2565.266666671719,-0.0017311623,-0.7829461,0.0014131083,-2.3533342,0.002897775,1.5679032,0.7883232,0.039999958,0.039999977,-9.82245,0.021942075341939926,-0.020921478,0.01600603,-0.005670029204338789,0.009123053
2565.283333338386,-0.0019043873,-0.7827995,0.0015384798,-2.3530703,0.0031537998,1.5676235,0.7885353,0.039999958,0.039999977,-9.822626,0.02363758720457554,-0.02236322,0.016974546,-0.00520867807790637,0.009680364
2565.300000005053,-0.0020878257,-0.7826451,0.0016712497,-2.35279,0.0034249271,1.5673275,0.7887599,0.03999996,0.03999998,-9.822609,0.025351643562316895,-0.02394358,0.017967721,-0.004728508181869984,0.010252608
2565.3166666717198,-0.0022817377,-0.7824826,0.001811606,-2.3524933,0.00371154,1.5670147,0.7889974,0.039999966,0.039999988,-9.822992,0.02730584517121315,-0.025500687,0.018985048,-0.004230099264532328,0.0108386725
2565.3333333383866,-0.0024863777,-0.7823116,0.0019597327,-2.3521802,0.0040140166,1.5666844,0.7892479,0.039999966,0.039999988,-9.82315,0.029293309897184372,-0.027186062,0.020025155,-0.0037123579531908035,0.011439975
2565.3500000050535,-0.002701994,-0.78213173,0.0021158115,-2.3518503,0.004332724,1.5663362,0.78951186,0.039999966,0.039999988,-9.8234625,0.03137612342834473,-0.028970348,0.021089127,-0.0031839946750551462,0.0120554
2565.3666666717204,-0.0029288307,-0.78194326,0.0022800188,-2.3515022,0.0046680234,1.5659698,0.7897897,0.039999966,0.03999999,-9.823532,0.03347471356391907,-0.030918822,0.022175044,-0.002643098821863532,0.012683819
2565.3833333383873,-0.003167127,-0.78174543,0.0024525279,-2.3511364,0.0050202673,1.5655851,0.7900815,0.03999996,0.039999988,-9.823865,0.03585166856646538,-0.03285186,0.023281833,-0.0020839981734752655,0.013326604
2565.400000005054,-0.0034171154,-0.7815384,0.0026335071,-2.3507519,0.0053898017,1.5651816,0.7903876,0.039999966,0.03999999,-9.82408,0.038253284990787506,-0.03495118,0.02440973,-0.0015116267604753375,0.013982634
2565.416666671721,-0.0036790231,-0.78132194,0.0028231225,-2.3503494,0.005776962,1.5647588,0.7907083,0.039999966,0.039999995,-9.824205,0.040752023458480835,-0.03714326,0.025558189,-0.0009219208150170743,0.014650727
2565.433333338388,-0.0039530722,-0.7810955,0.0030215348,-2.3499274,0.006182077,1.5643164,0.7910438,0.03999997,0.04,-9.824266,0.043279051780700684,-0.039470628,0.026725495,-0.0003217949706595391,0.015332323
2565.450000005055,-0.0042394786,-0.78085923,0.003228901,-2.3494866,0.006605479,1.5638542,0.7913944,0.039999977,0.04,-9.824619,0.04610608518123627,-0.041853756,0.027912205,0.0002928466710727662,0.016026178
2565.4666666717217,-0.0045384546,-0.7806128,0.0034453738,-2.3490255,0.0070474716,1.5633717,0.7917606,0.039999977,0.04,-9.82483,0.04894809424877167,-0.044376627,0.029117186,0.0009203763911500573,0.016732069
2565.4833333383885,-0.0048502036,-0.78035605,0.0036711018,-2.3485453,0.0075083664,1.562868,0.79214233,0.039999973,0.04,-9.8246975,0.051817819476127625,-0.047046635,0.030338455,0.0015625172527506948,0.017450359
2565.5000000050554,-0.005174926,-0.7800889,0.0039062304,-2.3480446,0.007988442,1.5623438,0.79253995,0.039999973,0.04,-9.82519,0.05499064922332764,-0.049749628,0.031577088,0.0022109842393547297,0.018178534
2565.5166666717223,-0.005512816,-0.7798111,0.0041508996,-2.3475232,0.0084879855,1.5617985,0.79295367,0.03999997,0.04,-9.825263,0.05819325894117355,-0.05261994,0.032831654,0.0028755678795278072,0.01891779
2565.533333338389,-0.0058640614,-0.7795223,0.004405246,-2.3469815,0.009007269,1.5612314,0.79338384,0.03999997,0.04,-9.825407,0.0615231916308403,-0.055606823,0.03410126,0.0035521318204700947,0.019667793
2565.550000005056,-0.006228842,-0.7792226,0.004669404,-2.3464184,0.009546569,1.5606426,0.7938305,0.03999997,0.04,-9.825384,0.06485991179943085,-0.058774166,0.035385057,0.004236528649926186,0.020428343
2565.566666671723,-0.00660734,-0.77891195,0.0049434993,-2.3458345,0.010106172,1.5600319,0.794294,0.03999997,0.04,-9.825666,0.06856206059455872,-0.06195751,0.03668299,0.004935029894113541,0.021201512
2565.58333333839,-0.0069997255,-0.77859026,0.0052276594,-2.345229,0.010686312,1.5593985,0.7947745,0.03999997,0.04,-9.8258505,0.07225444167852402,-0.065321416,0.037993845,0.005642705596983433,0.021982782
2565.6000000050567,-0.0074061607,-0.7782571,0.0055220034,-2.3446019,0.011287213,1.5587424,0.79527235,0.03999997,0.04,-9.8259325,0.07607625424861908,-0.06877841,0.03931679,0.006361112929880619,0.022772025
2565.6166666717236,-0.007826809,-0.77791226,0.005826647,-2.343952,0.011909141,1.5580634,0.7957874,0.03999997,0.04,-9.825842,0.07992692291736603,-0.07245326,0.04065066,0.0070865764282643795,0.023572253
2565.6333333383905,-0.008261822,-0.7775556,0.0061417026,-2.3432803,0.012552329,1.5573615,0.79632014,0.03999997,0.04,-9.82604,0.08414089679718018,-0.076171085,0.041996174,0.007826905697584152,0.024381977
2565.6500000050573,-0.008711346,-0.7771871,0.0064672786,-2.342586,0.013216986,1.5566356,0.7968706,0.039999973,0.04,-9.826219,0.08835719525814056,-0.08006874,0.04335139,0.008572864346206188,0.025199534
2565.666666671724,-0.009175532,-0.7768068,0.0068034763,-2.3418684,0.013903312,1.5558865,0.797439,0.03999997,0.04,-9.82625,0.09270954877138138,-0.084090516,0.044716205,0.009327554143965244,0.02602452
2565.683333338391,-0.009654508,-0.7764144,0.0071503962,-2.3411279,0.014611534,1.5551134,0.79802555,0.03999997,0.04,-9.825981,0.09708691388368607,-0.08830076,0.046089444,0.010095146484673023,0.02685905
2565.700000005058,-0.010148412,-0.77600986,0.007508137,-2.3403647,0.015341821,1.5543162,0.7986304,0.03999997,0.04,-9.826246,0.10183282196521759,-0.09254956,0.047470268,0.010871448554098606,0.02769962
2565.716666671725,-0.010657368,-0.775593,0.007876787,-2.3395777,0.016094375,1.5534945,0.7992537,0.03999997,0.04,-9.8263645,0.10660091787576675,-0.09698745,0.04885822,0.011652153916656971,0.028548384
2565.7333333383917,-0.011181501,-0.7751638,0.008256437,-2.3387673,0.016869385,1.5526485,0.79989564,0.039999973,0.04,-9.826048,0.11137128621339798,-0.10161408,0.050252464,0.012442870996892452,0.029404884
2565.7500000050586,-0.011720921,-0.77472216,0.008647168,-2.337934,0.017666997,1.5517778,0.8005563,0.03999997,0.04,-9.826275,0.11653507500886917,-0.10630539,0.051652156,0.013243073597550392,0.030266512
2565.7666666717255,-0.012275739,-0.77426773,0.009049064,-2.337077,0.018487398,1.550882,0.8012358,0.03999997,0.04,-9.82639,0.12173022329807281,-0.11117991,0.053056505,0.014045601710677147,0.031136151
2565.7833333383924,-0.012846062,-0.77380073,0.009462197,-2.3361945,0.019330723,1.5499613,0.8019341,0.03999998,0.04,-9.826365,0.12703795731067657,-0.11622618,0.054465007,0.014853973872959614,0.032011095
2565.8000000050592,-0.013431987,-0.77332115,0.00988664,-2.3352883,0.020197123,1.5490155,0.80265224,0.039999977,0.04,-9.825897,0.1323552429676056,-0.121447094,0.055877928,0.015675701200962067,0.032891743
2565.816666671726,-0.014033605,-0.7728288,0.010322462,-2.3343587,0.021086738,1.5480447,0.80338943,0.039999973,0.04,-9.826091,0.13808929920196533,-0.1267223,0.05729016,0.01650422252714634,0.033777084
2565.833333338393,-0.014651006,-0.7723236,0.010769729,-2.3334043,0.021999698,1.5470482,0.8041458,0.039999977,0.04,-9.826143,0.14384350180625916,-0.13220865,0.058705166,0.01733585260808468,0.034669187
2565.85000000506,-0.015284277,-0.7718054,0.011228499,-2.332425,0.022936134,1.5460259,0.8049213,0.03999998,0.04,-9.825961,0.14971832931041718,-0.13783297,0.060121857,0.01817583478987217,0.03556534
2565.8666666717268,-0.015933495,-0.7712741,0.011698826,-2.331421,0.023896143,1.5449779,0.80571634,0.039999977,0.04,-9.825585,0.15558387339115143,-0.14366908,0.061540682,0.019021036103367805,0.03646523
2565.8833333383936,-0.016598728,-0.7707298,0.012180768,-2.3303924,0.024879849,1.543904,0.8065309,0.03999998,0.04,-9.825658,0.16190852224826813,-0.14958699,0.06295915,0.019874082878232002,0.03737089
2565.9000000050605,-0.01728004,-0.7701721,0.012674373,-2.3293393,0.025887355,1.5428039,0.8073652,0.039999984,0.04,-9.825576,0.1682194173336029,-0.155694,0.06437735,0.020730024203658104,0.03828051
2565.9166666717274,-0.0179775,-0.7696014,0.013179684,-2.3282602,0.02691874,1.5416777,0.8082194,0.039999984,0.04,-9.825461,0.17466288805007935,-0.16198322,0.06579335,0.021587619557976723,0.03919304
2565.9333333383943,-0.018691167,-0.7690175,0.013696746,-2.3271565,0.027974084,1.5405257,0.8090934,0.039999984,0.04,-9.824841,0.18108807504177094,-0.16845408,0.06720694,0.022457249462604523,0.040108006
2565.950000005061,-0.019421093,-0.7684203,0.014225594,-2.3260276,0.029053466,1.5393474,0.8099874,0.039999984,0.04,-9.824965,0.1879873126745224,-0.17500798,0.06861737,0.023329632356762886,0.041026805
2565.966666671728,-0.02016732,-0.7678098,0.014766262,-2.3248737,0.030156966,1.538143,0.8109013,0.03999999,0.04,-9.824702,0.19487138092517853,-0.18177313,0.0700238,0.024208033457398415,0.041949
2565.983333338395,-0.02092989,-0.76718575,0.015318782,-2.3236945,0.031284656,1.5369121,0.81183517,0.039999988,0.04,-9.824197,0.20172125101089478,-0.18873523,0.0714262,0.02509094960987568,0.042873606
2566.000000005062,-0.021708848,-0.7665483,0.015883178,-2.32249,0.032436572,1.5356547,0.8127892,0.039999988,0.04,-9.824197,0.20904871821403503,-0.19581063,0.07282365,0.025976620614528656,0.0437995
2566.0166666717287,-0.02250421,-0.7658976,0.016459478,-2.32126,0.03361275,1.5343708,0.8137633,0.03999999,0.04,-9.823869,0.21633368730545044,-0.20307714,0.07421501,0.02686757780611515,0.044724975
2566.0333333383956,-0.023316018,-0.7652333,0.017047701,-2.3200047,0.034813255,1.5330602,0.8147575,0.039999995,0.04,-9.8235655,0.22380231320858002,-0.21050571,0.07560033,0.027761682868003845,0.045656458
2566.0500000050624,-0.024144288,-0.7645555,0.017647866,-2.3187237,0.03603811,1.5317228,0.81577194,0.04,0.04,-9.822959,0.23120173811912537,-0.2181451,0.0769786,0.028658531606197357,0.04658762
2566.0666666717293,-0.024989039,-0.7638643,0.018259982,-2.317417,0.037287354,1.5303589,0.81680655,0.04,0.04,-9.822803,0.23909854888916016,-0.22589856,0.07834915,0.029559772461652756,0.047518924
2566.083333338396,-0.02585028,-0.7631596,0.018884059,-2.316085,0.038560968,1.5289685,0.8178613,0.04,0.04,-9.822366,0.2469506859779358,-0.2338535,0.0797111,0.03046562150120735,0.048449986
2566.100000005063,-0.026728027,-0.7624413,0.0195201,-2.3147278,0.039859,1.5275515,0.8189364,0.04,0.04,-9.822006,0.2549704313278198,-0.24198061,0.081064604,0.031372807919979095,0.049383666
2566.11666667173,-0.027622277,-0.7617095,0.020168116,-2.3133447,0.04118144,1.5261081,0.8200316,0.04,0.04,-9.821282,0.26291000843048096,-0.25032738,0.082407966,0.0322834737598896,0.05031502
2566.133333338397,-0.028533028,-0.76096433,0.0208281,-2.311936,0.042528242,1.5246383,0.8211469,0.04,0.04,-9.821021,0.27134400606155396,-0.25878078,0.0837419,0.03319896385073662,0.051241484
2566.1500000050637,-0.029460281,-0.7602055,0.021500051,-2.3105018,0.04389946,1.5231415,0.82228255,0.04,0.04,-9.820475,0.2797890901565552,-0.26743042,0.085065216,0.03411915525794029,0.052172706
2566.1666666717306,-0.030404016,-0.75943327,0.02218396,-2.3090425,0.04529507,1.5216177,0.8234384,0.04,0.04,-9.819945,0.2883501648902893,-0.27626488,0.0863768,0.035039808601140976,0.0531039
2566.1833333383975,-0.03136422,-0.75864756,0.022879822,-2.307557,0.046715032,1.5200675,0.82461447,0.04,0.04,-9.819192,0.2968297600746155,-0.28528485,0.08767609,0.035958681255578995,0.054033067
2566.2000000050643,-0.03234088,-0.75784856,0.023587622,-2.306047,0.048159312,1.518491,0.8258107,0.04,0.04,-9.818718,0.30583903193473816,-0.2944662,0.08896298,0.036885153502225876,0.054960772
2566.216666671731,-0.033333972,-0.7570361,0.024307335,-2.304511,0.0496279,1.5168879,0.82702696,0.04,0.04,-9.818182,0.3147914707660675,-0.30384737,0.09023673,0.03781156614422798,0.055886682
2566.233333338398,-0.034343455,-0.7562103,0.025038943,-2.3029497,0.051120747,1.5152581,0.8282635,0.04,0.04,-9.817213,0.32367655634880066,-0.31341398,0.09149723,0.03874091058969498,0.05681118
2566.250000005065,-0.03536931,-0.75537115,0.025782423,-2.301363,0.052637782,1.5136018,0.82952,0.04,0.04,-9.816714,0.3330785036087036,-0.3231257,0.09274266,0.039672594517469406,0.057732463
2566.266666671732,-0.03641149,-0.7545185,0.026537757,-2.2997508,0.054178968,1.5119193,0.8307964,0.04,0.04,-9.816001,0.34242475032806396,-0.33304432,0.09397402,0.04060519114136696,0.058651056
2566.2833333383987,-0.03746996,-0.75365233,0.027304908,-2.298113,0.055744268,1.5102105,0.8320928,0.04,0.04,-9.815187,0.3518883287906647,-0.34316733,0.095190436,0.04154006391763687,0.059567522
2566.3000000050656,-0.03854467,-0.7527726,0.028083844,-2.2964516,0.05733358,1.5084757,0.83340913,0.04,0.04,-9.8141,0.36127325892448425,-0.3534783,0.0963913,0.04247790202498436,0.060479585
2566.3166666717325,-0.039635584,-0.7518803,0.028874528,-2.2947638,0.05894684,1.5067146,0.83474535,0.04,0.04,-9.813694,0.3712046146392822,-0.36398682,0.09757528,0.043409962207078934,0.061388522
2566.3333333383994,-0.040742643,-0.75097436,0.029676922,-2.2930515,0.060583983,1.5049275,0.83610123,0.04,0.04,-9.8125925,0.3810441792011261,-0.37458673,0.09874272,0.04435086250305176,0.0622939
2566.3500000050662,-0.04186578,-0.75005513,0.030490996,-2.2913144,0.062244896,1.5031143,0.8374769,0.04,0.04,-9.811745,0.3910030722618103,-0.38547134,0.09989315,0.045289844274520874,0.0631945
2566.366666671733,-0.043004945,-0.749123,0.03131669,-2.2895525,0.063929535,1.5012753,0.83887225,0.04,0.04,-9.810587,0.4008758068084717,-0.3965277,0.10102541,0.04622694477438927,0.064091556
2566.3833333384,-0.044160057,-0.7481776,0.032153957,-2.287766,0.06563775,1.4994105,0.84028697,0.04,0.04,-9.809781,0.4112882614135742,-0.40773675,0.10213933,0.04716621711850166,0.06498277
2566.400000005067,-0.045331053,-0.74721944,0.03300276,-2.2859547,0.067369446,1.4975201,0.8417216,0.04,0.04,-9.808774,0.4216133952140808,-0.41916814,0.103235744,0.04810395836830139,0.0658692
2566.4166666717338,-0.04651787,-0.74624836,0.033863045,-2.2841196,0.06912453,1.4956039,0.8431753,0.04,0.04,-9.807659,0.4320465624332428,-0.43075716,0.10431092,0.04904358461499214,0.06675097
2566.4333333384006,-0.047720417,-0.74526423,0.03473475,-2.2822592,0.07090286,1.4936626,0.84464806,0.04,0.04,-9.806347,0.44236835837364197,-0.44254443,0.10536793,0.049980487674474716,0.0676266
2566.4500000050675,-0.048938625,-0.7442674,0.03561783,-2.2803745,0.07270439,1.4916958,0.8461401,0.04,0.04,-9.805297,0.45324641466140747,-0.45454144,0.106406465,0.0509212426841259,0.068496086
2566.4666666717344,-0.050172396,-0.7432578,0.0365122,-2.2784667,0.074528895,1.4897039,0.8476514,0.04,0.04,-9.804072,0.464013010263443,-0.46670252,0.10742406,0.05186155438423157,0.06936009
2566.4833333384013,-0.05142165,-0.7422355,0.0374178,-2.2765346,0.076376334,1.4876869,0.8491815,0.04,0.04,-9.802672,0.47466084361076355,-0.47906116,0.10842003,0.05279870703816414,0.07021705
2566.500000005068,-0.052686304,-0.74120057,0.038334575,-2.2745783,0.07824653,1.4856453,0.85073054,0.04,0.04,-9.8015585,0.48586273193359375,-0.49163768,0.10939631,0.053734928369522095,0.07106722
2566.516666671735,-0.05396625,-0.74015313,0.03926245,-2.2725985,0.0801393,1.483579,0.8522983,0.04,0.04,-9.800169,0.49695613980293274,-0.5043778,0.11035006,0.054672691971063614,0.07191085
2566.533333338402,-0.055261392,-0.7390932,0.040201366,-2.2705953,0.08205455,1.4814879,0.8538847,0.04,0.04,-9.79874,0.5081342458724976,-0.5173127,0.11128264,0.05561002343893051,0.072746515
2566.550000005069,-0.05657162,-0.7380209,0.041151244,-2.2685685,0.083992094,1.4793725,0.85548943,0.04,0.04,-9.797124,0.5191916227340698,-0.53041595,0.11219288,0.056543223559856415,0.07357479
2566.5666666717357,-0.057896826,-0.7369364,0.042111985,-2.2665186,0.08595182,1.477233,0.8571126,0.04,0.04,-9.795772,0.5308006405830383,-0.5437479,0.113081686,0.05747739598155022,0.074395865
2566.5833333384026,-0.059236903,-0.7358396,0.04308353,-2.264446,0.08793352,1.4750698,0.858754,0.04,0.04,-9.794211,0.5422690510749817,-0.5572595,0.11394759,0.05841051787137985,0.07520717
2566.6000000050694,-0.060591742,-0.73473084,0.04406579,-2.26235,0.089937046,1.4728824,0.86041343,0.04,0.04,-9.792631,0.5538525581359863,-0.5709765,0.11479017,0.0593416765332222,0.07601148
2566.6166666717363,-0.061961222,-0.7336103,0.04505869,-2.2602313,0.09196225,1.4706715,0.86209095,0.04,0.04,-9.790719,0.5652672052383423,-0.5847954,0.11561002,0.060271598398685455,0.076806374
2566.633333338403,-0.06334523,-0.7324777,0.046062138,-2.2580907,0.094008885,1.4684371,0.8637861,0.04,0.04,-9.789144,0.577242910861969,-0.5988918,0.11640589,0.061202775686979294,0.077591285
2566.65000000507,-0.06474364,-0.73133326,0.04707604,-2.2559276,0.09607682,1.4661795,0.865499,0.04,0.04,-9.787468,0.5890904068946838,-0.6131649,0.117178194,0.062127310782670975,0.078368165
2566.666666671737,-0.06615633,-0.7301771,0.04810031,-2.2537427,0.09816583,1.4638989,0.8672295,0.04,0.04,-9.785587,0.6010062098503113,-0.6276303,0.117926255,0.06305219978094101,0.079135254
2566.683333338404,-0.06758312,-0.7290094,0.049134873,-2.2515361,0.10027579,1.461595,0.8689771,0.04,0.04,-9.78359,0.6127829551696777,-0.64223856,0.11864929,0.06397166103124619,0.07989429
2566.7000000050707,-0.06902396,-0.7278302,0.050179597,-2.2493076,0.10240646,1.4592688,0.8707419,0.04,0.04,-9.781831,0.6250832676887512,-0.6571064,0.1193491,0.06488723307847977,0.08064126
2566.7166666717376,-0.070478685,-0.72663975,0.0512344,-2.2470574,0.104557626,1.4569203,0.8725238,0.04,0.04,-9.779796,0.6372387409210205,-0.6721348,0.12002437,0.06580161303281784,0.081377774
2566.7333333384045,-0.07194714,-0.7254379,0.05229919,-2.2447863,0.10672911,1.4545494,0.8743226,0.04,0.04,-9.777514,0.6492327451705933,-0.6872882,0.12067424,0.06671559810638428,0.08210497
2566.7500000050713,-0.07342918,-0.7242249,0.053373866,-2.2424934,0.10892069,1.4521567,0.87613803,0.04,0.04,-9.775635,0.6617612838745117,-0.7027482,0.121298194,0.06762292236089706,0.08282028
2566.766666671738,-0.07492468,-0.723001,0.054458305,-2.2401798,0.111132115,1.4497421,0.8779698,0.04,0.04,-9.773307,0.674126386642456,-0.718323,0.12189792,0.06853290647268295,0.0835254
2566.783333338405,-0.07643345,-0.7217662,0.055552408,-2.237846,0.11336324,1.4473064,0.87981784,0.04,0.04,-9.771122,0.6865617036819458,-0.7340816,0.12247267,0.0694361999630928,0.084218316
2566.800000005072,-0.077955395,-0.7205207,0.056656074,-2.235492,0.115613796,1.4448494,0.88168204,0.04,0.04,-9.768651,0.6988179683685303,-0.74998844,0.12302231,0.07033758610486984,0.084900625
2566.816666671739,-0.07949034,-0.7192644,0.057769183,-2.2331173,0.117883556,1.4423712,0.88356215,0.04,0.04,-9.766468,0.7116073369979858,-0.76617455,0.123545945,0.07123380154371262,0.08556885
2566.8333333384057,-0.081038155,-0.7179977,0.058891628,-2.2307231,0.12017228,1.4398726,0.88545793,0.04,0.04,-9.763947,0.724224328994751,-0.78250456,0.12404437,0.07212863862514496,0.086226664
2566.8500000050726,-0.08259864,-0.71672034,0.06002329,-2.2283092,0.122479744,1.4373535,0.8873695,0.04,0.04,-9.761514,0.736910879611969,-0.7990058,0.124516435,0.0730171725153923,0.08687264
2566.8666666717395,-0.08417163,-0.7154328,0.06116406,-2.225876,0.124805756,1.434814,0.88929635,0.04,0.04,-9.758762,0.7493906617164612,-0.8156537,0.12496186,0.07390251010656357,0.08750662
2566.8833333384064,-0.08575699,-0.7141353,0.062313825,-2.223424,0.12715001,1.4322544,0.8912382,0.04,0.04,-9.756301,0.7624013423919678,-0.83257383,0.12538174,0.0747818797826767,0.08812706
2566.9000000050733,-0.08735453,-0.7128277,0.06347243,-2.2209525,0.12951225,1.4296752,0.893195,0.04,0.04,-9.753574,0.7752211689949036,-0.8496127,0.12577617,0.07565705478191376,0.088734195
2566.91666667174,-0.08896409,-0.7115103,0.06463978,-2.218463,0.13189228,1.4270767,0.8951666,0.04,0.04,-9.750768,0.7880845069885254,-0.86685383,0.1261446,0.07652809470891953,0.08932799
2566.933333338407,-0.09058552,-0.71018326,0.06581577,-2.2159545,0.13428982,1.4244589,0.89715266,0.04,0.04,-9.74784,0.8007715940475464,-0.88417983,0.12648658,0.07739320397377014,0.08990991
2566.950000005074,-0.09221862,-0.7088465,0.06700023,-2.2134285,0.13670462,1.421822,0.89915305,0.04,0.04,-9.744998,0.813946545124054,-0.9018371,0.12680258,0.07825461030006409,0.09047743
2566.9666666717408,-0.09386323,-0.70750046,0.068193056,-2.2108843,0.13913637,1.4191666,0.9011674,0.04,0.04,-9.74207,0.8269315958023071,-0.9195962,0.1270924,0.07910705357789993,0.091030054
2566.9833333384076,-0.09551914,-0.7061453,0.06939413,-2.208323,0.14158489,1.4164932,0.90319586,0.04,0.04,-9.738833,0.8397321105003357,-0.9374348,0.1273569,0.0799572765827179,0.09157119
2567.0000000050745,-0.09718619,-0.7047808,0.07060331,-2.2057447,0.14404991,1.4138019,0.9052379,0.04,0.04,-9.735855,0.8530004620552063,-0.95561737,0.12759416,0.08080074936151505,0.09209553
2567.0166666717414,-0.0988642,-0.70340735,0.071820445,-2.203149,0.14653106,1.411093,0.9072934,0.04,0.04,-9.732691,0.8660946488380432,-0.97393554,0.12780522,0.08163731545209885,0.092607394
2567.0333333384083,-0.10055298,-0.7020251,0.073045425,-2.2005365,0.14902812,1.4083664,0.909362,0.04,0.04,-9.729351,0.8791858553886414,-0.9923681,0.12799087,0.08246973901987076,0.09310256
2567.050000005075,-0.10225237,-0.7006342,0.074278094,-2.1979077,0.15154083,1.4056228,0.91144365,0.04,0.04,-9.725872,0.8921078443527222,-1.0108749,0.12815039,0.0832962691783905,0.093585685
2567.066666671742,-0.1039621,-0.6992346,0.07551835,-2.195263,0.1540689,1.4028624,0.913538,0.04,0.04,-9.722565,0.9054812788963318,-1.0297489,0.12828396,0.08411537110805511,0.094053306
2567.083333338409,-0.10568207,-0.69782686,0.076766,-2.1926024,0.15661205,1.4000858,0.91564476,0.04,0.04,-9.719057,0.9186294674873352,-1.0487181,0.128392,0.08492746949195862,0.09450371
2567.100000005076,-0.10741202,-0.6964109,0.07802097,-2.189926,0.15916994,1.3972927,0.9177638,0.04,0.04,-9.715483,0.9318283200263977,-1.0678082,0.12847465,0.08573318272829056,0.0949399
2567.1166666717427,-0.10915177,-0.69498694,0.07928305,-2.1872344,0.16174234,1.3944839,0.91989475,0.04,0.04,-9.711679,0.9447940587997437,-1.0869609,0.12853205,0.08653324842453003,0.09536184
2567.1333333384096,-0.11090113,-0.69355506,0.08055213,-2.1845284,0.1643289,1.3916597,0.92203754,0.04,0.04,-9.708033,0.9582085609436035,-1.1064972,0.12856443,0.08732586354017258,0.095765725
2567.1500000050764,-0.112659894,-0.6921155,0.08182808,-2.1818075,0.1669294,1.3888205,0.9241919,0.04,0.04,-9.704286,0.9714508652687073,-1.1260954,0.12857066,0.08810898661613464,0.096157014
2567.1666666717433,-0.114427865,-0.6906683,0.08311071,-2.1790726,0.16954352,1.3859664,0.9263574,0.04,0.04,-9.700337,0.9846385717391968,-1.1458198,0.12855202,0.08888706564903259,0.09653064
2567.18333333841,-0.11620485,-0.6892137,0.0843999,-2.1763244,0.17217089,1.3830976,0.92853385,0.04,0.04,-9.696326,0.9976376891136169,-1.1656272,0.12850867,0.08965545147657394,0.09688617
2567.200000005077,-0.11799065,-0.68775207,0.08569551,-2.1735623,0.17481124,1.3802143,0.9307213,0.04,0.04,-9.692428,1.0111079216003418,-1.1857991,0.12844016,0.0904126688838005,0.09723016
2567.216666671744,-0.119785026,-0.6862833,0.086997375,-2.1707861,0.17746429,1.3773175,0.9329196,0.04,0.04,-9.688225,1.0242750644683838,-1.2059631,0.12834637,0.09116259962320328,0.09755399
2567.233333338411,-0.121587776,-0.6848076,0.08830535,-2.1679976,0.18012972,1.3744073,0.9351278,0.04,0.04,-9.683901,1.0372865200042725,-1.2261989,0.1282267,0.09190722554922104,0.097862765
2567.2500000050777,-0.12339869,-0.6833253,0.08961929,-2.1651964,0.18280722,1.3714837,0.9373458,0.04,0.04,-9.679735,1.0507018566131592,-1.246813,0.12808442,0.09264033287763596,0.09815682
2567.2666666717446,-0.12521756,-0.6818364,0.09093904,-2.1623824,0.18549642,1.3685473,0.9395735,0.04,0.04,-9.675356,1.0638623237609863,-1.2674409,0.12791869,0.09336443245410919,0.098431624
2567.2833333384115,-0.12704419,-0.68034124,0.09226441,-2.1595566,0.18819708,1.3655987,0.9418107,0.04,0.04,-9.670801,1.0770186185836792,-1.2881914,0.12772983,0.09408337622880936,0.09869015
2567.3000000050783,-0.12887836,-0.6788399,0.093595274,-2.156719,0.1909088,1.3626376,0.9440574,0.04,0.04,-9.666292,1.0899893045425415,-1.3089924,0.12751679,0.09479069709777832,0.09893128
2567.316666671745,-0.13071984,-0.6773327,0.09493152,-2.15387,0.19363134,1.359665,0.94631284,0.04,0.04,-9.661687,1.1033204793930054,-1.3301358,0.1272794,0.09548873454332352,0.09915699
2567.333333338412,-0.13256839,-0.6758196,0.096272916,-2.151012,0.19636434,1.3566811,0.94857734,0.04,0.04,-9.656962,1.1164199113845825,-1.3512944,0.12701996,0.09617869555950165,0.099365726
2567.350000005079,-0.1344238,-0.67430073,0.097619355,-2.1481407,0.1991075,1.353686,0.95085,0.04,0.04,-9.65239,1.1295334100723267,-1.3726612,0.12673436,0.0968511551618576,0.09955765
2567.366666671746,-0.13628587,-0.6727763,0.098970644,-2.1452608,0.20186046,1.3506796,0.9531309,0.04,0.04,-9.647247,1.142370343208313,-1.3939098,0.12642895,0.09752174466848373,0.09973202
2567.3833333384127,-0.13815437,-0.6712468,0.100326605,-2.1423724,0.20462292,1.3476623,0.9554196,0.04,0.04,-9.642524,1.1556133031845093,-1.4156319,0.12609956,0.09817288815975189,0.0998913
2567.4000000050796,-0.14002909,-0.66971207,0.1016871,-2.1394708,0.20739459,1.3446357,0.9577159,0.04,0.04,-9.637643,1.1686348915100098,-1.4373324,0.12574707,0.09880556166172028,0.100033745
2567.4166666717465,-0.14190973,-0.66817266,0.10305198,-2.1365604,0.21017505,1.3415989,0.9600197,0.04,0.04,-9.632122,1.1815251111984253,-1.4590727,0.12537555,0.09944415837526321,0.10015653
2567.4333333384134,-0.14379616,-0.6666283,0.10442108,-2.1336417,0.21296401,1.3385532,0.9623304,0.04,0.04,-9.626967,1.1942710876464844,-1.4808259,0.12498175,0.1000685766339302,0.100260615
2567.4500000050803,-0.14568819,-0.66507953,0.10579422,-2.1307151,0.21576108,1.3354988,0.9646479,0.04,0.04,-9.62177,1.2073323726654053,-1.5030181,0.1245669,0.10067945718765259,0.10034787
2567.466666671747,-0.1475854,-0.6635264,0.10717124,-2.1277804,0.21856602,1.332436,0.9669719,0.04,0.04,-9.616477,1.2202175855636597,-1.525176,0.12412992,0.10127771645784378,0.100421384
2567.483333338414,-0.14948778,-0.66196907,0.10855198,-2.1248379,0.22137839,1.3293647,0.96930206,0.04,0.04,-9.611053,1.2328547239303589,-1.5472906,0.12367274,0.10186365991830826,0.10047678
2567.500000005081,-0.151395,-0.66040784,0.109936245,-2.1218877,0.22419794,1.3262855,0.97163814,0.04,0.04,-9.605525,1.2457588911056519,-1.5697738,0.1231945,0.10243566334247589,0.1005135
2567.5166666717478,-0.15330678,-0.65884274,0.1113239,-2.11893,0.22702427,1.3231989,0.9739799,0.04,0.04,-9.599913,1.2584644556045532,-1.5922227,0.12269696,0.10299602150917053,0.100533254
2567.5333333384146,-0.15522294,-0.65727407,0.11271479,-2.115965,0.22985704,1.3201052,0.97632706,0.04,0.04,-9.594202,1.2711061239242554,-1.6147639,0.12217951,0.10354414582252502,0.10053578
2567.5500000050815,-0.15714327,-0.65570205,0.114108704,-2.1129947,0.23269588,1.317005,0.9786792,0.04,0.04,-9.588331,1.2835519313812256,-1.6372355,0.12164367,0.10408387333154678,0.10052096
2567.5666666717484,-0.15906756,-0.6541268,0.1155055,-2.1100202,0.23554055,1.3138987,0.9810362,0.04,0.04,-9.582623,1.2962775230407715,-1.6601452,0.12108808,0.10460542887449265,0.1004901
2567.5833333384153,-0.1609955,-0.65254873,0.116905026,-2.1070385,0.23839062,1.3107861,0.9833975,0.04,0.04,-9.57692,1.308807373046875,-1.6830392,0.1205113,0.10510536283254623,0.100443155
2567.600000005082,-0.16292688,-0.6509676,0.11830706,-2.10405,0.24124575,1.3076682,0.98576313,0.04,0.04,-9.570704,1.321209192276001,-1.7058902,0.11991874,0.105598583817482,0.100379206
2567.616666671749,-0.16486144,-0.64938384,0.11971146,-2.1010575,0.24410556,1.3045447,0.9881328,0.039999995,0.04,-9.564463,1.3334230184555054,-1.7287118,0.11930977,0.10608463734388351,0.10029588
2567.633333338416,-0.16679898,-0.6477976,0.12111805,-2.0980604,0.24696973,1.3014165,0.990506,0.039999988,0.04,-9.558411,1.3458751440048218,-1.751943,0.11868078,0.1065497100353241,0.10019634
2567.650000005083,-0.16873926,-0.64620906,0.12252665,-2.0950594,0.24983793,1.298284,0.9928826,0.03999998,0.04,-9.552141,1.3581140041351318,-1.7750901,0.118035726,0.10700161010026932,0.100080445
2567.6666666717497,-0.17068203,-0.6446186,0.123937145,-2.0920544,0.25270975,1.2951478,0.9952622,0.03999997,0.04,-9.545836,1.3703030347824097,-1.7983271,0.11737326,0.10743844509124756,0.09994766
2567.6833333384166,-0.17262706,-0.6430265,0.1253493,-2.089046,0.25558499,1.2920077,0.9976446,0.03999996,0.04,-9.539452,1.382336139678955,-1.8214605,0.116694696,0.10786275565624237,0.099802956
2567.7000000050834,-0.17457415,-0.64143264,0.12676296,-2.0860338,0.25846314,1.2888643,1.0000294,0.03999996,0.04,-9.532939,1.3944615125656128,-1.8449314,0.116000034,0.10827048867940903,0.09963822
2567.7166666717503,-0.176523,-0.63983715,0.12817797,-2.08302,0.26134387,1.2857178,1.0024166,0.039999954,0.04,-9.526282,1.4063971042633057,-1.8683194,0.11529045,0.10866620391607285,0.09945477
2567.733333338417,-0.17847337,-0.6382405,0.12959415,-2.0800035,0.26422685,1.2825695,1.0048053,0.03999995,0.04,-9.5198345,1.4182361364364624,-1.8916931,0.11456349,0.10904043912887573,0.09925632
2567.750000005084,-0.18042503,-0.6366428,0.13101126,-2.0769846,0.2671118,1.2794187,1.007196,0.039999943,0.04,-9.5130205,1.4301371574401855,-1.9153508,0.11382352,0.10940340906381607,0.09904229
2567.766666671751,-0.18237779,-0.63504416,0.13242923,-2.0739634,0.2699983,1.2762663,1.0095874,0.039999936,0.04,-9.506193,1.4418611526489258,-1.9388978,0.11306835,0.10975003987550735,0.098810636
2567.783333338418,-0.18433137,-0.63344485,0.1338478,-2.0709417,0.27288595,1.2731125,1.0119803,0.03999993,0.04,-9.499226,1.4535179138183594,-1.9624875,0.1123022,0.1100853756070137,0.09856278
2567.8000000050847,-0.18628557,-0.6318452,0.13526687,-2.06792,0.27577448,1.2699579,1.0143739,0.03999992,0.04,-9.492464,1.4650640487670898,-1.986028,0.11151932,0.11039990931749344,0.09830045
2567.8166666717516,-0.18824008,-0.63024503,0.13668619,-2.064898,0.2786634,1.2668025,1.0167679,0.039999917,0.04,-9.4854555,1.4766424894332886,-2.0098872,0.11072195,0.11069600284099579,0.09802189
2567.8333333384185,-0.19019471,-0.6286448,0.13810565,-2.061876,0.28155252,1.2636471,1.0191618,0.03999991,0.04,-9.47843,1.488080382347107,-2.0336678,0.109911256,0.11097238957881927,0.097729236
2567.8500000050853,-0.19214922,-0.6270448,0.13952504,-2.0588539,0.28444147,1.2604917,1.0215557,0.039999902,0.04,-9.471275,1.4994151592254639,-2.0574346,0.10908932,0.11123178899288177,0.09742055
2567.8666666717522,-0.19410332,-0.6254451,0.14094424,-2.0558317,0.28732973,1.2573371,1.0239491,0.0399999,0.04,-9.464082,1.5106207132339478,-2.0810869,0.1082545,0.11147616058588028,0.09709747
2567.883333338419,-0.19605678,-0.6238458,0.14236306,-2.0528097,0.29021704,1.2541835,1.0263417,0.03999989,0.04,-9.456603,1.521796464920044,-2.1050029,0.10740987,0.11170806735754013,0.096758686
2567.900000005086,-0.19800946,-0.62224746,0.14378129,-2.0497887,0.2931031,1.2510316,1.0287334,0.03999989,0.04,-9.449184,1.532848834991455,-2.1288316,0.106554635,0.11192425340414047,0.09640443
2567.916666671753,-0.199961,-0.62064976,0.14519876,-2.0467694,0.29598752,1.2478812,1.0311234,0.039999884,0.04,-9.441678,1.5438446998596191,-2.152639,0.10568829,0.11212830245494843,0.096035145
2567.9333333384197,-0.20191124,-0.6190531,0.14661525,-2.0437539,0.29887,1.2447331,1.0335119,0.039999884,0.04,-9.434323,1.5547194480895996,-2.1763709,0.10481308,0.11231112480163574,0.09565154
2567.9500000050866,-0.2038599,-0.61745787,0.14803064,-2.040739,0.30175012,1.2415873,1.0358987,0.039999876,0.04,-9.426827,1.5656055212020874,-2.200455,0.10392554,0.11247061938047409,0.095255144
2567.9666666717535,-0.20580676,-0.615864,0.14944479,-2.0377278,0.30462754,1.2384444,1.0382831,0.03999987,0.04,-9.419024,1.57628333568573,-2.22425,0.10302868,0.11261829733848572,0.09484333
2567.9833333384204,-0.20775157,-0.6142719,0.15085751,-2.0347204,0.30750188,1.2353048,1.0406649,0.039999865,0.04,-9.411525,1.5869197845458984,-2.2480328,0.10212259,0.1127447560429573,0.0944187
2568.0000000050873,-0.20969409,-0.61268157,0.15226863,-2.0317154,0.31037283,1.2321692,1.0430442,0.039999865,0.04,-9.403742,1.5974656343460083,-2.272061,0.10120797,0.11285047233104706,0.093980856
2568.016666671754,-0.21163407,-0.61109346,0.15367794,-2.0287156,0.31323996,1.2290374,1.0454203,0.03999986,0.04,-9.395797,1.607865333557129,-2.2958934,0.10028472,0.11294376105070114,0.09352875
2568.033333338421,-0.21357127,-0.6095076,0.15508527,-2.025719,0.31610307,1.22591,1.0477929,0.039999854,0.04,-9.388077,1.6182456016540527,-2.3197873,0.09935199,0.11301297694444656,0.093064845
2568.050000005088,-0.21550547,-0.60792416,0.15649046,-2.0227265,0.31896165,1.222788,1.0501618,0.03999985,0.04,-9.380124,1.6284639835357666,-2.343451,0.0984138,0.11306817829608917,0.0925861
2568.066666671755,-0.21743642,-0.60634345,0.15789336,-2.0197415,0.32181546,1.219671,1.0525267,0.03999985,0.04,-9.371985,1.6385918855667114,-2.3674002,0.09746965,0.11310902237892151,0.0920956
2568.0833333384217,-0.21936391,-0.60476553,0.1592938,-2.0167594,0.3246641,1.2165594,1.0548874,0.039999843,0.04,-9.364206,1.648694634437561,-2.3912885,0.096515484,0.11312023550271988,0.091594055
2568.1000000050885,-0.22128776,-0.6031904,0.16069159,-2.0137827,0.3275072,1.213454,1.0572433,0.03999984,0.04,-9.355848,1.6585781574249268,-2.4149728,0.09555831,0.1131223812699318,0.0910791
2568.1166666717554,-0.22320762,-0.60161865,0.16208658,-2.0108132,0.33034444,1.2103549,1.0595945,0.039999835,0.04,-9.347812,1.668462872505188,-2.4386015,0.09459564,0.11310694366693497,0.090550244
2568.1333333384223,-0.22512335,-0.6000502,0.16347854,-2.007851,0.3331755,1.2072625,1.0619408,0.039999835,0.04,-9.339621,1.6782209873199463,-2.4624639,0.0936258,0.1130681186914444,0.09001399
2568.150000005089,-0.22703461,-0.5984855,0.16486739,-2.0048962,0.336,1.2041775,1.0642815,0.039999828,0.04,-9.33146,1.6878783702850342,-2.4861774,0.092649,0.1130061149597168,0.08946467
2568.166666671756,-0.22894125,-0.5969245,0.16625288,-2.001949,0.3388177,1.2011,1.0666165,0.039999817,0.04,-9.3232355,1.6974446773529053,-2.5098548,0.09166716,0.11292431503534317,0.088905506
2568.183333338423,-0.23084304,-0.5953676,0.16763492,-1.9990083,0.34162804,1.1980305,1.0689455,0.03999982,0.04,-9.315091,1.7069659233093262,-2.5333765,0.09068011,0.11282040178775787,0.08833534
2568.20000000509,-0.23273973,-0.59381497,0.1690133,-1.996074,0.34443092,1.1949689,1.0712681,0.039999813,0.04,-9.306432,1.716214895248413,-2.5569737,0.089691,0.11270406097173691,0.08775363
2568.2166666717567,-0.23463108,-0.5922666,0.17038788,-1.9931481,0.34722584,1.1919159,1.0735846,0.0399998,0.04,-9.29787,1.7254189252853394,-2.5803921,0.08870119,0.11257392168045044,0.08716122
2568.2333333384236,-0.23651688,-0.59072286,0.17175835,-1.9902321,0.35001257,1.1888715,1.0758939,0.039999798,0.04,-9.289576,1.7346471548080444,-2.6037128,0.087705985,0.11242254078388214,0.08655947
2568.2500000050904,-0.23839684,-0.58918375,0.17312467,-1.9873246,0.3527907,1.1858373,1.0781963,0.03999979,0.04,-9.281079,1.743656873703003,-2.6272562,0.086707145,0.11224497854709625,0.08594832
2568.2666666717573,-0.2402709,-0.58764935,0.17448671,-1.9844257,0.35555997,1.1828122,1.0804914,0.039999787,0.04,-9.272475,1.7525759935379028,-2.6505764,0.08570599,0.11205406486988068,0.085327
2568.283333338424,-0.24213865,-0.5861203,0.17584424,-1.9815371,0.35832003,1.1797976,1.0827788,0.03999978,0.04,-9.263867,1.7613954544067383,-2.6738153,0.08470255,0.11184290796518326,0.08469675
2568.300000005091,-0.24399994,-0.58459663,0.17719717,-1.9786588,0.3610704,1.1767925,1.0850582,0.03999978,0.04,-9.255452,1.7702280282974243,-2.696879,0.083697416,0.11161229014396667,0.084056534
2568.316666671758,-0.24585459,-0.5830783,0.1785453,-1.97579,0.3638109,1.1737988,1.0873296,0.039999772,0.04,-9.246727,1.7787896394729614,-2.7200804,0.08269017,0.11135715246200562,0.08341128
2568.333333338425,-0.24770232,-0.5815656,0.17988844,-1.9729322,0.36654118,1.1708165,1.089592,0.03999976,0.04,-9.237972,1.7872902154922485,-2.7431014,0.08168249,0.11108851432800293,0.082756594
2568.3500000050917,-0.24954294,-0.58005863,0.18122648,-1.9700857,0.3692609,1.1678458,1.091846,0.03999976,0.04,-9.229301,1.7957066297531128,-2.766061,0.080676116,0.11080043762922287,0.08209273
2568.3666666717586,-0.25137624,-0.5785579,0.18255924,-1.9672506,0.37196976,1.1648867,1.0940909,0.039999753,0.04,-9.220768,1.8041571378707886,-2.788846,0.079667255,0.1104912981390953,0.08142179
2568.3833333384255,-0.253202,-0.5770634,0.18388654,-1.9644274,0.37466744,1.1619394,1.0963271,0.039999753,0.04,-9.211867,1.8122584819793701,-2.811683,0.078658916,0.11016327142715454,0.080744065
2568.4000000050924,-0.25501993,-0.5755751,0.18520822,-1.9616162,0.37735364,1.1590056,1.0985534,0.039999742,0.04,-9.203134,1.8203812837600708,-2.834367,0.0776482,0.10981304198503494,0.080059685
2568.4166666717592,-0.25682995,-0.5740933,0.18652417,-1.9588174,0.38002807,1.1560844,1.1007698,0.03999974,0.04,-9.194349,1.8283847570419312,-2.857,0.076638885,0.10944671928882599,0.07936677
2568.433333338426,-0.25863162,-0.57261837,0.1878342,-1.9560312,0.38269013,1.1531757,1.1029758,0.03999973,0.04,-9.185705,1.836428165435791,-2.8793952,0.075631626,0.10905950516462326,0.078667745
2568.450000005093,-0.26042494,-0.57115024,0.18913816,-1.953258,0.38533992,1.1502815,1.1051719,0.03999973,0.04,-9.176732,1.8441052436828613,-2.9018273,0.07462659,0.10865113139152527,0.07796566
2568.46666667176,-0.26220968,-0.5696892,0.19043592,-1.9504982,0.38797697,1.1474013,1.107357,0.039999727,0.04,-9.167889,1.851801872253418,-2.9241374,0.073622026,0.1082272082567215,0.077255175
2568.4833333384267,-0.26398557,-0.56823516,0.19172727,-1.947752,0.39060077,1.1445351,1.1095315,0.039999727,0.04,-9.159208,1.859541893005371,-2.9462411,0.07262047,0.1077837347984314,0.07653718
2568.5000000050936,-0.26575246,-0.5667887,0.19301212,-1.9450197,0.39321125,1.1416833,1.1116953,0.03999972,0.04,-9.1501875,1.8669229745864868,-2.968398,0.0716198,0.10732075572013855,0.0758171
2568.5166666717605,-0.26751006,-0.5653498,0.19429033,-1.9423019,0.39580807,1.1388466,1.1138474,0.03999972,0.04,-9.141328,1.8743042945861816,-2.990329,0.070620224,0.10683831572532654,0.07509118
2568.5333333384274,-0.2692582,-0.56391877,0.19556172,-1.9395987,0.39839086,1.1360252,1.1159878,0.039999716,0.04,-9.132463,1.8815977573394775,-3.0121593,0.06962546,0.10633768886327744,0.07436105
2568.5500000050943,-0.2709967,-0.5624955,0.19682612,-1.9369105,0.40095946,1.1332194,1.1181165,0.039999705,0.04,-9.123757,1.8889683485031128,-3.0337827,0.06863377,0.10581835359334946,0.073627084
2568.566666671761,-0.27272543,-0.5610803,0.19808343,-1.9342375,0.4035135,1.1304295,1.1202334,0.039999705,0.04,-9.114722,1.8958998918533325,-3.055467,0.067644544,0.1052803322672844,0.07288825
2568.583333338428,-0.27444416,-0.55967337,0.1993335,-1.93158,0.4060526,1.1276556,1.1223376,0.03999971,0.04,-9.105849,1.9029057025909424,-3.076937,0.06665742,0.10472331941127777,0.07214603
2568.600000005095,-0.27615255,-0.5582747,0.20057616,-1.928938,0.40857655,1.1248987,1.1244293,0.03999971,0.04,-9.096953,1.909806489944458,-3.0982475,0.06567634,0.10414880514144897,0.07140101
2568.616666671762,-0.2778506,-0.55688477,0.2018113,-1.9263126,0.41108522,1.122158,1.1265085,0.0399997,0.04,-9.088256,1.91676926612854,-3.1194017,0.06469851,0.10355713963508606,0.070652366
2568.6333333384287,-0.27953804,-0.55550355,0.20303875,-1.9237036,0.4135781,1.119435,1.1285744,0.03999969,0.04,-9.079236,1.9232900142669678,-3.140498,0.063724354,0.10294491052627563,0.06989973
2568.6500000050955,-0.28121457,-0.55413085,0.20425835,-1.9211112,0.4160549,1.1167294,1.1306273,0.03999969,0.04,-9.070386,1.9299015998840332,-3.1614428,0.062755056,0.10231640189886093,0.0691452
2568.6666666717624,-0.28288013,-0.5527673,0.20547009,-1.918536,0.41851553,1.1140414,1.1326665,0.039999694,0.04,-9.061541,1.9364081621170044,-3.18226,0.061789338,0.10166972875595093,0.06838911
2568.6833333384293,-0.28453457,-0.5514129,0.20667371,-1.915978,0.42095965,1.1113714,1.134692,0.039999686,0.04,-9.052902,1.943000078201294,-3.202839,0.060830303,0.10100404918193817,0.06763059
2568.700000005096,-0.28617764,-0.5500678,0.20786917,-1.9134375,0.42338696,1.10872,1.136704,0.03999968,0.04,-9.043901,1.9491301774978638,-3.2233849,0.05987555,0.10032111406326294,0.0668702
2568.716666671763,-0.2878093,-0.54873204,0.20905624,-1.9109149,0.42579713,1.1060871,1.1387016,0.03999968,0.04,-9.035082,1.9553250074386597,-3.2437277,0.05892523,0.09962227940559387,0.06610756
2568.73333333843,-0.28942925,-0.547406,0.2102349,-1.9084104,0.42819,1.1034732,1.1406848,0.039999675,0.04,-9.026502,1.9616791009902954,-3.26391,0.057979893,0.09890472888946533,0.06534448
2568.750000005097,-0.2910372,-0.5460898,0.21140492,-1.9059242,0.43056527,1.1008784,1.1426532,0.03999967,0.04,-9.017543,1.9674893617630005,-3.2839756,0.057040885,0.09817226976156235,0.06458072
2568.7666666717637,-0.29263306,-0.5447834,0.21256623,-1.9034569,0.43292275,1.0983028,1.1446072,0.039999664,0.04,-9.008782,1.9734114408493042,-3.303829,0.056110136,0.09742319583892822,0.063815616
2568.7833333384306,-0.29421672,-0.543487,0.2137187,-1.9010084,0.4352621,1.0957472,1.1465461,0.039999664,0.04,-9.000117,1.979270100593567,-3.323587,0.055183437,0.09665480256080627,0.063051306
2568.8000000050974,-0.29578796,-0.5422009,0.21486218,-1.898579,0.43758318,1.0932117,1.1484697,0.039999656,0.039999995,-8.9915905,1.985223650932312,-3.3431275,0.054263245,0.09587158262729645,0.06228665
2568.8166666717643,-0.29734668,-0.54092485,0.21599662,-1.8961694,0.4398856,1.0906961,1.1503782,0.039999664,0.04,-8.982735,1.9906622171401978,-3.362525,0.053351346,0.09507279098033905,0.06152176
2568.833333338431,-0.29889265,-0.5396595,0.21712184,-1.8937792,0.44216928,1.0882016,1.152271,0.03999966,0.04,-8.974164,1.996245265007019,-3.3818383,0.052442368,0.09425483644008636,0.06075815
2568.850000005098,-0.3004257,-0.5384046,0.21823768,-1.8914089,0.44443396,1.0857276,1.154148,0.039999656,0.04,-8.965504,2.001694440841675,-3.400855,0.05154259,0.0934261903166771,0.05999324
2568.866666671765,-0.30194572,-0.5371601,0.21934412,-1.8890591,0.44667923,1.0832747,1.1560087,0.039999653,0.04,-8.95715,2.007312059402466,-3.4197547,0.050649848,0.09257928282022476,0.0592292
2568.883333338432,-0.30345258,-0.5359265,0.22044104,-1.8867295,0.44890502,1.080843,1.1578535,0.03999965,0.04,-8.948467,2.0123977661132812,-3.438546,0.049764086,0.09171613305807114,0.05846752
2568.9000000050987,-0.30494612,-0.53470397,0.2215282,-1.8844206,0.45111108,1.0784329,1.1596819,0.03999965,0.04,-8.939981,2.0176053047180176,-3.457105,0.04888529,0.09083759784698486,0.057707474
2568.9166666717656,-0.30642617,-0.5334925,0.22260568,-1.8821323,0.4532971,1.0760448,1.1614939,0.03999965,0.04,-8.93152,2.022735595703125,-3.4754674,0.048013866,0.08994580805301666,0.056947738
2568.9333333384325,-0.30789262,-0.5322922,0.22367324,-1.8798654,0.45546302,1.0736785,1.1632891,0.039999645,0.04,-8.923281,2.0279903411865234,-3.4936478,0.047149654,0.08904146403074265,0.05618993
2568.9500000050994,-0.30934533,-0.5311031,0.22473085,-1.8776199,0.4576086,1.0713345,1.1650674,0.039999645,0.04,-8.914767,2.0327236652374268,-3.511706,0.046292566,0.08812093734741211,0.055434525
2568.9666666717662,-0.31078407,-0.5299253,0.22577839,-1.8753958,0.4597336,1.0690129,1.1668286,0.03999964,0.04,-8.906466,2.0375869274139404,-3.5295615,0.045443542,0.08718568086624146,0.05468078
2568.983333338433,-0.3122087,-0.52875906,0.22681569,-1.8731933,0.46183783,1.066714,1.1685724,0.039999638,0.04,-8.898404,2.042604684829712,-3.5472436,0.044602133,0.08623625338077545,0.053929508
2569.0000000051,-0.3136191,-0.52760446,0.22784272,-1.8710127,0.463921,1.0644386,1.170299,0.039999638,0.04,-8.889966,2.0470683574676514,-3.5646932,0.043770555,0.08527549356222153,0.05318065
2569.016666671767,-0.3150153,-0.5264616,0.22885947,-1.868854,0.4659831,1.062186,1.172008,0.039999634,0.04,-8.881816,2.0516841411590576,-3.5820098,0.04294604,0.08430247753858566,0.052434538
2569.0333333384337,-0.31639704,-0.52533054,0.22986573,-1.8667183,0.46802387,1.0599566,1.1736995,0.039999634,0.04,-8.8736925,2.0562071800231934,-3.5990858,0.04213048,0.08331777155399323,0.05169112
2569.0500000051006,-0.31776422,-0.5242113,0.23086138,-1.864605,0.47004306,1.0577509,1.175373,0.039999634,0.04,-8.865887,2.060917377471924,-3.6160398,0.041321512,0.08231678605079651,0.0509503
2569.0666666717675,-0.31911665,-0.5231041,0.23184639,-1.8625145,0.47204053,1.0555685,1.1770285,0.039999634,0.04,-8.857689,2.065068483352661,-3.6327977,0.040520675,0.08130503445863724,0.050213065
2569.0833333384344,-0.3204543,-0.5220091,0.23282072,-1.8604468,0.47401598,1.0534103,1.1786659,0.039999627,0.04,-8.849801,2.069364547729492,-3.6493278,0.03972818,0.0802777037024498,0.049480025
2569.1000000051013,-0.3217771,-0.5209263,0.2337842,-1.8584025,0.47596952,1.0512761,1.1802853,0.039999627,0.04,-8.841891,2.0735690593719482,-3.6656506,0.038944826,0.07924247533082962,0.048750702
2569.116666671768,-0.32308474,-0.5198559,0.23473677,-1.8563812,0.47790077,1.0491662,1.1818861,0.039999623,0.04,-8.834319,2.077979326248169,-3.681868,0.038166836,0.0781935602426529,0.048024748
2569.133333338435,-0.32437736,-0.5187978,0.23567836,-1.8543833,0.47980952,1.0470808,1.1834682,0.039999623,0.04,-8.826352,2.081784725189209,-3.697752,0.037399884,0.07713533192873001,0.04730341
2569.150000005102,-0.32565475,-0.51775235,0.23660891,-1.8524091,0.4816958,1.0450197,1.1850321,0.039999615,0.04,-8.818681,2.085786819458008,-3.7135606,0.036641087,0.07606637477874756,0.046585564
2569.166666671769,-0.32691678,-0.51671916,0.23752831,-1.8504585,0.48355952,1.0429837,1.186577,0.03999962,0.04,-8.811082,2.0896992683410645,-3.7290978,0.035888333,0.07498641312122345,0.045872144
2569.1833333384357,-0.32816342,-0.5156988,0.23843656,-1.8485316,0.4854005,1.0409727,1.1881026,0.03999962,0.04,-8.803737,2.0937979221343994,-3.744535,0.035145897,0.07389627397060394,0.0451633
2569.2000000051025,-0.32939443,-0.5146911,0.23933351,-1.8466291,0.48721838,1.0389867,1.1896089,0.039999615,0.04,-8.796042,2.097297191619873,-3.7596436,0.034414705,0.07279860973358154,0.04445738
2569.2166666717694,-0.33060983,-0.5136964,0.2402191,-1.8447505,0.4890132,1.0370259,1.1910961,0.03999962,0.04,-8.78869,2.1010231971740723,-3.7746358,0.033691842,0.07168907672166824,0.04375723
2569.2333333384363,-0.33180958,-0.51271427,0.24109332,-1.842896,0.4907848,1.0350903,1.192564,0.03999962,0.04,-8.781538,2.104897975921631,-3.7894046,0.032979093,0.07057325541973114,0.043062203
2569.250000005103,-0.3329935,-0.511745,0.24195608,-1.8410662,0.49253315,1.0331802,1.1940128,0.03999961,0.04,-8.774082,2.1082019805908203,-3.8039486,0.032274537,0.06944803893566132,0.04237158
2569.26666667177,-0.33416164,-0.5107889,0.24280743,-1.8392608,0.494258,1.0312959,1.1954424,0.039999615,0.04,-8.76696,2.11169695854187,-3.8183584,0.031577535,0.0683116614818573,0.041685745
2569.283333338437,-0.33531377,-0.5098455,0.24364719,-1.8374801,0.4959593,1.0294374,1.1968529,0.03999962,0.04,-8.759841,2.1151068210601807,-3.8324673,0.030888563,0.06717047840356827,0.041005306
2569.300000005104,-0.3364499,-0.50891536,0.24447526,-1.8357246,0.49763694,1.0276046,1.1982441,0.039999615,0.04,-8.753042,2.1187100410461426,-3.8465436,0.030206282,0.06602051109075546,0.04032921
2569.3166666717707,-0.33756995,-0.50799847,0.24529171,-1.8339934,0.4992909,1.025798,1.1996146,0.039999615,0.04,-8.745962,2.121771812438965,-3.8602676,0.029530246,0.06486042588949203,0.039660044
2569.3333333384376,-0.33867392,-0.50709486,0.2460964,-1.8322875,0.500921,1.0240173,1.2009658,0.03999962,0.04,-8.739052,2.1249589920043945,-3.8737786,0.02886867,0.0636979416012764,0.03899467
2569.3500000051044,-0.33976164,-0.5062045,0.24688941,-1.8306065,0.50252724,1.0222627,1.2022972,0.039999615,0.04,-8.732312,2.128140926361084,-3.887132,0.028213227,0.0625276118516922,0.03833485
2569.3666666717713,-0.34083322,-0.5053275,0.24767059,-1.8289506,0.50410944,1.0205342,1.2036088,0.03999961,0.04,-8.725827,2.131469249725342,-3.9003186,0.027566876,0.06135110929608345,0.03768057
2569.383333338438,-0.34188837,-0.5044639,0.24843992,-1.8273197,0.5056675,1.0188321,1.2049001,0.039999615,0.04,-8.719045,2.134255886077881,-3.9131968,0.026928449,0.06016829237341881,0.037032347
2569.400000005105,-0.3429273,-0.50361377,0.24919741,-1.8257145,0.5072013,1.0171564,1.2061716,0.039999623,0.04,-8.712514,2.1372110843658447,-3.9259088,0.026300443,0.058982182294130325,0.03638985
2569.416666671772,-0.3439497,-0.50277686,0.24994299,-1.8241346,0.5087113,1.0155069,1.2074232,0.03999962,0.04,-8.706132,2.14013409614563,-3.938455,0.025678847,0.05779004096984863,0.035753507
2569.433333338439,-0.3449557,-0.50195336,0.25067657,-1.8225797,0.51019657,1.0138838,1.2086546,0.039999615,0.04,-8.700016,2.1432173252105713,-3.9508488,0.025066817,0.05659070238471031,0.03512233
2569.4500000051057,-0.34594518,-0.5011432,0.2513983,-1.8210505,0.51165754,1.0122876,1.2098658,0.03999961,0.04,-8.693553,2.1457643508911133,-3.9628942,0.02446282,0.055388983339071274,0.03449867
2569.4666666717726,-0.34691837,-0.50034654,0.25210795,-1.8195468,0.5130942,1.0107176,1.2110567,0.03999961,0.04,-8.687429,2.1484665870666504,-3.9748397,0.023867654,0.054183103144168854,0.033879954
2569.4833333384395,-0.34787515,-0.4995635,0.25280565,-1.8180687,0.5145066,1.0091746,1.2122271,0.039999615,0.04,-8.681578,2.151421308517456,-3.9866273,0.023280067,0.05297188460826874,0.03326747
2569.5000000051064,-0.34881526,-0.49879387,0.25349137,-1.8166157,0.51589465,1.0076584,1.2133777,0.039999615,0.04,-8.675416,2.1537773609161377,-3.9980488,0.022702733,0.051759008318185806,0.032660954
2569.5166666717732,-0.3497388,-0.4980379,0.25416502,-1.8151891,0.5172582,1.0061693,1.2145077,0.03999961,0.04,-8.669505,2.15628981590271,-4.009322,0.022133257,0.05054575949907303,0.03205913
2569.53333333844,-0.35064593,-0.49729547,0.25482664,-1.8137871,0.5185973,1.0047058,1.2156177,0.03999961,0.04,-8.66381,2.158825397491455,-4.0204716,0.021571182,0.0493287555873394,0.031463012
2569.550000005107,-0.3515363,-0.49656653,0.25547627,-1.8124117,0.5199118,1.0032696,1.2167072,0.03999961,0.04,-8.658248,2.16150164604187,-4.031332,0.021018507,0.04811003431677818,0.030875012
2569.566666671774,-0.3524102,-0.49585116,0.2561139,-1.8110614,0.52120197,1.00186,1.2177765,0.039999604,0.04,-8.652574,2.163655996322632,-4.042029,0.02047309,0.0468871146440506,0.03029341
2569.5833333384408,-0.35326755,-0.49514925,0.25673944,-1.8097368,0.5224675,1.0004771,1.2188256,0.03999961,0.04,-8.647054,2.1659810543060303,-4.052476,0.019936318,0.04566502571105957,0.029718285
2569.6000000051076,-0.35410833,-0.49446097,0.25735292,-1.8084376,0.52370876,0.99912083,1.2198545,0.03999961,0.04,-8.641673,2.168274402618408,-4.0627704,0.019407284,0.044441383332014084,0.02914935
2569.6166666717745,-0.35493255,-0.49378625,0.2579544,-1.8071638,0.5249256,0.9977914,1.2208631,0.03999961,0.04,-8.636561,2.170736074447632,-4.0728908,0.018886505,0.04321843013167381,0.02858661
2569.6333333384414,-0.35574022,-0.49312502,0.2585439,-1.8059158,0.5261181,0.99648863,1.2218513,0.039999608,0.04,-8.631174,2.1726667881011963,-4.0826797,0.018373597,0.04199641942977905,0.02802905
2569.6500000051083,-0.3565315,-0.4924773,0.25912142,-1.8046935,0.5272861,0.9952124,1.2228196,0.039999604,0.04,-8.626099,2.174787998199463,-4.0923486,0.017870117,0.040774405002593994,0.027478324
2569.666666671775,-0.35730624,-0.49184301,0.25968698,-1.8034964,0.5284297,0.99396294,1.2237676,0.03999961,0.04,-8.621131,2.1768884658813477,-4.101841,0.017371768,0.03955218195915222,0.026934158
2569.683333338442,-0.3580646,-0.49122232,0.2602406,-1.8023245,0.5295491,0.9927399,1.2246954,0.03999961,0.04,-8.616413,2.179152011871338,-4.1111827,0.016882189,0.038333527743816376,0.026397077
2569.700000005109,-0.35880652,-0.49061507,0.26078227,-1.8011781,0.53064424,0.99154335,1.2256033,0.039999608,0.04,-8.611423,2.1808793544769287,-4.1201262,0.016401654,0.03711710125207901,0.025865339
2569.716666671776,-0.3595321,-0.49002117,0.26131204,-1.8000572,0.5317153,0.9903732,1.2264911,0.039999608,0.04,-8.606749,2.1828346252441406,-4.1289945,0.015927589,0.03590276092290878,0.025341148
2569.7333333384427,-0.36024138,-0.4894406,0.26182985,-1.7989612,0.5327622,0.98922926,1.2273587,0.039999608,0.04,-8.602367,2.1849608421325684,-4.1377707,0.015461102,0.034689903259277344,0.024822813
2569.7500000051095,-0.3609344,-0.48887315,0.26233578,-1.7978907,0.53378516,0.9881115,1.2282066,0.039999608,0.04,-8.59766,2.186568260192871,-4.1461353,0.01500343,0.0334814116358757,0.024310138
2569.7666666717764,-0.3616112,-0.4883191,0.26283005,-1.7968451,0.53478414,0.98701984,1.2290347,0.039999615,0.04,-8.593322,2.1884024143218994,-4.1544566,0.014551072,0.03227360546588898,0.023804983
2569.7833333384433,-0.3622718,-0.48777822,0.26331273,-1.7958243,0.53575915,0.9859543,1.2298429,0.03999962,0.04,-8.589027,2.190131187438965,-4.1625085,0.014106886,0.03107084520161152,0.023306469
2569.80000000511,-0.36291644,-0.48725048,0.26378343,-1.7948284,0.53671056,0.9849147,1.2306317,0.03999962,0.04,-8.585036,2.192054271697998,-4.170482,0.0136712035,0.029873445630073547,0.022815617
2569.816666671777,-0.3635451,-0.4867359,0.2642426,-1.7938572,0.5376384,0.983901,1.231401,0.039999615,0.04,-8.58075,2.1935269832611084,-4.178105,0.0132404035,0.028680844232439995,0.022329142
2569.833333338444,-0.36415786,-0.48623425,0.26469022,-1.7929107,0.5385428,0.982913,1.2321502,0.03999962,0.04,-8.576781,2.195134401321411,-4.185586,0.012817623,0.027493871748447418,0.021849493
2569.850000005111,-0.36475477,-0.4857456,0.26512623,-1.7919887,0.5394237,0.9819505,1.2328804,0.039999623,0.04,-8.572917,2.196732759475708,-4.1929255,0.0124034695,0.026311850175261497,0.021376165
2569.8666666717777,-0.36533585,-0.48526984,0.2655508,-1.791091,0.5402814,0.9810134,1.2335914,0.039999627,0.04,-8.569317,2.1985113620758057,-4.200136,0.011995576,0.025136372074484825,0.020909749
2569.8833333384446,-0.36590138,-0.48480684,0.26596397,-1.7902176,0.541116,0.9801016,1.2342832,0.03999963,0.04,-8.565463,2.1997768878936768,-4.2069626,0.011593545,0.023967580869793892,0.020449352
2569.9000000051115,-0.36645138,-0.48435664,0.26636577,-1.7893683,0.5419276,0.9792149,1.234956,0.039999627,0.04,-8.5619135,2.2012665271759033,-4.2137475,0.01119896,0.02280455082654953,0.01999564
2569.9166666717783,-0.3669859,-0.48391908,0.26675633,-1.7885426,0.5427167,0.97835314,1.2356099,0.03999963,0.04,-8.558416,2.202702760696411,-4.2202992,0.010810389,0.021650690585374832,0.019547826
2569.933333338445,-0.36750504,-0.48349413,0.2671358,-1.7877407,0.5434829,0.97751606,1.236245,0.039999627,0.04,-8.555227,2.204296350479126,-4.2267604,0.010430128,0.020503981038928032,0.019106464
2569.950000005112,-0.36800888,-0.48308164,0.26750416,-1.7869622,0.5442265,0.97670346,1.2368613,0.039999623,0.04,-8.551775,2.205427408218384,-4.232854,0.010056567,0.019366774708032608,0.018671626
2569.966666671779,-0.36849776,-0.48268142,0.26786157,-1.786207,0.5449479,0.9759153,1.2374594,0.039999627,0.04,-8.548606,2.2067453861236572,-4.2388644,0.00969041,0.01823871023952961,0.018244265
2569.983333338446,-0.36897165,-0.48229343,0.2682081,-1.7854748,0.54564726,0.9751513,1.2380394,0.039999623,0.04,-8.545701,2.208244562149048,-4.2448177,0.009329824,0.017119845375418663,0.017823556
2570.0000000051127,-0.3694307,-0.4819176,0.26854387,-1.7847657,0.5463246,0.9744107,1.2386011,0.03999963,0.04,-8.542556,2.2092814445495605,-4.2503824,0.0089753,0.016010912135243416,0.017408734
2570.0166666717796,-0.36987504,-0.4815537,0.26886883,-1.7840792,0.5469805,0.9736943,1.2391447,0.039999634,0.04,-8.539706,2.210500717163086,-4.255859,0.008627842,0.01491036918014288,0.01700292
2570.0333333384465,-0.37030485,-0.4812017,0.26918325,-1.7834156,0.5476148,0.9730012,1.2396705,0.03999963,0.04,-8.536905,2.2116756439208984,-4.2611995,0.008287978,0.013821904547512531,0.016601026
2570.0500000051134,-0.37072036,-0.48086149,0.26948726,-1.782774,0.5482279,0.9723314,1.2401785,0.039999634,0.04,-8.534431,2.213043689727783,-4.2664733,0.0079529835,0.01274213194847107,0.016206998
2570.0666666717802,-0.37112156,-0.48053294,0.26978087,-1.7821544,0.5488199,0.9716846,1.2406691,0.03999963,0.04,-8.531659,2.2139484882354736,-4.2713404,0.007626579,0.011675870046019554,0.015819274
2570.083333338447,-0.37150875,-0.48021588,0.27006423,-1.7815564,0.54939115,0.97106045,1.2411426,0.039999627,0.04,-8.529181,2.215045213699341,-4.2761626,0.0073056775,0.010621276684105396,0.015439166
2570.100000005114,-0.371882,-0.4799101,0.2703374,-1.7809799,0.54994184,0.97045887,1.2415993,0.03999963,0.04,-8.526753,2.2160873413085938,-4.28079,0.0069912304,0.009580887854099274,0.015064862
2570.116666671781,-0.3722416,-0.47961563,0.27060056,-1.780425,0.5504723,0.9698793,1.2420391,0.03999963,0.04,-8.524619,2.2173080444335938,-4.285396,0.006682286,0.008553058840334415,0.014697279
2570.1333333384478,-0.37258756,-0.47933227,0.27085388,-1.7798904,0.5509829,0.9693214,1.2424623,0.039999638,0.04,-8.52228,2.2181437015533447,-4.2896543,0.006378982,0.007537368685007095,0.014336794
2570.1500000051146,-0.37292027,-0.47905985,0.27109745,-1.7793767,0.5514737,0.9687851,1.2428693,0.039999638,0.04,-8.52013,2.21907901763916,-4.29377,0.006083752,0.006536954082548618,0.013982993
2570.1666666717815,-0.37323976,-0.47879815,0.27133134,-1.7788832,0.5519451,0.9682702,1.2432601,0.039999638,0.04,-8.518116,2.220043182373047,-4.297805,0.0057936097,0.005550349596887827,0.013636107
2570.1833333384484,-0.3735462,-0.47854698,0.2715558,-1.7784098,0.5523975,0.9677758,1.243635,0.039999638,0.04,-8.5163,2.2211339473724365,-4.301749,0.005510341,0.004580528941005468,0.013295809
2570.2000000051153,-0.3738401,-0.47830626,0.271771,-1.7779559,0.5528311,0.9673021,1.2439944,0.039999638,0.04,-8.51434,2.2218375205993652,-4.3053794,0.0052338773,0.003623015945777297,0.012962584
2570.216666671782,-0.3741214,-0.4780758,0.27197713,-1.7775214,0.5532461,0.9668486,1.2443385,0.03999965,0.04,-8.512534,2.222709894180298,-4.3089285,0.0049645496,0.0026840681675821543,0.0126361875
2570.233333338449,-0.37439033,-0.4778555,0.2721743,-1.7771063,0.553643,0.9664151,1.2446678,0.039999645,0.04,-8.511016,2.223708391189575,-4.312449,0.004699867,0.0017608783673495054,0.012317033
2570.250000005116,-0.3746472,-0.47764498,0.2723626,-1.7767096,0.55402195,0.966001,1.2449821,0.03999965,0.04,-8.509314,2.2243568897247314,-4.315644,0.0044410415,0.0008542024297639728,0.012005355
2570.266666671783,-0.37489223,-0.47744423,0.2725423,-1.7763308,0.5543835,0.965606,1.2452819,0.039999645,0.04,-8.507781,2.225149393081665,-4.3187804,0.0041888943,-3.454098987276666e-05,0.011700823
2570.2833333384497,-0.3751257,-0.47725305,0.27271357,-1.7759701,0.5547279,0.9652296,1.2455673,0.03999965,0.04,-8.506339,2.2259011268615723,-4.321756,0.0039441213,-0.0009042102610692382,0.0114030605
2570.3000000051165,-0.37534776,-0.47707105,0.2728765,-1.7756274,0.5550554,0.9648714,1.2458386,0.039999653,0.04,-8.505118,2.226813793182373,-4.3246913,0.0037068583,-0.0017554603982716799,0.011113684
2570.3166666717834,-0.37555867,-0.4768982,0.27303126,-1.7753017,0.55536675,0.9645314,1.2460964,0.03999966,0.04,-8.503776,2.2274067401885986,-4.3274,0.0034751657,-0.0025903042405843735,0.010831991
2570.3333333384503,-0.37575883,-0.4767342,0.27317816,-1.774993,0.5556619,0.9642087,1.2463413,0.03999965,0.04,-8.502557,2.2280969619750977,-4.3299885,0.0032511328,-0.0034042070619761944,0.010555876
2570.350000005117,-0.3759484,-0.47657886,0.27331737,-1.7747,0.55594164,0.96390337,1.246573,0.03999965,0.04,-8.50147,2.228811025619507,-4.332504,0.0030302482,-0.004199674818664789,0.0102893
2570.366666671784,-0.3761276,-0.4764319,0.2734491,-1.7744234,0.55620605,0.9636146,1.2467921,0.039999653,0.04,-8.500495,2.229584217071533,-4.334904,0.0028190499,-0.004971680697053671,0.010028584
2570.383333338451,-0.3762969,-0.47629324,0.2735735,-1.7741619,0.5564557,0.96334195,1.2469993,0.039999653,0.04,-8.499448,2.2300992012023926,-4.337101,0.0026134872,-0.0057241786271333694,0.009776352
2570.400000005118,-0.3764564,-0.47616255,0.27369076,-1.7739156,0.55669075,0.96308494,1.2471939,0.039999656,0.04,-8.498519,2.2307345867156982,-4.339205,0.0024136093,-0.0064529431983828545,0.009531437
2570.4166666717847,-0.37660643,-0.4760396,0.27380106,-1.7736839,0.556912,0.96284324,1.2473772,0.039999656,0.04,-8.497714,2.2313668727874756,-4.3412385,0.0022218423,-0.007161139044910669,0.009295741
2570.4333333384516,-0.37674743,-0.4759241,0.27390483,-1.7734665,0.5571198,0.96261626,1.2475492,0.039999656,0.04,-8.497029,2.2320809364318848,-4.343203,0.002037812,-0.007845335640013218,0.009066925
2570.4500000051185,-0.37687954,-0.47581574,0.27400208,-1.7732625,0.5573145,0.9624034,1.2477105,0.039999656,0.04,-8.496275,2.2325541973114014,-4.34497,0.0018593493,-0.008508268743753433,0.008847146
2570.4666666717853,-0.37700316,-0.4757144,0.274093,-1.773072,0.5574966,0.96220434,1.2478617,0.03999966,0.04,-8.495616,2.2331326007843018,-4.34668,0.001687884,-0.00914706476032734,0.008635831
2570.483333338452,-0.37711844,-0.47561976,0.27417794,-1.7728937,0.5576667,0.96201843,1.248003,0.039999656,0.04,-8.495163,2.2338180541992188,-4.348384,0.0015202117,-0.009763252921402454,0.008432752
2570.500000005119,-0.37722597,-0.47553158,0.27425712,-1.7727277,0.5578252,0.9618453,1.2481343,0.03999966,0.04,-8.494513,2.2342236042022705,-4.3497915,0.0013615292,-0.01035201083868742,0.008237454
2570.516666671786,-0.37732595,-0.47544956,0.27433082,-1.7725732,0.5579725,0.9616841,1.2482568,0.039999656,0.04,-8.494087,2.234778642654419,-4.351254,0.0012108607,-0.010916884988546371,0.00805098
2570.533333338453,-0.3774188,-0.47537336,0.27439928,-1.7724301,0.55810946,0.9615346,1.2483702,0.039999656,0.04,-8.493672,2.2353057861328125,-4.352583,0.0010658314,-0.011455563828349113,0.007874252
2570.5500000051197,-0.37750483,-0.47530276,0.27446282,-1.7722976,0.5582362,0.9613961,1.2484752,0.03999966,0.04,-8.493414,2.2359049320220947,-4.353925,0.00092918106,-0.011968942359089851,0.0077046775
2570.5666666717866,-0.3775843,-0.47523755,0.27452156,-1.7721753,0.55835336,0.96126807,1.2485725,0.039999664,0.04,-8.493058,2.236327648162842,-4.355074,0.0008000751,-0.01245586946606636,0.007545375
2570.5833333384535,-0.37765777,-0.47517738,0.27457574,-1.7720622,0.5584615,0.9611499,1.2486624,0.03999966,0.04,-8.492821,2.236832857131958,-4.3562,0.00067721796,-0.012915477156639099,0.0073959283
2570.6000000051204,-0.37772554,-0.47512186,0.27462578,-1.7719576,0.5585612,0.96104085,1.248745,0.039999664,0.04,-8.492588,2.237335681915283,-4.3572397,0.000561065,-0.013346030376851559,0.0072550485
2570.6166666717872,-0.3777878,-0.47507063,0.2746719,-1.7718618,0.55865306,0.96094066,1.2488209,0.039999664,0.04,-8.492463,2.2378764152526855,-4.3582478,0.0004552048,-0.013747086748480797,0.007123493
2570.633333338454,-0.3778452,-0.4750235,0.27471432,-1.7717736,0.5587376,0.96084833,1.2488911,0.03999966,0.04,-8.492332,2.238287925720215,-4.359175,0.00035753005,-0.014120928011834621,0.007001938
2570.650000005121,-0.377898,-0.4749801,0.2747535,-1.7716923,0.55881536,0.9607635,1.2489554,0.03999966,0.04,-8.492232,2.2387757301330566,-4.3600507,0.00026544236,-0.014465544372797012,0.006889846
2570.666666671788,-0.37794662,-0.47494015,0.27478948,-1.7716169,0.5588869,0.9606854,1.2490145,0.03999966,0.04,-8.492153,2.2391884326934814,-4.3608522,0.00018312894,-0.014781882055103779,0.0067865527
2570.6833333384548,-0.37799135,-0.4749034,0.27482262,-1.7715485,0.5589527,0.96061355,1.2490693,0.03999966,0.04,-8.492077,2.239651679992676,-4.361578,0.00010811334,-0.015071003697812557,0.0066921306
2570.7000000051216,-0.37803245,-0.4748696,0.2748532,-1.7714849,0.5590131,0.9605474,1.2491199,0.03999966,0.04,-8.492049,2.2399990558624268,-4.3622975,3.5314057e-05,-0.015340601094067097,0.0066054096
2570.7166666717885,-0.3780702,-0.47483853,0.27488133,-1.7714266,0.55906886,0.96048665,1.2491666,0.039999664,0.04,-8.491938,2.240307331085205,-4.3628654,-3.0280467e-05,-0.01558578759431839,0.0065261843
2570.7333333384554,-0.378105,-0.47480989,0.27490726,-1.7713733,0.5591202,0.9604305,1.2492095,0.039999664,0.04,-8.491937,2.2406654357910156,-4.3634863,-9.178749e-05,-0.01581209897994995,0.006453432
2570.7500000051223,-0.37813705,-0.47478348,0.27493113,-1.7713239,0.5591674,0.9603791,1.2492486,0.039999664,0.04,-8.491887,2.240924835205078,-4.364019,-0.00014864498,-0.016023265197873116,0.0063866596
2570.766666671789,-0.37816653,-0.4747592,0.27495313,-1.7712785,0.55921096,0.9603318,1.2492844,0.039999664,0.04,-8.491804,2.2411768436431885,-4.3644986,-0.00019864434,-0.016215108335018158,0.006324008
2570.783333338456,-0.37819365,-0.4747368,0.27497342,-1.7712368,0.5592511,0.9602882,1.2493168,0.039999664,0.04,-8.491762,2.2414228916168213,-4.3649454,-0.00024314047,-0.016392111778259277,0.006266643
2570.800000005123,-0.3782186,-0.47471628,0.27499205,-1.7711986,0.55928767,0.9602482,1.249348,0.039999664,0.04,-8.491758,2.2416794300079346,-4.365374,-0.00028169935,-0.01655585877597332,0.0062139374
2570.81666667179,-0.37824157,-0.47469735,0.27500916,-1.7711632,0.5593219,0.9602111,1.2493757,0.039999668,0.04,-8.491711,2.2418766021728516,-4.3657627,-0.00032517425,-0.016706226393580437,0.006166833
2570.8333333384567,-0.37826267,-0.47467995,0.27502504,-1.7711306,0.5593527,0.96017706,1.2494009,0.039999664,0.04,-8.491651,2.2420637607574463,-4.3660793,-0.00035821818,-0.016845252364873886,0.0061223265
2570.8500000051235,-0.37828207,-0.47466394,0.2750396,-1.7711008,0.55938137,0.96014565,1.2494247,0.039999664,0.04,-8.49162,2.242231607437134,-4.3664007,-0.00038828413,-0.016971563920378685,0.0060833246
2570.8666666717904,-0.37829998,-0.47464922,0.27505296,-1.7710731,0.55940795,0.96011704,1.2494458,0.039999664,0.04,-8.491625,2.2424144744873047,-4.3667254,-0.00041892985,-0.017089691013097763,0.00604616
2570.8833333384573,-0.37831643,-0.4746357,0.27506527,-1.7710476,0.55943245,0.9600904,1.2494658,0.039999664,0.04,-8.491549,2.2425432205200195,-4.3669715,-0.00044260753,-0.017196377739310265,0.0060105743
2570.900000005124,-0.3783317,-0.4746231,0.2750766,-1.7710241,0.559455,0.96006584,1.2494854,0.039999664,0.04,-8.491531,2.242687463760376,-4.367209,-0.0004667894,-0.017295654863119125,0.0059790504
2570.916666671791,-0.37834558,-0.47461158,0.27508703,-1.7710024,0.55947566,0.9600432,1.2495017,0.039999664,0.04,-8.491502,2.242814064025879,-4.3674607,-0.00049479725,-0.01738770492374897,0.005948921
2570.933333338458,-0.3783584,-0.47460094,0.27509663,-1.7709826,0.5594945,0.96002233,1.2495177,0.039999664,0.04,-8.491496,2.242940902709961,-4.3676653,-0.0005122772,-0.017472023144364357,0.005922323
2570.950000005125,-0.37837023,-0.47459123,0.27510557,-1.7709643,0.55951166,0.9600034,1.2495333,0.039999664,0.04,-8.491475,2.2430496215820312,-4.3678775,-0.0005337249,-0.017550120130181313,0.005898411
2570.9666666717917,-0.3783811,-0.47458234,0.2751138,-1.7709476,0.5595271,0.9599862,1.2495458,0.039999668,0.04,-8.491447,2.2431275844573975,-4.3680453,-0.00055755157,-0.017619939520955086,0.0058768736
2570.9833333384586,-0.37839106,-0.47457412,0.27512124,-1.7709326,0.559542,0.9599701,1.249558,0.039999668,0.04,-8.49145,2.243242025375366,-4.368236,-0.0005722626,-0.01768297702074051,0.005857735
2571.0000000051255,-0.3784002,-0.47456652,0.27512828,-1.7709183,0.55955535,0.95995516,1.2495699,0.039999668,0.04,-8.491454,2.243317127227783,-4.368392,-0.0005877067,-0.01774490252137184,0.0058381883
2571.0166666717923,-0.37840867,-0.47455955,0.27513465,-1.7709053,0.55956787,0.9599418,1.2495792,0.03999967,0.04,-8.49142,2.2433652877807617,-4.368505,-0.00060483284,-0.017800379544496536,0.005822292
2571.033333338459,-0.37841654,-0.4745532,0.27514052,-1.7708931,0.5595791,0.959929,1.2495879,0.03999967,0.04,-8.491396,2.243452548980713,-4.36865,-0.000612995,-0.017850397154688835,0.0058060465
2571.050000005126,-0.37842366,-0.47454727,0.27514592,-1.770882,0.55958974,0.95991766,1.2495965,0.03999967,0.04,-8.221259,2.3326642513275146,-3.9942951,0.0,-0.0,0.0
2571.066666671793,-0.37842366,-0.47454727,0.27514592,-1.770882,0.55958974,0.95991766,1.2495965,0.03999967,0.04,-8.491844,2.2440946102142334,-4.3690653,0.0,-0.0,0.0
2571.08333333846,-0.37842366,-0.47454727,0.27514592,-1.770882,0.55958974,0.95991766,1.2495965,0.03999967,0.04,-8.491844,2.2440946102142334,-4.3690653,0.0,-0.0,0.0
2571.1000000051267,-0.37842366,-0.47454727,0.27514592,-1.770882,0.55958974,0.95991766,1.2495965,0.03999967,0.04,-8.491844,2.2440946102142334,-4.3690653,0.0,-0.0,0.0
2571.1166666717936,-0.37842366,-0.47454727,0.27514592,-1.770882,0.55958974,0.95991766,1.2495965,0.03999967,0.04,-8.491844,2.2440946102142334,-4.3690653,0.0,-0.0,0.0
2571.1333333384605,-0.37842366,-0.47454727,0.27514592,-1.770882,0.55958974,0.95991766,1.2495965,0.03999967,0.04,-8.491844,2.2440946102142334,-4.3690653,0.0,-0.0,0.0
2571.1500000051274,-0.37842366,-0.47454727,0.27514592,-1.770882,0.55958974,0.95991766,1.2495965,0.03999967,0.04,-8.491844,2.2440946102142334,-4.3690653,0.0,-0.0,0.0
2571.1666666717942,-0.37842366,-0.47454727,0.27514592,-1.770882,0.55958974,0.95991766,1.2495965,0.03999967,0.04,-8.491844,2.2440946102142334,-4.3690653,0.0,-0.0,0.0
2571.183333338461,-0.37842366,-0.47454727,0.27514592,-1.770882,0.55958974,0.95991766,1.2495965,0.03999967,0.04,-8.491844,2.2440946102142334,-4.3690653,0.0,-0.0,0.0
2571.200000005128,-0.37842366,-0.47454727,0.27514592,-1.770882,0.55958974,0.95991766,1.2495965,0.03999967,0.04,-8.491844,2.2440946102142334,-4.3690653,0.0,-0.0,0.0
2571.216666671795,-0.37842366,-0.47454727,0.27514592,-1.770882,0.55958974,0.95991766,1.2495965,0.03999967,0.04,-8.491844,2.2440946102142334,-4.3690653,0.0,-0.0,0.0
2571.2333333384618,-0.37842366,-0.47454727,0.27514592,-1.770882,0.55958974,0.95991766,1.2495965,0.03999967,0.04,-8.491844,2.2440946102142334,-4.3690653,0.0,-0.0,0.0
2571.2500000051286,-0.37842366,-0.47454727,0.27514592,-1.770882,0.55958974,0.95991766,1.2495965,0.03999967,0.04,-8.491844,2.2440946102142334,-4.3690653,0.0,-0.0,0.0
2571.2666666717955,-0.37842366,-0.47454727,0.27514592,-1.770882,0.55958974,0.95991766,1.2495965,0.03999967,0.04,-8.491844,2.2440946102142334,-4.3690653,0.0,-0.0,0.0
2571.2833333384624,-0.37842366,-0.47454727,0.27514592,-1.770882,0.55958974,0.95991766,1.2495965,0.03999967,0.04,-8.491844,2.2440946102142334,-4.3690653,0.0,-0.0,0.0
2571.3000000051293,-0.37842366,-0.47454727,0.27514592,-1.770882,0.55958974,0.95991766,1.2495965,0.03999967,0.04,-8.491844,2.2440946102142334,-4.3690653,0.0,-0.0,0.0
2571.316666671796,-0.37842366,-0.47454727,0.27514592,-1.770882,0.55958974,0.95991766,1.2495965,0.03999967,0.04,-8.491844,2.2440946102142334,-4.3690653,0.0,-0.0,0.0
2571.333333338463,-0.37842366,-0.47454727,0.27514592,-1.770882,0.55958974,0.95991766,1.2495965,0.03999967,0.04,-8.491844,2.2440946102142334,-4.3690653,0.0,-0.0,0.0
2571.35000000513,-0.37842366,-0.47454727,0.27514592,-1.770882,0.55958974,0.95991766,1.2495965,0.03999967,0.04,-8.491844,2.2440946102142334,-4.3690653,0.0,-0.0,0.0
2571.366666671797,-0.37842366,-0.47454727,0.27514592,-1.770882,0.55958974,0.95991766,1.2495965,0.03999967,0.04,-8.491844,2.2440946102142334,-4.3690653,0.0,-0.0,0.0
2571.3833333384637,-0.37842366,-0.47454727,0.27514592,-1.770882,0.55958974,0.95991766,1.2495965,0.03999967,0.04,-8.491844,2.2440946102142334,-4.3690653,0.0,-0.0,0.0
2571.4000000051306,-0.37842366,-0.47454727,0.27514592,-1.770882,0.55958974,0.95991766,1.2495965,0.03999967,0.04,-8.491844,2.2440946102142334,-4.3690653,0.0,-0.0,0.0
2571.4166666717974,-0.37842366,-0.47454727,0.27514592,-1.770882,0.55958974,0.95991766,1.2495965,0.03999967,0.04,-8.491844,2.2440946102142334,-4.3690653,0.0,-0.0,0.0
2571.4333333384643,-0.37842366,-0.47454727,0.27514592,-1.770882,0.55958974,0.95991766,1.2495965,0.03999967,0.04,-8.491844,2.2440946102142334,-4.3690653,0.0,-0.0,0.0
2571.450000005131,-0.37842366,-0.47454727,0.27514592,-1.770882,0.55958974,0.95991766,1.2495965,0.03999967,0.04,-8.491844,2.2440946102142334,-4.3690653,0.0,-0.0,0.0
2571.466666671798,-0.37842366,-0.47454727,0.27514592,-1.770882,0.55958974,0.95991766,1.2495965,0.03999967,0.04,-8.491844,2.2440946102142334,-4.3690653,0.0,-0.0,0.0
2571.483333338465,-0.37842366,-0.47454727,0.27514592,-1.770882,0.55958974,0.95991766,1.2495965,0.03999967,0.04,-8.491844,2.2440946102142334,-4.3690653,0.0,-0.0,0.0
2571.500000005132,-0.37842366,-0.47454727,0.27514592,-1.770882,0.55958974,0.95991766,1.2495965,0.03999967,0.04,-8.491844,2.2440946102142334,-4.3690653,0.0,-0.0,0.0
2571.5166666717987,-0.37842366,-0.47454727,0.27514592,-1.770882,0.55958974,0.95991766,1.2495965,0.03999967,0.04,-8.491844,2.2440946102142334,-4.3690653,0.0,-0.0,0.0
2571.5333333384656,-0.37842366,-0.47454727,0.27514592,-1.770882,0.55958974,0.95991766,1.2495965,0.03999967,0.04,-8.491844,2.2440946102142334,-4.3690653,0.0,-0.0,0.0
2571.5500000051325,-0.37842366,-0.47454727,0.27514592,-1.770882,0.55958974,0.95991766,1.2495965,0.03999967,0.04,-8.491844,2.2440946102142334,-4.3690653,0.0,-0.0,0.0
2571.5666666717993,-0.37842366,-0.47454727,0.27514592,-1.770882,0.55958974,0.95991766,1.2495965,0.03999967,0.04,-8.491844,2.2440946102142334,-4.3690653,0.0,-0.0,0.0
2571.583333338466,-0.37842366,-0.47454727,0.27514592,-1.770882,0.55958974,0.95991766,1.2495965,0.03999967,0.04,-8.491844,2.2440946102142334,-4.3690653,0.0,-0.0,0.0
2571.600000005133,-0.37842366,-0.47454727,0.27514592,-1.770882,0.55958974,0.95991766,1.2495965,0.03999967,0.04,-8.491844,2.2440946102142334,-4.3690653,0.0,-0.0,0.0
2571.6166666718,-0.37842366,-0.47454727,0.27514592,-1.770882,0.55958974,0.95991766,1.2495965,0.03999967,0.04,-8.491844,2.2440946102142334,-4.3690653,0.0,-0.0,0.0
2571.633333338467,-0.37842366,-0.47454727,0.27514592,-1.770882,0.55958974,0.95991766,1.2495965,0.03999967,0.04,-8.491844,2.2440946102142334,-4.3690653,0.0,-0.0,0.0
2571.6500000051337,-0.37842366,-0.47454727,0.27514592,-1.770882,0.55958974,0.95991766,1.2495965,0.03999967,0.04,-8.491844,2.2440946102142334,-4.3690653,0.0,-0.0,0.0
2571.6666666718006,-0.37842366,-0.47454727,0.27514592,-1.770882,0.55958974,0.95991766,1.2495965,0.03999967,0.04,-8.491844,2.2440946102142334,-4.3690653,0.0,-0.0,0.0
2571.6833333384675,-0.37842366,-0.47454727,0.27514592,-1.770882,0.55958974,0.95991766,1.2495965,0.03999967,0.04,-8.491844,2.2440946102142334,-4.3690653,0.0,-0.0,0.0
2571.7000000051344,-0.37842366,-0.47454727,0.27514592,-1.770882,0.55958974,0.95991766,1.2495965,0.03999967,0.04,-8.491844,2.2440946102142334,-4.3690653,0.0,-0.0,0.0
2571.7166666718012,-0.37842366,-0.47454727,0.27514592,-1.770882,0.55958974,0.95991766,1.2495965,0.03999967,0.04,-8.491844,2.2440946102142334,-4.3690653,0.0,-0.0,0.0
2571.733333338468,-0.37842366,-0.47454727,0.27514592,-1.770882,0.55958974,0.95991766,1.2495965,0.03999967,0.04,-8.491844,2.2440946102142334,-4.3690653,0.0,-0.0,0.0
2571.750000005135,-0.37842366,-0.47454727,0.27514592,-1.770882,0.55958974,0.95991766,1.2495965,0.03999967,0.04,-8.491844,2.2440946102142334,-4.3690653,0.0,-0.0,0.0
2571.766666671802,-0.37842366,-0.47454727,0.27514592,-1.770882,0.55958974,0.95991766,1.2495965,0.03999967,0.04,-8.491844,2.2440946102142334,-4.3690653,0.0,-0.0,0.0
2571.7833333384688,-0.37842366,-0.47454727,0.27514592,-1.770882,0.55958974,0.95991766,1.2495965,0.03999967,0.04,-8.491844,2.2440946102142334,-4.3690653,0.0,-0.0,0.0
2571.8000000051356,-0.37842366,-0.47454727,0.27514592,-1.770882,0.55958974,0.95991766,1.2495965,0.03999967,0.04,-8.491844,2.2440946102142334,-4.3690653,0.0,-0.0,0.0
2571.8166666718025,-0.37842366,-0.47454727,0.27514592,-1.770882,0.55958974,0.95991766,1.2495965,0.03999967,0.04,-8.491844,2.2440946102142334,-4.3690653,0.0,-0.0,0.0
2571.8333333384694,-0.37842366,-0.47454727,0.27514592,-1.770882,0.55958974,0.95991766,1.2495965,0.03999967,0.04,-8.491844,2.2440946102142334,-4.3690653,0.0,-0.0,0.0
2571.8500000051363,-0.37842366,-0.47454727,0.27514592,-1.770882,0.55958974,0.95991766,1.2495965,0.03999967,0.04,-8.491844,2.2440946102142334,-4.3690653,0.0,-0.0,0.0
2571.866666671803,-0.37842366,-0.47454727,0.27514592,-1.770882,0.55958974,0.95991766,1.2495965,0.03999967,0.04,-8.491844,2.2440946102142334,-4.3690653,0.0,-0.0,0.0
2571.88333333847,-0.37842366,-0.47454727,0.27514592,-1.770882,0.55958974,0.95991766,1.2495965,0.03999967,0.04,-8.491844,2.2440946102142334,-4.3690653,0.0,-0.0,0.0
2571.900000005137,-0.37842366,-0.47454727,0.27514592,-1.770882,0.55958974,0.95991766,1.2495965,0.03999967,0.04,-8.491844,2.2440946102142334,-4.3690653,0.0,-0.0,0.0
2571.916666671804,-0.37842366,-0.47454727,0.27514592,-1.770882,0.55958974,0.95991766,1.2495965,0.03999967,0.04,-8.491844,2.2440946102142334,-4.3690653,0.0,-0.0,0.0
2571.9333333384707,-0.37842366,-0.47454727,0.27514592,-1.770882,0.55958974,0.95991766,1.2495965,0.03999967,0.04,-8.491844,2.2440946102142334,-4.3690653,0.0,-0.0,0.0
2571.9500000051376,-0.37842366,-0.47454727,0.27514592,-1.770882,0.55958974,0.95991766,1.2495965,0.03999967,0.04,-8.491844,2.2440946102142334,-4.3690653,0.0,-0.0,0.0
2571.9666666718044,-0.37842366,-0.47454727,0.27514592,-1.770882,0.55958974,0.95991766,1.2495965,0.03999967,0.04,-8.491844,2.2440946102142334,-4.3690653,0.0,-0.0,0.0
2571.9833333384713,-0.37842366,-0.47454727,0.27514592,-1.770882,0.55958974,0.95991766,1.2495965,0.03999967,0.04,-8.491844,2.2440946102142334,-4.3690653,0.0,-0.0,0.0
2572.000000005138,-0.37842366,-0.47454727,0.27514592,-1.770882,0.55958974,0.95991766,1.2495965,0.03999967,0.04,-8.491844,2.2440946102142334,-4.3690653,0.0,-0.0,0.0
2572.016666671805,-0.37842366,-0.47454727,0.27514592,-1.770882,0.55958974,0.95991766,1.2495965,0.03999967,0.04,-8.491844,2.2440946102142334,-4.3690653,0.0,-0.0,0.0
2572.033333338472,-0.37842366,-0.47454727,0.27514592,-1.770882,0.55958974,0.95991766,1.2495965,0.03999967,0.04,-8.491844,2.2440946102142334,-4.3690653,0.0,-0.0,0.0
2572.050000005139,-0.37842366,-0.47454727,0.27514592,-1.770882,0.55958974,0.95991766,1.2495965,0.03999967,0.04,-8.491844,2.2440946102142334,-4.3690653,0.0,-0.0,0.0
2572.0666666718057,-0.37842366,-0.47454727,0.27514592,-1.770882,0.55958974,0.95991766,1.2495965,0.03999967,0.04,-8.491844,2.2440946102142334,-4.3690653,0.0,-0.0,0.0
2572.0833333384726,-0.37842366,-0.47454727,0.27514592,-1.770882,0.55958974,0.95991766,1.2495965,0.03999967,0.04,-8.491844,2.2440946102142334,-4.3690653,0.0,-0.0,0.0
2572.1000000051395,-0.37842366,-0.47454727,0.27514592,-1.770882,0.55958974,0.95991766,1.2495965,0.03999967,0.04,-8.491844,2.2440946102142334,-4.3690653,0.0,-0.0,0.0
2572.1166666718063,-0.37842366,-0.47454727,0.27514592,-1.770882,0.55958974,0.95991766,1.2495965,0.03999967,0.04,-8.491844,2.2440946102142334,-4.3690653,0.0,-0.0,0.0
2572.133333338473,-0.37842366,-0.47454727,0.27514592,-1.770882,0.55958974,0.95991766,1.2495965,0.03999967,0.04,-8.491844,2.2440946102142334,-4.3690653,0.0,-0.0,0.0
2572.15000000514,-0.37842366,-0.47454727,0.27514592,-1.770882,0.55958974,0.95991766,1.2495965,0.03999967,0.04,-8.491844,2.2440946102142334,-4.3690653,0.0,-0.0,0.0
2572.166666671807,-0.37842366,-0.47454727,0.27514592,-1.770882,0.55958974,0.95991766,1.2495965,0.03999967,0.04,-8.491844,2.2440946102142334,-4.3690653,0.0,-0.0,0.0
2572.183333338474,-0.37842366,-0.47454727,0.27514592,-1.770882,0.55958974,0.95991766,1.2495965,0.03999967,0.04,-8.491844,2.2440946102142334,-4.3690653,0.0,-0.0,0.0
2572.2000000051407,-0.37842366,-0.47454727,0.27514592,-1.770882,0.55958974,0.95991766,1.2495965,0.03999967,0.04,-8.491844,2.2440946102142334,-4.3690653,0.0,-0.0,0.0
2572.2166666718076,-0.37842366,-0.47454727,0.27514592,-1.770882,0.55958974,0.95991766,1.2495965,0.03999967,0.04,-8.491844,2.2440946102142334,-4.3690653,0.0,-0.0,0.0
2572.2333333384745,-0.37842366,-0.47454727,0.27514592,-1.770882,0.55958974,0.95991766,1.2495965,0.03999967,0.04,-8.491844,2.2440946102142334,-4.3690653,0.0,-0.0,0.0
2572.2500000051414,-0.37842366,-0.47454727,0.27514592,-1.770882,0.55958974,0.95991766,1.2495965,0.03999967,0.04,-8.491844,2.2440946102142334,-4.3690653,0.0,-0.0,0.0
2572.2666666718083,-0.37842366,-0.47454727,0.27514592,-1.770882,0.55958974,0.95991766,1.2495965,0.03999967,0.04,-8.491844,2.2440946102142334,-4.3690653,0.0,-0.0,0.0
2572.283333338475,-0.37842366,-0.47454727,0.27514592,-1.770882,0.55958974,0.95991766,1.2495965,0.03999967,0.04,-8.491844,2.2440946102142334,-4.3690653,0.0,-0.0,0.0
2572.300000005142,-0.37842366,-0.47454727,0.27514592,-1.770882,0.55958974,0.95991766,1.2495965,0.03999967,0.04,-8.491844,2.2440946102142334,-4.3690653,0.0,-0.0,0.0
2572.316666671809,-0.37842366,-0.47454727,0.27514592,-1.770882,0.55958974,0.95991766,1.2495965,0.03999967,0.04,-8.491844,2.2440946102142334,-4.3690653,0.0,-0.0,0.0
2572.3333333384758,-0.37842366,-0.47454727,0.27514592,-1.770882,0.55958974,0.95991766,1.2495965,0.03999967,0.04,-8.491844,2.2440946102142334,-4.3690653,0.0,-0.0,0.0
2572.3500000051426,-0.37842366,-0.47454727,0.27514592,-1.770882,0.55958974,0.95991766,1.2495965,0.03999967,0.04,-8.491844,2.2440946102142334,-4.3690653,0.0,-0.0,0.0
2572.3666666718095,-0.37842366,-0.47454727,0.27514592,-1.770882,0.55958974,0.95991766,1.2495965,0.03999967,0.04,-8.491844,2.2440946102142334,-4.3690653,0.0,-0.0,0.0
2572.3833333384764,-0.37842366,-0.47454727,0.27514592,-1.770882,0.55958974,0.95991766,1.2495965,0.03999967,0.04,-8.491844,2.2440946102142334,-4.3690653,0.0,-0.0,0.0
2572.4000000051433,-0.37842366,-0.47454727,0.27514592,-1.770882,0.55958974,0.95991766,1.2495965,0.03999967,0.04,-8.491844,2.2440946102142334,-4.3690653,0.0,-0.0,0.0
2572.41666667181,-0.37842366,-0.47454727,0.27514592,-1.770882,0.55958974,0.95991766,1.2495965,0.03999967,0.04,-8.491844,2.2440946102142334,-4.3690653,0.0,-0.0,0.0
2572.433333338477,-0.37842366,-0.47454727,0.27514592,-1.770882,0.55958974,0.95991766,1.2495965,0.03999967,0.04,-8.491844,2.2440946102142334,-4.3690653,0.0,-0.0,0.0
2572.450000005144,-0.37842366,-0.47454727,0.27514592,-1.770882,0.55958974,0.95991766,1.2495965,0.03999967,0.04,-8.491844,2.2440946102142334,-4.3690653,0.0,-0.0,0.0
2572.466666671811,-0.37842366,-0.47454727,0.27514592,-1.770882,0.55958974,0.95991766,1.2495965,0.03999967,0.04,-8.491844,2.2440946102142334,-4.3690653,0.0,-0.0,0.0
2572.4833333384777,-0.37842366,-0.47454727,0.27514592,-1.770882,0.55958974,0.95991766,1.2495965,0.03999967,0.04,-8.491844,2.2440946102142334,-4.3690653,0.0,-0.0,0.0
2572.5000000051446,-0.37842366,-0.47454727,0.27514592,-1.770882,0.55958974,0.95991766,1.2495965,0.03999967,0.04,-8.491844,2.2440946102142334,-4.3690653,0.0,-0.0,0.0
2572.5166666718114,-0.37842366,-0.47454727,0.27514592,-1.770882,0.55958974,0.95991766,1.2495965,0.03999967,0.04,-8.491844,2.2440946102142334,-4.3690653,0.0,-0.0,0.0
2572.5333333384783,-0.37842366,-0.47454727,0.27514592,-1.770882,0.55958974,0.95991766,1.2495965,0.03999967,0.04,-8.491844,2.2440946102142334,-4.3690653,0.0,-0.0,0.0
2572.550000005145,-0.37842366,-0.47454727,0.27514592,-1.770882,0.55958974,0.95991766,1.2495965,0.03999967,0.04,-8.491844,2.2440946102142334,-4.3690653,0.0,-0.0,0.0
2572.566666671812,-0.37842366,-0.47454727,0.27514592,-1.770882,0.55958974,0.95991766,1.2495965,0.03999967,0.04,-8.491844,2.2440946102142334,-4.3690653,0.0,-0.0,0.0
2572.583333338479,-0.37842366,-0.47454727,0.27514592,-1.770882,0.55958974,0.95991766,1.2495965,0.03999967,0.04,-8.491844,2.2440946102142334,-4.3690653,0.0,-0.0,0.0
2572.600000005146,-0.37842366,-0.47454727,0.27514592,-1.770882,0.55958974,0.95991766,1.2495965,0.03999967,0.04,-8.491844,2.2440946102142334,-4.3690653,0.0,-0.0,0.0
2572.6166666718127,-0.37842366,-0.47454727,0.27514592,-1.770882,0.55958974,0.95991766,1.2495965,0.03999967,0.04,-8.491844,2.2440946102142334,-4.3690653,0.0,-0.0,0.0
2572.6333333384796,-0.37842366,-0.47454727,0.27514592,-1.770882,0.55958974,0.95991766,1.2495965,0.03999967,0.04,-8.491844,2.2440946102142334,-4.3690653,0.0,-0.0,0.0
2572.6500000051465,-0.37842366,-0.47454727,0.27514592,-1.770882,0.55958974,0.95991766,1.2495965,0.03999967,0.04,-8.491844,2.2440946102142334,-4.3690653,0.0,-0.0,0.0
